%
G17 G21 G40 G90 G64 P0.1
(2 1/2 Axis Profiling)
(1/16in 1.6mm 1 Flute Carbide Router)
T31 M06
S24000 M3
G0 Z6.
X45.70546 Y43.9337
G1 Z0.27 F240.5
X38.6686 Y42.39781 Z-1. F721.5
X42.66165 Y24.10338 F962.
X57.3266 Y27.95966
X53.47015 Y45.62846
X38.6686 Y42.39781
G0 Z6.
X66.9797 Y48.577
G1 Z0.27 F240.5
X59.94284 Y47.04111 Z-1. F721.5
X63.71458 Y29.76014 F962.
X78.26561 Y34.13867
X74.74439 Y50.27176
X59.94284 Y47.04111
G0 Z6.
X88.25382 Y53.22037
G1 Z0.27 F240.5
X81.21695 Y51.68448 Z-1. F721.5
X84.60158 Y36.17763 F962.
X99.02789 Y41.12719
X96.0185 Y54.91513
X81.21695 Y51.68448
G0 Z6.
X82.46585 Y91.16334
G1 Z0.27 F240.5
X75.42899 Y89.62745 Z-1. F721.5
X78.81361 Y74.1206 F962.
X93.23993 Y79.07016
X90.23054 Y92.85809
X75.42899 Y89.62745
G0 Z6.
X61.19174 Y86.51997
G1 Z0.27 F240.5
X54.15488 Y84.98408 Z-1. F721.5
X57.92661 Y67.70311 F962.
X72.47765 Y72.08164
X68.95643 Y88.21473
X54.15488 Y84.98408
G0 Z6.
X39.9175 Y81.87667
G1 Z0.27 F240.5
X32.88064 Y80.34078 Z-1. F721.5
X36.87368 Y62.04635 F962.
X51.53864 Y65.90263
X47.68219 Y83.57143
X32.88064 Y80.34078
G0 Z6.
X113.04061 Y90.46452
G1 Z0.27 F240.5
X111.50478 Y97.5014 Z-1. F721.5
X96.70323 Y94.27081 F962.
X99.5171 Y81.3784
X113.79967 Y86.98668
X111.50478 Y97.5014
G0 Z6.
X133.29117 Y95.62198
G1 Z0.27 F240.5
X134.12059 Y95.99737 Z0.10947 F721.5
X132.77888 Y102.14477 Z-1.
X117.97734 Y98.91418 F962.
X120.00807 Y89.61013
X134.12059 Y95.99737
X132.77888 Y102.14477
G0 Z6.
X139.07914 Y57.67901
G1 Z0.27 F240.5
X139.90856 Y58.0544 Z0.10947 F721.5
X138.56685 Y64.2018 Z-1.
X123.7653 Y60.97121 F962.
X125.79603 Y51.66716
X139.90856 Y58.0544
X138.56685 Y64.2018
G0 Z6.
X118.82858 Y52.52155
G1 Z0.27 F240.5
X117.29274 Y59.55843 Z-1. F721.5
X102.49119 Y56.32784 F962.
X105.30506 Y43.43543
X119.58763 Y49.04371
X117.29274 Y59.55843
G0 Z6.
X201.01246 Y62.68238
G1 Z0.27 F240.5
Y55.47985 Z-1. F721.5
G17
G03 X210.73733 Y67.52486 I-35.17661 J38.34913 F962.
X210.79445 Y79.91162 I-11.08139 J6.24461
X201.01246 Y90.43443 I-24.65878 J-13.1147
G1 Y55.47985
G0 Z6.
X184.88652 Y104.79048
G1 Z0.27 F240.5
Y111.993 Z-1. F721.5
G03 X175.16165 Y99.94799 I35.17661 J-38.34913 F962.
X175.10453 Y87.56123 I11.08139 J-6.24461
X184.88652 Y77.03843 I24.65877 J13.1147
G1 Y111.993
G0 Z6.
(2 1/2 Axis Profiling-1)
(1/16in 1.6mm 1 Flute Carbide Router)
X2.99077 Y0.02757
G1 Z0.27 F240.5
Y0.03766 Z0.26822 F721.5
Y0. Z0.26158
Y0.03766 Z0.25494
Y0. Z0.2483
Y0.03766 Z0.24166
Y0. Z0.23502
Y0.03766 Z0.22838
Y0. Z0.22174
Y0.03766 Z0.2151
Y0. Z0.20846
Y0.03766 Z0.20182
Y0. Z0.19518
Y0.03766 Z0.18854
Y0. Z0.1819
Y0.03766 Z0.17526
Y0. Z0.16862
Y0.03766 Z0.16198
Y0. Z0.15534
Y0.03766 Z0.1487
Y0. Z0.14206
Y0.03766 Z0.13542
Y0. Z0.12878
Y0.03766 Z0.12214
Y0. Z0.1155
Y0.03766 Z0.10886
Y0. Z0.10222
Y0.03766 Z0.09559
Y0. Z0.08894
Y0.03766 Z0.0823
Y0. Z0.07566
Y0.03766 Z0.06902
Y0. Z0.06238
Y0.03766 Z0.05574
Y0. Z0.04911
Y0.03766 Z0.04246
Y0. Z0.03582
Y0.03766 Z0.02918
Y0. Z0.02255
Y0.03766 Z0.01591
Y0. Z0.00927
Y0.03766 Z0.00263
Y0. Z-0.00401
Y0.03766 Z-0.01065
Y0. Z-0.01729
Y0.03766 Z-0.02393
Y0. Z-0.03057
Y0.03766 Z-0.03721
Y0. Z-0.04385
Y0.03766 Z-0.05049
Y0. Z-0.05713
Y0.03766 Z-0.06377
Y0. Z-0.07041
Y0.03766 Z-0.07705
Y0. Z-0.08369
Y0.03766 Z-0.09033
Y0. Z-0.09697
Y0.03766 Z-0.10361
Y0. Z-0.11025
Y0.03766 Z-0.11689
Y0. Z-0.12353
Y0.03766 Z-0.13017
Y0. Z-0.13681
Y0.03766 Z-0.14345
Y0. Z-0.15009
Y0.03766 Z-0.15673
Y0. Z-0.16337
Y0.03766 Z-0.17001
Y0. Z-0.17665
Y0.03766 Z-0.18329
Y0. Z-0.18993
Y0.03766 Z-0.19657
Y0. Z-0.20321
Y0.03766 Z-0.20985
Y0. Z-0.21649
Y0.03766 Z-0.22313
Y0. Z-0.22977
Y0.03766 Z-0.23641
Y0. Z-0.24305
Y0.03766 Z-0.24969
Y0. Z-0.25633
Y0.03766 Z-0.26297
Y0. Z-0.26961
Y0.03766 Z-0.27625
Y0. Z-0.28289
Y0.03766 Z-0.28953
Y0. Z-0.29617
Y0.03766 Z-0.30281
Y0. Z-0.30945
Y0.03766 Z-0.31609
Y0. Z-0.32273
Y0.03766 Z-0.32937
Y0. Z-0.33601
Y0.03766 Z-0.34265
Y0. Z-0.34929
Y0.03766 Z-0.35593
Y0. Z-0.36257
Y0.03766 Z-0.36921
Y0. Z-0.37585
Y0.03766 Z-0.38249
Y0. Z-0.38913
Y0.03766 Z-0.39577
Y0. Z-0.40241
Y0.03766 Z-0.40905
Y0. Z-0.41569
Y0.03766 Z-0.42233
Y0. Z-0.42897
Y0.03766 Z-0.43561
Y0. Z-0.44225
Y0.03766 Z-0.44889
Y0. Z-0.45553
Y0.03766 Z-0.46217
Y0. Z-0.46881
Y0.03766 Z-0.47545
Y0. Z-0.48209
Y0.03766 Z-0.48873
Y0. Z-0.49537
Y0.03766 Z-0.50201
Y0. Z-0.50865
Y0.03766 Z-0.51529
Y0. Z-0.52193
Y0.03766 Z-0.52857
Y0. Z-0.53521
Y0.03766 Z-0.54185
Y0. Z-0.54849
Y0.03766 Z-0.55513
Y0. Z-0.56177
Y0.03766 Z-0.56841
Y0. Z-0.57505
Y0.03766 Z-0.58169
Y0. Z-0.58833
Y0.03766 Z-0.59497
Y0. Z-0.60161
Y0.03766 Z-0.60825
Y0. Z-0.61489
Y0.03766 Z-0.62153
Y0. Z-0.62817
Y0.03766 Z-0.6348
Y0. Z-0.64145
Y0.03766 Z-0.64809
Y0. Z-0.65472
Y0.03766 Z-0.66137
Y0. Z-0.66801
Y0.03766 Z-0.67465
Y0. Z-0.68129
Y0.03766 Z-0.68792
Y0. Z-0.69456
Y0.03766 Z-0.7012
Y0. Z-0.70784
Y0.03766 Z-0.71448
Y0. Z-0.72112
Y0.03766 Z-0.72776
Y0. Z-0.7344
Y0.03766 Z-0.74104
Y0. Z-0.74768
Y0.03766 Z-0.75432
Y0. Z-0.76096
Y0.03766 Z-0.7676
Y0. Z-0.77424
Y0.03766 Z-0.78088
Y0. Z-0.78752
Y0.03766 Z-0.79416
Y0. Z-0.8008
Y0.03766 Z-0.80744
Y0. Z-0.81408
Y0.03766 Z-0.82072
Y0. Z-0.82736
Y0.03766 Z-0.834
Y0. Z-0.84064
Y0.03766 Z-0.84728
Y0. Z-0.85392
Y0.03766 Z-0.86056
Y0. Z-0.8672
Y0.03766 Z-0.87384
Y0. Z-0.88048
Y0.03766 Z-0.88712
Y0. Z-0.89376
Y0.03766 Z-0.9004
Y0. Z-0.90704
Y0.03766 Z-0.91368
Y0. Z-0.92032
Y0.03766 Z-0.92696
Y0. Z-0.9336
Y0.03766 Z-0.94024
Y0. Z-0.94688
Y0.03766 Z-0.95352
Y0. Z-0.96016
Y0.03766 Z-0.9668
Y0. Z-0.97344
Y0.03766 Z-0.98008
Y0. Z-0.98672
Y0.03766 Z-0.99336
Y0. Z-1.
Y0.03766 F962.
G0 Z6.
X8.27329 Y104.75277
G1 Z0.27 F240.5
X1.07251 Y104.59406 Z-1. F721.5
G02 X-0.4 Y104.70115 I-0.53651 J2.80029 F962.
G1 X-0.56568 Y104.82828
X-0.69282 Y104.99397
X-0.77274 Y105.18691
X-0.8 Y105.39397
Y126.08015
G02 X-0.08893 Y126.87519 I0.8 J0.
G1 X3.26107 Y127.24992
G02 X4.08038 Y126.7813 I0.08893 J-0.79504
G1 X11.38816 Y110.42992
X17.34019 Y110.60973
X26.21275 Y110.96224
X35.27739 Y130.44453
X35.38647 Y130.61719
X35.53571 Y130.7566
X35.71539 Y130.85367
X35.91379 Y130.90209
X39.93379 Y131.35173
G02 X40.74952 Y130.891 I0.08893 J-0.79504
G1 X49.28298 Y112.33877
X55.30175 Y112.80621
X62.62112 Y113.43964
X72.62199 Y134.62534
X72.73132 Y134.79653
X72.88024 Y134.93467
X73.05915 Y135.03085
X73.25651 Y135.07887
X77.27651 Y135.52851
G02 X78.09197 Y135.06836 I0.08893 J-0.79504
G1 X86.86911 Y116.02641
X92.79522 Y116.76899
X100.0808 Y117.74481
X109.96397 Y138.80053
X110.0732 Y138.9723
X110.22225 Y139.11094
X110.40146 Y139.20748
X110.59923 Y139.25565
X114.61923 Y139.70529
G02 X115.43721 Y139.23961 I0.08893 J-0.79504
G1 X123.528 Y121.32999
X129.31048 Y122.31764
X138.67108 Y124.01576
X147.30282 Y142.96897
X147.41153 Y143.14376
X147.56123 Y143.28503
X147.74203 Y143.38343
X147.94195 Y143.43244
X150.62195 Y143.73219
G02 X151.51088 Y142.93715 I0.08893 J-0.79504
G1 Y121.45789
G02 X150.86339 Y120.67256 I-0.8 J0.
X1.07251 Y104.59406 I-161.2984 J796.91013
G0 Z6.
X162.99454 Y110.28626
G1 Z0.27 F240.5
Y103.8213 Z-0.86995 F721.5
X162.96678 Y103.6124 Z-0.90711
X162.88544 Y103.418 Z-0.94426
X162.75616 Y103.25158 Z-0.98142
X162.67203 Y103.18813 Z-1.
G02 X87.92039 Y69.82555 I-205.45513 J359.91445 F962.
X8.42624 Y48.49106 I-203.2976 J598.73609
X7.69559 Y49.28805 I0.06935 J0.79699
G1 Y79.9519
G02 X8.325 Y80.73349 I0.8 J0.
G1 X162.02394 Y114.2802
G02 X162.99454 Y113.4986 I0.1706 J-0.7816
G1 Y103.8213
X162.96678 Y103.6124
X162.88544 Y103.418
X162.75616 Y103.25158
X162.67203 Y103.18813
G0 Z6.
X195.23952 Y92.67301
G1 Z0.27 F240.5
X195.39246 Z0.24303 F721.5
Y98.88965 Z-0.85313
X195.42785 Y99.12499 Z-0.89509
X195.53092 Y99.33951 Z-0.93706
X195.69252 Y99.51421 Z-0.97902
X195.79545 Y99.57392 Z-1.
X195.89837 Y99.63364 F962.
X196.13024 Y99.68723
X196.36762 Y99.67024
X196.5895 Y99.58417
X202.55198 Y96.17128
X206.6593 Y93.25559
X212.01701 Y88.06788
X212.13065 Y87.93008
X216.07398 Y81.85407
X217.36829 Y78.63168
X217.41517 Y78.4643
X218.22623 Y73.57013
G02 X217.99901 Y70.76497 I-10.74799 J-0.54116
G1 X216.47914 Y66.06168
X216.40433 Y65.89681
X213.62548 Y61.27948
X206.19699 Y52.81401
X191.80641 Y39.57393
X181.98942 Y31.87726
X161.79127 Y18.62682
G02 X160.55245 Y19.29573 I-0.43882 J0.66891
G1 Y42.21007
G02 X161.35245 Y43.01007 I0.8 J0.
G1 X164.03245
X164.23951 Y42.98281
X164.43246 Y42.90288
X164.59814 Y42.77575
X164.72528 Y42.61006
X171.30197 Y31.21876
G03 X185.79888 Y41.84758 I-114.12451 J170.85796
G1 X192.73745 Y68.94793
G02 X193.51246 Y69.5495 I0.77501 J-0.19843
G1 X195.39246
Y86.38301
G02 X194.05246 Y87.18301 I-0.37397 J0.89586
G1 Y91.87301
G02 X195.39246 Y92.67301 I0.94455 J-0.05987
G1 Y98.88965
X195.42785 Y99.12499
X195.53092 Y99.33951
X195.69252 Y99.51421
X195.79545 Y99.57392
G0 Z6.
X190.65946 Y74.79984
G1 Z0.27 F240.5
X190.50652 Z0.24303 F721.5
Y68.5832 Z-0.85313
X190.47113 Y68.34786 Z-0.89509
X190.36806 Y68.13335 Z-0.93706
X190.20646 Y67.95864 Z-0.97902
X190.10353 Y67.89893 Z-1.
X190.00061 Y67.83921 F962.
X189.76874 Y67.78562
X189.53136 Y67.80261
X189.30948 Y67.88868
X183.347 Y71.30157
X179.23968 Y74.21726
X173.88197 Y79.40498
X173.76833 Y79.54277
X169.825 Y85.61878
X168.53069 Y88.84117
X168.48381 Y89.00855
X167.67275 Y93.90272
G02 X167.89997 Y96.70789 I10.74798 J0.54117
G1 X169.41984 Y101.41117
X169.49465 Y101.57604
X172.2735 Y106.19338
X179.70199 Y114.65884
X194.09257 Y127.89892
X203.90956 Y135.5956
X224.10771 Y148.84603
G02 X225.34652 Y148.17712 I0.43881 J-0.66891
G1 Y125.26279
G02 X224.54652 Y124.46279 I-0.8 J0.
G1 X221.86652
X221.65947 Y124.49005
X221.46652 Y124.56997
X221.30084 Y124.6971
X221.1737 Y124.86279
X214.59701 Y136.2541
G03 X200.1001 Y125.62528 I114.12451 J-170.85797
G1 X193.16152 Y98.52492
G02 X192.38652 Y97.92335 I-0.775 J0.19843
G1 X190.50652
Y81.08984
G02 X191.84652 Y80.28984 I0.37397 J-0.89586
G1 Y75.59984
G02 X190.50652 Y74.79984 I-0.94455 J0.05988
G1 Y68.5832
X190.47113 Y68.34786
X190.36806 Y68.13335
X190.20646 Y67.95864
X190.10353 Y67.89893
G0 Z6.
X168.7825 Y72.76475
G1 Z0.27 F240.5
Y65.87833 Z-0.94426 F721.5
X168.75474 Y65.66943 Z-0.98142
X168.71407 Y65.57223 Z-1.
X168.6734 Y65.47503 F962.
X168.54413 Y65.30861
X168.37587 Y65.18172
G02 X93.70835 Y31.88258 I-205.89874 J361.32809
X14.2142 Y10.54809 I-203.29759 J598.73609
X13.48356 Y11.34508 I0.06936 J0.79699
G1 Y42.00893
G02 X14.11296 Y42.79053 I0.8 J0.
G1 X167.81191 Y76.33724
G02 X168.7825 Y75.55564 I0.17059 J-0.7816
G1 Y65.87833
X168.75474 Y65.66943
X168.71407 Y65.57223
G0 Z6.
X156.46439 Y155.21157
G1 Z0.27 F240.5
X163.66517 Y155.37028 Z-1. F721.5
G02 X165.13768 Y155.2632 I0.53651 J-2.80028 F962.
G1 X165.30336 Y155.13607
X165.4305 Y154.97038
X165.51042 Y154.77744
X165.53768 Y154.57038
Y133.8842
G02 X164.82661 Y133.08916 I-0.8 J0.
G1 X161.47661 Y132.71443
G02 X160.6573 Y133.18304 I-0.08893 J0.79504
G1 X153.34951 Y149.53443
X147.39749 Y149.35461
X138.52493 Y149.00211
X129.46029 Y129.51982
X129.35121 Y129.34716
X129.20197 Y129.20775
X129.02229 Y129.11067
X128.82388 Y129.06225
X124.80388 Y128.61262
G02 X123.98816 Y129.07335 I-0.08892 J0.79504
G1 X115.4547 Y147.62558
X109.43593 Y147.15814
X102.11656 Y146.52471
X92.11568 Y125.33901
X92.00636 Y125.16782
X91.85744 Y125.02968
X91.67853 Y124.9335
X91.48117 Y124.88547
X87.46117 Y124.43584
G02 X86.64571 Y124.89599 I-0.08893 J0.79504
G1 X77.86857 Y143.93794
X71.94246 Y143.19535
X64.65688 Y142.21953
X54.77371 Y121.16381
X54.66448 Y120.99205
X54.51543 Y120.85341
X54.33622 Y120.75687
X54.13845 Y120.70869
X50.11845 Y120.25906
G02 X49.30046 Y120.72474 I-0.08893 J0.79504
G1 X41.20968 Y138.63436
X35.42719 Y137.64671
X26.0666 Y135.94859
X17.43485 Y116.99538
X17.32615 Y116.82059
X17.17644 Y116.67932
X16.99565 Y116.58092
X16.79573 Y116.53191
X14.11573 Y116.23216
G02 X13.2268 Y117.0272 I-0.08893 J0.79504
G1 Y138.50646
G02 X13.87429 Y139.29179 I0.8 J0.
X163.66517 Y155.37028 I161.2984 J-796.91013
G0 Z6.
M30
%
