G00 G49 G40.1 G17 G80 G50 G90
G21
(Hole Pocketing)
(SlotDrill 2mm Carbide)
M6 T12
M03 S20000
G00 Z15.0000
X6.4139 Y6.3633
G01 Z2.6350  F250.0
X6.4140 Y6.3640 Z2.6324  F500.0
X6.4126 Y6.3755 Z2.5905
X6.4086 Y6.3864 Z2.5486
X6.4023 Y6.3961 Z2.5066
X6.3938 Y6.4041 Z2.4647
X6.3838 Y6.4099 Z2.4227
X6.3726 Y6.4132 Z2.3808
X6.3611 Y6.4139 Z2.3388
X6.3496 Y6.4119 Z2.2969
X6.3390 Y6.4073 Z2.2550
X6.3296 Y6.4003 Z2.2130
X6.3222 Y6.3914 Z2.1711
X6.3170 Y6.3811 Z2.1291
X6.3143 Y6.3698 Z2.0872
Y6.3582 Z2.0452
X6.3170 Y6.3469 Z2.0033
X6.3222 Y6.3365 Z1.9614
X6.3296 Y6.3276 Z1.9194
X6.3390 Y6.3207 Z1.8775
X6.3496 Y6.3161 Z1.8355
X6.3611 Y6.3140 Z1.7936
X6.3726 Y6.3147 Z1.7517
X6.3838 Y6.3181 Z1.7097
X6.3938 Y6.3239 Z1.6678
X6.4023 Y6.3318 Z1.6258
X6.4086 Y6.3415 Z1.5839
X6.4126 Y6.3524 Z1.5419
X6.4139 Y6.3633 Z1.5000
X6.4256 Y6.3952
X6.4152 Y6.4360
X6.3784 Y6.4706
X6.3207 Y6.4832
X6.2560 Y6.4624
X6.2040 Y6.4058
X6.1842 Y6.3223
X6.2095 Y6.2310
X6.2820 Y6.1566
X6.3898 Y6.1231
X6.5031 Y6.1562
G17
G03X6.2249Y6.5717I-0.1391J0.2078
X6.5031Y6.1562I0.1391J-0.2077
G01 X6.4139 Y6.3633
X6.4140 Y6.3640 Z1.4989
X6.4126 Y6.3755 Z1.4804
X6.4086 Y6.3864 Z1.4619
X6.4023 Y6.3961 Z1.4434
X6.3938 Y6.4041 Z1.4250
X6.3838 Y6.4099 Z1.4065
X6.3726 Y6.4132 Z1.3880
X6.3611 Y6.4139 Z1.3695
X6.3496 Y6.4119 Z1.3511
X6.3390 Y6.4073 Z1.3326
X6.3296 Y6.4003 Z1.3141
X6.3222 Y6.3914 Z1.2956
X6.3170 Y6.3811 Z1.2772
X6.3143 Y6.3698 Z1.2587
Y6.3582 Z1.2402
X6.3170 Y6.3469 Z1.2217
X6.3222 Y6.3365 Z1.2032
X6.3296 Y6.3276 Z1.1848
X6.3390 Y6.3207 Z1.1663
X6.3496 Y6.3161 Z1.1478
X6.3611 Y6.3140 Z1.1293
X6.3726 Y6.3147 Z1.1109
X6.3838 Y6.3181 Z1.0924
X6.3938 Y6.3239 Z1.0739
X6.4023 Y6.3318 Z1.0554
X6.4086 Y6.3415 Z1.0370
X6.4126 Y6.3524 Z1.0185
X6.4139 Y6.3633 Z1.0000
X6.4256 Y6.3952
X6.4152 Y6.4360
X6.3784 Y6.4706
X6.3207 Y6.4832
X6.2560 Y6.4624
X6.2040 Y6.4058
X6.1842 Y6.3223
X6.2095 Y6.2310
X6.2820 Y6.1566
X6.3898 Y6.1231
X6.5031 Y6.1562
G03X6.2249Y6.5717I-0.1391J0.2078
X6.5031Y6.1562I0.1391J-0.2077
G01 X6.4139 Y6.3633
X6.4140 Y6.3640 Z0.9989
X6.4126 Y6.3755 Z0.9804
X6.4086 Y6.3864 Z0.9619
X6.4023 Y6.3961 Z0.9434
X6.3938 Y6.4041 Z0.9250
X6.3838 Y6.4099 Z0.9065
X6.3726 Y6.4132 Z0.8880
X6.3611 Y6.4139 Z0.8695
X6.3496 Y6.4119 Z0.8511
X6.3390 Y6.4073 Z0.8326
X6.3296 Y6.4003 Z0.8141
X6.3222 Y6.3914 Z0.7956
X6.3170 Y6.3811 Z0.7772
X6.3143 Y6.3698 Z0.7587
Y6.3582 Z0.7402
X6.3170 Y6.3469 Z0.7217
X6.3222 Y6.3365 Z0.7032
X6.3296 Y6.3276 Z0.6848
X6.3390 Y6.3207 Z0.6663
X6.3496 Y6.3161 Z0.6478
X6.3611 Y6.3140 Z0.6293
X6.3726 Y6.3147 Z0.6109
X6.3838 Y6.3181 Z0.5924
X6.3938 Y6.3239 Z0.5739
X6.4023 Y6.3318 Z0.5554
X6.4086 Y6.3415 Z0.5370
X6.4126 Y6.3524 Z0.5185
X6.4139 Y6.3633 Z0.5000
X6.4256 Y6.3952
X6.4152 Y6.4360
X6.3784 Y6.4706
X6.3207 Y6.4832
X6.2560 Y6.4624
X6.2040 Y6.4058
X6.1842 Y6.3223
X6.2095 Y6.2310
X6.2820 Y6.1566
X6.3898 Y6.1231
X6.5031 Y6.1562
G03X6.2249Y6.5717I-0.1391J0.2078
X6.5031Y6.1562I0.1391J-0.2077
G01 X6.4139 Y6.3633
X6.4140 Y6.3640 Z0.4989
X6.4126 Y6.3755 Z0.4804
X6.4086 Y6.3864 Z0.4619
X6.4023 Y6.3961 Z0.4434
X6.3938 Y6.4041 Z0.4250
X6.3838 Y6.4099 Z0.4065
X6.3726 Y6.4132 Z0.3880
X6.3611 Y6.4139 Z0.3695
X6.3496 Y6.4119 Z0.3511
X6.3390 Y6.4073 Z0.3326
X6.3296 Y6.4003 Z0.3141
X6.3222 Y6.3914 Z0.2956
X6.3170 Y6.3811 Z0.2772
X6.3143 Y6.3698 Z0.2587
Y6.3582 Z0.2402
X6.3170 Y6.3469 Z0.2217
X6.3222 Y6.3365 Z0.2032
X6.3296 Y6.3276 Z0.1848
X6.3390 Y6.3207 Z0.1663
X6.3496 Y6.3161 Z0.1478
X6.3611 Y6.3140 Z0.1293
X6.3726 Y6.3147 Z0.1109
X6.3838 Y6.3181 Z0.0924
X6.3938 Y6.3239 Z0.0739
X6.4023 Y6.3318 Z0.0554
X6.4086 Y6.3415 Z0.0370
X6.4126 Y6.3524 Z0.0185
X6.4139 Y6.3633 Z0.0000
X6.4256 Y6.3952
X6.4152 Y6.4360
X6.3784 Y6.4706
X6.3207 Y6.4832
X6.2560 Y6.4624
X6.2040 Y6.4058
X6.1842 Y6.3223
X6.2095 Y6.2310
X6.2820 Y6.1566
X6.3898 Y6.1231
X6.5031 Y6.1562
G03X6.2249Y6.5717I-0.1391J0.2078
X6.5031Y6.1562I0.1391J-0.2077
G01 X6.4139 Y6.3633
X6.4140 Y6.3640 Z-0.0011
X6.4126 Y6.3755 Z-0.0196
X6.4086 Y6.3864 Z-0.0381
X6.4023 Y6.3961 Z-0.0566
X6.3938 Y6.4041 Z-0.0750
X6.3838 Y6.4099 Z-0.0935
X6.3726 Y6.4132 Z-0.1120
X6.3611 Y6.4139 Z-0.1305
X6.3496 Y6.4119 Z-0.1489
X6.3390 Y6.4073 Z-0.1674
X6.3296 Y6.4003 Z-0.1859
X6.3222 Y6.3914 Z-0.2044
X6.3170 Y6.3811 Z-0.2228
X6.3143 Y6.3698 Z-0.2413
Y6.3582 Z-0.2598
X6.3170 Y6.3469 Z-0.2783
X6.3222 Y6.3365 Z-0.2968
X6.3296 Y6.3276 Z-0.3152
X6.3390 Y6.3207 Z-0.3337
X6.3496 Y6.3161 Z-0.3522
X6.3611 Y6.3140 Z-0.3707
X6.3726 Y6.3147 Z-0.3891
X6.3838 Y6.3181 Z-0.4076
X6.3938 Y6.3239 Z-0.4261
X6.4023 Y6.3318 Z-0.4446
X6.4086 Y6.3415 Z-0.4630
X6.4126 Y6.3524 Z-0.4815
X6.4139 Y6.3633 Z-0.5000
X6.4256 Y6.3952
X6.4152 Y6.4360
X6.3784 Y6.4706
X6.3207 Y6.4832
X6.2560 Y6.4624
X6.2040 Y6.4058
X6.1842 Y6.3223
X6.2095 Y6.2310
X6.2820 Y6.1566
X6.3898 Y6.1231
X6.5031 Y6.1562
G03X6.2249Y6.5717I-0.1391J0.2078
X6.5031Y6.1562I0.1391J-0.2077
G01 X6.4139 Y6.3633
X6.4140 Y6.3640 Z-0.5011
X6.4126 Y6.3755 Z-0.5196
X6.4086 Y6.3864 Z-0.5381
X6.4023 Y6.3961 Z-0.5566
X6.3938 Y6.4041 Z-0.5750
X6.3838 Y6.4099 Z-0.5935
X6.3726 Y6.4132 Z-0.6120
X6.3611 Y6.4139 Z-0.6305
X6.3496 Y6.4119 Z-0.6489
X6.3390 Y6.4073 Z-0.6674
X6.3296 Y6.4003 Z-0.6859
X6.3222 Y6.3914 Z-0.7044
X6.3170 Y6.3811 Z-0.7228
X6.3143 Y6.3698 Z-0.7413
Y6.3582 Z-0.7598
X6.3170 Y6.3469 Z-0.7783
X6.3222 Y6.3365 Z-0.7968
X6.3296 Y6.3276 Z-0.8152
X6.3390 Y6.3207 Z-0.8337
X6.3496 Y6.3161 Z-0.8522
X6.3611 Y6.3140 Z-0.8707
X6.3726 Y6.3147 Z-0.8891
X6.3838 Y6.3181 Z-0.9076
X6.3938 Y6.3239 Z-0.9261
X6.4023 Y6.3318 Z-0.9446
X6.4086 Y6.3415 Z-0.9630
X6.4126 Y6.3524 Z-0.9815
X6.4139 Y6.3633 Z-1.0000
X6.4256 Y6.3952
X6.4152 Y6.4360
X6.3784 Y6.4706
X6.3207 Y6.4832
X6.2560 Y6.4624
X6.2040 Y6.4058
X6.1842 Y6.3223
X6.2095 Y6.2310
X6.2820 Y6.1566
X6.3898 Y6.1231
X6.5031 Y6.1562
G03X6.2249Y6.5717I-0.1391J0.2078
X6.5031Y6.1562I0.1391J-0.2077
G01 X6.4139 Y6.3633
X6.3640 Y6.3640
G00 Z15.0000
X-6.3140 Y6.3633
G01 Z2.6350  F250.0
Y6.3640 Z2.6324  F500.0
X-6.3153 Y6.3755 Z2.5905
X-6.3193 Y6.3864 Z2.5486
X-6.3257 Y6.3961 Z2.5066
X-6.3341 Y6.4041 Z2.4647
X-6.3442 Y6.4099 Z2.4227
X-6.3553 Y6.4132 Z2.3808
X-6.3669 Y6.4139 Z2.3388
X-6.3783 Y6.4119 Z2.2969
X-6.3890 Y6.4073 Z2.2550
X-6.3983 Y6.4003 Z2.2130
X-6.4057 Y6.3914 Z2.1711
X-6.4109 Y6.3811 Z2.1291
X-6.4136 Y6.3698 Z2.0872
Y6.3582 Z2.0452
X-6.4109 Y6.3469 Z2.0033
X-6.4057 Y6.3365 Z1.9614
X-6.3983 Y6.3276 Z1.9194
X-6.3890 Y6.3207 Z1.8775
X-6.3783 Y6.3161 Z1.8355
X-6.3669 Y6.3140 Z1.7936
X-6.3553 Y6.3147 Z1.7517
X-6.3442 Y6.3181 Z1.7097
X-6.3341 Y6.3239 Z1.6678
X-6.3257 Y6.3318 Z1.6258
X-6.3193 Y6.3415 Z1.5839
X-6.3153 Y6.3524 Z1.5419
X-6.3140 Y6.3633 Z1.5000
X-6.3023 Y6.3952
X-6.3127 Y6.4360
X-6.3495 Y6.4706
X-6.4073 Y6.4832
X-6.4719 Y6.4624
X-6.5239 Y6.4058
X-6.5437 Y6.3223
X-6.5184 Y6.2310
X-6.4460 Y6.1566
X-6.3382 Y6.1231
X-6.2249 Y6.1562
G03X-6.5031Y6.5717I-0.1391J0.2078
X-6.2249Y6.1562I0.1391J-0.2077
G01 X-6.3140 Y6.3633
Y6.3640 Z1.4989
X-6.3153 Y6.3755 Z1.4804
X-6.3193 Y6.3864 Z1.4619
X-6.3257 Y6.3961 Z1.4434
X-6.3341 Y6.4041 Z1.4250
X-6.3442 Y6.4099 Z1.4065
X-6.3553 Y6.4132 Z1.3880
X-6.3669 Y6.4139 Z1.3695
X-6.3783 Y6.4119 Z1.3511
X-6.3890 Y6.4073 Z1.3326
X-6.3983 Y6.4003 Z1.3141
X-6.4057 Y6.3914 Z1.2956
X-6.4109 Y6.3811 Z1.2772
X-6.4136 Y6.3698 Z1.2587
Y6.3582 Z1.2402
X-6.4109 Y6.3469 Z1.2217
X-6.4057 Y6.3365 Z1.2032
X-6.3983 Y6.3276 Z1.1848
X-6.3890 Y6.3207 Z1.1663
X-6.3783 Y6.3161 Z1.1478
X-6.3669 Y6.3140 Z1.1293
X-6.3553 Y6.3147 Z1.1109
X-6.3442 Y6.3181 Z1.0924
X-6.3341 Y6.3239 Z1.0739
X-6.3257 Y6.3318 Z1.0554
X-6.3193 Y6.3415 Z1.0370
X-6.3153 Y6.3524 Z1.0185
X-6.3140 Y6.3633 Z1.0000
X-6.3023 Y6.3952
X-6.3127 Y6.4360
X-6.3495 Y6.4706
X-6.4073 Y6.4832
X-6.4719 Y6.4624
X-6.5239 Y6.4058
X-6.5437 Y6.3223
X-6.5184 Y6.2310
X-6.4460 Y6.1566
X-6.3382 Y6.1231
X-6.2249 Y6.1562
G03X-6.5031Y6.5717I-0.1391J0.2078
X-6.2249Y6.1562I0.1391J-0.2077
G01 X-6.3140 Y6.3633
Y6.3640 Z0.9989
X-6.3153 Y6.3755 Z0.9804
X-6.3193 Y6.3864 Z0.9619
X-6.3257 Y6.3961 Z0.9434
X-6.3341 Y6.4041 Z0.9250
X-6.3442 Y6.4099 Z0.9065
X-6.3553 Y6.4132 Z0.8880
X-6.3669 Y6.4139 Z0.8695
X-6.3783 Y6.4119 Z0.8511
X-6.3890 Y6.4073 Z0.8326
X-6.3983 Y6.4003 Z0.8141
X-6.4057 Y6.3914 Z0.7956
X-6.4109 Y6.3811 Z0.7772
X-6.4136 Y6.3698 Z0.7587
Y6.3582 Z0.7402
X-6.4109 Y6.3469 Z0.7217
X-6.4057 Y6.3365 Z0.7032
X-6.3983 Y6.3276 Z0.6848
X-6.3890 Y6.3207 Z0.6663
X-6.3783 Y6.3161 Z0.6478
X-6.3669 Y6.3140 Z0.6293
X-6.3553 Y6.3147 Z0.6109
X-6.3442 Y6.3181 Z0.5924
X-6.3341 Y6.3239 Z0.5739
X-6.3257 Y6.3318 Z0.5554
X-6.3193 Y6.3415 Z0.5370
X-6.3153 Y6.3524 Z0.5185
X-6.3140 Y6.3633 Z0.5000
X-6.3023 Y6.3952
X-6.3127 Y6.4360
X-6.3495 Y6.4706
X-6.4073 Y6.4832
X-6.4719 Y6.4624
X-6.5239 Y6.4058
X-6.5437 Y6.3223
X-6.5184 Y6.2310
X-6.4460 Y6.1566
X-6.3382 Y6.1231
X-6.2249 Y6.1562
G03X-6.5031Y6.5717I-0.1391J0.2078
X-6.2249Y6.1562I0.1391J-0.2077
G01 X-6.3140 Y6.3633
Y6.3640 Z0.4989
X-6.3153 Y6.3755 Z0.4804
X-6.3193 Y6.3864 Z0.4619
X-6.3257 Y6.3961 Z0.4434
X-6.3341 Y6.4041 Z0.4250
X-6.3442 Y6.4099 Z0.4065
X-6.3553 Y6.4132 Z0.3880
X-6.3669 Y6.4139 Z0.3695
X-6.3783 Y6.4119 Z0.3511
X-6.3890 Y6.4073 Z0.3326
X-6.3983 Y6.4003 Z0.3141
X-6.4057 Y6.3914 Z0.2956
X-6.4109 Y6.3811 Z0.2772
X-6.4136 Y6.3698 Z0.2587
Y6.3582 Z0.2402
X-6.4109 Y6.3469 Z0.2217
X-6.4057 Y6.3365 Z0.2032
X-6.3983 Y6.3276 Z0.1848
X-6.3890 Y6.3207 Z0.1663
X-6.3783 Y6.3161 Z0.1478
X-6.3669 Y6.3140 Z0.1293
X-6.3553 Y6.3147 Z0.1109
X-6.3442 Y6.3181 Z0.0924
X-6.3341 Y6.3239 Z0.0739
X-6.3257 Y6.3318 Z0.0554
X-6.3193 Y6.3415 Z0.0370
X-6.3153 Y6.3524 Z0.0185
X-6.3140 Y6.3633 Z0.0000
X-6.3023 Y6.3952
X-6.3127 Y6.4360
X-6.3495 Y6.4706
X-6.4073 Y6.4832
X-6.4719 Y6.4624
X-6.5239 Y6.4058
X-6.5437 Y6.3223
X-6.5184 Y6.2310
X-6.4460 Y6.1566
X-6.3382 Y6.1231
X-6.2249 Y6.1562
G03X-6.5031Y6.5717I-0.1391J0.2078
X-6.2249Y6.1562I0.1391J-0.2077
G01 X-6.3140 Y6.3633
Y6.3640 Z-0.0011
X-6.3153 Y6.3755 Z-0.0196
X-6.3193 Y6.3864 Z-0.0381
X-6.3257 Y6.3961 Z-0.0566
X-6.3341 Y6.4041 Z-0.0750
X-6.3442 Y6.4099 Z-0.0935
X-6.3553 Y6.4132 Z-0.1120
X-6.3669 Y6.4139 Z-0.1305
X-6.3783 Y6.4119 Z-0.1489
X-6.3890 Y6.4073 Z-0.1674
X-6.3983 Y6.4003 Z-0.1859
X-6.4057 Y6.3914 Z-0.2044
X-6.4109 Y6.3811 Z-0.2228
X-6.4136 Y6.3698 Z-0.2413
Y6.3582 Z-0.2598
X-6.4109 Y6.3469 Z-0.2783
X-6.4057 Y6.3365 Z-0.2968
X-6.3983 Y6.3276 Z-0.3152
X-6.3890 Y6.3207 Z-0.3337
X-6.3783 Y6.3161 Z-0.3522
X-6.3669 Y6.3140 Z-0.3707
X-6.3553 Y6.3147 Z-0.3891
X-6.3442 Y6.3181 Z-0.4076
X-6.3341 Y6.3239 Z-0.4261
X-6.3257 Y6.3318 Z-0.4446
X-6.3193 Y6.3415 Z-0.4630
X-6.3153 Y6.3524 Z-0.4815
X-6.3140 Y6.3633 Z-0.5000
X-6.3023 Y6.3952
X-6.3127 Y6.4360
X-6.3495 Y6.4706
X-6.4073 Y6.4832
X-6.4719 Y6.4624
X-6.5239 Y6.4058
X-6.5437 Y6.3223
X-6.5184 Y6.2310
X-6.4460 Y6.1566
X-6.3382 Y6.1231
X-6.2249 Y6.1562
G03X-6.5031Y6.5717I-0.1391J0.2078
X-6.2249Y6.1562I0.1391J-0.2077
G01 X-6.3140 Y6.3633
Y6.3640 Z-0.5011
X-6.3153 Y6.3755 Z-0.5196
X-6.3193 Y6.3864 Z-0.5381
X-6.3257 Y6.3961 Z-0.5566
X-6.3341 Y6.4041 Z-0.5750
X-6.3442 Y6.4099 Z-0.5935
X-6.3553 Y6.4132 Z-0.6120
X-6.3669 Y6.4139 Z-0.6305
X-6.3783 Y6.4119 Z-0.6489
X-6.3890 Y6.4073 Z-0.6674
X-6.3983 Y6.4003 Z-0.6859
X-6.4057 Y6.3914 Z-0.7044
X-6.4109 Y6.3811 Z-0.7228
X-6.4136 Y6.3698 Z-0.7413
Y6.3582 Z-0.7598
X-6.4109 Y6.3469 Z-0.7783
X-6.4057 Y6.3365 Z-0.7968
X-6.3983 Y6.3276 Z-0.8152
X-6.3890 Y6.3207 Z-0.8337
X-6.3783 Y6.3161 Z-0.8522
X-6.3669 Y6.3140 Z-0.8707
X-6.3553 Y6.3147 Z-0.8891
X-6.3442 Y6.3181 Z-0.9076
X-6.3341 Y6.3239 Z-0.9261
X-6.3257 Y6.3318 Z-0.9446
X-6.3193 Y6.3415 Z-0.9630
X-6.3153 Y6.3524 Z-0.9815
X-6.3140 Y6.3633 Z-1.0000
X-6.3023 Y6.3952
X-6.3127 Y6.4360
X-6.3495 Y6.4706
X-6.4073 Y6.4832
X-6.4719 Y6.4624
X-6.5239 Y6.4058
X-6.5437 Y6.3223
X-6.5184 Y6.2310
X-6.4460 Y6.1566
X-6.3382 Y6.1231
X-6.2249 Y6.1562
G03X-6.5031Y6.5717I-0.1391J0.2078
X-6.2249Y6.1562I0.1391J-0.2077
G01 X-6.3140 Y6.3633
X-6.3640 Y6.3640
G00 Z15.0000
X6.4139 Y-6.3647
G01 Z2.6350  F250.0
X6.4140 Y-6.3640 Z2.6324  F500.0
X6.4126 Y-6.3524 Z2.5905
X6.4086 Y-6.3415 Z2.5486
X6.4023 Y-6.3318 Z2.5066
X6.3938 Y-6.3239 Z2.4647
X6.3838 Y-6.3181 Z2.4227
X6.3726 Y-6.3147 Z2.3808
X6.3611 Y-6.3140 Z2.3388
X6.3496 Y-6.3161 Z2.2969
X6.3390 Y-6.3207 Z2.2550
X6.3296 Y-6.3276 Z2.2130
X6.3222 Y-6.3365 Z2.1711
X6.3170 Y-6.3469 Z2.1291
X6.3143 Y-6.3582 Z2.0872
Y-6.3698 Z2.0452
X6.3170 Y-6.3811 Z2.0033
X6.3222 Y-6.3914 Z1.9614
X6.3296 Y-6.4003 Z1.9194
X6.3390 Y-6.4073 Z1.8775
X6.3496 Y-6.4119 Z1.8355
X6.3611 Y-6.4139 Z1.7936
X6.3726 Y-6.4132 Z1.7517
X6.3838 Y-6.4099 Z1.7097
X6.3938 Y-6.4041 Z1.6678
X6.4023 Y-6.3961 Z1.6258
X6.4086 Y-6.3864 Z1.5839
X6.4126 Y-6.3755 Z1.5419
X6.4139 Y-6.3647 Z1.5000
X6.4256 Y-6.3327
X6.4152 Y-6.2919
X6.3784 Y-6.2573
X6.3207 Y-6.2447
X6.2560 Y-6.2656
X6.2040 Y-6.3221
X6.1842 Y-6.4056
X6.2095 Y-6.4969
X6.2820 Y-6.5713
X6.3898 Y-6.6048
X6.5031 Y-6.5717
G03X6.2249Y-6.1562I-0.1391J0.2077
X6.5031Y-6.5717I0.1391J-0.2078
G01 X6.4139 Y-6.3647
X6.4140 Y-6.3640 Z1.4989
X6.4126 Y-6.3524 Z1.4804
X6.4086 Y-6.3415 Z1.4619
X6.4023 Y-6.3318 Z1.4434
X6.3938 Y-6.3239 Z1.4250
X6.3838 Y-6.3181 Z1.4065
X6.3726 Y-6.3147 Z1.3880
X6.3611 Y-6.3140 Z1.3695
X6.3496 Y-6.3161 Z1.3511
X6.3390 Y-6.3207 Z1.3326
X6.3296 Y-6.3276 Z1.3141
X6.3222 Y-6.3365 Z1.2956
X6.3170 Y-6.3469 Z1.2772
X6.3143 Y-6.3582 Z1.2587
Y-6.3698 Z1.2402
X6.3170 Y-6.3811 Z1.2217
X6.3222 Y-6.3914 Z1.2032
X6.3296 Y-6.4003 Z1.1848
X6.3390 Y-6.4073 Z1.1663
X6.3496 Y-6.4119 Z1.1478
X6.3611 Y-6.4139 Z1.1293
X6.3726 Y-6.4132 Z1.1109
X6.3838 Y-6.4099 Z1.0924
X6.3938 Y-6.4041 Z1.0739
X6.4023 Y-6.3961 Z1.0554
X6.4086 Y-6.3864 Z1.0370
X6.4126 Y-6.3755 Z1.0185
X6.4139 Y-6.3647 Z1.0000
X6.4256 Y-6.3327
X6.4152 Y-6.2919
X6.3784 Y-6.2573
X6.3207 Y-6.2447
X6.2560 Y-6.2656
X6.2040 Y-6.3221
X6.1842 Y-6.4056
X6.2095 Y-6.4969
X6.2820 Y-6.5713
X6.3898 Y-6.6048
X6.5031 Y-6.5717
G03X6.2249Y-6.1562I-0.1391J0.2077
X6.5031Y-6.5717I0.1391J-0.2078
G01 X6.4139 Y-6.3647
X6.4140 Y-6.3640 Z0.9989
X6.4126 Y-6.3524 Z0.9804
X6.4086 Y-6.3415 Z0.9619
X6.4023 Y-6.3318 Z0.9434
X6.3938 Y-6.3239 Z0.9250
X6.3838 Y-6.3181 Z0.9065
X6.3726 Y-6.3147 Z0.8880
X6.3611 Y-6.3140 Z0.8695
X6.3496 Y-6.3161 Z0.8511
X6.3390 Y-6.3207 Z0.8326
X6.3296 Y-6.3276 Z0.8141
X6.3222 Y-6.3365 Z0.7956
X6.3170 Y-6.3469 Z0.7772
X6.3143 Y-6.3582 Z0.7587
Y-6.3698 Z0.7402
X6.3170 Y-6.3811 Z0.7217
X6.3222 Y-6.3914 Z0.7032
X6.3296 Y-6.4003 Z0.6848
X6.3390 Y-6.4073 Z0.6663
X6.3496 Y-6.4119 Z0.6478
X6.3611 Y-6.4139 Z0.6293
X6.3726 Y-6.4132 Z0.6109
X6.3838 Y-6.4099 Z0.5924
X6.3938 Y-6.4041 Z0.5739
X6.4023 Y-6.3961 Z0.5554
X6.4086 Y-6.3864 Z0.5370
X6.4126 Y-6.3755 Z0.5185
X6.4139 Y-6.3647 Z0.5000
X6.4256 Y-6.3327
X6.4152 Y-6.2919
X6.3784 Y-6.2573
X6.3207 Y-6.2447
X6.2560 Y-6.2656
X6.2040 Y-6.3221
X6.1842 Y-6.4056
X6.2095 Y-6.4969
X6.2820 Y-6.5713
X6.3898 Y-6.6048
X6.5031 Y-6.5717
G03X6.2249Y-6.1562I-0.1391J0.2077
X6.5031Y-6.5717I0.1391J-0.2078
G01 X6.4139 Y-6.3647
X6.4140 Y-6.3640 Z0.4989
X6.4126 Y-6.3524 Z0.4804
X6.4086 Y-6.3415 Z0.4619
X6.4023 Y-6.3318 Z0.4434
X6.3938 Y-6.3239 Z0.4250
X6.3838 Y-6.3181 Z0.4065
X6.3726 Y-6.3147 Z0.3880
X6.3611 Y-6.3140 Z0.3695
X6.3496 Y-6.3161 Z0.3511
X6.3390 Y-6.3207 Z0.3326
X6.3296 Y-6.3276 Z0.3141
X6.3222 Y-6.3365 Z0.2956
X6.3170 Y-6.3469 Z0.2772
X6.3143 Y-6.3582 Z0.2587
Y-6.3698 Z0.2402
X6.3170 Y-6.3811 Z0.2217
X6.3222 Y-6.3914 Z0.2032
X6.3296 Y-6.4003 Z0.1848
X6.3390 Y-6.4073 Z0.1663
X6.3496 Y-6.4119 Z0.1478
X6.3611 Y-6.4139 Z0.1293
X6.3726 Y-6.4132 Z0.1109
X6.3838 Y-6.4099 Z0.0924
X6.3938 Y-6.4041 Z0.0739
X6.4023 Y-6.3961 Z0.0554
X6.4086 Y-6.3864 Z0.0370
X6.4126 Y-6.3755 Z0.0185
X6.4139 Y-6.3647 Z0.0000
X6.4256 Y-6.3327
X6.4152 Y-6.2919
X6.3784 Y-6.2573
X6.3207 Y-6.2447
X6.2560 Y-6.2656
X6.2040 Y-6.3221
X6.1842 Y-6.4056
X6.2095 Y-6.4969
X6.2820 Y-6.5713
X6.3898 Y-6.6048
X6.5031 Y-6.5717
G03X6.2249Y-6.1562I-0.1391J0.2077
X6.5031Y-6.5717I0.1391J-0.2078
G01 X6.4139 Y-6.3647
X6.4140 Y-6.3640 Z-0.0011
X6.4126 Y-6.3524 Z-0.0196
X6.4086 Y-6.3415 Z-0.0381
X6.4023 Y-6.3318 Z-0.0566
X6.3938 Y-6.3239 Z-0.0750
X6.3838 Y-6.3181 Z-0.0935
X6.3726 Y-6.3147 Z-0.1120
X6.3611 Y-6.3140 Z-0.1305
X6.3496 Y-6.3161 Z-0.1489
X6.3390 Y-6.3207 Z-0.1674
X6.3296 Y-6.3276 Z-0.1859
X6.3222 Y-6.3365 Z-0.2044
X6.3170 Y-6.3469 Z-0.2228
X6.3143 Y-6.3582 Z-0.2413
Y-6.3698 Z-0.2598
X6.3170 Y-6.3811 Z-0.2783
X6.3222 Y-6.3914 Z-0.2968
X6.3296 Y-6.4003 Z-0.3152
X6.3390 Y-6.4073 Z-0.3337
X6.3496 Y-6.4119 Z-0.3522
X6.3611 Y-6.4139 Z-0.3707
X6.3726 Y-6.4132 Z-0.3891
X6.3838 Y-6.4099 Z-0.4076
X6.3938 Y-6.4041 Z-0.4261
X6.4023 Y-6.3961 Z-0.4446
X6.4086 Y-6.3864 Z-0.4630
X6.4126 Y-6.3755 Z-0.4815
X6.4139 Y-6.3647 Z-0.5000
X6.4256 Y-6.3327
X6.4152 Y-6.2919
X6.3784 Y-6.2573
X6.3207 Y-6.2447
X6.2560 Y-6.2656
X6.2040 Y-6.3221
X6.1842 Y-6.4056
X6.2095 Y-6.4969
X6.2820 Y-6.5713
X6.3898 Y-6.6048
X6.5031 Y-6.5717
G03X6.2249Y-6.1562I-0.1391J0.2077
X6.5031Y-6.5717I0.1391J-0.2078
G01 X6.4139 Y-6.3647
X6.4140 Y-6.3640 Z-0.5011
X6.4126 Y-6.3524 Z-0.5196
X6.4086 Y-6.3415 Z-0.5381
X6.4023 Y-6.3318 Z-0.5566
X6.3938 Y-6.3239 Z-0.5750
X6.3838 Y-6.3181 Z-0.5935
X6.3726 Y-6.3147 Z-0.6120
X6.3611 Y-6.3140 Z-0.6305
X6.3496 Y-6.3161 Z-0.6489
X6.3390 Y-6.3207 Z-0.6674
X6.3296 Y-6.3276 Z-0.6859
X6.3222 Y-6.3365 Z-0.7044
X6.3170 Y-6.3469 Z-0.7228
X6.3143 Y-6.3582 Z-0.7413
Y-6.3698 Z-0.7598
X6.3170 Y-6.3811 Z-0.7783
X6.3222 Y-6.3914 Z-0.7968
X6.3296 Y-6.4003 Z-0.8152
X6.3390 Y-6.4073 Z-0.8337
X6.3496 Y-6.4119 Z-0.8522
X6.3611 Y-6.4139 Z-0.8707
X6.3726 Y-6.4132 Z-0.8891
X6.3838 Y-6.4099 Z-0.9076
X6.3938 Y-6.4041 Z-0.9261
X6.4023 Y-6.3961 Z-0.9446
X6.4086 Y-6.3864 Z-0.9630
X6.4126 Y-6.3755 Z-0.9815
X6.4139 Y-6.3647 Z-1.0000
X6.4256 Y-6.3327
X6.4152 Y-6.2919
X6.3784 Y-6.2573
X6.3207 Y-6.2447
X6.2560 Y-6.2656
X6.2040 Y-6.3221
X6.1842 Y-6.4056
X6.2095 Y-6.4969
X6.2820 Y-6.5713
X6.3898 Y-6.6048
X6.5031 Y-6.5717
G03X6.2249Y-6.1562I-0.1391J0.2077
X6.5031Y-6.5717I0.1391J-0.2078
G01 X6.4139 Y-6.3647
X6.3640 Y-6.3640
G00 Z15.0000
X-6.3140 Y-6.3647
G01 Z2.6350  F250.0
Y-6.3640 Z2.6324  F500.0
X-6.3153 Y-6.3524 Z2.5905
X-6.3193 Y-6.3415 Z2.5486
X-6.3257 Y-6.3318 Z2.5066
X-6.3341 Y-6.3239 Z2.4647
X-6.3442 Y-6.3181 Z2.4227
X-6.3553 Y-6.3147 Z2.3808
X-6.3669 Y-6.3140 Z2.3388
X-6.3783 Y-6.3161 Z2.2969
X-6.3890 Y-6.3207 Z2.2550
X-6.3983 Y-6.3276 Z2.2130
X-6.4057 Y-6.3365 Z2.1711
X-6.4109 Y-6.3469 Z2.1291
X-6.4136 Y-6.3582 Z2.0872
Y-6.3698 Z2.0452
X-6.4109 Y-6.3811 Z2.0033
X-6.4057 Y-6.3914 Z1.9614
X-6.3983 Y-6.4003 Z1.9194
X-6.3890 Y-6.4073 Z1.8775
X-6.3783 Y-6.4119 Z1.8355
X-6.3669 Y-6.4139 Z1.7936
X-6.3553 Y-6.4132 Z1.7517
X-6.3442 Y-6.4099 Z1.7097
X-6.3341 Y-6.4041 Z1.6678
X-6.3257 Y-6.3961 Z1.6258
X-6.3193 Y-6.3864 Z1.5839
X-6.3153 Y-6.3755 Z1.5419
X-6.3140 Y-6.3647 Z1.5000
X-6.3023 Y-6.3327
X-6.3127 Y-6.2919
X-6.3495 Y-6.2573
X-6.4073 Y-6.2447
X-6.4719 Y-6.2656
X-6.5239 Y-6.3221
X-6.5437 Y-6.4056
X-6.5184 Y-6.4969
X-6.4460 Y-6.5713
X-6.3382 Y-6.6048
X-6.2249 Y-6.5717
G03X-6.5031Y-6.1562I-0.1391J0.2077
X-6.2249Y-6.5717I0.1391J-0.2078
G01 X-6.3140 Y-6.3647
Y-6.3640 Z1.4989
X-6.3153 Y-6.3524 Z1.4804
X-6.3193 Y-6.3415 Z1.4619
X-6.3257 Y-6.3318 Z1.4434
X-6.3341 Y-6.3239 Z1.4250
X-6.3442 Y-6.3181 Z1.4065
X-6.3553 Y-6.3147 Z1.3880
X-6.3669 Y-6.3140 Z1.3695
X-6.3783 Y-6.3161 Z1.3511
X-6.3890 Y-6.3207 Z1.3326
X-6.3983 Y-6.3276 Z1.3141
X-6.4057 Y-6.3365 Z1.2956
X-6.4109 Y-6.3469 Z1.2772
X-6.4136 Y-6.3582 Z1.2587
Y-6.3698 Z1.2402
X-6.4109 Y-6.3811 Z1.2217
X-6.4057 Y-6.3914 Z1.2032
X-6.3983 Y-6.4003 Z1.1848
X-6.3890 Y-6.4073 Z1.1663
X-6.3783 Y-6.4119 Z1.1478
X-6.3669 Y-6.4139 Z1.1293
X-6.3553 Y-6.4132 Z1.1109
X-6.3442 Y-6.4099 Z1.0924
X-6.3341 Y-6.4041 Z1.0739
X-6.3257 Y-6.3961 Z1.0554
X-6.3193 Y-6.3864 Z1.0370
X-6.3153 Y-6.3755 Z1.0185
X-6.3140 Y-6.3647 Z1.0000
X-6.3023 Y-6.3327
X-6.3127 Y-6.2919
X-6.3495 Y-6.2573
X-6.4073 Y-6.2447
X-6.4719 Y-6.2656
X-6.5239 Y-6.3221
X-6.5437 Y-6.4056
X-6.5184 Y-6.4969
X-6.4460 Y-6.5713
X-6.3382 Y-6.6048
X-6.2249 Y-6.5717
G03X-6.5031Y-6.1562I-0.1391J0.2077
X-6.2249Y-6.5717I0.1391J-0.2078
G01 X-6.3140 Y-6.3647
Y-6.3640 Z0.9989
X-6.3153 Y-6.3524 Z0.9804
X-6.3193 Y-6.3415 Z0.9619
X-6.3257 Y-6.3318 Z0.9434
X-6.3341 Y-6.3239 Z0.9250
X-6.3442 Y-6.3181 Z0.9065
X-6.3553 Y-6.3147 Z0.8880
X-6.3669 Y-6.3140 Z0.8695
X-6.3783 Y-6.3161 Z0.8511
X-6.3890 Y-6.3207 Z0.8326
X-6.3983 Y-6.3276 Z0.8141
X-6.4057 Y-6.3365 Z0.7956
X-6.4109 Y-6.3469 Z0.7772
X-6.4136 Y-6.3582 Z0.7587
Y-6.3698 Z0.7402
X-6.4109 Y-6.3811 Z0.7217
X-6.4057 Y-6.3914 Z0.7032
X-6.3983 Y-6.4003 Z0.6848
X-6.3890 Y-6.4073 Z0.6663
X-6.3783 Y-6.4119 Z0.6478
X-6.3669 Y-6.4139 Z0.6293
X-6.3553 Y-6.4132 Z0.6109
X-6.3442 Y-6.4099 Z0.5924
X-6.3341 Y-6.4041 Z0.5739
X-6.3257 Y-6.3961 Z0.5554
X-6.3193 Y-6.3864 Z0.5370
X-6.3153 Y-6.3755 Z0.5185
X-6.3140 Y-6.3647 Z0.5000
X-6.3023 Y-6.3327
X-6.3127 Y-6.2919
X-6.3495 Y-6.2573
X-6.4073 Y-6.2447
X-6.4719 Y-6.2656
X-6.5239 Y-6.3221
X-6.5437 Y-6.4056
X-6.5184 Y-6.4969
X-6.4460 Y-6.5713
X-6.3382 Y-6.6048
X-6.2249 Y-6.5717
G03X-6.5031Y-6.1562I-0.1391J0.2077
X-6.2249Y-6.5717I0.1391J-0.2078
G01 X-6.3140 Y-6.3647
Y-6.3640 Z0.4989
X-6.3153 Y-6.3524 Z0.4804
X-6.3193 Y-6.3415 Z0.4619
X-6.3257 Y-6.3318 Z0.4434
X-6.3341 Y-6.3239 Z0.4250
X-6.3442 Y-6.3181 Z0.4065
X-6.3553 Y-6.3147 Z0.3880
X-6.3669 Y-6.3140 Z0.3695
X-6.3783 Y-6.3161 Z0.3511
X-6.3890 Y-6.3207 Z0.3326
X-6.3983 Y-6.3276 Z0.3141
X-6.4057 Y-6.3365 Z0.2956
X-6.4109 Y-6.3469 Z0.2772
X-6.4136 Y-6.3582 Z0.2587
Y-6.3698 Z0.2402
X-6.4109 Y-6.3811 Z0.2217
X-6.4057 Y-6.3914 Z0.2032
X-6.3983 Y-6.4003 Z0.1848
X-6.3890 Y-6.4073 Z0.1663
X-6.3783 Y-6.4119 Z0.1478
X-6.3669 Y-6.4139 Z0.1293
X-6.3553 Y-6.4132 Z0.1109
X-6.3442 Y-6.4099 Z0.0924
X-6.3341 Y-6.4041 Z0.0739
X-6.3257 Y-6.3961 Z0.0554
X-6.3193 Y-6.3864 Z0.0370
X-6.3153 Y-6.3755 Z0.0185
X-6.3140 Y-6.3647 Z0.0000
X-6.3023 Y-6.3327
X-6.3127 Y-6.2919
X-6.3495 Y-6.2573
X-6.4073 Y-6.2447
X-6.4719 Y-6.2656
X-6.5239 Y-6.3221
X-6.5437 Y-6.4056
X-6.5184 Y-6.4969
X-6.4460 Y-6.5713
X-6.3382 Y-6.6048
X-6.2249 Y-6.5717
G03X-6.5031Y-6.1562I-0.1391J0.2077
X-6.2249Y-6.5717I0.1391J-0.2078
G01 X-6.3140 Y-6.3647
Y-6.3640 Z-0.0011
X-6.3153 Y-6.3524 Z-0.0196
X-6.3193 Y-6.3415 Z-0.0381
X-6.3257 Y-6.3318 Z-0.0566
X-6.3341 Y-6.3239 Z-0.0750
X-6.3442 Y-6.3181 Z-0.0935
X-6.3553 Y-6.3147 Z-0.1120
X-6.3669 Y-6.3140 Z-0.1305
X-6.3783 Y-6.3161 Z-0.1489
X-6.3890 Y-6.3207 Z-0.1674
X-6.3983 Y-6.3276 Z-0.1859
X-6.4057 Y-6.3365 Z-0.2044
X-6.4109 Y-6.3469 Z-0.2228
X-6.4136 Y-6.3582 Z-0.2413
Y-6.3698 Z-0.2598
X-6.4109 Y-6.3811 Z-0.2783
X-6.4057 Y-6.3914 Z-0.2968
X-6.3983 Y-6.4003 Z-0.3152
X-6.3890 Y-6.4073 Z-0.3337
X-6.3783 Y-6.4119 Z-0.3522
X-6.3669 Y-6.4139 Z-0.3707
X-6.3553 Y-6.4132 Z-0.3891
X-6.3442 Y-6.4099 Z-0.4076
X-6.3341 Y-6.4041 Z-0.4261
X-6.3257 Y-6.3961 Z-0.4446
X-6.3193 Y-6.3864 Z-0.4630
X-6.3153 Y-6.3755 Z-0.4815
X-6.3140 Y-6.3647 Z-0.5000
X-6.3023 Y-6.3327
X-6.3127 Y-6.2919
X-6.3495 Y-6.2573
X-6.4073 Y-6.2447
X-6.4719 Y-6.2656
X-6.5239 Y-6.3221
X-6.5437 Y-6.4056
X-6.5184 Y-6.4969
X-6.4460 Y-6.5713
X-6.3382 Y-6.6048
X-6.2249 Y-6.5717
G03X-6.5031Y-6.1562I-0.1391J0.2077
X-6.2249Y-6.5717I0.1391J-0.2078
G01 X-6.3140 Y-6.3647
Y-6.3640 Z-0.5011
X-6.3153 Y-6.3524 Z-0.5196
X-6.3193 Y-6.3415 Z-0.5381
X-6.3257 Y-6.3318 Z-0.5566
X-6.3341 Y-6.3239 Z-0.5750
X-6.3442 Y-6.3181 Z-0.5935
X-6.3553 Y-6.3147 Z-0.6120
X-6.3669 Y-6.3140 Z-0.6305
X-6.3783 Y-6.3161 Z-0.6489
X-6.3890 Y-6.3207 Z-0.6674
X-6.3983 Y-6.3276 Z-0.6859
X-6.4057 Y-6.3365 Z-0.7044
X-6.4109 Y-6.3469 Z-0.7228
X-6.4136 Y-6.3582 Z-0.7413
Y-6.3698 Z-0.7598
X-6.4109 Y-6.3811 Z-0.7783
X-6.4057 Y-6.3914 Z-0.7968
X-6.3983 Y-6.4003 Z-0.8152
X-6.3890 Y-6.4073 Z-0.8337
X-6.3783 Y-6.4119 Z-0.8522
X-6.3669 Y-6.4139 Z-0.8707
X-6.3553 Y-6.4132 Z-0.8891
X-6.3442 Y-6.4099 Z-0.9076
X-6.3341 Y-6.4041 Z-0.9261
X-6.3257 Y-6.3961 Z-0.9446
X-6.3193 Y-6.3864 Z-0.9630
X-6.3153 Y-6.3755 Z-0.9815
X-6.3140 Y-6.3647 Z-1.0000
X-6.3023 Y-6.3327
X-6.3127 Y-6.2919
X-6.3495 Y-6.2573
X-6.4073 Y-6.2447
X-6.4719 Y-6.2656
X-6.5239 Y-6.3221
X-6.5437 Y-6.4056
X-6.5184 Y-6.4969
X-6.4460 Y-6.5713
X-6.3382 Y-6.6048
X-6.2249 Y-6.5717
G03X-6.5031Y-6.1562I-0.1391J0.2077
X-6.2249Y-6.5717I0.1391J-0.2078
G01 X-6.3140 Y-6.3647
X-6.3640 Y-6.3640
G00 Z15.0000
(Thread Milling)
M6 T24
M03 S20000
X-6.2281 Y6.1630
G01 Z0.0000  F250.0
X-6.2833 Y6.4579  F500.0
G02X-6.1666Y6.3780I0.0184J-0.0983
G01 X-6.1640 Y6.3640 Z-0.0057
X-6.1775 Y6.2917 Z-0.0349
X-6.2162 Y6.2292 Z-0.0642
X-6.2748 Y6.1849 Z-0.0934
X-6.3455 Y6.1648 Z-0.1227
X-6.4187 Y6.1716 Z-0.1519
X-6.4845 Y6.2044 Z-0.1812
X-6.5340 Y6.2587 Z-0.2104
X-6.5606 Y6.3272 Z-0.2396
Y6.4007 Z-0.2689
X-6.5340 Y6.4692 Z-0.2981
X-6.4845 Y6.5236 Z-0.3274
X-6.4187 Y6.5563 Z-0.3566
X-6.3455 Y6.5631 Z-0.3859
X-6.2748 Y6.5430 Z-0.4151
X-6.2162 Y6.4987 Z-0.4444
X-6.1775 Y6.4362 Z-0.4736
X-6.1640 Y6.3640 Z-0.5028
X-6.1775 Y6.2917 Z-0.5321
X-6.2162 Y6.2292 Z-0.5613
X-6.2748 Y6.1849 Z-0.5906
X-6.3455 Y6.1648 Z-0.6198
X-6.4187 Y6.1716 Z-0.6491
X-6.4845 Y6.2044 Z-0.6783
X-6.5340 Y6.2587 Z-0.7076
X-6.5606 Y6.3272 Z-0.7368
Y6.4007 Z-0.7660
X-6.5340 Y6.4692 Z-0.7953
X-6.4845 Y6.5236 Z-0.8245
X-6.4187 Y6.5563 Z-0.8538
X-6.3455 Y6.5631 Z-0.8830
X-6.2748 Y6.5430 Z-0.9123
X-6.2162 Y6.4987 Z-0.9415
X-6.1775 Y6.4362 Z-0.9708
X-6.1640 Y6.3640 Z-1.0000
G02X-6.2439Y6.2473I-0.0983J-0.0184
G01 X-6.2990 Y6.5422
G00 Z15.0000
X-6.2281 Y-6.5649
G01 Z0.0000  F250.0
X-6.2833 Y-6.2700  F500.0
G02X-6.1666Y-6.3499I0.0184J-0.0983
G01 X-6.1640 Y-6.3640 Z-0.0057
X-6.1775 Y-6.4362 Z-0.0349
X-6.2162 Y-6.4987 Z-0.0642
X-6.2748 Y-6.5430 Z-0.0934
X-6.3455 Y-6.5631 Z-0.1227
X-6.4187 Y-6.5563 Z-0.1519
X-6.4845 Y-6.5236 Z-0.1812
X-6.5340 Y-6.4692 Z-0.2104
X-6.5606 Y-6.4007 Z-0.2396
Y-6.3272 Z-0.2689
X-6.5340 Y-6.2587 Z-0.2981
X-6.4845 Y-6.2044 Z-0.3274
X-6.4187 Y-6.1716 Z-0.3566
X-6.3455 Y-6.1648 Z-0.3859
X-6.2748 Y-6.1849 Z-0.4151
X-6.2162 Y-6.2292 Z-0.4444
X-6.1775 Y-6.2917 Z-0.4736
X-6.1640 Y-6.3640 Z-0.5028
X-6.1775 Y-6.4362 Z-0.5321
X-6.2162 Y-6.4987 Z-0.5613
X-6.2748 Y-6.5430 Z-0.5906
X-6.3455 Y-6.5631 Z-0.6198
X-6.4187 Y-6.5563 Z-0.6491
X-6.4845 Y-6.5236 Z-0.6783
X-6.5340 Y-6.4692 Z-0.7076
X-6.5606 Y-6.4007 Z-0.7368
Y-6.3272 Z-0.7660
X-6.5340 Y-6.2587 Z-0.7953
X-6.4845 Y-6.2044 Z-0.8245
X-6.4187 Y-6.1716 Z-0.8538
X-6.3455 Y-6.1648 Z-0.8830
X-6.2748 Y-6.1849 Z-0.9123
X-6.2162 Y-6.2292 Z-0.9415
X-6.1775 Y-6.2917 Z-0.9708
X-6.1640 Y-6.3640 Z-1.0000
G02X-6.2439Y-6.4806I-0.0983J-0.0183
G01 X-6.2990 Y-6.1857
G00 Z15.0000
X6.4998 Y-6.5649
G01 Z0.0000  F250.0
X6.4447 Y-6.2700  F500.0
G02X6.5613Y-6.3499I0.0183J-0.0983
G01 X6.5640 Y-6.3640 Z-0.0057
X6.5505 Y-6.4362 Z-0.0349
X6.5118 Y-6.4987 Z-0.0642
X6.4531 Y-6.5430 Z-0.0934
X6.3824 Y-6.5631 Z-0.1227
X6.3092 Y-6.5563 Z-0.1519
X6.2434 Y-6.5236 Z-0.1812
X6.1939 Y-6.4692 Z-0.2104
X6.1674 Y-6.4007 Z-0.2396
Y-6.3272 Z-0.2689
X6.1939 Y-6.2587 Z-0.2981
X6.2434 Y-6.2044 Z-0.3274
X6.3092 Y-6.1716 Z-0.3566
X6.3824 Y-6.1648 Z-0.3859
X6.4531 Y-6.1849 Z-0.4151
X6.5118 Y-6.2292 Z-0.4444
X6.5505 Y-6.2917 Z-0.4736
X6.5640 Y-6.3640 Z-0.5028
X6.5505 Y-6.4362 Z-0.5321
X6.5118 Y-6.4987 Z-0.5613
X6.4531 Y-6.5430 Z-0.5906
X6.3824 Y-6.5631 Z-0.6198
X6.3092 Y-6.5563 Z-0.6491
X6.2434 Y-6.5236 Z-0.6783
X6.1939 Y-6.4692 Z-0.7076
X6.1674 Y-6.4007 Z-0.7368
Y-6.3272 Z-0.7660
X6.1939 Y-6.2587 Z-0.7953
X6.2434 Y-6.2044 Z-0.8245
X6.3092 Y-6.1716 Z-0.8538
X6.3824 Y-6.1648 Z-0.8830
X6.4531 Y-6.1849 Z-0.9123
X6.5118 Y-6.2292 Z-0.9415
X6.5505 Y-6.2917 Z-0.9708
X6.5640 Y-6.3640 Z-1.0000
G02X6.4840Y-6.4806I-0.0983J-0.0183
G01 X6.4289 Y-6.1857
G00 Z15.0000
X6.4998 Y6.1630
G01 Z0.0000  F250.0
X6.4447 Y6.4579  F500.0
G02X6.5613Y6.3780I0.0183J-0.0983
G01 X6.5640 Y6.3640 Z-0.0057
X6.5505 Y6.2917 Z-0.0349
X6.5118 Y6.2292 Z-0.0642
X6.4531 Y6.1849 Z-0.0934
X6.3824 Y6.1648 Z-0.1227
X6.3092 Y6.1716 Z-0.1519
X6.2434 Y6.2044 Z-0.1812
X6.1939 Y6.2587 Z-0.2104
X6.1674 Y6.3272 Z-0.2396
Y6.4007 Z-0.2689
X6.1939 Y6.4692 Z-0.2981
X6.2434 Y6.5236 Z-0.3274
X6.3092 Y6.5563 Z-0.3566
X6.3824 Y6.5631 Z-0.3859
X6.4531 Y6.5430 Z-0.4151
X6.5118 Y6.4987 Z-0.4444
X6.5505 Y6.4362 Z-0.4736
X6.5640 Y6.3640 Z-0.5028
X6.5505 Y6.2917 Z-0.5321
X6.5118 Y6.2292 Z-0.5613
X6.4531 Y6.1849 Z-0.5906
X6.3824 Y6.1648 Z-0.6198
X6.3092 Y6.1716 Z-0.6491
X6.2434 Y6.2044 Z-0.6783
X6.1939 Y6.2587 Z-0.7076
X6.1674 Y6.3272 Z-0.7368
Y6.4007 Z-0.7660
X6.1939 Y6.4692 Z-0.7953
X6.2434 Y6.5236 Z-0.8245
X6.3092 Y6.5563 Z-0.8538
X6.3824 Y6.5631 Z-0.8830
X6.4531 Y6.5430 Z-0.9123
X6.5118 Y6.4987 Z-0.9415
X6.5505 Y6.4362 Z-0.9708
X6.5640 Y6.3640 Z-1.0000
G02X6.4840Y6.2473I-0.0983J-0.0184
G01 X6.4289 Y6.5422
G00 Z15.0000
M5 M9
M30
