G00 G49 G40.1 G17 G80 G50 G90
G21
(Inside Profiling)
(SlotDrill 2mm Carbide)
M6 T12
M03 S20000
G00 Z1.0000
X9.4516 Y16.0838
G01 Z-1.7500  F250.0
X9.5723 Y16.0515  F1000.0
X9.6607 Y16.1399
X9.6284 Y16.2606
X9.5076 Y16.2929
X9.4193 Y16.2046
X9.4516 Y16.0838
Z-3.5000
X9.5723 Y16.0515
X9.6607 Y16.1399
X9.6284 Y16.2606
X9.5076 Y16.2929
X9.4193 Y16.2046
X9.4516 Y16.0838
G00 Z1.0000
X16.0251 Y13.9078
G01 Z-1.7500  F250.0
X16.3643 Y14.0835  F1000.0
X16.8058 Y14.4422
G17
G03X16.0251Y13.9078I-1.7771J1.7587
G01 Z-3.5000
X16.3643 Y14.0835
X16.8058 Y14.4422
G03X16.0251Y13.9078I-1.7771J1.7587
G00 Z1.0000
X20.4140 Y16.0560
G01 Z-1.7500  F250.0
X20.5376 Y16.0743  F1000.0
X20.5837 Y16.1905
X20.5060 Y16.2884
X20.3824 Y16.2702
X20.3363 Y16.1539
X20.4140 Y16.0560
Z-3.5000
X20.5376 Y16.0743
X20.5837 Y16.1905
X20.5060 Y16.2884
X20.3824 Y16.2702
X20.3363 Y16.1539
X20.4140 Y16.0560
G00 Z1.0000
X16.8596 Y31.9084
G01 Z-1.7500  F250.0
G03X13.1404Y30.4360I-1.8596J-0.7362 F1000.0
X16.8596Y31.9084I1.8596J0.7362
G01 Z-3.5000
G03X13.1404Y30.4360I-1.8596J-0.7362
X16.8596Y31.9084I1.8596J0.7362
G00 Z1.0000
X20.8431 Y48.9488
G01 Z-1.7500  F250.0
G03X19.0000Y50.1722I-1.8431J-0.7766 F1000.0
G01 X11.0000
G03X9.1628Y48.9625I0.0000J-2.0000
X8.9921Y46.0400I7.7557J-1.9192
G01 X8.9965 Y45.9983
X8.9991 Y45.9564
X9.0000 Y45.9144
G03X10.9769Y43.9146I2.0000J0.0000
G02X18.4558Y43.9898I3.8760J-13.5399
G01 X18.4667 Y43.9869
G03X20.9377Y45.4190I0.5333J1.9275
X20.9649Y48.5251I-13.7091J1.6733
G01 X20.8431 Y48.9488
Z-3.5000
G03X19.0000Y50.1722I-1.8431J-0.7766
G01 X11.0000
G03X9.1628Y48.9625I0.0000J-2.0000
X8.9921Y46.0400I7.7557J-1.9192
G01 X8.9965 Y45.9983
X8.9991 Y45.9564
X9.0000 Y45.9144
G03X10.9769Y43.9146I2.0000J0.0000
G02X18.4558Y43.9898I3.8760J-13.5399
G01 X18.4667 Y43.9869
G03X20.9377Y45.4190I0.5333J1.9275
X20.9649Y48.5251I-13.7091J1.6733
G01 X20.8431 Y48.9488
G00 Z1.0000
X26.2500 Y61.1722
G01 Z-1.7500  F250.0
G03X23.7500I-1.2500J0.0000 F1000.0
X26.2500I1.2500J0.0000
G01 Z-3.5000
G03X23.7500I-1.2500J0.0000
X26.2500I1.2500J0.0000
G00 Z1.0000
X6.0462 Y61.8562
G01 Z-1.7500  F250.0
G03X3.9538Y60.4882I-1.0462J-0.6840 F1000.0
X6.0462Y61.8562I1.0462J0.6840
G01 Z-3.5000
G03X3.9538Y60.4882I-1.0462J-0.6840
X6.0462Y61.8562I1.0462J0.6840
G00 Z1.0000
X7.7903 Y89.6442
G01 Z-1.7500  F250.0
X8.0120 Y89.5848  F1000.0
X8.1743 Y89.7471
X8.1149 Y89.9688
X7.8932 Y90.0282
X7.7309 Y89.8659
X7.7903 Y89.6442
Z-3.5000
X8.0120 Y89.5848
X8.1743 Y89.7471
X8.1149 Y89.9688
X7.8932 Y90.0282
X7.7309 Y89.8659
X7.7903 Y89.6442
G00 Z1.0000
X21.5313 Y95.5979
G01 Z-1.7500  F250.0
G03X10.3739Y100.0151I-5.5787J2.2086 F1000.0
X21.5313Y95.5979I5.5787J-2.2086
G01 Z-3.5000
G03X10.3739Y100.0151I-5.5787J2.2086
X21.5313Y95.5979I5.5787J-2.2086
G00 Z1.0000
X24.1149 Y89.9688
G01 Z-1.7500  F250.0
X23.8932 Y90.0282  F1000.0
X23.7309 Y89.8659
X23.7903 Y89.6442
X24.0120 Y89.5848
X24.1743 Y89.7471
X24.1149 Y89.9688
Z-3.5000
X23.8932 Y90.0282
X23.7309 Y89.8659
X23.7903 Y89.6442
X24.0120 Y89.5848
X24.1743 Y89.7471
X24.1149 Y89.9688
G00 Z1.0000
X24.0371 Y106.0199
G01 Z-1.7500  F250.0
X23.8100 Y105.9864  F1000.0
X23.7255 Y105.7730
X23.8681 Y105.5931
X24.0951 Y105.6267
X24.1796 Y105.8400
X24.0371 Y106.0199
Z-3.5000
X23.8100 Y105.9864
X23.7255 Y105.7730
X23.8681 Y105.5931
X24.0951 Y105.6267
X24.1796 Y105.8400
X24.0371 Y106.0199
G00 Z1.0000
X15.9526 Y114.8065
G01 Z-1.7500  F250.0
G03Y110.8065I0.0000J-2.0000 F1000.0
Y114.8065I0.0000J2.0000
G01 Z-3.5000
G03Y110.8065I0.0000J-2.0000
Y114.8065I0.0000J2.0000
G00 Z1.0000
X17.7308 Y125.9694
G01 Z-1.7500  F250.0
G02X19.4193Y125.6212I-5.6331J-31.5808 F1000.0
G03X21.9526Y127.5487I0.5333J1.9275
G01 Y129.8065
G03X19.9526Y131.8065I-2.0000J0.0000
G01 X11.9526
G03X10.1154Y130.5968I0.0000J-2.0000
X9.9447Y127.6743I7.7555J-1.9192
G01 X9.9491 Y127.6326
X9.9517 Y127.5907
X9.9526 Y127.5487
G03X11.9389Y125.5488I2.0000J0.0000
G02X17.6852Y125.9756I4.0137J-15.1400
G01 X17.7308 Y125.9694
Z-3.5000
G02X19.4193Y125.6212I-5.6331J-31.5808
G03X21.9526Y127.5487I0.5333J1.9275
G01 Y129.8065
G03X19.9526Y131.8065I-2.0000J0.0000
G01 X11.9526
G03X10.1154Y130.5968I0.0000J-2.0000
X9.9447Y127.6743I7.7555J-1.9192
G01 X9.9491 Y127.6326
X9.9517 Y127.5907
X9.9526 Y127.5487
G03X11.9389Y125.5488I2.0000J0.0000
G02X17.6852Y125.9756I4.0137J-15.1400
G01 X17.7308 Y125.9694
G00 Z1.0000
X24.7904 Y142.3464
G01 Z-1.7500  F250.0
G03X27.1148Y143.2666I1.1622J0.4601 F1000.0
X24.7904Y142.3464I-1.1622J-0.4601
G01 Z-3.5000
G03X27.1148Y143.2666I1.1622J0.4601
X24.7904Y142.3464I-1.1622J-0.4601
G00 Z1.0000
X5.9526 Y141.5565
G01 Z-1.7500  F250.0
G03Y144.0565I0.0000J1.2500 F1000.0
Y141.5565I0.0000J-1.2500
G01 Z-3.5000
G03Y144.0565I0.0000J1.2500
Y141.5565I0.0000J-1.2500
G00 Z1.0000
X8.0371 Y106.0199
G01 Z-1.7500  F250.0
X7.8100 Y105.9864  F1000.0
X7.7255 Y105.7730
X7.8681 Y105.5931
X8.0951 Y105.6267
X8.1796 Y105.8400
X8.0371 Y106.0199
Z-3.5000
X7.8100 Y105.9864
X7.7255 Y105.7730
X7.8681 Y105.5931
X8.0951 Y105.6267
X8.1796 Y105.8400
X8.0371 Y106.0199
G00 Z1.0000
X51.3557 Y134.2172
G01 Z-1.7500  F250.0
G03X50.8956Y133.0549I-0.2301J-0.5812 F1000.0
X51.3557Y134.2172I0.2300J0.5811
G01 Z-3.5000
G03X50.8956Y133.0549I-0.2301J-0.5812
X51.3557Y134.2172I0.2300J0.5811
G00 Z1.0000
X61.6746 Y137.2639
G01 Z-1.7500  F250.0
G03X53.3046Y142.7360I-4.1850J2.7361 F1000.0
X61.6746Y137.2639I4.1850J-2.7360
G01 Z-3.5000
G03X53.3046Y142.7360I-4.1850J2.7361
X61.6746Y137.2639I4.1850J-2.7360
G00 Z1.0000
X64.4785 Y133.6360
G01 Z-1.7500  F250.0
G03X63.2286I-0.6250J0.0000 F1000.0
X64.4785I0.6249J0.0000
G01 Z-3.5000
G03X63.2286I-0.6250J0.0000
X64.4785I0.6249J0.0000
G00 Z1.0000
X64.4347 Y146.5940
G01 Z-1.7500  F250.0
G03X63.2724Y146.1339I-0.5811J-0.2300 F1000.0
X64.4347Y146.5940I0.5812J0.2301
G01 Z-3.5000
G03X63.2724Y146.1339I-0.5811J-0.2300
X64.4347Y146.5940I0.5812J0.2301
G00 Z1.0000
X51.5676 Y146.8059
G01 Z-1.7500  F250.0
G03X50.6837Y145.9220I-0.4420J-0.4419 F1000.0
X51.5676Y146.8059I0.4419J0.4420
G01 Z-3.5000
G03X50.6837Y145.9220I-0.4420J-0.4419
X51.5676Y146.8059I0.4419J0.4420
G00 Z1.0000
X62.2860 Y119.7320
G01 Z-1.7500  F250.0
G03X60.5867Y121.1839I-1.9271J-0.5351 F1000.0
G02X54.9042Y121.1768I-2.8691J22.1379
G01 X54.8936 Y121.1782
G03X52.6220Y119.2803I-0.2733J-1.9813
G01 X52.0562 Y105.7130
G03X53.9461Y103.6306I2.0133J-0.0716
G02X60.4840Y103.6760I3.3745J-15.1864
G01 X60.4911 Y103.6744
G03X62.9246Y105.6106I0.4231J1.9656
G01 X62.3593 Y119.2289
X62.2860 Y119.7320
Z-3.5000
G03X60.5867Y121.1839I-1.9271J-0.5351
G02X54.9042Y121.1768I-2.8691J22.1379
G01 X54.8936 Y121.1782
G03X52.6220Y119.2803I-0.2733J-1.9813
G01 X52.0562 Y105.7130
G03X53.9461Y103.6306I2.0133J-0.0716
G02X60.4840Y103.6760I3.3745J-15.1864
G01 X60.4911 Y103.6744
G03X62.9246Y105.6106I0.4231J1.9656
G01 X62.3593 Y119.2289
X62.2860 Y119.7320
G00 Z1.0000
X93.8631 Y119.5655
G01 Z-1.7500  F250.0
G03X97.7963Y120.2933I1.9666J0.3639 F1000.0
X93.8631Y119.5655I-1.9666J-0.3639
G01 Z-3.5000
G03X97.7963Y120.2933I1.9666J0.3639
X93.8631Y119.5655I-1.9666J-0.3639
G00 Z1.0000
X98.3170 Y132.0415
G01 Z-1.7500  F250.0
X98.1262 Y132.3320  F1000.0
X97.4857 Y132.2922
X97.4118 Y131.6549
X98.0261 Y131.4696
X98.3170 Y132.0415
Z-3.5000
X98.1262 Y132.3320
X97.4857 Y132.2922
X97.4118 Y131.6549
X98.0261 Y131.4696
X98.3170 Y132.0415
G00 Z1.0000
X104.7379 Y134.0296
G01 Z-1.7500  F250.0
G03X106.9215Y145.8292I1.0918J5.8998 F1000.0
X104.7379Y134.0296I-1.0918J-5.8998
G01 Z-3.5000
G03X106.9215Y145.8292I1.0918J5.8998
X104.7379Y134.0296I-1.0918J-5.8998
G00 Z1.0000
X114.2978 Y132.1055
G01 Z-1.7500  F250.0
X113.9076 Y132.4094  F1000.0
X113.4494 Y132.2234
X113.3813 Y131.7336
X113.7715 Y131.4297
X114.2297 Y131.6157
X114.2978 Y132.1055
Z-3.5000
X113.9076 Y132.4094
X113.4494 Y132.2234
X113.3813 Y131.7336
X113.7715 Y131.4297
X114.2297 Y131.6157
X114.2978 Y132.1055
G00 Z1.0000
X117.8297 Y119.9294
G01 Z-1.7500  F250.0
G03X113.8297I-2.0000J0.0000 F1000.0
X117.8297I2.0000J0.0000
G01 Z-3.5000
G03X113.8297I-2.0000J0.0000
X117.8297I2.0000J0.0000
G00 Z1.0000
X113.2362 Y105.2675
G01 Z-1.7500  F250.0
G03X112.1725Y106.3603I-1.7016J-0.5922 F1000.0
G02X106.7542Y109.2129I5.1294J16.3151
G03X104.9095Y109.2151I-0.9245J-1.7735
G02X99.7535Y106.4906I-9.7107J12.1359
G01 X99.7398 Y106.4865
G03X98.3001Y104.4827I0.5586J-1.9204
G01 X99.1071 Y85.1326
G03X101.1445Y83.2164I1.9982J0.0834
G02X109.6599Y83.3933I4.5541J-14.1747
G01 X109.6975 Y83.3822
X109.7345 Y83.3696
X109.7711 Y83.3555
G03X112.5524Y85.1345I0.7624J1.8717
G01 X113.3556 Y104.3938
X113.2362 Y105.2675
Z-3.5000
G03X112.1725Y106.3603I-1.7016J-0.5922
G02X106.7542Y109.2129I5.1294J16.3151
G03X104.9095Y109.2151I-0.9245J-1.7735
G02X99.7535Y106.4906I-9.7107J12.1359
G01 X99.7398 Y106.4865
G03X98.3001Y104.4827I0.5586J-1.9204
G01 X99.1071 Y85.1326
G03X101.1445Y83.2164I1.9982J0.0834
G02X109.6599Y83.3933I4.5541J-14.1747
G01 X109.6975 Y83.3822
X109.7345 Y83.3696
X109.7711 Y83.3555
G03X112.5524Y85.1345I0.7624J1.8717
G01 X113.3556 Y104.3938
X113.2362 Y105.2675
G00 Z1.0000
X107.6893 Y70.6656
G01 Z-1.7500  F250.0
G03X103.9701Y69.1932I-1.8596J-0.7362 F1000.0
X107.6893Y70.6656I1.8596J0.7362
G01 Z-3.5000
G03X103.9701Y69.1932I-1.8596J-0.7362
X107.6893Y70.6656I1.8596J0.7362
G00 Z1.0000
X110.6973 Y40.6491
G01 Z-1.7500  F250.0
X111.2630 Y54.2164  F1000.0
G03X109.3732Y56.2988I-2.0133J0.0716
G02X102.8353Y56.2534I-3.3745J15.1862
G01 X102.8281 Y56.2550
G03X100.3963Y54.2168I-0.4232J-1.9648
G01 X100.9622 Y40.6491
G03X102.7326Y38.7455I1.9982J0.0833
G02X108.4151Y38.7526I2.8691J-22.1380
G01 X108.4257 Y38.7512
G03X110.6973Y40.6491I0.2733J1.9813
G01 Z-3.5000
X111.2630 Y54.2164
G03X109.3732Y56.2988I-2.0133J0.0716
G02X102.8353Y56.2534I-3.3745J15.1862
G01 X102.8281 Y56.2550
G03X100.3963Y54.2168I-0.4232J-1.9648
G01 X100.9622 Y40.6491
G03X102.7326Y38.7455I1.9982J0.0833
G02X108.4151Y38.7526I2.8691J-22.1380
G01 X108.4257 Y38.7512
G03X110.6973Y40.6491I0.2733J1.9813
G00 Z1.0000
X112.2895 Y27.0074
G01 Z-1.7500  F250.0
X112.2729 Y27.0109  F1000.0
G03X111.6734Y26.8338I-0.1424J-0.6213
G01 X111.6494 Y26.8100
G03X112.3060Y27.0039I0.5151J-0.5358
G01 X112.2895 Y27.0074
Z-3.5000
X112.2729 Y27.0109
G03X111.6734Y26.8338I-0.1424J-0.6213
G01 X111.6494 Y26.8100
G03X112.3060Y27.0039I0.5151J-0.5358
G01 X112.2895 Y27.0074
G00 Z1.0000
X109.3652 Y23.4649
G01 Z-1.7500  F250.0
G03X102.2942Y16.3939I-3.5355J-3.5355 F1000.0
X109.3652Y23.4649I3.5355J3.5355
G01 Z-3.5000
G03X102.2942Y16.3939I-3.5355J-3.5355
X109.3652Y23.4649I3.5355J3.5355
G00 Z1.0000
X112.8910 Y13.8415
G01 Z-1.7500  F250.0
G03X111.4963Y13.2894I-0.6973J-0.2761 F1000.0
X112.8910Y13.8415I0.6974J0.2760
G01 Z-3.5000
G03X111.4963Y13.2894I-0.6973J-0.2761
X112.8910Y13.8415I0.6974J0.2760
G00 Z1.0000
X98.7684 Y13.2894
G01 Z-1.7500  F250.0
G03X100.1631Y13.8415I0.6973J0.2760 F1000.0
X98.7684Y13.2894I-0.6974J-0.2761
G01 Z-3.5000
G03X100.1631Y13.8415I0.6973J0.2760
X98.7684Y13.2894I-0.6974J-0.2761
G00 Z1.0000
X98.7157 Y26.2933
G01 Z-1.7500  F250.0
G03X100.2157I0.7500J0.0000 F1000.0
X98.7157I-0.7500J0.0000
G01 Z-3.5000
G03X100.2157I0.7500J0.0000
X98.7157I-0.7500J0.0000
G00 Z1.0000
X69.4562 Y40.3639
G01 Z-1.7500  F250.0
G03X65.5230Y39.6361I-1.9666J-0.3639 F1000.0
X69.4562Y40.3639I1.9666J0.3639
G01 Z-3.5000
G03X65.5230Y39.6361I-1.9666J-0.3639
X69.4562Y40.3639I1.9666J0.3639
G00 Z1.0000
X62.8576 Y19.7676
G01 Z-1.7500  F250.0
X63.1049 Y19.8041  F1000.0
X63.1969 Y20.0365
X63.0416 Y20.2324
X62.7943 Y20.1959
X62.7023 Y19.9635
X62.8576 Y19.7676
Z-3.5000
X63.1049 Y19.8041
X63.1969 Y20.0365
X63.0416 Y20.2324
X62.7943 Y20.1959
X62.7023 Y19.9635
X62.8576 Y19.7676
G00 Z1.0000
X57.9445 Y17.5417
G01 Z-1.7500  F250.0
G03X57.0347Y22.4583I-0.4549J2.4583 F1000.0
X57.9445Y17.5417I0.4549J-2.4583
G01 Z-3.5000
G03X57.0347Y22.4583I-0.4549J2.4583
X57.9445Y17.5417I0.4549J-2.4583
G00 Z1.0000
X52.2620 Y19.9080
G01 Z-1.7500  F250.0
X52.2255 Y20.1553  F1000.0
X51.9931 Y20.2473
X51.7971 Y20.0920
X51.8337 Y19.8447
X52.0661 Y19.7527
X52.2620 Y19.9080
Z-3.5000
X52.2255 Y20.1553
X51.9931 Y20.2473
X51.7971 Y20.0920
X51.8337 Y19.8447
X52.0661 Y19.7527
X52.2620 Y19.9080
G00 Z1.0000
X45.4896 Y40.0000
G01 Z-1.7500  F250.0
G03X49.4896I2.0000J0.0000 F1000.0
X45.4896I-2.0000J0.0000
G01 Z-3.5000
G03X49.4896I2.0000J0.0000
X45.4896I-2.0000J0.0000
G00 Z1.0000
X62.9785 Y76.5553
G01 Z-1.7500  F250.0
X62.5266 Y76.6820  F1000.0
X62.1295 Y76.6985
G02X53.6594Y76.5360I-4.5088J14.1891
G01 X53.6218 Y76.5472
X53.5848 Y76.5598
X53.5482 Y76.5739
G03X50.7669Y74.7948I-0.7624J-1.8717
G01 X49.9600 Y55.4466
G03X51.3997Y53.4429I1.9982J-0.0833
G01 X51.4066 Y53.4409
G02X56.5722Y50.7128I-4.3001J-14.3971
G03X58.4097Y50.7142I0.9174J1.7772
G02X63.5658Y53.4388I9.7107J-12.1358
G01 X63.5795 Y53.4429
G03X65.0208Y55.3446I-0.5586J1.9204
G01 X64.2127 Y74.7845
G03X62.9785Y76.5553I-2.0948J-0.1445
G01 Z-3.5000
X62.5266 Y76.6820
X62.1295 Y76.6985
G02X53.6594Y76.5360I-4.5088J14.1891
G01 X53.6218 Y76.5472
X53.5848 Y76.5598
X53.5482 Y76.5739
G03X50.7669Y74.7948I-0.7624J-1.8717
G01 X49.9600 Y55.4466
G03X51.3997Y53.4429I1.9982J-0.0833
G01 X51.4066 Y53.4409
G02X56.5722Y50.7128I-4.3001J-14.3971
G03X58.4097Y50.7142I0.9174J1.7772
G02X63.5658Y53.4388I9.7107J-12.1358
G01 X63.5795 Y53.4429
G03X65.0208Y55.3446I-0.5586J1.9204
G01 X64.2127 Y74.7845
G03X62.9785Y76.5553I-2.0948J-0.1445
G00 Z1.0000
X59.4562 Y89.6361
G01 Z-1.7500  F250.0
G03X55.5230Y90.3639I-1.9666J0.3639 F1000.0
X59.4562Y89.6361I1.9666J-0.3639
G01 Z-3.5000
G03X55.5230Y90.3639I-1.9666J0.3639
X59.4562Y89.6361I1.9666J-0.3639
G00 Z1.0000
X97.3616 Y147.7533
G01 Z-1.7500  F250.0
X97.7518 Y147.4494  F1000.0
X98.2100 Y147.6354
X98.2781 Y148.1252
X97.8879 Y148.4290
X97.4297 Y148.2431
X97.3616 Y147.7533
Z-3.5000
X97.7518 Y147.4494
X98.2100 Y147.6354
X98.2781 Y148.1252
X97.8879 Y148.4290
X97.4297 Y148.2431
X97.3616 Y147.7533
G00 Z1.0000
X114.2978 Y148.1055
G01 Z-1.7500  F250.0
X113.9076 Y148.4094  F1000.0
X113.4494 Y148.2234
X113.3813 Y147.7336
X113.7715 Y147.4297
X114.2297 Y147.6157
X114.2978 Y148.1055
Z-3.5000
X113.9076 Y148.4094
X113.4494 Y148.2234
X113.3813 Y147.7336
X113.7715 Y147.4297
X114.2297 Y147.6157
X114.2978 Y148.1055
G00 Z1.0000
X154.8806 Y141.7617
G01 Z-1.7500  F250.0
G03Y143.2617I0.0000J0.7500 F1000.0
Y141.7617I0.0000J-0.7500
G01 Z-3.5000
G03Y143.2617I0.0000J0.7500
Y141.7617I0.0000J-0.7500
G00 Z1.0000
X168.3059 Y142.7878
G01 Z-1.7500  F250.0
G03X166.9112Y142.2356I-0.6974J-0.2761 F1000.0
X168.3059Y142.7878I0.6973J0.2761
G01 Z-3.5000
G03X166.9112Y142.2356I-0.6974J-0.2761
X168.3059Y142.7878I0.6973J0.2761
G00 Z1.0000
X165.4296 Y151.6117
G01 Z-1.7500  F250.0
G03X157.0596Y146.1396I-4.1850J-2.7360 F1000.0
X165.4296Y151.6117I4.1850J2.7361
G01 Z-3.5000
G03X157.0596Y146.1396I-4.1850J-2.7360
X165.4296Y151.6117I4.1850J2.7361
G00 Z1.0000
X168.3585 Y155.2396
G01 Z-1.7500  F250.0
G03X166.8585I-0.7500J0.0000 F1000.0
X168.3585I0.7500J0.0000
G01 Z-3.5000
G03X166.8585I-0.7500J0.0000
X168.3585I0.7500J0.0000
G00 Z1.0000
X154.8806 Y155.9896
G01 Z-1.7500  F250.0
G03Y154.4896I0.0000J-0.7500 F1000.0
Y155.9896I0.0000J0.7500
G01 Z-3.5000
G03Y154.4896I0.0000J-0.7500
Y155.9896I0.0000J0.7500
G00 Z1.0000
X169.1254 Y112.0093
G01 Z-1.7500  F250.0
X169.1666 Y112.0292  F1000.0
X169.1945 Y112.0413
G03X171.6323Y115.6834I-1.5157J3.6513
G01 X171.1725 Y126.8137
G03X166.1377Y130.5165I-4.0453J-0.2260
G02X156.3450Y130.5183I-4.8931J18.3592
G03X151.3170Y126.8204I-1.0315J-3.8648
G01 X150.8569 Y115.6846
G03X156.2764Y111.9645I4.0000J0.0195
G02X165.0246Y112.3557I4.9682J-13.0888
G01 X165.0636 Y112.3439
X165.1022 Y112.3305
X165.1402 Y112.3155
X165.1776 Y112.2990
X165.2142 Y112.2810
G03X169.0294Y111.9590I2.2955J4.4349
G01 X169.1254 Y112.0093
Z-3.5000
X169.1666 Y112.0292
X169.1945 Y112.0413
G03X171.6323Y115.6834I-1.5157J3.6513
G01 X171.1725 Y126.8137
G03X166.1377Y130.5165I-4.0453J-0.2260
G02X156.3450Y130.5183I-4.8931J18.3592
G03X151.3170Y126.8204I-1.0315J-3.8648
G01 X150.8569 Y115.6846
G03X156.2764Y111.9645I4.0000J0.0195
G02X165.0246Y112.3557I4.9682J-13.0888
G01 X165.0636 Y112.3439
X165.1022 Y112.3305
X165.1402 Y112.3155
X165.1776 Y112.2990
X165.2142 Y112.2810
G03X169.0294Y111.9590I2.2955J4.4349
G01 X169.1254 Y112.0093
G00 Z1.0000
X163.1042 Y99.6119
G01 Z-1.7500  F250.0
G03X159.3850Y98.1395I-1.8596J-0.7362 F1000.0
X163.1042Y99.6119I1.8596J0.7362
G01 Z-3.5000
G03X159.3850Y98.1395I-1.8596J-0.7362
X163.1042Y99.6119I1.8596J0.7362
G00 Z1.0000
X171.6337 Y85.6198
G01 Z-1.7500  F250.0
X171.6194 Y85.6321  F1000.0
G03X167.2888Y86.2477I-2.6237J-2.9176
G01 X167.2853 Y86.2460
G02X155.2092Y86.2434I-6.0407J12.6297
G03X149.4812Y82.7983I-1.6966J-3.6636
G01 X148.7909 Y66.2466
G03X150.9726Y62.5153I3.9965J-0.1667
G02X156.9686Y59.1830I-4.2148J-14.6446
G01 X156.9758 Y59.1764
G03X159.6848Y58.1195I2.7090J2.9432
G01 X162.8044
G03X164.8492Y58.6817I0.0000J4.0000
G02X171.5110Y62.5125I11.5466J-12.3717
G03X173.7017Y66.0604I-1.8092J3.5674
G01 X173.0074 Y82.8156
G03X171.6479Y85.6075I-3.7813J-0.1143
G01 X171.6337 Y85.6198
Z-3.5000
X171.6194 Y85.6321
G03X167.2888Y86.2477I-2.6237J-2.9176
G01 X167.2853 Y86.2460
G02X155.2092Y86.2434I-6.0407J12.6297
G03X149.4812Y82.7983I-1.6966J-3.6636
G01 X148.7909 Y66.2466
G03X150.9726Y62.5153I3.9965J-0.1667
G02X156.9686Y59.1830I-4.2148J-14.6446
G01 X156.9758 Y59.1764
G03X159.6848Y58.1195I2.7090J2.9432
G01 X162.8044
G03X164.8492Y58.6817I0.0000J4.0000
G02X171.5110Y62.5125I11.5466J-12.3717
G03X173.7017Y66.0604I-1.8092J3.5674
G01 X173.0074 Y82.8156
G03X171.6479Y85.6075I-3.7813J-0.1143
G01 X171.6337 Y85.6198
G00 Z1.0000
X174.6307 Y50.8423
G01 Z-1.7500  F250.0
G03X175.3585Y46.9091I0.3639J-1.9666 F1000.0
X174.6307Y50.8423I-0.3639J1.9666
G01 Z-3.5000
G03X175.3585Y46.9091I0.3639J-1.9666
X174.6307Y50.8423I-0.3639J1.9666
G00 Z1.0000
X148.9101 Y50.2886
G01 Z-1.7500  F250.0
G03X146.0911Y47.4590I-1.4095J-1.4148 F1000.0
X148.9101Y50.2886I1.4095J1.4148
G01 Z-3.5000
G03X146.0911Y47.4590I-1.4095J-1.4148
X148.9101Y50.2886I1.4095J1.4148
G00 Z1.0000
X156.0170 Y28.7836
G01 Z-1.7500  F250.0
X155.9805 Y29.0310  F1000.0
X155.7481 Y29.1230
X155.5521 Y28.9677
X155.5887 Y28.7204
X155.8211 Y28.6284
X156.0170 Y28.7836
Z-3.5000
X155.9805 Y29.0310
X155.7481 Y29.1230
X155.5521 Y28.9677
X155.5887 Y28.7204
X155.8211 Y28.6284
X156.0170 Y28.7836
G00 Z1.0000
X161.2446 Y26.3757
G01 Z-1.7500  F250.0
G03Y31.3559I0.0000J2.4901 F1000.0
Y26.3757I0.0000J-2.4901
G01 Z-3.5000
G03Y31.3559I0.0000J2.4901
Y26.3757I0.0000J-2.4901
G00 Z1.0000
X166.6126 Y28.6432
G01 Z-1.7500  F250.0
X166.8599 Y28.6798  F1000.0
X166.9519 Y28.9122
X166.7966 Y29.1081
X166.5493 Y29.0716
X166.4573 Y28.8391
X166.6126 Y28.6432
Z-3.5000
X166.8599 Y28.6798
X166.9519 Y28.9122
X166.7966 Y29.1081
X166.5493 Y29.0716
X166.4573 Y28.8391
X166.6126 Y28.6432
G00 Z1.0000
X208.9035 Y31.2615
G01 Z-1.7500  F250.0
G03X210.2982Y31.8136I0.6974J0.2760 F1000.0
X208.9035Y31.2615I-0.6973J-0.2761
G01 Z-3.5000
G03X210.2982Y31.8136I0.6974J0.2760
X208.9035Y31.2615I-0.6973J-0.2761
G00 Z1.0000
X208.8509 Y18.8096
G01 Z-1.7500  F250.0
G03X210.3509I0.7500J0.0000 F1000.0
X208.8509I-0.7500J0.0000
G01 Z-3.5000
G03X210.3509I0.7500J0.0000
X208.8509I-0.7500J0.0000
G00 Z1.0000
X222.8631 Y19.3360
G01 Z-1.7500  F250.0
G03X221.8174Y18.2785I-0.5229J-0.5288 F1000.0
X222.8631Y19.3360I0.5228J0.5287
G01 Z-3.5000
G03X221.8174Y18.2785I-0.5229J-0.5288
X222.8631Y19.3360I0.5228J0.5287
G00 Z1.0000
X220.8813 Y26.0834
G01 Z-1.7500  F250.0
G03X211.0483Y24.2637I-4.9165J-0.9098 F1000.0
X220.8813Y26.0834I4.9165J0.9099
G01 Z-3.5000
G03X211.0483Y24.2637I-4.9165J-0.9098
X220.8813Y26.0834I4.9165J0.9099
G00 Z1.0000
X222.3288 Y32.2875
G01 Z-1.7500  F250.0
G03Y30.7875I0.0000J-0.7500 F1000.0
Y32.2875I0.0000J0.7500
G01 Z-3.5000
G03Y30.7875I0.0000J-0.7500
Y32.2875I0.0000J0.7500
G00 Z1.0000
X226.0333 Y59.8143
G01 Z-1.7500  F250.0
G03X220.9312Y62.0840I-3.7046J-1.4581 F1000.0
G02X210.9966Y62.0847I-4.9664J13.0895
G03X205.5772Y58.3646I-1.4195J-3.7396
G01 X206.0370 Y47.2355
G03X211.0718Y43.5327I4.0452J0.2261
G02X220.8644Y43.5310I4.8930J-18.3591
G03X225.8924Y47.2288I1.0315J3.8647
G01 X226.3501 Y58.3061
X226.2330 Y59.2851
X226.0333 Y59.8143
Z-3.5000
G03X220.9312Y62.0840I-3.7046J-1.4581
G02X210.9966Y62.0847I-4.9664J13.0895
G03X205.5772Y58.3646I-1.4195J-3.7396
G01 X206.0370 Y47.2355
G03X211.0718Y43.5327I4.0452J0.2261
G02X220.8644Y43.5310I4.8930J-18.3591
G03X225.8924Y47.2288I1.0315J3.8647
G01 X226.3501 Y58.3061
X226.2330 Y59.2851
X226.0333 Y59.8143
G00 Z1.0000
X217.6388 Y76.2680
G01 Z-1.7500  F250.0
G03X214.2908Y74.0791I-1.6740J-1.0944 F1000.0
X217.6388Y76.2680I1.6740J1.0945
G01 Z-3.5000
G03X214.2908Y74.0791I-1.6740J-1.0944
X217.6388Y76.2680I1.6740J1.0945
G00 Z1.0000
X227.2349 Y110.8131
G01 Z-1.7500  F250.0
X226.7052 Y111.2498  F1000.0
X226.2044 Y111.5428
G02X220.7988Y114.4058I4.0692J14.2176
G01 X220.7736 Y114.4276
X220.7490 Y114.4502
X220.7253 Y114.4736
X220.7023 Y114.4979
G03X217.5171Y115.9297I-3.2560J-2.9845
G01 X214.4050
G03X212.3602Y115.3675I0.0000J-3.9999
G02X205.6984Y111.5367I-11.5465J12.3716
G03X203.5077Y107.9889I1.8093J-3.5674
G01 X204.2016 Y91.2450
G03X209.9241Y87.8033I3.9966J0.1668
G02X222.0056I6.0407J-12.6297
G03X227.7280Y91.2451I1.7259J3.6085
G01 X228.4185 Y107.8026
G03X227.2349Y110.8131I-3.9965J0.1667
G01 Z-3.5000
X226.7052 Y111.2498
X226.2044 Y111.5428
G02X220.7988Y114.4058I4.0692J14.2176
G01 X220.7736 Y114.4276
X220.7490 Y114.4502
X220.7253 Y114.4736
X220.7023 Y114.4979
G03X217.5171Y115.9297I-3.2560J-2.9845
G01 X214.4050
G03X212.3602Y115.3675I0.0000J-3.9999
G02X205.6984Y111.5367I-11.5465J12.3716
G03X203.5077Y107.9889I1.8093J-3.5674
G01 X204.2016 Y91.2450
G03X209.9241Y87.8033I3.9966J0.1668
G02X222.0056I6.0407J-12.6297
G03X227.7280Y91.2451I1.7259J3.6085
G01 X228.4185 Y107.8026
G03X227.2349Y110.8131I-3.9965J0.1667
G00 Z1.0000
X231.5744 Y125.9097
G01 Z-1.7500  F250.0
G03X227.8553Y124.4374I-1.8596J-0.7361 F1000.0
X231.5744Y125.9097I1.8595J0.7362
G01 Z-3.5000
G03X227.8553Y124.4374I-1.8596J-0.7361
X231.5744Y125.9097I1.8595J0.7362
G00 Z1.0000
X224.6622 Y137.4496
G01 Z-1.7500  F250.0
G03X223.2675Y136.8975I-0.6974J-0.2760 F1000.0
X224.6622Y137.4496I0.6973J0.2761
G01 Z-3.5000
G03X223.2675Y136.8975I-0.6974J-0.2760
X224.6622Y137.4496I0.6973J0.2761
G00 Z1.0000
X221.8647 Y144.0818
G01 Z-1.7500  F250.0
G03X210.0650Y146.2653I-5.8999J1.0918 F1000.0
X221.8647Y144.0818I5.8998J-1.0917
G01 Z-3.5000
G03X210.0650Y146.2653I-5.8999J1.0918
X221.8647Y144.0818I5.8998J-1.0917
G00 Z1.0000
X224.6622 Y153.4496
G01 Z-1.7500  F250.0
G03X223.2675Y152.8975I-0.6974J-0.2760 F1000.0
X224.6622Y153.4496I0.6973J0.2761
G01 Z-3.5000
G03X223.2675Y152.8975I-0.6974J-0.2760
X224.6622Y153.4496I0.6973J0.2761
G00 Z1.0000
X207.4413 Y152.6364
G01 Z-1.7500  F250.0
G03X208.4965Y153.6715I0.5276J0.5175 F1000.0
X207.4413Y152.6364I-0.5276J-0.5176
G01 Z-3.5000
G03X208.4965Y153.6715I0.5276J0.5175
X207.4413Y152.6364I-0.5276J-0.5176
G00 Z1.0000
X208.7148 Y137.1736
G01 Z-1.7500  F250.0
G03X207.2148I-0.7500J0.0000 F1000.0
X208.7148I0.7500J0.0000
G01 Z-3.5000
G03X207.2148I-0.7500J0.0000
X208.7148I0.7500J0.0000
G00 Z1.0000
X203.6290 Y126.5878
G01 Z-1.7500  F250.0
G03X200.8006Y123.7593I-1.4142J-1.4142 F1000.0
X203.6290Y126.5878I1.4142J1.4143
G01 Z-3.5000
G03X200.8006Y123.7593I-1.4142J-1.4142
X203.6290Y126.5878I1.4142J1.4143
G00 Z1.0000
(2 1/2 Axis Pocketing)
(SlotDrill 2mm Carbide)
X14.8199 Y16.0750
G01 Z0.0000  F250.0
Z-0.6000  F750.0
X14.8381 Y16.0625 Z-0.6039
X14.8944 Y16.0477 Z-0.6142
X14.9460 Y16.0528 Z-0.6233
X14.9867 Y16.0733 Z-0.6313
X15.0126 Y16.1034 Z-0.6383
X15.0223 Y16.1362 Z-0.6444
X15.0171 Y16.1652 Z-0.6496
X15.0005 Y16.1850 Z-0.6541
X14.9778 Y16.1921 Z-0.6583
X15.0005 Y16.1850 Z-0.6625
X15.0171 Y16.1652 Z-0.6671
X15.0223 Y16.1362 Z-0.6723
X15.0126 Y16.1034 Z-0.6783
X14.9867 Y16.0733 Z-0.6853
X14.9460 Y16.0528 Z-0.6933
X14.8944 Y16.0477 Z-0.7025
X14.8381 Y16.0625 Z-0.7127
X14.7847 Y16.0991 Z-0.7241
X14.7423 Y16.1566 Z-0.7367
X14.7188 Y16.2311 Z-0.7505
X14.7204 Y16.3160 Z-0.7655
X14.7509 Y16.4026 Z-0.7817
X14.8111 Y16.4807 Z-0.7991
X14.8983 Y16.5402 Z-0.8177
X15.0062 Y16.5719 Z-0.8375
X15.1257 Y16.5688 Z-0.8586
X15.2450 Y16.5271 Z-0.8809
X15.3515 Y16.4469 Z-0.9044
X15.4328 Y16.3324 Z-0.9292
X15.3515 Y16.4469 Z-0.9539
X15.2450 Y16.5271 Z-0.9774
X15.1257 Y16.5688 Z-0.9997
X15.0062 Y16.5719 Z-1.0208
X14.8983 Y16.5402 Z-1.0406
X14.8111 Y16.4807 Z-1.0592
X14.7509 Y16.4026 Z-1.0766
X14.7204 Y16.3160 Z-1.0928
X14.7188 Y16.2311 Z-1.1078
X14.7423 Y16.1566 Z-1.1216
X14.7847 Y16.0991 Z-1.1342
X14.8381 Y16.0625 Z-1.1456
X14.8944 Y16.0477 Z-1.1558
X14.9460 Y16.0528 Z-1.1650
X14.9867 Y16.0733 Z-1.1730
X15.0126 Y16.1034 Z-1.1800
X15.0223 Y16.1362 Z-1.1860
X15.0171 Y16.1652 Z-1.1912
X15.0005 Y16.1850 Z-1.1958
X14.9778 Y16.1921 Z-1.2000
X15.0005 Y16.1850  F1000.0
X15.0171 Y16.1652
X15.0223 Y16.1362
X15.0126 Y16.1034
X14.9867 Y16.0733
X14.9460 Y16.0528
X14.8944 Y16.0477
X14.8381 Y16.0625
X14.7847 Y16.0991
X14.7423 Y16.1566
X14.7188 Y16.2311
X14.7204 Y16.3160
X14.7509 Y16.4026
X14.8111 Y16.4807
X14.8983 Y16.5402
X15.0062 Y16.5719
G02X14.3556Y15.8500I-0.1486J-0.5202
X15.8043Y15.5393I0.8267J0.3219
X15.1779Y17.5641I-0.9050J0.8293
X13.2946Y15.7871I-0.3416J-1.5244
X16.1897Y14.5073I1.8766J0.3306
X16.1296Y18.3142I-1.2300J1.8845
X12.2333Y16.4636I-1.3338J-2.2187
X15.8449Y13.2132I2.9033J-0.4057
X17.5636Y18.4647I-0.8135J3.1733
X11.5563Y17.8111I-2.7885J-2.3036
X14.7240Y12.0700I3.5254J-1.7993
X19.1662Y17.7579I0.3732J4.2871
X11.6549Y19.6759I-4.3893J-1.5227
X12.9509Y11.4499I3.3570J-3.6862
X20.4783Y16.0873I2.2008J4.8557
X12.7543Y21.5965I-5.6705J0.2190
X10.5524Y11.8663I2.1804J-5.6077
X20.9433Y13.5277I4.6307J4.3625
X15.0680Y23.0675I-6.0772J2.8364
X8.2501Y13.5704I-0.2087J-7.0460
X20.1608Y10.6817I6.9304J2.5760
X18.1450Y23.4379I-5.2193J5.7126
X6.7275Y16.3223I-3.3406J-7.3577
X23.4752Y16.3346I8.3740J-0.1296
X20.3368Y22.7881I-8.4973J-0.1424
G01 X21.0095 Y22.1817
X21.0490 Y22.1391
G02X23.4752Y16.3346I-6.0711J-5.9469
G00 Z1.0000
X14.9778 Y16.1921
G01 Z-1.5000  F250.0
X15.0005 Y16.1850  F1000.0
X15.0171 Y16.1652
X15.0223 Y16.1362
X15.0126 Y16.1034
X14.9867 Y16.0733
X14.9460 Y16.0528
X14.8944 Y16.0477
X14.8381 Y16.0625
X14.7847 Y16.0991
X14.7423 Y16.1566
X14.7188 Y16.2311
X14.7204 Y16.3160
X14.7509 Y16.4026
X14.8111 Y16.4807
X14.8983 Y16.5402
X15.0062 Y16.5719
G02X14.3556Y15.8500I-0.1486J-0.5202
X15.8043Y15.5393I0.8267J0.3219
X15.1779Y17.5641I-0.9050J0.8293
X13.2946Y15.7871I-0.3416J-1.5244
X16.1897Y14.5073I1.8766J0.3306
X16.1296Y18.3142I-1.2300J1.8845
X12.2333Y16.4636I-1.3338J-2.2187
X15.8449Y13.2132I2.9033J-0.4057
X17.5636Y18.4647I-0.8135J3.1733
X11.5563Y17.8111I-2.7885J-2.3036
X14.7240Y12.0700I3.5254J-1.7993
X19.1662Y17.7579I0.3732J4.2871
X11.6549Y19.6759I-4.3893J-1.5227
X12.9509Y11.4499I3.3570J-3.6862
X20.4783Y16.0873I2.2008J4.8557
X12.7543Y21.5965I-5.6705J0.2190
X10.5524Y11.8663I2.1804J-5.6077
X20.9433Y13.5277I4.6307J4.3625
X15.0680Y23.0675I-6.0772J2.8364
X8.2501Y13.5704I-0.2087J-7.0460
X20.1608Y10.6817I6.9304J2.5760
X18.1450Y23.4379I-5.2193J5.7126
X6.7275Y16.3223I-3.3406J-7.3577
X23.4752Y16.3346I8.3740J-0.1296
X20.3368Y22.7881I-8.4973J-0.1424
G01 X21.0095 Y22.1817
X21.0490 Y22.1391
G02X23.4752Y16.3346I-6.0711J-5.9469
G01 X22.6713 Y17.0265 Z-0.4393  F1500.0
Z0.1607
G00 Z1.0000
X57.3317 Y19.8829
G01 Z0.0000  F250.0
Z-0.6000  F750.0
X57.3500 Y19.8704 Z-0.6039
X57.4063 Y19.8557 Z-0.6142
X57.4578 Y19.8607 Z-0.6233
X57.4985 Y19.8813 Z-0.6313
X57.5244 Y19.9113 Z-0.6383
X57.5341 Y19.9442 Z-0.6444
X57.5289 Y19.9732 Z-0.6496
X57.5123 Y19.9930 Z-0.6541
X57.4896 Y20.0000 Z-0.6583
X57.5123 Y19.9930 Z-0.6625
X57.5289 Y19.9732 Z-0.6671
X57.5341 Y19.9442 Z-0.6723
X57.5244 Y19.9113 Z-0.6783
X57.4985 Y19.8813 Z-0.6853
X57.4578 Y19.8607 Z-0.6933
X57.4063 Y19.8557 Z-0.7025
X57.3500 Y19.8704 Z-0.7127
X57.2965 Y19.9070 Z-0.7241
X57.2542 Y19.9645 Z-0.7367
X57.2306 Y20.0390 Z-0.7505
X57.2322 Y20.1240 Z-0.7655
X57.2627 Y20.2105 Z-0.7817
X57.3229 Y20.2887 Z-0.7991
X57.4101 Y20.3482 Z-0.8177
X57.5181 Y20.3799 Z-0.8375
X57.6375 Y20.3768 Z-0.8586
X57.7568 Y20.3351 Z-0.8809
X57.8634 Y20.2548 Z-0.9044
X57.9446 Y20.1404 Z-0.9292
X57.8634 Y20.2548 Z-0.9539
X57.7568 Y20.3351 Z-0.9774
X57.6375 Y20.3768 Z-0.9997
X57.5181 Y20.3799 Z-1.0208
X57.4101 Y20.3482 Z-1.0406
X57.3229 Y20.2887 Z-1.0592
X57.2627 Y20.2105 Z-1.0766
X57.2322 Y20.1240 Z-1.0928
X57.2306 Y20.0390 Z-1.1078
X57.2542 Y19.9645 Z-1.1216
X57.2965 Y19.9070 Z-1.1342
X57.3500 Y19.8704 Z-1.1456
X57.4063 Y19.8557 Z-1.1558
X57.4578 Y19.8607 Z-1.1650
X57.4985 Y19.8813 Z-1.1730
X57.5244 Y19.9113 Z-1.1800
X57.5341 Y19.9442 Z-1.1860
X57.5289 Y19.9732 Z-1.1912
X57.5123 Y19.9930 Z-1.1958
X57.4896 Y20.0000 Z-1.2000
X57.5123 Y19.9930  F1000.0
X57.5289 Y19.9732
X57.5341 Y19.9442
X57.5244 Y19.9113
X57.4985 Y19.8813
X57.4578 Y19.8607
X57.4063 Y19.8557
X57.3500 Y19.8704
X57.2965 Y19.9070
X57.2542 Y19.9645
X57.2306 Y20.0390
X57.2322 Y20.1240
X57.2627 Y20.2105
X57.3229 Y20.2887
X57.4101 Y20.3482
X57.5181 Y20.3799
G02X56.8674Y19.6580I-0.1486J-0.5203
X58.3161Y19.3473I0.8267J0.3219
X57.6897Y21.3720I-0.9050J0.8292
X55.8064Y19.5951I-0.3416J-1.5244
X58.7015Y18.3152I1.8766J0.3306
X58.6414Y22.1221I-1.2300J1.8845
X54.7451Y20.2715I-1.3338J-2.2187
X58.3567Y17.0212I2.9033J-0.4057
X60.0755Y22.2727I-0.8135J3.1732
X54.0681Y21.6190I-2.7886J-2.3036
X57.2358Y15.8779I3.5254J-1.7993
X61.6780Y21.5658I0.3732J4.2871
X54.1667Y23.4838I-4.3893J-1.5226
X55.4627Y15.2579I3.3571J-3.6862
X62.9901Y19.8953I2.2008J4.8556
X55.2661Y25.4044I-5.6705J0.2189
X53.0642Y15.6742I2.1804J-5.6076
X63.4551Y17.3357I4.6307J4.3626
X57.5798Y26.8755I-6.0772J2.8363
X50.7619Y17.3783I-0.2087J-7.0460
X62.6726Y14.4896I6.9304J2.5760
X60.6568Y27.2458I-5.2192J5.7126
X49.2394Y20.1303I-3.3406J-7.3576
X65.9896Y19.9999I8.3746J-0.1311
X48.9896Y20.0001I-8.5000J0.0001
X65.9896Y19.9999I8.5000J-0.0001
G00 Z1.0000
X57.4896 Y20.0000
G01 Z-1.5000  F250.0
X57.5123 Y19.9930  F1000.0
X57.5289 Y19.9732
X57.5341 Y19.9442
X57.5244 Y19.9113
X57.4985 Y19.8813
X57.4578 Y19.8607
X57.4063 Y19.8557
X57.3500 Y19.8704
X57.2965 Y19.9070
X57.2542 Y19.9645
X57.2306 Y20.0390
X57.2322 Y20.1240
X57.2627 Y20.2105
X57.3229 Y20.2887
X57.4101 Y20.3482
X57.5181 Y20.3799
G02X56.8674Y19.6580I-0.1486J-0.5203
X58.3161Y19.3473I0.8267J0.3219
X57.6897Y21.3720I-0.9050J0.8292
X55.8064Y19.5951I-0.3416J-1.5244
X58.7015Y18.3152I1.8766J0.3306
X58.6414Y22.1221I-1.2300J1.8845
X54.7451Y20.2715I-1.3338J-2.2187
X58.3567Y17.0212I2.9033J-0.4057
X60.0755Y22.2727I-0.8135J3.1732
X54.0681Y21.6190I-2.7886J-2.3036
X57.2358Y15.8779I3.5254J-1.7993
X61.6780Y21.5658I0.3732J4.2871
X54.1667Y23.4838I-4.3893J-1.5226
X55.4627Y15.2579I3.3571J-3.6862
X62.9901Y19.8953I2.2008J4.8556
X55.2661Y25.4044I-5.6705J0.2189
X53.0642Y15.6742I2.1804J-5.6076
X63.4551Y17.3357I4.6307J4.3626
X57.5798Y26.8755I-6.0772J2.8363
X50.7619Y17.3783I-0.2087J-7.0460
X62.6726Y14.4896I6.9304J2.5760
X60.6568Y27.2458I-5.2192J5.7126
X49.2394Y20.1303I-3.3406J-7.3576
X65.9896Y19.9999I8.3746J-0.1311
X48.9896Y20.0001I-8.5000J0.0001
X65.9896Y19.9999I8.5000J-0.0001
G01 X65.4849 Y19.0670 Z-0.4393  F1500.0
Z0.1607
G00 Z1.0000
X15.7529 Y97.6769
G01 Z0.0000  F250.0
Z-0.6000  F750.0
X15.7711 Y97.6644 Z-0.6039
X15.8274 Y97.6496 Z-0.6142
X15.8789 Y97.6547 Z-0.6233
X15.9196 Y97.6753 Z-0.6313
X15.9455 Y97.7053 Z-0.6383
X15.9552 Y97.7381 Z-0.6444
X15.9500 Y97.7671 Z-0.6496
X15.9335 Y97.7870 Z-0.6541
X15.9107 Y97.7940 Z-0.6583
X15.9335 Y97.7870 Z-0.6625
X15.9500 Y97.7671 Z-0.6671
X15.9552 Y97.7381 Z-0.6723
X15.9455 Y97.7053 Z-0.6783
X15.9196 Y97.6753 Z-0.6853
X15.8789 Y97.6547 Z-0.6933
X15.8274 Y97.6496 Z-0.7025
X15.7711 Y97.6644 Z-0.7127
X15.7176 Y97.7010 Z-0.7241
X15.6753 Y97.7585 Z-0.7367
X15.6517 Y97.8330 Z-0.7505
X15.6533 Y97.9179 Z-0.7655
X15.6838 Y98.0045 Z-0.7817
X15.7440 Y98.0826 Z-0.7991
X15.8312 Y98.1422 Z-0.8177
X15.9392 Y98.1739 Z-0.8375
X16.0586 Y98.1708 Z-0.8586
X16.1779 Y98.1290 Z-0.8809
X16.2845 Y98.0488 Z-0.9044
X16.3657 Y97.9343 Z-0.9292
X16.2845 Y98.0488 Z-0.9539
X16.1779 Y98.1290 Z-0.9774
X16.0586 Y98.1708 Z-0.9997
X15.9392 Y98.1739 Z-1.0208
X15.8312 Y98.1422 Z-1.0406
X15.7440 Y98.0826 Z-1.0592
X15.6838 Y98.0045 Z-1.0766
X15.6533 Y97.9179 Z-1.0928
X15.6517 Y97.8330 Z-1.1078
X15.6753 Y97.7585 Z-1.1216
X15.7176 Y97.7010 Z-1.1342
X15.7711 Y97.6644 Z-1.1456
X15.8274 Y97.6496 Z-1.1558
X15.8789 Y97.6547 Z-1.1650
X15.9196 Y97.6753 Z-1.1730
X15.9455 Y97.7053 Z-1.1800
X15.9552 Y97.7381 Z-1.1860
X15.9500 Y97.7671 Z-1.1912
X15.9335 Y97.7870 Z-1.1958
X15.9107 Y97.7940 Z-1.2000
X15.9335 Y97.7870  F1000.0
X15.9500 Y97.7671
X15.9552 Y97.7381
X15.9455 Y97.7053
X15.9196 Y97.6753
X15.8789 Y97.6547
X15.8274 Y97.6496
X15.7711 Y97.6644
X15.7176 Y97.7010
X15.6753 Y97.7585
X15.6517 Y97.8330
X15.6533 Y97.9179
X15.6838 Y98.0045
X15.7440 Y98.0826
X15.8312 Y98.1422
X15.9392 Y98.1739
G02X15.2885Y97.4519I-0.1486J-0.5203
X16.7372Y97.1413I0.8267J0.3220
X16.1108Y99.1660I-0.9050J0.8292
X14.2275Y97.3891I-0.3416J-1.5244
X17.1226Y96.1092I1.8766J0.3305
X17.0626Y99.9161I-1.2300J1.8845
X13.1663Y98.0655I-1.3339J-2.2187
X16.7778Y94.8151I2.9032J-0.4057
X18.4966Y100.0666I-0.8135J3.1733
X12.4892Y99.4130I-2.7886J-2.3036
X15.6569Y93.6719I3.5255J-1.7993
X20.0991Y99.3598I0.3732J4.2871
X12.5878Y101.2778I-4.3893J-1.5227
X13.8838Y93.0518I3.3571J-3.6862
X21.4112Y97.6892I2.2008J4.8557
X13.6872Y103.1984I-5.6705J0.2190
X11.4853Y93.4682I2.1804J-5.6077
X21.8762Y95.1296I4.6307J4.3625
X16.0010Y104.6694I-6.0772J2.8364
X9.1830Y95.1723I-0.2088J-7.0460
X21.0938Y92.2836I6.9304J2.5760
X19.0779Y105.0398I-5.2193J5.7126
X7.6605Y97.9242I-3.3406J-7.3576
X24.3802Y98.4365I8.3715J-0.1259
X12.0445Y105.3548I-8.4692J-0.6442
G01 X12.0505 Y105.3579
G02X17.1605Y106.1935I3.8274J-7.3632
G01 X17.1671 Y106.1925
G02X24.3802Y98.4365I-1.2561J-8.4002
G00 Z1.0000
X15.9107 Y97.7940
G01 Z-1.5000  F250.0
X15.9335 Y97.7870  F1000.0
X15.9500 Y97.7671
X15.9552 Y97.7381
X15.9455 Y97.7053
X15.9196 Y97.6753
X15.8789 Y97.6547
X15.8274 Y97.6496
X15.7711 Y97.6644
X15.7176 Y97.7010
X15.6753 Y97.7585
X15.6517 Y97.8330
X15.6533 Y97.9179
X15.6838 Y98.0045
X15.7440 Y98.0826
X15.8312 Y98.1422
X15.9392 Y98.1739
G02X15.2885Y97.4519I-0.1486J-0.5203
X16.7372Y97.1413I0.8267J0.3220
X16.1108Y99.1660I-0.9050J0.8292
X14.2275Y97.3891I-0.3416J-1.5244
X17.1226Y96.1092I1.8766J0.3305
X17.0626Y99.9161I-1.2300J1.8845
X13.1663Y98.0655I-1.3339J-2.2187
X16.7778Y94.8151I2.9032J-0.4057
X18.4966Y100.0666I-0.8135J3.1733
X12.4892Y99.4130I-2.7886J-2.3036
X15.6569Y93.6719I3.5255J-1.7993
X20.0991Y99.3598I0.3732J4.2871
X12.5878Y101.2778I-4.3893J-1.5227
X13.8838Y93.0518I3.3571J-3.6862
X21.4112Y97.6892I2.2008J4.8557
X13.6872Y103.1984I-5.6705J0.2190
X11.4853Y93.4682I2.1804J-5.6077
X21.8762Y95.1296I4.6307J4.3625
X16.0010Y104.6694I-6.0772J2.8364
X9.1830Y95.1723I-0.2088J-7.0460
X21.0938Y92.2836I6.9304J2.5760
X19.0779Y105.0398I-5.2193J5.7126
X7.6605Y97.9242I-3.3406J-7.3576
X24.3802Y98.4365I8.3715J-0.1259
X12.0445Y105.3548I-8.4692J-0.6442
G01 X12.0505 Y105.3579
G02X17.1605Y106.1935I3.8274J-7.3632
G01 X17.1671 Y106.1925
G02X24.3802Y98.4365I-1.2561J-8.4002
G01 X23.3768 Y98.0927 Z-0.4393  F1500.0
Z0.1607
G00 Z1.0000
X105.6719 Y139.8123
G01 Z0.0000  F250.0
Z-0.6000  F750.0
X105.6901 Y139.7998 Z-0.6039
X105.7464 Y139.7850 Z-0.6142
X105.7979 Y139.7901 Z-0.6233
X105.8386 Y139.8107 Z-0.6313
X105.8645 Y139.8407 Z-0.6383
X105.8742 Y139.8735 Z-0.6444
X105.8690 Y139.9026 Z-0.6496
X105.8525 Y139.9224 Z-0.6541
X105.8297 Y139.9294 Z-0.6583
X105.8525 Y139.9224 Z-0.6625
X105.8690 Y139.9026 Z-0.6671
X105.8742 Y139.8735 Z-0.6723
X105.8645 Y139.8407 Z-0.6783
X105.8386 Y139.8107 Z-0.6853
X105.7979 Y139.7901 Z-0.6933
X105.7464 Y139.7850 Z-0.7025
X105.6901 Y139.7998 Z-0.7127
X105.6366 Y139.8364 Z-0.7241
X105.5943 Y139.8939 Z-0.7367
X105.5707 Y139.9684 Z-0.7505
X105.5723 Y140.0534 Z-0.7655
X105.6028 Y140.1399 Z-0.7817
X105.6630 Y140.2181 Z-0.7991
X105.7502 Y140.2776 Z-0.8177
X105.8582 Y140.3093 Z-0.8375
X105.9776 Y140.3062 Z-0.8586
X106.0969 Y140.2645 Z-0.8809
X106.2035 Y140.1842 Z-0.9044
X106.2847 Y140.0697 Z-0.9292
X106.2035 Y140.1842 Z-0.9539
X106.0969 Y140.2645 Z-0.9774
X105.9776 Y140.3062 Z-0.9997
X105.8582 Y140.3093 Z-1.0208
X105.7502 Y140.2776 Z-1.0406
X105.6630 Y140.2181 Z-1.0592
X105.6028 Y140.1399 Z-1.0766
X105.5723 Y140.0534 Z-1.0928
X105.5707 Y139.9684 Z-1.1078
X105.5943 Y139.8939 Z-1.1216
X105.6366 Y139.8364 Z-1.1342
X105.6901 Y139.7998 Z-1.1456
X105.7464 Y139.7850 Z-1.1558
X105.7979 Y139.7901 Z-1.1650
X105.8386 Y139.8107 Z-1.1730
X105.8645 Y139.8407 Z-1.1800
X105.8742 Y139.8735 Z-1.1860
X105.8690 Y139.9026 Z-1.1912
X105.8525 Y139.9224 Z-1.1958
X105.8297 Y139.9294 Z-1.2000
X105.8525 Y139.9224  F1000.0
X105.8690 Y139.9026
X105.8742 Y139.8735
X105.8645 Y139.8407
X105.8386 Y139.8107
X105.7979 Y139.7901
X105.7464 Y139.7850
X105.6901 Y139.7998
X105.6366 Y139.8364
X105.5943 Y139.8939
X105.5707 Y139.9684
X105.5723 Y140.0534
X105.6028 Y140.1399
X105.6630 Y140.2181
X105.7502 Y140.2776
X105.8582 Y140.3093
G02X105.2075Y139.5873I-0.1486J-0.5203
X106.6562Y139.2767I0.8267J0.3220
X106.0298Y141.3014I-0.9050J0.8292
X104.1465Y139.5245I-0.3416J-1.5244
X107.0416Y138.2446I1.8766J0.3306
X106.9816Y142.0515I-1.2300J1.8845
X103.0853Y140.2009I-1.3339J-2.2187
X106.6968Y136.9506I2.9032J-0.4057
X108.4156Y142.2020I-0.8135J3.1732
X102.4083Y141.5484I-2.7886J-2.3036
X105.5759Y135.8073I3.5254J-1.7993
X110.0181Y141.4952I0.3732J4.2871
X102.5068Y143.4132I-4.3893J-1.5226
X103.8028Y135.1872I3.3571J-3.6862
X111.3302Y139.8246I2.2008J4.8557
X103.6062Y145.3338I-5.6705J0.2190
X101.4043Y135.6036I2.1804J-5.6076
X111.7952Y137.2650I4.6307J4.3626
X105.9200Y146.8048I-6.0772J2.8364
X99.1021Y137.3077I-0.2088J-7.0460
X111.0128Y134.4190I6.9303J2.5760
X108.9969Y147.1752I-5.2193J5.7126
X97.5795Y140.0596I-3.3406J-7.3576
X114.3297Y139.9280I8.3746J-0.1310
X97.3297Y139.9308I-8.5000J0.0014
X114.3297Y139.9280I8.5000J-0.0014
G00 Z1.0000
X105.8297 Y139.9294
G01 Z-1.5000  F250.0
X105.8525 Y139.9224  F1000.0
X105.8690 Y139.9026
X105.8742 Y139.8735
X105.8645 Y139.8407
X105.8386 Y139.8107
X105.7979 Y139.7901
X105.7464 Y139.7850
X105.6901 Y139.7998
X105.6366 Y139.8364
X105.5943 Y139.8939
X105.5707 Y139.9684
X105.5723 Y140.0534
X105.6028 Y140.1399
X105.6630 Y140.2181
X105.7502 Y140.2776
X105.8582 Y140.3093
G02X105.2075Y139.5873I-0.1486J-0.5203
X106.6562Y139.2767I0.8267J0.3220
X106.0298Y141.3014I-0.9050J0.8292
X104.1465Y139.5245I-0.3416J-1.5244
X107.0416Y138.2446I1.8766J0.3306
X106.9816Y142.0515I-1.2300J1.8845
X103.0853Y140.2009I-1.3339J-2.2187
X106.6968Y136.9506I2.9032J-0.4057
X108.4156Y142.2020I-0.8135J3.1732
X102.4083Y141.5484I-2.7886J-2.3036
X105.5759Y135.8073I3.5254J-1.7993
X110.0181Y141.4952I0.3732J4.2871
X102.5068Y143.4132I-4.3893J-1.5226
X103.8028Y135.1872I3.3571J-3.6862
X111.3302Y139.8246I2.2008J4.8557
X103.6062Y145.3338I-5.6705J0.2190
X101.4043Y135.6036I2.1804J-5.6076
X111.7952Y137.2650I4.6307J4.3626
X105.9200Y146.8048I-6.0772J2.8364
X99.1021Y137.3077I-0.2088J-7.0460
X111.0128Y134.4190I6.9303J2.5760
X108.9969Y147.1752I-5.2193J5.7126
X97.5795Y140.0596I-3.3406J-7.3576
X114.3297Y139.9280I8.3746J-0.1310
X97.3297Y139.9308I-8.5000J0.0014
X114.3297Y139.9280I8.5000J-0.0014
G01 X113.8250 Y138.9951 Z-0.4393  F1500.0
Z0.1607
G00 Z1.0000
X215.8070 Y145.0565
G01 Z0.0000  F250.0
Z-0.6000  F750.0
X215.8252 Y145.0440 Z-0.6039
X215.8815 Y145.0292 Z-0.6142
X215.9330 Y145.0343 Z-0.6233
X215.9737 Y145.0548 Z-0.6313
X215.9996 Y145.0849 Z-0.6383
X216.0094 Y145.1177 Z-0.6444
X216.0042 Y145.1467 Z-0.6496
X215.9876 Y145.1665 Z-0.6541
X215.9648 Y145.1735 Z-0.6583
X215.9876 Y145.1665 Z-0.6625
X216.0042 Y145.1467 Z-0.6671
X216.0094 Y145.1177 Z-0.6723
X215.9996 Y145.0849 Z-0.6783
X215.9737 Y145.0548 Z-0.6853
X215.9330 Y145.0343 Z-0.6933
X215.8815 Y145.0292 Z-0.7025
X215.8252 Y145.0440 Z-0.7127
X215.7718 Y145.0806 Z-0.7241
X215.7294 Y145.1381 Z-0.7367
X215.7058 Y145.2126 Z-0.7505
X215.7074 Y145.2975 Z-0.7655
X215.7379 Y145.3841 Z-0.7817
X215.7982 Y145.4622 Z-0.7991
X215.8854 Y145.5217 Z-0.8177
X215.9933 Y145.5534 Z-0.8375
X216.1127 Y145.5503 Z-0.8586
X216.2320 Y145.5086 Z-0.8809
X216.3386 Y145.4284 Z-0.9044
X216.4199 Y145.3139 Z-0.9292
X216.3386 Y145.4284 Z-0.9539
X216.2320 Y145.5086 Z-0.9774
X216.1127 Y145.5503 Z-0.9997
X215.9933 Y145.5534 Z-1.0208
X215.8854 Y145.5217 Z-1.0406
X215.7982 Y145.4622 Z-1.0592
X215.7379 Y145.3841 Z-1.0766
X215.7074 Y145.2975 Z-1.0928
X215.7058 Y145.2126 Z-1.1078
X215.7294 Y145.1381 Z-1.1216
X215.7718 Y145.0806 Z-1.1342
X215.8252 Y145.0440 Z-1.1456
X215.8815 Y145.0292 Z-1.1558
X215.9330 Y145.0343 Z-1.1650
X215.9737 Y145.0548 Z-1.1730
X215.9996 Y145.0849 Z-1.1800
X216.0094 Y145.1177 Z-1.1860
X216.0042 Y145.1467 Z-1.1912
X215.9876 Y145.1665 Z-1.1958
X215.9648 Y145.1735 Z-1.2000
X215.9876 Y145.1665  F1000.0
X216.0042 Y145.1467
X216.0094 Y145.1177
X215.9996 Y145.0849
X215.9737 Y145.0548
X215.9330 Y145.0343
X215.8815 Y145.0292
X215.8252 Y145.0440
X215.7718 Y145.0806
X215.7294 Y145.1381
X215.7058 Y145.2126
X215.7074 Y145.2975
X215.7379 Y145.3841
X215.7982 Y145.4622
X215.8854 Y145.5217
X215.9933 Y145.5534
G02X215.3426Y144.8315I-0.1486J-0.5202
X216.7914Y144.5208I0.8268J0.3219
X216.1649Y146.5456I-0.9051J0.8293
X214.2816Y144.7686I-0.3416J-1.5244
X217.1767Y143.4888I1.8766J0.3306
X217.1167Y147.2957I-1.2300J1.8845
X213.2204Y145.4451I-1.3338J-2.2187
X216.8319Y142.1947I2.9033J-0.4057
X218.5507Y147.4462I-0.8135J3.1733
X212.5434Y146.7926I-2.7886J-2.3036
X215.7110Y141.0515I3.5254J-1.7993
X220.1532Y146.7394I0.3733J4.2871
X212.6420Y148.6574I-4.3893J-1.5227
X213.9379Y140.4314I3.3570J-3.6862
X221.4653Y145.0688I2.2008J4.8557
X213.7413Y150.5780I-5.6705J0.2190
X211.5394Y140.8478I2.1804J-5.6077
X221.9303Y142.5092I4.6308J4.3625
X216.0551Y152.0490I-6.0771J2.8364
X209.2372Y142.5519I-0.2087J-7.0460
X221.1479Y139.6632I6.9304J2.5760
X219.1320Y152.4194I-5.2193J5.7126
X207.7146Y145.3038I-3.3405J-7.3577
X224.4625Y145.3077I8.3740J-0.1290
G00 Z1.0000
X223.5152 Y141.2695
G01 Z-1.2000  F250.0
G02X208.4144Y149.0776I-7.5504J3.9040 F1000.0
X223.5152Y141.2695I7.5504J-3.9041
G00 Z1.0000
X215.9648 Y145.1735
G01 Z-1.5000  F250.0
X215.9876 Y145.1665  F1000.0
X216.0042 Y145.1467
X216.0094 Y145.1177
X215.9996 Y145.0849
X215.9737 Y145.0548
X215.9330 Y145.0343
X215.8815 Y145.0292
X215.8252 Y145.0440
X215.7718 Y145.0806
X215.7294 Y145.1381
X215.7058 Y145.2126
X215.7074 Y145.2975
X215.7379 Y145.3841
X215.7982 Y145.4622
X215.8854 Y145.5217
X215.9933 Y145.5534
G02X215.3426Y144.8315I-0.1486J-0.5202
X216.7914Y144.5208I0.8268J0.3219
X216.1649Y146.5456I-0.9051J0.8293
X214.2816Y144.7686I-0.3416J-1.5244
X217.1767Y143.4888I1.8766J0.3306
X217.1167Y147.2957I-1.2300J1.8845
X213.2204Y145.4451I-1.3338J-2.2187
X216.8319Y142.1947I2.9033J-0.4057
X218.5507Y147.4462I-0.8135J3.1733
X212.5434Y146.7926I-2.7886J-2.3036
X215.7110Y141.0515I3.5254J-1.7993
X220.1532Y146.7394I0.3733J4.2871
X212.6420Y148.6574I-4.3893J-1.5227
X213.9379Y140.4314I3.3570J-3.6862
X221.4653Y145.0688I2.2008J4.8557
X213.7413Y150.5780I-5.6705J0.2190
X211.5394Y140.8478I2.1804J-5.6077
X221.9303Y142.5092I4.6308J4.3625
X216.0551Y152.0490I-6.0771J2.8364
X209.2372Y142.5519I-0.2087J-7.0460
X221.1479Y139.6632I6.9304J2.5760
X219.1320Y152.4194I-5.2193J5.7126
X207.7146Y145.3038I-3.3405J-7.3577
X224.4625Y145.3077I8.3740J-0.1290
G00 Z1.0000
X223.5152 Y141.2695
G01 Z-1.5000  F250.0
G02X208.4144Y149.0776I-7.5504J3.9040 F1000.0
X223.5152Y141.2695I7.5504J-3.9041
G01 X222.6634 Y140.6376 Z-0.4393  F1500.0
Z0.1607
G00 Z1.0000
X161.0867 Y28.7586
G01 Z0.0000  F250.0
Z-0.6000  F750.0
X161.1050 Y28.7461 Z-0.6039
X161.1613 Y28.7313 Z-0.6142
X161.2128 Y28.7364 Z-0.6233
X161.2535 Y28.7570 Z-0.6313
X161.2794 Y28.7870 Z-0.6383
X161.2891 Y28.8198 Z-0.6444
X161.2839 Y28.8488 Z-0.6496
X161.2673 Y28.8686 Z-0.6541
X161.2446 Y28.8757 Z-0.6583
X161.2673 Y28.8686 Z-0.6625
X161.2839 Y28.8488 Z-0.6671
X161.2891 Y28.8198 Z-0.6723
X161.2794 Y28.7870 Z-0.6783
X161.2535 Y28.7570 Z-0.6853
X161.2128 Y28.7364 Z-0.6933
X161.1613 Y28.7313 Z-0.7025
X161.1050 Y28.7461 Z-0.7127
X161.0515 Y28.7827 Z-0.7241
X161.0092 Y28.8402 Z-0.7367
X160.9856 Y28.9147 Z-0.7505
X160.9872 Y28.9996 Z-0.7655
X161.0177 Y29.0862 Z-0.7817
X161.0779 Y29.1643 Z-0.7991
X161.1651 Y29.2239 Z-0.8177
X161.2731 Y29.2556 Z-0.8375
X161.3925 Y29.2524 Z-0.8586
X161.5118 Y29.2107 Z-0.8809
X161.6184 Y29.1305 Z-0.9044
X161.6996 Y29.0160 Z-0.9292
X161.6184 Y29.1305 Z-0.9539
X161.5118 Y29.2107 Z-0.9774
X161.3925 Y29.2524 Z-0.9997
X161.2731 Y29.2556 Z-1.0208
X161.1651 Y29.2239 Z-1.0406
X161.0779 Y29.1643 Z-1.0592
X161.0177 Y29.0862 Z-1.0766
X160.9872 Y28.9996 Z-1.0928
X160.9856 Y28.9147 Z-1.1078
X161.0092 Y28.8402 Z-1.1216
X161.0515 Y28.7827 Z-1.1342
X161.1050 Y28.7461 Z-1.1456
X161.1613 Y28.7313 Z-1.1558
X161.2128 Y28.7364 Z-1.1650
X161.2535 Y28.7570 Z-1.1730
X161.2794 Y28.7870 Z-1.1800
X161.2891 Y28.8198 Z-1.1860
X161.2839 Y28.8488 Z-1.1912
X161.2673 Y28.8686 Z-1.1958
X161.2446 Y28.8757 Z-1.2000
X161.2673 Y28.8686  F1000.0
X161.2839 Y28.8488
X161.2891 Y28.8198
X161.2794 Y28.7870
X161.2535 Y28.7570
X161.2128 Y28.7364
X161.1613 Y28.7313
X161.1050 Y28.7461
X161.0515 Y28.7827
X161.0092 Y28.8402
X160.9856 Y28.9147
X160.9872 Y28.9996
X161.0177 Y29.0862
X161.0779 Y29.1643
X161.1651 Y29.2239
X161.2731 Y29.2556
G02X160.6224Y28.5336I-0.1486J-0.5203
X162.0711Y28.2230I0.8267J0.3220
X161.4447Y30.2477I-0.9050J0.8292
X159.5614Y28.4708I-0.3416J-1.5244
X162.4565Y27.1909I1.8766J0.3305
X162.3964Y30.9978I-1.2300J1.8845
X158.5001Y29.1472I-1.3338J-2.2187
X162.1117Y25.8968I2.9033J-0.4057
X163.8305Y31.1483I-0.8135J3.1733
X157.8231Y30.4947I-2.7886J-2.3036
X160.9908Y24.7536I3.5254J-1.7993
X165.4330Y30.4415I0.3732J4.2871
X157.9217Y32.3595I-4.3893J-1.5227
X159.2177Y24.1335I3.3571J-3.6862
X166.7451Y28.7709I2.2008J4.8557
X159.0211Y34.2801I-5.6705J0.2190
X156.8192Y24.5499I2.1804J-5.6077
X167.2101Y26.2113I4.6307J4.3625
X161.3348Y35.7511I-6.0772J2.8364
X154.5169Y26.2540I-0.2087J-7.0460
X166.4276Y23.3653I6.9304J2.5760
X164.4118Y36.1215I-5.2192J5.7126
X152.9944Y29.0059I-3.3406J-7.3576
X169.7423Y29.0098I8.3739J-0.1290
G00 Z1.0000
X169.7435
G01 Z-1.2000  F250.0
G02X152.7456Y28.7415I-8.4989J-0.1341 F1000.0
X169.7435Y29.0098I8.4990J0.1342
G00 Z1.0000
X161.2446 Y28.8757
G01 Z-1.5000  F250.0
X161.2673 Y28.8686  F1000.0
X161.2839 Y28.8488
X161.2891 Y28.8198
X161.2794 Y28.7870
X161.2535 Y28.7570
X161.2128 Y28.7364
X161.1613 Y28.7313
X161.1050 Y28.7461
X161.0515 Y28.7827
X161.0092 Y28.8402
X160.9856 Y28.9147
X160.9872 Y28.9996
X161.0177 Y29.0862
X161.0779 Y29.1643
X161.1651 Y29.2239
X161.2731 Y29.2556
G02X160.6224Y28.5336I-0.1486J-0.5203
X162.0711Y28.2230I0.8267J0.3220
X161.4447Y30.2477I-0.9050J0.8292
X159.5614Y28.4708I-0.3416J-1.5244
X162.4565Y27.1909I1.8766J0.3305
X162.3964Y30.9978I-1.2300J1.8845
X158.5001Y29.1472I-1.3338J-2.2187
X162.1117Y25.8968I2.9033J-0.4057
X163.8305Y31.1483I-0.8135J3.1733
X157.8231Y30.4947I-2.7886J-2.3036
X160.9908Y24.7536I3.5254J-1.7993
X165.4330Y30.4415I0.3732J4.2871
X157.9217Y32.3595I-4.3893J-1.5227
X159.2177Y24.1335I3.3571J-3.6862
X166.7451Y28.7709I2.2008J4.8557
X159.0211Y34.2801I-5.6705J0.2190
X156.8192Y24.5499I2.1804J-5.6077
X167.2101Y26.2113I4.6307J4.3625
X161.3348Y35.7511I-6.0772J2.8364
X154.5169Y26.2540I-0.2087J-7.0460
X166.4276Y23.3653I6.9304J2.5760
X164.4118Y36.1215I-5.2192J5.7126
X152.9944Y29.0059I-3.3406J-7.3576
X169.7423Y29.0098I8.3739J-0.1290
G00 Z1.0000
X169.7435
G01 Z-1.5000  F250.0
G02X152.7456Y28.7415I-8.4989J-0.1341 F1000.0
X169.7435Y29.0098I8.4990J0.1342
G01 X169.6365 Y30.0651 Z-0.4393  F1500.0
Z0.1607
G00 Z1.0000
(Outside Profiling)
(SlotDrill 2mm Carbide)
X31.9526 Y122.5090
G01 Z-0.4800  F250.0
Y115.3065 Z-1.7500  F750.0
Y97.8065  F1000.0
G02X-0.0474I-16.0000J0.0000
G01 Y147.8065
G02X0.9526Y148.8065I1.0000J0.0000
G01 X30.9526
G02X31.9526Y147.8065I0.0000J-1.0000
G01 Y115.3065
Z-3.5000
Y97.8065
G02X-0.0474I-16.0000J0.0000
G01 Y147.8065
G02X0.9526Y148.8065I1.0000J0.0000
G01 X30.9526
G02X31.9526Y147.8065I0.0000J-1.0000
G01 Y115.3065
G00 Z1.0000
X31.0000 Y51.7081
G01 Z-0.4800  F250.0
Y44.5055 Z-1.7500  F750.0
Y16.1722  F1000.0
G02X-1.0000I-16.0000J0.0000
G01 Y66.1722
G02X0.0000Y67.1722I1.0000J0.0000
G01 X30.0000
G02X31.0000Y66.1722I0.0000J-1.0000
G01 Y44.5055
Z-3.5000
Y16.1722
G02X-1.0000I-16.0000J0.0000
G01 Y66.1722
G02X0.0000Y67.1722I1.0000J0.0000
G01 X30.0000
G02X31.0000Y66.1722I0.0000J-1.0000
G01 Y44.5055
G00 Z1.0000
X75.8000 Y84.7378
G01 Z-0.4800  F250.0
X76.0991 Y77.5415 Z-1.7500  F750.0
X78.4887 Y20.0415  F1000.0
X78.4896 Y20.0000
G02X36.4896I-21.0000J0.0000
G01 X36.4905 Y20.0415
X41.5035 Y140.6667
G02X73.3552Y142.0691I15.9861J-0.6667
G01 X73.3608 Y142.0147
X73.3625 Y141.9873
G02X75.0256Y103.3733I-4238.5473J-201.8912
G01 X76.0991 Y77.5415
Z-3.5000
X78.4887 Y20.0415
X78.4896 Y20.0000
G02X36.4896I-21.0000J0.0000
G01 X36.4905 Y20.0415
X41.5035 Y140.6667
G02X73.3552Y142.0691I15.9861J-0.6667
G01 X73.3608 Y142.0147
X73.3625 Y141.9873
G02X75.0256Y103.3733I-4238.5473J-201.8912
G01 X76.0991 Y77.5415
G00 Z1.0000
X125.8119 Y115.4175
G01 Z-0.4800  F250.0
X125.5128 Y108.2212 Z-1.7500  F750.0
X121.8158 Y19.2629  F1000.0
G02X89.8436I-15.9861J0.6666
G01 X84.8306 Y139.8879
X84.8297 Y139.9294
G02X126.8297I21.0000J0.0000
G01 X126.8288 Y139.8879
X125.5128 Y108.2212
Z-3.5000
X121.8158 Y19.2629
G02X89.8436I-15.9861J0.6666
G01 X84.8306 Y139.8879
X84.8297 Y139.9294
G02X126.8297I21.0000J0.0000
G01 X126.8288 Y139.8879
X125.5128 Y108.2212
G00 Z1.0000
X183.4504 Y121.1120
G01 Z-0.4800  F250.0
X183.4963 Y119.9320 Z-0.6882  F750.0
X183.5538 Y118.4277 Z-0.9537
X183.6104 Y116.9233 Z-1.2191
X183.6661 Y115.4189 Z-1.4846
X183.7208 Y113.9145 Z-1.7500
X187.2227 Y29.9382  F1000.0
G02X135.2672Y29.9590I-25.9782J-1.0625
G01 X140.2628 Y149.7507
G02X182.0683Y151.5913I20.9818J-0.8750
G01 X182.0737 Y151.5394
X182.0753 Y151.5134
G02X183.7208Y113.9145I-2452.1481J-126.1516
G01 Z-3.5000
X187.2227 Y29.9382
G02X135.2672Y29.9590I-25.9782J-1.0625
G01 X140.2628 Y149.7507
G02X182.0683Y151.5913I20.9818J-0.8750
G01 X182.0737 Y151.5394
X182.0753 Y151.5134
G02X183.7208Y113.9145I-2452.1481J-126.1516
G00 Z1.0000
X240.6233 Y112.4632
G01 Z-0.4800  F250.0
X240.3232 Y105.2669 Z-1.7500  F750.0
X236.9466 Y24.2986  F1000.0
G02X194.9831I-20.9818J0.8751
G01 X190.0494 Y142.6038
G02X241.8802I25.9154J2.5309
G01 X240.3232 Y105.2669
Z-3.5000
X236.9466 Y24.2986
G02X194.9831I-20.9818J0.8751
G01 X190.0494 Y142.6038
G02X241.8802I25.9154J2.5309
G01 X240.3232 Y105.2669
G00 Z1.0000
M5 M9
M30
