%
G17 G21 G40 G90 G64 P0.1
(2 1/2 Axis Profiling)
(SlotDrill 1/8in 3.175mm Carbide Aluminium Cut)
T6 M06
S23960 M3
G0 Z1.5875
X139.05169 Y-1.5875
G1 Z-5.1 F177.2
X133.33667 Z-5.6 F531.7
X45. F709.
G17
G02 Y91.5875 I0. J46.5875
G1 X155.
G02 Y-1.5875 I0. J-46.5875
G1 X133.33667
G0 Z1.5875
M30
%
