G00 G49 G40.1 G17 G80 G50 G90
G21
(Hole Pocketing)
(SlotDrill 2mm Carbide)
M6 T12
M03 S20000
G00 Z1.0000
X224.4901 Y168.8984
G01 Z0.6350  F1000.0
X224.4927 Y168.8938 Z0.6261
X224.5050 Y168.8744 Z0.5869
X224.5180 Y168.8555 Z0.5477
X224.5317 Y168.8370 Z0.5085
X224.5461 Y168.8191 Z0.4693
X224.5612 Y168.8018 Z0.4301
X224.5770 Y168.7851 Z0.3909
X224.5934 Y168.7690 Z0.3517
X224.6104 Y168.7536 Z0.3125
X224.6280 Y168.7388 Z0.2733
X224.6462 Y168.7247 Z0.2341
X224.6649 Y168.7114 Z0.1949
X224.6841 Y168.6987 Z0.1557
X224.7037 Y168.6869 Z0.1165
X224.7239 Y168.6758 Z0.0773
X224.7444 Y168.6655 Z0.0381
X224.7653 Y168.6560 Z-0.0011
X224.7866 Y168.6473 Z-0.0402
X224.8082 Y168.6394 Z-0.0794
X224.8301 Y168.6324 Z-0.1186
X224.8522 Y168.6262 Z-0.1578
X224.8746 Y168.6209 Z-0.1970
X224.8971 Y168.6165 Z-0.2362
X224.9198 Y168.6129 Z-0.2754
X224.9426 Y168.6103 Z-0.3146
X224.9655 Y168.6085 Z-0.3538
X224.9885 Y168.6076 Z-0.3930
X225.0115 Z-0.4322
X225.0344 Y168.6085 Z-0.4714
X225.0574 Y168.6103 Z-0.5106
X225.0802 Y168.6129 Z-0.5498
X225.1029 Y168.6165 Z-0.5890
X225.1254 Y168.6209 Z-0.6282
X225.1478 Y168.6262 Z-0.6674
X225.1699 Y168.6324 Z-0.7066
X225.1918 Y168.6394 Z-0.7458
X225.2134 Y168.6473 Z-0.7850
X225.2347 Y168.6560 Z-0.8241
X225.2556 Y168.6655 Z-0.8633
X225.2761 Y168.6758 Z-0.9025
X225.2962 Y168.6869 Z-0.9417
X225.3159 Y168.6987 Z-0.9809
X225.3351 Y168.7114 Z-1.0201
X225.3538 Y168.7247 Z-1.0593
X225.3720 Y168.7388 Z-1.0985
X225.3896 Y168.7536 Z-1.1377
X225.4066 Y168.7690 Z-1.1769
X225.4230 Y168.7851 Z-1.2161
X225.4388 Y168.8018 Z-1.2553
X225.4539 Y168.8191 Z-1.2945
X225.4683 Y168.8370 Z-1.3337
X225.4820 Y168.8555 Z-1.3729
X225.4950 Y168.8744 Z-1.4121
X225.5073 Y168.8938 Z-1.4513
X225.5188 Y168.9137 Z-1.4905
X225.5295 Y168.9341 Z-1.5297
X225.5394 Y168.9548 Z-1.5689
X225.5485 Y168.9759 Z-1.6081
X225.5568 Y168.9973 Z-1.6472
X225.5642 Y169.0191 Z-1.6864
X225.5708 Y169.0411 Z-1.7256
X225.5765 Y169.0634 Z-1.7648
X225.5814 Y169.0858 Z-1.8040
X225.5854 Y169.1084 Z-1.8432
X225.5885 Y169.1312 Z-1.8824
X225.5907 Y169.1541 Z-1.9216
X225.5921 Y169.1770 Z-1.9608
X225.5925 Y169.2000 Z-2.0000
G17
G03X224.4075I-0.5925J0.0000
X225.5925I0.5925J0.0000
G01 X224.7648 Y168.6562
X224.7653 Y168.6560 Z-2.0011
X224.7866 Y168.6473 Z-2.0402
X224.8082 Y168.6394 Z-2.0794
X224.8301 Y168.6324 Z-2.1186
X224.8522 Y168.6262 Z-2.1578
X224.8746 Y168.6209 Z-2.1970
X224.8971 Y168.6165 Z-2.2362
X224.9198 Y168.6129 Z-2.2754
X224.9426 Y168.6103 Z-2.3146
X224.9655 Y168.6085 Z-2.3538
X224.9885 Y168.6076 Z-2.3930
X225.0115 Z-2.4322
X225.0344 Y168.6085 Z-2.4714
X225.0574 Y168.6103 Z-2.5106
X225.0802 Y168.6129 Z-2.5498
X225.1029 Y168.6165 Z-2.5890
X225.1254 Y168.6209 Z-2.6282
X225.1478 Y168.6262 Z-2.6674
X225.1699 Y168.6324 Z-2.7066
X225.1918 Y168.6394 Z-2.7458
X225.2134 Y168.6473 Z-2.7850
X225.2347 Y168.6560 Z-2.8241
X225.2556 Y168.6655 Z-2.8633
X225.2761 Y168.6758 Z-2.9025
X225.2962 Y168.6869 Z-2.9417
X225.3159 Y168.6987 Z-2.9809
X225.3351 Y168.7114 Z-3.0201
X225.3538 Y168.7247 Z-3.0593
X225.3720 Y168.7388 Z-3.0985
X225.3896 Y168.7536 Z-3.1377
X225.4066 Y168.7690 Z-3.1769
X225.4230 Y168.7851 Z-3.2161
X225.4388 Y168.8018 Z-3.2553
X225.4539 Y168.8191 Z-3.2945
X225.4683 Y168.8370 Z-3.3337
X225.4820 Y168.8555 Z-3.3729
X225.4950 Y168.8744 Z-3.4121
X225.5073 Y168.8938 Z-3.4513
X225.5188 Y168.9137 Z-3.4905
X225.5295 Y168.9341 Z-3.5297
X225.5394 Y168.9548 Z-3.5689
X225.5485 Y168.9759 Z-3.6081
X225.5568 Y168.9973 Z-3.6472
X225.5642 Y169.0191 Z-3.6864
X225.5708 Y169.0411 Z-3.7256
X225.5765 Y169.0634 Z-3.7648
X225.5814 Y169.0858 Z-3.8040
X225.5854 Y169.1084 Z-3.8432
X225.5885 Y169.1312 Z-3.8824
X225.5907 Y169.1541 Z-3.9216
X225.5921 Y169.1770 Z-3.9608
X225.5925 Y169.2000 Z-4.0000
G03X224.4075I-0.5925J0.0000
X225.5925I0.5925J0.0000
G01 X224.7648 Y168.6562
X224.7653 Y168.6560 Z-4.0011
X224.7866 Y168.6473 Z-4.0402
X224.8082 Y168.6394 Z-4.0794
X224.8301 Y168.6324 Z-4.1186
X224.8522 Y168.6262 Z-4.1578
X224.8746 Y168.6209 Z-4.1970
X224.8971 Y168.6165 Z-4.2362
X224.9198 Y168.6129 Z-4.2754
X224.9426 Y168.6103 Z-4.3146
X224.9655 Y168.6085 Z-4.3538
X224.9885 Y168.6076 Z-4.3930
X225.0115 Z-4.4322
X225.0344 Y168.6085 Z-4.4714
X225.0574 Y168.6103 Z-4.5106
X225.0802 Y168.6129 Z-4.5498
X225.1029 Y168.6165 Z-4.5890
X225.1254 Y168.6209 Z-4.6282
X225.1478 Y168.6262 Z-4.6674
X225.1699 Y168.6324 Z-4.7066
X225.1918 Y168.6394 Z-4.7458
X225.2134 Y168.6473 Z-4.7850
X225.2347 Y168.6560 Z-4.8241
X225.2556 Y168.6655 Z-4.8633
X225.2761 Y168.6758 Z-4.9025
X225.2962 Y168.6869 Z-4.9417
X225.3159 Y168.6987 Z-4.9809
X225.3351 Y168.7114 Z-5.0201
X225.3538 Y168.7247 Z-5.0593
X225.3720 Y168.7388 Z-5.0985
X225.3896 Y168.7536 Z-5.1377
X225.4066 Y168.7690 Z-5.1769
X225.4230 Y168.7851 Z-5.2161
X225.4388 Y168.8018 Z-5.2553
X225.4539 Y168.8191 Z-5.2945
X225.4683 Y168.8370 Z-5.3337
X225.4820 Y168.8555 Z-5.3729
X225.4950 Y168.8744 Z-5.4121
X225.5073 Y168.8938 Z-5.4513
X225.5188 Y168.9137 Z-5.4905
X225.5295 Y168.9341 Z-5.5297
X225.5394 Y168.9548 Z-5.5689
X225.5485 Y168.9759 Z-5.6081
X225.5568 Y168.9973 Z-5.6472
X225.5642 Y169.0191 Z-5.6864
X225.5708 Y169.0411 Z-5.7256
X225.5765 Y169.0634 Z-5.7648
X225.5814 Y169.0858 Z-5.8040
X225.5854 Y169.1084 Z-5.8432
X225.5885 Y169.1312 Z-5.8824
X225.5907 Y169.1541 Z-5.9216
X225.5921 Y169.1770 Z-5.9608
X225.5925 Y169.2000 Z-6.0000
G03X224.4075I-0.5925J0.0000
X225.5925I0.5925J0.0000
G01 X224.7648 Y168.6562
X224.7653 Y168.6560 Z-6.0011
X224.7866 Y168.6473 Z-6.0402
X224.8082 Y168.6394 Z-6.0794
X224.8301 Y168.6324 Z-6.1186
X224.8522 Y168.6262 Z-6.1578
X224.8746 Y168.6209 Z-6.1970
X224.8971 Y168.6165 Z-6.2362
X224.9198 Y168.6129 Z-6.2754
X224.9426 Y168.6103 Z-6.3146
X224.9655 Y168.6085 Z-6.3538
X224.9885 Y168.6076 Z-6.3930
X225.0115 Z-6.4322
X225.0344 Y168.6085 Z-6.4714
X225.0574 Y168.6103 Z-6.5106
X225.0802 Y168.6129 Z-6.5498
X225.1029 Y168.6165 Z-6.5890
X225.1254 Y168.6209 Z-6.6282
X225.1478 Y168.6262 Z-6.6674
X225.1699 Y168.6324 Z-6.7066
X225.1918 Y168.6394 Z-6.7458
X225.2134 Y168.6473 Z-6.7850
X225.2347 Y168.6560 Z-6.8241
X225.2556 Y168.6655 Z-6.8633
X225.2761 Y168.6758 Z-6.9025
X225.2962 Y168.6869 Z-6.9417
X225.3159 Y168.6987 Z-6.9809
X225.3351 Y168.7114 Z-7.0201
X225.3538 Y168.7247 Z-7.0593
X225.3720 Y168.7388 Z-7.0985
X225.3896 Y168.7536 Z-7.1377
X225.4066 Y168.7690 Z-7.1769
X225.4230 Y168.7851 Z-7.2161
X225.4388 Y168.8018 Z-7.2553
X225.4539 Y168.8191 Z-7.2945
X225.4683 Y168.8370 Z-7.3337
X225.4820 Y168.8555 Z-7.3729
X225.4950 Y168.8744 Z-7.4121
X225.5073 Y168.8938 Z-7.4513
X225.5188 Y168.9137 Z-7.4905
X225.5295 Y168.9341 Z-7.5297
X225.5394 Y168.9548 Z-7.5689
X225.5485 Y168.9759 Z-7.6081
X225.5568 Y168.9973 Z-7.6472
X225.5642 Y169.0191 Z-7.6864
X225.5708 Y169.0411 Z-7.7256
X225.5765 Y169.0634 Z-7.7648
X225.5814 Y169.0858 Z-7.8040
X225.5854 Y169.1084 Z-7.8432
X225.5885 Y169.1312 Z-7.8824
X225.5907 Y169.1541 Z-7.9216
X225.5921 Y169.1770 Z-7.9608
X225.5925 Y169.2000 Z-8.0000
G03X224.4075I-0.5925J0.0000
X225.5925I0.5925J0.0000
G01 X225.0000
G00 Z1.0000
X202.3901 Y128.8984
G01 Z0.6350  F1000.0
X202.3927 Y128.8938 Z0.6261
X202.4050 Y128.8744 Z0.5869
X202.4180 Y128.8555 Z0.5477
X202.4317 Y128.8370 Z0.5085
X202.4461 Y128.8191 Z0.4693
X202.4612 Y128.8018 Z0.4301
X202.4770 Y128.7851 Z0.3909
X202.4934 Y128.7690 Z0.3517
X202.5104 Y128.7536 Z0.3125
X202.5280 Y128.7388 Z0.2733
X202.5462 Y128.7247 Z0.2341
X202.5649 Y128.7114 Z0.1949
X202.5841 Y128.6987 Z0.1557
X202.6037 Y128.6869 Z0.1165
X202.6239 Y128.6758 Z0.0773
X202.6444 Y128.6655 Z0.0381
X202.6653 Y128.6560 Z-0.0011
X202.6866 Y128.6473 Z-0.0402
X202.7082 Y128.6394 Z-0.0794
X202.7301 Y128.6324 Z-0.1186
X202.7522 Y128.6262 Z-0.1578
X202.7746 Y128.6209 Z-0.1970
X202.7971 Y128.6165 Z-0.2362
X202.8198 Y128.6129 Z-0.2754
X202.8426 Y128.6103 Z-0.3146
X202.8655 Y128.6085 Z-0.3538
X202.8885 Y128.6076 Z-0.3930
X202.9115 Z-0.4322
X202.9344 Y128.6085 Z-0.4714
X202.9574 Y128.6103 Z-0.5106
X202.9802 Y128.6129 Z-0.5498
X203.0029 Y128.6165 Z-0.5890
X203.0254 Y128.6209 Z-0.6282
X203.0478 Y128.6262 Z-0.6674
X203.0699 Y128.6324 Z-0.7066
X203.0918 Y128.6394 Z-0.7458
X203.1134 Y128.6473 Z-0.7850
X203.1347 Y128.6560 Z-0.8241
X203.1556 Y128.6655 Z-0.8633
X203.1761 Y128.6758 Z-0.9025
X203.1962 Y128.6869 Z-0.9417
X203.2159 Y128.6987 Z-0.9809
X203.2351 Y128.7114 Z-1.0201
X203.2538 Y128.7247 Z-1.0593
X203.2720 Y128.7388 Z-1.0985
X203.2896 Y128.7536 Z-1.1377
X203.3066 Y128.7690 Z-1.1769
X203.3230 Y128.7851 Z-1.2161
X203.3388 Y128.8018 Z-1.2553
X203.3539 Y128.8191 Z-1.2945
X203.3683 Y128.8370 Z-1.3337
X203.3820 Y128.8555 Z-1.3729
X203.3950 Y128.8744 Z-1.4121
X203.4073 Y128.8938 Z-1.4513
X203.4188 Y128.9137 Z-1.4905
X203.4295 Y128.9341 Z-1.5297
X203.4394 Y128.9548 Z-1.5689
X203.4485 Y128.9759 Z-1.6081
X203.4568 Y128.9973 Z-1.6472
X203.4642 Y129.0191 Z-1.6864
X203.4708 Y129.0411 Z-1.7256
X203.4765 Y129.0634 Z-1.7648
X203.4814 Y129.0858 Z-1.8040
X203.4854 Y129.1084 Z-1.8432
X203.4885 Y129.1312 Z-1.8824
X203.4907 Y129.1541 Z-1.9216
X203.4921 Y129.1770 Z-1.9608
X203.4925 Y129.2000 Z-2.0000
G03X202.3075I-0.5925J0.0000
X203.4925I0.5925J0.0000
G01 X202.6648 Y128.6562
X202.6653 Y128.6560 Z-2.0011
X202.6866 Y128.6473 Z-2.0402
X202.7082 Y128.6394 Z-2.0794
X202.7301 Y128.6324 Z-2.1186
X202.7522 Y128.6262 Z-2.1578
X202.7746 Y128.6209 Z-2.1970
X202.7971 Y128.6165 Z-2.2362
X202.8198 Y128.6129 Z-2.2754
X202.8426 Y128.6103 Z-2.3146
X202.8655 Y128.6085 Z-2.3538
X202.8885 Y128.6076 Z-2.3930
X202.9115 Z-2.4322
X202.9344 Y128.6085 Z-2.4714
X202.9574 Y128.6103 Z-2.5106
X202.9802 Y128.6129 Z-2.5498
X203.0029 Y128.6165 Z-2.5890
X203.0254 Y128.6209 Z-2.6282
X203.0478 Y128.6262 Z-2.6674
X203.0699 Y128.6324 Z-2.7066
X203.0918 Y128.6394 Z-2.7458
X203.1134 Y128.6473 Z-2.7850
X203.1347 Y128.6560 Z-2.8241
X203.1556 Y128.6655 Z-2.8633
X203.1761 Y128.6758 Z-2.9025
X203.1962 Y128.6869 Z-2.9417
X203.2159 Y128.6987 Z-2.9809
X203.2351 Y128.7114 Z-3.0201
X203.2538 Y128.7247 Z-3.0593
X203.2720 Y128.7388 Z-3.0985
X203.2896 Y128.7536 Z-3.1377
X203.3066 Y128.7690 Z-3.1769
X203.3230 Y128.7851 Z-3.2161
X203.3388 Y128.8018 Z-3.2553
X203.3539 Y128.8191 Z-3.2945
X203.3683 Y128.8370 Z-3.3337
X203.3820 Y128.8555 Z-3.3729
X203.3950 Y128.8744 Z-3.4121
X203.4073 Y128.8938 Z-3.4513
X203.4188 Y128.9137 Z-3.4905
X203.4295 Y128.9341 Z-3.5297
X203.4394 Y128.9548 Z-3.5689
X203.4485 Y128.9759 Z-3.6081
X203.4568 Y128.9973 Z-3.6472
X203.4642 Y129.0191 Z-3.6864
X203.4708 Y129.0411 Z-3.7256
X203.4765 Y129.0634 Z-3.7648
X203.4814 Y129.0858 Z-3.8040
X203.4854 Y129.1084 Z-3.8432
X203.4885 Y129.1312 Z-3.8824
X203.4907 Y129.1541 Z-3.9216
X203.4921 Y129.1770 Z-3.9608
X203.4925 Y129.2000 Z-4.0000
G03X202.3075I-0.5925J0.0000
X203.4925I0.5925J0.0000
G01 X202.6648 Y128.6562
X202.6653 Y128.6560 Z-4.0011
X202.6866 Y128.6473 Z-4.0402
X202.7082 Y128.6394 Z-4.0794
X202.7301 Y128.6324 Z-4.1186
X202.7522 Y128.6262 Z-4.1578
X202.7746 Y128.6209 Z-4.1970
X202.7971 Y128.6165 Z-4.2362
X202.8198 Y128.6129 Z-4.2754
X202.8426 Y128.6103 Z-4.3146
X202.8655 Y128.6085 Z-4.3538
X202.8885 Y128.6076 Z-4.3930
X202.9115 Z-4.4322
X202.9344 Y128.6085 Z-4.4714
X202.9574 Y128.6103 Z-4.5106
X202.9802 Y128.6129 Z-4.5498
X203.0029 Y128.6165 Z-4.5890
X203.0254 Y128.6209 Z-4.6282
X203.0478 Y128.6262 Z-4.6674
X203.0699 Y128.6324 Z-4.7066
X203.0918 Y128.6394 Z-4.7458
X203.1134 Y128.6473 Z-4.7850
X203.1347 Y128.6560 Z-4.8241
X203.1556 Y128.6655 Z-4.8633
X203.1761 Y128.6758 Z-4.9025
X203.1962 Y128.6869 Z-4.9417
X203.2159 Y128.6987 Z-4.9809
X203.2351 Y128.7114 Z-5.0201
X203.2538 Y128.7247 Z-5.0593
X203.2720 Y128.7388 Z-5.0985
X203.2896 Y128.7536 Z-5.1377
X203.3066 Y128.7690 Z-5.1769
X203.3230 Y128.7851 Z-5.2161
X203.3388 Y128.8018 Z-5.2553
X203.3539 Y128.8191 Z-5.2945
X203.3683 Y128.8370 Z-5.3337
X203.3820 Y128.8555 Z-5.3729
X203.3950 Y128.8744 Z-5.4121
X203.4073 Y128.8938 Z-5.4513
X203.4188 Y128.9137 Z-5.4905
X203.4295 Y128.9341 Z-5.5297
X203.4394 Y128.9548 Z-5.5689
X203.4485 Y128.9759 Z-5.6081
X203.4568 Y128.9973 Z-5.6472
X203.4642 Y129.0191 Z-5.6864
X203.4708 Y129.0411 Z-5.7256
X203.4765 Y129.0634 Z-5.7648
X203.4814 Y129.0858 Z-5.8040
X203.4854 Y129.1084 Z-5.8432
X203.4885 Y129.1312 Z-5.8824
X203.4907 Y129.1541 Z-5.9216
X203.4921 Y129.1770 Z-5.9608
X203.4925 Y129.2000 Z-6.0000
G03X202.3075I-0.5925J0.0000
X203.4925I0.5925J0.0000
G01 X202.6648 Y128.6562
X202.6653 Y128.6560 Z-6.0011
X202.6866 Y128.6473 Z-6.0402
X202.7082 Y128.6394 Z-6.0794
X202.7301 Y128.6324 Z-6.1186
X202.7522 Y128.6262 Z-6.1578
X202.7746 Y128.6209 Z-6.1970
X202.7971 Y128.6165 Z-6.2362
X202.8198 Y128.6129 Z-6.2754
X202.8426 Y128.6103 Z-6.3146
X202.8655 Y128.6085 Z-6.3538
X202.8885 Y128.6076 Z-6.3930
X202.9115 Z-6.4322
X202.9344 Y128.6085 Z-6.4714
X202.9574 Y128.6103 Z-6.5106
X202.9802 Y128.6129 Z-6.5498
X203.0029 Y128.6165 Z-6.5890
X203.0254 Y128.6209 Z-6.6282
X203.0478 Y128.6262 Z-6.6674
X203.0699 Y128.6324 Z-6.7066
X203.0918 Y128.6394 Z-6.7458
X203.1134 Y128.6473 Z-6.7850
X203.1347 Y128.6560 Z-6.8241
X203.1556 Y128.6655 Z-6.8633
X203.1761 Y128.6758 Z-6.9025
X203.1962 Y128.6869 Z-6.9417
X203.2159 Y128.6987 Z-6.9809
X203.2351 Y128.7114 Z-7.0201
X203.2538 Y128.7247 Z-7.0593
X203.2720 Y128.7388 Z-7.0985
X203.2896 Y128.7536 Z-7.1377
X203.3066 Y128.7690 Z-7.1769
X203.3230 Y128.7851 Z-7.2161
X203.3388 Y128.8018 Z-7.2553
X203.3539 Y128.8191 Z-7.2945
X203.3683 Y128.8370 Z-7.3337
X203.3820 Y128.8555 Z-7.3729
X203.3950 Y128.8744 Z-7.4121
X203.4073 Y128.8938 Z-7.4513
X203.4188 Y128.9137 Z-7.4905
X203.4295 Y128.9341 Z-7.5297
X203.4394 Y128.9548 Z-7.5689
X203.4485 Y128.9759 Z-7.6081
X203.4568 Y128.9973 Z-7.6472
X203.4642 Y129.0191 Z-7.6864
X203.4708 Y129.0411 Z-7.7256
X203.4765 Y129.0634 Z-7.7648
X203.4814 Y129.0858 Z-7.8040
X203.4854 Y129.1084 Z-7.8432
X203.4885 Y129.1312 Z-7.8824
X203.4907 Y129.1541 Z-7.9216
X203.4921 Y129.1770 Z-7.9608
X203.4925 Y129.2000 Z-8.0000
G03X202.3075I-0.5925J0.0000
X203.4925I0.5925J0.0000
G01 X202.9000
G00 Z1.0000
X207.3902 Y123.8973
G01 Z0.6350  F1000.0
X207.3928 Y123.8927 Z0.6261
X207.4050 Y123.8733 Z0.5869
X207.4180 Y123.8543 Z0.5477
X207.4317 Y123.8359 Z0.5085
X207.4462 Y123.8180 Z0.4693
X207.4613 Y123.8007 Z0.4301
X207.4770 Y123.7840 Z0.3909
X207.4935 Y123.7679 Z0.3517
X207.5105 Y123.7525 Z0.3125
X207.5281 Y123.7377 Z0.2733
X207.5462 Y123.7236 Z0.2341
X207.5649 Y123.7102 Z0.1949
X207.5841 Y123.6976 Z0.1557
X207.6038 Y123.6857 Z0.1165
X207.6239 Y123.6746 Z0.0773
X207.6445 Y123.6643 Z0.0381
X207.6654 Y123.6548 Z-0.0011
X207.6866 Y123.6461 Z-0.0402
X207.7082 Y123.6383 Z-0.0794
X207.7301 Y123.6313 Z-0.1186
X207.7523 Y123.6251 Z-0.1578
X207.7746 Y123.6198 Z-0.1970
X207.7972 Y123.6154 Z-0.2362
X207.8199 Y123.6118 Z-0.2754
X207.8427 Y123.6091 Z-0.3146
X207.8656 Y123.6074 Z-0.3538
X207.8886 Y123.6065 Z-0.3930
X207.9115 Z-0.4322
X207.9345 Y123.6074 Z-0.4714
X207.9574 Y123.6091 Z-0.5106
X207.9802 Y123.6118 Z-0.5498
X208.0029 Y123.6154 Z-0.5890
X208.0255 Y123.6198 Z-0.6282
X208.0478 Y123.6251 Z-0.6674
X208.0700 Y123.6313 Z-0.7066
X208.0919 Y123.6383 Z-0.7458
X208.1135 Y123.6461 Z-0.7850
X208.1347 Y123.6548 Z-0.8241
X208.1556 Y123.6643 Z-0.8633
X208.1762 Y123.6746 Z-0.9025
X208.1963 Y123.6857 Z-0.9417
X208.2160 Y123.6976 Z-0.9809
X208.2352 Y123.7102 Z-1.0201
X208.2539 Y123.7236 Z-1.0593
X208.2720 Y123.7377 Z-1.0985
X208.2896 Y123.7525 Z-1.1377
X208.3066 Y123.7679 Z-1.1769
X208.3231 Y123.7840 Z-1.2161
X208.3388 Y123.8007 Z-1.2553
X208.3539 Y123.8180 Z-1.2945
X208.3684 Y123.8359 Z-1.3337
X208.3821 Y123.8543 Z-1.3729
X208.3951 Y123.8733 Z-1.4121
X208.4073 Y123.8927 Z-1.4513
X208.4188 Y123.9126 Z-1.4905
X208.4295 Y123.9329 Z-1.5297
X208.4394 Y123.9537 Z-1.5689
X208.4485 Y123.9748 Z-1.6081
X208.4568 Y123.9962 Z-1.6472
X208.4643 Y124.0180 Z-1.6864
X208.4708 Y124.0400 Z-1.7256
X208.4766 Y124.0622 Z-1.7648
X208.4814 Y124.0847 Z-1.8040
X208.4854 Y124.1073 Z-1.8432
X208.4885 Y124.1301 Z-1.8824
X208.4908 Y124.1529 Z-1.9216
X208.4921 Y124.1759 Z-1.9608
X208.4925 Y124.1989 Z-2.0000
G03X207.3075I-0.5925J0.0000
X208.4925I0.5925J0.0000
G01 X207.6648 Y123.6551
X207.6654 Y123.6548 Z-2.0011
X207.6866 Y123.6461 Z-2.0402
X207.7082 Y123.6383 Z-2.0794
X207.7301 Y123.6313 Z-2.1186
X207.7523 Y123.6251 Z-2.1578
X207.7746 Y123.6198 Z-2.1970
X207.7972 Y123.6154 Z-2.2362
X207.8199 Y123.6118 Z-2.2754
X207.8427 Y123.6091 Z-2.3146
X207.8656 Y123.6074 Z-2.3538
X207.8886 Y123.6065 Z-2.3930
X207.9115 Z-2.4322
X207.9345 Y123.6074 Z-2.4714
X207.9574 Y123.6091 Z-2.5106
X207.9802 Y123.6118 Z-2.5498
X208.0029 Y123.6154 Z-2.5890
X208.0255 Y123.6198 Z-2.6282
X208.0478 Y123.6251 Z-2.6674
X208.0700 Y123.6313 Z-2.7066
X208.0919 Y123.6383 Z-2.7458
X208.1135 Y123.6461 Z-2.7850
X208.1347 Y123.6548 Z-2.8241
X208.1556 Y123.6643 Z-2.8633
X208.1762 Y123.6746 Z-2.9025
X208.1963 Y123.6857 Z-2.9417
X208.2160 Y123.6976 Z-2.9809
X208.2352 Y123.7102 Z-3.0201
X208.2539 Y123.7236 Z-3.0593
X208.2720 Y123.7377 Z-3.0985
X208.2896 Y123.7525 Z-3.1377
X208.3066 Y123.7679 Z-3.1769
X208.3231 Y123.7840 Z-3.2161
X208.3388 Y123.8007 Z-3.2553
X208.3539 Y123.8180 Z-3.2945
X208.3684 Y123.8359 Z-3.3337
X208.3821 Y123.8543 Z-3.3729
X208.3951 Y123.8733 Z-3.4121
X208.4073 Y123.8927 Z-3.4513
X208.4188 Y123.9126 Z-3.4905
X208.4295 Y123.9329 Z-3.5297
X208.4394 Y123.9537 Z-3.5689
X208.4485 Y123.9748 Z-3.6081
X208.4568 Y123.9962 Z-3.6472
X208.4643 Y124.0180 Z-3.6864
X208.4708 Y124.0400 Z-3.7256
X208.4766 Y124.0622 Z-3.7648
X208.4814 Y124.0847 Z-3.8040
X208.4854 Y124.1073 Z-3.8432
X208.4885 Y124.1301 Z-3.8824
X208.4908 Y124.1529 Z-3.9216
X208.4921 Y124.1759 Z-3.9608
X208.4925 Y124.1989 Z-4.0000
G03X207.3075I-0.5925J0.0000
X208.4925I0.5925J0.0000
G01 X207.6648 Y123.6551
X207.6654 Y123.6548 Z-4.0011
X207.6866 Y123.6461 Z-4.0402
X207.7082 Y123.6383 Z-4.0794
X207.7301 Y123.6313 Z-4.1186
X207.7523 Y123.6251 Z-4.1578
X207.7746 Y123.6198 Z-4.1970
X207.7972 Y123.6154 Z-4.2362
X207.8199 Y123.6118 Z-4.2754
X207.8427 Y123.6091 Z-4.3146
X207.8656 Y123.6074 Z-4.3538
X207.8886 Y123.6065 Z-4.3930
X207.9115 Z-4.4322
X207.9345 Y123.6074 Z-4.4714
X207.9574 Y123.6091 Z-4.5106
X207.9802 Y123.6118 Z-4.5498
X208.0029 Y123.6154 Z-4.5890
X208.0255 Y123.6198 Z-4.6282
X208.0478 Y123.6251 Z-4.6674
X208.0700 Y123.6313 Z-4.7066
X208.0919 Y123.6383 Z-4.7458
X208.1135 Y123.6461 Z-4.7850
X208.1347 Y123.6548 Z-4.8241
X208.1556 Y123.6643 Z-4.8633
X208.1762 Y123.6746 Z-4.9025
X208.1963 Y123.6857 Z-4.9417
X208.2160 Y123.6976 Z-4.9809
X208.2352 Y123.7102 Z-5.0201
X208.2539 Y123.7236 Z-5.0593
X208.2720 Y123.7377 Z-5.0985
X208.2896 Y123.7525 Z-5.1377
X208.3066 Y123.7679 Z-5.1769
X208.3231 Y123.7840 Z-5.2161
X208.3388 Y123.8007 Z-5.2553
X208.3539 Y123.8180 Z-5.2945
X208.3684 Y123.8359 Z-5.3337
X208.3821 Y123.8543 Z-5.3729
X208.3951 Y123.8733 Z-5.4121
X208.4073 Y123.8927 Z-5.4513
X208.4188 Y123.9126 Z-5.4905
X208.4295 Y123.9329 Z-5.5297
X208.4394 Y123.9537 Z-5.5689
X208.4485 Y123.9748 Z-5.6081
X208.4568 Y123.9962 Z-5.6472
X208.4643 Y124.0180 Z-5.6864
X208.4708 Y124.0400 Z-5.7256
X208.4766 Y124.0622 Z-5.7648
X208.4814 Y124.0847 Z-5.8040
X208.4854 Y124.1073 Z-5.8432
X208.4885 Y124.1301 Z-5.8824
X208.4908 Y124.1529 Z-5.9216
X208.4921 Y124.1759 Z-5.9608
X208.4925 Y124.1989 Z-6.0000
G03X207.3075I-0.5925J0.0000
X208.4925I0.5925J0.0000
G01 X207.6648 Y123.6551
X207.6654 Y123.6548 Z-6.0011
X207.6866 Y123.6461 Z-6.0402
X207.7082 Y123.6383 Z-6.0794
X207.7301 Y123.6313 Z-6.1186
X207.7523 Y123.6251 Z-6.1578
X207.7746 Y123.6198 Z-6.1970
X207.7972 Y123.6154 Z-6.2362
X207.8199 Y123.6118 Z-6.2754
X207.8427 Y123.6091 Z-6.3146
X207.8656 Y123.6074 Z-6.3538
X207.8886 Y123.6065 Z-6.3930
X207.9115 Z-6.4322
X207.9345 Y123.6074 Z-6.4714
X207.9574 Y123.6091 Z-6.5106
X207.9802 Y123.6118 Z-6.5498
X208.0029 Y123.6154 Z-6.5890
X208.0255 Y123.6198 Z-6.6282
X208.0478 Y123.6251 Z-6.6674
X208.0700 Y123.6313 Z-6.7066
X208.0919 Y123.6383 Z-6.7458
X208.1135 Y123.6461 Z-6.7850
X208.1347 Y123.6548 Z-6.8241
X208.1556 Y123.6643 Z-6.8633
X208.1762 Y123.6746 Z-6.9025
X208.1963 Y123.6857 Z-6.9417
X208.2160 Y123.6976 Z-6.9809
X208.2352 Y123.7102 Z-7.0201
X208.2539 Y123.7236 Z-7.0593
X208.2720 Y123.7377 Z-7.0985
X208.2896 Y123.7525 Z-7.1377
X208.3066 Y123.7679 Z-7.1769
X208.3231 Y123.7840 Z-7.2161
X208.3388 Y123.8007 Z-7.2553
X208.3539 Y123.8180 Z-7.2945
X208.3684 Y123.8359 Z-7.3337
X208.3821 Y123.8543 Z-7.3729
X208.3951 Y123.8733 Z-7.4121
X208.4073 Y123.8927 Z-7.4513
X208.4188 Y123.9126 Z-7.4905
X208.4295 Y123.9329 Z-7.5297
X208.4394 Y123.9537 Z-7.5689
X208.4485 Y123.9748 Z-7.6081
X208.4568 Y123.9962 Z-7.6472
X208.4643 Y124.0180 Z-7.6864
X208.4708 Y124.0400 Z-7.7256
X208.4766 Y124.0622 Z-7.7648
X208.4814 Y124.0847 Z-7.8040
X208.4854 Y124.1073 Z-7.8432
X208.4885 Y124.1301 Z-7.8824
X208.4908 Y124.1529 Z-7.9216
X208.4921 Y124.1759 Z-7.9608
X208.4925 Y124.1989 Z-8.0000
G03X207.3075I-0.5925J0.0000
X208.4925I0.5925J0.0000
G01 X207.9000
G00 Z1.0000
X202.3901 Y118.8984
G01 Z0.6350  F1000.0
X202.3927 Y118.8938 Z0.6261
X202.4050 Y118.8744 Z0.5869
X202.4180 Y118.8555 Z0.5477
X202.4317 Y118.8370 Z0.5085
X202.4461 Y118.8191 Z0.4693
X202.4612 Y118.8018 Z0.4301
X202.4770 Y118.7851 Z0.3909
X202.4934 Y118.7690 Z0.3517
X202.5104 Y118.7536 Z0.3125
X202.5280 Y118.7388 Z0.2733
X202.5462 Y118.7247 Z0.2341
X202.5649 Y118.7114 Z0.1949
X202.5841 Y118.6987 Z0.1557
X202.6037 Y118.6869 Z0.1165
X202.6239 Y118.6758 Z0.0773
X202.6444 Y118.6655 Z0.0381
X202.6653 Y118.6560 Z-0.0011
X202.6866 Y118.6473 Z-0.0402
X202.7082 Y118.6394 Z-0.0794
X202.7301 Y118.6324 Z-0.1186
X202.7522 Y118.6262 Z-0.1578
X202.7746 Y118.6209 Z-0.1970
X202.7971 Y118.6165 Z-0.2362
X202.8198 Y118.6129 Z-0.2754
X202.8426 Y118.6103 Z-0.3146
X202.8655 Y118.6085 Z-0.3538
X202.8885 Y118.6076 Z-0.3930
X202.9115 Z-0.4322
X202.9344 Y118.6085 Z-0.4714
X202.9574 Y118.6103 Z-0.5106
X202.9802 Y118.6129 Z-0.5498
X203.0029 Y118.6165 Z-0.5890
X203.0254 Y118.6209 Z-0.6282
X203.0478 Y118.6262 Z-0.6674
X203.0699 Y118.6324 Z-0.7066
X203.0918 Y118.6394 Z-0.7458
X203.1134 Y118.6473 Z-0.7850
X203.1347 Y118.6560 Z-0.8241
X203.1556 Y118.6655 Z-0.8633
X203.1761 Y118.6758 Z-0.9025
X203.1962 Y118.6869 Z-0.9417
X203.2159 Y118.6987 Z-0.9809
X203.2351 Y118.7114 Z-1.0201
X203.2538 Y118.7247 Z-1.0593
X203.2720 Y118.7388 Z-1.0985
X203.2896 Y118.7536 Z-1.1377
X203.3066 Y118.7690 Z-1.1769
X203.3230 Y118.7851 Z-1.2161
X203.3388 Y118.8018 Z-1.2553
X203.3539 Y118.8191 Z-1.2945
X203.3683 Y118.8370 Z-1.3337
X203.3820 Y118.8555 Z-1.3729
X203.3950 Y118.8744 Z-1.4121
X203.4073 Y118.8938 Z-1.4513
X203.4188 Y118.9137 Z-1.4905
X203.4295 Y118.9341 Z-1.5297
X203.4394 Y118.9548 Z-1.5689
X203.4485 Y118.9759 Z-1.6081
X203.4568 Y118.9973 Z-1.6472
X203.4642 Y119.0191 Z-1.6864
X203.4708 Y119.0411 Z-1.7256
X203.4765 Y119.0634 Z-1.7648
X203.4814 Y119.0858 Z-1.8040
X203.4854 Y119.1084 Z-1.8432
X203.4885 Y119.1312 Z-1.8824
X203.4907 Y119.1541 Z-1.9216
X203.4921 Y119.1770 Z-1.9608
X203.4925 Y119.2000 Z-2.0000
G03X202.3075I-0.5925J0.0000
X203.4925I0.5925J0.0000
G01 X202.6648 Y118.6562
X202.6653 Y118.6560 Z-2.0011
X202.6866 Y118.6473 Z-2.0402
X202.7082 Y118.6394 Z-2.0794
X202.7301 Y118.6324 Z-2.1186
X202.7522 Y118.6262 Z-2.1578
X202.7746 Y118.6209 Z-2.1970
X202.7971 Y118.6165 Z-2.2362
X202.8198 Y118.6129 Z-2.2754
X202.8426 Y118.6103 Z-2.3146
X202.8655 Y118.6085 Z-2.3538
X202.8885 Y118.6076 Z-2.3930
X202.9115 Z-2.4322
X202.9344 Y118.6085 Z-2.4714
X202.9574 Y118.6103 Z-2.5106
X202.9802 Y118.6129 Z-2.5498
X203.0029 Y118.6165 Z-2.5890
X203.0254 Y118.6209 Z-2.6282
X203.0478 Y118.6262 Z-2.6674
X203.0699 Y118.6324 Z-2.7066
X203.0918 Y118.6394 Z-2.7458
X203.1134 Y118.6473 Z-2.7850
X203.1347 Y118.6560 Z-2.8241
X203.1556 Y118.6655 Z-2.8633
X203.1761 Y118.6758 Z-2.9025
X203.1962 Y118.6869 Z-2.9417
X203.2159 Y118.6987 Z-2.9809
X203.2351 Y118.7114 Z-3.0201
X203.2538 Y118.7247 Z-3.0593
X203.2720 Y118.7388 Z-3.0985
X203.2896 Y118.7536 Z-3.1377
X203.3066 Y118.7690 Z-3.1769
X203.3230 Y118.7851 Z-3.2161
X203.3388 Y118.8018 Z-3.2553
X203.3539 Y118.8191 Z-3.2945
X203.3683 Y118.8370 Z-3.3337
X203.3820 Y118.8555 Z-3.3729
X203.3950 Y118.8744 Z-3.4121
X203.4073 Y118.8938 Z-3.4513
X203.4188 Y118.9137 Z-3.4905
X203.4295 Y118.9341 Z-3.5297
X203.4394 Y118.9548 Z-3.5689
X203.4485 Y118.9759 Z-3.6081
X203.4568 Y118.9973 Z-3.6472
X203.4642 Y119.0191 Z-3.6864
X203.4708 Y119.0411 Z-3.7256
X203.4765 Y119.0634 Z-3.7648
X203.4814 Y119.0858 Z-3.8040
X203.4854 Y119.1084 Z-3.8432
X203.4885 Y119.1312 Z-3.8824
X203.4907 Y119.1541 Z-3.9216
X203.4921 Y119.1770 Z-3.9608
X203.4925 Y119.2000 Z-4.0000
G03X202.3075I-0.5925J0.0000
X203.4925I0.5925J0.0000
G01 X202.6648 Y118.6562
X202.6653 Y118.6560 Z-4.0011
X202.6866 Y118.6473 Z-4.0402
X202.7082 Y118.6394 Z-4.0794
X202.7301 Y118.6324 Z-4.1186
X202.7522 Y118.6262 Z-4.1578
X202.7746 Y118.6209 Z-4.1970
X202.7971 Y118.6165 Z-4.2362
X202.8198 Y118.6129 Z-4.2754
X202.8426 Y118.6103 Z-4.3146
X202.8655 Y118.6085 Z-4.3538
X202.8885 Y118.6076 Z-4.3930
X202.9115 Z-4.4322
X202.9344 Y118.6085 Z-4.4714
X202.9574 Y118.6103 Z-4.5106
X202.9802 Y118.6129 Z-4.5498
X203.0029 Y118.6165 Z-4.5890
X203.0254 Y118.6209 Z-4.6282
X203.0478 Y118.6262 Z-4.6674
X203.0699 Y118.6324 Z-4.7066
X203.0918 Y118.6394 Z-4.7458
X203.1134 Y118.6473 Z-4.7850
X203.1347 Y118.6560 Z-4.8241
X203.1556 Y118.6655 Z-4.8633
X203.1761 Y118.6758 Z-4.9025
X203.1962 Y118.6869 Z-4.9417
X203.2159 Y118.6987 Z-4.9809
X203.2351 Y118.7114 Z-5.0201
X203.2538 Y118.7247 Z-5.0593
X203.2720 Y118.7388 Z-5.0985
X203.2896 Y118.7536 Z-5.1377
X203.3066 Y118.7690 Z-5.1769
X203.3230 Y118.7851 Z-5.2161
X203.3388 Y118.8018 Z-5.2553
X203.3539 Y118.8191 Z-5.2945
X203.3683 Y118.8370 Z-5.3337
X203.3820 Y118.8555 Z-5.3729
X203.3950 Y118.8744 Z-5.4121
X203.4073 Y118.8938 Z-5.4513
X203.4188 Y118.9137 Z-5.4905
X203.4295 Y118.9341 Z-5.5297
X203.4394 Y118.9548 Z-5.5689
X203.4485 Y118.9759 Z-5.6081
X203.4568 Y118.9973 Z-5.6472
X203.4642 Y119.0191 Z-5.6864
X203.4708 Y119.0411 Z-5.7256
X203.4765 Y119.0634 Z-5.7648
X203.4814 Y119.0858 Z-5.8040
X203.4854 Y119.1084 Z-5.8432
X203.4885 Y119.1312 Z-5.8824
X203.4907 Y119.1541 Z-5.9216
X203.4921 Y119.1770 Z-5.9608
X203.4925 Y119.2000 Z-6.0000
G03X202.3075I-0.5925J0.0000
X203.4925I0.5925J0.0000
G01 X202.6648 Y118.6562
X202.6653 Y118.6560 Z-6.0011
X202.6866 Y118.6473 Z-6.0402
X202.7082 Y118.6394 Z-6.0794
X202.7301 Y118.6324 Z-6.1186
X202.7522 Y118.6262 Z-6.1578
X202.7746 Y118.6209 Z-6.1970
X202.7971 Y118.6165 Z-6.2362
X202.8198 Y118.6129 Z-6.2754
X202.8426 Y118.6103 Z-6.3146
X202.8655 Y118.6085 Z-6.3538
X202.8885 Y118.6076 Z-6.3930
X202.9115 Z-6.4322
X202.9344 Y118.6085 Z-6.4714
X202.9574 Y118.6103 Z-6.5106
X202.9802 Y118.6129 Z-6.5498
X203.0029 Y118.6165 Z-6.5890
X203.0254 Y118.6209 Z-6.6282
X203.0478 Y118.6262 Z-6.6674
X203.0699 Y118.6324 Z-6.7066
X203.0918 Y118.6394 Z-6.7458
X203.1134 Y118.6473 Z-6.7850
X203.1347 Y118.6560 Z-6.8241
X203.1556 Y118.6655 Z-6.8633
X203.1761 Y118.6758 Z-6.9025
X203.1962 Y118.6869 Z-6.9417
X203.2159 Y118.6987 Z-6.9809
X203.2351 Y118.7114 Z-7.0201
X203.2538 Y118.7247 Z-7.0593
X203.2720 Y118.7388 Z-7.0985
X203.2896 Y118.7536 Z-7.1377
X203.3066 Y118.7690 Z-7.1769
X203.3230 Y118.7851 Z-7.2161
X203.3388 Y118.8018 Z-7.2553
X203.3539 Y118.8191 Z-7.2945
X203.3683 Y118.8370 Z-7.3337
X203.3820 Y118.8555 Z-7.3729
X203.3950 Y118.8744 Z-7.4121
X203.4073 Y118.8938 Z-7.4513
X203.4188 Y118.9137 Z-7.4905
X203.4295 Y118.9341 Z-7.5297
X203.4394 Y118.9548 Z-7.5689
X203.4485 Y118.9759 Z-7.6081
X203.4568 Y118.9973 Z-7.6472
X203.4642 Y119.0191 Z-7.6864
X203.4708 Y119.0411 Z-7.7256
X203.4765 Y119.0634 Z-7.7648
X203.4814 Y119.0858 Z-7.8040
X203.4854 Y119.1084 Z-7.8432
X203.4885 Y119.1312 Z-7.8824
X203.4907 Y119.1541 Z-7.9216
X203.4921 Y119.1770 Z-7.9608
X203.4925 Y119.2000 Z-8.0000
G03X202.3075I-0.5925J0.0000
X203.4925I0.5925J0.0000
G01 X202.9000
G00 Z1.0000
X212.3901 Y118.8984
G01 Z0.6350  F1000.0
X212.3927 Y118.8938 Z0.6261
X212.4050 Y118.8744 Z0.5869
X212.4180 Y118.8555 Z0.5477
X212.4317 Y118.8370 Z0.5085
X212.4461 Y118.8191 Z0.4693
X212.4612 Y118.8018 Z0.4301
X212.4770 Y118.7851 Z0.3909
X212.4934 Y118.7690 Z0.3517
X212.5104 Y118.7536 Z0.3125
X212.5280 Y118.7388 Z0.2733
X212.5462 Y118.7247 Z0.2341
X212.5649 Y118.7114 Z0.1949
X212.5841 Y118.6987 Z0.1557
X212.6037 Y118.6869 Z0.1165
X212.6239 Y118.6758 Z0.0773
X212.6444 Y118.6655 Z0.0381
X212.6653 Y118.6559 Z-0.0011
X212.6866 Y118.6473 Z-0.0402
X212.7082 Y118.6394 Z-0.0794
X212.7301 Y118.6324 Z-0.1186
X212.7522 Y118.6262 Z-0.1578
X212.7746 Y118.6209 Z-0.1970
X212.7971 Y118.6165 Z-0.2362
X212.8198 Y118.6129 Z-0.2754
X212.8426 Y118.6103 Z-0.3146
X212.8655 Y118.6085 Z-0.3538
X212.8885 Y118.6076 Z-0.3930
X212.9115 Z-0.4322
X212.9344 Y118.6085 Z-0.4714
X212.9574 Y118.6103 Z-0.5106
X212.9802 Y118.6129 Z-0.5498
X213.0029 Y118.6165 Z-0.5890
X213.0254 Y118.6209 Z-0.6282
X213.0478 Y118.6262 Z-0.6674
X213.0699 Y118.6324 Z-0.7066
X213.0918 Y118.6394 Z-0.7458
X213.1134 Y118.6473 Z-0.7850
X213.1347 Y118.6559 Z-0.8241
X213.1556 Y118.6655 Z-0.8633
X213.1761 Y118.6758 Z-0.9025
X213.1962 Y118.6869 Z-0.9417
X213.2159 Y118.6987 Z-0.9809
X213.2351 Y118.7114 Z-1.0201
X213.2538 Y118.7247 Z-1.0593
X213.2720 Y118.7388 Z-1.0985
X213.2896 Y118.7536 Z-1.1377
X213.3066 Y118.7690 Z-1.1769
X213.3230 Y118.7851 Z-1.2161
X213.3388 Y118.8018 Z-1.2553
X213.3539 Y118.8191 Z-1.2945
X213.3683 Y118.8370 Z-1.3337
X213.3820 Y118.8555 Z-1.3729
X213.3950 Y118.8744 Z-1.4121
X213.4073 Y118.8938 Z-1.4513
X213.4188 Y118.9137 Z-1.4905
X213.4295 Y118.9341 Z-1.5297
X213.4394 Y118.9548 Z-1.5689
X213.4485 Y118.9759 Z-1.6081
X213.4568 Y118.9973 Z-1.6472
X213.4642 Y119.0191 Z-1.6864
X213.4708 Y119.0411 Z-1.7256
X213.4765 Y119.0634 Z-1.7648
X213.4814 Y119.0858 Z-1.8040
X213.4854 Y119.1084 Z-1.8432
X213.4885 Y119.1312 Z-1.8824
X213.4907 Y119.1541 Z-1.9216
X213.4921 Y119.1770 Z-1.9608
X213.4925 Y119.2000 Z-2.0000
G03X212.3075I-0.5925J0.0000
X213.4925I0.5925J0.0000
G01 X212.6648 Y118.6562
X212.6653 Y118.6559 Z-2.0011
X212.6866 Y118.6473 Z-2.0402
X212.7082 Y118.6394 Z-2.0794
X212.7301 Y118.6324 Z-2.1186
X212.7522 Y118.6262 Z-2.1578
X212.7746 Y118.6209 Z-2.1970
X212.7971 Y118.6165 Z-2.2362
X212.8198 Y118.6129 Z-2.2754
X212.8426 Y118.6103 Z-2.3146
X212.8655 Y118.6085 Z-2.3538
X212.8885 Y118.6076 Z-2.3930
X212.9115 Z-2.4322
X212.9344 Y118.6085 Z-2.4714
X212.9574 Y118.6103 Z-2.5106
X212.9802 Y118.6129 Z-2.5498
X213.0029 Y118.6165 Z-2.5890
X213.0254 Y118.6209 Z-2.6282
X213.0478 Y118.6262 Z-2.6674
X213.0699 Y118.6324 Z-2.7066
X213.0918 Y118.6394 Z-2.7458
X213.1134 Y118.6473 Z-2.7850
X213.1347 Y118.6559 Z-2.8241
X213.1556 Y118.6655 Z-2.8633
X213.1761 Y118.6758 Z-2.9025
X213.1962 Y118.6869 Z-2.9417
X213.2159 Y118.6987 Z-2.9809
X213.2351 Y118.7114 Z-3.0201
X213.2538 Y118.7247 Z-3.0593
X213.2720 Y118.7388 Z-3.0985
X213.2896 Y118.7536 Z-3.1377
X213.3066 Y118.7690 Z-3.1769
X213.3230 Y118.7851 Z-3.2161
X213.3388 Y118.8018 Z-3.2553
X213.3539 Y118.8191 Z-3.2945
X213.3683 Y118.8370 Z-3.3337
X213.3820 Y118.8555 Z-3.3729
X213.3950 Y118.8744 Z-3.4121
X213.4073 Y118.8938 Z-3.4513
X213.4188 Y118.9137 Z-3.4905
X213.4295 Y118.9341 Z-3.5297
X213.4394 Y118.9548 Z-3.5689
X213.4485 Y118.9759 Z-3.6081
X213.4568 Y118.9973 Z-3.6472
X213.4642 Y119.0191 Z-3.6864
X213.4708 Y119.0411 Z-3.7256
X213.4765 Y119.0634 Z-3.7648
X213.4814 Y119.0858 Z-3.8040
X213.4854 Y119.1084 Z-3.8432
X213.4885 Y119.1312 Z-3.8824
X213.4907 Y119.1541 Z-3.9216
X213.4921 Y119.1770 Z-3.9608
X213.4925 Y119.2000 Z-4.0000
G03X212.3075I-0.5925J0.0000
X213.4925I0.5925J0.0000
G01 X212.6648 Y118.6562
X212.6653 Y118.6559 Z-4.0011
X212.6866 Y118.6473 Z-4.0402
X212.7082 Y118.6394 Z-4.0794
X212.7301 Y118.6324 Z-4.1186
X212.7522 Y118.6262 Z-4.1578
X212.7746 Y118.6209 Z-4.1970
X212.7971 Y118.6165 Z-4.2362
X212.8198 Y118.6129 Z-4.2754
X212.8426 Y118.6103 Z-4.3146
X212.8655 Y118.6085 Z-4.3538
X212.8885 Y118.6076 Z-4.3930
X212.9115 Z-4.4322
X212.9344 Y118.6085 Z-4.4714
X212.9574 Y118.6103 Z-4.5106
X212.9802 Y118.6129 Z-4.5498
X213.0029 Y118.6165 Z-4.5890
X213.0254 Y118.6209 Z-4.6282
X213.0478 Y118.6262 Z-4.6674
X213.0699 Y118.6324 Z-4.7066
X213.0918 Y118.6394 Z-4.7458
X213.1134 Y118.6473 Z-4.7850
X213.1347 Y118.6559 Z-4.8241
X213.1556 Y118.6655 Z-4.8633
X213.1761 Y118.6758 Z-4.9025
X213.1962 Y118.6869 Z-4.9417
X213.2159 Y118.6987 Z-4.9809
X213.2351 Y118.7114 Z-5.0201
X213.2538 Y118.7247 Z-5.0593
X213.2720 Y118.7388 Z-5.0985
X213.2896 Y118.7536 Z-5.1377
X213.3066 Y118.7690 Z-5.1769
X213.3230 Y118.7851 Z-5.2161
X213.3388 Y118.8018 Z-5.2553
X213.3539 Y118.8191 Z-5.2945
X213.3683 Y118.8370 Z-5.3337
X213.3820 Y118.8555 Z-5.3729
X213.3950 Y118.8744 Z-5.4121
X213.4073 Y118.8938 Z-5.4513
X213.4188 Y118.9137 Z-5.4905
X213.4295 Y118.9341 Z-5.5297
X213.4394 Y118.9548 Z-5.5689
X213.4485 Y118.9759 Z-5.6081
X213.4568 Y118.9973 Z-5.6472
X213.4642 Y119.0191 Z-5.6864
X213.4708 Y119.0411 Z-5.7256
X213.4765 Y119.0634 Z-5.7648
X213.4814 Y119.0858 Z-5.8040
X213.4854 Y119.1084 Z-5.8432
X213.4885 Y119.1312 Z-5.8824
X213.4907 Y119.1541 Z-5.9216
X213.4921 Y119.1770 Z-5.9608
X213.4925 Y119.2000 Z-6.0000
G03X212.3075I-0.5925J0.0000
X213.4925I0.5925J0.0000
G01 X212.6648 Y118.6562
X212.6653 Y118.6559 Z-6.0011
X212.6866 Y118.6473 Z-6.0402
X212.7082 Y118.6394 Z-6.0794
X212.7301 Y118.6324 Z-6.1186
X212.7522 Y118.6262 Z-6.1578
X212.7746 Y118.6209 Z-6.1970
X212.7971 Y118.6165 Z-6.2362
X212.8198 Y118.6129 Z-6.2754
X212.8426 Y118.6103 Z-6.3146
X212.8655 Y118.6085 Z-6.3538
X212.8885 Y118.6076 Z-6.3930
X212.9115 Z-6.4322
X212.9344 Y118.6085 Z-6.4714
X212.9574 Y118.6103 Z-6.5106
X212.9802 Y118.6129 Z-6.5498
X213.0029 Y118.6165 Z-6.5890
X213.0254 Y118.6209 Z-6.6282
X213.0478 Y118.6262 Z-6.6674
X213.0699 Y118.6324 Z-6.7066
X213.0918 Y118.6394 Z-6.7458
X213.1134 Y118.6473 Z-6.7850
X213.1347 Y118.6559 Z-6.8241
X213.1556 Y118.6655 Z-6.8633
X213.1761 Y118.6758 Z-6.9025
X213.1962 Y118.6869 Z-6.9417
X213.2159 Y118.6987 Z-6.9809
X213.2351 Y118.7114 Z-7.0201
X213.2538 Y118.7247 Z-7.0593
X213.2720 Y118.7388 Z-7.0985
X213.2896 Y118.7536 Z-7.1377
X213.3066 Y118.7690 Z-7.1769
X213.3230 Y118.7851 Z-7.2161
X213.3388 Y118.8018 Z-7.2553
X213.3539 Y118.8191 Z-7.2945
X213.3683 Y118.8370 Z-7.3337
X213.3820 Y118.8555 Z-7.3729
X213.3950 Y118.8744 Z-7.4121
X213.4073 Y118.8938 Z-7.4513
X213.4188 Y118.9137 Z-7.4905
X213.4295 Y118.9341 Z-7.5297
X213.4394 Y118.9548 Z-7.5689
X213.4485 Y118.9759 Z-7.6081
X213.4568 Y118.9973 Z-7.6472
X213.4642 Y119.0191 Z-7.6864
X213.4708 Y119.0411 Z-7.7256
X213.4765 Y119.0634 Z-7.7648
X213.4814 Y119.0858 Z-7.8040
X213.4854 Y119.1084 Z-7.8432
X213.4885 Y119.1312 Z-7.8824
X213.4907 Y119.1541 Z-7.9216
X213.4921 Y119.1770 Z-7.9608
X213.4925 Y119.2000 Z-8.0000
G03X212.3075I-0.5925J0.0000
X213.4925I0.5925J0.0000
G01 X212.9000
G00 Z1.0000
X217.3901 Y123.8984
G01 Z0.6350  F1000.0
X217.3927 Y123.8938 Z0.6261
X217.4050 Y123.8744 Z0.5869
X217.4180 Y123.8555 Z0.5477
X217.4317 Y123.8370 Z0.5085
X217.4461 Y123.8191 Z0.4693
X217.4612 Y123.8018 Z0.4301
X217.4770 Y123.7851 Z0.3909
X217.4934 Y123.7690 Z0.3517
X217.5104 Y123.7536 Z0.3125
X217.5280 Y123.7388 Z0.2733
X217.5462 Y123.7247 Z0.2341
X217.5649 Y123.7114 Z0.1949
X217.5841 Y123.6987 Z0.1557
X217.6037 Y123.6869 Z0.1165
X217.6239 Y123.6758 Z0.0773
X217.6444 Y123.6655 Z0.0381
X217.6653 Y123.6559 Z-0.0011
X217.6866 Y123.6473 Z-0.0402
X217.7082 Y123.6394 Z-0.0794
X217.7301 Y123.6324 Z-0.1186
X217.7522 Y123.6262 Z-0.1578
X217.7746 Y123.6209 Z-0.1970
X217.7971 Y123.6165 Z-0.2362
X217.8198 Y123.6129 Z-0.2754
X217.8426 Y123.6103 Z-0.3146
X217.8655 Y123.6085 Z-0.3538
X217.8885 Y123.6076 Z-0.3930
X217.9115 Z-0.4322
X217.9344 Y123.6085 Z-0.4714
X217.9574 Y123.6103 Z-0.5106
X217.9802 Y123.6129 Z-0.5498
X218.0029 Y123.6165 Z-0.5890
X218.0254 Y123.6209 Z-0.6282
X218.0478 Y123.6262 Z-0.6674
X218.0699 Y123.6324 Z-0.7066
X218.0918 Y123.6394 Z-0.7458
X218.1134 Y123.6473 Z-0.7850
X218.1347 Y123.6559 Z-0.8241
X218.1556 Y123.6655 Z-0.8633
X218.1761 Y123.6758 Z-0.9025
X218.1962 Y123.6869 Z-0.9417
X218.2159 Y123.6987 Z-0.9809
X218.2351 Y123.7114 Z-1.0201
X218.2538 Y123.7247 Z-1.0593
X218.2720 Y123.7388 Z-1.0985
X218.2896 Y123.7536 Z-1.1377
X218.3066 Y123.7690 Z-1.1769
X218.3230 Y123.7851 Z-1.2161
X218.3388 Y123.8018 Z-1.2553
X218.3539 Y123.8191 Z-1.2945
X218.3683 Y123.8370 Z-1.3337
X218.3820 Y123.8555 Z-1.3729
X218.3950 Y123.8744 Z-1.4121
X218.4073 Y123.8938 Z-1.4513
X218.4188 Y123.9137 Z-1.4905
X218.4295 Y123.9341 Z-1.5297
X218.4394 Y123.9548 Z-1.5689
X218.4485 Y123.9759 Z-1.6081
X218.4568 Y123.9973 Z-1.6472
X218.4642 Y124.0191 Z-1.6864
X218.4708 Y124.0411 Z-1.7256
X218.4765 Y124.0634 Z-1.7648
X218.4814 Y124.0858 Z-1.8040
X218.4854 Y124.1084 Z-1.8432
X218.4885 Y124.1312 Z-1.8824
X218.4907 Y124.1541 Z-1.9216
X218.4921 Y124.1770 Z-1.9608
X218.4925 Y124.2000 Z-2.0000
G03X217.3075I-0.5925J0.0000
X218.4925I0.5925J0.0000
G01 X217.6648 Y123.6562
X217.6653 Y123.6559 Z-2.0011
X217.6866 Y123.6473 Z-2.0402
X217.7082 Y123.6394 Z-2.0794
X217.7301 Y123.6324 Z-2.1186
X217.7522 Y123.6262 Z-2.1578
X217.7746 Y123.6209 Z-2.1970
X217.7971 Y123.6165 Z-2.2362
X217.8198 Y123.6129 Z-2.2754
X217.8426 Y123.6103 Z-2.3146
X217.8655 Y123.6085 Z-2.3538
X217.8885 Y123.6076 Z-2.3930
X217.9115 Z-2.4322
X217.9344 Y123.6085 Z-2.4714
X217.9574 Y123.6103 Z-2.5106
X217.9802 Y123.6129 Z-2.5498
X218.0029 Y123.6165 Z-2.5890
X218.0254 Y123.6209 Z-2.6282
X218.0478 Y123.6262 Z-2.6674
X218.0699 Y123.6324 Z-2.7066
X218.0918 Y123.6394 Z-2.7458
X218.1134 Y123.6473 Z-2.7850
X218.1347 Y123.6559 Z-2.8241
X218.1556 Y123.6655 Z-2.8633
X218.1761 Y123.6758 Z-2.9025
X218.1962 Y123.6869 Z-2.9417
X218.2159 Y123.6987 Z-2.9809
X218.2351 Y123.7114 Z-3.0201
X218.2538 Y123.7247 Z-3.0593
X218.2720 Y123.7388 Z-3.0985
X218.2896 Y123.7536 Z-3.1377
X218.3066 Y123.7690 Z-3.1769
X218.3230 Y123.7851 Z-3.2161
X218.3388 Y123.8018 Z-3.2553
X218.3539 Y123.8191 Z-3.2945
X218.3683 Y123.8370 Z-3.3337
X218.3820 Y123.8555 Z-3.3729
X218.3950 Y123.8744 Z-3.4121
X218.4073 Y123.8938 Z-3.4513
X218.4188 Y123.9137 Z-3.4905
X218.4295 Y123.9341 Z-3.5297
X218.4394 Y123.9548 Z-3.5689
X218.4485 Y123.9759 Z-3.6081
X218.4568 Y123.9973 Z-3.6472
X218.4642 Y124.0191 Z-3.6864
X218.4708 Y124.0411 Z-3.7256
X218.4765 Y124.0634 Z-3.7648
X218.4814 Y124.0858 Z-3.8040
X218.4854 Y124.1084 Z-3.8432
X218.4885 Y124.1312 Z-3.8824
X218.4907 Y124.1541 Z-3.9216
X218.4921 Y124.1770 Z-3.9608
X218.4925 Y124.2000 Z-4.0000
G03X217.3075I-0.5925J0.0000
X218.4925I0.5925J0.0000
G01 X217.6648 Y123.6562
X217.6653 Y123.6559 Z-4.0011
X217.6866 Y123.6473 Z-4.0402
X217.7082 Y123.6394 Z-4.0794
X217.7301 Y123.6324 Z-4.1186
X217.7522 Y123.6262 Z-4.1578
X217.7746 Y123.6209 Z-4.1970
X217.7971 Y123.6165 Z-4.2362
X217.8198 Y123.6129 Z-4.2754
X217.8426 Y123.6103 Z-4.3146
X217.8655 Y123.6085 Z-4.3538
X217.8885 Y123.6076 Z-4.3930
X217.9115 Z-4.4322
X217.9344 Y123.6085 Z-4.4714
X217.9574 Y123.6103 Z-4.5106
X217.9802 Y123.6129 Z-4.5498
X218.0029 Y123.6165 Z-4.5890
X218.0254 Y123.6209 Z-4.6282
X218.0478 Y123.6262 Z-4.6674
X218.0699 Y123.6324 Z-4.7066
X218.0918 Y123.6394 Z-4.7458
X218.1134 Y123.6473 Z-4.7850
X218.1347 Y123.6559 Z-4.8241
X218.1556 Y123.6655 Z-4.8633
X218.1761 Y123.6758 Z-4.9025
X218.1962 Y123.6869 Z-4.9417
X218.2159 Y123.6987 Z-4.9809
X218.2351 Y123.7114 Z-5.0201
X218.2538 Y123.7247 Z-5.0593
X218.2720 Y123.7388 Z-5.0985
X218.2896 Y123.7536 Z-5.1377
X218.3066 Y123.7690 Z-5.1769
X218.3230 Y123.7851 Z-5.2161
X218.3388 Y123.8018 Z-5.2553
X218.3539 Y123.8191 Z-5.2945
X218.3683 Y123.8370 Z-5.3337
X218.3820 Y123.8555 Z-5.3729
X218.3950 Y123.8744 Z-5.4121
X218.4073 Y123.8938 Z-5.4513
X218.4188 Y123.9137 Z-5.4905
X218.4295 Y123.9341 Z-5.5297
X218.4394 Y123.9548 Z-5.5689
X218.4485 Y123.9759 Z-5.6081
X218.4568 Y123.9973 Z-5.6472
X218.4642 Y124.0191 Z-5.6864
X218.4708 Y124.0411 Z-5.7256
X218.4765 Y124.0634 Z-5.7648
X218.4814 Y124.0858 Z-5.8040
X218.4854 Y124.1084 Z-5.8432
X218.4885 Y124.1312 Z-5.8824
X218.4907 Y124.1541 Z-5.9216
X218.4921 Y124.1770 Z-5.9608
X218.4925 Y124.2000 Z-6.0000
G03X217.3075I-0.5925J0.0000
X218.4925I0.5925J0.0000
G01 X217.6648 Y123.6562
X217.6653 Y123.6559 Z-6.0011
X217.6866 Y123.6473 Z-6.0402
X217.7082 Y123.6394 Z-6.0794
X217.7301 Y123.6324 Z-6.1186
X217.7522 Y123.6262 Z-6.1578
X217.7746 Y123.6209 Z-6.1970
X217.7971 Y123.6165 Z-6.2362
X217.8198 Y123.6129 Z-6.2754
X217.8426 Y123.6103 Z-6.3146
X217.8655 Y123.6085 Z-6.3538
X217.8885 Y123.6076 Z-6.3930
X217.9115 Z-6.4322
X217.9344 Y123.6085 Z-6.4714
X217.9574 Y123.6103 Z-6.5106
X217.9802 Y123.6129 Z-6.5498
X218.0029 Y123.6165 Z-6.5890
X218.0254 Y123.6209 Z-6.6282
X218.0478 Y123.6262 Z-6.6674
X218.0699 Y123.6324 Z-6.7066
X218.0918 Y123.6394 Z-6.7458
X218.1134 Y123.6473 Z-6.7850
X218.1347 Y123.6559 Z-6.8241
X218.1556 Y123.6655 Z-6.8633
X218.1761 Y123.6758 Z-6.9025
X218.1962 Y123.6869 Z-6.9417
X218.2159 Y123.6987 Z-6.9809
X218.2351 Y123.7114 Z-7.0201
X218.2538 Y123.7247 Z-7.0593
X218.2720 Y123.7388 Z-7.0985
X218.2896 Y123.7536 Z-7.1377
X218.3066 Y123.7690 Z-7.1769
X218.3230 Y123.7851 Z-7.2161
X218.3388 Y123.8018 Z-7.2553
X218.3539 Y123.8191 Z-7.2945
X218.3683 Y123.8370 Z-7.3337
X218.3820 Y123.8555 Z-7.3729
X218.3950 Y123.8744 Z-7.4121
X218.4073 Y123.8938 Z-7.4513
X218.4188 Y123.9137 Z-7.4905
X218.4295 Y123.9341 Z-7.5297
X218.4394 Y123.9548 Z-7.5689
X218.4485 Y123.9759 Z-7.6081
X218.4568 Y123.9973 Z-7.6472
X218.4642 Y124.0191 Z-7.6864
X218.4708 Y124.0411 Z-7.7256
X218.4765 Y124.0634 Z-7.7648
X218.4814 Y124.0858 Z-7.8040
X218.4854 Y124.1084 Z-7.8432
X218.4885 Y124.1312 Z-7.8824
X218.4907 Y124.1541 Z-7.9216
X218.4921 Y124.1770 Z-7.9608
X218.4925 Y124.2000 Z-8.0000
G03X217.3075I-0.5925J0.0000
X218.4925I0.5925J0.0000
G01 X217.9000
G00 Z1.0000
X212.3901 Y128.8984
G01 Z0.6350  F1000.0
X212.3927 Y128.8938 Z0.6261
X212.4050 Y128.8744 Z0.5869
X212.4180 Y128.8555 Z0.5477
X212.4317 Y128.8370 Z0.5085
X212.4461 Y128.8191 Z0.4693
X212.4612 Y128.8018 Z0.4301
X212.4770 Y128.7851 Z0.3909
X212.4934 Y128.7690 Z0.3517
X212.5104 Y128.7536 Z0.3125
X212.5280 Y128.7388 Z0.2733
X212.5462 Y128.7247 Z0.2341
X212.5649 Y128.7114 Z0.1949
X212.5841 Y128.6987 Z0.1557
X212.6037 Y128.6869 Z0.1165
X212.6239 Y128.6758 Z0.0773
X212.6444 Y128.6655 Z0.0381
X212.6653 Y128.6560 Z-0.0011
X212.6866 Y128.6473 Z-0.0402
X212.7082 Y128.6394 Z-0.0794
X212.7301 Y128.6324 Z-0.1186
X212.7522 Y128.6262 Z-0.1578
X212.7746 Y128.6209 Z-0.1970
X212.7971 Y128.6165 Z-0.2362
X212.8198 Y128.6129 Z-0.2754
X212.8426 Y128.6103 Z-0.3146
X212.8655 Y128.6085 Z-0.3538
X212.8885 Y128.6076 Z-0.3930
X212.9115 Z-0.4322
X212.9344 Y128.6085 Z-0.4714
X212.9574 Y128.6103 Z-0.5106
X212.9802 Y128.6129 Z-0.5498
X213.0029 Y128.6165 Z-0.5890
X213.0254 Y128.6209 Z-0.6282
X213.0478 Y128.6262 Z-0.6674
X213.0699 Y128.6324 Z-0.7066
X213.0918 Y128.6394 Z-0.7458
X213.1134 Y128.6473 Z-0.7850
X213.1347 Y128.6560 Z-0.8241
X213.1556 Y128.6655 Z-0.8633
X213.1761 Y128.6758 Z-0.9025
X213.1962 Y128.6869 Z-0.9417
X213.2159 Y128.6987 Z-0.9809
X213.2351 Y128.7114 Z-1.0201
X213.2538 Y128.7247 Z-1.0593
X213.2720 Y128.7388 Z-1.0985
X213.2896 Y128.7536 Z-1.1377
X213.3066 Y128.7690 Z-1.1769
X213.3230 Y128.7851 Z-1.2161
X213.3388 Y128.8018 Z-1.2553
X213.3539 Y128.8191 Z-1.2945
X213.3683 Y128.8370 Z-1.3337
X213.3820 Y128.8555 Z-1.3729
X213.3950 Y128.8744 Z-1.4121
X213.4073 Y128.8938 Z-1.4513
X213.4188 Y128.9137 Z-1.4905
X213.4295 Y128.9341 Z-1.5297
X213.4394 Y128.9548 Z-1.5689
X213.4485 Y128.9759 Z-1.6081
X213.4568 Y128.9973 Z-1.6472
X213.4642 Y129.0191 Z-1.6864
X213.4708 Y129.0411 Z-1.7256
X213.4765 Y129.0634 Z-1.7648
X213.4814 Y129.0858 Z-1.8040
X213.4854 Y129.1084 Z-1.8432
X213.4885 Y129.1312 Z-1.8824
X213.4907 Y129.1541 Z-1.9216
X213.4921 Y129.1770 Z-1.9608
X213.4925 Y129.2000 Z-2.0000
G03X212.3075I-0.5925J0.0000
X213.4925I0.5925J0.0000
G01 X212.6648 Y128.6562
X212.6653 Y128.6560 Z-2.0011
X212.6866 Y128.6473 Z-2.0402
X212.7082 Y128.6394 Z-2.0794
X212.7301 Y128.6324 Z-2.1186
X212.7522 Y128.6262 Z-2.1578
X212.7746 Y128.6209 Z-2.1970
X212.7971 Y128.6165 Z-2.2362
X212.8198 Y128.6129 Z-2.2754
X212.8426 Y128.6103 Z-2.3146
X212.8655 Y128.6085 Z-2.3538
X212.8885 Y128.6076 Z-2.3930
X212.9115 Z-2.4322
X212.9344 Y128.6085 Z-2.4714
X212.9574 Y128.6103 Z-2.5106
X212.9802 Y128.6129 Z-2.5498
X213.0029 Y128.6165 Z-2.5890
X213.0254 Y128.6209 Z-2.6282
X213.0478 Y128.6262 Z-2.6674
X213.0699 Y128.6324 Z-2.7066
X213.0918 Y128.6394 Z-2.7458
X213.1134 Y128.6473 Z-2.7850
X213.1347 Y128.6560 Z-2.8241
X213.1556 Y128.6655 Z-2.8633
X213.1761 Y128.6758 Z-2.9025
X213.1962 Y128.6869 Z-2.9417
X213.2159 Y128.6987 Z-2.9809
X213.2351 Y128.7114 Z-3.0201
X213.2538 Y128.7247 Z-3.0593
X213.2720 Y128.7388 Z-3.0985
X213.2896 Y128.7536 Z-3.1377
X213.3066 Y128.7690 Z-3.1769
X213.3230 Y128.7851 Z-3.2161
X213.3388 Y128.8018 Z-3.2553
X213.3539 Y128.8191 Z-3.2945
X213.3683 Y128.8370 Z-3.3337
X213.3820 Y128.8555 Z-3.3729
X213.3950 Y128.8744 Z-3.4121
X213.4073 Y128.8938 Z-3.4513
X213.4188 Y128.9137 Z-3.4905
X213.4295 Y128.9341 Z-3.5297
X213.4394 Y128.9548 Z-3.5689
X213.4485 Y128.9759 Z-3.6081
X213.4568 Y128.9973 Z-3.6472
X213.4642 Y129.0191 Z-3.6864
X213.4708 Y129.0411 Z-3.7256
X213.4765 Y129.0634 Z-3.7648
X213.4814 Y129.0858 Z-3.8040
X213.4854 Y129.1084 Z-3.8432
X213.4885 Y129.1312 Z-3.8824
X213.4907 Y129.1541 Z-3.9216
X213.4921 Y129.1770 Z-3.9608
X213.4925 Y129.2000 Z-4.0000
G03X212.3075I-0.5925J0.0000
X213.4925I0.5925J0.0000
G01 X212.6648 Y128.6562
X212.6653 Y128.6560 Z-4.0011
X212.6866 Y128.6473 Z-4.0402
X212.7082 Y128.6394 Z-4.0794
X212.7301 Y128.6324 Z-4.1186
X212.7522 Y128.6262 Z-4.1578
X212.7746 Y128.6209 Z-4.1970
X212.7971 Y128.6165 Z-4.2362
X212.8198 Y128.6129 Z-4.2754
X212.8426 Y128.6103 Z-4.3146
X212.8655 Y128.6085 Z-4.3538
X212.8885 Y128.6076 Z-4.3930
X212.9115 Z-4.4322
X212.9344 Y128.6085 Z-4.4714
X212.9574 Y128.6103 Z-4.5106
X212.9802 Y128.6129 Z-4.5498
X213.0029 Y128.6165 Z-4.5890
X213.0254 Y128.6209 Z-4.6282
X213.0478 Y128.6262 Z-4.6674
X213.0699 Y128.6324 Z-4.7066
X213.0918 Y128.6394 Z-4.7458
X213.1134 Y128.6473 Z-4.7850
X213.1347 Y128.6560 Z-4.8241
X213.1556 Y128.6655 Z-4.8633
X213.1761 Y128.6758 Z-4.9025
X213.1962 Y128.6869 Z-4.9417
X213.2159 Y128.6987 Z-4.9809
X213.2351 Y128.7114 Z-5.0201
X213.2538 Y128.7247 Z-5.0593
X213.2720 Y128.7388 Z-5.0985
X213.2896 Y128.7536 Z-5.1377
X213.3066 Y128.7690 Z-5.1769
X213.3230 Y128.7851 Z-5.2161
X213.3388 Y128.8018 Z-5.2553
X213.3539 Y128.8191 Z-5.2945
X213.3683 Y128.8370 Z-5.3337
X213.3820 Y128.8555 Z-5.3729
X213.3950 Y128.8744 Z-5.4121
X213.4073 Y128.8938 Z-5.4513
X213.4188 Y128.9137 Z-5.4905
X213.4295 Y128.9341 Z-5.5297
X213.4394 Y128.9548 Z-5.5689
X213.4485 Y128.9759 Z-5.6081
X213.4568 Y128.9973 Z-5.6472
X213.4642 Y129.0191 Z-5.6864
X213.4708 Y129.0411 Z-5.7256
X213.4765 Y129.0634 Z-5.7648
X213.4814 Y129.0858 Z-5.8040
X213.4854 Y129.1084 Z-5.8432
X213.4885 Y129.1312 Z-5.8824
X213.4907 Y129.1541 Z-5.9216
X213.4921 Y129.1770 Z-5.9608
X213.4925 Y129.2000 Z-6.0000
G03X212.3075I-0.5925J0.0000
X213.4925I0.5925J0.0000
G01 X212.6648 Y128.6562
X212.6653 Y128.6560 Z-6.0011
X212.6866 Y128.6473 Z-6.0402
X212.7082 Y128.6394 Z-6.0794
X212.7301 Y128.6324 Z-6.1186
X212.7522 Y128.6262 Z-6.1578
X212.7746 Y128.6209 Z-6.1970
X212.7971 Y128.6165 Z-6.2362
X212.8198 Y128.6129 Z-6.2754
X212.8426 Y128.6103 Z-6.3146
X212.8655 Y128.6085 Z-6.3538
X212.8885 Y128.6076 Z-6.3930
X212.9115 Z-6.4322
X212.9344 Y128.6085 Z-6.4714
X212.9574 Y128.6103 Z-6.5106
X212.9802 Y128.6129 Z-6.5498
X213.0029 Y128.6165 Z-6.5890
X213.0254 Y128.6209 Z-6.6282
X213.0478 Y128.6262 Z-6.6674
X213.0699 Y128.6324 Z-6.7066
X213.0918 Y128.6394 Z-6.7458
X213.1134 Y128.6473 Z-6.7850
X213.1347 Y128.6560 Z-6.8241
X213.1556 Y128.6655 Z-6.8633
X213.1761 Y128.6758 Z-6.9025
X213.1962 Y128.6869 Z-6.9417
X213.2159 Y128.6987 Z-6.9809
X213.2351 Y128.7114 Z-7.0201
X213.2538 Y128.7247 Z-7.0593
X213.2720 Y128.7388 Z-7.0985
X213.2896 Y128.7536 Z-7.1377
X213.3066 Y128.7690 Z-7.1769
X213.3230 Y128.7851 Z-7.2161
X213.3388 Y128.8018 Z-7.2553
X213.3539 Y128.8191 Z-7.2945
X213.3683 Y128.8370 Z-7.3337
X213.3820 Y128.8555 Z-7.3729
X213.3950 Y128.8744 Z-7.4121
X213.4073 Y128.8938 Z-7.4513
X213.4188 Y128.9137 Z-7.4905
X213.4295 Y128.9341 Z-7.5297
X213.4394 Y128.9548 Z-7.5689
X213.4485 Y128.9759 Z-7.6081
X213.4568 Y128.9973 Z-7.6472
X213.4642 Y129.0191 Z-7.6864
X213.4708 Y129.0411 Z-7.7256
X213.4765 Y129.0634 Z-7.7648
X213.4814 Y129.0858 Z-7.8040
X213.4854 Y129.1084 Z-7.8432
X213.4885 Y129.1312 Z-7.8824
X213.4907 Y129.1541 Z-7.9216
X213.4921 Y129.1770 Z-7.9608
X213.4925 Y129.2000 Z-8.0000
G03X212.3075I-0.5925J0.0000
X213.4925I0.5925J0.0000
G01 X212.9000
G00 Z1.0000
X207.3901 Y133.8984
G01 Z0.6350  F1000.0
X207.3927 Y133.8938 Z0.6261
X207.4050 Y133.8744 Z0.5869
X207.4180 Y133.8555 Z0.5477
X207.4317 Y133.8370 Z0.5085
X207.4461 Y133.8191 Z0.4693
X207.4612 Y133.8018 Z0.4301
X207.4770 Y133.7851 Z0.3909
X207.4934 Y133.7690 Z0.3517
X207.5104 Y133.7536 Z0.3125
X207.5280 Y133.7388 Z0.2733
X207.5462 Y133.7247 Z0.2341
X207.5649 Y133.7114 Z0.1949
X207.5841 Y133.6987 Z0.1557
X207.6037 Y133.6869 Z0.1165
X207.6239 Y133.6758 Z0.0773
X207.6444 Y133.6655 Z0.0381
X207.6653 Y133.6560 Z-0.0011
X207.6866 Y133.6473 Z-0.0402
X207.7082 Y133.6394 Z-0.0794
X207.7301 Y133.6324 Z-0.1186
X207.7522 Y133.6262 Z-0.1578
X207.7746 Y133.6209 Z-0.1970
X207.7971 Y133.6165 Z-0.2362
X207.8198 Y133.6129 Z-0.2754
X207.8426 Y133.6103 Z-0.3146
X207.8655 Y133.6085 Z-0.3538
X207.8885 Y133.6076 Z-0.3930
X207.9115 Z-0.4322
X207.9344 Y133.6085 Z-0.4714
X207.9574 Y133.6103 Z-0.5106
X207.9802 Y133.6129 Z-0.5498
X208.0029 Y133.6165 Z-0.5890
X208.0254 Y133.6209 Z-0.6282
X208.0478 Y133.6262 Z-0.6674
X208.0699 Y133.6324 Z-0.7066
X208.0918 Y133.6394 Z-0.7458
X208.1134 Y133.6473 Z-0.7850
X208.1347 Y133.6560 Z-0.8241
X208.1556 Y133.6655 Z-0.8633
X208.1761 Y133.6758 Z-0.9025
X208.1962 Y133.6869 Z-0.9417
X208.2159 Y133.6987 Z-0.9809
X208.2351 Y133.7114 Z-1.0201
X208.2538 Y133.7247 Z-1.0593
X208.2720 Y133.7388 Z-1.0985
X208.2896 Y133.7536 Z-1.1377
X208.3066 Y133.7690 Z-1.1769
X208.3230 Y133.7851 Z-1.2161
X208.3388 Y133.8018 Z-1.2553
X208.3539 Y133.8191 Z-1.2945
X208.3683 Y133.8370 Z-1.3337
X208.3820 Y133.8555 Z-1.3729
X208.3950 Y133.8744 Z-1.4121
X208.4073 Y133.8938 Z-1.4513
X208.4188 Y133.9137 Z-1.4905
X208.4295 Y133.9341 Z-1.5297
X208.4394 Y133.9548 Z-1.5689
X208.4485 Y133.9759 Z-1.6081
X208.4568 Y133.9973 Z-1.6472
X208.4642 Y134.0191 Z-1.6864
X208.4708 Y134.0411 Z-1.7256
X208.4765 Y134.0634 Z-1.7648
X208.4814 Y134.0858 Z-1.8040
X208.4854 Y134.1084 Z-1.8432
X208.4885 Y134.1312 Z-1.8824
X208.4907 Y134.1541 Z-1.9216
X208.4921 Y134.1770 Z-1.9608
X208.4925 Y134.2000 Z-2.0000
G03X207.3075I-0.5925J0.0000
X208.4925I0.5925J0.0000
G01 X207.6648 Y133.6562
X207.6653 Y133.6560 Z-2.0011
X207.6866 Y133.6473 Z-2.0402
X207.7082 Y133.6394 Z-2.0794
X207.7301 Y133.6324 Z-2.1186
X207.7522 Y133.6262 Z-2.1578
X207.7746 Y133.6209 Z-2.1970
X207.7971 Y133.6165 Z-2.2362
X207.8198 Y133.6129 Z-2.2754
X207.8426 Y133.6103 Z-2.3146
X207.8655 Y133.6085 Z-2.3538
X207.8885 Y133.6076 Z-2.3930
X207.9115 Z-2.4322
X207.9344 Y133.6085 Z-2.4714
X207.9574 Y133.6103 Z-2.5106
X207.9802 Y133.6129 Z-2.5498
X208.0029 Y133.6165 Z-2.5890
X208.0254 Y133.6209 Z-2.6282
X208.0478 Y133.6262 Z-2.6674
X208.0699 Y133.6324 Z-2.7066
X208.0918 Y133.6394 Z-2.7458
X208.1134 Y133.6473 Z-2.7850
X208.1347 Y133.6560 Z-2.8241
X208.1556 Y133.6655 Z-2.8633
X208.1761 Y133.6758 Z-2.9025
X208.1962 Y133.6869 Z-2.9417
X208.2159 Y133.6987 Z-2.9809
X208.2351 Y133.7114 Z-3.0201
X208.2538 Y133.7247 Z-3.0593
X208.2720 Y133.7388 Z-3.0985
X208.2896 Y133.7536 Z-3.1377
X208.3066 Y133.7690 Z-3.1769
X208.3230 Y133.7851 Z-3.2161
X208.3388 Y133.8018 Z-3.2553
X208.3539 Y133.8191 Z-3.2945
X208.3683 Y133.8370 Z-3.3337
X208.3820 Y133.8555 Z-3.3729
X208.3950 Y133.8744 Z-3.4121
X208.4073 Y133.8938 Z-3.4513
X208.4188 Y133.9137 Z-3.4905
X208.4295 Y133.9341 Z-3.5297
X208.4394 Y133.9548 Z-3.5689
X208.4485 Y133.9759 Z-3.6081
X208.4568 Y133.9973 Z-3.6472
X208.4642 Y134.0191 Z-3.6864
X208.4708 Y134.0411 Z-3.7256
X208.4765 Y134.0634 Z-3.7648
X208.4814 Y134.0858 Z-3.8040
X208.4854 Y134.1084 Z-3.8432
X208.4885 Y134.1312 Z-3.8824
X208.4907 Y134.1541 Z-3.9216
X208.4921 Y134.1770 Z-3.9608
X208.4925 Y134.2000 Z-4.0000
G03X207.3075I-0.5925J0.0000
X208.4925I0.5925J0.0000
G01 X207.6648 Y133.6562
X207.6653 Y133.6560 Z-4.0011
X207.6866 Y133.6473 Z-4.0402
X207.7082 Y133.6394 Z-4.0794
X207.7301 Y133.6324 Z-4.1186
X207.7522 Y133.6262 Z-4.1578
X207.7746 Y133.6209 Z-4.1970
X207.7971 Y133.6165 Z-4.2362
X207.8198 Y133.6129 Z-4.2754
X207.8426 Y133.6103 Z-4.3146
X207.8655 Y133.6085 Z-4.3538
X207.8885 Y133.6076 Z-4.3930
X207.9115 Z-4.4322
X207.9344 Y133.6085 Z-4.4714
X207.9574 Y133.6103 Z-4.5106
X207.9802 Y133.6129 Z-4.5498
X208.0029 Y133.6165 Z-4.5890
X208.0254 Y133.6209 Z-4.6282
X208.0478 Y133.6262 Z-4.6674
X208.0699 Y133.6324 Z-4.7066
X208.0918 Y133.6394 Z-4.7458
X208.1134 Y133.6473 Z-4.7850
X208.1347 Y133.6560 Z-4.8241
X208.1556 Y133.6655 Z-4.8633
X208.1761 Y133.6758 Z-4.9025
X208.1962 Y133.6869 Z-4.9417
X208.2159 Y133.6987 Z-4.9809
X208.2351 Y133.7114 Z-5.0201
X208.2538 Y133.7247 Z-5.0593
X208.2720 Y133.7388 Z-5.0985
X208.2896 Y133.7536 Z-5.1377
X208.3066 Y133.7690 Z-5.1769
X208.3230 Y133.7851 Z-5.2161
X208.3388 Y133.8018 Z-5.2553
X208.3539 Y133.8191 Z-5.2945
X208.3683 Y133.8370 Z-5.3337
X208.3820 Y133.8555 Z-5.3729
X208.3950 Y133.8744 Z-5.4121
X208.4073 Y133.8938 Z-5.4513
X208.4188 Y133.9137 Z-5.4905
X208.4295 Y133.9341 Z-5.5297
X208.4394 Y133.9548 Z-5.5689
X208.4485 Y133.9759 Z-5.6081
X208.4568 Y133.9973 Z-5.6472
X208.4642 Y134.0191 Z-5.6864
X208.4708 Y134.0411 Z-5.7256
X208.4765 Y134.0634 Z-5.7648
X208.4814 Y134.0858 Z-5.8040
X208.4854 Y134.1084 Z-5.8432
X208.4885 Y134.1312 Z-5.8824
X208.4907 Y134.1541 Z-5.9216
X208.4921 Y134.1770 Z-5.9608
X208.4925 Y134.2000 Z-6.0000
G03X207.3075I-0.5925J0.0000
X208.4925I0.5925J0.0000
G01 X207.6648 Y133.6562
X207.6653 Y133.6560 Z-6.0011
X207.6866 Y133.6473 Z-6.0402
X207.7082 Y133.6394 Z-6.0794
X207.7301 Y133.6324 Z-6.1186
X207.7522 Y133.6262 Z-6.1578
X207.7746 Y133.6209 Z-6.1970
X207.7971 Y133.6165 Z-6.2362
X207.8198 Y133.6129 Z-6.2754
X207.8426 Y133.6103 Z-6.3146
X207.8655 Y133.6085 Z-6.3538
X207.8885 Y133.6076 Z-6.3930
X207.9115 Z-6.4322
X207.9344 Y133.6085 Z-6.4714
X207.9574 Y133.6103 Z-6.5106
X207.9802 Y133.6129 Z-6.5498
X208.0029 Y133.6165 Z-6.5890
X208.0254 Y133.6209 Z-6.6282
X208.0478 Y133.6262 Z-6.6674
X208.0699 Y133.6324 Z-6.7066
X208.0918 Y133.6394 Z-6.7458
X208.1134 Y133.6473 Z-6.7850
X208.1347 Y133.6560 Z-6.8241
X208.1556 Y133.6655 Z-6.8633
X208.1761 Y133.6758 Z-6.9025
X208.1962 Y133.6869 Z-6.9417
X208.2159 Y133.6987 Z-6.9809
X208.2351 Y133.7114 Z-7.0201
X208.2538 Y133.7247 Z-7.0593
X208.2720 Y133.7388 Z-7.0985
X208.2896 Y133.7536 Z-7.1377
X208.3066 Y133.7690 Z-7.1769
X208.3230 Y133.7851 Z-7.2161
X208.3388 Y133.8018 Z-7.2553
X208.3539 Y133.8191 Z-7.2945
X208.3683 Y133.8370 Z-7.3337
X208.3820 Y133.8555 Z-7.3729
X208.3950 Y133.8744 Z-7.4121
X208.4073 Y133.8938 Z-7.4513
X208.4188 Y133.9137 Z-7.4905
X208.4295 Y133.9341 Z-7.5297
X208.4394 Y133.9548 Z-7.5689
X208.4485 Y133.9759 Z-7.6081
X208.4568 Y133.9973 Z-7.6472
X208.4642 Y134.0191 Z-7.6864
X208.4708 Y134.0411 Z-7.7256
X208.4765 Y134.0634 Z-7.7648
X208.4814 Y134.0858 Z-7.8040
X208.4854 Y134.1084 Z-7.8432
X208.4885 Y134.1312 Z-7.8824
X208.4907 Y134.1541 Z-7.9216
X208.4921 Y134.1770 Z-7.9608
X208.4925 Y134.2000 Z-8.0000
G03X207.3075I-0.5925J0.0000
X208.4925I0.5925J0.0000
G01 X207.9000
G00 Z1.0000
X202.3901 Y138.8984
G01 Z0.6350  F1000.0
X202.3927 Y138.8938 Z0.6261
X202.4050 Y138.8744 Z0.5869
X202.4180 Y138.8555 Z0.5477
X202.4317 Y138.8370 Z0.5085
X202.4461 Y138.8191 Z0.4693
X202.4612 Y138.8018 Z0.4301
X202.4770 Y138.7851 Z0.3909
X202.4934 Y138.7690 Z0.3517
X202.5104 Y138.7536 Z0.3125
X202.5280 Y138.7388 Z0.2733
X202.5462 Y138.7247 Z0.2341
X202.5649 Y138.7114 Z0.1949
X202.5841 Y138.6987 Z0.1557
X202.6037 Y138.6869 Z0.1165
X202.6239 Y138.6758 Z0.0773
X202.6444 Y138.6655 Z0.0381
X202.6653 Y138.6560 Z-0.0011
X202.6866 Y138.6473 Z-0.0402
X202.7082 Y138.6394 Z-0.0794
X202.7301 Y138.6324 Z-0.1186
X202.7522 Y138.6262 Z-0.1578
X202.7746 Y138.6209 Z-0.1970
X202.7971 Y138.6165 Z-0.2362
X202.8198 Y138.6129 Z-0.2754
X202.8426 Y138.6103 Z-0.3146
X202.8655 Y138.6085 Z-0.3538
X202.8885 Y138.6076 Z-0.3930
X202.9115 Z-0.4322
X202.9344 Y138.6085 Z-0.4714
X202.9574 Y138.6103 Z-0.5106
X202.9802 Y138.6129 Z-0.5498
X203.0029 Y138.6165 Z-0.5890
X203.0254 Y138.6209 Z-0.6282
X203.0478 Y138.6262 Z-0.6674
X203.0699 Y138.6324 Z-0.7066
X203.0918 Y138.6394 Z-0.7458
X203.1134 Y138.6473 Z-0.7850
X203.1347 Y138.6560 Z-0.8241
X203.1556 Y138.6655 Z-0.8633
X203.1761 Y138.6758 Z-0.9025
X203.1962 Y138.6869 Z-0.9417
X203.2159 Y138.6987 Z-0.9809
X203.2351 Y138.7114 Z-1.0201
X203.2538 Y138.7247 Z-1.0593
X203.2720 Y138.7388 Z-1.0985
X203.2896 Y138.7536 Z-1.1377
X203.3066 Y138.7690 Z-1.1769
X203.3230 Y138.7851 Z-1.2161
X203.3388 Y138.8018 Z-1.2553
X203.3539 Y138.8191 Z-1.2945
X203.3683 Y138.8370 Z-1.3337
X203.3820 Y138.8555 Z-1.3729
X203.3950 Y138.8744 Z-1.4121
X203.4073 Y138.8938 Z-1.4513
X203.4188 Y138.9137 Z-1.4905
X203.4295 Y138.9341 Z-1.5297
X203.4394 Y138.9548 Z-1.5689
X203.4485 Y138.9759 Z-1.6081
X203.4568 Y138.9973 Z-1.6472
X203.4642 Y139.0191 Z-1.6864
X203.4708 Y139.0411 Z-1.7256
X203.4765 Y139.0634 Z-1.7648
X203.4814 Y139.0858 Z-1.8040
X203.4854 Y139.1084 Z-1.8432
X203.4885 Y139.1312 Z-1.8824
X203.4907 Y139.1541 Z-1.9216
X203.4921 Y139.1770 Z-1.9608
X203.4925 Y139.2000 Z-2.0000
G03X202.3075I-0.5925J0.0000
X203.4925I0.5925J0.0000
G01 X202.6648 Y138.6562
X202.6653 Y138.6560 Z-2.0011
X202.6866 Y138.6473 Z-2.0402
X202.7082 Y138.6394 Z-2.0794
X202.7301 Y138.6324 Z-2.1186
X202.7522 Y138.6262 Z-2.1578
X202.7746 Y138.6209 Z-2.1970
X202.7971 Y138.6165 Z-2.2362
X202.8198 Y138.6129 Z-2.2754
X202.8426 Y138.6103 Z-2.3146
X202.8655 Y138.6085 Z-2.3538
X202.8885 Y138.6076 Z-2.3930
X202.9115 Z-2.4322
X202.9344 Y138.6085 Z-2.4714
X202.9574 Y138.6103 Z-2.5106
X202.9802 Y138.6129 Z-2.5498
X203.0029 Y138.6165 Z-2.5890
X203.0254 Y138.6209 Z-2.6282
X203.0478 Y138.6262 Z-2.6674
X203.0699 Y138.6324 Z-2.7066
X203.0918 Y138.6394 Z-2.7458
X203.1134 Y138.6473 Z-2.7850
X203.1347 Y138.6560 Z-2.8241
X203.1556 Y138.6655 Z-2.8633
X203.1761 Y138.6758 Z-2.9025
X203.1962 Y138.6869 Z-2.9417
X203.2159 Y138.6987 Z-2.9809
X203.2351 Y138.7114 Z-3.0201
X203.2538 Y138.7247 Z-3.0593
X203.2720 Y138.7388 Z-3.0985
X203.2896 Y138.7536 Z-3.1377
X203.3066 Y138.7690 Z-3.1769
X203.3230 Y138.7851 Z-3.2161
X203.3388 Y138.8018 Z-3.2553
X203.3539 Y138.8191 Z-3.2945
X203.3683 Y138.8370 Z-3.3337
X203.3820 Y138.8555 Z-3.3729
X203.3950 Y138.8744 Z-3.4121
X203.4073 Y138.8938 Z-3.4513
X203.4188 Y138.9137 Z-3.4905
X203.4295 Y138.9341 Z-3.5297
X203.4394 Y138.9548 Z-3.5689
X203.4485 Y138.9759 Z-3.6081
X203.4568 Y138.9973 Z-3.6472
X203.4642 Y139.0191 Z-3.6864
X203.4708 Y139.0411 Z-3.7256
X203.4765 Y139.0634 Z-3.7648
X203.4814 Y139.0858 Z-3.8040
X203.4854 Y139.1084 Z-3.8432
X203.4885 Y139.1312 Z-3.8824
X203.4907 Y139.1541 Z-3.9216
X203.4921 Y139.1770 Z-3.9608
X203.4925 Y139.2000 Z-4.0000
G03X202.3075I-0.5925J0.0000
X203.4925I0.5925J0.0000
G01 X202.6648 Y138.6562
X202.6653 Y138.6560 Z-4.0011
X202.6866 Y138.6473 Z-4.0402
X202.7082 Y138.6394 Z-4.0794
X202.7301 Y138.6324 Z-4.1186
X202.7522 Y138.6262 Z-4.1578
X202.7746 Y138.6209 Z-4.1970
X202.7971 Y138.6165 Z-4.2362
X202.8198 Y138.6129 Z-4.2754
X202.8426 Y138.6103 Z-4.3146
X202.8655 Y138.6085 Z-4.3538
X202.8885 Y138.6076 Z-4.3930
X202.9115 Z-4.4322
X202.9344 Y138.6085 Z-4.4714
X202.9574 Y138.6103 Z-4.5106
X202.9802 Y138.6129 Z-4.5498
X203.0029 Y138.6165 Z-4.5890
X203.0254 Y138.6209 Z-4.6282
X203.0478 Y138.6262 Z-4.6674
X203.0699 Y138.6324 Z-4.7066
X203.0918 Y138.6394 Z-4.7458
X203.1134 Y138.6473 Z-4.7850
X203.1347 Y138.6560 Z-4.8241
X203.1556 Y138.6655 Z-4.8633
X203.1761 Y138.6758 Z-4.9025
X203.1962 Y138.6869 Z-4.9417
X203.2159 Y138.6987 Z-4.9809
X203.2351 Y138.7114 Z-5.0201
X203.2538 Y138.7247 Z-5.0593
X203.2720 Y138.7388 Z-5.0985
X203.2896 Y138.7536 Z-5.1377
X203.3066 Y138.7690 Z-5.1769
X203.3230 Y138.7851 Z-5.2161
X203.3388 Y138.8018 Z-5.2553
X203.3539 Y138.8191 Z-5.2945
X203.3683 Y138.8370 Z-5.3337
X203.3820 Y138.8555 Z-5.3729
X203.3950 Y138.8744 Z-5.4121
X203.4073 Y138.8938 Z-5.4513
X203.4188 Y138.9137 Z-5.4905
X203.4295 Y138.9341 Z-5.5297
X203.4394 Y138.9548 Z-5.5689
X203.4485 Y138.9759 Z-5.6081
X203.4568 Y138.9973 Z-5.6472
X203.4642 Y139.0191 Z-5.6864
X203.4708 Y139.0411 Z-5.7256
X203.4765 Y139.0634 Z-5.7648
X203.4814 Y139.0858 Z-5.8040
X203.4854 Y139.1084 Z-5.8432
X203.4885 Y139.1312 Z-5.8824
X203.4907 Y139.1541 Z-5.9216
X203.4921 Y139.1770 Z-5.9608
X203.4925 Y139.2000 Z-6.0000
G03X202.3075I-0.5925J0.0000
X203.4925I0.5925J0.0000
G01 X202.6648 Y138.6562
X202.6653 Y138.6560 Z-6.0011
X202.6866 Y138.6473 Z-6.0402
X202.7082 Y138.6394 Z-6.0794
X202.7301 Y138.6324 Z-6.1186
X202.7522 Y138.6262 Z-6.1578
X202.7746 Y138.6209 Z-6.1970
X202.7971 Y138.6165 Z-6.2362
X202.8198 Y138.6129 Z-6.2754
X202.8426 Y138.6103 Z-6.3146
X202.8655 Y138.6085 Z-6.3538
X202.8885 Y138.6076 Z-6.3930
X202.9115 Z-6.4322
X202.9344 Y138.6085 Z-6.4714
X202.9574 Y138.6103 Z-6.5106
X202.9802 Y138.6129 Z-6.5498
X203.0029 Y138.6165 Z-6.5890
X203.0254 Y138.6209 Z-6.6282
X203.0478 Y138.6262 Z-6.6674
X203.0699 Y138.6324 Z-6.7066
X203.0918 Y138.6394 Z-6.7458
X203.1134 Y138.6473 Z-6.7850
X203.1347 Y138.6560 Z-6.8241
X203.1556 Y138.6655 Z-6.8633
X203.1761 Y138.6758 Z-6.9025
X203.1962 Y138.6869 Z-6.9417
X203.2159 Y138.6987 Z-6.9809
X203.2351 Y138.7114 Z-7.0201
X203.2538 Y138.7247 Z-7.0593
X203.2720 Y138.7388 Z-7.0985
X203.2896 Y138.7536 Z-7.1377
X203.3066 Y138.7690 Z-7.1769
X203.3230 Y138.7851 Z-7.2161
X203.3388 Y138.8018 Z-7.2553
X203.3539 Y138.8191 Z-7.2945
X203.3683 Y138.8370 Z-7.3337
X203.3820 Y138.8555 Z-7.3729
X203.3950 Y138.8744 Z-7.4121
X203.4073 Y138.8938 Z-7.4513
X203.4188 Y138.9137 Z-7.4905
X203.4295 Y138.9341 Z-7.5297
X203.4394 Y138.9548 Z-7.5689
X203.4485 Y138.9759 Z-7.6081
X203.4568 Y138.9973 Z-7.6472
X203.4642 Y139.0191 Z-7.6864
X203.4708 Y139.0411 Z-7.7256
X203.4765 Y139.0634 Z-7.7648
X203.4814 Y139.0858 Z-7.8040
X203.4854 Y139.1084 Z-7.8432
X203.4885 Y139.1312 Z-7.8824
X203.4907 Y139.1541 Z-7.9216
X203.4921 Y139.1770 Z-7.9608
X203.4925 Y139.2000 Z-8.0000
G03X202.3075I-0.5925J0.0000
X203.4925I0.5925J0.0000
G01 X202.9000
G00 Z1.0000
X207.3901 Y143.8984
G01 Z0.6350  F1000.0
X207.3927 Y143.8938 Z0.6261
X207.4050 Y143.8744 Z0.5869
X207.4180 Y143.8555 Z0.5477
X207.4317 Y143.8370 Z0.5085
X207.4461 Y143.8191 Z0.4693
X207.4612 Y143.8018 Z0.4301
X207.4770 Y143.7851 Z0.3909
X207.4934 Y143.7690 Z0.3517
X207.5104 Y143.7536 Z0.3125
X207.5280 Y143.7388 Z0.2733
X207.5462 Y143.7247 Z0.2341
X207.5649 Y143.7114 Z0.1949
X207.5841 Y143.6987 Z0.1557
X207.6037 Y143.6869 Z0.1165
X207.6239 Y143.6758 Z0.0773
X207.6444 Y143.6655 Z0.0381
X207.6653 Y143.6560 Z-0.0011
X207.6866 Y143.6473 Z-0.0402
X207.7082 Y143.6394 Z-0.0794
X207.7301 Y143.6324 Z-0.1186
X207.7522 Y143.6262 Z-0.1578
X207.7746 Y143.6209 Z-0.1970
X207.7971 Y143.6165 Z-0.2362
X207.8198 Y143.6129 Z-0.2754
X207.8426 Y143.6103 Z-0.3146
X207.8655 Y143.6085 Z-0.3538
X207.8885 Y143.6076 Z-0.3930
X207.9115 Z-0.4322
X207.9344 Y143.6085 Z-0.4714
X207.9574 Y143.6103 Z-0.5106
X207.9802 Y143.6129 Z-0.5498
X208.0029 Y143.6165 Z-0.5890
X208.0254 Y143.6209 Z-0.6282
X208.0478 Y143.6262 Z-0.6674
X208.0699 Y143.6324 Z-0.7066
X208.0918 Y143.6394 Z-0.7458
X208.1134 Y143.6473 Z-0.7850
X208.1347 Y143.6560 Z-0.8241
X208.1556 Y143.6655 Z-0.8633
X208.1761 Y143.6758 Z-0.9025
X208.1962 Y143.6869 Z-0.9417
X208.2159 Y143.6987 Z-0.9809
X208.2351 Y143.7114 Z-1.0201
X208.2538 Y143.7247 Z-1.0593
X208.2720 Y143.7388 Z-1.0985
X208.2896 Y143.7536 Z-1.1377
X208.3066 Y143.7690 Z-1.1769
X208.3230 Y143.7851 Z-1.2161
X208.3388 Y143.8018 Z-1.2553
X208.3539 Y143.8191 Z-1.2945
X208.3683 Y143.8370 Z-1.3337
X208.3820 Y143.8555 Z-1.3729
X208.3950 Y143.8744 Z-1.4121
X208.4073 Y143.8938 Z-1.4513
X208.4188 Y143.9137 Z-1.4905
X208.4295 Y143.9341 Z-1.5297
X208.4394 Y143.9548 Z-1.5689
X208.4485 Y143.9759 Z-1.6081
X208.4568 Y143.9973 Z-1.6472
X208.4642 Y144.0191 Z-1.6864
X208.4708 Y144.0411 Z-1.7256
X208.4765 Y144.0634 Z-1.7648
X208.4814 Y144.0858 Z-1.8040
X208.4854 Y144.1084 Z-1.8432
X208.4885 Y144.1312 Z-1.8824
X208.4907 Y144.1541 Z-1.9216
X208.4921 Y144.1770 Z-1.9608
X208.4925 Y144.2000 Z-2.0000
G03X207.3075I-0.5925J0.0000
X208.4925I0.5925J0.0000
G01 X207.6648 Y143.6562
X207.6653 Y143.6560 Z-2.0011
X207.6866 Y143.6473 Z-2.0402
X207.7082 Y143.6394 Z-2.0794
X207.7301 Y143.6324 Z-2.1186
X207.7522 Y143.6262 Z-2.1578
X207.7746 Y143.6209 Z-2.1970
X207.7971 Y143.6165 Z-2.2362
X207.8198 Y143.6129 Z-2.2754
X207.8426 Y143.6103 Z-2.3146
X207.8655 Y143.6085 Z-2.3538
X207.8885 Y143.6076 Z-2.3930
X207.9115 Z-2.4322
X207.9344 Y143.6085 Z-2.4714
X207.9574 Y143.6103 Z-2.5106
X207.9802 Y143.6129 Z-2.5498
X208.0029 Y143.6165 Z-2.5890
X208.0254 Y143.6209 Z-2.6282
X208.0478 Y143.6262 Z-2.6674
X208.0699 Y143.6324 Z-2.7066
X208.0918 Y143.6394 Z-2.7458
X208.1134 Y143.6473 Z-2.7850
X208.1347 Y143.6560 Z-2.8241
X208.1556 Y143.6655 Z-2.8633
X208.1761 Y143.6758 Z-2.9025
X208.1962 Y143.6869 Z-2.9417
X208.2159 Y143.6987 Z-2.9809
X208.2351 Y143.7114 Z-3.0201
X208.2538 Y143.7247 Z-3.0593
X208.2720 Y143.7388 Z-3.0985
X208.2896 Y143.7536 Z-3.1377
X208.3066 Y143.7690 Z-3.1769
X208.3230 Y143.7851 Z-3.2161
X208.3388 Y143.8018 Z-3.2553
X208.3539 Y143.8191 Z-3.2945
X208.3683 Y143.8370 Z-3.3337
X208.3820 Y143.8555 Z-3.3729
X208.3950 Y143.8744 Z-3.4121
X208.4073 Y143.8938 Z-3.4513
X208.4188 Y143.9137 Z-3.4905
X208.4295 Y143.9341 Z-3.5297
X208.4394 Y143.9548 Z-3.5689
X208.4485 Y143.9759 Z-3.6081
X208.4568 Y143.9973 Z-3.6472
X208.4642 Y144.0191 Z-3.6864
X208.4708 Y144.0411 Z-3.7256
X208.4765 Y144.0634 Z-3.7648
X208.4814 Y144.0858 Z-3.8040
X208.4854 Y144.1084 Z-3.8432
X208.4885 Y144.1312 Z-3.8824
X208.4907 Y144.1541 Z-3.9216
X208.4921 Y144.1770 Z-3.9608
X208.4925 Y144.2000 Z-4.0000
G03X207.3075I-0.5925J0.0000
X208.4925I0.5925J0.0000
G01 X207.6648 Y143.6562
X207.6653 Y143.6560 Z-4.0011
X207.6866 Y143.6473 Z-4.0402
X207.7082 Y143.6394 Z-4.0794
X207.7301 Y143.6324 Z-4.1186
X207.7522 Y143.6262 Z-4.1578
X207.7746 Y143.6209 Z-4.1970
X207.7971 Y143.6165 Z-4.2362
X207.8198 Y143.6129 Z-4.2754
X207.8426 Y143.6103 Z-4.3146
X207.8655 Y143.6085 Z-4.3538
X207.8885 Y143.6076 Z-4.3930
X207.9115 Z-4.4322
X207.9344 Y143.6085 Z-4.4714
X207.9574 Y143.6103 Z-4.5106
X207.9802 Y143.6129 Z-4.5498
X208.0029 Y143.6165 Z-4.5890
X208.0254 Y143.6209 Z-4.6282
X208.0478 Y143.6262 Z-4.6674
X208.0699 Y143.6324 Z-4.7066
X208.0918 Y143.6394 Z-4.7458
X208.1134 Y143.6473 Z-4.7850
X208.1347 Y143.6560 Z-4.8241
X208.1556 Y143.6655 Z-4.8633
X208.1761 Y143.6758 Z-4.9025
X208.1962 Y143.6869 Z-4.9417
X208.2159 Y143.6987 Z-4.9809
X208.2351 Y143.7114 Z-5.0201
X208.2538 Y143.7247 Z-5.0593
X208.2720 Y143.7388 Z-5.0985
X208.2896 Y143.7536 Z-5.1377
X208.3066 Y143.7690 Z-5.1769
X208.3230 Y143.7851 Z-5.2161
X208.3388 Y143.8018 Z-5.2553
X208.3539 Y143.8191 Z-5.2945
X208.3683 Y143.8370 Z-5.3337
X208.3820 Y143.8555 Z-5.3729
X208.3950 Y143.8744 Z-5.4121
X208.4073 Y143.8938 Z-5.4513
X208.4188 Y143.9137 Z-5.4905
X208.4295 Y143.9341 Z-5.5297
X208.4394 Y143.9548 Z-5.5689
X208.4485 Y143.9759 Z-5.6081
X208.4568 Y143.9973 Z-5.6472
X208.4642 Y144.0191 Z-5.6864
X208.4708 Y144.0411 Z-5.7256
X208.4765 Y144.0634 Z-5.7648
X208.4814 Y144.0858 Z-5.8040
X208.4854 Y144.1084 Z-5.8432
X208.4885 Y144.1312 Z-5.8824
X208.4907 Y144.1541 Z-5.9216
X208.4921 Y144.1770 Z-5.9608
X208.4925 Y144.2000 Z-6.0000
G03X207.3075I-0.5925J0.0000
X208.4925I0.5925J0.0000
G01 X207.6648 Y143.6562
X207.6653 Y143.6560 Z-6.0011
X207.6866 Y143.6473 Z-6.0402
X207.7082 Y143.6394 Z-6.0794
X207.7301 Y143.6324 Z-6.1186
X207.7522 Y143.6262 Z-6.1578
X207.7746 Y143.6209 Z-6.1970
X207.7971 Y143.6165 Z-6.2362
X207.8198 Y143.6129 Z-6.2754
X207.8426 Y143.6103 Z-6.3146
X207.8655 Y143.6085 Z-6.3538
X207.8885 Y143.6076 Z-6.3930
X207.9115 Z-6.4322
X207.9344 Y143.6085 Z-6.4714
X207.9574 Y143.6103 Z-6.5106
X207.9802 Y143.6129 Z-6.5498
X208.0029 Y143.6165 Z-6.5890
X208.0254 Y143.6209 Z-6.6282
X208.0478 Y143.6262 Z-6.6674
X208.0699 Y143.6324 Z-6.7066
X208.0918 Y143.6394 Z-6.7458
X208.1134 Y143.6473 Z-6.7850
X208.1347 Y143.6560 Z-6.8241
X208.1556 Y143.6655 Z-6.8633
X208.1761 Y143.6758 Z-6.9025
X208.1962 Y143.6869 Z-6.9417
X208.2159 Y143.6987 Z-6.9809
X208.2351 Y143.7114 Z-7.0201
X208.2538 Y143.7247 Z-7.0593
X208.2720 Y143.7388 Z-7.0985
X208.2896 Y143.7536 Z-7.1377
X208.3066 Y143.7690 Z-7.1769
X208.3230 Y143.7851 Z-7.2161
X208.3388 Y143.8018 Z-7.2553
X208.3539 Y143.8191 Z-7.2945
X208.3683 Y143.8370 Z-7.3337
X208.3820 Y143.8555 Z-7.3729
X208.3950 Y143.8744 Z-7.4121
X208.4073 Y143.8938 Z-7.4513
X208.4188 Y143.9137 Z-7.4905
X208.4295 Y143.9341 Z-7.5297
X208.4394 Y143.9548 Z-7.5689
X208.4485 Y143.9759 Z-7.6081
X208.4568 Y143.9973 Z-7.6472
X208.4642 Y144.0191 Z-7.6864
X208.4708 Y144.0411 Z-7.7256
X208.4765 Y144.0634 Z-7.7648
X208.4814 Y144.0858 Z-7.8040
X208.4854 Y144.1084 Z-7.8432
X208.4885 Y144.1312 Z-7.8824
X208.4907 Y144.1541 Z-7.9216
X208.4921 Y144.1770 Z-7.9608
X208.4925 Y144.2000 Z-8.0000
G03X207.3075I-0.5925J0.0000
X208.4925I0.5925J0.0000
G01 X207.9000
G00 Z1.0000
X212.3901 Y138.8984
G01 Z0.6350  F1000.0
X212.3927 Y138.8938 Z0.6261
X212.4050 Y138.8744 Z0.5869
X212.4180 Y138.8555 Z0.5477
X212.4317 Y138.8370 Z0.5085
X212.4461 Y138.8191 Z0.4693
X212.4612 Y138.8018 Z0.4301
X212.4770 Y138.7851 Z0.3909
X212.4934 Y138.7690 Z0.3517
X212.5104 Y138.7536 Z0.3125
X212.5280 Y138.7388 Z0.2733
X212.5462 Y138.7247 Z0.2341
X212.5649 Y138.7114 Z0.1949
X212.5841 Y138.6987 Z0.1557
X212.6037 Y138.6869 Z0.1165
X212.6239 Y138.6758 Z0.0773
X212.6444 Y138.6655 Z0.0381
X212.6653 Y138.6560 Z-0.0011
X212.6866 Y138.6473 Z-0.0402
X212.7082 Y138.6394 Z-0.0794
X212.7301 Y138.6324 Z-0.1186
X212.7522 Y138.6262 Z-0.1578
X212.7746 Y138.6209 Z-0.1970
X212.7971 Y138.6165 Z-0.2362
X212.8198 Y138.6129 Z-0.2754
X212.8426 Y138.6103 Z-0.3146
X212.8655 Y138.6085 Z-0.3538
X212.8885 Y138.6076 Z-0.3930
X212.9115 Z-0.4322
X212.9344 Y138.6085 Z-0.4714
X212.9574 Y138.6103 Z-0.5106
X212.9802 Y138.6129 Z-0.5498
X213.0029 Y138.6165 Z-0.5890
X213.0254 Y138.6209 Z-0.6282
X213.0478 Y138.6262 Z-0.6674
X213.0699 Y138.6324 Z-0.7066
X213.0918 Y138.6394 Z-0.7458
X213.1134 Y138.6473 Z-0.7850
X213.1347 Y138.6560 Z-0.8241
X213.1556 Y138.6655 Z-0.8633
X213.1761 Y138.6758 Z-0.9025
X213.1962 Y138.6869 Z-0.9417
X213.2159 Y138.6987 Z-0.9809
X213.2351 Y138.7114 Z-1.0201
X213.2538 Y138.7247 Z-1.0593
X213.2720 Y138.7388 Z-1.0985
X213.2896 Y138.7536 Z-1.1377
X213.3066 Y138.7690 Z-1.1769
X213.3230 Y138.7851 Z-1.2161
X213.3388 Y138.8018 Z-1.2553
X213.3539 Y138.8191 Z-1.2945
X213.3683 Y138.8370 Z-1.3337
X213.3820 Y138.8555 Z-1.3729
X213.3950 Y138.8744 Z-1.4121
X213.4073 Y138.8938 Z-1.4513
X213.4188 Y138.9137 Z-1.4905
X213.4295 Y138.9341 Z-1.5297
X213.4394 Y138.9548 Z-1.5689
X213.4485 Y138.9759 Z-1.6081
X213.4568 Y138.9973 Z-1.6472
X213.4642 Y139.0191 Z-1.6864
X213.4708 Y139.0411 Z-1.7256
X213.4765 Y139.0634 Z-1.7648
X213.4814 Y139.0858 Z-1.8040
X213.4854 Y139.1084 Z-1.8432
X213.4885 Y139.1312 Z-1.8824
X213.4907 Y139.1541 Z-1.9216
X213.4921 Y139.1770 Z-1.9608
X213.4925 Y139.2000 Z-2.0000
G03X212.3075I-0.5925J0.0000
X213.4925I0.5925J0.0000
G01 X212.6648 Y138.6562
X212.6653 Y138.6560 Z-2.0011
X212.6866 Y138.6473 Z-2.0402
X212.7082 Y138.6394 Z-2.0794
X212.7301 Y138.6324 Z-2.1186
X212.7522 Y138.6262 Z-2.1578
X212.7746 Y138.6209 Z-2.1970
X212.7971 Y138.6165 Z-2.2362
X212.8198 Y138.6129 Z-2.2754
X212.8426 Y138.6103 Z-2.3146
X212.8655 Y138.6085 Z-2.3538
X212.8885 Y138.6076 Z-2.3930
X212.9115 Z-2.4322
X212.9344 Y138.6085 Z-2.4714
X212.9574 Y138.6103 Z-2.5106
X212.9802 Y138.6129 Z-2.5498
X213.0029 Y138.6165 Z-2.5890
X213.0254 Y138.6209 Z-2.6282
X213.0478 Y138.6262 Z-2.6674
X213.0699 Y138.6324 Z-2.7066
X213.0918 Y138.6394 Z-2.7458
X213.1134 Y138.6473 Z-2.7850
X213.1347 Y138.6560 Z-2.8241
X213.1556 Y138.6655 Z-2.8633
X213.1761 Y138.6758 Z-2.9025
X213.1962 Y138.6869 Z-2.9417
X213.2159 Y138.6987 Z-2.9809
X213.2351 Y138.7114 Z-3.0201
X213.2538 Y138.7247 Z-3.0593
X213.2720 Y138.7388 Z-3.0985
X213.2896 Y138.7536 Z-3.1377
X213.3066 Y138.7690 Z-3.1769
X213.3230 Y138.7851 Z-3.2161
X213.3388 Y138.8018 Z-3.2553
X213.3539 Y138.8191 Z-3.2945
X213.3683 Y138.8370 Z-3.3337
X213.3820 Y138.8555 Z-3.3729
X213.3950 Y138.8744 Z-3.4121
X213.4073 Y138.8938 Z-3.4513
X213.4188 Y138.9137 Z-3.4905
X213.4295 Y138.9341 Z-3.5297
X213.4394 Y138.9548 Z-3.5689
X213.4485 Y138.9759 Z-3.6081
X213.4568 Y138.9973 Z-3.6472
X213.4642 Y139.0191 Z-3.6864
X213.4708 Y139.0411 Z-3.7256
X213.4765 Y139.0634 Z-3.7648
X213.4814 Y139.0858 Z-3.8040
X213.4854 Y139.1084 Z-3.8432
X213.4885 Y139.1312 Z-3.8824
X213.4907 Y139.1541 Z-3.9216
X213.4921 Y139.1770 Z-3.9608
X213.4925 Y139.2000 Z-4.0000
G03X212.3075I-0.5925J0.0000
X213.4925I0.5925J0.0000
G01 X212.6648 Y138.6562
X212.6653 Y138.6560 Z-4.0011
X212.6866 Y138.6473 Z-4.0402
X212.7082 Y138.6394 Z-4.0794
X212.7301 Y138.6324 Z-4.1186
X212.7522 Y138.6262 Z-4.1578
X212.7746 Y138.6209 Z-4.1970
X212.7971 Y138.6165 Z-4.2362
X212.8198 Y138.6129 Z-4.2754
X212.8426 Y138.6103 Z-4.3146
X212.8655 Y138.6085 Z-4.3538
X212.8885 Y138.6076 Z-4.3930
X212.9115 Z-4.4322
X212.9344 Y138.6085 Z-4.4714
X212.9574 Y138.6103 Z-4.5106
X212.9802 Y138.6129 Z-4.5498
X213.0029 Y138.6165 Z-4.5890
X213.0254 Y138.6209 Z-4.6282
X213.0478 Y138.6262 Z-4.6674
X213.0699 Y138.6324 Z-4.7066
X213.0918 Y138.6394 Z-4.7458
X213.1134 Y138.6473 Z-4.7850
X213.1347 Y138.6560 Z-4.8241
X213.1556 Y138.6655 Z-4.8633
X213.1761 Y138.6758 Z-4.9025
X213.1962 Y138.6869 Z-4.9417
X213.2159 Y138.6987 Z-4.9809
X213.2351 Y138.7114 Z-5.0201
X213.2538 Y138.7247 Z-5.0593
X213.2720 Y138.7388 Z-5.0985
X213.2896 Y138.7536 Z-5.1377
X213.3066 Y138.7690 Z-5.1769
X213.3230 Y138.7851 Z-5.2161
X213.3388 Y138.8018 Z-5.2553
X213.3539 Y138.8191 Z-5.2945
X213.3683 Y138.8370 Z-5.3337
X213.3820 Y138.8555 Z-5.3729
X213.3950 Y138.8744 Z-5.4121
X213.4073 Y138.8938 Z-5.4513
X213.4188 Y138.9137 Z-5.4905
X213.4295 Y138.9341 Z-5.5297
X213.4394 Y138.9548 Z-5.5689
X213.4485 Y138.9759 Z-5.6081
X213.4568 Y138.9973 Z-5.6472
X213.4642 Y139.0191 Z-5.6864
X213.4708 Y139.0411 Z-5.7256
X213.4765 Y139.0634 Z-5.7648
X213.4814 Y139.0858 Z-5.8040
X213.4854 Y139.1084 Z-5.8432
X213.4885 Y139.1312 Z-5.8824
X213.4907 Y139.1541 Z-5.9216
X213.4921 Y139.1770 Z-5.9608
X213.4925 Y139.2000 Z-6.0000
G03X212.3075I-0.5925J0.0000
X213.4925I0.5925J0.0000
G01 X212.6648 Y138.6562
X212.6653 Y138.6560 Z-6.0011
X212.6866 Y138.6473 Z-6.0402
X212.7082 Y138.6394 Z-6.0794
X212.7301 Y138.6324 Z-6.1186
X212.7522 Y138.6262 Z-6.1578
X212.7746 Y138.6209 Z-6.1970
X212.7971 Y138.6165 Z-6.2362
X212.8198 Y138.6129 Z-6.2754
X212.8426 Y138.6103 Z-6.3146
X212.8655 Y138.6085 Z-6.3538
X212.8885 Y138.6076 Z-6.3930
X212.9115 Z-6.4322
X212.9344 Y138.6085 Z-6.4714
X212.9574 Y138.6103 Z-6.5106
X212.9802 Y138.6129 Z-6.5498
X213.0029 Y138.6165 Z-6.5890
X213.0254 Y138.6209 Z-6.6282
X213.0478 Y138.6262 Z-6.6674
X213.0699 Y138.6324 Z-6.7066
X213.0918 Y138.6394 Z-6.7458
X213.1134 Y138.6473 Z-6.7850
X213.1347 Y138.6560 Z-6.8241
X213.1556 Y138.6655 Z-6.8633
X213.1761 Y138.6758 Z-6.9025
X213.1962 Y138.6869 Z-6.9417
X213.2159 Y138.6987 Z-6.9809
X213.2351 Y138.7114 Z-7.0201
X213.2538 Y138.7247 Z-7.0593
X213.2720 Y138.7388 Z-7.0985
X213.2896 Y138.7536 Z-7.1377
X213.3066 Y138.7690 Z-7.1769
X213.3230 Y138.7851 Z-7.2161
X213.3388 Y138.8018 Z-7.2553
X213.3539 Y138.8191 Z-7.2945
X213.3683 Y138.8370 Z-7.3337
X213.3820 Y138.8555 Z-7.3729
X213.3950 Y138.8744 Z-7.4121
X213.4073 Y138.8938 Z-7.4513
X213.4188 Y138.9137 Z-7.4905
X213.4295 Y138.9341 Z-7.5297
X213.4394 Y138.9548 Z-7.5689
X213.4485 Y138.9759 Z-7.6081
X213.4568 Y138.9973 Z-7.6472
X213.4642 Y139.0191 Z-7.6864
X213.4708 Y139.0411 Z-7.7256
X213.4765 Y139.0634 Z-7.7648
X213.4814 Y139.0858 Z-7.8040
X213.4854 Y139.1084 Z-7.8432
X213.4885 Y139.1312 Z-7.8824
X213.4907 Y139.1541 Z-7.9216
X213.4921 Y139.1770 Z-7.9608
X213.4925 Y139.2000 Z-8.0000
G03X212.3075I-0.5925J0.0000
X213.4925I0.5925J0.0000
G01 X212.9000
G00 Z1.0000
X217.3901 Y133.8984
G01 Z0.6350  F1000.0
X217.3927 Y133.8938 Z0.6261
X217.4050 Y133.8744 Z0.5869
X217.4180 Y133.8555 Z0.5477
X217.4317 Y133.8370 Z0.5085
X217.4461 Y133.8191 Z0.4693
X217.4612 Y133.8018 Z0.4301
X217.4770 Y133.7851 Z0.3909
X217.4934 Y133.7690 Z0.3517
X217.5104 Y133.7536 Z0.3125
X217.5280 Y133.7388 Z0.2733
X217.5462 Y133.7247 Z0.2341
X217.5649 Y133.7114 Z0.1949
X217.5841 Y133.6987 Z0.1557
X217.6037 Y133.6869 Z0.1165
X217.6239 Y133.6758 Z0.0773
X217.6444 Y133.6655 Z0.0381
X217.6653 Y133.6560 Z-0.0011
X217.6866 Y133.6473 Z-0.0402
X217.7082 Y133.6394 Z-0.0794
X217.7301 Y133.6324 Z-0.1186
X217.7522 Y133.6262 Z-0.1578
X217.7746 Y133.6209 Z-0.1970
X217.7971 Y133.6165 Z-0.2362
X217.8198 Y133.6129 Z-0.2754
X217.8426 Y133.6103 Z-0.3146
X217.8655 Y133.6085 Z-0.3538
X217.8885 Y133.6076 Z-0.3930
X217.9115 Z-0.4322
X217.9344 Y133.6085 Z-0.4714
X217.9574 Y133.6103 Z-0.5106
X217.9802 Y133.6129 Z-0.5498
X218.0029 Y133.6165 Z-0.5890
X218.0254 Y133.6209 Z-0.6282
X218.0478 Y133.6262 Z-0.6674
X218.0699 Y133.6324 Z-0.7066
X218.0918 Y133.6394 Z-0.7458
X218.1134 Y133.6473 Z-0.7850
X218.1347 Y133.6560 Z-0.8241
X218.1556 Y133.6655 Z-0.8633
X218.1761 Y133.6758 Z-0.9025
X218.1962 Y133.6869 Z-0.9417
X218.2159 Y133.6987 Z-0.9809
X218.2351 Y133.7114 Z-1.0201
X218.2538 Y133.7247 Z-1.0593
X218.2720 Y133.7388 Z-1.0985
X218.2896 Y133.7536 Z-1.1377
X218.3066 Y133.7690 Z-1.1769
X218.3230 Y133.7851 Z-1.2161
X218.3388 Y133.8018 Z-1.2553
X218.3539 Y133.8191 Z-1.2945
X218.3683 Y133.8370 Z-1.3337
X218.3820 Y133.8555 Z-1.3729
X218.3950 Y133.8744 Z-1.4121
X218.4073 Y133.8938 Z-1.4513
X218.4188 Y133.9137 Z-1.4905
X218.4295 Y133.9341 Z-1.5297
X218.4394 Y133.9548 Z-1.5689
X218.4485 Y133.9759 Z-1.6081
X218.4568 Y133.9973 Z-1.6472
X218.4642 Y134.0191 Z-1.6864
X218.4708 Y134.0411 Z-1.7256
X218.4765 Y134.0634 Z-1.7648
X218.4814 Y134.0858 Z-1.8040
X218.4854 Y134.1084 Z-1.8432
X218.4885 Y134.1312 Z-1.8824
X218.4907 Y134.1541 Z-1.9216
X218.4921 Y134.1770 Z-1.9608
X218.4925 Y134.2000 Z-2.0000
G03X217.3075I-0.5925J0.0000
X218.4925I0.5925J0.0000
G01 X217.6648 Y133.6562
X217.6653 Y133.6560 Z-2.0011
X217.6866 Y133.6473 Z-2.0402
X217.7082 Y133.6394 Z-2.0794
X217.7301 Y133.6324 Z-2.1186
X217.7522 Y133.6262 Z-2.1578
X217.7746 Y133.6209 Z-2.1970
X217.7971 Y133.6165 Z-2.2362
X217.8198 Y133.6129 Z-2.2754
X217.8426 Y133.6103 Z-2.3146
X217.8655 Y133.6085 Z-2.3538
X217.8885 Y133.6076 Z-2.3930
X217.9115 Z-2.4322
X217.9344 Y133.6085 Z-2.4714
X217.9574 Y133.6103 Z-2.5106
X217.9802 Y133.6129 Z-2.5498
X218.0029 Y133.6165 Z-2.5890
X218.0254 Y133.6209 Z-2.6282
X218.0478 Y133.6262 Z-2.6674
X218.0699 Y133.6324 Z-2.7066
X218.0918 Y133.6394 Z-2.7458
X218.1134 Y133.6473 Z-2.7850
X218.1347 Y133.6560 Z-2.8241
X218.1556 Y133.6655 Z-2.8633
X218.1761 Y133.6758 Z-2.9025
X218.1962 Y133.6869 Z-2.9417
X218.2159 Y133.6987 Z-2.9809
X218.2351 Y133.7114 Z-3.0201
X218.2538 Y133.7247 Z-3.0593
X218.2720 Y133.7388 Z-3.0985
X218.2896 Y133.7536 Z-3.1377
X218.3066 Y133.7690 Z-3.1769
X218.3230 Y133.7851 Z-3.2161
X218.3388 Y133.8018 Z-3.2553
X218.3539 Y133.8191 Z-3.2945
X218.3683 Y133.8370 Z-3.3337
X218.3820 Y133.8555 Z-3.3729
X218.3950 Y133.8744 Z-3.4121
X218.4073 Y133.8938 Z-3.4513
X218.4188 Y133.9137 Z-3.4905
X218.4295 Y133.9341 Z-3.5297
X218.4394 Y133.9548 Z-3.5689
X218.4485 Y133.9759 Z-3.6081
X218.4568 Y133.9973 Z-3.6472
X218.4642 Y134.0191 Z-3.6864
X218.4708 Y134.0411 Z-3.7256
X218.4765 Y134.0634 Z-3.7648
X218.4814 Y134.0858 Z-3.8040
X218.4854 Y134.1084 Z-3.8432
X218.4885 Y134.1312 Z-3.8824
X218.4907 Y134.1541 Z-3.9216
X218.4921 Y134.1770 Z-3.9608
X218.4925 Y134.2000 Z-4.0000
G03X217.3075I-0.5925J0.0000
X218.4925I0.5925J0.0000
G01 X217.6648 Y133.6562
X217.6653 Y133.6560 Z-4.0011
X217.6866 Y133.6473 Z-4.0402
X217.7082 Y133.6394 Z-4.0794
X217.7301 Y133.6324 Z-4.1186
X217.7522 Y133.6262 Z-4.1578
X217.7746 Y133.6209 Z-4.1970
X217.7971 Y133.6165 Z-4.2362
X217.8198 Y133.6129 Z-4.2754
X217.8426 Y133.6103 Z-4.3146
X217.8655 Y133.6085 Z-4.3538
X217.8885 Y133.6076 Z-4.3930
X217.9115 Z-4.4322
X217.9344 Y133.6085 Z-4.4714
X217.9574 Y133.6103 Z-4.5106
X217.9802 Y133.6129 Z-4.5498
X218.0029 Y133.6165 Z-4.5890
X218.0254 Y133.6209 Z-4.6282
X218.0478 Y133.6262 Z-4.6674
X218.0699 Y133.6324 Z-4.7066
X218.0918 Y133.6394 Z-4.7458
X218.1134 Y133.6473 Z-4.7850
X218.1347 Y133.6560 Z-4.8241
X218.1556 Y133.6655 Z-4.8633
X218.1761 Y133.6758 Z-4.9025
X218.1962 Y133.6869 Z-4.9417
X218.2159 Y133.6987 Z-4.9809
X218.2351 Y133.7114 Z-5.0201
X218.2538 Y133.7247 Z-5.0593
X218.2720 Y133.7388 Z-5.0985
X218.2896 Y133.7536 Z-5.1377
X218.3066 Y133.7690 Z-5.1769
X218.3230 Y133.7851 Z-5.2161
X218.3388 Y133.8018 Z-5.2553
X218.3539 Y133.8191 Z-5.2945
X218.3683 Y133.8370 Z-5.3337
X218.3820 Y133.8555 Z-5.3729
X218.3950 Y133.8744 Z-5.4121
X218.4073 Y133.8938 Z-5.4513
X218.4188 Y133.9137 Z-5.4905
X218.4295 Y133.9341 Z-5.5297
X218.4394 Y133.9548 Z-5.5689
X218.4485 Y133.9759 Z-5.6081
X218.4568 Y133.9973 Z-5.6472
X218.4642 Y134.0191 Z-5.6864
X218.4708 Y134.0411 Z-5.7256
X218.4765 Y134.0634 Z-5.7648
X218.4814 Y134.0858 Z-5.8040
X218.4854 Y134.1084 Z-5.8432
X218.4885 Y134.1312 Z-5.8824
X218.4907 Y134.1541 Z-5.9216
X218.4921 Y134.1770 Z-5.9608
X218.4925 Y134.2000 Z-6.0000
G03X217.3075I-0.5925J0.0000
X218.4925I0.5925J0.0000
G01 X217.6648 Y133.6562
X217.6653 Y133.6560 Z-6.0011
X217.6866 Y133.6473 Z-6.0402
X217.7082 Y133.6394 Z-6.0794
X217.7301 Y133.6324 Z-6.1186
X217.7522 Y133.6262 Z-6.1578
X217.7746 Y133.6209 Z-6.1970
X217.7971 Y133.6165 Z-6.2362
X217.8198 Y133.6129 Z-6.2754
X217.8426 Y133.6103 Z-6.3146
X217.8655 Y133.6085 Z-6.3538
X217.8885 Y133.6076 Z-6.3930
X217.9115 Z-6.4322
X217.9344 Y133.6085 Z-6.4714
X217.9574 Y133.6103 Z-6.5106
X217.9802 Y133.6129 Z-6.5498
X218.0029 Y133.6165 Z-6.5890
X218.0254 Y133.6209 Z-6.6282
X218.0478 Y133.6262 Z-6.6674
X218.0699 Y133.6324 Z-6.7066
X218.0918 Y133.6394 Z-6.7458
X218.1134 Y133.6473 Z-6.7850
X218.1347 Y133.6560 Z-6.8241
X218.1556 Y133.6655 Z-6.8633
X218.1761 Y133.6758 Z-6.9025
X218.1962 Y133.6869 Z-6.9417
X218.2159 Y133.6987 Z-6.9809
X218.2351 Y133.7114 Z-7.0201
X218.2538 Y133.7247 Z-7.0593
X218.2720 Y133.7388 Z-7.0985
X218.2896 Y133.7536 Z-7.1377
X218.3066 Y133.7690 Z-7.1769
X218.3230 Y133.7851 Z-7.2161
X218.3388 Y133.8018 Z-7.2553
X218.3539 Y133.8191 Z-7.2945
X218.3683 Y133.8370 Z-7.3337
X218.3820 Y133.8555 Z-7.3729
X218.3950 Y133.8744 Z-7.4121
X218.4073 Y133.8938 Z-7.4513
X218.4188 Y133.9137 Z-7.4905
X218.4295 Y133.9341 Z-7.5297
X218.4394 Y133.9548 Z-7.5689
X218.4485 Y133.9759 Z-7.6081
X218.4568 Y133.9973 Z-7.6472
X218.4642 Y134.0191 Z-7.6864
X218.4708 Y134.0411 Z-7.7256
X218.4765 Y134.0634 Z-7.7648
X218.4814 Y134.0858 Z-7.8040
X218.4854 Y134.1084 Z-7.8432
X218.4885 Y134.1312 Z-7.8824
X218.4907 Y134.1541 Z-7.9216
X218.4921 Y134.1770 Z-7.9608
X218.4925 Y134.2000 Z-8.0000
G03X217.3075I-0.5925J0.0000
X218.4925I0.5925J0.0000
G01 X217.9000
G00 Z1.0000
X222.3901 Y128.8984
G01 Z0.6350  F1000.0
X222.3927 Y128.8938 Z0.6261
X222.4050 Y128.8744 Z0.5869
X222.4180 Y128.8555 Z0.5477
X222.4317 Y128.8370 Z0.5085
X222.4461 Y128.8191 Z0.4693
X222.4612 Y128.8018 Z0.4301
X222.4770 Y128.7851 Z0.3909
X222.4934 Y128.7690 Z0.3517
X222.5104 Y128.7536 Z0.3125
X222.5280 Y128.7388 Z0.2733
X222.5462 Y128.7247 Z0.2341
X222.5649 Y128.7114 Z0.1949
X222.5841 Y128.6987 Z0.1557
X222.6037 Y128.6869 Z0.1165
X222.6239 Y128.6758 Z0.0773
X222.6444 Y128.6655 Z0.0381
X222.6653 Y128.6559 Z-0.0011
X222.6866 Y128.6473 Z-0.0402
X222.7082 Y128.6394 Z-0.0794
X222.7301 Y128.6324 Z-0.1186
X222.7522 Y128.6262 Z-0.1578
X222.7746 Y128.6209 Z-0.1970
X222.7971 Y128.6165 Z-0.2362
X222.8198 Y128.6129 Z-0.2754
X222.8426 Y128.6103 Z-0.3146
X222.8655 Y128.6085 Z-0.3538
X222.8885 Y128.6076 Z-0.3930
X222.9115 Z-0.4322
X222.9344 Y128.6085 Z-0.4714
X222.9574 Y128.6103 Z-0.5106
X222.9802 Y128.6129 Z-0.5498
X223.0029 Y128.6165 Z-0.5890
X223.0254 Y128.6209 Z-0.6282
X223.0478 Y128.6262 Z-0.6674
X223.0699 Y128.6324 Z-0.7066
X223.0918 Y128.6394 Z-0.7458
X223.1134 Y128.6473 Z-0.7850
X223.1347 Y128.6559 Z-0.8241
X223.1556 Y128.6655 Z-0.8633
X223.1761 Y128.6758 Z-0.9025
X223.1962 Y128.6869 Z-0.9417
X223.2159 Y128.6987 Z-0.9809
X223.2351 Y128.7114 Z-1.0201
X223.2538 Y128.7247 Z-1.0593
X223.2720 Y128.7388 Z-1.0985
X223.2896 Y128.7536 Z-1.1377
X223.3066 Y128.7690 Z-1.1769
X223.3230 Y128.7851 Z-1.2161
X223.3388 Y128.8018 Z-1.2553
X223.3539 Y128.8191 Z-1.2945
X223.3683 Y128.8370 Z-1.3337
X223.3820 Y128.8555 Z-1.3729
X223.3950 Y128.8744 Z-1.4121
X223.4073 Y128.8938 Z-1.4513
X223.4188 Y128.9137 Z-1.4905
X223.4295 Y128.9341 Z-1.5297
X223.4394 Y128.9548 Z-1.5689
X223.4485 Y128.9759 Z-1.6081
X223.4568 Y128.9973 Z-1.6472
X223.4642 Y129.0191 Z-1.6864
X223.4708 Y129.0411 Z-1.7256
X223.4765 Y129.0634 Z-1.7648
X223.4814 Y129.0858 Z-1.8040
X223.4854 Y129.1084 Z-1.8432
X223.4885 Y129.1312 Z-1.8824
X223.4907 Y129.1541 Z-1.9216
X223.4921 Y129.1770 Z-1.9608
X223.4925 Y129.2000 Z-2.0000
G03X222.3075I-0.5925J0.0000
X223.4925I0.5925J0.0000
G01 X222.6648 Y128.6562
X222.6653 Y128.6559 Z-2.0011
X222.6866 Y128.6473 Z-2.0402
X222.7082 Y128.6394 Z-2.0794
X222.7301 Y128.6324 Z-2.1186
X222.7522 Y128.6262 Z-2.1578
X222.7746 Y128.6209 Z-2.1970
X222.7971 Y128.6165 Z-2.2362
X222.8198 Y128.6129 Z-2.2754
X222.8426 Y128.6103 Z-2.3146
X222.8655 Y128.6085 Z-2.3538
X222.8885 Y128.6076 Z-2.3930
X222.9115 Z-2.4322
X222.9344 Y128.6085 Z-2.4714
X222.9574 Y128.6103 Z-2.5106
X222.9802 Y128.6129 Z-2.5498
X223.0029 Y128.6165 Z-2.5890
X223.0254 Y128.6209 Z-2.6282
X223.0478 Y128.6262 Z-2.6674
X223.0699 Y128.6324 Z-2.7066
X223.0918 Y128.6394 Z-2.7458
X223.1134 Y128.6473 Z-2.7850
X223.1347 Y128.6559 Z-2.8241
X223.1556 Y128.6655 Z-2.8633
X223.1761 Y128.6758 Z-2.9025
X223.1962 Y128.6869 Z-2.9417
X223.2159 Y128.6987 Z-2.9809
X223.2351 Y128.7114 Z-3.0201
X223.2538 Y128.7247 Z-3.0593
X223.2720 Y128.7388 Z-3.0985
X223.2896 Y128.7536 Z-3.1377
X223.3066 Y128.7690 Z-3.1769
X223.3230 Y128.7851 Z-3.2161
X223.3388 Y128.8018 Z-3.2553
X223.3539 Y128.8191 Z-3.2945
X223.3683 Y128.8370 Z-3.3337
X223.3820 Y128.8555 Z-3.3729
X223.3950 Y128.8744 Z-3.4121
X223.4073 Y128.8938 Z-3.4513
X223.4188 Y128.9137 Z-3.4905
X223.4295 Y128.9341 Z-3.5297
X223.4394 Y128.9548 Z-3.5689
X223.4485 Y128.9759 Z-3.6081
X223.4568 Y128.9973 Z-3.6472
X223.4642 Y129.0191 Z-3.6864
X223.4708 Y129.0411 Z-3.7256
X223.4765 Y129.0634 Z-3.7648
X223.4814 Y129.0858 Z-3.8040
X223.4854 Y129.1084 Z-3.8432
X223.4885 Y129.1312 Z-3.8824
X223.4907 Y129.1541 Z-3.9216
X223.4921 Y129.1770 Z-3.9608
X223.4925 Y129.2000 Z-4.0000
G03X222.3075I-0.5925J0.0000
X223.4925I0.5925J0.0000
G01 X222.6648 Y128.6562
X222.6653 Y128.6559 Z-4.0011
X222.6866 Y128.6473 Z-4.0402
X222.7082 Y128.6394 Z-4.0794
X222.7301 Y128.6324 Z-4.1186
X222.7522 Y128.6262 Z-4.1578
X222.7746 Y128.6209 Z-4.1970
X222.7971 Y128.6165 Z-4.2362
X222.8198 Y128.6129 Z-4.2754
X222.8426 Y128.6103 Z-4.3146
X222.8655 Y128.6085 Z-4.3538
X222.8885 Y128.6076 Z-4.3930
X222.9115 Z-4.4322
X222.9344 Y128.6085 Z-4.4714
X222.9574 Y128.6103 Z-4.5106
X222.9802 Y128.6129 Z-4.5498
X223.0029 Y128.6165 Z-4.5890
X223.0254 Y128.6209 Z-4.6282
X223.0478 Y128.6262 Z-4.6674
X223.0699 Y128.6324 Z-4.7066
X223.0918 Y128.6394 Z-4.7458
X223.1134 Y128.6473 Z-4.7850
X223.1347 Y128.6559 Z-4.8241
X223.1556 Y128.6655 Z-4.8633
X223.1761 Y128.6758 Z-4.9025
X223.1962 Y128.6869 Z-4.9417
X223.2159 Y128.6987 Z-4.9809
X223.2351 Y128.7114 Z-5.0201
X223.2538 Y128.7247 Z-5.0593
X223.2720 Y128.7388 Z-5.0985
X223.2896 Y128.7536 Z-5.1377
X223.3066 Y128.7690 Z-5.1769
X223.3230 Y128.7851 Z-5.2161
X223.3388 Y128.8018 Z-5.2553
X223.3539 Y128.8191 Z-5.2945
X223.3683 Y128.8370 Z-5.3337
X223.3820 Y128.8555 Z-5.3729
X223.3950 Y128.8744 Z-5.4121
X223.4073 Y128.8938 Z-5.4513
X223.4188 Y128.9137 Z-5.4905
X223.4295 Y128.9341 Z-5.5297
X223.4394 Y128.9548 Z-5.5689
X223.4485 Y128.9759 Z-5.6081
X223.4568 Y128.9973 Z-5.6472
X223.4642 Y129.0191 Z-5.6864
X223.4708 Y129.0411 Z-5.7256
X223.4765 Y129.0634 Z-5.7648
X223.4814 Y129.0858 Z-5.8040
X223.4854 Y129.1084 Z-5.8432
X223.4885 Y129.1312 Z-5.8824
X223.4907 Y129.1541 Z-5.9216
X223.4921 Y129.1770 Z-5.9608
X223.4925 Y129.2000 Z-6.0000
G03X222.3075I-0.5925J0.0000
X223.4925I0.5925J0.0000
G01 X222.6648 Y128.6562
X222.6653 Y128.6559 Z-6.0011
X222.6866 Y128.6473 Z-6.0402
X222.7082 Y128.6394 Z-6.0794
X222.7301 Y128.6324 Z-6.1186
X222.7522 Y128.6262 Z-6.1578
X222.7746 Y128.6209 Z-6.1970
X222.7971 Y128.6165 Z-6.2362
X222.8198 Y128.6129 Z-6.2754
X222.8426 Y128.6103 Z-6.3146
X222.8655 Y128.6085 Z-6.3538
X222.8885 Y128.6076 Z-6.3930
X222.9115 Z-6.4322
X222.9344 Y128.6085 Z-6.4714
X222.9574 Y128.6103 Z-6.5106
X222.9802 Y128.6129 Z-6.5498
X223.0029 Y128.6165 Z-6.5890
X223.0254 Y128.6209 Z-6.6282
X223.0478 Y128.6262 Z-6.6674
X223.0699 Y128.6324 Z-6.7066
X223.0918 Y128.6394 Z-6.7458
X223.1134 Y128.6473 Z-6.7850
X223.1347 Y128.6559 Z-6.8241
X223.1556 Y128.6655 Z-6.8633
X223.1761 Y128.6758 Z-6.9025
X223.1962 Y128.6869 Z-6.9417
X223.2159 Y128.6987 Z-6.9809
X223.2351 Y128.7114 Z-7.0201
X223.2538 Y128.7247 Z-7.0593
X223.2720 Y128.7388 Z-7.0985
X223.2896 Y128.7536 Z-7.1377
X223.3066 Y128.7690 Z-7.1769
X223.3230 Y128.7851 Z-7.2161
X223.3388 Y128.8018 Z-7.2553
X223.3539 Y128.8191 Z-7.2945
X223.3683 Y128.8370 Z-7.3337
X223.3820 Y128.8555 Z-7.3729
X223.3950 Y128.8744 Z-7.4121
X223.4073 Y128.8938 Z-7.4513
X223.4188 Y128.9137 Z-7.4905
X223.4295 Y128.9341 Z-7.5297
X223.4394 Y128.9548 Z-7.5689
X223.4485 Y128.9759 Z-7.6081
X223.4568 Y128.9973 Z-7.6472
X223.4642 Y129.0191 Z-7.6864
X223.4708 Y129.0411 Z-7.7256
X223.4765 Y129.0634 Z-7.7648
X223.4814 Y129.0858 Z-7.8040
X223.4854 Y129.1084 Z-7.8432
X223.4885 Y129.1312 Z-7.8824
X223.4907 Y129.1541 Z-7.9216
X223.4921 Y129.1770 Z-7.9608
X223.4925 Y129.2000 Z-8.0000
G03X222.3075I-0.5925J0.0000
X223.4925I0.5925J0.0000
G01 X222.9000
G00 Z1.0000
X227.3901 Y123.8984
G01 Z0.6350  F1000.0
X227.3927 Y123.8938 Z0.6261
X227.4050 Y123.8744 Z0.5869
X227.4180 Y123.8555 Z0.5477
X227.4317 Y123.8370 Z0.5085
X227.4461 Y123.8191 Z0.4693
X227.4612 Y123.8018 Z0.4301
X227.4770 Y123.7851 Z0.3909
X227.4934 Y123.7690 Z0.3517
X227.5104 Y123.7536 Z0.3125
X227.5280 Y123.7388 Z0.2733
X227.5462 Y123.7247 Z0.2341
X227.5649 Y123.7114 Z0.1949
X227.5841 Y123.6987 Z0.1557
X227.6037 Y123.6869 Z0.1165
X227.6239 Y123.6758 Z0.0773
X227.6444 Y123.6655 Z0.0381
X227.6653 Y123.6559 Z-0.0011
X227.6866 Y123.6473 Z-0.0402
X227.7082 Y123.6394 Z-0.0794
X227.7301 Y123.6324 Z-0.1186
X227.7522 Y123.6262 Z-0.1578
X227.7746 Y123.6209 Z-0.1970
X227.7971 Y123.6165 Z-0.2362
X227.8198 Y123.6129 Z-0.2754
X227.8426 Y123.6103 Z-0.3146
X227.8655 Y123.6085 Z-0.3538
X227.8885 Y123.6076 Z-0.3930
X227.9115 Z-0.4322
X227.9344 Y123.6085 Z-0.4714
X227.9574 Y123.6103 Z-0.5106
X227.9802 Y123.6129 Z-0.5498
X228.0029 Y123.6165 Z-0.5890
X228.0254 Y123.6209 Z-0.6282
X228.0478 Y123.6262 Z-0.6674
X228.0699 Y123.6324 Z-0.7066
X228.0918 Y123.6394 Z-0.7458
X228.1134 Y123.6473 Z-0.7850
X228.1347 Y123.6559 Z-0.8241
X228.1556 Y123.6655 Z-0.8633
X228.1761 Y123.6758 Z-0.9025
X228.1962 Y123.6869 Z-0.9417
X228.2159 Y123.6987 Z-0.9809
X228.2351 Y123.7114 Z-1.0201
X228.2538 Y123.7247 Z-1.0593
X228.2720 Y123.7388 Z-1.0985
X228.2896 Y123.7536 Z-1.1377
X228.3066 Y123.7690 Z-1.1769
X228.3230 Y123.7851 Z-1.2161
X228.3388 Y123.8018 Z-1.2553
X228.3539 Y123.8191 Z-1.2945
X228.3683 Y123.8370 Z-1.3337
X228.3820 Y123.8555 Z-1.3729
X228.3950 Y123.8744 Z-1.4121
X228.4073 Y123.8938 Z-1.4513
X228.4188 Y123.9137 Z-1.4905
X228.4295 Y123.9341 Z-1.5297
X228.4394 Y123.9548 Z-1.5689
X228.4485 Y123.9759 Z-1.6081
X228.4568 Y123.9973 Z-1.6472
X228.4642 Y124.0191 Z-1.6864
X228.4708 Y124.0411 Z-1.7256
X228.4765 Y124.0634 Z-1.7648
X228.4814 Y124.0858 Z-1.8040
X228.4854 Y124.1084 Z-1.8432
X228.4885 Y124.1312 Z-1.8824
X228.4907 Y124.1541 Z-1.9216
X228.4921 Y124.1770 Z-1.9608
X228.4925 Y124.2000 Z-2.0000
G03X227.3075I-0.5925J0.0000
X228.4925I0.5925J0.0000
G01 X227.6648 Y123.6562
X227.6653 Y123.6559 Z-2.0011
X227.6866 Y123.6473 Z-2.0402
X227.7082 Y123.6394 Z-2.0794
X227.7301 Y123.6324 Z-2.1186
X227.7522 Y123.6262 Z-2.1578
X227.7746 Y123.6209 Z-2.1970
X227.7971 Y123.6165 Z-2.2362
X227.8198 Y123.6129 Z-2.2754
X227.8426 Y123.6103 Z-2.3146
X227.8655 Y123.6085 Z-2.3538
X227.8885 Y123.6076 Z-2.3930
X227.9115 Z-2.4322
X227.9344 Y123.6085 Z-2.4714
X227.9574 Y123.6103 Z-2.5106
X227.9802 Y123.6129 Z-2.5498
X228.0029 Y123.6165 Z-2.5890
X228.0254 Y123.6209 Z-2.6282
X228.0478 Y123.6262 Z-2.6674
X228.0699 Y123.6324 Z-2.7066
X228.0918 Y123.6394 Z-2.7458
X228.1134 Y123.6473 Z-2.7850
X228.1347 Y123.6559 Z-2.8241
X228.1556 Y123.6655 Z-2.8633
X228.1761 Y123.6758 Z-2.9025
X228.1962 Y123.6869 Z-2.9417
X228.2159 Y123.6987 Z-2.9809
X228.2351 Y123.7114 Z-3.0201
X228.2538 Y123.7247 Z-3.0593
X228.2720 Y123.7388 Z-3.0985
X228.2896 Y123.7536 Z-3.1377
X228.3066 Y123.7690 Z-3.1769
X228.3230 Y123.7851 Z-3.2161
X228.3388 Y123.8018 Z-3.2553
X228.3539 Y123.8191 Z-3.2945
X228.3683 Y123.8370 Z-3.3337
X228.3820 Y123.8555 Z-3.3729
X228.3950 Y123.8744 Z-3.4121
X228.4073 Y123.8938 Z-3.4513
X228.4188 Y123.9137 Z-3.4905
X228.4295 Y123.9341 Z-3.5297
X228.4394 Y123.9548 Z-3.5689
X228.4485 Y123.9759 Z-3.6081
X228.4568 Y123.9973 Z-3.6472
X228.4642 Y124.0191 Z-3.6864
X228.4708 Y124.0411 Z-3.7256
X228.4765 Y124.0634 Z-3.7648
X228.4814 Y124.0858 Z-3.8040
X228.4854 Y124.1084 Z-3.8432
X228.4885 Y124.1312 Z-3.8824
X228.4907 Y124.1541 Z-3.9216
X228.4921 Y124.1770 Z-3.9608
X228.4925 Y124.2000 Z-4.0000
G03X227.3075I-0.5925J0.0000
X228.4925I0.5925J0.0000
G01 X227.6648 Y123.6562
X227.6653 Y123.6559 Z-4.0011
X227.6866 Y123.6473 Z-4.0402
X227.7082 Y123.6394 Z-4.0794
X227.7301 Y123.6324 Z-4.1186
X227.7522 Y123.6262 Z-4.1578
X227.7746 Y123.6209 Z-4.1970
X227.7971 Y123.6165 Z-4.2362
X227.8198 Y123.6129 Z-4.2754
X227.8426 Y123.6103 Z-4.3146
X227.8655 Y123.6085 Z-4.3538
X227.8885 Y123.6076 Z-4.3930
X227.9115 Z-4.4322
X227.9344 Y123.6085 Z-4.4714
X227.9574 Y123.6103 Z-4.5106
X227.9802 Y123.6129 Z-4.5498
X228.0029 Y123.6165 Z-4.5890
X228.0254 Y123.6209 Z-4.6282
X228.0478 Y123.6262 Z-4.6674
X228.0699 Y123.6324 Z-4.7066
X228.0918 Y123.6394 Z-4.7458
X228.1134 Y123.6473 Z-4.7850
X228.1347 Y123.6559 Z-4.8241
X228.1556 Y123.6655 Z-4.8633
X228.1761 Y123.6758 Z-4.9025
X228.1962 Y123.6869 Z-4.9417
X228.2159 Y123.6987 Z-4.9809
X228.2351 Y123.7114 Z-5.0201
X228.2538 Y123.7247 Z-5.0593
X228.2720 Y123.7388 Z-5.0985
X228.2896 Y123.7536 Z-5.1377
X228.3066 Y123.7690 Z-5.1769
X228.3230 Y123.7851 Z-5.2161
X228.3388 Y123.8018 Z-5.2553
X228.3539 Y123.8191 Z-5.2945
X228.3683 Y123.8370 Z-5.3337
X228.3820 Y123.8555 Z-5.3729
X228.3950 Y123.8744 Z-5.4121
X228.4073 Y123.8938 Z-5.4513
X228.4188 Y123.9137 Z-5.4905
X228.4295 Y123.9341 Z-5.5297
X228.4394 Y123.9548 Z-5.5689
X228.4485 Y123.9759 Z-5.6081
X228.4568 Y123.9973 Z-5.6472
X228.4642 Y124.0191 Z-5.6864
X228.4708 Y124.0411 Z-5.7256
X228.4765 Y124.0634 Z-5.7648
X228.4814 Y124.0858 Z-5.8040
X228.4854 Y124.1084 Z-5.8432
X228.4885 Y124.1312 Z-5.8824
X228.4907 Y124.1541 Z-5.9216
X228.4921 Y124.1770 Z-5.9608
X228.4925 Y124.2000 Z-6.0000
G03X227.3075I-0.5925J0.0000
X228.4925I0.5925J0.0000
G01 X227.6648 Y123.6562
X227.6653 Y123.6559 Z-6.0011
X227.6866 Y123.6473 Z-6.0402
X227.7082 Y123.6394 Z-6.0794
X227.7301 Y123.6324 Z-6.1186
X227.7522 Y123.6262 Z-6.1578
X227.7746 Y123.6209 Z-6.1970
X227.7971 Y123.6165 Z-6.2362
X227.8198 Y123.6129 Z-6.2754
X227.8426 Y123.6103 Z-6.3146
X227.8655 Y123.6085 Z-6.3538
X227.8885 Y123.6076 Z-6.3930
X227.9115 Z-6.4322
X227.9344 Y123.6085 Z-6.4714
X227.9574 Y123.6103 Z-6.5106
X227.9802 Y123.6129 Z-6.5498
X228.0029 Y123.6165 Z-6.5890
X228.0254 Y123.6209 Z-6.6282
X228.0478 Y123.6262 Z-6.6674
X228.0699 Y123.6324 Z-6.7066
X228.0918 Y123.6394 Z-6.7458
X228.1134 Y123.6473 Z-6.7850
X228.1347 Y123.6559 Z-6.8241
X228.1556 Y123.6655 Z-6.8633
X228.1761 Y123.6758 Z-6.9025
X228.1962 Y123.6869 Z-6.9417
X228.2159 Y123.6987 Z-6.9809
X228.2351 Y123.7114 Z-7.0201
X228.2538 Y123.7247 Z-7.0593
X228.2720 Y123.7388 Z-7.0985
X228.2896 Y123.7536 Z-7.1377
X228.3066 Y123.7690 Z-7.1769
X228.3230 Y123.7851 Z-7.2161
X228.3388 Y123.8018 Z-7.2553
X228.3539 Y123.8191 Z-7.2945
X228.3683 Y123.8370 Z-7.3337
X228.3820 Y123.8555 Z-7.3729
X228.3950 Y123.8744 Z-7.4121
X228.4073 Y123.8938 Z-7.4513
X228.4188 Y123.9137 Z-7.4905
X228.4295 Y123.9341 Z-7.5297
X228.4394 Y123.9548 Z-7.5689
X228.4485 Y123.9759 Z-7.6081
X228.4568 Y123.9973 Z-7.6472
X228.4642 Y124.0191 Z-7.6864
X228.4708 Y124.0411 Z-7.7256
X228.4765 Y124.0634 Z-7.7648
X228.4814 Y124.0858 Z-7.8040
X228.4854 Y124.1084 Z-7.8432
X228.4885 Y124.1312 Z-7.8824
X228.4907 Y124.1541 Z-7.9216
X228.4921 Y124.1770 Z-7.9608
X228.4925 Y124.2000 Z-8.0000
G03X227.3075I-0.5925J0.0000
X228.4925I0.5925J0.0000
G01 X227.9000
G00 Z1.0000
X222.3901 Y118.8984
G01 Z0.6350  F1000.0
X222.3927 Y118.8938 Z0.6261
X222.4050 Y118.8744 Z0.5869
X222.4180 Y118.8555 Z0.5477
X222.4317 Y118.8370 Z0.5085
X222.4461 Y118.8191 Z0.4693
X222.4612 Y118.8018 Z0.4301
X222.4770 Y118.7851 Z0.3909
X222.4934 Y118.7690 Z0.3517
X222.5104 Y118.7536 Z0.3125
X222.5280 Y118.7388 Z0.2733
X222.5462 Y118.7247 Z0.2341
X222.5649 Y118.7114 Z0.1949
X222.5841 Y118.6987 Z0.1557
X222.6037 Y118.6869 Z0.1165
X222.6239 Y118.6758 Z0.0773
X222.6444 Y118.6655 Z0.0381
X222.6653 Y118.6559 Z-0.0011
X222.6866 Y118.6473 Z-0.0402
X222.7082 Y118.6394 Z-0.0794
X222.7301 Y118.6324 Z-0.1186
X222.7522 Y118.6262 Z-0.1578
X222.7746 Y118.6209 Z-0.1970
X222.7971 Y118.6165 Z-0.2362
X222.8198 Y118.6129 Z-0.2754
X222.8426 Y118.6103 Z-0.3146
X222.8655 Y118.6085 Z-0.3538
X222.8885 Y118.6076 Z-0.3930
X222.9115 Z-0.4322
X222.9344 Y118.6085 Z-0.4714
X222.9574 Y118.6103 Z-0.5106
X222.9802 Y118.6129 Z-0.5498
X223.0029 Y118.6165 Z-0.5890
X223.0254 Y118.6209 Z-0.6282
X223.0478 Y118.6262 Z-0.6674
X223.0699 Y118.6324 Z-0.7066
X223.0918 Y118.6394 Z-0.7458
X223.1134 Y118.6473 Z-0.7850
X223.1347 Y118.6559 Z-0.8241
X223.1556 Y118.6655 Z-0.8633
X223.1761 Y118.6758 Z-0.9025
X223.1962 Y118.6869 Z-0.9417
X223.2159 Y118.6987 Z-0.9809
X223.2351 Y118.7114 Z-1.0201
X223.2538 Y118.7247 Z-1.0593
X223.2720 Y118.7388 Z-1.0985
X223.2896 Y118.7536 Z-1.1377
X223.3066 Y118.7690 Z-1.1769
X223.3230 Y118.7851 Z-1.2161
X223.3388 Y118.8018 Z-1.2553
X223.3539 Y118.8191 Z-1.2945
