G00 G49 G40.1 G17 G80 G50 G90
G21
(Hole Pocketing)
(SlotDrill 1/8in 3.175mm Carbide Aluminium Cut)
M6 T6
M03 S20000
G00 Z1.5875
X114.9226 Y19.1421
G01 Z0.6350  F250.0
X114.9190 Y19.1402 Z0.6330  F500.0
X114.9088 Y19.1338 Z0.6271
X114.8990 Y19.1266 Z0.6211
X114.8899 Y19.1187 Z0.6152
X114.8813 Y19.1101 Z0.6092
X114.8734 Y19.1010 Z0.6033
X114.8662 Y19.0912 Z0.5973
X114.8598 Y19.0810 Z0.5914
X114.8541 Y19.0703 Z0.5854
X114.8493 Y19.0592 Z0.5795
X114.8453 Y19.0477 Z0.5735
X114.8421 Y19.0360 Z0.5676
X114.8399 Y19.0241 Z0.5616
X114.8385 Y19.0121 Z0.5557
X114.8381 Y19.0000 Z0.5497
X114.8385 Y18.9879 Z0.5438
X114.8399 Y18.9759 Z0.5378
X114.8421 Y18.9640 Z0.5319
X114.8453 Y18.9523 Z0.5259
X114.8493 Y18.9408 Z0.5200
X114.8541 Y18.9297 Z0.5140
X114.8598 Y18.9190 Z0.5081
X114.8662 Y18.9088 Z0.5021
X114.8734 Y18.8990 Z0.4961
X114.8813 Y18.8899 Z0.4902
X114.8899 Y18.8813 Z0.4842
X114.8990 Y18.8734 Z0.4783
X114.9088 Y18.8662 Z0.4723
X114.9190 Y18.8598 Z0.4664
X114.9297 Y18.8541 Z0.4604
X114.9408 Y18.8493 Z0.4545
X114.9523 Y18.8453 Z0.4485
X114.9640 Y18.8421 Z0.4426
X114.9759 Y18.8399 Z0.4366
X114.9879 Y18.8385 Z0.4307
X115.0000 Y18.8381 Z0.4247
X115.0121 Y18.8385 Z0.4188
X115.0241 Y18.8399 Z0.4128
X115.0360 Y18.8421 Z0.4069
X115.0477 Y18.8453 Z0.4009
X115.0592 Y18.8493 Z0.3950
X115.0703 Y18.8541 Z0.3890
X115.0810 Y18.8598 Z0.3831
X115.0912 Y18.8662 Z0.3771
X115.1010 Y18.8734 Z0.3712
X115.1101 Y18.8813 Z0.3652
X115.1187 Y18.8899 Z0.3593
X115.1266 Y18.8990 Z0.3533
X115.1338 Y18.9088 Z0.3474
X115.1402 Y18.9190 Z0.3414
X115.1459 Y18.9297 Z0.3355
X115.1507 Y18.9408 Z0.3295
X115.1547 Y18.9523 Z0.3236
X115.1579 Y18.9640 Z0.3176
X115.1601 Y18.9759 Z0.3117
X115.1615 Y18.9879 Z0.3057
X115.1619 Y19.0000 Z0.2998
X115.1615 Y19.0121 Z0.2938
X115.1601 Y19.0241 Z0.2879
X115.1579 Y19.0360 Z0.2819
X115.1547 Y19.0477 Z0.2760
X115.1507 Y19.0592 Z0.2700
X115.1459 Y19.0703 Z0.2641
X115.1402 Y19.0810 Z0.2581
X115.1338 Y19.0912 Z0.2522
X115.1266 Y19.1010 Z0.2462
X115.1187 Y19.1101 Z0.2403
X115.1101 Y19.1187 Z0.2343
X115.1010 Y19.1266 Z0.2284
X115.0912 Y19.1338 Z0.2224
X115.0810 Y19.1402 Z0.2165
X115.0703 Y19.1459 Z0.2105
X115.0592 Y19.1507 Z0.2046
X115.0477 Y19.1547 Z0.1986
X115.0360 Y19.1579 Z0.1926
X115.0241 Y19.1601 Z0.1867
X115.0121 Y19.1615 Z0.1807
X115.0000 Y19.1619 Z0.1748
X114.9879 Y19.1615 Z0.1688
X114.9759 Y19.1601 Z0.1629
X114.9640 Y19.1579 Z0.1569
X114.9523 Y19.1547 Z0.1510
X114.9408 Y19.1507 Z0.1450
X114.9297 Y19.1459 Z0.1391
X114.9190 Y19.1402 Z0.1331
X114.9088 Y19.1338 Z0.1272
X114.8990 Y19.1266 Z0.1212
X114.8899 Y19.1187 Z0.1153
X114.8813 Y19.1101 Z0.1093
X114.8734 Y19.1010 Z0.1034
X114.8662 Y19.0912 Z0.0974
X114.8598 Y19.0810 Z0.0915
X114.8541 Y19.0703 Z0.0855
X114.8493 Y19.0592 Z0.0796
X114.8453 Y19.0477 Z0.0736
X114.8421 Y19.0360 Z0.0677
X114.8399 Y19.0241 Z0.0617
X114.8385 Y19.0121 Z0.0558
X114.8381 Y19.0000 Z0.0498
X114.8385 Y18.9879 Z0.0439
X114.8399 Y18.9759 Z0.0379
X114.8421 Y18.9640 Z0.0320
X114.8453 Y18.9523 Z0.0260
X114.8493 Y18.9408 Z0.0201
X114.8541 Y18.9297 Z0.0141
X114.8598 Y18.9190 Z0.0082
X114.8662 Y18.9088 Z0.0022
X114.8734 Y18.8990 Z-0.0037
X114.8813 Y18.8899 Z-0.0097
X114.8899 Y18.8813 Z-0.0156
X114.8990 Y18.8734 Z-0.0216
X114.9088 Y18.8662 Z-0.0275
X114.9190 Y18.8598 Z-0.0335
X114.9297 Y18.8541 Z-0.0394
X114.9408 Y18.8493 Z-0.0454
X114.9523 Y18.8453 Z-0.0513
X114.9640 Y18.8421 Z-0.0573
X114.9759 Y18.8399 Z-0.0632
X114.9879 Y18.8385 Z-0.0692
X115.0000 Y18.8381 Z-0.0751
X115.0121 Y18.8385 Z-0.0811
X115.0241 Y18.8399 Z-0.0870
X115.0360 Y18.8421 Z-0.0930
X115.0477 Y18.8453 Z-0.0989
X115.0592 Y18.8493 Z-0.1049
X115.0703 Y18.8541 Z-0.1109
X115.0810 Y18.8598 Z-0.1168
X115.0912 Y18.8662 Z-0.1228
X115.1010 Y18.8734 Z-0.1287
X115.1101 Y18.8813 Z-0.1347
X115.1187 Y18.8899 Z-0.1406
X115.1266 Y18.8990 Z-0.1466
X115.1338 Y18.9088 Z-0.1525
X115.1402 Y18.9190 Z-0.1585
X115.1459 Y18.9297 Z-0.1644
X115.1507 Y18.9408 Z-0.1704
X115.1547 Y18.9523 Z-0.1763
X115.1579 Y18.9640 Z-0.1823
X115.1601 Y18.9759 Z-0.1882
X115.1615 Y18.9879 Z-0.1942
X115.1619 Y19.0000 Z-0.2001
X115.1615 Y19.0121 Z-0.2061
X115.1601 Y19.0241 Z-0.2120
X115.1579 Y19.0360 Z-0.2180
X115.1547 Y19.0477 Z-0.2239
X115.1507 Y19.0592 Z-0.2299
X115.1459 Y19.0703 Z-0.2358
X115.1402 Y19.0810 Z-0.2418
X115.1338 Y19.0912 Z-0.2477
X115.1266 Y19.1010 Z-0.2537
X115.1187 Y19.1101 Z-0.2596
X115.1101 Y19.1187 Z-0.2656
X115.1010 Y19.1266 Z-0.2715
X115.0912 Y19.1338 Z-0.2775
X115.0810 Y19.1402 Z-0.2834
X115.0703 Y19.1459 Z-0.2894
X115.0592 Y19.1507 Z-0.2953
X115.0477 Y19.1547 Z-0.3013
X115.0360 Y19.1579 Z-0.3072
X115.0241 Y19.1601 Z-0.3132
X115.0121 Y19.1615 Z-0.3191
X115.0000 Y19.1619 Z-0.3251
X114.9879 Y19.1615 Z-0.3310
X114.9759 Y19.1601 Z-0.3370
X114.9640 Y19.1579 Z-0.3429
X114.9523 Y19.1547 Z-0.3489
X114.9408 Y19.1507 Z-0.3548
X114.9297 Y19.1459 Z-0.3608
X114.9190 Y19.1402 Z-0.3667
X114.9088 Y19.1338 Z-0.3727
X114.8990 Y19.1266 Z-0.3786
X114.8899 Y19.1187 Z-0.3846
X114.8813 Y19.1101 Z-0.3905
X114.8734 Y19.1010 Z-0.3965
X114.8662 Y19.0912 Z-0.4025
X114.8598 Y19.0810 Z-0.4084
X114.8541 Y19.0703 Z-0.4144
X114.8493 Y19.0592 Z-0.4203
X114.8453 Y19.0477 Z-0.4263
X114.8421 Y19.0360 Z-0.4322
X114.8399 Y19.0241 Z-0.4382
X114.8385 Y19.0121 Z-0.4441
X114.8381 Y19.0000 Z-0.4501
X114.8385 Y18.9879 Z-0.4560
X114.8399 Y18.9759 Z-0.4620
X114.8421 Y18.9640 Z-0.4679
X114.8453 Y18.9523 Z-0.4739
X114.8493 Y18.9408 Z-0.4798
X114.8541 Y18.9297 Z-0.4858
X114.8598 Y18.9190 Z-0.4917
X114.8662 Y18.9088 Z-0.4977
X114.8734 Y18.8990 Z-0.5036
X114.8813 Y18.8899 Z-0.5096
X114.8899 Y18.8813 Z-0.5155
X114.8990 Y18.8734 Z-0.5215
X114.9088 Y18.8662 Z-0.5274
X114.9190 Y18.8598 Z-0.5334
X114.9297 Y18.8541 Z-0.5393
X114.9408 Y18.8493 Z-0.5453
X114.9523 Y18.8453 Z-0.5512
X114.9640 Y18.8421 Z-0.5572
X114.9759 Y18.8399 Z-0.5631
X114.9879 Y18.8385 Z-0.5691
X115.0000 Y18.8381 Z-0.5750
X115.0121 Y18.8385 Z-0.5810
X115.0241 Y18.8399 Z-0.5869
X115.0360 Y18.8421 Z-0.5929
X115.0477 Y18.8453 Z-0.5988
X115.0592 Y18.8493 Z-0.6048
X115.0703 Y18.8541 Z-0.6107
X115.0810 Y18.8598 Z-0.6167
X115.0912 Y18.8662 Z-0.6226
X115.1010 Y18.8734 Z-0.6286
X115.1101 Y18.8813 Z-0.6345
X115.1187 Y18.8899 Z-0.6405
X115.1266 Y18.8990 Z-0.6464
X115.1338 Y18.9088 Z-0.6524
X115.1402 Y18.9190 Z-0.6583
X115.1459 Y18.9297 Z-0.6643
X115.1507 Y18.9408 Z-0.6702
X115.1547 Y18.9523 Z-0.6762
X115.1579 Y18.9640 Z-0.6821
X115.1601 Y18.9759 Z-0.6881
X115.1615 Y18.9879 Z-0.6940
X115.1619 Y19.0000 Z-0.7000
G17
G03X114.8381I-0.1619J0.0000
X115.1619I0.1619J0.0000
G01 X114.8689 Y18.9052
X114.8734 Y18.8990 Z-0.7037
X114.8813 Y18.8899 Z-0.7097
X114.8899 Y18.8813 Z-0.7156
X114.8990 Y18.8734 Z-0.7216
X114.9088 Y18.8662 Z-0.7275
X114.9190 Y18.8598 Z-0.7335
X114.9297 Y18.8541 Z-0.7394
X114.9408 Y18.8493 Z-0.7454
X114.9523 Y18.8453 Z-0.7513
X114.9640 Y18.8421 Z-0.7573
X114.9759 Y18.8399 Z-0.7632
X114.9879 Y18.8385 Z-0.7692
X115.0000 Y18.8381 Z-0.7751
X115.0121 Y18.8385 Z-0.7811
X115.0241 Y18.8399 Z-0.7870
X115.0360 Y18.8421 Z-0.7930
X115.0477 Y18.8453 Z-0.7990
X115.0592 Y18.8493 Z-0.8049
X115.0703 Y18.8541 Z-0.8109
X115.0810 Y18.8598 Z-0.8168
X115.0912 Y18.8662 Z-0.8228
X115.1010 Y18.8734 Z-0.8287
X115.1101 Y18.8813 Z-0.8347
X115.1187 Y18.8899 Z-0.8406
X115.1266 Y18.8990 Z-0.8466
X115.1338 Y18.9088 Z-0.8525
X115.1402 Y18.9190 Z-0.8585
X115.1459 Y18.9297 Z-0.8644
X115.1507 Y18.9408 Z-0.8704
X115.1547 Y18.9523 Z-0.8763
X115.1579 Y18.9640 Z-0.8823
X115.1601 Y18.9759 Z-0.8882
X115.1615 Y18.9879 Z-0.8942
X115.1619 Y19.0000 Z-0.9001
X115.1615 Y19.0121 Z-0.9061
X115.1601 Y19.0241 Z-0.9120
X115.1579 Y19.0360 Z-0.9180
X115.1547 Y19.0477 Z-0.9239
X115.1507 Y19.0592 Z-0.9299
X115.1459 Y19.0703 Z-0.9358
X115.1402 Y19.0810 Z-0.9418
X115.1338 Y19.0912 Z-0.9477
X115.1266 Y19.1010 Z-0.9537
X115.1187 Y19.1101 Z-0.9596
X115.1101 Y19.1187 Z-0.9656
X115.1010 Y19.1266 Z-0.9715
X115.0912 Y19.1338 Z-0.9775
X115.0810 Y19.1402 Z-0.9834
X115.0703 Y19.1459 Z-0.9894
X115.0592 Y19.1507 Z-0.9953
X115.0477 Y19.1547 Z-1.0013
X115.0360 Y19.1579 Z-1.0072
X115.0241 Y19.1601 Z-1.0132
X115.0121 Y19.1615 Z-1.0191
X115.0000 Y19.1619 Z-1.0251
X114.9879 Y19.1615 Z-1.0310
X114.9759 Y19.1601 Z-1.0370
X114.9640 Y19.1579 Z-1.0429
X114.9523 Y19.1547 Z-1.0489
X114.9408 Y19.1507 Z-1.0548
X114.9297 Y19.1459 Z-1.0608
X114.9190 Y19.1402 Z-1.0667
X114.9088 Y19.1338 Z-1.0727
X114.8990 Y19.1266 Z-1.0786
X114.8899 Y19.1187 Z-1.0846
X114.8813 Y19.1101 Z-1.0905
X114.8734 Y19.1010 Z-1.0965
X114.8662 Y19.0912 Z-1.1025
X114.8598 Y19.0810 Z-1.1084
X114.8541 Y19.0703 Z-1.1144
X114.8493 Y19.0592 Z-1.1203
X114.8453 Y19.0477 Z-1.1263
X114.8421 Y19.0360 Z-1.1322
X114.8399 Y19.0241 Z-1.1382
X114.8385 Y19.0121 Z-1.1441
X114.8381 Y19.0000 Z-1.1501
X114.8385 Y18.9879 Z-1.1560
X114.8399 Y18.9759 Z-1.1620
X114.8421 Y18.9640 Z-1.1679
X114.8453 Y18.9523 Z-1.1739
X114.8493 Y18.9408 Z-1.1798
X114.8541 Y18.9297 Z-1.1858
X114.8598 Y18.9190 Z-1.1917
X114.8662 Y18.9088 Z-1.1977
X114.8734 Y18.8990 Z-1.2036
X114.8813 Y18.8899 Z-1.2096
X114.8899 Y18.8813 Z-1.2155
X114.8990 Y18.8734 Z-1.2215
X114.9088 Y18.8662 Z-1.2274
X114.9190 Y18.8598 Z-1.2334
X114.9297 Y18.8541 Z-1.2393
X114.9408 Y18.8493 Z-1.2453
X114.9523 Y18.8453 Z-1.2512
X114.9640 Y18.8421 Z-1.2572
X114.9759 Y18.8399 Z-1.2631
X114.9879 Y18.8385 Z-1.2691
X115.0000 Y18.8381 Z-1.2750
X115.0121 Y18.8385 Z-1.2810
X115.0241 Y18.8399 Z-1.2869
X115.0360 Y18.8421 Z-1.2929
X115.0477 Y18.8453 Z-1.2988
X115.0592 Y18.8493 Z-1.3048
X115.0703 Y18.8541 Z-1.3107
X115.0810 Y18.8598 Z-1.3167
X115.0912 Y18.8662 Z-1.3226
X115.1010 Y18.8734 Z-1.3286
X115.1101 Y18.8813 Z-1.3345
X115.1187 Y18.8899 Z-1.3405
X115.1266 Y18.8990 Z-1.3464
X115.1338 Y18.9088 Z-1.3524
X115.1402 Y18.9190 Z-1.3583
X115.1459 Y18.9297 Z-1.3643
X115.1507 Y18.9408 Z-1.3702
X115.1547 Y18.9523 Z-1.3762
X115.1579 Y18.9640 Z-1.3821
X115.1601 Y18.9759 Z-1.3881
X115.1615 Y18.9879 Z-1.3940
X115.1619 Y19.0000 Z-1.4000
G03X114.8381I-0.1619J0.0000
X115.1619I0.1619J0.0000
G01 X114.8689 Y18.9052
X114.8734 Y18.8990 Z-1.4037
X114.8813 Y18.8899 Z-1.4097
X114.8899 Y18.8813 Z-1.4156
X114.8990 Y18.8734 Z-1.4216
X114.9088 Y18.8662 Z-1.4275
X114.9190 Y18.8598 Z-1.4335
X114.9297 Y18.8541 Z-1.4394
X114.9408 Y18.8493 Z-1.4454
X114.9523 Y18.8453 Z-1.4513
X114.9640 Y18.8421 Z-1.4573
X114.9759 Y18.8399 Z-1.4632
X114.9879 Y18.8385 Z-1.4692
X115.0000 Y18.8381 Z-1.4751
X115.0121 Y18.8385 Z-1.4811
X115.0241 Y18.8399 Z-1.4870
X115.0360 Y18.8421 Z-1.4930
X115.0477 Y18.8453 Z-1.4989
X115.0592 Y18.8493 Z-1.5049
X115.0703 Y18.8541 Z-1.5109
X115.0810 Y18.8598 Z-1.5168
X115.0912 Y18.8662 Z-1.5228
X115.1010 Y18.8734 Z-1.5287
X115.1101 Y18.8813 Z-1.5347
X115.1187 Y18.8899 Z-1.5406
X115.1266 Y18.8990 Z-1.5466
X115.1338 Y18.9088 Z-1.5525
X115.1402 Y18.9190 Z-1.5585
X115.1459 Y18.9297 Z-1.5644
X115.1507 Y18.9408 Z-1.5704
X115.1547 Y18.9523 Z-1.5763
X115.1579 Y18.9640 Z-1.5823
X115.1601 Y18.9759 Z-1.5882
X115.1615 Y18.9879 Z-1.5942
X115.1619 Y19.0000 Z-1.6001
X115.1615 Y19.0121 Z-1.6061
X115.1601 Y19.0241 Z-1.6120
X115.1579 Y19.0360 Z-1.6180
X115.1547 Y19.0477 Z-1.6239
X115.1507 Y19.0592 Z-1.6299
X115.1459 Y19.0703 Z-1.6358
X115.1402 Y19.0810 Z-1.6418
X115.1338 Y19.0912 Z-1.6477
X115.1266 Y19.1010 Z-1.6537
X115.1187 Y19.1101 Z-1.6596
X115.1101 Y19.1187 Z-1.6656
X115.1010 Y19.1266 Z-1.6715
X115.0912 Y19.1338 Z-1.6775
X115.0810 Y19.1402 Z-1.6834
X115.0703 Y19.1459 Z-1.6894
X115.0592 Y19.1507 Z-1.6953
X115.0477 Y19.1547 Z-1.7013
X115.0360 Y19.1579 Z-1.7072
X115.0241 Y19.1601 Z-1.7132
X115.0121 Y19.1615 Z-1.7191
X115.0000 Y19.1619 Z-1.7251
X114.9879 Y19.1615 Z-1.7310
X114.9759 Y19.1601 Z-1.7370
X114.9640 Y19.1579 Z-1.7429
X114.9523 Y19.1547 Z-1.7489
X114.9408 Y19.1507 Z-1.7548
X114.9297 Y19.1459 Z-1.7608
X114.9190 Y19.1402 Z-1.7667
X114.9088 Y19.1338 Z-1.7727
X114.8990 Y19.1266 Z-1.7786
X114.8899 Y19.1187 Z-1.7846
X114.8813 Y19.1101 Z-1.7905
X114.8734 Y19.1010 Z-1.7965
X114.8662 Y19.0912 Z-1.8025
X114.8598 Y19.0810 Z-1.8084
X114.8541 Y19.0703 Z-1.8144
X114.8493 Y19.0592 Z-1.8203
X114.8453 Y19.0477 Z-1.8263
X114.8421 Y19.0360 Z-1.8322
X114.8399 Y19.0241 Z-1.8382
X114.8385 Y19.0121 Z-1.8441
X114.8381 Y19.0000 Z-1.8501
X114.8385 Y18.9879 Z-1.8560
X114.8399 Y18.9759 Z-1.8620
X114.8421 Y18.9640 Z-1.8679
X114.8453 Y18.9523 Z-1.8739
X114.8493 Y18.9408 Z-1.8798
X114.8541 Y18.9297 Z-1.8858
X114.8598 Y18.9190 Z-1.8917
X114.8662 Y18.9088 Z-1.8977
X114.8734 Y18.8990 Z-1.9036
X114.8813 Y18.8899 Z-1.9096
X114.8899 Y18.8813 Z-1.9155
X114.8990 Y18.8734 Z-1.9215
X114.9088 Y18.8662 Z-1.9274
X114.9190 Y18.8598 Z-1.9334
X114.9297 Y18.8541 Z-1.9393
X114.9408 Y18.8493 Z-1.9453
X114.9523 Y18.8453 Z-1.9512
X114.9640 Y18.8421 Z-1.9572
X114.9759 Y18.8399 Z-1.9631
X114.9879 Y18.8385 Z-1.9691
X115.0000 Y18.8381 Z-1.9750
X115.0121 Y18.8385 Z-1.9810
X115.0241 Y18.8399 Z-1.9869
X115.0360 Y18.8421 Z-1.9929
X115.0477 Y18.8453 Z-1.9988
X115.0592 Y18.8493 Z-2.0048
X115.0703 Y18.8541 Z-2.0107
X115.0810 Y18.8598 Z-2.0167
X115.0912 Y18.8662 Z-2.0226
X115.1010 Y18.8734 Z-2.0286
X115.1101 Y18.8813 Z-2.0345
X115.1187 Y18.8899 Z-2.0405
X115.1266 Y18.8990 Z-2.0464
X115.1338 Y18.9088 Z-2.0524
X115.1402 Y18.9190 Z-2.0583
X115.1459 Y18.9297 Z-2.0643
X115.1507 Y18.9408 Z-2.0702
X115.1547 Y18.9523 Z-2.0762
X115.1579 Y18.9640 Z-2.0821
X115.1601 Y18.9759 Z-2.0881
X115.1615 Y18.9879 Z-2.0940
X115.1619 Y19.0000 Z-2.1000
G03X114.8381I-0.1619J0.0000
X115.1619I0.1619J0.0000
G01 X114.8689 Y18.9052
X114.8734 Y18.8990 Z-2.1037
X114.8813 Y18.8899 Z-2.1097
X114.8899 Y18.8813 Z-2.1156
X114.8990 Y18.8734 Z-2.1216
X114.9088 Y18.8662 Z-2.1275
X114.9190 Y18.8598 Z-2.1335
X114.9297 Y18.8541 Z-2.1394
X114.9408 Y18.8493 Z-2.1454
X114.9523 Y18.8453 Z-2.1513
X114.9640 Y18.8421 Z-2.1573
X114.9759 Y18.8399 Z-2.1632
X114.9879 Y18.8385 Z-2.1692
X115.0000 Y18.8381 Z-2.1751
X115.0121 Y18.8385 Z-2.1811
X115.0241 Y18.8399 Z-2.1870
X115.0360 Y18.8421 Z-2.1930
X115.0477 Y18.8453 Z-2.1990
X115.0592 Y18.8493 Z-2.2049
X115.0703 Y18.8541 Z-2.2109
X115.0810 Y18.8598 Z-2.2168
X115.0912 Y18.8662 Z-2.2228
X115.1010 Y18.8734 Z-2.2287
X115.1101 Y18.8813 Z-2.2347
X115.1187 Y18.8899 Z-2.2406
X115.1266 Y18.8990 Z-2.2466
X115.1338 Y18.9088 Z-2.2525
X115.1402 Y18.9190 Z-2.2585
X115.1459 Y18.9297 Z-2.2644
X115.1507 Y18.9408 Z-2.2704
X115.1547 Y18.9523 Z-2.2763
X115.1579 Y18.9640 Z-2.2823
X115.1601 Y18.9759 Z-2.2882
X115.1615 Y18.9879 Z-2.2942
X115.1619 Y19.0000 Z-2.3001
X115.1615 Y19.0121 Z-2.3061
X115.1601 Y19.0241 Z-2.3120
X115.1579 Y19.0360 Z-2.3180
X115.1547 Y19.0477 Z-2.3239
X115.1507 Y19.0592 Z-2.3299
X115.1459 Y19.0703 Z-2.3358
X115.1402 Y19.0810 Z-2.3418
X115.1338 Y19.0912 Z-2.3477
X115.1266 Y19.1010 Z-2.3537
X115.1187 Y19.1101 Z-2.3596
X115.1101 Y19.1187 Z-2.3656
X115.1010 Y19.1266 Z-2.3715
X115.0912 Y19.1338 Z-2.3775
X115.0810 Y19.1402 Z-2.3834
X115.0703 Y19.1459 Z-2.3894
X115.0592 Y19.1507 Z-2.3953
X115.0477 Y19.1547 Z-2.4013
X115.0360 Y19.1579 Z-2.4072
X115.0241 Y19.1601 Z-2.4132
X115.0121 Y19.1615 Z-2.4191
X115.0000 Y19.1619 Z-2.4251
X114.9879 Y19.1615 Z-2.4310
X114.9759 Y19.1601 Z-2.4370
X114.9640 Y19.1579 Z-2.4429
X114.9523 Y19.1547 Z-2.4489
X114.9408 Y19.1507 Z-2.4548
X114.9297 Y19.1459 Z-2.4608
X114.9190 Y19.1402 Z-2.4667
X114.9088 Y19.1338 Z-2.4727
X114.8990 Y19.1266 Z-2.4786
X114.8899 Y19.1187 Z-2.4846
X114.8813 Y19.1101 Z-2.4905
X114.8734 Y19.1010 Z-2.4965
X114.8662 Y19.0912 Z-2.5025
X114.8598 Y19.0810 Z-2.5084
X114.8541 Y19.0703 Z-2.5144
X114.8493 Y19.0592 Z-2.5203
X114.8453 Y19.0477 Z-2.5263
X114.8421 Y19.0360 Z-2.5322
X114.8399 Y19.0241 Z-2.5382
X114.8385 Y19.0121 Z-2.5441
X114.8381 Y19.0000 Z-2.5501
X114.8385 Y18.9879 Z-2.5560
X114.8399 Y18.9759 Z-2.5620
X114.8421 Y18.9640 Z-2.5679
X114.8453 Y18.9523 Z-2.5739
X114.8493 Y18.9408 Z-2.5798
X114.8541 Y18.9297 Z-2.5858
X114.8598 Y18.9190 Z-2.5917
X114.8662 Y18.9088 Z-2.5977
X114.8734 Y18.8990 Z-2.6036
X114.8813 Y18.8899 Z-2.6096
X114.8899 Y18.8813 Z-2.6155
X114.8990 Y18.8734 Z-2.6215
X114.9088 Y18.8662 Z-2.6274
X114.9190 Y18.8598 Z-2.6334
X114.9297 Y18.8541 Z-2.6393
X114.9408 Y18.8493 Z-2.6453
X114.9523 Y18.8453 Z-2.6512
X114.9640 Y18.8421 Z-2.6572
X114.9759 Y18.8399 Z-2.6631
X114.9879 Y18.8385 Z-2.6691
X115.0000 Y18.8381 Z-2.6750
X115.0121 Y18.8385 Z-2.6810
X115.0241 Y18.8399 Z-2.6869
X115.0360 Y18.8421 Z-2.6929
X115.0477 Y18.8453 Z-2.6988
X115.0592 Y18.8493 Z-2.7048
X115.0703 Y18.8541 Z-2.7107
X115.0810 Y18.8598 Z-2.7167
X115.0912 Y18.8662 Z-2.7226
X115.1010 Y18.8734 Z-2.7286
X115.1101 Y18.8813 Z-2.7345
X115.1187 Y18.8899 Z-2.7405
X115.1266 Y18.8990 Z-2.7464
X115.1338 Y18.9088 Z-2.7524
X115.1402 Y18.9190 Z-2.7583
X115.1459 Y18.9297 Z-2.7643
X115.1507 Y18.9408 Z-2.7702
X115.1547 Y18.9523 Z-2.7762
X115.1579 Y18.9640 Z-2.7821
X115.1601 Y18.9759 Z-2.7881
X115.1615 Y18.9879 Z-2.7940
X115.1619 Y19.0000 Z-2.8000
G03X114.8381I-0.1619J0.0000
X115.1619I0.1619J0.0000
G01 X114.8689 Y18.9052
X114.8734 Y18.8990 Z-2.8037
X114.8813 Y18.8899 Z-2.8097
X114.8899 Y18.8813 Z-2.8156
X114.8990 Y18.8734 Z-2.8216
X114.9088 Y18.8662 Z-2.8275
X114.9190 Y18.8598 Z-2.8335
X114.9297 Y18.8541 Z-2.8394
X114.9408 Y18.8493 Z-2.8454
X114.9523 Y18.8453 Z-2.8513
X114.9640 Y18.8421 Z-2.8573
X114.9759 Y18.8399 Z-2.8632
X114.9879 Y18.8385 Z-2.8692
X115.0000 Y18.8381 Z-2.8751
X115.0121 Y18.8385 Z-2.8811
X115.0241 Y18.8399 Z-2.8870
X115.0360 Y18.8421 Z-2.8930
X115.0477 Y18.8453 Z-2.8990
X115.0592 Y18.8493 Z-2.9049
X115.0703 Y18.8541 Z-2.9109
X115.0810 Y18.8598 Z-2.9168
X115.0912 Y18.8662 Z-2.9228
X115.1010 Y18.8734 Z-2.9287
X115.1101 Y18.8813 Z-2.9347
X115.1187 Y18.8899 Z-2.9406
X115.1266 Y18.8990 Z-2.9466
X115.1338 Y18.9088 Z-2.9525
X115.1402 Y18.9190 Z-2.9585
X115.1459 Y18.9297 Z-2.9644
X115.1507 Y18.9408 Z-2.9704
X115.1547 Y18.9523 Z-2.9763
X115.1579 Y18.9640 Z-2.9823
X115.1601 Y18.9759 Z-2.9882
X115.1615 Y18.9879 Z-2.9942
X115.1619 Y19.0000 Z-3.0001
X115.1615 Y19.0121 Z-3.0061
X115.1601 Y19.0241 Z-3.0120
X115.1579 Y19.0360 Z-3.0180
X115.1547 Y19.0477 Z-3.0239
X115.1507 Y19.0592 Z-3.0299
X115.1459 Y19.0703 Z-3.0358
X115.1402 Y19.0810 Z-3.0418
X115.1338 Y19.0912 Z-3.0477
X115.1266 Y19.1010 Z-3.0537
X115.1187 Y19.1101 Z-3.0596
X115.1101 Y19.1187 Z-3.0656
X115.1010 Y19.1266 Z-3.0715
X115.0912 Y19.1338 Z-3.0775
X115.0810 Y19.1402 Z-3.0834
X115.0703 Y19.1459 Z-3.0894
X115.0592 Y19.1507 Z-3.0953
X115.0477 Y19.1547 Z-3.1013
X115.0360 Y19.1579 Z-3.1072
X115.0241 Y19.1601 Z-3.1132
X115.0121 Y19.1615 Z-3.1191
X115.0000 Y19.1619 Z-3.1251
X114.9879 Y19.1615 Z-3.1310
X114.9759 Y19.1601 Z-3.1370
X114.9640 Y19.1579 Z-3.1429
X114.9523 Y19.1547 Z-3.1489
X114.9408 Y19.1507 Z-3.1548
X114.9297 Y19.1459 Z-3.1608
X114.9190 Y19.1402 Z-3.1667
X114.9088 Y19.1338 Z-3.1727
X114.8990 Y19.1266 Z-3.1786
X114.8899 Y19.1187 Z-3.1846
X114.8813 Y19.1101 Z-3.1905
X114.8734 Y19.1010 Z-3.1965
X114.8662 Y19.0912 Z-3.2024
X114.8598 Y19.0810 Z-3.2084
X114.8541 Y19.0703 Z-3.2144
X114.8493 Y19.0592 Z-3.2203
X114.8453 Y19.0477 Z-3.2263
X114.8421 Y19.0360 Z-3.2322
X114.8399 Y19.0241 Z-3.2382
X114.8385 Y19.0121 Z-3.2441
X114.8381 Y19.0000 Z-3.2501
X114.8385 Y18.9879 Z-3.2560
X114.8399 Y18.9759 Z-3.2620
X114.8421 Y18.9640 Z-3.2679
X114.8453 Y18.9523 Z-3.2739
X114.8493 Y18.9408 Z-3.2798
X114.8541 Y18.9297 Z-3.2858
X114.8598 Y18.9190 Z-3.2917
X114.8662 Y18.9088 Z-3.2977
X114.8734 Y18.8990 Z-3.3036
X114.8813 Y18.8899 Z-3.3096
X114.8899 Y18.8813 Z-3.3155
X114.8990 Y18.8734 Z-3.3215
X114.9088 Y18.8662 Z-3.3274
X114.9190 Y18.8598 Z-3.3334
X114.9297 Y18.8541 Z-3.3393
X114.9408 Y18.8493 Z-3.3453
X114.9523 Y18.8453 Z-3.3512
X114.9640 Y18.8421 Z-3.3572
X114.9759 Y18.8399 Z-3.3631
X114.9879 Y18.8385 Z-3.3691
X115.0000 Y18.8381 Z-3.3750
X115.0121 Y18.8385 Z-3.3810
X115.0241 Y18.8399 Z-3.3869
X115.0360 Y18.8421 Z-3.3929
X115.0477 Y18.8453 Z-3.3988
X115.0592 Y18.8493 Z-3.4048
X115.0703 Y18.8541 Z-3.4107
X115.0810 Y18.8598 Z-3.4167
X115.0912 Y18.8662 Z-3.4226
X115.1010 Y18.8734 Z-3.4286
X115.1101 Y18.8813 Z-3.4345
X115.1187 Y18.8899 Z-3.4405
X115.1266 Y18.8990 Z-3.4464
X115.1338 Y18.9088 Z-3.4524
X115.1402 Y18.9190 Z-3.4583
X115.1459 Y18.9297 Z-3.4643
X115.1507 Y18.9408 Z-3.4702
X115.1547 Y18.9523 Z-3.4762
X115.1579 Y18.9640 Z-3.4821
X115.1601 Y18.9759 Z-3.4881
X115.1615 Y18.9879 Z-3.4940
X115.1619 Y19.0000 Z-3.5000
G03X114.8381I-0.1619J0.0000
X115.1619I0.1619J0.0000
G01 X115.0000
G00 Z1.5875
X98.9226 Y19.1421
G01 Z0.6350  F250.0
X98.9190 Y19.1402 Z0.6330  F500.0
X98.9088 Y19.1338 Z0.6271
X98.8990 Y19.1266 Z0.6211
X98.8899 Y19.1187 Z0.6152
X98.8813 Y19.1101 Z0.6092
X98.8734 Y19.1010 Z0.6033
X98.8662 Y19.0912 Z0.5973
X98.8598 Y19.0810 Z0.5914
X98.8541 Y19.0703 Z0.5854
X98.8493 Y19.0592 Z0.5795
X98.8453 Y19.0477 Z0.5735
X98.8421 Y19.0360 Z0.5676
X98.8399 Y19.0241 Z0.5616
X98.8385 Y19.0121 Z0.5557
X98.8381 Y19.0000 Z0.5497
X98.8385 Y18.9879 Z0.5438
X98.8399 Y18.9759 Z0.5378
X98.8421 Y18.9640 Z0.5319
X98.8453 Y18.9523 Z0.5259
X98.8493 Y18.9408 Z0.5200
X98.8541 Y18.9297 Z0.5140
X98.8598 Y18.9190 Z0.5081
X98.8662 Y18.9088 Z0.5021
X98.8734 Y18.8990 Z0.4961
X98.8813 Y18.8899 Z0.4902
X98.8899 Y18.8813 Z0.4842
X98.8990 Y18.8734 Z0.4783
X98.9088 Y18.8662 Z0.4723
X98.9190 Y18.8598 Z0.4664
X98.9297 Y18.8541 Z0.4604
X98.9408 Y18.8493 Z0.4545
X98.9523 Y18.8453 Z0.4485
X98.9640 Y18.8421 Z0.4426
X98.9759 Y18.8399 Z0.4366
X98.9879 Y18.8385 Z0.4307
X99.0000 Y18.8381 Z0.4247
X99.0121 Y18.8385 Z0.4188
X99.0241 Y18.8399 Z0.4128
X99.0360 Y18.8421 Z0.4069
X99.0477 Y18.8453 Z0.4009
X99.0592 Y18.8493 Z0.3950
X99.0703 Y18.8541 Z0.3890
X99.0810 Y18.8598 Z0.3831
X99.0912 Y18.8662 Z0.3771
X99.1010 Y18.8734 Z0.3712
X99.1101 Y18.8813 Z0.3652
X99.1187 Y18.8899 Z0.3593
X99.1266 Y18.8990 Z0.3533
X99.1338 Y18.9088 Z0.3474
X99.1402 Y18.9190 Z0.3414
X99.1459 Y18.9297 Z0.3355
X99.1507 Y18.9408 Z0.3295
X99.1547 Y18.9523 Z0.3236
X99.1579 Y18.9640 Z0.3176
X99.1601 Y18.9759 Z0.3117
X99.1615 Y18.9879 Z0.3057
X99.1619 Y19.0000 Z0.2998
X99.1615 Y19.0121 Z0.2938
X99.1601 Y19.0241 Z0.2879
X99.1579 Y19.0360 Z0.2819
X99.1547 Y19.0477 Z0.2760
X99.1507 Y19.0592 Z0.2700
X99.1459 Y19.0703 Z0.2641
X99.1402 Y19.0810 Z0.2581
X99.1338 Y19.0912 Z0.2522
X99.1266 Y19.1010 Z0.2462
X99.1187 Y19.1101 Z0.2403
X99.1101 Y19.1187 Z0.2343
X99.1010 Y19.1266 Z0.2284
X99.0912 Y19.1338 Z0.2224
X99.0810 Y19.1402 Z0.2165
X99.0703 Y19.1459 Z0.2105
X99.0592 Y19.1507 Z0.2046
X99.0477 Y19.1547 Z0.1986
X99.0360 Y19.1579 Z0.1926
X99.0241 Y19.1601 Z0.1867
X99.0121 Y19.1615 Z0.1807
X99.0000 Y19.1619 Z0.1748
X98.9879 Y19.1615 Z0.1688
X98.9759 Y19.1601 Z0.1629
X98.9640 Y19.1579 Z0.1569
X98.9523 Y19.1547 Z0.1510
X98.9408 Y19.1507 Z0.1450
X98.9297 Y19.1459 Z0.1391
X98.9190 Y19.1402 Z0.1331
X98.9088 Y19.1338 Z0.1272
X98.8990 Y19.1266 Z0.1212
X98.8899 Y19.1187 Z0.1153
X98.8813 Y19.1101 Z0.1093
X98.8734 Y19.1010 Z0.1034
X98.8662 Y19.0912 Z0.0974
X98.8598 Y19.0810 Z0.0915
X98.8541 Y19.0703 Z0.0855
X98.8493 Y19.0592 Z0.0796
X98.8453 Y19.0477 Z0.0736
X98.8421 Y19.0360 Z0.0677
X98.8399 Y19.0241 Z0.0617
X98.8385 Y19.0121 Z0.0558
X98.8381 Y19.0000 Z0.0498
X98.8385 Y18.9879 Z0.0439
X98.8399 Y18.9759 Z0.0379
X98.8421 Y18.9640 Z0.0320
X98.8453 Y18.9523 Z0.0260
X98.8493 Y18.9408 Z0.0201
X98.8541 Y18.9297 Z0.0141
X98.8598 Y18.9190 Z0.0082
X98.8662 Y18.9088 Z0.0022
X98.8734 Y18.8990 Z-0.0037
X98.8813 Y18.8899 Z-0.0097
X98.8899 Y18.8813 Z-0.0156
X98.8990 Y18.8734 Z-0.0216
X98.9088 Y18.8662 Z-0.0275
X98.9190 Y18.8598 Z-0.0335
X98.9297 Y18.8541 Z-0.0394
X98.9408 Y18.8493 Z-0.0454
X98.9523 Y18.8453 Z-0.0513
X98.9640 Y18.8421 Z-0.0573
X98.9759 Y18.8399 Z-0.0632
X98.9879 Y18.8385 Z-0.0692
X99.0000 Y18.8381 Z-0.0751
X99.0121 Y18.8385 Z-0.0811
X99.0241 Y18.8399 Z-0.0870
X99.0360 Y18.8421 Z-0.0930
X99.0477 Y18.8453 Z-0.0989
X99.0592 Y18.8493 Z-0.1049
X99.0703 Y18.8541 Z-0.1109
X99.0810 Y18.8598 Z-0.1168
X99.0912 Y18.8662 Z-0.1228
X99.1010 Y18.8734 Z-0.1287
X99.1101 Y18.8813 Z-0.1347
X99.1187 Y18.8899 Z-0.1406
X99.1266 Y18.8990 Z-0.1466
X99.1338 Y18.9088 Z-0.1525
X99.1402 Y18.9190 Z-0.1585
X99.1459 Y18.9297 Z-0.1644
X99.1507 Y18.9408 Z-0.1704
X99.1547 Y18.9523 Z-0.1763
X99.1579 Y18.9640 Z-0.1823
X99.1601 Y18.9759 Z-0.1882
X99.1615 Y18.9879 Z-0.1942
X99.1619 Y19.0000 Z-0.2001
X99.1615 Y19.0121 Z-0.2061
X99.1601 Y19.0241 Z-0.2120
X99.1579 Y19.0360 Z-0.2180
X99.1547 Y19.0477 Z-0.2239
X99.1507 Y19.0592 Z-0.2299
X99.1459 Y19.0703 Z-0.2358
X99.1402 Y19.0810 Z-0.2418
X99.1338 Y19.0912 Z-0.2477
X99.1266 Y19.1010 Z-0.2537
X99.1187 Y19.1101 Z-0.2596
X99.1101 Y19.1187 Z-0.2656
X99.1010 Y19.1266 Z-0.2715
X99.0912 Y19.1338 Z-0.2775
X99.0810 Y19.1402 Z-0.2834
X99.0703 Y19.1459 Z-0.2894
X99.0592 Y19.1507 Z-0.2953
X99.0477 Y19.1547 Z-0.3013
X99.0360 Y19.1579 Z-0.3072
X99.0241 Y19.1601 Z-0.3132
X99.0121 Y19.1615 Z-0.3191
X99.0000 Y19.1619 Z-0.3251
X98.9879 Y19.1615 Z-0.3310
X98.9759 Y19.1601 Z-0.3370
X98.9640 Y19.1579 Z-0.3429
X98.9523 Y19.1547 Z-0.3489
X98.9408 Y19.1507 Z-0.3548
X98.9297 Y19.1459 Z-0.3608
X98.9190 Y19.1402 Z-0.3667
X98.9088 Y19.1338 Z-0.3727
X98.8990 Y19.1266 Z-0.3786
X98.8899 Y19.1187 Z-0.3846
X98.8813 Y19.1101 Z-0.3905
X98.8734 Y19.1010 Z-0.3965
X98.8662 Y19.0912 Z-0.4025
X98.8598 Y19.0810 Z-0.4084
X98.8541 Y19.0703 Z-0.4144
X98.8493 Y19.0592 Z-0.4203
X98.8453 Y19.0477 Z-0.4263
X98.8421 Y19.0360 Z-0.4322
X98.8399 Y19.0241 Z-0.4382
X98.8385 Y19.0121 Z-0.4441
X98.8381 Y19.0000 Z-0.4501
X98.8385 Y18.9879 Z-0.4560
X98.8399 Y18.9759 Z-0.4620
X98.8421 Y18.9640 Z-0.4679
X98.8453 Y18.9523 Z-0.4739
X98.8493 Y18.9408 Z-0.4798
X98.8541 Y18.9297 Z-0.4858
X98.8598 Y18.9190 Z-0.4917
X98.8662 Y18.9088 Z-0.4977
X98.8734 Y18.8990 Z-0.5036
X98.8813 Y18.8899 Z-0.5096
X98.8899 Y18.8813 Z-0.5155
X98.8990 Y18.8734 Z-0.5215
X98.9088 Y18.8662 Z-0.5274
X98.9190 Y18.8598 Z-0.5334
X98.9297 Y18.8541 Z-0.5393
X98.9408 Y18.8493 Z-0.5453
X98.9523 Y18.8453 Z-0.5512
X98.9640 Y18.8421 Z-0.5572
X98.9759 Y18.8399 Z-0.5631
X98.9879 Y18.8385 Z-0.5691
X99.0000 Y18.8381 Z-0.5750
X99.0121 Y18.8385 Z-0.5810
X99.0241 Y18.8399 Z-0.5869
X99.0360 Y18.8421 Z-0.5929
X99.0477 Y18.8453 Z-0.5988
X99.0592 Y18.8493 Z-0.6048
X99.0703 Y18.8541 Z-0.6107
X99.0810 Y18.8598 Z-0.6167
X99.0912 Y18.8662 Z-0.6226
X99.1010 Y18.8734 Z-0.6286
X99.1101 Y18.8813 Z-0.6345
X99.1187 Y18.8899 Z-0.6405
X99.1266 Y18.8990 Z-0.6464
X99.1338 Y18.9088 Z-0.6524
X99.1402 Y18.9190 Z-0.6583
X99.1459 Y18.9297 Z-0.6643
X99.1507 Y18.9408 Z-0.6702
X99.1547 Y18.9523 Z-0.6762
X99.1579 Y18.9640 Z-0.6821
X99.1601 Y18.9759 Z-0.6881
X99.1615 Y18.9879 Z-0.6940
X99.1619 Y19.0000 Z-0.7000
G03X98.8381I-0.1619J0.0000
X99.1619I0.1619J0.0000
G01 X98.8689 Y18.9052
X98.8734 Y18.8990 Z-0.7037
X98.8813 Y18.8899 Z-0.7097
X98.8899 Y18.8813 Z-0.7156
X98.8990 Y18.8734 Z-0.7216
X98.9088 Y18.8662 Z-0.7275
X98.9190 Y18.8598 Z-0.7335
X98.9297 Y18.8541 Z-0.7394
X98.9408 Y18.8493 Z-0.7454
X98.9523 Y18.8453 Z-0.7513
X98.9640 Y18.8421 Z-0.7573
X98.9759 Y18.8399 Z-0.7632
X98.9879 Y18.8385 Z-0.7692
X99.0000 Y18.8381 Z-0.7751
X99.0121 Y18.8385 Z-0.7811
X99.0241 Y18.8399 Z-0.7870
X99.0360 Y18.8421 Z-0.7930
X99.0477 Y18.8453 Z-0.7990
X99.0592 Y18.8493 Z-0.8049
X99.0703 Y18.8541 Z-0.8109
X99.0810 Y18.8598 Z-0.8168
X99.0912 Y18.8662 Z-0.8228
X99.1010 Y18.8734 Z-0.8287
X99.1101 Y18.8813 Z-0.8347
X99.1187 Y18.8899 Z-0.8406
X99.1266 Y18.8990 Z-0.8466
X99.1338 Y18.9088 Z-0.8525
X99.1402 Y18.9190 Z-0.8585
X99.1459 Y18.9297 Z-0.8644
X99.1507 Y18.9408 Z-0.8704
X99.1547 Y18.9523 Z-0.8763
X99.1579 Y18.9640 Z-0.8823
X99.1601 Y18.9759 Z-0.8882
X99.1615 Y18.9879 Z-0.8942
X99.1619 Y19.0000 Z-0.9001
X99.1615 Y19.0121 Z-0.9061
X99.1601 Y19.0241 Z-0.9120
X99.1579 Y19.0360 Z-0.9180
X99.1547 Y19.0477 Z-0.9239
X99.1507 Y19.0592 Z-0.9299
X99.1459 Y19.0703 Z-0.9358
X99.1402 Y19.0810 Z-0.9418
X99.1338 Y19.0912 Z-0.9477
X99.1266 Y19.1010 Z-0.9537
X99.1187 Y19.1101 Z-0.9596
X99.1101 Y19.1187 Z-0.9656
X99.1010 Y19.1266 Z-0.9715
X99.0912 Y19.1338 Z-0.9775
X99.0810 Y19.1402 Z-0.9834
X99.0703 Y19.1459 Z-0.9894
X99.0592 Y19.1507 Z-0.9953
X99.0477 Y19.1547 Z-1.0013
X99.0360 Y19.1579 Z-1.0072
X99.0241 Y19.1601 Z-1.0132
X99.0121 Y19.1615 Z-1.0191
X99.0000 Y19.1619 Z-1.0251
X98.9879 Y19.1615 Z-1.0310
X98.9759 Y19.1601 Z-1.0370
X98.9640 Y19.1579 Z-1.0429
X98.9523 Y19.1547 Z-1.0489
X98.9408 Y19.1507 Z-1.0548
X98.9297 Y19.1459 Z-1.0608
X98.9190 Y19.1402 Z-1.0667
X98.9088 Y19.1338 Z-1.0727
X98.8990 Y19.1266 Z-1.0786
X98.8899 Y19.1187 Z-1.0846
X98.8813 Y19.1101 Z-1.0905
X98.8734 Y19.1010 Z-1.0965
X98.8662 Y19.0912 Z-1.1025
X98.8598 Y19.0810 Z-1.1084
X98.8541 Y19.0703 Z-1.1144
X98.8493 Y19.0592 Z-1.1203
X98.8453 Y19.0477 Z-1.1263
X98.8421 Y19.0360 Z-1.1322
X98.8399 Y19.0241 Z-1.1382
X98.8385 Y19.0121 Z-1.1441
X98.8381 Y19.0000 Z-1.1501
X98.8385 Y18.9879 Z-1.1560
X98.8399 Y18.9759 Z-1.1620
X98.8421 Y18.9640 Z-1.1679
X98.8453 Y18.9523 Z-1.1739
X98.8493 Y18.9408 Z-1.1798
X98.8541 Y18.9297 Z-1.1858
X98.8598 Y18.9190 Z-1.1917
X98.8662 Y18.9088 Z-1.1977
X98.8734 Y18.8990 Z-1.2036
X98.8813 Y18.8899 Z-1.2096
X98.8899 Y18.8813 Z-1.2155
X98.8990 Y18.8734 Z-1.2215
X98.9088 Y18.8662 Z-1.2274
X98.9190 Y18.8598 Z-1.2334
X98.9297 Y18.8541 Z-1.2393
X98.9408 Y18.8493 Z-1.2453
X98.9523 Y18.8453 Z-1.2512
X98.9640 Y18.8421 Z-1.2572
X98.9759 Y18.8399 Z-1.2631
X98.9879 Y18.8385 Z-1.2691
X99.0000 Y18.8381 Z-1.2750
X99.0121 Y18.8385 Z-1.2810
X99.0241 Y18.8399 Z-1.2869
X99.0360 Y18.8421 Z-1.2929
X99.0477 Y18.8453 Z-1.2988
X99.0592 Y18.8493 Z-1.3048
X99.0703 Y18.8541 Z-1.3107
X99.0810 Y18.8598 Z-1.3167
X99.0912 Y18.8662 Z-1.3226
X99.1010 Y18.8734 Z-1.3286
X99.1101 Y18.8813 Z-1.3345
X99.1187 Y18.8899 Z-1.3405
X99.1266 Y18.8990 Z-1.3464
X99.1338 Y18.9088 Z-1.3524
X99.1402 Y18.9190 Z-1.3583
X99.1459 Y18.9297 Z-1.3643
X99.1507 Y18.9408 Z-1.3702
X99.1547 Y18.9523 Z-1.3762
X99.1579 Y18.9640 Z-1.3821
X99.1601 Y18.9759 Z-1.3881
X99.1615 Y18.9879 Z-1.3940
X99.1619 Y19.0000 Z-1.4000
G03X98.8381I-0.1619J0.0000
X99.1619I0.1619J0.0000
G01 X98.8689 Y18.9052
X98.8734 Y18.8990 Z-1.4037
X98.8813 Y18.8899 Z-1.4097
X98.8899 Y18.8813 Z-1.4156
X98.8990 Y18.8734 Z-1.4216
X98.9088 Y18.8662 Z-1.4275
X98.9190 Y18.8598 Z-1.4335
X98.9297 Y18.8541 Z-1.4394
X98.9408 Y18.8493 Z-1.4454
X98.9523 Y18.8453 Z-1.4513
X98.9640 Y18.8421 Z-1.4573
X98.9759 Y18.8399 Z-1.4632
X98.9879 Y18.8385 Z-1.4692
X99.0000 Y18.8381 Z-1.4751
X99.0121 Y18.8385 Z-1.4811
X99.0241 Y18.8399 Z-1.4870
X99.0360 Y18.8421 Z-1.4930
X99.0477 Y18.8453 Z-1.4989
X99.0592 Y18.8493 Z-1.5049
X99.0703 Y18.8541 Z-1.5109
X99.0810 Y18.8598 Z-1.5168
X99.0912 Y18.8662 Z-1.5228
X99.1010 Y18.8734 Z-1.5287
X99.1101 Y18.8813 Z-1.5347
X99.1187 Y18.8899 Z-1.5406
X99.1266 Y18.8990 Z-1.5466
X99.1338 Y18.9088 Z-1.5525
X99.1402 Y18.9190 Z-1.5585
X99.1459 Y18.9297 Z-1.5644
X99.1507 Y18.9408 Z-1.5704
X99.1547 Y18.9523 Z-1.5763
X99.1579 Y18.9640 Z-1.5823
X99.1601 Y18.9759 Z-1.5882
X99.1615 Y18.9879 Z-1.5942
X99.1619 Y19.0000 Z-1.6001
X99.1615 Y19.0121 Z-1.6061
X99.1601 Y19.0241 Z-1.6120
X99.1579 Y19.0360 Z-1.6180
X99.1547 Y19.0477 Z-1.6239
X99.1507 Y19.0592 Z-1.6299
X99.1459 Y19.0703 Z-1.6358
X99.1402 Y19.0810 Z-1.6418
X99.1338 Y19.0912 Z-1.6477
X99.1266 Y19.1010 Z-1.6537
X99.1187 Y19.1101 Z-1.6596
X99.1101 Y19.1187 Z-1.6656
X99.1010 Y19.1266 Z-1.6715
X99.0912 Y19.1338 Z-1.6775
X99.0810 Y19.1402 Z-1.6834
X99.0703 Y19.1459 Z-1.6894
X99.0592 Y19.1507 Z-1.6953
X99.0477 Y19.1547 Z-1.7013
X99.0360 Y19.1579 Z-1.7072
X99.0241 Y19.1601 Z-1.7132
X99.0121 Y19.1615 Z-1.7191
X99.0000 Y19.1619 Z-1.7251
X98.9879 Y19.1615 Z-1.7310
X98.9759 Y19.1601 Z-1.7370
X98.9640 Y19.1579 Z-1.7429
X98.9523 Y19.1547 Z-1.7489
X98.9408 Y19.1507 Z-1.7548
X98.9297 Y19.1459 Z-1.7608
X98.9190 Y19.1402 Z-1.7667
X98.9088 Y19.1338 Z-1.7727
X98.8990 Y19.1266 Z-1.7786
X98.8899 Y19.1187 Z-1.7846
X98.8813 Y19.1101 Z-1.7905
X98.8734 Y19.1010 Z-1.7965
X98.8662 Y19.0912 Z-1.8025
X98.8598 Y19.0810 Z-1.8084
X98.8541 Y19.0703 Z-1.8144
X98.8493 Y19.0592 Z-1.8203
X98.8453 Y19.0477 Z-1.8263
X98.8421 Y19.0360 Z-1.8322
X98.8399 Y19.0241 Z-1.8382
X98.8385 Y19.0121 Z-1.8441
X98.8381 Y19.0000 Z-1.8501
X98.8385 Y18.9879 Z-1.8560
X98.8399 Y18.9759 Z-1.8620
X98.8421 Y18.9640 Z-1.8679
X98.8453 Y18.9523 Z-1.8739
X98.8493 Y18.9408 Z-1.8798
X98.8541 Y18.9297 Z-1.8858
X98.8598 Y18.9190 Z-1.8917
X98.8662 Y18.9088 Z-1.8977
X98.8734 Y18.8990 Z-1.9036
X98.8813 Y18.8899 Z-1.9096
X98.8899 Y18.8813 Z-1.9155
X98.8990 Y18.8734 Z-1.9215
X98.9088 Y18.8662 Z-1.9274
X98.9190 Y18.8598 Z-1.9334
X98.9297 Y18.8541 Z-1.9393
X98.9408 Y18.8493 Z-1.9453
X98.9523 Y18.8453 Z-1.9512
X98.9640 Y18.8421 Z-1.9572
X98.9759 Y18.8399 Z-1.9631
X98.9879 Y18.8385 Z-1.9691
X99.0000 Y18.8381 Z-1.9750
X99.0121 Y18.8385 Z-1.9810
X99.0241 Y18.8399 Z-1.9869
X99.0360 Y18.8421 Z-1.9929
X99.0477 Y18.8453 Z-1.9988
X99.0592 Y18.8493 Z-2.0048
X99.0703 Y18.8541 Z-2.0107
X99.0810 Y18.8598 Z-2.0167
X99.0912 Y18.8662 Z-2.0226
X99.1010 Y18.8734 Z-2.0286
X99.1101 Y18.8813 Z-2.0345
X99.1187 Y18.8899 Z-2.0405
X99.1266 Y18.8990 Z-2.0464
X99.1338 Y18.9088 Z-2.0524
X99.1402 Y18.9190 Z-2.0583
X99.1459 Y18.9297 Z-2.0643
X99.1507 Y18.9408 Z-2.0702
X99.1547 Y18.9523 Z-2.0762
X99.1579 Y18.9640 Z-2.0821
X99.1601 Y18.9759 Z-2.0881
X99.1615 Y18.9879 Z-2.0940
X99.1619 Y19.0000 Z-2.1000
G03X98.8381I-0.1619J0.0000
X99.1619I0.1619J0.0000
G01 X98.8689 Y18.9052
X98.8734 Y18.8990 Z-2.1037
X98.8813 Y18.8899 Z-2.1097
X98.8899 Y18.8813 Z-2.1156
X98.8990 Y18.8734 Z-2.1216
X98.9088 Y18.8662 Z-2.1275
X98.9190 Y18.8598 Z-2.1335
X98.9297 Y18.8541 Z-2.1394
X98.9408 Y18.8493 Z-2.1454
X98.9523 Y18.8453 Z-2.1513
X98.9640 Y18.8421 Z-2.1573
X98.9759 Y18.8399 Z-2.1632
X98.9879 Y18.8385 Z-2.1692
X99.0000 Y18.8381 Z-2.1751
X99.0121 Y18.8385 Z-2.1811
X99.0241 Y18.8399 Z-2.1870
X99.0360 Y18.8421 Z-2.1930
X99.0477 Y18.8453 Z-2.1990
X99.0592 Y18.8493 Z-2.2049
X99.0703 Y18.8541 Z-2.2109
X99.0810 Y18.8598 Z-2.2168
X99.0912 Y18.8662 Z-2.2228
X99.1010 Y18.8734 Z-2.2287
X99.1101 Y18.8813 Z-2.2347
X99.1187 Y18.8899 Z-2.2406
X99.1266 Y18.8990 Z-2.2466
X99.1338 Y18.9088 Z-2.2525
X99.1402 Y18.9190 Z-2.2585
X99.1459 Y18.9297 Z-2.2644
X99.1507 Y18.9408 Z-2.2704
X99.1547 Y18.9523 Z-2.2763
X99.1579 Y18.9640 Z-2.2823
X99.1601 Y18.9759 Z-2.2882
X99.1615 Y18.9879 Z-2.2942
X99.1619 Y19.0000 Z-2.3001
X99.1615 Y19.0121 Z-2.3061
X99.1601 Y19.0241 Z-2.3120
X99.1579 Y19.0360 Z-2.3180
X99.1547 Y19.0477 Z-2.3239
X99.1507 Y19.0592 Z-2.3299
X99.1459 Y19.0703 Z-2.3358
X99.1402 Y19.0810 Z-2.3418
X99.1338 Y19.0912 Z-2.3477
X99.1266 Y19.1010 Z-2.3537
X99.1187 Y19.1101 Z-2.3596
X99.1101 Y19.1187 Z-2.3656
X99.1010 Y19.1266 Z-2.3715
X99.0912 Y19.1338 Z-2.3775
X99.0810 Y19.1402 Z-2.3834
X99.0703 Y19.1459 Z-2.3894
X99.0592 Y19.1507 Z-2.3953
X99.0477 Y19.1547 Z-2.4013
X99.0360 Y19.1579 Z-2.4072
X99.0241 Y19.1601 Z-2.4132
X99.0121 Y19.1615 Z-2.4191
X99.0000 Y19.1619 Z-2.4251
X98.9879 Y19.1615 Z-2.4310
X98.9759 Y19.1601 Z-2.4370
X98.9640 Y19.1579 Z-2.4429
X98.9523 Y19.1547 Z-2.4489
X98.9408 Y19.1507 Z-2.4548
X98.9297 Y19.1459 Z-2.4608
X98.9190 Y19.1402 Z-2.4667
X98.9088 Y19.1338 Z-2.4727
X98.8990 Y19.1266 Z-2.4786
X98.8899 Y19.1187 Z-2.4846
X98.8813 Y19.1101 Z-2.4905
X98.8734 Y19.1010 Z-2.4965
X98.8662 Y19.0912 Z-2.5025
X98.8598 Y19.0810 Z-2.5084
X98.8541 Y19.0703 Z-2.5144
X98.8493 Y19.0592 Z-2.5203
X98.8453 Y19.0477 Z-2.5263
X98.8421 Y19.0360 Z-2.5322
X98.8399 Y19.0241 Z-2.5382
X98.8385 Y19.0121 Z-2.5441
X98.8381 Y19.0000 Z-2.5501
X98.8385 Y18.9879 Z-2.5560
X98.8399 Y18.9759 Z-2.5620
X98.8421 Y18.9640 Z-2.5679
X98.8453 Y18.9523 Z-2.5739
X98.8493 Y18.9408 Z-2.5798
X98.8541 Y18.9297 Z-2.5858
X98.8598 Y18.9190 Z-2.5917
X98.8662 Y18.9088 Z-2.5977
X98.8734 Y18.8990 Z-2.6036
X98.8813 Y18.8899 Z-2.6096
X98.8899 Y18.8813 Z-2.6155
X98.8990 Y18.8734 Z-2.6215
X98.9088 Y18.8662 Z-2.6274
X98.9190 Y18.8598 Z-2.6334
X98.9297 Y18.8541 Z-2.6393
X98.9408 Y18.8493 Z-2.6453
X98.9523 Y18.8453 Z-2.6512
X98.9640 Y18.8421 Z-2.6572
X98.9759 Y18.8399 Z-2.6631
X98.9879 Y18.8385 Z-2.6691
X99.0000 Y18.8381 Z-2.6750
X99.0121 Y18.8385 Z-2.6810
X99.0241 Y18.8399 Z-2.6869
X99.0360 Y18.8421 Z-2.6929
X99.0477 Y18.8453 Z-2.6988
X99.0592 Y18.8493 Z-2.7048
X99.0703 Y18.8541 Z-2.7107
X99.0810 Y18.8598 Z-2.7167
X99.0912 Y18.8662 Z-2.7226
X99.1010 Y18.8734 Z-2.7286
X99.1101 Y18.8813 Z-2.7345
X99.1187 Y18.8899 Z-2.7405
X99.1266 Y18.8990 Z-2.7464
X99.1338 Y18.9088 Z-2.7524
X99.1402 Y18.9190 Z-2.7583
X99.1459 Y18.9297 Z-2.7643
X99.1507 Y18.9408 Z-2.7702
X99.1547 Y18.9523 Z-2.7762
X99.1579 Y18.9640 Z-2.7821
X99.1601 Y18.9759 Z-2.7881
X99.1615 Y18.9879 Z-2.7940
X99.1619 Y19.0000 Z-2.8000
G03X98.8381I-0.1619J0.0000
X99.1619I0.1619J0.0000
G01 X98.8689 Y18.9052
X98.8734 Y18.8990 Z-2.8037
X98.8813 Y18.8899 Z-2.8097
X98.8899 Y18.8813 Z-2.8156
X98.8990 Y18.8734 Z-2.8216
X98.9088 Y18.8662 Z-2.8275
X98.9190 Y18.8598 Z-2.8335
X98.9297 Y18.8541 Z-2.8394
X98.9408 Y18.8493 Z-2.8454
X98.9523 Y18.8453 Z-2.8513
X98.9640 Y18.8421 Z-2.8573
X98.9759 Y18.8399 Z-2.8632
X98.9879 Y18.8385 Z-2.8692
X99.0000 Y18.8381 Z-2.8751
X99.0121 Y18.8385 Z-2.8811
X99.0241 Y18.8399 Z-2.8870
X99.0360 Y18.8421 Z-2.8930
X99.0477 Y18.8453 Z-2.8990
X99.0592 Y18.8493 Z-2.9049
X99.0703 Y18.8541 Z-2.9109
X99.0810 Y18.8598 Z-2.9168
X99.0912 Y18.8662 Z-2.9228
X99.1010 Y18.8734 Z-2.9287
X99.1101 Y18.8813 Z-2.9347
X99.1187 Y18.8899 Z-2.9406
X99.1266 Y18.8990 Z-2.9466
X99.1338 Y18.9088 Z-2.9525
X99.1402 Y18.9190 Z-2.9585
X99.1459 Y18.9297 Z-2.9644
X99.1507 Y18.9408 Z-2.9704
X99.1547 Y18.9523 Z-2.9763
X99.1579 Y18.9640 Z-2.9823
X99.1601 Y18.9759 Z-2.9882
X99.1615 Y18.9879 Z-2.9942
X99.1619 Y19.0000 Z-3.0001
X99.1615 Y19.0121 Z-3.0061
X99.1601 Y19.0241 Z-3.0120
X99.1579 Y19.0360 Z-3.0180
X99.1547 Y19.0477 Z-3.0239
X99.1507 Y19.0592 Z-3.0299
X99.1459 Y19.0703 Z-3.0358
X99.1402 Y19.0810 Z-3.0418
X99.1338 Y19.0912 Z-3.0477
X99.1266 Y19.1010 Z-3.0537
X99.1187 Y19.1101 Z-3.0596
X99.1101 Y19.1187 Z-3.0656
X99.1010 Y19.1266 Z-3.0715
X99.0912 Y19.1338 Z-3.0775
X99.0810 Y19.1402 Z-3.0834
X99.0703 Y19.1459 Z-3.0894
X99.0592 Y19.1507 Z-3.0953
X99.0477 Y19.1547 Z-3.1013
X99.0360 Y19.1579 Z-3.1072
X99.0241 Y19.1601 Z-3.1132
X99.0121 Y19.1615 Z-3.1191
X99.0000 Y19.1619 Z-3.1251
X98.9879 Y19.1615 Z-3.1310
X98.9759 Y19.1601 Z-3.1370
X98.9640 Y19.1579 Z-3.1429
X98.9523 Y19.1547 Z-3.1489
X98.9408 Y19.1507 Z-3.1548
X98.9297 Y19.1459 Z-3.1608
X98.9190 Y19.1402 Z-3.1667
X98.9088 Y19.1338 Z-3.1727
X98.8990 Y19.1266 Z-3.1786
X98.8899 Y19.1187 Z-3.1846
X98.8813 Y19.1101 Z-3.1905
X98.8734 Y19.1010 Z-3.1965
X98.8662 Y19.0912 Z-3.2024
X98.8598 Y19.0810 Z-3.2084
X98.8541 Y19.0703 Z-3.2144
X98.8493 Y19.0592 Z-3.2203
X98.8453 Y19.0477 Z-3.2263
X98.8421 Y19.0360 Z-3.2322
X98.8399 Y19.0241 Z-3.2382
X98.8385 Y19.0121 Z-3.2441
X98.8381 Y19.0000 Z-3.2501
X98.8385 Y18.9879 Z-3.2560
X98.8399 Y18.9759 Z-3.2620
X98.8421 Y18.9640 Z-3.2679
X98.8453 Y18.9523 Z-3.2739
X98.8493 Y18.9408 Z-3.2798
X98.8541 Y18.9297 Z-3.2858
X98.8598 Y18.9190 Z-3.2917
X98.8662 Y18.9088 Z-3.2977
X98.8734 Y18.8990 Z-3.3036
X98.8813 Y18.8899 Z-3.3096
X98.8899 Y18.8813 Z-3.3155
X98.8990 Y18.8734 Z-3.3215
X98.9088 Y18.8662 Z-3.3274
X98.9190 Y18.8598 Z-3.3334
X98.9297 Y18.8541 Z-3.3393
X98.9408 Y18.8493 Z-3.3453
X98.9523 Y18.8453 Z-3.3512
X98.9640 Y18.8421 Z-3.3572
X98.9759 Y18.8399 Z-3.3631
X98.9879 Y18.8385 Z-3.3691
X99.0000 Y18.8381 Z-3.3750
X99.0121 Y18.8385 Z-3.3810
X99.0241 Y18.8399 Z-3.3869
X99.0360 Y18.8421 Z-3.3929
X99.0477 Y18.8453 Z-3.3988
X99.0592 Y18.8493 Z-3.4048
X99.0703 Y18.8541 Z-3.4107
X99.0810 Y18.8598 Z-3.4167
X99.0912 Y18.8662 Z-3.4226
X99.1010 Y18.8734 Z-3.4286
X99.1101 Y18.8813 Z-3.4345
X99.1187 Y18.8899 Z-3.4405
X99.1266 Y18.8990 Z-3.4464
X99.1338 Y18.9088 Z-3.4524
X99.1402 Y18.9190 Z-3.4583
X99.1459 Y18.9297 Z-3.4643
X99.1507 Y18.9408 Z-3.4702
X99.1547 Y18.9523 Z-3.4762
X99.1579 Y18.9640 Z-3.4821
X99.1601 Y18.9759 Z-3.4881
X99.1615 Y18.9879 Z-3.4940
X99.1619 Y19.0000 Z-3.5000
G03X98.8381I-0.1619J0.0000
X99.1619I0.1619J0.0000
G01 X99.0000
G00 Z1.5875
X98.9226 Y3.1421
G01 Z0.6350  F250.0
X98.9190 Y3.1402 Z0.6330  F500.0
X98.9088 Y3.1338 Z0.6271
X98.8990 Y3.1266 Z0.6211
X98.8899 Y3.1187 Z0.6152
X98.8813 Y3.1101 Z0.6092
X98.8734 Y3.1010 Z0.6033
X98.8662 Y3.0912 Z0.5973
X98.8598 Y3.0810 Z0.5914
X98.8541 Y3.0703 Z0.5854
X98.8493 Y3.0592 Z0.5795
X98.8453 Y3.0477 Z0.5735
X98.8421 Y3.0360 Z0.5676
X98.8399 Y3.0241 Z0.5616
X98.8385 Y3.0121 Z0.5557
X98.8381 Y3.0000 Z0.5497
X98.8385 Y2.9879 Z0.5438
X98.8399 Y2.9759 Z0.5378
X98.8421 Y2.9640 Z0.5319
X98.8453 Y2.9523 Z0.5259
X98.8493 Y2.9408 Z0.5200
X98.8541 Y2.9297 Z0.5140
X98.8598 Y2.9190 Z0.5081
X98.8662 Y2.9088 Z0.5021
X98.8734 Y2.8990 Z0.4961
X98.8813 Y2.8899 Z0.4902
X98.8899 Y2.8813 Z0.4842
X98.8990 Y2.8734 Z0.4783
X98.9088 Y2.8662 Z0.4723
X98.9190 Y2.8598 Z0.4664
X98.9297 Y2.8541 Z0.4604
X98.9408 Y2.8493 Z0.4545
X98.9523 Y2.8453 Z0.4485
X98.9640 Y2.8421 Z0.4426
X98.9759 Y2.8399 Z0.4366
X98.9879 Y2.8385 Z0.4307
X99.0000 Y2.8381 Z0.4247
X99.0121 Y2.8385 Z0.4188
X99.0241 Y2.8399 Z0.4128
X99.0360 Y2.8421 Z0.4069
X99.0477 Y2.8453 Z0.4009
X99.0592 Y2.8493 Z0.3950
X99.0703 Y2.8541 Z0.3890
X99.0810 Y2.8598 Z0.3831
X99.0912 Y2.8662 Z0.3771
X99.1010 Y2.8734 Z0.3712
X99.1101 Y2.8813 Z0.3652
X99.1187 Y2.8899 Z0.3593
X99.1266 Y2.8990 Z0.3533
X99.1338 Y2.9088 Z0.3474
X99.1402 Y2.9190 Z0.3414
X99.1459 Y2.9297 Z0.3355
X99.1507 Y2.9408 Z0.3295
X99.1547 Y2.9523 Z0.3236
X99.1579 Y2.9640 Z0.3176
X99.1601 Y2.9759 Z0.3117
X99.1615 Y2.9879 Z0.3057
X99.1619 Y3.0000 Z0.2998
X99.1615 Y3.0121 Z0.2938
X99.1601 Y3.0241 Z0.2879
X99.1579 Y3.0360 Z0.2819
X99.1547 Y3.0477 Z0.2760
X99.1507 Y3.0592 Z0.2700
X99.1459 Y3.0703 Z0.2641
X99.1402 Y3.0810 Z0.2581
X99.1338 Y3.0912 Z0.2522
X99.1266 Y3.1010 Z0.2462
X99.1187 Y3.1101 Z0.2403
X99.1101 Y3.1187 Z0.2343
X99.1010 Y3.1266 Z0.2284
X99.0912 Y3.1338 Z0.2224
X99.0810 Y3.1402 Z0.2165
X99.0703 Y3.1459 Z0.2105
X99.0592 Y3.1507 Z0.2046
X99.0477 Y3.1547 Z0.1986
X99.0360 Y3.1579 Z0.1926
X99.0241 Y3.1601 Z0.1867
X99.0121 Y3.1615 Z0.1807
X99.0000 Y3.1619 Z0.1748
X98.9879 Y3.1615 Z0.1688
X98.9759 Y3.1601 Z0.1629
X98.9640 Y3.1579 Z0.1569
X98.9523 Y3.1547 Z0.1510
X98.9408 Y3.1507 Z0.1450
X98.9297 Y3.1459 Z0.1391
X98.9190 Y3.1402 Z0.1331
X98.9088 Y3.1338 Z0.1272
X98.8990 Y3.1266 Z0.1212
X98.8899 Y3.1187 Z0.1153
X98.8813 Y3.1101 Z0.1093
X98.8734 Y3.1010 Z0.1034
X98.8662 Y3.0912 Z0.0974
X98.8598 Y3.0810 Z0.0915
X98.8541 Y3.0703 Z0.0855
X98.8493 Y3.0592 Z0.0796
X98.8453 Y3.0477 Z0.0736
X98.8421 Y3.0360 Z0.0677
X98.8399 Y3.0241 Z0.0617
X98.8385 Y3.0121 Z0.0558
X98.8381 Y3.0000 Z0.0498
X98.8385 Y2.9879 Z0.0439
X98.8399 Y2.9759 Z0.0379
X98.8421 Y2.9640 Z0.0320
X98.8453 Y2.9523 Z0.0260
X98.8493 Y2.9408 Z0.0201
X98.8541 Y2.9297 Z0.0141
X98.8598 Y2.9190 Z0.0082
X98.8662 Y2.9088 Z0.0022
X98.8734 Y2.8990 Z-0.0037
X98.8813 Y2.8899 Z-0.0097
X98.8899 Y2.8813 Z-0.0156
X98.8990 Y2.8734 Z-0.0216
X98.9088 Y2.8662 Z-0.0275
X98.9190 Y2.8598 Z-0.0335
X98.9297 Y2.8541 Z-0.0394
X98.9408 Y2.8493 Z-0.0454
X98.9523 Y2.8453 Z-0.0513
X98.9640 Y2.8421 Z-0.0573
X98.9759 Y2.8399 Z-0.0632
X98.9879 Y2.8385 Z-0.0692
X99.0000 Y2.8381 Z-0.0751
X99.0121 Y2.8385 Z-0.0811
X99.0241 Y2.8399 Z-0.0870
X99.0360 Y2.8421 Z-0.0930
X99.0477 Y2.8453 Z-0.0989
X99.0592 Y2.8493 Z-0.1049
X99.0703 Y2.8541 Z-0.1109
X99.0810 Y2.8598 Z-0.1168
X99.0912 Y2.8662 Z-0.1228
X99.1010 Y2.8734 Z-0.1287
X99.1101 Y2.8813 Z-0.1347
X99.1187 Y2.8899 Z-0.1406
X99.1266 Y2.8990 Z-0.1466
X99.1338 Y2.9088 Z-0.1525
X99.1402 Y2.9190 Z-0.1585
X99.1459 Y2.9297 Z-0.1644
X99.1507 Y2.9408 Z-0.1704
X99.1547 Y2.9523 Z-0.1763
X99.1579 Y2.9640 Z-0.1823
X99.1601 Y2.9759 Z-0.1882
X99.1615 Y2.9879 Z-0.1942
X99.1619 Y3.0000 Z-0.2001
X99.1615 Y3.0121 Z-0.2061
X99.1601 Y3.0241 Z-0.2120
X99.1579 Y3.0360 Z-0.2180
X99.1547 Y3.0477 Z-0.2239
X99.1507 Y3.0592 Z-0.2299
X99.1459 Y3.0703 Z-0.2358
X99.1402 Y3.0810 Z-0.2418
X99.1338 Y3.0912 Z-0.2477
X99.1266 Y3.1010 Z-0.2537
X99.1187 Y3.1101 Z-0.2596
X99.1101 Y3.1187 Z-0.2656
X99.1010 Y3.1266 Z-0.2715
X99.0912 Y3.1338 Z-0.2775
X99.0810 Y3.1402 Z-0.2834
X99.0703 Y3.1459 Z-0.2894
X99.0592 Y3.1507 Z-0.2953
X99.0477 Y3.1547 Z-0.3013
X99.0360 Y3.1579 Z-0.3072
X99.0241 Y3.1601 Z-0.3132
X99.0121 Y3.1615 Z-0.3191
X99.0000 Y3.1619 Z-0.3251
X98.9879 Y3.1615 Z-0.3310
X98.9759 Y3.1601 Z-0.3370
X98.9640 Y3.1579 Z-0.3429
X98.9523 Y3.1547 Z-0.3489
X98.9408 Y3.1507 Z-0.3548
X98.9297 Y3.1459 Z-0.3608
X98.9190 Y3.1402 Z-0.3667
X98.9088 Y3.1338 Z-0.3727
X98.8990 Y3.1266 Z-0.3786
X98.8899 Y3.1187 Z-0.3846
X98.8813 Y3.1101 Z-0.3905
X98.8734 Y3.1010 Z-0.3965
X98.8662 Y3.0912 Z-0.4025
X98.8598 Y3.0810 Z-0.4084
X98.8541 Y3.0703 Z-0.4144
X98.8493 Y3.0592 Z-0.4203
X98.8453 Y3.0477 Z-0.4263
X98.8421 Y3.0360 Z-0.4322
X98.8399 Y3.0241 Z-0.4382
X98.8385 Y3.0121 Z-0.4441
X98.8381 Y3.0000 Z-0.4501
X98.8385 Y2.9879 Z-0.4560
X98.8399 Y2.9759 Z-0.4620
X98.8421 Y2.9640 Z-0.4679
X98.8453 Y2.9523 Z-0.4739
X98.8493 Y2.9408 Z-0.4798
X98.8541 Y2.9297 Z-0.4858
X98.8598 Y2.9190 Z-0.4917
X98.8662 Y2.9088 Z-0.4977
X98.8734 Y2.8990 Z-0.5036
X98.8813 Y2.8899 Z-0.5096
X98.8899 Y2.8813 Z-0.5155
X98.8990 Y2.8734 Z-0.5215
X98.9088 Y2.8662 Z-0.5274
X98.9190 Y2.8598 Z-0.5334
X98.9297 Y2.8541 Z-0.5393
X98.9408 Y2.8493 Z-0.5453
X98.9523 Y2.8453 Z-0.5512
X98.9640 Y2.8421 Z-0.5572
X98.9759 Y2.8399 Z-0.5631
X98.9879 Y2.8385 Z-0.5691
X99.0000 Y2.8381 Z-0.5750
X99.0121 Y2.8385 Z-0.5810
X99.0241 Y2.8399 Z-0.5869
X99.0360 Y2.8421 Z-0.5929
X99.0477 Y2.8453 Z-0.5988
X99.0592 Y2.8493 Z-0.6048
X99.0703 Y2.8541 Z-0.6107
X99.0810 Y2.8598 Z-0.6167
X99.0912 Y2.8662 Z-0.6226
X99.1010 Y2.8734 Z-0.6286
X99.1101 Y2.8813 Z-0.6345
X99.1187 Y2.8899 Z-0.6405
X99.1266 Y2.8990 Z-0.6464
X99.1338 Y2.9088 Z-0.6524
X99.1402 Y2.9190 Z-0.6583
X99.1459 Y2.9297 Z-0.6643
X99.1507 Y2.9408 Z-0.6702
X99.1547 Y2.9523 Z-0.6762
X99.1579 Y2.9640 Z-0.6821
X99.1601 Y2.9759 Z-0.6881
X99.1615 Y2.9879 Z-0.6940
X99.1619 Y3.0000 Z-0.7000
G03X98.8381I-0.1619J0.0000
X99.1619I0.1619J0.0000
G01 X98.8689 Y2.9052
X98.8734 Y2.8990 Z-0.7037
X98.8813 Y2.8899 Z-0.7097
X98.8899 Y2.8813 Z-0.7156
X98.8990 Y2.8734 Z-0.7216
X98.9088 Y2.8662 Z-0.7275
X98.9190 Y2.8598 Z-0.7335
X98.9297 Y2.8541 Z-0.7394
X98.9408 Y2.8493 Z-0.7454
X98.9523 Y2.8453 Z-0.7513
X98.9640 Y2.8421 Z-0.7573
X98.9759 Y2.8399 Z-0.7632
X98.9879 Y2.8385 Z-0.7692
X99.0000 Y2.8381 Z-0.7751
X99.0121 Y2.8385 Z-0.7811
X99.0241 Y2.8399 Z-0.7870
X99.0360 Y2.8421 Z-0.7930
X99.0477 Y2.8453 Z-0.7990
X99.0592 Y2.8493 Z-0.8049
X99.0703 Y2.8541 Z-0.8109
X99.0810 Y2.8598 Z-0.8168
X99.0912 Y2.8662 Z-0.8228
X99.1010 Y2.8734 Z-0.8287
X99.1101 Y2.8813 Z-0.8347
X99.1187 Y2.8899 Z-0.8406
X99.1266 Y2.8990 Z-0.8466
X99.1338 Y2.9088 Z-0.8525
X99.1402 Y2.9190 Z-0.8585
X99.1459 Y2.9297 Z-0.8644
X99.1507 Y2.9408 Z-0.8704
X99.1547 Y2.9523 Z-0.8763
X99.1579 Y2.9640 Z-0.8823
X99.1601 Y2.9759 Z-0.8882
X99.1615 Y2.9879 Z-0.8942
X99.1619 Y3.0000 Z-0.9001
X99.1615 Y3.0121 Z-0.9061
X99.1601 Y3.0241 Z-0.9120
X99.1579 Y3.0360 Z-0.9180
X99.1547 Y3.0477 Z-0.9239
X99.1507 Y3.0592 Z-0.9299
X99.1459 Y3.0703 Z-0.9358
X99.1402 Y3.0810 Z-0.9418
X99.1338 Y3.0912 Z-0.9477
X99.1266 Y3.1010 Z-0.9537
X99.1187 Y3.1101 Z-0.9596
X99.1101 Y3.1187 Z-0.9656
X99.1010 Y3.1266 Z-0.9715
X99.0912 Y3.1338 Z-0.9775
X99.0810 Y3.1402 Z-0.9834
X99.0703 Y3.1459 Z-0.9894
X99.0592 Y3.1507 Z-0.9953
X99.0477 Y3.1547 Z-1.0013
X99.0360 Y3.1579 Z-1.0072
X99.0241 Y3.1601 Z-1.0132
X99.0121 Y3.1615 Z-1.0191
X99.0000 Y3.1619 Z-1.0251
X98.9879 Y3.1615 Z-1.0310
X98.9759 Y3.1601 Z-1.0370
X98.9640 Y3.1579 Z-1.0429
X98.9523 Y3.1547 Z-1.0489
X98.9408 Y3.1507 Z-1.0548
X98.9297 Y3.1459 Z-1.0608
X98.9190 Y3.1402 Z-1.0667
X98.9088 Y3.1338 Z-1.0727
X98.8990 Y3.1266 Z-1.0786
X98.8899 Y3.1187 Z-1.0846
X98.8813 Y3.1101 Z-1.0905
X98.8734 Y3.1010 Z-1.0965
X98.8662 Y3.0912 Z-1.1025
X98.8598 Y3.0810 Z-1.1084
X98.8541 Y3.0703 Z-1.1144
X98.8493 Y3.0592 Z-1.1203
X98.8453 Y3.0477 Z-1.1263
X98.8421 Y3.0360 Z-1.1322
X98.8399 Y3.0241 Z-1.1382
X98.8385 Y3.0121 Z-1.1441
X98.8381 Y3.0000 Z-1.1501
X98.8385 Y2.9879 Z-1.1560
X98.8399 Y2.9759 Z-1.1620
X98.8421 Y2.9640 Z-1.1679
X98.8453 Y2.9523 Z-1.1739
X98.8493 Y2.9408 Z-1.1798
X98.8541 Y2.9297 Z-1.1858
X98.8598 Y2.9190 Z-1.1917
X98.8662 Y2.9088 Z-1.1977
X98.8734 Y2.8990 Z-1.2036
X98.8813 Y2.8899 Z-1.2096
X98.8899 Y2.8813 Z-1.2155
X98.8990 Y2.8734 Z-1.2215
X98.9088 Y2.8662 Z-1.2274
X98.9190 Y2.8598 Z-1.2334
X98.9297 Y2.8541 Z-1.2393
X98.9408 Y2.8493 Z-1.2453
X98.9523 Y2.8453 Z-1.2512
X98.9640 Y2.8421 Z-1.2572
X98.9759 Y2.8399 Z-1.2631
X98.9879 Y2.8385 Z-1.2691
X99.0000 Y2.8381 Z-1.2750
X99.0121 Y2.8385 Z-1.2810
X99.0241 Y2.8399 Z-1.2869
X99.0360 Y2.8421 Z-1.2929
X99.0477 Y2.8453 Z-1.2988
X99.0592 Y2.8493 Z-1.3048
X99.0703 Y2.8541 Z-1.3107
X99.0810 Y2.8598 Z-1.3167
X99.0912 Y2.8662 Z-1.3226
X99.1010 Y2.8734 Z-1.3286
X99.1101 Y2.8813 Z-1.3345
X99.1187 Y2.8899 Z-1.3405
X99.1266 Y2.8990 Z-1.3464
X99.1338 Y2.9088 Z-1.3524
X99.1402 Y2.9190 Z-1.3583
X99.1459 Y2.9297 Z-1.3643
X99.1507 Y2.9408 Z-1.3702
X99.1547 Y2.9523 Z-1.3762
X99.1579 Y2.9640 Z-1.3821
X99.1601 Y2.9759 Z-1.3881
X99.1615 Y2.9879 Z-1.3940
X99.1619 Y3.0000 Z-1.4000
G03X98.8381I-0.1619J0.0000
X99.1619I0.1619J0.0000
G01 X98.8689 Y2.9052
X98.8734 Y2.8990 Z-1.4037
X98.8813 Y2.8899 Z-1.4097
X98.8899 Y2.8813 Z-1.4156
X98.8990 Y2.8734 Z-1.4216
X98.9088 Y2.8662 Z-1.4275
X98.9190 Y2.8598 Z-1.4335
X98.9297 Y2.8541 Z-1.4394
X98.9408 Y2.8493 Z-1.4454
X98.9523 Y2.8453 Z-1.4513
X98.9640 Y2.8421 Z-1.4573
X98.9759 Y2.8399 Z-1.4632
X98.9879 Y2.8385 Z-1.4692
X99.0000 Y2.8381 Z-1.4751
X99.0121 Y2.8385 Z-1.4811
X99.0241 Y2.8399 Z-1.4870
X99.0360 Y2.8421 Z-1.4930
X99.0477 Y2.8453 Z-1.4989
X99.0592 Y2.8493 Z-1.5049
X99.0703 Y2.8541 Z-1.5109
X99.0810 Y2.8598 Z-1.5168
X99.0912 Y2.8662 Z-1.5228
X99.1010 Y2.8734 Z-1.5287
X99.1101 Y2.8813 Z-1.5347
X99.1187 Y2.8899 Z-1.5406
X99.1266 Y2.8990 Z-1.5466
X99.1338 Y2.9088 Z-1.5525
X99.1402 Y2.9190 Z-1.5585
X99.1459 Y2.9297 Z-1.5644
X99.1507 Y2.9408 Z-1.5704
X99.1547 Y2.9523 Z-1.5763
X99.1579 Y2.9640 Z-1.5823
X99.1601 Y2.9759 Z-1.5882
X99.1615 Y2.9879 Z-1.5942
X99.1619 Y3.0000 Z-1.6001
X99.1615 Y3.0121 Z-1.6061
X99.1601 Y3.0241 Z-1.6120
X99.1579 Y3.0360 Z-1.6180
X99.1547 Y3.0477 Z-1.6239
X99.1507 Y3.0592 Z-1.6299
X99.1459 Y3.0703 Z-1.6358
X99.1402 Y3.0810 Z-1.6418
X99.1338 Y3.0912 Z-1.6477
X99.1266 Y3.1010 Z-1.6537
X99.1187 Y3.1101 Z-1.6596
X99.1101 Y3.1187 Z-1.6656
X99.1010 Y3.1266 Z-1.6715
X99.0912 Y3.1338 Z-1.6775
X99.0810 Y3.1402 Z-1.6834
X99.0703 Y3.1459 Z-1.6894
X99.0592 Y3.1507 Z-1.6953
X99.0477 Y3.1547 Z-1.7013
X99.0360 Y3.1579 Z-1.7072
X99.0241 Y3.1601 Z-1.7132
X99.0121 Y3.1615 Z-1.7191
X99.0000 Y3.1619 Z-1.7251
X98.9879 Y3.1615 Z-1.7310
X98.9759 Y3.1601 Z-1.7370
X98.9640 Y3.1579 Z-1.7429
X98.9523 Y3.1547 Z-1.7489
X98.9408 Y3.1507 Z-1.7548
X98.9297 Y3.1459 Z-1.7608
X98.9190 Y3.1402 Z-1.7667
X98.9088 Y3.1338 Z-1.7727
X98.8990 Y3.1266 Z-1.7786
X98.8899 Y3.1187 Z-1.7846
X98.8813 Y3.1101 Z-1.7905
X98.8734 Y3.1010 Z-1.7965
X98.8662 Y3.0912 Z-1.8025
X98.8598 Y3.0810 Z-1.8084
X98.8541 Y3.0703 Z-1.8144
X98.8493 Y3.0592 Z-1.8203
X98.8453 Y3.0477 Z-1.8263
X98.8421 Y3.0360 Z-1.8322
X98.8399 Y3.0241 Z-1.8382
X98.8385 Y3.0121 Z-1.8441
X98.8381 Y3.0000 Z-1.8501
X98.8385 Y2.9879 Z-1.8560
X98.8399 Y2.9759 Z-1.8620
X98.8421 Y2.9640 Z-1.8679
X98.8453 Y2.9523 Z-1.8739
X98.8493 Y2.9408 Z-1.8798
X98.8541 Y2.9297 Z-1.8858
X98.8598 Y2.9190 Z-1.8917
X98.8662 Y2.9088 Z-1.8977
X98.8734 Y2.8990 Z-1.9036
X98.8813 Y2.8899 Z-1.9096
X98.8899 Y2.8813 Z-1.9155
X98.8990 Y2.8734 Z-1.9215
X98.9088 Y2.8662 Z-1.9274
X98.9190 Y2.8598 Z-1.9334
X98.9297 Y2.8541 Z-1.9393
X98.9408 Y2.8493 Z-1.9453
X98.9523 Y2.8453 Z-1.9512
X98.9640 Y2.8421 Z-1.9572
X98.9759 Y2.8399 Z-1.9631
X98.9879 Y2.8385 Z-1.9691
X99.0000 Y2.8381 Z-1.9750
X99.0121 Y2.8385 Z-1.9810
X99.0241 Y2.8399 Z-1.9869
X99.0360 Y2.8421 Z-1.9929
X99.0477 Y2.8453 Z-1.9988
X99.0592 Y2.8493 Z-2.0048
X99.0703 Y2.8541 Z-2.0107
X99.0810 Y2.8598 Z-2.0167
X99.0912 Y2.8662 Z-2.0226
X99.1010 Y2.8734 Z-2.0286
X99.1101 Y2.8813 Z-2.0345
X99.1187 Y2.8899 Z-2.0405
X99.1266 Y2.8990 Z-2.0464
X99.1338 Y2.9088 Z-2.0524
X99.1402 Y2.9190 Z-2.0583
X99.1459 Y2.9297 Z-2.0643
X99.1507 Y2.9408 Z-2.0702
X99.1547 Y2.9523 Z-2.0762
X99.1579 Y2.9640 Z-2.0821
X99.1601 Y2.9759 Z-2.0881
X99.1615 Y2.9879 Z-2.0940
X99.1619 Y3.0000 Z-2.1000
G03X98.8381I-0.1619J0.0000
X99.1619I0.1619J0.0000
G01 X98.8689 Y2.9052
X98.8734 Y2.8990 Z-2.1037
X98.8813 Y2.8899 Z-2.1097
X98.8899 Y2.8813 Z-2.1156
X98.8990 Y2.8734 Z-2.1216
X98.9088 Y2.8662 Z-2.1275
X98.9190 Y2.8598 Z-2.1335
X98.9297 Y2.8541 Z-2.1394
X98.9408 Y2.8493 Z-2.1454
X98.9523 Y2.8453 Z-2.1513
X98.9640 Y2.8421 Z-2.1573
X98.9759 Y2.8399 Z-2.1632
X98.9879 Y2.8385 Z-2.1692
X99.0000 Y2.8381 Z-2.1751
X99.0121 Y2.8385 Z-2.1811
X99.0241 Y2.8399 Z-2.1870
X99.0360 Y2.8421 Z-2.1930
X99.0477 Y2.8453 Z-2.1990
X99.0592 Y2.8493 Z-2.2049
X99.0703 Y2.8541 Z-2.2109
X99.0810 Y2.8598 Z-2.2168
X99.0912 Y2.8662 Z-2.2228
X99.1010 Y2.8734 Z-2.2287
X99.1101 Y2.8813 Z-2.2347
X99.1187 Y2.8899 Z-2.2406
X99.1266 Y2.8990 Z-2.2466
X99.1338 Y2.9088 Z-2.2525
X99.1402 Y2.9190 Z-2.2585
X99.1459 Y2.9297 Z-2.2644
X99.1507 Y2.9408 Z-2.2704
X99.1547 Y2.9523 Z-2.2763
X99.1579 Y2.9640 Z-2.2823
X99.1601 Y2.9759 Z-2.2882
X99.1615 Y2.9879 Z-2.2942
X99.1619 Y3.0000 Z-2.3001
X99.1615 Y3.0121 Z-2.3061
X99.1601 Y3.0241 Z-2.3120
X99.1579 Y3.0360 Z-2.3180
X99.1547 Y3.0477 Z-2.3239
X99.1507 Y3.0592 Z-2.3299
X99.1459 Y3.0703 Z-2.3358
X99.1402 Y3.0810 Z-2.3418
X99.1338 Y3.0912 Z-2.3477
X99.1266 Y3.1010 Z-2.3537
X99.1187 Y3.1101 Z-2.3596
X99.1101 Y3.1187 Z-2.3656
X99.1010 Y3.1266 Z-2.3715
X99.0912 Y3.1338 Z-2.3775
X99.0810 Y3.1402 Z-2.3834
X99.0703 Y3.1459 Z-2.3894
X99.0592 Y3.1507 Z-2.3953
X99.0477 Y3.1547 Z-2.4013
X99.0360 Y3.1579 Z-2.4072
X99.0241 Y3.1601 Z-2.4132
X99.0121 Y3.1615 Z-2.4191
X99.0000 Y3.1619 Z-2.4251
X98.9879 Y3.1615 Z-2.4310
X98.9759 Y3.1601 Z-2.4370
X98.9640 Y3.1579 Z-2.4429
X98.9523 Y3.1547 Z-2.4489
X98.9408 Y3.1507 Z-2.4548
X98.9297 Y3.1459 Z-2.4608
X98.9190 Y3.1402 Z-2.4667
X98.9088 Y3.1338 Z-2.4727
X98.8990 Y3.1266 Z-2.4786
X98.8899 Y3.1187 Z-2.4846
X98.8813 Y3.1101 Z-2.4905
X98.8734 Y3.1010 Z-2.4965
X98.8662 Y3.0912 Z-2.5025
X98.8598 Y3.0810 Z-2.5084
X98.8541 Y3.0703 Z-2.5144
X98.8493 Y3.0592 Z-2.5203
X98.8453 Y3.0477 Z-2.5263
X98.8421 Y3.0360 Z-2.5322
X98.8399 Y3.0241 Z-2.5382
X98.8385 Y3.0121 Z-2.5441
X98.8381 Y3.0000 Z-2.5501
X98.8385 Y2.9879 Z-2.5560
X98.8399 Y2.9759 Z-2.5620
X98.8421 Y2.9640 Z-2.5679
X98.8453 Y2.9523 Z-2.5739
X98.8493 Y2.9408 Z-2.5798
X98.8541 Y2.9297 Z-2.5858
X98.8598 Y2.9190 Z-2.5917
X98.8662 Y2.9088 Z-2.5977
X98.8734 Y2.8990 Z-2.6036
X98.8813 Y2.8899 Z-2.6096
X98.8899 Y2.8813 Z-2.6155
X98.8990 Y2.8734 Z-2.6215
X98.9088 Y2.8662 Z-2.6274
X98.9190 Y2.8598 Z-2.6334
X98.9297 Y2.8541 Z-2.6393
X98.9408 Y2.8493 Z-2.6453
X98.9523 Y2.8453 Z-2.6512
X98.9640 Y2.8421 Z-2.6572
X98.9759 Y2.8399 Z-2.6631
X98.9879 Y2.8385 Z-2.6691
X99.0000 Y2.8381 Z-2.6750
X99.0121 Y2.8385 Z-2.6810
X99.0241 Y2.8399 Z-2.6869
X99.0360 Y2.8421 Z-2.6929
X99.0477 Y2.8453 Z-2.6988
X99.0592 Y2.8493 Z-2.7048
X99.0703 Y2.8541 Z-2.7107
X99.0810 Y2.8598 Z-2.7167
X99.0912 Y2.8662 Z-2.7226
X99.1010 Y2.8734 Z-2.7286
X99.1101 Y2.8813 Z-2.7345
X99.1187 Y2.8899 Z-2.7405
X99.1266 Y2.8990 Z-2.7464
X99.1338 Y2.9088 Z-2.7524
X99.1402 Y2.9190 Z-2.7583
X99.1459 Y2.9297 Z-2.7643
X99.1507 Y2.9408 Z-2.7702
X99.1547 Y2.9523 Z-2.7762
X99.1579 Y2.9640 Z-2.7821
X99.1601 Y2.9759 Z-2.7881
X99.1615 Y2.9879 Z-2.7940
X99.1619 Y3.0000 Z-2.8000
G03X98.8381I-0.1619J0.0000
X99.1619I0.1619J0.0000
G01 X98.8689 Y2.9052
X98.8734 Y2.8990 Z-2.8037
X98.8813 Y2.8899 Z-2.8097
X98.8899 Y2.8813 Z-2.8156
X98.8990 Y2.8734 Z-2.8216
X98.9088 Y2.8662 Z-2.8275
X98.9190 Y2.8598 Z-2.8335
X98.9297 Y2.8541 Z-2.8394
X98.9408 Y2.8493 Z-2.8454
X98.9523 Y2.8453 Z-2.8513
X98.9640 Y2.8421 Z-2.8573
X98.9759 Y2.8399 Z-2.8632
X98.9879 Y2.8385 Z-2.8692
X99.0000 Y2.8381 Z-2.8751
X99.0121 Y2.8385 Z-2.8811
X99.0241 Y2.8399 Z-2.8870
X99.0360 Y2.8421 Z-2.8930
X99.0477 Y2.8453 Z-2.8990
X99.0592 Y2.8493 Z-2.9049
X99.0703 Y2.8541 Z-2.9109
X99.0810 Y2.8598 Z-2.9168
X99.0912 Y2.8662 Z-2.9228
X99.1010 Y2.8734 Z-2.9287
X99.1101 Y2.8813 Z-2.9347
X99.1187 Y2.8899 Z-2.9406
X99.1266 Y2.8990 Z-2.9466
X99.1338 Y2.9088 Z-2.9525
X99.1402 Y2.9190 Z-2.9585
X99.1459 Y2.9297 Z-2.9644
X99.1507 Y2.9408 Z-2.9704
X99.1547 Y2.9523 Z-2.9763
X99.1579 Y2.9640 Z-2.9823
X99.1601 Y2.9759 Z-2.9882
X99.1615 Y2.9879 Z-2.9942
X99.1619 Y3.0000 Z-3.0001
X99.1615 Y3.0121 Z-3.0061
X99.1601 Y3.0241 Z-3.0120
X99.1579 Y3.0360 Z-3.0180
X99.1547 Y3.0477 Z-3.0239
X99.1507 Y3.0592 Z-3.0299
X99.1459 Y3.0703 Z-3.0358
X99.1402 Y3.0810 Z-3.0418
X99.1338 Y3.0912 Z-3.0477
X99.1266 Y3.1010 Z-3.0537
X99.1187 Y3.1101 Z-3.0596
X99.1101 Y3.1187 Z-3.0656
X99.1010 Y3.1266 Z-3.0715
X99.0912 Y3.1338 Z-3.0775
X99.0810 Y3.1402 Z-3.0834
X99.0703 Y3.1459 Z-3.0894
X99.0592 Y3.1507 Z-3.0953
X99.0477 Y3.1547 Z-3.1013
X99.0360 Y3.1579 Z-3.1072
X99.0241 Y3.1601 Z-3.1132
X99.0121 Y3.1615 Z-3.1191
X99.0000 Y3.1619 Z-3.1251
X98.9879 Y3.1615 Z-3.1310
X98.9759 Y3.1601 Z-3.1370
X98.9640 Y3.1579 Z-3.1429
X98.9523 Y3.1547 Z-3.1489
X98.9408 Y3.1507 Z-3.1548
X98.9297 Y3.1459 Z-3.1608
X98.9190 Y3.1402 Z-3.1667
X98.9088 Y3.1338 Z-3.1727
X98.8990 Y3.1266 Z-3.1786
X98.8899 Y3.1187 Z-3.1846
X98.8813 Y3.1101 Z-3.1905
X98.8734 Y3.1010 Z-3.1965
X98.8662 Y3.0912 Z-3.2024
X98.8598 Y3.0810 Z-3.2084
X98.8541 Y3.0703 Z-3.2144
X98.8493 Y3.0592 Z-3.2203
X98.8453 Y3.0477 Z-3.2263
X98.8421 Y3.0360 Z-3.2322
X98.8399 Y3.0241 Z-3.2382
X98.8385 Y3.0121 Z-3.2441
X98.8381 Y3.0000 Z-3.2501
X98.8385 Y2.9879 Z-3.2560
X98.8399 Y2.9759 Z-3.2620
X98.8421 Y2.9640 Z-3.2679
X98.8453 Y2.9523 Z-3.2739
X98.8493 Y2.9408 Z-3.2798
X98.8541 Y2.9297 Z-3.2858
X98.8598 Y2.9190 Z-3.2917
X98.8662 Y2.9088 Z-3.2977
X98.8734 Y2.8990 Z-3.3036
X98.8813 Y2.8899 Z-3.3096
X98.8899 Y2.8813 Z-3.3155
X98.8990 Y2.8734 Z-3.3215
X98.9088 Y2.8662 Z-3.3274
X98.9190 Y2.8598 Z-3.3334
X98.9297 Y2.8541 Z-3.3393
X98.9408 Y2.8493 Z-3.3453
X98.9523 Y2.8453 Z-3.3512
X98.9640 Y2.8421 Z-3.3572
X98.9759 Y2.8399 Z-3.3631
X98.9879 Y2.8385 Z-3.3691
X99.0000 Y2.8381 Z-3.3750
X99.0121 Y2.8385 Z-3.3810
X99.0241 Y2.8399 Z-3.3869
X99.0360 Y2.8421 Z-3.3929
X99.0477 Y2.8453 Z-3.3988
X99.0592 Y2.8493 Z-3.4048
X99.0703 Y2.8541 Z-3.4107
X99.0810 Y2.8598 Z-3.4167
X99.0912 Y2.8662 Z-3.4226
X99.1010 Y2.8734 Z-3.4286
X99.1101 Y2.8813 Z-3.4345
X99.1187 Y2.8899 Z-3.4405
X99.1266 Y2.8990 Z-3.4464
X99.1338 Y2.9088 Z-3.4524
X99.1402 Y2.9190 Z-3.4583
X99.1459 Y2.9297 Z-3.4643
X99.1507 Y2.9408 Z-3.4702
X99.1547 Y2.9523 Z-3.4762
X99.1579 Y2.9640 Z-3.4821
X99.1601 Y2.9759 Z-3.4881
X99.1615 Y2.9879 Z-3.4940
X99.1619 Y3.0000 Z-3.5000
G03X98.8381I-0.1619J0.0000
X99.1619I0.1619J0.0000
G01 X99.0000
G00 Z1.5875
X114.9226 Y3.1421
G01 Z0.6350  F250.0
X114.9190 Y3.1402 Z0.6330  F500.0
X114.9088 Y3.1338 Z0.6271
X114.8990 Y3.1266 Z0.6211
X114.8899 Y3.1187 Z0.6152
X114.8813 Y3.1101 Z0.6092
X114.8734 Y3.1010 Z0.6033
X114.8662 Y3.0912 Z0.5973
X114.8598 Y3.0810 Z0.5914
X114.8541 Y3.0703 Z0.5854
X114.8493 Y3.0592 Z0.5795
X114.8453 Y3.0477 Z0.5735
X114.8421 Y3.0360 Z0.5676
X114.8399 Y3.0241 Z0.5616
X114.8385 Y3.0121 Z0.5557
X114.8381 Y3.0000 Z0.5497
X114.8385 Y2.9879 Z0.5438
X114.8399 Y2.9759 Z0.5378
X114.8421 Y2.9640 Z0.5319
X114.8453 Y2.9523 Z0.5259
X114.8493 Y2.9408 Z0.5200
X114.8541 Y2.9297 Z0.5140
X114.8598 Y2.9190 Z0.5081
X114.8662 Y2.9088 Z0.5021
X114.8734 Y2.8990 Z0.4961
X114.8813 Y2.8899 Z0.4902
X114.8899 Y2.8813 Z0.4842
X114.8990 Y2.8734 Z0.4783
X114.9088 Y2.8662 Z0.4723
X114.9190 Y2.8598 Z0.4664
X114.9297 Y2.8541 Z0.4604
X114.9408 Y2.8493 Z0.4545
X114.9523 Y2.8453 Z0.4485
X114.9640 Y2.8421 Z0.4426
X114.9759 Y2.8399 Z0.4366
X114.9879 Y2.8385 Z0.4307
X115.0000 Y2.8381 Z0.4247
X115.0121 Y2.8385 Z0.4188
X115.0241 Y2.8399 Z0.4128
X115.0360 Y2.8421 Z0.4069
X115.0477 Y2.8453 Z0.4009
X115.0592 Y2.8493 Z0.3950
X115.0703 Y2.8541 Z0.3890
X115.0810 Y2.8598 Z0.3831
X115.0912 Y2.8662 Z0.3771
X115.1010 Y2.8734 Z0.3712
X115.1101 Y2.8813 Z0.3652
X115.1187 Y2.8899 Z0.3593
X115.1266 Y2.8990 Z0.3533
X115.1338 Y2.9088 Z0.3474
X115.1402 Y2.9190 Z0.3414
X115.1459 Y2.9297 Z0.3355
X115.1507 Y2.9408 Z0.3295
X115.1547 Y2.9523 Z0.3236
X115.1579 Y2.9640 Z0.3176
X115.1601 Y2.9759 Z0.3117
X115.1615 Y2.9879 Z0.3057
X115.1619 Y3.0000 Z0.2998
X115.1615 Y3.0121 Z0.2938
X115.1601 Y3.0241 Z0.2879
X115.1579 Y3.0360 Z0.2819
X115.1547 Y3.0477 Z0.2760
X115.1507 Y3.0592 Z0.2700
X115.1459 Y3.0703 Z0.2641
X115.1402 Y3.0810 Z0.2581
X115.1338 Y3.0912 Z0.2522
X115.1266 Y3.1010 Z0.2462
X115.1187 Y3.1101 Z0.2403
X115.1101 Y3.1187 Z0.2343
X115.1010 Y3.1266 Z0.2284
X115.0912 Y3.1338 Z0.2224
X115.0810 Y3.1402 Z0.2165
X115.0703 Y3.1459 Z0.2105
X115.0592 Y3.1507 Z0.2046
X115.0477 Y3.1547 Z0.1986
X115.0360 Y3.1579 Z0.1926
X115.0241 Y3.1601 Z0.1867
X115.0121 Y3.1615 Z0.1807
X115.0000 Y3.1619 Z0.1748
X114.9879 Y3.1615 Z0.1688
X114.9759 Y3.1601 Z0.1629
X114.9640 Y3.1579 Z0.1569
X114.9523 Y3.1547 Z0.1510
X114.9408 Y3.1507 Z0.1450
X114.9297 Y3.1459 Z0.1391
X114.9190 Y3.1402 Z0.1331
X114.9088 Y3.1338 Z0.1272
X114.8990 Y3.1266 Z0.1212
X114.8899 Y3.1187 Z0.1153
X114.8813 Y3.1101 Z0.1093
X114.8734 Y3.1010 Z0.1034
X114.8662 Y3.0912 Z0.0974
X114.8598 Y3.0810 Z0.0915
X114.8541 Y3.0703 Z0.0855
X114.8493 Y3.0592 Z0.0796
X114.8453 Y3.0477 Z0.0736
X114.8421 Y3.0360 Z0.0677
X114.8399 Y3.0241 Z0.0617
X114.8385 Y3.0121 Z0.0558
X114.8381 Y3.0000 Z0.0498
X114.8385 Y2.9879 Z0.0439
X114.8399 Y2.9759 Z0.0379
X114.8421 Y2.9640 Z0.0320
X114.8453 Y2.9523 Z0.0260
X114.8493 Y2.9408 Z0.0201
X114.8541 Y2.9297 Z0.0141
X114.8598 Y2.9190 Z0.0082
X114.8662 Y2.9088 Z0.0022
X114.8734 Y2.8990 Z-0.0037
X114.8813 Y2.8899 Z-0.0097
X114.8899 Y2.8813 Z-0.0156
X114.8990 Y2.8734 Z-0.0216
X114.9088 Y2.8662 Z-0.0275
X114.9190 Y2.8598 Z-0.0335
X114.9297 Y2.8541 Z-0.0394
X114.9408 Y2.8493 Z-0.0454
X114.9523 Y2.8453 Z-0.0513
X114.9640 Y2.8421 Z-0.0573
X114.9759 Y2.8399 Z-0.0632
X114.9879 Y2.8385 Z-0.0692
X115.0000 Y2.8381 Z-0.0751
X115.0121 Y2.8385 Z-0.0811
X115.0241 Y2.8399 Z-0.0870
X115.0360 Y2.8421 Z-0.0930
X115.0477 Y2.8453 Z-0.0989
X115.0592 Y2.8493 Z-0.1049
X115.0703 Y2.8541 Z-0.1109
X115.0810 Y2.8598 Z-0.1168
X115.0912 Y2.8662 Z-0.1228
X115.1010 Y2.8734 Z-0.1287
X115.1101 Y2.8813 Z-0.1347
X115.1187 Y2.8899 Z-0.1406
X115.1266 Y2.8990 Z-0.1466
X115.1338 Y2.9088 Z-0.1525
X115.1402 Y2.9190 Z-0.1585
X115.1459 Y2.9297 Z-0.1644
X115.1507 Y2.9408 Z-0.1704
X115.1547 Y2.9523 Z-0.1763
X115.1579 Y2.9640 Z-0.1823
X115.1601 Y2.9759 Z-0.1882
X115.1615 Y2.9879 Z-0.1942
X115.1619 Y3.0000 Z-0.2001
X115.1615 Y3.0121 Z-0.2061
X115.1601 Y3.0241 Z-0.2120
X115.1579 Y3.0360 Z-0.2180
X115.1547 Y3.0477 Z-0.2239
X115.1507 Y3.0592 Z-0.2299
X115.1459 Y3.0703 Z-0.2358
X115.1402 Y3.0810 Z-0.2418
X115.1338 Y3.0912 Z-0.2477
X115.1266 Y3.1010 Z-0.2537
X115.1187 Y3.1101 Z-0.2596
X115.1101 Y3.1187 Z-0.2656
X115.1010 Y3.1266 Z-0.2715
X115.0912 Y3.1338 Z-0.2775
X115.0810 Y3.1402 Z-0.2834
X115.0703 Y3.1459 Z-0.2894
X115.0592 Y3.1507 Z-0.2953
X115.0477 Y3.1547 Z-0.3013
X115.0360 Y3.1579 Z-0.3072
X115.0241 Y3.1601 Z-0.3132
X115.0121 Y3.1615 Z-0.3191
X115.0000 Y3.1619 Z-0.3251
X114.9879 Y3.1615 Z-0.3310
X114.9759 Y3.1601 Z-0.3370
X114.9640 Y3.1579 Z-0.3429
X114.9523 Y3.1547 Z-0.3489
X114.9408 Y3.1507 Z-0.3548
X114.9297 Y3.1459 Z-0.3608
X114.9190 Y3.1402 Z-0.3667
X114.9088 Y3.1338 Z-0.3727
X114.8990 Y3.1266 Z-0.3786
X114.8899 Y3.1187 Z-0.3846
X114.8813 Y3.1101 Z-0.3905
X114.8734 Y3.1010 Z-0.3965
X114.8662 Y3.0912 Z-0.4025
X114.8598 Y3.0810 Z-0.4084
X114.8541 Y3.0703 Z-0.4144
X114.8493 Y3.0592 Z-0.4203
X114.8453 Y3.0477 Z-0.4263
X114.8421 Y3.0360 Z-0.4322
X114.8399 Y3.0241 Z-0.4382
X114.8385 Y3.0121 Z-0.4441
X114.8381 Y3.0000 Z-0.4501
X114.8385 Y2.9879 Z-0.4560
X114.8399 Y2.9759 Z-0.4620
X114.8421 Y2.9640 Z-0.4679
X114.8453 Y2.9523 Z-0.4739
X114.8493 Y2.9408 Z-0.4798
X114.8541 Y2.9297 Z-0.4858
X114.8598 Y2.9190 Z-0.4917
X114.8662 Y2.9088 Z-0.4977
X114.8734 Y2.8990 Z-0.5036
X114.8813 Y2.8899 Z-0.5096
X114.8899 Y2.8813 Z-0.5155
X114.8990 Y2.8734 Z-0.5215
X114.9088 Y2.8662 Z-0.5274
X114.9190 Y2.8598 Z-0.5334
X114.9297 Y2.8541 Z-0.5393
X114.9408 Y2.8493 Z-0.5453
X114.9523 Y2.8453 Z-0.5512
X114.9640 Y2.8421 Z-0.5572
X114.9759 Y2.8399 Z-0.5631
X114.9879 Y2.8385 Z-0.5691
X115.0000 Y2.8381 Z-0.5750
X115.0121 Y2.8385 Z-0.5810
X115.0241 Y2.8399 Z-0.5869
X115.0360 Y2.8421 Z-0.5929
X115.0477 Y2.8453 Z-0.5988
X115.0592 Y2.8493 Z-0.6048
X115.0703 Y2.8541 Z-0.6107
X115.0810 Y2.8598 Z-0.6167
X115.0912 Y2.8662 Z-0.6226
X115.1010 Y2.8734 Z-0.6286
X115.1101 Y2.8813 Z-0.6345
X115.1187 Y2.8899 Z-0.6405
X115.1266 Y2.8990 Z-0.6464
X115.1338 Y2.9088 Z-0.6524
X115.1402 Y2.9190 Z-0.6583
X115.1459 Y2.9297 Z-0.6643
X115.1507 Y2.9408 Z-0.6702
X115.1547 Y2.9523 Z-0.6762
X115.1579 Y2.9640 Z-0.6821
X115.1601 Y2.9759 Z-0.6881
X115.1615 Y2.9879 Z-0.6940
X115.1619 Y3.0000 Z-0.7000
G03X114.8381I-0.1619J0.0000
X115.1619I0.1619J0.0000
G01 X114.8689 Y2.9052
X114.8734 Y2.8990 Z-0.7037
X114.8813 Y2.8899 Z-0.7097
X114.8899 Y2.8813 Z-0.7156
X114.8990 Y2.8734 Z-0.7216
X114.9088 Y2.8662 Z-0.7275
X114.9190 Y2.8598 Z-0.7335
X114.9297 Y2.8541 Z-0.7394
X114.9408 Y2.8493 Z-0.7454
X114.9523 Y2.8453 Z-0.7513
X114.9640 Y2.8421 Z-0.7573
X114.9759 Y2.8399 Z-0.7632
X114.9879 Y2.8385 Z-0.7692
X115.0000 Y2.8381 Z-0.7751
X115.0121 Y2.8385 Z-0.7811
X115.0241 Y2.8399 Z-0.7870
X115.0360 Y2.8421 Z-0.7930
X115.0477 Y2.8453 Z-0.7990
X115.0592 Y2.8493 Z-0.8049
X115.0703 Y2.8541 Z-0.8109
X115.0810 Y2.8598 Z-0.8168
X115.0912 Y2.8662 Z-0.8228
X115.1010 Y2.8734 Z-0.8287
X115.1101 Y2.8813 Z-0.8347
X115.1187 Y2.8899 Z-0.8406
X115.1266 Y2.8990 Z-0.8466
X115.1338 Y2.9088 Z-0.8525
X115.1402 Y2.9190 Z-0.8585
X115.1459 Y2.9297 Z-0.8644
X115.1507 Y2.9408 Z-0.8704
X115.1547 Y2.9523 Z-0.8763
X115.1579 Y2.9640 Z-0.8823
X115.1601 Y2.9759 Z-0.8882
X115.1615 Y2.9879 Z-0.8942
X115.1619 Y3.0000 Z-0.9001
X115.1615 Y3.0121 Z-0.9061
X115.1601 Y3.0241 Z-0.9120
X115.1579 Y3.0360 Z-0.9180
X115.1547 Y3.0477 Z-0.9239
X115.1507 Y3.0592 Z-0.9299
X115.1459 Y3.0703 Z-0.9358
X115.1402 Y3.0810 Z-0.9418
X115.1338 Y3.0912 Z-0.9477
X115.1266 Y3.1010 Z-0.9537
X115.1187 Y3.1101 Z-0.9596
X115.1101 Y3.1187 Z-0.9656
X115.1010 Y3.1266 Z-0.9715
X115.0912 Y3.1338 Z-0.9775
X115.0810 Y3.1402 Z-0.9834
X115.0703 Y3.1459 Z-0.9894
X115.0592 Y3.1507 Z-0.9953
X115.0477 Y3.1547 Z-1.0013
X115.0360 Y3.1579 Z-1.0072
X115.0241 Y3.1601 Z-1.0132
X115.0121 Y3.1615 Z-1.0191
X115.0000 Y3.1619 Z-1.0251
X114.9879 Y3.1615 Z-1.0310
X114.9759 Y3.1601 Z-1.0370
X114.9640 Y3.1579 Z-1.0429
X114.9523 Y3.1547 Z-1.0489
X114.9408 Y3.1507 Z-1.0548
X114.9297 Y3.1459 Z-1.0608
X114.9190 Y3.1402 Z-1.0667
X114.9088 Y3.1338 Z-1.0727
X114.8990 Y3.1266 Z-1.0786
X114.8899 Y3.1187 Z-1.0846
X114.8813 Y3.1101 Z-1.0905
X114.8734 Y3.1010 Z-1.0965
X114.8662 Y3.0912 Z-1.1025
X114.8598 Y3.0810 Z-1.1084
X114.8541 Y3.0703 Z-1.1144
X114.8493 Y3.0592 Z-1.1203
X114.8453 Y3.0477 Z-1.1263
X114.8421 Y3.0360 Z-1.1322
X114.8399 Y3.0241 Z-1.1382
X114.8385 Y3.0121 Z-1.1441
X114.8381 Y3.0000 Z-1.1501
X114.8385 Y2.9879 Z-1.1560
X114.8399 Y2.9759 Z-1.1620
X114.8421 Y2.9640 Z-1.1679
X114.8453 Y2.9523 Z-1.1739
X114.8493 Y2.9408 Z-1.1798
X114.8541 Y2.9297 Z-1.1858
X114.8598 Y2.9190 Z-1.1917
X114.8662 Y2.9088 Z-1.1977
X114.8734 Y2.8990 Z-1.2036
X114.8813 Y2.8899 Z-1.2096
X114.8899 Y2.8813 Z-1.2155
X114.8990 Y2.8734 Z-1.2215
X114.9088 Y2.8662 Z-1.2274
X114.9190 Y2.8598 Z-1.2334
X114.9297 Y2.8541 Z-1.2393
X114.9408 Y2.8493 Z-1.2453
X114.9523 Y2.8453 Z-1.2512
X114.9640 Y2.8421 Z-1.2572
X114.9759 Y2.8399 Z-1.2631
X114.9879 Y2.8385 Z-1.2691
X115.0000 Y2.8381 Z-1.2750
X115.0121 Y2.8385 Z-1.2810
X115.0241 Y2.8399 Z-1.2869
X115.0360 Y2.8421 Z-1.2929
X115.0477 Y2.8453 Z-1.2988
X115.0592 Y2.8493 Z-1.3048
X115.0703 Y2.8541 Z-1.3107
X115.0810 Y2.8598 Z-1.3167
X115.0912 Y2.8662 Z-1.3226
X115.1010 Y2.8734 Z-1.3286
X115.1101 Y2.8813 Z-1.3345
X115.1187 Y2.8899 Z-1.3405
X115.1266 Y2.8990 Z-1.3464
X115.1338 Y2.9088 Z-1.3524
X115.1402 Y2.9190 Z-1.3583
X115.1459 Y2.9297 Z-1.3643
X115.1507 Y2.9408 Z-1.3702
X115.1547 Y2.9523 Z-1.3762
X115.1579 Y2.9640 Z-1.3821
X115.1601 Y2.9759 Z-1.3881
X115.1615 Y2.9879 Z-1.3940
X115.1619 Y3.0000 Z-1.4000
G03X114.8381I-0.1619J0.0000
X115.1619I0.1619J0.0000
G01 X114.8689 Y2.9052
X114.8734 Y2.8990 Z-1.4037
X114.8813 Y2.8899 Z-1.4097
X114.8899 Y2.8813 Z-1.4156
X114.8990 Y2.8734 Z-1.4216
X114.9088 Y2.8662 Z-1.4275
X114.9190 Y2.8598 Z-1.4335
X114.9297 Y2.8541 Z-1.4394
X114.9408 Y2.8493 Z-1.4454
X114.9523 Y2.8453 Z-1.4513
X114.9640 Y2.8421 Z-1.4573
X114.9759 Y2.8399 Z-1.4632
X114.9879 Y2.8385 Z-1.4692
X115.0000 Y2.8381 Z-1.4751
X115.0121 Y2.8385 Z-1.4811
X115.0241 Y2.8399 Z-1.4870
X115.0360 Y2.8421 Z-1.4930
X115.0477 Y2.8453 Z-1.4989
X115.0592 Y2.8493 Z-1.5049
X115.0703 Y2.8541 Z-1.5109
X115.0810 Y2.8598 Z-1.5168
X115.0912 Y2.8662 Z-1.5228
X115.1010 Y2.8734 Z-1.5287
X115.1101 Y2.8813 Z-1.5347
X115.1187 Y2.8899 Z-1.5406
X115.1266 Y2.8990 Z-1.5466
X115.1338 Y2.9088 Z-1.5525
X115.1402 Y2.9190 Z-1.5585
X115.1459 Y2.9297 Z-1.5644
X115.1507 Y2.9408 Z-1.5704
X115.1547 Y2.9523 Z-1.5763
X115.1579 Y2.9640 Z-1.5823
X115.1601 Y2.9759 Z-1.5882
X115.1615 Y2.9879 Z-1.5942
X115.1619 Y3.0000 Z-1.6001
X115.1615 Y3.0121 Z-1.6061
X115.1601 Y3.0241 Z-1.6120
X115.1579 Y3.0360 Z-1.6180
X115.1547 Y3.0477 Z-1.6239
X115.1507 Y3.0592 Z-1.6299
X115.1459 Y3.0703 Z-1.6358
X115.1402 Y3.0810 Z-1.6418
X115.1338 Y3.0912 Z-1.6477
X115.1266 Y3.1010 Z-1.6537
X115.1187 Y3.1101 Z-1.6596
X115.1101 Y3.1187 Z-1.6656
X115.1010 Y3.1266 Z-1.6715
X115.0912 Y3.1338 Z-1.6775
X115.0810 Y3.1402 Z-1.6834
X115.0703 Y3.1459 Z-1.6894
X115.0592 Y3.1507 Z-1.6953
X115.0477 Y3.1547 Z-1.7013
X115.0360 Y3.1579 Z-1.7072
X115.0241 Y3.1601 Z-1.7132
X115.0121 Y3.1615 Z-1.7191
X115.0000 Y3.1619 Z-1.7251
X114.9879 Y3.1615 Z-1.7310
X114.9759 Y3.1601 Z-1.7370
X114.9640 Y3.1579 Z-1.7429
X114.9523 Y3.1547 Z-1.7489
X114.9408 Y3.1507 Z-1.7548
X114.9297 Y3.1459 Z-1.7608
X114.9190 Y3.1402 Z-1.7667
X114.9088 Y3.1338 Z-1.7727
X114.8990 Y3.1266 Z-1.7786
X114.8899 Y3.1187 Z-1.7846
X114.8813 Y3.1101 Z-1.7905
X114.8734 Y3.1010 Z-1.7965
X114.8662 Y3.0912 Z-1.8025
X114.8598 Y3.0810 Z-1.8084
X114.8541 Y3.0703 Z-1.8144
X114.8493 Y3.0592 Z-1.8203
X114.8453 Y3.0477 Z-1.8263
X114.8421 Y3.0360 Z-1.8322
X114.8399 Y3.0241 Z-1.8382
X114.8385 Y3.0121 Z-1.8441
X114.8381 Y3.0000 Z-1.8501
X114.8385 Y2.9879 Z-1.8560
X114.8399 Y2.9759 Z-1.8620
X114.8421 Y2.9640 Z-1.8679
X114.8453 Y2.9523 Z-1.8739
X114.8493 Y2.9408 Z-1.8798
X114.8541 Y2.9297 Z-1.8858
X114.8598 Y2.9190 Z-1.8917
X114.8662 Y2.9088 Z-1.8977
X114.8734 Y2.8990 Z-1.9036
X114.8813 Y2.8899 Z-1.9096
X114.8899 Y2.8813 Z-1.9155
X114.8990 Y2.8734 Z-1.9215
X114.9088 Y2.8662 Z-1.9274
X114.9190 Y2.8598 Z-1.9334
X114.9297 Y2.8541 Z-1.9393
X114.9408 Y2.8493 Z-1.9453
X114.9523 Y2.8453 Z-1.9512
X114.9640 Y2.8421 Z-1.9572
X114.9759 Y2.8399 Z-1.9631
X114.9879 Y2.8385 Z-1.9691
X115.0000 Y2.8381 Z-1.9750
X115.0121 Y2.8385 Z-1.9810
X115.0241 Y2.8399 Z-1.9869
X115.0360 Y2.8421 Z-1.9929
X115.0477 Y2.8453 Z-1.9988
X115.0592 Y2.8493 Z-2.0048
X115.0703 Y2.8541 Z-2.0107
X115.0810 Y2.8598 Z-2.0167
X115.0912 Y2.8662 Z-2.0226
X115.1010 Y2.8734 Z-2.0286
X115.1101 Y2.8813 Z-2.0345
X115.1187 Y2.8899 Z-2.0405
X115.1266 Y2.8990 Z-2.0464
X115.1338 Y2.9088 Z-2.0524
X115.1402 Y2.9190 Z-2.0583
X115.1459 Y2.9297 Z-2.0643
X115.1507 Y2.9408 Z-2.0702
X115.1547 Y2.9523 Z-2.0762
X115.1579 Y2.9640 Z-2.0821
X115.1601 Y2.9759 Z-2.0881
X115.1615 Y2.9879 Z-2.0940
X115.1619 Y3.0000 Z-2.1000
G03X114.8381I-0.1619J0.0000
X115.1619I0.1619J0.0000
G01 X114.8689 Y2.9052
X114.8734 Y2.8990 Z-2.1037
X114.8813 Y2.8899 Z-2.1097
X114.8899 Y2.8813 Z-2.1156
X114.8990 Y2.8734 Z-2.1216
X114.9088 Y2.8662 Z-2.1275
X114.9190 Y2.8598 Z-2.1335
X114.9297 Y2.8541 Z-2.1394
X114.9408 Y2.8493 Z-2.1454
X114.9523 Y2.8453 Z-2.1513
X114.9640 Y2.8421 Z-2.1573
X114.9759 Y2.8399 Z-2.1632
X114.9879 Y2.8385 Z-2.1692
X115.0000 Y2.8381 Z-2.1751
X115.0121 Y2.8385 Z-2.1811
X115.0241 Y2.8399 Z-2.1870
X115.0360 Y2.8421 Z-2.1930
X115.0477 Y2.8453 Z-2.1990
X115.0592 Y2.8493 Z-2.2049
X115.0703 Y2.8541 Z-2.2109
X115.0810 Y2.8598 Z-2.2168
X115.0912 Y2.8662 Z-2.2228
X115.1010 Y2.8734 Z-2.2287
X115.1101 Y2.8813 Z-2.2347
X115.1187 Y2.8899 Z-2.2406
X115.1266 Y2.8990 Z-2.2466
X115.1338 Y2.9088 Z-2.2525
X115.1402 Y2.9190 Z-2.2585
X115.1459 Y2.9297 Z-2.2644
X115.1507 Y2.9408 Z-2.2704
X115.1547 Y2.9523 Z-2.2763
X115.1579 Y2.9640 Z-2.2823
X115.1601 Y2.9759 Z-2.2882
X115.1615 Y2.9879 Z-2.2942
X115.1619 Y3.0000 Z-2.3001
X115.1615 Y3.0121 Z-2.3061
X115.1601 Y3.0241 Z-2.3120
X115.1579 Y3.0360 Z-2.3180
X115.1547 Y3.0477 Z-2.3239
X115.1507 Y3.0592 Z-2.3299
X115.1459 Y3.0703 Z-2.3358
X115.1402 Y3.0810 Z-2.3418
X115.1338 Y3.0912 Z-2.3477
X115.1266 Y3.1010 Z-2.3537
X115.1187 Y3.1101 Z-2.3596
X115.1101 Y3.1187 Z-2.3656
X115.1010 Y3.1266 Z-2.3715
X115.0912 Y3.1338 Z-2.3775
X115.0810 Y3.1402 Z-2.3834
X115.0703 Y3.1459 Z-2.3894
X115.0592 Y3.1507 Z-2.3953
X115.0477 Y3.1547 Z-2.4013
X115.0360 Y3.1579 Z-2.4072
X115.0241 Y3.1601 Z-2.4132
X115.0121 Y3.1615 Z-2.4191
X115.0000 Y3.1619 Z-2.4251
X114.9879 Y3.1615 Z-2.4310
X114.9759 Y3.1601 Z-2.4370
X114.9640 Y3.1579 Z-2.4429
X114.9523 Y3.1547 Z-2.4489
X114.9408 Y3.1507 Z-2.4548
X114.9297 Y3.1459 Z-2.4608
X114.9190 Y3.1402 Z-2.4667
X114.9088 Y3.1338 Z-2.4727
X114.8990 Y3.1266 Z-2.4786
X114.8899 Y3.1187 Z-2.4846
X114.8813 Y3.1101 Z-2.4905
X114.8734 Y3.1010 Z-2.4965
X114.8662 Y3.0912 Z-2.5025
X114.8598 Y3.0810 Z-2.5084
X114.8541 Y3.0703 Z-2.5144
X114.8493 Y3.0592 Z-2.5203
X114.8453 Y3.0477 Z-2.5263
X114.8421 Y3.0360 Z-2.5322
X114.8399 Y3.0241 Z-2.5382
X114.8385 Y3.0121 Z-2.5441
X114.8381 Y3.0000 Z-2.5501
X114.8385 Y2.9879 Z-2.5560
X114.8399 Y2.9759 Z-2.5620
X114.8421 Y2.9640 Z-2.5679
X114.8453 Y2.9523 Z-2.5739
X114.8493 Y2.9408 Z-2.5798
X114.8541 Y2.9297 Z-2.5858
X114.8598 Y2.9190 Z-2.5917
X114.8662 Y2.9088 Z-2.5977
X114.8734 Y2.8990 Z-2.6036
X114.8813 Y2.8899 Z-2.6096
X114.8899 Y2.8813 Z-2.6155
X114.8990 Y2.8734 Z-2.6215
X114.9088 Y2.8662 Z-2.6274
X114.9190 Y2.8598 Z-2.6334
X114.9297 Y2.8541 Z-2.6393
X114.9408 Y2.8493 Z-2.6453
X114.9523 Y2.8453 Z-2.6512
X114.9640 Y2.8421 Z-2.6572
X114.9759 Y2.8399 Z-2.6631
X114.9879 Y2.8385 Z-2.6691
X115.0000 Y2.8381 Z-2.6750
X115.0121 Y2.8385 Z-2.6810
X115.0241 Y2.8399 Z-2.6869
X115.0360 Y2.8421 Z-2.6929
X115.0477 Y2.8453 Z-2.6988
X115.0592 Y2.8493 Z-2.7048
X115.0703 Y2.8541 Z-2.7107
X115.0810 Y2.8598 Z-2.7167
X115.0912 Y2.8662 Z-2.7226
X115.1010 Y2.8734 Z-2.7286
X115.1101 Y2.8813 Z-2.7345
X115.1187 Y2.8899 Z-2.7405
X115.1266 Y2.8990 Z-2.7464
X115.1338 Y2.9088 Z-2.7524
X115.1402 Y2.9190 Z-2.7583
X115.1459 Y2.9297 Z-2.7643
X115.1507 Y2.9408 Z-2.7702
X115.1547 Y2.9523 Z-2.7762
X115.1579 Y2.9640 Z-2.7821
X115.1601 Y2.9759 Z-2.7881
X115.1615 Y2.9879 Z-2.7940
X115.1619 Y3.0000 Z-2.8000
G03X114.8381I-0.1619J0.0000
X115.1619I0.1619J0.0000
G01 X114.8689 Y2.9052
X114.8734 Y2.8990 Z-2.8037
X114.8813 Y2.8899 Z-2.8097
X114.8899 Y2.8813 Z-2.8156
X114.8990 Y2.8734 Z-2.8216
X114.9088 Y2.8662 Z-2.8275
X114.9190 Y2.8598 Z-2.8335
X114.9297 Y2.8541 Z-2.8394
X114.9408 Y2.8493 Z-2.8454
X114.9523 Y2.8453 Z-2.8513
X114.9640 Y2.8421 Z-2.8573
X114.9759 Y2.8399 Z-2.8632
X114.9879 Y2.8385 Z-2.8692
X115.0000 Y2.8381 Z-2.8751
X115.0121 Y2.8385 Z-2.8811
X115.0241 Y2.8399 Z-2.8870
X115.0360 Y2.8421 Z-2.8930
X115.0477 Y2.8453 Z-2.8990
X115.0592 Y2.8493 Z-2.9049
X115.0703 Y2.8541 Z-2.9109
X115.0810 Y2.8598 Z-2.9168
X115.0912 Y2.8662 Z-2.9228
X115.1010 Y2.8734 Z-2.9287
X115.1101 Y2.8813 Z-2.9347
X115.1187 Y2.8899 Z-2.9406
X115.1266 Y2.8990 Z-2.9466
X115.1338 Y2.9088 Z-2.9525
X115.1402 Y2.9190 Z-2.9585
X115.1459 Y2.9297 Z-2.9644
X115.1507 Y2.9408 Z-2.9704
X115.1547 Y2.9523 Z-2.9763
X115.1579 Y2.9640 Z-2.9823
X115.1601 Y2.9759 Z-2.9882
X115.1615 Y2.9879 Z-2.9942
X115.1619 Y3.0000 Z-3.0001
X115.1615 Y3.0121 Z-3.0061
X115.1601 Y3.0241 Z-3.0120
X115.1579 Y3.0360 Z-3.0180
X115.1547 Y3.0477 Z-3.0239
X115.1507 Y3.0592 Z-3.0299
X115.1459 Y3.0703 Z-3.0358
X115.1402 Y3.0810 Z-3.0418
X115.1338 Y3.0912 Z-3.0477
X115.1266 Y3.1010 Z-3.0537
X115.1187 Y3.1101 Z-3.0596
X115.1101 Y3.1187 Z-3.0656
X115.1010 Y3.1266 Z-3.0715
X115.0912 Y3.1338 Z-3.0775
X115.0810 Y3.1402 Z-3.0834
X115.0703 Y3.1459 Z-3.0894
X115.0592 Y3.1507 Z-3.0953
X115.0477 Y3.1547 Z-3.1013
X115.0360 Y3.1579 Z-3.1072
X115.0241 Y3.1601 Z-3.1132
X115.0121 Y3.1615 Z-3.1191
X115.0000 Y3.1619 Z-3.1251
X114.9879 Y3.1615 Z-3.1310
X114.9759 Y3.1601 Z-3.1370
X114.9640 Y3.1579 Z-3.1429
X114.9523 Y3.1547 Z-3.1489
X114.9408 Y3.1507 Z-3.1548
X114.9297 Y3.1459 Z-3.1608
X114.9190 Y3.1402 Z-3.1667
X114.9088 Y3.1338 Z-3.1727
X114.8990 Y3.1266 Z-3.1786
X114.8899 Y3.1187 Z-3.1846
X114.8813 Y3.1101 Z-3.1905
X114.8734 Y3.1010 Z-3.1965
X114.8662 Y3.0912 Z-3.2024
X114.8598 Y3.0810 Z-3.2084
X114.8541 Y3.0703 Z-3.2144
X114.8493 Y3.0592 Z-3.2203
X114.8453 Y3.0477 Z-3.2263
X114.8421 Y3.0360 Z-3.2322
X114.8399 Y3.0241 Z-3.2382
X114.8385 Y3.0121 Z-3.2441
X114.8381 Y3.0000 Z-3.2501
X114.8385 Y2.9879 Z-3.2560
X114.8399 Y2.9759 Z-3.2620
X114.8421 Y2.9640 Z-3.2679
X114.8453 Y2.9523 Z-3.2739
X114.8493 Y2.9408 Z-3.2798
X114.8541 Y2.9297 Z-3.2858
X114.8598 Y2.9190 Z-3.2917
X114.8662 Y2.9088 Z-3.2977
X114.8734 Y2.8990 Z-3.3036
X114.8813 Y2.8899 Z-3.3096
X114.8899 Y2.8813 Z-3.3155
X114.8990 Y2.8734 Z-3.3215
X114.9088 Y2.8662 Z-3.3274
X114.9190 Y2.8598 Z-3.3334
X114.9297 Y2.8541 Z-3.3393
X114.9408 Y2.8493 Z-3.3453
X114.9523 Y2.8453 Z-3.3512
X114.9640 Y2.8421 Z-3.3572
X114.9759 Y2.8399 Z-3.3631
X114.9879 Y2.8385 Z-3.3691
X115.0000 Y2.8381 Z-3.3750
X115.0121 Y2.8385 Z-3.3810
X115.0241 Y2.8399 Z-3.3869
X115.0360 Y2.8421 Z-3.3929
X115.0477 Y2.8453 Z-3.3988
X115.0592 Y2.8493 Z-3.4048
X115.0703 Y2.8541 Z-3.4107
X115.0810 Y2.8598 Z-3.4167
X115.0912 Y2.8662 Z-3.4226
X115.1010 Y2.8734 Z-3.4286
X115.1101 Y2.8813 Z-3.4345
X115.1187 Y2.8899 Z-3.4405
X115.1266 Y2.8990 Z-3.4464
X115.1338 Y2.9088 Z-3.4524
X115.1402 Y2.9190 Z-3.4583
X115.1459 Y2.9297 Z-3.4643
X115.1507 Y2.9408 Z-3.4702
X115.1547 Y2.9523 Z-3.4762
X115.1579 Y2.9640 Z-3.4821
X115.1601 Y2.9759 Z-3.4881
X115.1615 Y2.9879 Z-3.4940
X115.1619 Y3.0000 Z-3.5000
G03X114.8381I-0.1619J0.0000
X115.1619I0.1619J0.0000
G01 X115.0000
G00 Z1.5875
X66.9226 Y3.1421
G01 Z0.6350  F250.0
X66.9190 Y3.1402 Z0.6330  F500.0
X66.9088 Y3.1338 Z0.6271
X66.8990 Y3.1266 Z0.6211
X66.8899 Y3.1187 Z0.6152
X66.8813 Y3.1101 Z0.6092
X66.8734 Y3.1010 Z0.6033
X66.8662 Y3.0912 Z0.5973
X66.8598 Y3.0810 Z0.5914
X66.8541 Y3.0703 Z0.5854
X66.8493 Y3.0592 Z0.5795
X66.8453 Y3.0477 Z0.5735
X66.8421 Y3.0360 Z0.5676
X66.8399 Y3.0241 Z0.5616
X66.8385 Y3.0121 Z0.5557
X66.8381 Y3.0000 Z0.5497
X66.8385 Y2.9879 Z0.5438
X66.8399 Y2.9759 Z0.5378
X66.8421 Y2.9640 Z0.5319
X66.8453 Y2.9523 Z0.5259
X66.8493 Y2.9408 Z0.5200
X66.8541 Y2.9297 Z0.5140
X66.8598 Y2.9190 Z0.5081
X66.8662 Y2.9088 Z0.5021
X66.8734 Y2.8990 Z0.4961
X66.8813 Y2.8899 Z0.4902
X66.8899 Y2.8813 Z0.4842
X66.8990 Y2.8734 Z0.4783
X66.9088 Y2.8662 Z0.4723
X66.9190 Y2.8598 Z0.4664
X66.9297 Y2.8541 Z0.4604
X66.9408 Y2.8493 Z0.4545
X66.9523 Y2.8453 Z0.4485
X66.9640 Y2.8421 Z0.4426
X66.9759 Y2.8399 Z0.4366
X66.9879 Y2.8385 Z0.4307
X67.0000 Y2.8381 Z0.4247
X67.0121 Y2.8385 Z0.4188
X67.0241 Y2.8399 Z0.4128
X67.0360 Y2.8421 Z0.4069
X67.0477 Y2.8453 Z0.4009
X67.0592 Y2.8493 Z0.3950
X67.0703 Y2.8541 Z0.3890
X67.0810 Y2.8598 Z0.3831
X67.0912 Y2.8662 Z0.3771
X67.1010 Y2.8734 Z0.3712
X67.1101 Y2.8813 Z0.3652
X67.1187 Y2.8899 Z0.3593
X67.1266 Y2.8990 Z0.3533
X67.1338 Y2.9088 Z0.3474
X67.1402 Y2.9190 Z0.3414
X67.1459 Y2.9297 Z0.3355
X67.1507 Y2.9408 Z0.3295
X67.1547 Y2.9523 Z0.3236
X67.1579 Y2.9640 Z0.3176
X67.1601 Y2.9759 Z0.3117
X67.1615 Y2.9879 Z0.3057
X67.1619 Y3.0000 Z0.2998
X67.1615 Y3.0121 Z0.2938
X67.1601 Y3.0241 Z0.2879
X67.1579 Y3.0360 Z0.2819
X67.1547 Y3.0477 Z0.2760
X67.1507 Y3.0592 Z0.2700
X67.1459 Y3.0703 Z0.2641
X67.1402 Y3.0810 Z0.2581
X67.1338 Y3.0912 Z0.2522
X67.1266 Y3.1010 Z0.2462
X67.1187 Y3.1101 Z0.2403
X67.1101 Y3.1187 Z0.2343
X67.1010 Y3.1266 Z0.2284
X67.0912 Y3.1338 Z0.2224
X67.0810 Y3.1402 Z0.2165
X67.0703 Y3.1459 Z0.2105
X67.0592 Y3.1507 Z0.2046
X67.0477 Y3.1547 Z0.1986
X67.0360 Y3.1579 Z0.1926
X67.0241 Y3.1601 Z0.1867
X67.0121 Y3.1615 Z0.1807
X67.0000 Y3.1619 Z0.1748
X66.9879 Y3.1615 Z0.1688
X66.9759 Y3.1601 Z0.1629
X66.9640 Y3.1579 Z0.1569
X66.9523 Y3.1547 Z0.1510
X66.9408 Y3.1507 Z0.1450
X66.9297 Y3.1459 Z0.1391
X66.9190 Y3.1402 Z0.1331
X66.9088 Y3.1338 Z0.1272
X66.8990 Y3.1266 Z0.1212
X66.8899 Y3.1187 Z0.1153
X66.8813 Y3.1101 Z0.1093
X66.8734 Y3.1010 Z0.1034
X66.8662 Y3.0912 Z0.0974
X66.8598 Y3.0810 Z0.0915
X66.8541 Y3.0703 Z0.0855
X66.8493 Y3.0592 Z0.0796
X66.8453 Y3.0477 Z0.0736
X66.8421 Y3.0360 Z0.0677
X66.8399 Y3.0241 Z0.0617
X66.8385 Y3.0121 Z0.0558
X66.8381 Y3.0000 Z0.0498
X66.8385 Y2.9879 Z0.0439
X66.8399 Y2.9759 Z0.0379
X66.8421 Y2.9640 Z0.0320
X66.8453 Y2.9523 Z0.0260
X66.8493 Y2.9408 Z0.0201
X66.8541 Y2.9297 Z0.0141
X66.8598 Y2.9190 Z0.0082
X66.8662 Y2.9088 Z0.0022
X66.8734 Y2.8990 Z-0.0037
X66.8813 Y2.8899 Z-0.0097
X66.8899 Y2.8813 Z-0.0156
X66.8990 Y2.8734 Z-0.0216
X66.9088 Y2.8662 Z-0.0275
X66.9190 Y2.8598 Z-0.0335
X66.9297 Y2.8541 Z-0.0394
X66.9408 Y2.8493 Z-0.0454
X66.9523 Y2.8453 Z-0.0513
X66.9640 Y2.8421 Z-0.0573
X66.9759 Y2.8399 Z-0.0632
X66.9879 Y2.8385 Z-0.0692
X67.0000 Y2.8381 Z-0.0751
X67.0121 Y2.8385 Z-0.0811
X67.0241 Y2.8399 Z-0.0870
X67.0360 Y2.8421 Z-0.0930
X67.0477 Y2.8453 Z-0.0989
X67.0592 Y2.8493 Z-0.1049
X67.0703 Y2.8541 Z-0.1109
X67.0810 Y2.8598 Z-0.1168
X67.0912 Y2.8662 Z-0.1228
X67.1010 Y2.8734 Z-0.1287
X67.1101 Y2.8813 Z-0.1347
X67.1187 Y2.8899 Z-0.1406
X67.1266 Y2.8990 Z-0.1466
X67.1338 Y2.9088 Z-0.1525
X67.1402 Y2.9190 Z-0.1585
X67.1459 Y2.9297 Z-0.1644
X67.1507 Y2.9408 Z-0.1704
X67.1547 Y2.9523 Z-0.1763
X67.1579 Y2.9640 Z-0.1823
X67.1601 Y2.9759 Z-0.1882
X67.1615 Y2.9879 Z-0.1942
X67.1619 Y3.0000 Z-0.2001
X67.1615 Y3.0121 Z-0.2061
X67.1601 Y3.0241 Z-0.2120
X67.1579 Y3.0360 Z-0.2180
X67.1547 Y3.0477 Z-0.2239
X67.1507 Y3.0592 Z-0.2299
X67.1459 Y3.0703 Z-0.2358
X67.1402 Y3.0810 Z-0.2418
X67.1338 Y3.0912 Z-0.2477
X67.1266 Y3.1010 Z-0.2537
X67.1187 Y3.1101 Z-0.2596
X67.1101 Y3.1187 Z-0.2656
X67.1010 Y3.1266 Z-0.2715
X67.0912 Y3.1338 Z-0.2775
X67.0810 Y3.1402 Z-0.2834
X67.0703 Y3.1459 Z-0.2894
X67.0592 Y3.1507 Z-0.2953
X67.0477 Y3.1547 Z-0.3013
X67.0360 Y3.1579 Z-0.3072
X67.0241 Y3.1601 Z-0.3132
X67.0121 Y3.1615 Z-0.3191
X67.0000 Y3.1619 Z-0.3251
X66.9879 Y3.1615 Z-0.3310
X66.9759 Y3.1601 Z-0.3370
X66.9640 Y3.1579 Z-0.3429
X66.9523 Y3.1547 Z-0.3489
X66.9408 Y3.1507 Z-0.3548
X66.9297 Y3.1459 Z-0.3608
X66.9190 Y3.1402 Z-0.3667
X66.9088 Y3.1338 Z-0.3727
X66.8990 Y3.1266 Z-0.3786
X66.8899 Y3.1187 Z-0.3846
X66.8813 Y3.1101 Z-0.3905
X66.8734 Y3.1010 Z-0.3965
X66.8662 Y3.0912 Z-0.4025
X66.8598 Y3.0810 Z-0.4084
X66.8541 Y3.0703 Z-0.4144
X66.8493 Y3.0592 Z-0.4203
X66.8453 Y3.0477 Z-0.4263
X66.8421 Y3.0360 Z-0.4322
X66.8399 Y3.0241 Z-0.4382
X66.8385 Y3.0121 Z-0.4441
X66.8381 Y3.0000 Z-0.4501
X66.8385 Y2.9879 Z-0.4560
X66.8399 Y2.9759 Z-0.4620
X66.8421 Y2.9640 Z-0.4679
X66.8453 Y2.9523 Z-0.4739
X66.8493 Y2.9408 Z-0.4798
X66.8541 Y2.9297 Z-0.4858
X66.8598 Y2.9190 Z-0.4917
X66.8662 Y2.9088 Z-0.4977
X66.8734 Y2.8990 Z-0.5036
X66.8813 Y2.8899 Z-0.5096
X66.8899 Y2.8813 Z-0.5155
X66.8990 Y2.8734 Z-0.5215
X66.9088 Y2.8662 Z-0.5274
X66.9190 Y2.8598 Z-0.5334
X66.9297 Y2.8541 Z-0.5393
X66.9408 Y2.8493 Z-0.5453
X66.9523 Y2.8453 Z-0.5512
X66.9640 Y2.8421 Z-0.5572
X66.9759 Y2.8399 Z-0.5631
X66.9879 Y2.8385 Z-0.5691
X67.0000 Y2.8381 Z-0.5750
X67.0121 Y2.8385 Z-0.5810
X67.0241 Y2.8399 Z-0.5869
X67.0360 Y2.8421 Z-0.5929
X67.0477 Y2.8453 Z-0.5988
X67.0592 Y2.8493 Z-0.6048
X67.0703 Y2.8541 Z-0.6107
X67.0810 Y2.8598 Z-0.6167
X67.0912 Y2.8662 Z-0.6226
X67.1010 Y2.8734 Z-0.6286
X67.1101 Y2.8813 Z-0.6345
X67.1187 Y2.8899 Z-0.6405
X67.1266 Y2.8990 Z-0.6464
X67.1338 Y2.9088 Z-0.6524
X67.1402 Y2.9190 Z-0.6583
X67.1459 Y2.9297 Z-0.6643
X67.1507 Y2.9408 Z-0.6702
X67.1547 Y2.9523 Z-0.6762
X67.1579 Y2.9640 Z-0.6821
X67.1601 Y2.9759 Z-0.6881
X67.1615 Y2.9879 Z-0.6940
X67.1619 Y3.0000 Z-0.7000
G03X66.8381I-0.1619J0.0000
X67.1619I0.1619J0.0000
G01 X66.8689 Y2.9052
X66.8734 Y2.8990 Z-0.7037
X66.8813 Y2.8899 Z-0.7097
X66.8899 Y2.8813 Z-0.7156
X66.8990 Y2.8734 Z-0.7216
X66.9088 Y2.8662 Z-0.7275
X66.9190 Y2.8598 Z-0.7335
X66.9297 Y2.8541 Z-0.7394
X66.9408 Y2.8493 Z-0.7454
X66.9523 Y2.8453 Z-0.7513
X66.9640 Y2.8421 Z-0.7573
X66.9759 Y2.8399 Z-0.7632
X66.9879 Y2.8385 Z-0.7692
X67.0000 Y2.8381 Z-0.7751
X67.0121 Y2.8385 Z-0.7811
X67.0241 Y2.8399 Z-0.7870
X67.0360 Y2.8421 Z-0.7930
X67.0477 Y2.8453 Z-0.7990
X67.0592 Y2.8493 Z-0.8049
X67.0703 Y2.8541 Z-0.8109
X67.0810 Y2.8598 Z-0.8168
X67.0912 Y2.8662 Z-0.8228
X67.1010 Y2.8734 Z-0.8287
X67.1101 Y2.8813 Z-0.8347
X67.1187 Y2.8899 Z-0.8406
X67.1266 Y2.8990 Z-0.8466
X67.1338 Y2.9088 Z-0.8525
X67.1402 Y2.9190 Z-0.8585
X67.1459 Y2.9297 Z-0.8644
X67.1507 Y2.9408 Z-0.8704
X67.1547 Y2.9523 Z-0.8763
X67.1579 Y2.9640 Z-0.8823
X67.1601 Y2.9759 Z-0.8882
X67.1615 Y2.9879 Z-0.8942
X67.1619 Y3.0000 Z-0.9001
X67.1615 Y3.0121 Z-0.9061
X67.1601 Y3.0241 Z-0.9120
X67.1579 Y3.0360 Z-0.9180
X67.1547 Y3.0477 Z-0.9239
X67.1507 Y3.0592 Z-0.9299
X67.1459 Y3.0703 Z-0.9358
X67.1402 Y3.0810 Z-0.9418
X67.1338 Y3.0912 Z-0.9477
X67.1266 Y3.1010 Z-0.9537
X67.1187 Y3.1101 Z-0.9596
X67.1101 Y3.1187 Z-0.9656
X67.1010 Y3.1266 Z-0.9715
X67.0912 Y3.1338 Z-0.9775
X67.0810 Y3.1402 Z-0.9834
X67.0703 Y3.1459 Z-0.9894
X67.0592 Y3.1507 Z-0.9953
X67.0477 Y3.1547 Z-1.0013
X67.0360 Y3.1579 Z-1.0072
X67.0241 Y3.1601 Z-1.0132
X67.0121 Y3.1615 Z-1.0191
X67.0000 Y3.1619 Z-1.0251
X66.9879 Y3.1615 Z-1.0310
X66.9759 Y3.1601 Z-1.0370
X66.9640 Y3.1579 Z-1.0429
X66.9523 Y3.1547 Z-1.0489
X66.9408 Y3.1507 Z-1.0548
X66.9297 Y3.1459 Z-1.0608
X66.9190 Y3.1402 Z-1.0667
X66.9088 Y3.1338 Z-1.0727
X66.8990 Y3.1266 Z-1.0786
X66.8899 Y3.1187 Z-1.0846
X66.8813 Y3.1101 Z-1.0905
X66.8734 Y3.1010 Z-1.0965
X66.8662 Y3.0912 Z-1.1025
X66.8598 Y3.0810 Z-1.1084
X66.8541 Y3.0703 Z-1.1144
X66.8493 Y3.0592 Z-1.1203
X66.8453 Y3.0477 Z-1.1263
X66.8421 Y3.0360 Z-1.1322
X66.8399 Y3.0241 Z-1.1382
X66.8385 Y3.0121 Z-1.1441
X66.8381 Y3.0000 Z-1.1501
X66.8385 Y2.9879 Z-1.1560
X66.8399 Y2.9759 Z-1.1620
X66.8421 Y2.9640 Z-1.1679
X66.8453 Y2.9523 Z-1.1739
X66.8493 Y2.9408 Z-1.1798
X66.8541 Y2.9297 Z-1.1858
X66.8598 Y2.9190 Z-1.1917
X66.8662 Y2.9088 Z-1.1977
X66.8734 Y2.8990 Z-1.2036
X66.8813 Y2.8899 Z-1.2096
X66.8899 Y2.8813 Z-1.2155
X66.8990 Y2.8734 Z-1.2215
X66.9088 Y2.8662 Z-1.2274
X66.9190 Y2.8598 Z-1.2334
X66.9297 Y2.8541 Z-1.2393
X66.9408 Y2.8493 Z-1.2453
X66.9523 Y2.8453 Z-1.2512
X66.9640 Y2.8421 Z-1.2572
X66.9759 Y2.8399 Z-1.2631
X66.9879 Y2.8385 Z-1.2691
X67.0000 Y2.8381 Z-1.2750
X67.0121 Y2.8385 Z-1.2810
X67.0241 Y2.8399 Z-1.2869
X67.0360 Y2.8421 Z-1.2929
X67.0477 Y2.8453 Z-1.2988
X67.0592 Y2.8493 Z-1.3048
X67.0703 Y2.8541 Z-1.3107
X67.0810 Y2.8598 Z-1.3167
X67.0912 Y2.8662 Z-1.3226
X67.1010 Y2.8734 Z-1.3286
X67.1101 Y2.8813 Z-1.3345
X67.1187 Y2.8899 Z-1.3405
X67.1266 Y2.8990 Z-1.3464
X67.1338 Y2.9088 Z-1.3524
X67.1402 Y2.9190 Z-1.3583
X67.1459 Y2.9297 Z-1.3643
X67.1507 Y2.9408 Z-1.3702
X67.1547 Y2.9523 Z-1.3762
X67.1579 Y2.9640 Z-1.3821
X67.1601 Y2.9759 Z-1.3881
X67.1615 Y2.9879 Z-1.3940
X67.1619 Y3.0000 Z-1.4000
G03X66.8381I-0.1619J0.0000
X67.1619I0.1619J0.0000
G01 X66.8689 Y2.9052
X66.8734 Y2.8990 Z-1.4037
X66.8813 Y2.8899 Z-1.4097
X66.8899 Y2.8813 Z-1.4156
X66.8990 Y2.8734 Z-1.4216
X66.9088 Y2.8662 Z-1.4275
X66.9190 Y2.8598 Z-1.4335
X66.9297 Y2.8541 Z-1.4394
X66.9408 Y2.8493 Z-1.4454
X66.9523 Y2.8453 Z-1.4513
X66.9640 Y2.8421 Z-1.4573
X66.9759 Y2.8399 Z-1.4632
X66.9879 Y2.8385 Z-1.4692
X67.0000 Y2.8381 Z-1.4751
X67.0121 Y2.8385 Z-1.4811
X67.0241 Y2.8399 Z-1.4870
X67.0360 Y2.8421 Z-1.4930
X67.0477 Y2.8453 Z-1.4989
X67.0592 Y2.8493 Z-1.5049
X67.0703 Y2.8541 Z-1.5109
X67.0810 Y2.8598 Z-1.5168
X67.0912 Y2.8662 Z-1.5228
X67.1010 Y2.8734 Z-1.5287
X67.1101 Y2.8813 Z-1.5347
X67.1187 Y2.8899 Z-1.5406
X67.1266 Y2.8990 Z-1.5466
X67.1338 Y2.9088 Z-1.5525
X67.1402 Y2.9190 Z-1.5585
X67.1459 Y2.9297 Z-1.5644
X67.1507 Y2.9408 Z-1.5704
X67.1547 Y2.9523 Z-1.5763
X67.1579 Y2.9640 Z-1.5823
X67.1601 Y2.9759 Z-1.5882
X67.1615 Y2.9879 Z-1.5942
X67.1619 Y3.0000 Z-1.6001
X67.1615 Y3.0121 Z-1.6061
X67.1601 Y3.0241 Z-1.6120
X67.1579 Y3.0360 Z-1.6180
X67.1547 Y3.0477 Z-1.6239
X67.1507 Y3.0592 Z-1.6299
X67.1459 Y3.0703 Z-1.6358
X67.1402 Y3.0810 Z-1.6418
X67.1338 Y3.0912 Z-1.6477
X67.1266 Y3.1010 Z-1.6537
X67.1187 Y3.1101 Z-1.6596
X67.1101 Y3.1187 Z-1.6656
X67.1010 Y3.1266 Z-1.6715
X67.0912 Y3.1338 Z-1.6775
X67.0810 Y3.1402 Z-1.6834
X67.0703 Y3.1459 Z-1.6894
X67.0592 Y3.1507 Z-1.6953
X67.0477 Y3.1547 Z-1.7013
X67.0360 Y3.1579 Z-1.7072
X67.0241 Y3.1601 Z-1.7132
X67.0121 Y3.1615 Z-1.7191
X67.0000 Y3.1619 Z-1.7251
X66.9879 Y3.1615 Z-1.7310
X66.9759 Y3.1601 Z-1.7370
X66.9640 Y3.1579 Z-1.7429
X66.9523 Y3.1547 Z-1.7489
X66.9408 Y3.1507 Z-1.7548
X66.9297 Y3.1459 Z-1.7608
X66.9190 Y3.1402 Z-1.7667
X66.9088 Y3.1338 Z-1.7727
X66.8990 Y3.1266 Z-1.7786
X66.8899 Y3.1187 Z-1.7846
X66.8813 Y3.1101 Z-1.7905
X66.8734 Y3.1010 Z-1.7965
X66.8662 Y3.0912 Z-1.8025
X66.8598 Y3.0810 Z-1.8084
X66.8541 Y3.0703 Z-1.8144
X66.8493 Y3.0592 Z-1.8203
X66.8453 Y3.0477 Z-1.8263
X66.8421 Y3.0360 Z-1.8322
X66.8399 Y3.0241 Z-1.8382
X66.8385 Y3.0121 Z-1.8441
X66.8381 Y3.0000 Z-1.8501
X66.8385 Y2.9879 Z-1.8560
X66.8399 Y2.9759 Z-1.8620
X66.8421 Y2.9640 Z-1.8679
X66.8453 Y2.9523 Z-1.8739
X66.8493 Y2.9408 Z-1.8798
X66.8541 Y2.9297 Z-1.8858
X66.8598 Y2.9190 Z-1.8917
X66.8662 Y2.9088 Z-1.8977
X66.8734 Y2.8990 Z-1.9036
X66.8813 Y2.8899 Z-1.9096
X66.8899 Y2.8813 Z-1.9155
X66.8990 Y2.8734 Z-1.9215
X66.9088 Y2.8662 Z-1.9274
X66.9190 Y2.8598 Z-1.9334
X66.9297 Y2.8541 Z-1.9393
X66.9408 Y2.8493 Z-1.9453
X66.9523 Y2.8453 Z-1.9512
X66.9640 Y2.8421 Z-1.9572
X66.9759 Y2.8399 Z-1.9631
X66.9879 Y2.8385 Z-1.9691
X67.0000 Y2.8381 Z-1.9750
X67.0121 Y2.8385 Z-1.9810
X67.0241 Y2.8399 Z-1.9869
X67.0360 Y2.8421 Z-1.9929
X67.0477 Y2.8453 Z-1.9988
X67.0592 Y2.8493 Z-2.0048
X67.0703 Y2.8541 Z-2.0107
X67.0810 Y2.8598 Z-2.0167
X67.0912 Y2.8662 Z-2.0226
X67.1010 Y2.8734 Z-2.0286
X67.1101 Y2.8813 Z-2.0345
X67.1187 Y2.8899 Z-2.0405
X67.1266 Y2.8990 Z-2.0464
X67.1338 Y2.9088 Z-2.0524
X67.1402 Y2.9190 Z-2.0583
X67.1459 Y2.9297 Z-2.0643
X67.1507 Y2.9408 Z-2.0702
X67.1547 Y2.9523 Z-2.0762
X67.1579 Y2.9640 Z-2.0821
X67.1601 Y2.9759 Z-2.0881
X67.1615 Y2.9879 Z-2.0940
X67.1619 Y3.0000 Z-2.1000
G03X66.8381I-0.1619J0.0000
X67.1619I0.1619J0.0000
G01 X66.8689 Y2.9052
X66.8734 Y2.8990 Z-2.1037
X66.8813 Y2.8899 Z-2.1097
X66.8899 Y2.8813 Z-2.1156
X66.8990 Y2.8734 Z-2.1216
X66.9088 Y2.8662 Z-2.1275
X66.9190 Y2.8598 Z-2.1335
X66.9297 Y2.8541 Z-2.1394
X66.9408 Y2.8493 Z-2.1454
X66.9523 Y2.8453 Z-2.1513
X66.9640 Y2.8421 Z-2.1573
X66.9759 Y2.8399 Z-2.1632
X66.9879 Y2.8385 Z-2.1692
X67.0000 Y2.8381 Z-2.1751
X67.0121 Y2.8385 Z-2.1811
X67.0241 Y2.8399 Z-2.1870
X67.0360 Y2.8421 Z-2.1930
X67.0477 Y2.8453 Z-2.1990
X67.0592 Y2.8493 Z-2.2049
X67.0703 Y2.8541 Z-2.2109
X67.0810 Y2.8598 Z-2.2168
X67.0912 Y2.8662 Z-2.2228
X67.1010 Y2.8734 Z-2.2287
X67.1101 Y2.8813 Z-2.2347
X67.1187 Y2.8899 Z-2.2406
X67.1266 Y2.8990 Z-2.2466
X67.1338 Y2.9088 Z-2.2525
X67.1402 Y2.9190 Z-2.2585
X67.1459 Y2.9297 Z-2.2644
X67.1507 Y2.9408 Z-2.2704
X67.1547 Y2.9523 Z-2.2763
X67.1579 Y2.9640 Z-2.2823
X67.1601 Y2.9759 Z-2.2882
X67.1615 Y2.9879 Z-2.2942
X67.1619 Y3.0000 Z-2.3001
X67.1615 Y3.0121 Z-2.3061
X67.1601 Y3.0241 Z-2.3120
X67.1579 Y3.0360 Z-2.3180
X67.1547 Y3.0477 Z-2.3239
X67.1507 Y3.0592 Z-2.3299
X67.1459 Y3.0703 Z-2.3358
X67.1402 Y3.0810 Z-2.3418
X67.1338 Y3.0912 Z-2.3477
X67.1266 Y3.1010 Z-2.3537
X67.1187 Y3.1101 Z-2.3596
X67.1101 Y3.1187 Z-2.3656
X67.1010 Y3.1266 Z-2.3715
X67.0912 Y3.1338 Z-2.3775
X67.0810 Y3.1402 Z-2.3834
X67.0703 Y3.1459 Z-2.3894
X67.0592 Y3.1507 Z-2.3953
X67.0477 Y3.1547 Z-2.4013
X67.0360 Y3.1579 Z-2.4072
X67.0241 Y3.1601 Z-2.4132
X67.0121 Y3.1615 Z-2.4191
X67.0000 Y3.1619 Z-2.4251
X66.9879 Y3.1615 Z-2.4310
X66.9759 Y3.1601 Z-2.4370
X66.9640 Y3.1579 Z-2.4429
X66.9523 Y3.1547 Z-2.4489
X66.9408 Y3.1507 Z-2.4548
X66.9297 Y3.1459 Z-2.4608
X66.9190 Y3.1402 Z-2.4667
X66.9088 Y3.1338 Z-2.4727
X66.8990 Y3.1266 Z-2.4786
X66.8899 Y3.1187 Z-2.4846
X66.8813 Y3.1101 Z-2.4905
X66.8734 Y3.1010 Z-2.4965
X66.8662 Y3.0912 Z-2.5025
X66.8598 Y3.0810 Z-2.5084
X66.8541 Y3.0703 Z-2.5144
X66.8493 Y3.0592 Z-2.5203
X66.8453 Y3.0477 Z-2.5263
X66.8421 Y3.0360 Z-2.5322
X66.8399 Y3.0241 Z-2.5382
X66.8385 Y3.0121 Z-2.5441
X66.8381 Y3.0000 Z-2.5501
X66.8385 Y2.9879 Z-2.5560
X66.8399 Y2.9759 Z-2.5620
X66.8421 Y2.9640 Z-2.5679
X66.8453 Y2.9523 Z-2.5739
X66.8493 Y2.9408 Z-2.5798
X66.8541 Y2.9297 Z-2.5858
X66.8598 Y2.9190 Z-2.5917
X66.8662 Y2.9088 Z-2.5977
X66.8734 Y2.8990 Z-2.6036
X66.8813 Y2.8899 Z-2.6096
X66.8899 Y2.8813 Z-2.6155
X66.8990 Y2.8734 Z-2.6215
X66.9088 Y2.8662 Z-2.6274
X66.9190 Y2.8598 Z-2.6334
X66.9297 Y2.8541 Z-2.6393
X66.9408 Y2.8493 Z-2.6453
X66.9523 Y2.8453 Z-2.6512
X66.9640 Y2.8421 Z-2.6572
X66.9759 Y2.8399 Z-2.6631
X66.9879 Y2.8385 Z-2.6691
X67.0000 Y2.8381 Z-2.6750
X67.0121 Y2.8385 Z-2.6810
X67.0241 Y2.8399 Z-2.6869
X67.0360 Y2.8421 Z-2.6929
X67.0477 Y2.8453 Z-2.6988
X67.0592 Y2.8493 Z-2.7048
X67.0703 Y2.8541 Z-2.7107
X67.0810 Y2.8598 Z-2.7167
X67.0912 Y2.8662 Z-2.7226
X67.1010 Y2.8734 Z-2.7286
X67.1101 Y2.8813 Z-2.7345
X67.1187 Y2.8899 Z-2.7405
X67.1266 Y2.8990 Z-2.7464
X67.1338 Y2.9088 Z-2.7524
X67.1402 Y2.9190 Z-2.7583
X67.1459 Y2.9297 Z-2.7643
X67.1507 Y2.9408 Z-2.7702
X67.1547 Y2.9523 Z-2.7762
X67.1579 Y2.9640 Z-2.7821
X67.1601 Y2.9759 Z-2.7881
X67.1615 Y2.9879 Z-2.7940
X67.1619 Y3.0000 Z-2.8000
G03X66.8381I-0.1619J0.0000
X67.1619I0.1619J0.0000
G01 X66.8689 Y2.9052
X66.8734 Y2.8990 Z-2.8037
X66.8813 Y2.8899 Z-2.8097
X66.8899 Y2.8813 Z-2.8156
X66.8990 Y2.8734 Z-2.8216
X66.9088 Y2.8662 Z-2.8275
X66.9190 Y2.8598 Z-2.8335
X66.9297 Y2.8541 Z-2.8394
X66.9408 Y2.8493 Z-2.8454
X66.9523 Y2.8453 Z-2.8513
X66.9640 Y2.8421 Z-2.8573
X66.9759 Y2.8399 Z-2.8632
X66.9879 Y2.8385 Z-2.8692
X67.0000 Y2.8381 Z-2.8751
X67.0121 Y2.8385 Z-2.8811
X67.0241 Y2.8399 Z-2.8870
X67.0360 Y2.8421 Z-2.8930
X67.0477 Y2.8453 Z-2.8990
X67.0592 Y2.8493 Z-2.9049
X67.0703 Y2.8541 Z-2.9109
X67.0810 Y2.8598 Z-2.9168
X67.0912 Y2.8662 Z-2.9228
X67.1010 Y2.8734 Z-2.9287
X67.1101 Y2.8813 Z-2.9347
X67.1187 Y2.8899 Z-2.9406
X67.1266 Y2.8990 Z-2.9466
X67.1338 Y2.9088 Z-2.9525
X67.1402 Y2.9190 Z-2.9585
X67.1459 Y2.9297 Z-2.9644
X67.1507 Y2.9408 Z-2.9704
X67.1547 Y2.9523 Z-2.9763
X67.1579 Y2.9640 Z-2.9823
X67.1601 Y2.9759 Z-2.9882
X67.1615 Y2.9879 Z-2.9942
X67.1619 Y3.0000 Z-3.0001
X67.1615 Y3.0121 Z-3.0061
X67.1601 Y3.0241 Z-3.0120
X67.1579 Y3.0360 Z-3.0180
X67.1547 Y3.0477 Z-3.0239
X67.1507 Y3.0592 Z-3.0299
X67.1459 Y3.0703 Z-3.0358
X67.1402 Y3.0810 Z-3.0418
X67.1338 Y3.0912 Z-3.0477
X67.1266 Y3.1010 Z-3.0537
X67.1187 Y3.1101 Z-3.0596
X67.1101 Y3.1187 Z-3.0656
X67.1010 Y3.1266 Z-3.0715
X67.0912 Y3.1338 Z-3.0775
X67.0810 Y3.1402 Z-3.0834
X67.0703 Y3.1459 Z-3.0894
X67.0592 Y3.1507 Z-3.0953
X67.0477 Y3.1547 Z-3.1013
X67.0360 Y3.1579 Z-3.1072
X67.0241 Y3.1601 Z-3.1132
X67.0121 Y3.1615 Z-3.1191
X67.0000 Y3.1619 Z-3.1251
X66.9879 Y3.1615 Z-3.1310
X66.9759 Y3.1601 Z-3.1370
X66.9640 Y3.1579 Z-3.1429
X66.9523 Y3.1547 Z-3.1489
X66.9408 Y3.1507 Z-3.1548
X66.9297 Y3.1459 Z-3.1608
X66.9190 Y3.1402 Z-3.1667
X66.9088 Y3.1338 Z-3.1727
X66.8990 Y3.1266 Z-3.1786
X66.8899 Y3.1187 Z-3.1846
X66.8813 Y3.1101 Z-3.1905
X66.8734 Y3.1010 Z-3.1965
X66.8662 Y3.0912 Z-3.2024
X66.8598 Y3.0810 Z-3.2084
X66.8541 Y3.0703 Z-3.2144
X66.8493 Y3.0592 Z-3.2203
X66.8453 Y3.0477 Z-3.2263
X66.8421 Y3.0360 Z-3.2322
X66.8399 Y3.0241 Z-3.2382
X66.8385 Y3.0121 Z-3.2441
X66.8381 Y3.0000 Z-3.2501
X66.8385 Y2.9879 Z-3.2560
X66.8399 Y2.9759 Z-3.2620
X66.8421 Y2.9640 Z-3.2679
X66.8453 Y2.9523 Z-3.2739
X66.8493 Y2.9408 Z-3.2798
X66.8541 Y2.9297 Z-3.2858
X66.8598 Y2.9190 Z-3.2917
X66.8662 Y2.9088 Z-3.2977
X66.8734 Y2.8990 Z-3.3036
X66.8813 Y2.8899 Z-3.3096
X66.8899 Y2.8813 Z-3.3155
X66.8990 Y2.8734 Z-3.3215
X66.9088 Y2.8662 Z-3.3274
X66.9190 Y2.8598 Z-3.3334
X66.9297 Y2.8541 Z-3.3393
X66.9408 Y2.8493 Z-3.3453
X66.9523 Y2.8453 Z-3.3512
X66.9640 Y2.8421 Z-3.3572
X66.9759 Y2.8399 Z-3.3631
X66.9879 Y2.8385 Z-3.3691
X67.0000 Y2.8381 Z-3.3750
X67.0121 Y2.8385 Z-3.3810
X67.0241 Y2.8399 Z-3.3869
X67.0360 Y2.8421 Z-3.3929
X67.0477 Y2.8453 Z-3.3988
X67.0592 Y2.8493 Z-3.4048
X67.0703 Y2.8541 Z-3.4107
X67.0810 Y2.8598 Z-3.4167
X67.0912 Y2.8662 Z-3.4226
X67.1010 Y2.8734 Z-3.4286
X67.1101 Y2.8813 Z-3.4345
X67.1187 Y2.8899 Z-3.4405
X67.1266 Y2.8990 Z-3.4464
X67.1338 Y2.9088 Z-3.4524
X67.1402 Y2.9190 Z-3.4583
X67.1459 Y2.9297 Z-3.4643
X67.1507 Y2.9408 Z-3.4702
X67.1547 Y2.9523 Z-3.4762
X67.1579 Y2.9640 Z-3.4821
X67.1601 Y2.9759 Z-3.4881
X67.1615 Y2.9879 Z-3.4940
X67.1619 Y3.0000 Z-3.5000
G03X66.8381I-0.1619J0.0000
X67.1619I0.1619J0.0000
G01 X67.0000
G00 Z1.5875
X82.9226 Y3.1421
G01 Z0.6350  F250.0
X82.9190 Y3.1402 Z0.6330  F500.0
X82.9088 Y3.1338 Z0.6271
X82.8990 Y3.1266 Z0.6211
X82.8899 Y3.1187 Z0.6152
X82.8813 Y3.1101 Z0.6092
X82.8734 Y3.1010 Z0.6033
X82.8662 Y3.0912 Z0.5973
X82.8598 Y3.0810 Z0.5914
X82.8541 Y3.0703 Z0.5854
X82.8493 Y3.0592 Z0.5795
X82.8453 Y3.0477 Z0.5735
X82.8421 Y3.0360 Z0.5676
X82.8399 Y3.0241 Z0.5616
X82.8385 Y3.0121 Z0.5557
X82.8381 Y3.0000 Z0.5497
X82.8385 Y2.9879 Z0.5438
X82.8399 Y2.9759 Z0.5378
X82.8421 Y2.9640 Z0.5319
X82.8453 Y2.9523 Z0.5259
X82.8493 Y2.9408 Z0.5200
X82.8541 Y2.9297 Z0.5140
X82.8598 Y2.9190 Z0.5081
X82.8662 Y2.9088 Z0.5021
X82.8734 Y2.8990 Z0.4961
X82.8813 Y2.8899 Z0.4902
X82.8899 Y2.8813 Z0.4842
X82.8990 Y2.8734 Z0.4783
X82.9088 Y2.8662 Z0.4723
X82.9190 Y2.8598 Z0.4664
X82.9297 Y2.8541 Z0.4604
X82.9408 Y2.8493 Z0.4545
X82.9523 Y2.8453 Z0.4485
X82.9640 Y2.8421 Z0.4426
X82.9759 Y2.8399 Z0.4366
X82.9879 Y2.8385 Z0.4307
X83.0000 Y2.8381 Z0.4247
X83.0121 Y2.8385 Z0.4188
X83.0241 Y2.8399 Z0.4128
X83.0360 Y2.8421 Z0.4069
X83.0477 Y2.8453 Z0.4009
X83.0592 Y2.8493 Z0.3950
X83.0703 Y2.8541 Z0.3890
X83.0810 Y2.8598 Z0.3831
X83.0912 Y2.8662 Z0.3771
X83.1010 Y2.8734 Z0.3712
X83.1101 Y2.8813 Z0.3652
X83.1187 Y2.8899 Z0.3593
X83.1266 Y2.8990 Z0.3533
X83.1338 Y2.9088 Z0.3474
X83.1402 Y2.9190 Z0.3414
