(GCode to score and cut a bellows.  Generated: 17/01/2009 10:34:05 AM)
G80 G17 G21 G40 G49 G50 G90 G90.1
(Step 1 - Generate template to align the bellows when it is flipped)
(         Install a sacrificial board to mark the template on)
(         Insert the knife tool to mark the registration lines)
G0 Z5
M0
F2500
G0 Z5
G0 X0.75 Y15
G1 Z0
G1 X148.75 Y15
G0 Z5
G0 X0.75 Y45
G1 Z0
G1 X148.75 Y45
G0 Z5
G0 X0.75 Y75
G1 Z0
G1 X148.75 Y75
G0 Z5
G0 X38.410222204234 Y-0.981814845024784
G1 Z0
G03 X39.8413476347223 Y-1.43112543048833 R0.75
G1 X45.2246552927318 Y15.7155627152442
G03 X44.7753447072682 Y15.7155627152442 R0.75
G1 X40.0660029274541 Y30.7155627152442
G02 X40.5153135129176 Y30.7155627152442 R0.75
G1 X45.2246552927318 Y45.7155627152442
G03 X44.7753447072682 Y45.7155627152442 R0.75
G1 X40.0660029274541 Y60.7155627152442
G02 X40.5153135129176 Y60.7155627152442 R0.75
G1 X45.2246552927318 Y75.7155627152442
G03 X44.7753447072682 Y75.7155627152442 R0.75
G1 X40.0660029274541 Y90.7155627152442
G0 Z5
G0 X107.484686487082 Y0.715562715244165
G1 Z0
G1 X102.775344707268 Y15.7155627152442
G02 X103.224655292732 Y15.7155627152442 R0.75
G1 X107.933997072546 Y30.7155627152442
G03 X107.484686487082 Y30.7155627152442 R0.75
G1 X102.775344707268 Y45.7155627152442
G02 X103.224655292732 Y45.7155627152442 R0.75
G1 X107.933997072546 Y60.7155627152442
G03 X107.484686487082 Y60.7155627152442 R0.75
G1 X102.775344707268 Y75.7155627152442
G02 X103.224655292732 Y75.7155627152442 R0.75
G1 X107.933997072546 Y90.7155627152442
G0 Z5
G0 X-1.5 Y-1.5
G1 Z0
G03 X0 Y-1.5 R0.75
G1 X0 Y420.75
G0 Z5
G0 X149.5 Y421.5
G1 Z0
G03 X148 Y421.5 R0.75
G1 X148 Y-0.75
G03 X147.25 Y0 R0.75
G1 X-0.75 Y0
(Step 2 - Install bellows sheet)
G0 Z5
M0
(Lines)
F2500
G0 Z5
G0 X-1.5 Y16.5
G1 Z0
G03 X-1.5 Y15 R0.75
G1 X148.75 Y15
G0 Z5
G0 X17.0210187850479 Y30
G1 Z0
G1 X41.0406582201859 Y30
G0 Z5
G0 X108.459341779814 Y30
G1 Z0
G1 X132.478981214952 Y30
G0 Z5
G0 X0.75 Y45
G1 Z0
G1 X148.75 Y45
G0 Z5
G0 X17.0210187850479 Y60
G1 Z0
G1 X41.0406582201859 Y60
G0 Z5
G0 X108.459341779814 Y60
G1 Z0
G1 X132.478981214952 Y60
G0 Z5
G0 X0.75 Y75
G1 Z0
G1 X148.75 Y75
G0 Z5
G0 X17.0210187850479 Y90
G1 Z0
G1 X41.0406582201859 Y90
G0 Z5
G0 X108.459341779814 Y90
G1 Z0
G1 X132.478981214952 Y90
G0 Z5
G0 X0.75 Y105
G1 Z0
G1 X148.75 Y105
G0 Z5
G0 X17.0210187850479 Y120
G1 Z0
G1 X41.0406582201859 Y120
G0 Z5
G0 X108.459341779814 Y120
G1 Z0
G1 X132.478981214952 Y120
G0 Z5
G0 X0.75 Y135
G1 Z0
G1 X148.75 Y135
G0 Z5
G0 X17.0210187850479 Y150
G1 Z0
G1 X41.0406582201859 Y150
G0 Z5
G0 X108.459341779814 Y150
G1 Z0
G1 X132.478981214952 Y150
G0 Z5
G0 X0.75 Y165
G1 Z0
G1 X148.75 Y165
G0 Z5
G0 X17.0210187850479 Y180
G1 Z0
G1 X41.0406582201859 Y180
G0 Z5
G0 X108.459341779814 Y180
G1 Z0
G1 X132.478981214952 Y180
G0 Z5
G0 X0.75 Y195
G1 Z0
G1 X148.75 Y195
G0 Z5
G0 X17.0210187850479 Y210
G1 Z0
G1 X41.0406582201859 Y210
G0 Z5
G0 X108.459341779814 Y210
G1 Z0
G1 X132.478981214952 Y210
G0 Z5
G0 X0.75 Y225
G1 Z0
G1 X148.75 Y225
G0 Z5
G0 X17.0210187850479 Y240
G1 Z0
G1 X41.0406582201859 Y240
G0 Z5
G0 X108.459341779814 Y240
G1 Z0
G1 X132.478981214952 Y240
G0 Z5
G0 X0.75 Y255
G1 Z0
G1 X148.75 Y255
G0 Z5
G0 X17.0210187850479 Y270
G1 Z0
G1 X41.0406582201859 Y270
G0 Z5
G0 X108.459341779814 Y270
G1 Z0
G1 X132.478981214952 Y270
G0 Z5
G0 X0.75 Y285
G1 Z0
G1 X148.75 Y285
G0 Z5
G0 X17.0210187850479 Y300
G1 Z0
G1 X41.0406582201859 Y300
G0 Z5
G0 X108.459341779814 Y300
G1 Z0
G1 X132.478981214952 Y300
G0 Z5
G0 X0.75 Y315
G1 Z0
G1 X148.75 Y315
G0 Z5
G0 X17.0210187850479 Y330
G1 Z0
G1 X41.0406582201859 Y330
G0 Z5
G0 X108.459341779814 Y330
G1 Z0
G1 X132.478981214952 Y330
G0 Z5
G0 X0.75 Y345
G1 Z0
G1 X148.75 Y345
G0 Z5
G0 X17.0210187850479 Y360
G1 Z0
G1 X41.0406582201859 Y360
G0 Z5
G0 X108.459341779814 Y360
G1 Z0
G1 X132.478981214952 Y360
G0 Z5
G0 X0.75 Y375
G1 Z0
G1 X148.75 Y375
G0 Z5
G0 X17.0210187850479 Y390
G1 Z0
G1 X41.0406582201859 Y390
G0 Z5
G0 X108.459341779814 Y390
G1 Z0
G1 X132.478981214952 Y390
G0 Z5
G0 X0.75 Y405
G1 Z0
G1 X148.75 Y405
G0 Z5
G0 X17.0210187850479 Y420
G1 Z0
G1 X41.0406582201859 Y420
G0 Z5
G0 X108.459341779814 Y420
G1 Z0
G1 X132.478981214952 Y420
G0 Z5
G0 X38.410222204234 Y-0.981814845024784
G1 Z0
G03 X39.8413476347223 Y-1.43112543048833 R0.75
G1 X45.2246552927318 Y15.7155627152442
G03 X44.7753447072682 Y15.7155627152442 R0.75
G1 X40.0660029274541 Y30.7155627152442
G02 X40.5153135129176 Y30.7155627152442 R0.75
G1 X45.2246552927318 Y45.7155627152442
G03 X44.7753447072682 Y45.7155627152442 R0.75
G1 X40.0660029274541 Y60.7155627152442
G02 X40.5153135129176 Y60.7155627152442 R0.75
G1 X45.2246552927318 Y75.7155627152442
G03 X44.7753447072682 Y75.7155627152442 R0.75
G1 X40.0660029274541 Y90.7155627152442
G02 X40.5153135129176 Y90.7155627152442 R0.75
G1 X45.2246552927318 Y105.715562715244
G03 X44.7753447072682 Y105.715562715244 R0.75
G1 X40.0660029274541 Y120.715562715244
G02 X40.5153135129176 Y120.715562715244 R0.75
G1 X45.2246552927318 Y135.715562715244
G03 X44.7753447072682 Y135.715562715244 R0.75
G1 X40.0660029274541 Y150.715562715244
G02 X40.5153135129176 Y150.715562715244 R0.75
G1 X45.2246552927318 Y165.715562715244
G03 X44.7753447072682 Y165.715562715244 R0.75
G1 X40.0660029274541 Y180.715562715244
G02 X40.5153135129176 Y180.715562715244 R0.75
G1 X45.2246552927318 Y195.715562715244
G03 X44.7753447072682 Y195.715562715244 R0.75
G1 X40.0660029274541 Y210.715562715244
G02 X40.5153135129176 Y210.715562715244 R0.75
G1 X45.2246552927318 Y225.715562715244
G03 X44.7753447072682 Y225.715562715244 R0.75
G1 X40.0660029274541 Y240.715562715244
G02 X40.5153135129176 Y240.715562715244 R0.75
G1 X45.2246552927318 Y255.715562715244
G03 X44.7753447072682 Y255.715562715244 R0.75
G1 X40.0660029274541 Y270.715562715244
G02 X40.5153135129176 Y270.715562715244 R0.75
G1 X45.2246552927318 Y285.715562715244
G03 X44.7753447072682 Y285.715562715244 R0.75
G1 X40.0660029274541 Y300.715562715244
G02 X40.5153135129176 Y300.715562715244 R0.75
G1 X45.2246552927318 Y315.715562715244
G03 X44.7753447072682 Y315.715562715244 R0.75
G1 X40.0660029274541 Y330.715562715244
G02 X40.5153135129176 Y330.715562715244 R0.75
G1 X45.2246552927318 Y345.715562715244
G03 X44.7753447072682 Y345.715562715244 R0.75
G1 X40.0660029274541 Y360.715562715244
G02 X40.5153135129176 Y360.715562715244 R0.75
G1 X45.2246552927318 Y375.715562715244
G03 X44.7753447072682 Y375.715562715244 R0.75
G1 X40.0660029274541 Y390.715562715244
G02 X40.5153135129176 Y390.715562715244 R0.75
G1 X45.2246552927318 Y405.715562715244
G03 X44.7753447072682 Y405.715562715244 R0.75
G1 X40.0660029274541 Y420.715562715244
G0 Z5
G0 X107.484686487082 Y0.715562715244165
G1 Z0
G1 X102.775344707268 Y15.7155627152442
G02 X103.224655292732 Y15.7155627152442 R0.75
G1 X107.933997072546 Y30.7155627152442
G03 X107.484686487082 Y30.7155627152442 R0.75
G1 X102.775344707268 Y45.7155627152442
G02 X103.224655292732 Y45.7155627152442 R0.75
G1 X107.933997072546 Y60.7155627152442
G03 X107.484686487082 Y60.7155627152442 R0.75
G1 X102.775344707268 Y75.7155627152442
G02 X103.224655292732 Y75.7155627152442 R0.75
G1 X107.933997072546 Y90.7155627152442
G03 X107.484686487082 Y90.7155627152442 R0.75
G1 X102.775344707268 Y105.715562715244
G02 X103.224655292732 Y105.715562715244 R0.75
G1 X107.933997072546 Y120.715562715244
G03 X107.484686487082 Y120.715562715244 R0.75
G1 X102.775344707268 Y135.715562715244
G02 X103.224655292732 Y135.715562715244 R0.75
G1 X107.933997072546 Y150.715562715244
G03 X107.484686487082 Y150.715562715244 R0.75
G1 X102.775344707268 Y165.715562715244
G02 X103.224655292732 Y165.715562715244 R0.75
G1 X107.933997072546 Y180.715562715244
G03 X107.484686487082 Y180.715562715244 R0.75
G1 X102.775344707268 Y195.715562715244
G02 X103.224655292732 Y195.715562715244 R0.75
G1 X107.933997072546 Y210.715562715244
G03 X107.484686487082 Y210.715562715244 R0.75
G1 X102.775344707268 Y225.715562715244
G02 X103.224655292732 Y225.715562715244 R0.75
G1 X107.933997072546 Y240.715562715244
G03 X107.484686487082 Y240.715562715244 R0.75
G1 X102.775344707268 Y255.715562715244
G02 X103.224655292732 Y255.715562715244 R0.75
G1 X107.933997072546 Y270.715562715244
G03 X107.484686487082 Y270.715562715244 R0.75
G1 X102.775344707268 Y285.715562715244
G02 X103.224655292732 Y285.715562715244 R0.75
G1 X107.933997072546 Y300.715562715244
G03 X107.484686487082 Y300.715562715244 R0.75
G1 X102.775344707268 Y315.715562715244
G02 X103.224655292732 Y315.715562715244 R0.75
G1 X107.933997072546 Y330.715562715244
G03 X107.484686487082 Y330.715562715244 R0.75
G1 X102.775344707268 Y345.715562715244
G02 X103.224655292732 Y345.715562715244 R0.75
G1 X107.933997072546 Y360.715562715244
G03 X107.484686487082 Y360.715562715244 R0.75
G1 X102.775344707268 Y375.715562715244
G02 X103.224655292732 Y375.715562715244 R0.75
G1 X107.933997072546 Y390.715562715244
G03 X107.484686487082 Y390.715562715244 R0.75
G1 X102.775344707268 Y405.715562715244
G02 X103.224655292732 Y405.715562715244 R0.75
G1 X107.933997072546 Y420.715562715244
G0 Z5
G0 X-1.5 Y-1.5
G1 Z0
G03 X0 Y-1.5 R0.75
G1 X0 Y420.75
G0 Z5
G0 X149.5 Y421.5
G1 Z0
G03 X148 Y421.5 R0.75
G1 X148 Y-0.75
G03 X147.25 Y0 R0.75
G1 X-0.75 Y0
G0 Z5
M0
(Move the sheet and align stuff)
(Lines)
F2500
G0 Z5
G0 X-1.5 Y16.5
G1 Z0
G03 X-1.5 Y15 R0.75
G1 X148.75 Y15
G0 Z5
G0 X17.0210187850479 Y30
G1 Z0
G1 X41.0406582201859 Y30
G0 Z5
G0 X108.459341779814 Y30
G1 Z0
G1 X132.478981214952 Y30
G0 Z5
G0 X0.75 Y45
G1 Z0
G1 X148.75 Y45
G0 Z5
G0 X17.0210187850479 Y60
G1 Z0
G1 X41.0406582201859 Y60
G0 Z5
G0 X108.459341779814 Y60
G1 Z0
G1 X132.478981214952 Y60
G0 Z5
G0 X0.75 Y75
G1 Z0
G1 X148.75 Y75
G0 Z5
G0 X17.0210187850479 Y90
G1 Z0
G1 X41.0406582201859 Y90
G0 Z5
G0 X108.459341779814 Y90
G1 Z0
G1 X132.478981214952 Y90
G0 Z5
G0 X0.75 Y105
G1 Z0
G1 X148.75 Y105
G0 Z5
G0 X17.0210187850479 Y120
G1 Z0
G1 X41.0406582201859 Y120
G0 Z5
G0 X108.459341779814 Y120
G1 Z0
G1 X132.478981214952 Y120
G0 Z5
G0 X0.75 Y135
G1 Z0
G1 X148.75 Y135
G0 Z5
G0 X17.0210187850479 Y150
G1 Z0
G1 X41.0406582201859 Y150
G0 Z5
G0 X108.459341779814 Y150
G1 Z0
G1 X132.478981214952 Y150
G0 Z5
G0 X0.75 Y165
G1 Z0
G1 X148.75 Y165
G0 Z5
G0 X17.0210187850479 Y180
G1 Z0
G1 X41.0406582201859 Y180
G0 Z5
G0 X108.459341779814 Y180
G1 Z0
G1 X132.478981214952 Y180
G0 Z5
G0 X0.75 Y195
G1 Z0
G1 X148.75 Y195
G0 Z5
G0 X17.0210187850479 Y210
G1 Z0
G1 X41.0406582201859 Y210
G0 Z5
G0 X108.459341779814 Y210
G1 Z0
G1 X132.478981214952 Y210
G0 Z5
G0 X0.75 Y225
G1 Z0
G1 X148.75 Y225
G0 Z5
G0 X17.0210187850479 Y240
G1 Z0
G1 X41.0406582201859 Y240
G0 Z5
G0 X108.459341779814 Y240
G1 Z0
G1 X132.478981214952 Y240
G0 Z5
G0 X0.75 Y255
G1 Z0
G1 X148.75 Y255
G0 Z5
G0 X17.0210187850479 Y270
G1 Z0
G1 X41.0406582201859 Y270
G0 Z5
G0 X108.459341779814 Y270
G1 Z0
G1 X132.478981214952 Y270
G0 Z5
G0 X0.75 Y285
G1 Z0
G1 X148.75 Y285
G0 Z5
G0 X17.0210187850479 Y300
G1 Z0
G1 X41.0406582201859 Y300
G0 Z5
G0 X108.459341779814 Y300
G1 Z0
G1 X132.478981214952 Y300
G0 Z5
G0 X0.75 Y315
G1 Z0
G1 X148.75 Y315
G0 Z5
G0 X17.0210187850479 Y330
G1 Z0
G1 X41.0406582201859 Y330
G0 Z5
G0 X108.459341779814 Y330
G1 Z0
G1 X132.478981214952 Y330
G0 Z5
G0 X0.75 Y345
G1 Z0
G1 X148.75 Y345
G0 Z5
G0 X17.0210187850479 Y360
G1 Z0
G1 X41.0406582201859 Y360
G0 Z5
G0 X108.459341779814 Y360
G1 Z0
G1 X132.478981214952 Y360
G0 Z5
G0 X0.75 Y375
G1 Z0
G1 X148.75 Y375
G0 Z5
G0 X38.410222204234 Y-0.981814845024784
G1 Z0
G03 X39.8413476347223 Y-1.43112543048833 R0.75
G1 X45.2246552927318 Y15.7155627152442
G03 X44.7753447072682 Y15.7155627152442 R0.75
G1 X40.0660029274541 Y30.7155627152442
G02 X40.5153135129176 Y30.7155627152442 R0.75
G1 X45.2246552927318 Y45.7155627152442
G03 X44.7753447072682 Y45.7155627152442 R0.75
G1 X40.0660029274541 Y60.7155627152442
G02 X40.5153135129176 Y60.7155627152442 R0.75
G1 X45.2246552927318 Y75.7155627152442
G03 X44.7753447072682 Y75.7155627152442 R0.75
G1 X40.0660029274541 Y90.7155627152442
G02 X40.5153135129176 Y90.7155627152442 R0.75
G1 X45.2246552927318 Y105.715562715244
G03 X44.7753447072682 Y105.715562715244 R0.75
G1 X40.0660029274541 Y120.715562715244
G02 X40.5153135129176 Y120.715562715244 R0.75
G1 X45.2246552927318 Y135.715562715244
G03 X44.7753447072682 Y135.715562715244 R0.75
G1 X40.0660029274541 Y150.715562715244
G02 X40.5153135129176 Y150.715562715244 R0.75
G1 X45.2246552927318 Y165.715562715244
G03 X44.7753447072682 Y165.715562715244 R0.75
G1 X40.0660029274541 Y180.715562715244
G02 X40.5153135129176 Y180.715562715244 R0.75
G1 X45.2246552927318 Y195.715562715244
G03 X44.7753447072682 Y195.715562715244 R0.75
G1 X40.0660029274541 Y210.715562715244
G02 X40.5153135129176 Y210.715562715244 R0.75
G1 X45.2246552927318 Y225.715562715244
G03 X44.7753447072682 Y225.715562715244 R0.75
G1 X40.0660029274541 Y240.715562715244
G02 X40.5153135129176 Y240.715562715244 R0.75
G1 X45.2246552927318 Y255.715562715244
G03 X44.7753447072682 Y255.715562715244 R0.75
G1 X40.0660029274541 Y270.715562715244
G02 X40.5153135129176 Y270.715562715244 R0.75
G1 X45.2246552927318 Y285.715562715244
G03 X44.7753447072682 Y285.715562715244 R0.75
G1 X40.0660029274541 Y300.715562715244
G02 X40.5153135129176 Y300.715562715244 R0.75
G1 X45.2246552927318 Y315.715562715244
G03 X44.7753447072682 Y315.715562715244 R0.75
G1 X40.0660029274541 Y330.715562715244
G02 X40.5153135129176 Y330.715562715244 R0.75
G1 X45.2246552927318 Y345.715562715244
G03 X44.7753447072682 Y345.715562715244 R0.75
G1 X40.0660029274541 Y360.715562715244
G02 X40.5153135129176 Y360.715562715244 R0.75
G1 X45.2246552927318 Y375.715562715244
G03 X44.7753447072682 Y375.715562715244 R0.75
G1 X40.0660029274541 Y390.715562715244
G0 Z5
G0 X107.484686487082 Y0.715562715244165
G1 Z0
G1 X102.775344707268 Y15.7155627152442
G02 X103.224655292732 Y15.7155627152442 R0.75
G1 X107.933997072546 Y30.7155627152442
G03 X107.484686487082 Y30.7155627152442 R0.75
G1 X102.775344707268 Y45.7155627152442
G02 X103.224655292732 Y45.7155627152442 R0.75
G1 X107.933997072546 Y60.7155627152442
G03 X107.484686487082 Y60.7155627152442 R0.75
G1 X102.775344707268 Y75.7155627152442
G02 X103.224655292732 Y75.7155627152442 R0.75
G1 X107.933997072546 Y90.7155627152442
G03 X107.484686487082 Y90.7155627152442 R0.75
G1 X102.775344707268 Y105.715562715244
G02 X103.224655292732 Y105.715562715244 R0.75
G1 X107.933997072546 Y120.715562715244
G03 X107.484686487082 Y120.715562715244 R0.75
G1 X102.775344707268 Y135.715562715244
G02 X103.224655292732 Y135.715562715244 R0.75
G1 X107.933997072546 Y150.715562715244
G03 X107.484686487082 Y150.715562715244 R0.75
G1 X102.775344707268 Y165.715562715244
G02 X103.224655292732 Y165.715562715244 R0.75
G1 X107.933997072546 Y180.715562715244
G03 X107.484686487082 Y180.715562715244 R0.75
G1 X102.775344707268 Y195.715562715244
G02 X103.224655292732 Y195.715562715244 R0.75
G1 X107.933997072546 Y210.715562715244
G03 X107.484686487082 Y210.715562715244 R0.75
G1 X102.775344707268 Y225.715562715244
G02 X103.224655292732 Y225.715562715244 R0.75
G1 X107.933997072546 Y240.715562715244
G03 X107.484686487082 Y240.715562715244 R0.75
G1 X102.775344707268 Y255.715562715244
G02 X103.224655292732 Y255.715562715244 R0.75
G1 X107.933997072546 Y270.715562715244
G03 X107.484686487082 Y270.715562715244 R0.75
G1 X102.775344707268 Y285.715562715244
G02 X103.224655292732 Y285.715562715244 R0.75
G1 X107.933997072546 Y300.715562715244
G03 X107.484686487082 Y300.715562715244 R0.75
G1 X102.775344707268 Y315.715562715244
G02 X103.224655292732 Y315.715562715244 R0.75
G1 X107.933997072546 Y330.715562715244
G03 X107.484686487082 Y330.715562715244 R0.75
G1 X102.775344707268 Y345.715562715244
G02 X103.224655292732 Y345.715562715244 R0.75
G1 X107.933997072546 Y360.715562715244
G03 X107.484686487082 Y360.715562715244 R0.75
G1 X102.775344707268 Y375.715562715244
G02 X103.224655292732 Y375.715562715244 R0.75
G1 X107.933997072546 Y390.715562715244
G0 Z5
G0 X-1.5 Y-1.5
G1 Z0
G03 X0 Y-1.5 R0.75
G1 X0 Y390.75
G02 X0.75 Y390 R0.75
G1 X148.75 Y390
G02 X148 Y389.25 R0.75
G1 X148 Y-0.75
(Step 3 - Flip the bellows sheet and re-align with the template)
G0 Z5
M0
(Lines)
F2500
G0 Z5
G0 X-1.5 Y31.5
G1 Z0
G03 X-1.5 Y30 R0.75
G1 X17.0210187850479 Y30
G0 Z5
G0 X41.0406582201859 Y30
G1 Z0
G1 X108.459341779814 Y30
G0 Z5
G0 X132.478981214952 Y30
G1 Z0
G1 X148.75 Y30
G0 Z5
G0 X0.75 Y60
G1 Z0
G1 X17.0210187850479 Y60
G0 Z5
G0 X41.0406582201859 Y60
G1 Z0
G1 X108.459341779814 Y60
G0 Z5
G0 X132.478981214952 Y60
G1 Z0
G1 X148.75 Y60
G0 Z5
G0 X0.75 Y90
G1 Z0
G1 X17.0210187850479 Y90
G0 Z5
G0 X41.0406582201859 Y90
G1 Z0
G1 X108.459341779814 Y90
G0 Z5
G0 X132.478981214952 Y90
G1 Z0
G1 X148.75 Y90
G0 Z5
G0 X0.75 Y120
G1 Z0
G1 X17.0210187850479 Y120
G0 Z5
G0 X41.0406582201859 Y120
G1 Z0
G1 X108.459341779814 Y120
G0 Z5
G0 X132.478981214952 Y120
G1 Z0
G1 X148.75 Y120
G0 Z5
G0 X0.75 Y150
G1 Z0
G1 X17.0210187850479 Y150
G0 Z5
G0 X41.0406582201859 Y150
G1 Z0
G1 X108.459341779814 Y150
G0 Z5
G0 X132.478981214952 Y150
G1 Z0
G1 X148.75 Y150
G0 Z5
G0 X0.75 Y180
G1 Z0
G1 X17.0210187850479 Y180
G0 Z5
G0 X41.0406582201859 Y180
G1 Z0
G1 X108.459341779814 Y180
G0 Z5
G0 X132.478981214952 Y180
G1 Z0
G1 X148.75 Y180
G0 Z5
G0 X0.75 Y210
G1 Z0
G1 X17.0210187850479 Y210
G0 Z5
G0 X41.0406582201859 Y210
G1 Z0
G1 X108.459341779814 Y210
G0 Z5
G0 X132.478981214952 Y210
G1 Z0
G1 X148.75 Y210
G0 Z5
G0 X0.75 Y240
G1 Z0
G1 X17.0210187850479 Y240
G0 Z5
G0 X41.0406582201859 Y240
G1 Z0
G1 X108.459341779814 Y240
G0 Z5
G0 X132.478981214952 Y240
G1 Z0
G1 X148.75 Y240
G0 Z5
G0 X0.75 Y270
G1 Z0
G1 X17.0210187850479 Y270
G0 Z5
G0 X41.0406582201859 Y270
G1 Z0
G1 X108.459341779814 Y270
G0 Z5
G0 X132.478981214952 Y270
G1 Z0
G1 X148.75 Y270
G0 Z5
G0 X0.75 Y300
G1 Z0
G1 X17.0210187850479 Y300
G0 Z5
G0 X41.0406582201859 Y300
G1 Z0
G1 X108.459341779814 Y300
G0 Z5
G0 X132.478981214952 Y300
G1 Z0
G1 X148.75 Y300
G0 Z5
G0 X0.75 Y330
G1 Z0
G1 X17.0210187850479 Y330
G0 Z5
G0 X41.0406582201859 Y330
G1 Z0
G1 X108.459341779814 Y330
G0 Z5
G0 X132.478981214952 Y330
G1 Z0
G1 X148.75 Y330
G0 Z5
G0 X0.75 Y360
G1 Z0
G1 X17.0210187850479 Y360
G0 Z5
G0 X41.0406582201859 Y360
G1 Z0
G1 X108.459341779814 Y360
G0 Z5
G0 X132.478981214952 Y360
G1 Z0
G1 X148.75 Y360
G0 Z5
G0 X0.75 Y390
G1 Z0
G1 X17.0210187850479 Y390
G0 Z5
G0 X41.0406582201859 Y390
G1 Z0
G1 X108.459341779814 Y390
G0 Z5
G0 X132.478981214952 Y390
G1 Z0
G1 X148.75 Y390
G0 Z5
G0 X0.75 Y420
G1 Z0
G1 X17.0210187850479 Y420
G0 Z5
G0 X41.0406582201859 Y420
G1 Z0
G1 X108.459341779814 Y420
G0 Z5
G0 X132.478981214952 Y420
G1 Z0
G1 X148.75 Y420
G0 Z5
G0 X14.2471017917943 Y0.635421123680341
G1 Z0
G03 X14.9413497265809 Y-0.694247934786645 R0.75
G1 X45.6648345292335 Y15.3471239673933
G03 X44.3351654707665 Y15.3471239673933 R0.75
G1 X15.6061842558144 Y30.3471239673933
G02 X16.9358533142814 Y30.3471239673933 R0.75
G1 X45.6648345292335 Y45.3471239673933
G03 X44.3351654707665 Y45.3471239673933 R0.75
G1 X15.6061842558144 Y60.3471239673933
G02 X16.9358533142814 Y60.3471239673933 R0.75
G1 X45.6648345292335 Y75.3471239673933
G03 X44.3351654707665 Y75.3471239673933 R0.75
G1 X15.6061842558144 Y90.3471239673933
G02 X16.9358533142814 Y90.3471239673933 R0.75
G1 X45.6648345292335 Y105.347123967393
G03 X44.3351654707665 Y105.347123967393 R0.75
G1 X15.6061842558144 Y120.347123967393
G02 X16.9358533142814 Y120.347123967393 R0.75
G1 X45.6648345292335 Y135.347123967393
G03 X44.3351654707665 Y135.347123967393 R0.75
G1 X15.6061842558144 Y150.347123967393
G02 X16.9358533142814 Y150.347123967393 R0.75
G1 X45.6648345292335 Y165.347123967393
G03 X44.3351654707665 Y165.347123967393 R0.75
G1 X15.6061842558144 Y180.347123967393
G02 X16.9358533142814 Y180.347123967393 R0.75
G1 X45.6648345292335 Y195.347123967393
G03 X44.3351654707665 Y195.347123967393 R0.75
G1 X15.6061842558144 Y210.347123967393
G02 X16.9358533142814 Y210.347123967393 R0.75
G1 X45.6648345292335 Y225.347123967393
G03 X44.3351654707665 Y225.347123967393 R0.75
G1 X15.6061842558144 Y240.347123967393
G02 X16.9358533142814 Y240.347123967393 R0.75
G1 X45.6648345292335 Y255.347123967393
G03 X44.3351654707665 Y255.347123967393 R0.75
G1 X15.6061842558144 Y270.347123967393
G02 X16.9358533142814 Y270.347123967393 R0.75
G1 X45.6648345292335 Y285.347123967393
G03 X44.3351654707665 Y285.347123967393 R0.75
G1 X15.6061842558144 Y300.347123967393
G02 X16.9358533142814 Y300.347123967393 R0.75
G1 X45.6648345292335 Y315.347123967393
G03 X44.3351654707665 Y315.347123967393 R0.75
G1 X15.6061842558144 Y330.347123967393
G02 X16.9358533142814 Y330.347123967393 R0.75
G1 X45.6648345292335 Y345.347123967393
G03 X44.3351654707665 Y345.347123967393 R0.75
G1 X15.6061842558144 Y360.347123967393
G02 X16.9358533142814 Y360.347123967393 R0.75
G1 X45.6648345292335 Y375.347123967393
G03 X44.3351654707665 Y375.347123967393 R0.75
G1 X15.6061842558144 Y390.347123967393
G02 X16.9358533142814 Y390.347123967393 R0.75
G1 X45.6648345292335 Y405.347123967393
G03 X44.3351654707665 Y405.347123967393 R0.75
G1 X15.6061842558144 Y420.347123967393
G0 Z5
G0 X131.064146685719 Y0.347123967393322
G1 Z0
G1 X102.335165470767 Y15.3471239673933
G02 X103.664834529233 Y15.3471239673933 R0.75
G1 X132.393815744186 Y30.3471239673933
G03 X131.064146685719 Y30.3471239673933 R0.75
G1 X102.335165470767 Y45.3471239673933
G02 X103.664834529233 Y45.3471239673933 R0.75
G1 X132.393815744186 Y60.3471239673933
G03 X131.064146685719 Y60.3471239673933 R0.75
G1 X102.335165470767 Y75.3471239673933
G02 X103.664834529233 Y75.3471239673933 R0.75
G1 X132.393815744186 Y90.3471239673933
G03 X131.064146685719 Y90.3471239673933 R0.75
G1 X102.335165470767 Y105.347123967393
G02 X103.664834529233 Y105.347123967393 R0.75
G1 X132.393815744186 Y120.347123967393
G03 X131.064146685719 Y120.347123967393 R0.75
G1 X102.335165470767 Y135.347123967393
G02 X103.664834529233 Y135.347123967393 R0.75
G1 X132.393815744186 Y150.347123967393
G03 X131.064146685719 Y150.347123967393 R0.75
G1 X102.335165470767 Y165.347123967393
G02 X103.664834529233 Y165.347123967393 R0.75
G1 X132.393815744186 Y180.347123967393
G03 X131.064146685719 Y180.347123967393 R0.75
G1 X102.335165470767 Y195.347123967393
G02 X103.664834529233 Y195.347123967393 R0.75
G1 X132.393815744186 Y210.347123967393
G03 X131.064146685719 Y210.347123967393 R0.75
G1 X102.335165470767 Y225.347123967393
G02 X103.664834529233 Y225.347123967393 R0.75
G1 X132.393815744186 Y240.347123967393
G03 X131.064146685719 Y240.347123967393 R0.75
G1 X102.335165470767 Y255.347123967393
G02 X103.664834529233 Y255.347123967393 R0.75
G1 X132.393815744186 Y270.347123967393
G03 X131.064146685719 Y270.347123967393 R0.75
G1 X102.335165470767 Y285.347123967393
G02 X103.664834529233 Y285.347123967393 R0.75
G1 X132.393815744186 Y300.347123967393
G03 X131.064146685719 Y300.347123967393 R0.75
G1 X102.335165470767 Y315.347123967393
G02 X103.664834529233 Y315.347123967393 R0.75
G1 X132.393815744186 Y330.347123967393
G03 X131.064146685719 Y330.347123967393 R0.75
G1 X102.335165470767 Y345.347123967393
G02 X103.664834529233 Y345.347123967393 R0.75
G1 X132.393815744186 Y360.347123967393
G03 X131.064146685719 Y360.347123967393 R0.75
G1 X102.335165470767 Y375.347123967393
G02 X103.664834529233 Y375.347123967393 R0.75
G1 X132.393815744186 Y390.347123967393
G03 X131.064146685719 Y390.347123967393 R0.75
G1 X102.335165470767 Y405.347123967393
G02 X103.664834529233 Y405.347123967393 R0.75
G1 X132.393815744186 Y420.347123967393
G0 Z5
G0 X-1.5 Y-1.5
G1 Z0
G03 X0 Y-1.5 R0.75
G1 X0 Y420.75
G0 Z5
G0 X149.5 Y421.5
G1 Z0
G03 X148 Y421.5 R0.75
G1 X148 Y-0.75
G03 X147.25 Y0 R0.75
G1 X-0.75 Y0
G0 Z5
M0
(Move the sheet and align stuff)
(Lines)
F2500
G0 Z5
G0 X-1.5 Y31.5
G1 Z0
G03 X-1.5 Y30 R0.75
G1 X17.0210187850479 Y30
G0 Z5
G0 X41.0406582201859 Y30
G1 Z0
G1 X108.459341779814 Y30
G0 Z5
G0 X132.478981214952 Y30
G1 Z0
G1 X148.75 Y30
G0 Z5
G0 X0.75 Y60
G1 Z0
G1 X17.0210187850479 Y60
G0 Z5
G0 X41.0406582201859 Y60
G1 Z0
G1 X108.459341779814 Y60
G0 Z5
G0 X132.478981214952 Y60
G1 Z0
G1 X148.75 Y60
G0 Z5
G0 X0.75 Y90
G1 Z0
G1 X17.0210187850479 Y90
G0 Z5
G0 X41.0406582201859 Y90
G1 Z0
G1 X108.459341779814 Y90
G0 Z5
G0 X132.478981214952 Y90
G1 Z0
G1 X148.75 Y90
G0 Z5
G0 X0.75 Y120
G1 Z0
G1 X17.0210187850479 Y120
G0 Z5
G0 X41.0406582201859 Y120
G1 Z0
G1 X108.459341779814 Y120
G0 Z5
G0 X132.478981214952 Y120
G1 Z0
G1 X148.75 Y120
G0 Z5
G0 X0.75 Y150
G1 Z0
G1 X17.0210187850479 Y150
G0 Z5
G0 X41.0406582201859 Y150
G1 Z0
G1 X108.459341779814 Y150
G0 Z5
G0 X132.478981214952 Y150
G1 Z0
G1 X148.75 Y150
G0 Z5
G0 X0.75 Y180
G1 Z0
G1 X17.0210187850479 Y180
G0 Z5
G0 X41.0406582201859 Y180
G1 Z0
G1 X108.459341779814 Y180
G0 Z5
G0 X132.478981214952 Y180
G1 Z0
G1 X148.75 Y180
G0 Z5
G0 X0.75 Y210
G1 Z0
G1 X17.0210187850479 Y210
G0 Z5
G0 X41.0406582201859 Y210
G1 Z0
G1 X108.459341779814 Y210
G0 Z5
G0 X132.478981214952 Y210
G1 Z0
G1 X148.75 Y210
G0 Z5
G0 X0.75 Y240
G1 Z0
G1 X17.0210187850479 Y240
G0 Z5
G0 X41.0406582201859 Y240
G1 Z0
G1 X108.459341779814 Y240
G0 Z5
G0 X132.478981214952 Y240
G1 Z0
G1 X148.75 Y240
G0 Z5
G0 X0.75 Y270
G1 Z0
G1 X17.0210187850479 Y270
G0 Z5
G0 X41.0406582201859 Y270
G1 Z0
G1 X108.459341779814 Y270
G0 Z5
G0 X132.478981214952 Y270
G1 Z0
G1 X148.75 Y270
G0 Z5
G0 X0.75 Y300
G1 Z0
G1 X17.0210187850479 Y300
G0 Z5
G0 X41.0406582201859 Y300
G1 Z0
G1 X108.459341779814 Y300
G0 Z5
G0 X132.478981214952 Y300
G1 Z0
G1 X148.75 Y300
G0 Z5
G0 X0.75 Y330
G1 Z0
G1 X17.0210187850479 Y330
G0 Z5
G0 X41.0406582201859 Y330
G1 Z0
G1 X108.459341779814 Y330
G0 Z5
G0 X132.478981214952 Y330
G1 Z0
G1 X148.75 Y330
G0 Z5
G0 X0.75 Y360
G1 Z0
G1 X17.0210187850479 Y360
G0 Z5
G0 X41.0406582201859 Y360
G1 Z0
G1 X108.459341779814 Y360
G0 Z5
G0 X132.478981214952 Y360
G1 Z0
G1 X148.75 Y360
G0 Z5
G0 X14.2471017917943 Y0.635421123680341
G1 Z0
G03 X14.9413497265809 Y-0.694247934786645 R0.75
G1 X45.6648345292335 Y15.3471239673933
G03 X44.3351654707665 Y15.3471239673933 R0.75
G1 X15.6061842558144 Y30.3471239673933
G02 X16.9358533142814 Y30.3471239673933 R0.75
G1 X45.6648345292335 Y45.3471239673933
G03 X44.3351654707665 Y45.3471239673933 R0.75
G1 X15.6061842558144 Y60.3471239673933
G02 X16.9358533142814 Y60.3471239673933 R0.75
G1 X45.6648345292335 Y75.3471239673933
G03 X44.3351654707665 Y75.3471239673933 R0.75
G1 X15.6061842558144 Y90.3471239673933
G02 X16.9358533142814 Y90.3471239673933 R0.75
G1 X45.6648345292335 Y105.347123967393
G03 X44.3351654707665 Y105.347123967393 R0.75
G1 X15.6061842558144 Y120.347123967393
G02 X16.9358533142814 Y120.347123967393 R0.75
G1 X45.6648345292335 Y135.347123967393
G03 X44.3351654707665 Y135.347123967393 R0.75
G1 X15.6061842558144 Y150.347123967393
G02 X16.9358533142814 Y150.347123967393 R0.75
G1 X45.6648345292335 Y165.347123967393
G03 X44.3351654707665 Y165.347123967393 R0.75
G1 X15.6061842558144 Y180.347123967393
G02 X16.9358533142814 Y180.347123967393 R0.75
G1 X45.6648345292335 Y195.347123967393
G03 X44.3351654707665 Y195.347123967393 R0.75
G1 X15.6061842558144 Y210.347123967393
G02 X16.9358533142814 Y210.347123967393 R0.75
G1 X45.6648345292335 Y225.347123967393
G03 X44.3351654707665 Y225.347123967393 R0.75
G1 X15.6061842558144 Y240.347123967393
G02 X16.9358533142814 Y240.347123967393 R0.75
G1 X45.6648345292335 Y255.347123967393
G03 X44.3351654707665 Y255.347123967393 R0.75
G1 X15.6061842558144 Y270.347123967393
G02 X16.9358533142814 Y270.347123967393 R0.75
G1 X45.6648345292335 Y285.347123967393
G03 X44.3351654707665 Y285.347123967393 R0.75
G1 X15.6061842558144 Y300.347123967393
G02 X16.9358533142814 Y300.347123967393 R0.75
G1 X45.6648345292335 Y315.347123967393
G03 X44.3351654707665 Y315.347123967393 R0.75
G1 X15.6061842558144 Y330.347123967393
G02 X16.9358533142814 Y330.347123967393 R0.75
G1 X45.6648345292335 Y345.347123967393
G03 X44.3351654707665 Y345.347123967393 R0.75
G1 X15.6061842558144 Y360.347123967393
G02 X16.9358533142814 Y360.347123967393 R0.75
G1 X45.6648345292335 Y375.347123967393
G03 X44.3351654707665 Y375.347123967393 R0.75
G1 X15.6061842558144 Y390.347123967393
G0 Z5
G0 X131.064146685719 Y0.347123967393322
G1 Z0
G1 X102.335165470767 Y15.3471239673933
G02 X103.664834529233 Y15.3471239673933 R0.75
G1 X132.393815744186 Y30.3471239673933
G03 X131.064146685719 Y30.3471239673933 R0.75
G1 X102.335165470767 Y45.3471239673933
G02 X103.664834529233 Y45.3471239673933 R0.75
G1 X132.393815744186 Y60.3471239673933
G03 X131.064146685719 Y60.3471239673933 R0.75
G1 X102.335165470767 Y75.3471239673933
G02 X103.664834529233 Y75.3471239673933 R0.75
G1 X132.393815744186 Y90.3471239673933
G03 X131.064146685719 Y90.3471239673933 R0.75
G1 X102.335165470767 Y105.347123967393
G02 X103.664834529233 Y105.347123967393 R0.75
G1 X132.393815744186 Y120.347123967393
G03 X131.064146685719 Y120.347123967393 R0.75
G1 X102.335165470767 Y135.347123967393
G02 X103.664834529233 Y135.347123967393 R0.75
G1 X132.393815744186 Y150.347123967393
G03 X131.064146685719 Y150.347123967393 R0.75
G1 X102.335165470767 Y165.347123967393
G02 X103.664834529233 Y165.347123967393 R0.75
G1 X132.393815744186 Y180.347123967393
G03 X131.064146685719 Y180.347123967393 R0.75
G1 X102.335165470767 Y195.347123967393
G02 X103.664834529233 Y195.347123967393 R0.75
G1 X132.393815744186 Y210.347123967393
G03 X131.064146685719 Y210.347123967393 R0.75
G1 X102.335165470767 Y225.347123967393
G02 X103.664834529233 Y225.347123967393 R0.75
G1 X132.393815744186 Y240.347123967393
G03 X131.064146685719 Y240.347123967393 R0.75
G1 X102.335165470767 Y255.347123967393
G02 X103.664834529233 Y255.347123967393 R0.75
G1 X132.393815744186 Y270.347123967393
G03 X131.064146685719 Y270.347123967393 R0.75
G1 X102.335165470767 Y285.347123967393
G02 X103.664834529233 Y285.347123967393 R0.75
G1 X132.393815744186 Y300.347123967393
G03 X131.064146685719 Y300.347123967393 R0.75
G1 X102.335165470767 Y315.347123967393
G02 X103.664834529233 Y315.347123967393 R0.75
G1 X132.393815744186 Y330.347123967393
G03 X131.064146685719 Y330.347123967393 R0.75
G1 X102.335165470767 Y345.347123967393
G02 X103.664834529233 Y345.347123967393 R0.75
G1 X132.393815744186 Y360.347123967393
G03 X131.064146685719 Y360.347123967393 R0.75
G1 X102.335165470767 Y375.347123967393
G02 X103.664834529233 Y375.347123967393 R0.75
G1 X132.393815744186 Y390.347123967393
G0 Z5
G0 X-1.5 Y-1.5
G1 Z0
G03 X0 Y-1.5 R0.75
G1 X0 Y390.75
G02 X0.75 Y390 R0.75
G1 X148.75 Y390
G02 X148 Y389.25 R0.75
G1 X148 Y-0.75
G0 Z5
M30
