%
(BOTTOM 3.175 ENDMILL)
(T2  D=3.125 CR=0. - ZMIN=-4. - FLAT END MILL)
G90 G94 G17 G91.1 G64 P0.1
G21
G53 G0 Z0.
(BORE1)
T2 M6
S24000 M3
G54
B0.
M8
G0 G43 X130.569 Y16.913 Z15. H2
G0 Z1.688
G1 Z0. F400.
Y17.069
X130.564 Y17.095
X130.549 Y17.117
X130.526 Y17.132
X130.5 Y17.138
G3 X130.362 Y17. Z-0.063 R0.138 F796.8
X130.5 Y16.862 Z-0.125 R0.138
X130.638 Y17. Z-0.188 R0.138
X130.5 Y17.138 Z-0.25 R0.138
X130.362 Y17. Z-0.313 R0.138
X130.5 Y16.862 Z-0.375 R0.138
X130.638 Y17. Z-0.438 R0.138
X130.5 Y17.138 Z-0.5 R0.138
X130.362 Y17. Z-0.563 R0.138
X130.5 Y16.862 Z-0.625 R0.138
X130.638 Y17. Z-0.688 R0.138
X130.5 Y17.138 Z-0.75 R0.138
X130.362 Y17. Z-0.813 R0.138
X130.5 Y16.862 Z-0.875 R0.138
X130.638 Y17. Z-0.938 R0.138
X130.5 Y17.138 Z-1. R0.138
X130.362 Y17. Z-1.063 R0.138
X130.5 Y16.862 Z-1.125 R0.138
X130.638 Y17. Z-1.188 R0.138
X130.5 Y17.138 Z-1.25 R0.138
X130.362 Y17. Z-1.313 R0.138
X130.5 Y16.862 Z-1.375 R0.138
X130.638 Y17. Z-1.438 R0.138
X130.5 Y17.138 Z-1.5 R0.138
X130.362 Y17. Z-1.563 R0.138
X130.5 Y16.862 Z-1.625 R0.138
X130.638 Y17. Z-1.688 R0.138
X130.5 Y17.138 Z-1.75 R0.138
X130.362 Y17. Z-1.813 R0.138
X130.5 Y16.862 Z-1.875 R0.138
X130.638 Y17. Z-1.938 R0.138
X130.5 Y17.138 Z-2. R0.138
X130.362 Y17. Z-2.063 R0.138
X130.5 Y16.862 Z-2.125 R0.138
X130.638 Y17. Z-2.188 R0.138
X130.5 Y17.138 Z-2.25 R0.138
X130.362 Y17. Z-2.313 R0.138
X130.5 Y16.862 Z-2.375 R0.138
X130.638 Y17. Z-2.438 R0.138
X130.5 Y17.138 Z-2.5 R0.138
X130.362 Y17. Z-2.563 R0.138
X130.5 Y16.862 Z-2.625 R0.138
X130.638 Y17. Z-2.688 R0.138
X130.5 Y17.138 Z-2.75 R0.138
X130.362 Y17. Z-2.813 R0.138
X130.5 Y16.862 Z-2.875 R0.138
X130.638 Y17. Z-2.938 R0.138
X130.5 Y17.138 Z-3. R0.138
X130.362 Y17. Z-3.063 R0.138
X130.5 Y16.862 Z-3.125 R0.138
X130.638 Y17. Z-3.188 R0.138
X130.5 Y17.138 Z-3.25 R0.138
X130.362 Y17. Z-3.313 R0.138
X130.5 Y16.862 Z-3.375 R0.138
X130.638 Y17. Z-3.438 R0.138
X130.5 Y17.138 Z-3.5 R0.138
X130.362 Y17. Z-3.563 R0.138
X130.5 Y16.862 Z-3.625 R0.138
X130.638 Y17. Z-3.688 R0.138
X130.5 Y17.138 Z-3.75 R0.138
X130.362 Y17. Z-3.813 R0.138
X130.5 Y16.862 Z-3.875 R0.138
X130.638 Y17. Z-3.938 R0.138
X130.5 Y17.138 Z-4. R0.138
X130.362 Y17. R0.138
X130.5 Y16.862 R0.138
X130.638 Y17. R0.138
X130.5 Y17.138 R0.138
G1 X130.474 Y17.132 F400.
X130.451 Y17.117
X130.436 Y17.095
X130.431 Y17.069
Y16.913
G0 Z5.
X130.569 Y91.912
Z1.688
G1 Z0. F400.
Y92.069
X130.564 Y92.095
X130.549 Y92.117
X130.526 Y92.132
X130.5 Y92.137
G3 X130.363 Y92. Z-0.063 R0.137 F796.8
X130.5 Y91.863 Z-0.125 R0.137
X130.637 Y92. Z-0.188 R0.137
X130.5 Y92.137 Z-0.25 R0.137
X130.363 Y92. Z-0.313 R0.137
X130.5 Y91.863 Z-0.375 R0.137
X130.637 Y92. Z-0.438 R0.137
X130.5 Y92.137 Z-0.5 R0.137
X130.363 Y92. Z-0.563 R0.137
X130.5 Y91.863 Z-0.625 R0.137
X130.637 Y92. Z-0.688 R0.137
X130.5 Y92.137 Z-0.75 R0.137
X130.363 Y92. Z-0.813 R0.137
X130.5 Y91.863 Z-0.875 R0.137
X130.637 Y92. Z-0.938 R0.137
X130.5 Y92.137 Z-1. R0.137
X130.363 Y92. Z-1.063 R0.137
X130.5 Y91.863 Z-1.125 R0.137
X130.637 Y92. Z-1.188 R0.137
X130.5 Y92.137 Z-1.25 R0.137
X130.363 Y92. Z-1.313 R0.137
X130.5 Y91.863 Z-1.375 R0.137
X130.637 Y92. Z-1.438 R0.137
X130.5 Y92.137 Z-1.5 R0.137
X130.363 Y92. Z-1.563 R0.137
X130.5 Y91.863 Z-1.625 R0.137
X130.637 Y92. Z-1.688 R0.137
X130.5 Y92.137 Z-1.75 R0.137
X130.363 Y92. Z-1.813 R0.137
X130.5 Y91.863 Z-1.875 R0.137
X130.637 Y92. Z-1.938 R0.137
X130.5 Y92.137 Z-2. R0.137
X130.363 Y92. Z-2.063 R0.137
X130.5 Y91.863 Z-2.125 R0.137
X130.637 Y92. Z-2.188 R0.137
X130.5 Y92.137 Z-2.25 R0.137
X130.363 Y92. Z-2.313 R0.137
X130.5 Y91.863 Z-2.375 R0.137
X130.637 Y92. Z-2.438 R0.137
X130.5 Y92.137 Z-2.5 R0.137
X130.363 Y92. Z-2.563 R0.137
X130.5 Y91.863 Z-2.625 R0.137
X130.637 Y92. Z-2.688 R0.137
X130.5 Y92.137 Z-2.75 R0.137
X130.363 Y92. Z-2.813 R0.137
X130.5 Y91.863 Z-2.875 R0.137
X130.637 Y92. Z-2.938 R0.137
X130.5 Y92.137 Z-3. R0.137
X130.363 Y92. Z-3.063 R0.137
X130.5 Y91.863 Z-3.125 R0.137
X130.637 Y92. Z-3.188 R0.137
X130.5 Y92.137 Z-3.25 R0.137
X130.363 Y92. Z-3.313 R0.137
X130.5 Y91.863 Z-3.375 R0.137
X130.637 Y92. Z-3.438 R0.137
X130.5 Y92.137 Z-3.5 R0.137
X130.363 Y92. Z-3.563 R0.137
X130.5 Y91.863 Z-3.625 R0.137
X130.637 Y92. Z-3.688 R0.137
X130.5 Y92.137 Z-3.75 R0.137
X130.363 Y92. Z-3.813 R0.137
X130.5 Y91.863 Z-3.875 R0.137
X130.637 Y92. Z-3.938 R0.137
X130.5 Y92.137 Z-4. R0.137
X130.363 Y92. R0.137
X130.5 Y91.863 R0.137
X130.637 Y92. R0.137
X130.5 Y92.137 R0.137
G1 X130.474 Y92.132 F400.
X130.451 Y92.117
X130.436 Y92.095
X130.431 Y92.069
Y91.912
G0 Z5.
X131.094 Y129.622
Z1.688
G1 Z0. F400.
Y129.778
X131.087 Y129.814
X131.066 Y129.845
X131.036 Y129.865
X131. Y129.872
G3 X130.813 Y129.685 Z-0.063 R0.188 F796.8
X131. Y129.497 Z-0.125 R0.188
X131.188 Y129.685 Z-0.188 R0.188
X131. Y129.872 Z-0.25 R0.188
X130.813 Y129.685 Z-0.313 R0.188
X131. Y129.497 Z-0.375 R0.188
X131.188 Y129.685 Z-0.438 R0.188
X131. Y129.872 Z-0.5 R0.188
X130.813 Y129.685 Z-0.563 R0.188
X131. Y129.497 Z-0.625 R0.188
X131.188 Y129.685 Z-0.688 R0.188
X131. Y129.872 Z-0.75 R0.188
X130.813 Y129.685 Z-0.813 R0.188
X131. Y129.497 Z-0.875 R0.188
X131.188 Y129.685 Z-0.938 R0.188
X131. Y129.872 Z-1. R0.188
X130.813 Y129.685 Z-1.063 R0.188
X131. Y129.497 Z-1.125 R0.188
X131.188 Y129.685 Z-1.188 R0.188
X131. Y129.872 Z-1.25 R0.188
X130.813 Y129.685 Z-1.313 R0.188
X131. Y129.497 Z-1.375 R0.188
X131.188 Y129.685 Z-1.438 R0.188
X131. Y129.872 Z-1.5 R0.188
X130.813 Y129.685 Z-1.563 R0.188
X131. Y129.497 Z-1.625 R0.188
X131.188 Y129.685 Z-1.688 R0.188
X131. Y129.872 Z-1.75 R0.188
X130.813 Y129.685 Z-1.813 R0.188
X131. Y129.497 Z-1.875 R0.188
X131.188 Y129.685 Z-1.938 R0.188
X131. Y129.872 Z-2. R0.188
X130.813 Y129.685 Z-2.063 R0.188
X131. Y129.497 Z-2.125 R0.188
X131.188 Y129.685 Z-2.188 R0.188
X131. Y129.872 Z-2.25 R0.188
X130.813 Y129.685 Z-2.313 R0.188
X131. Y129.497 Z-2.375 R0.188
X131.188 Y129.685 Z-2.438 R0.188
X131. Y129.872 Z-2.5 R0.188
X130.813 Y129.685 Z-2.563 R0.188
X131. Y129.497 Z-2.625 R0.188
X131.188 Y129.685 Z-2.688 R0.188
X131. Y129.872 Z-2.75 R0.188
X130.813 Y129.685 Z-2.813 R0.188
X131. Y129.497 Z-2.875 R0.188
X131.188 Y129.685 Z-2.938 R0.188
X131. Y129.872 Z-3. R0.188
X130.813 Y129.685 Z-3.063 R0.188
X131. Y129.497 Z-3.125 R0.188
X131.188 Y129.685 Z-3.188 R0.188
X131. Y129.872 Z-3.25 R0.188
X130.813 Y129.685 Z-3.313 R0.188
X131. Y129.497 Z-3.375 R0.188
X131.188 Y129.685 Z-3.438 R0.188
X131. Y129.872 Z-3.5 R0.188
X130.813 Y129.685 Z-3.563 R0.188
X131. Y129.497 Z-3.625 R0.188
X131.188 Y129.685 Z-3.688 R0.188
X131. Y129.872 Z-3.75 R0.188
X130.813 Y129.685 Z-3.813 R0.188
X131. Y129.497 Z-3.875 R0.188
X131.188 Y129.685 Z-3.938 R0.188
X131. Y129.872 Z-4. R0.188
X130.813 Y129.685 R0.188
X131. Y129.497 R0.188
X131.188 Y129.685 R0.188
X131. Y129.872 R0.188
G1 X130.964 Y129.865 F400.
X130.934 Y129.845
X130.913 Y129.814
X130.906 Y129.778
Y129.622
G0 Z5.
X131.094 Y174.122
Z1.688
G1 Z0. F400.
Y174.278
X131.087 Y174.314
X131.066 Y174.345
X131.036 Y174.365
X131. Y174.372
G3 X130.813 Y174.185 Z-0.063 R0.188 F796.8
X131. Y173.997 Z-0.125 R0.188
X131.188 Y174.185 Z-0.188 R0.188
X131. Y174.372 Z-0.25 R0.188
X130.813 Y174.185 Z-0.313 R0.188
X131. Y173.997 Z-0.375 R0.188
X131.188 Y174.185 Z-0.438 R0.188
X131. Y174.372 Z-0.5 R0.188
X130.813 Y174.185 Z-0.563 R0.188
X131. Y173.997 Z-0.625 R0.188
X131.188 Y174.185 Z-0.688 R0.188
X131. Y174.372 Z-0.75 R0.188
X130.813 Y174.185 Z-0.813 R0.188
X131. Y173.997 Z-0.875 R0.188
X131.188 Y174.185 Z-0.938 R0.188
X131. Y174.372 Z-1. R0.188
X130.813 Y174.185 Z-1.063 R0.188
X131. Y173.997 Z-1.125 R0.188
X131.188 Y174.185 Z-1.188 R0.188
X131. Y174.372 Z-1.25 R0.188
X130.813 Y174.185 Z-1.313 R0.188
X131. Y173.997 Z-1.375 R0.188
X131.188 Y174.185 Z-1.438 R0.188
X131. Y174.372 Z-1.5 R0.188
X130.813 Y174.185 Z-1.563 R0.188
X131. Y173.997 Z-1.625 R0.188
X131.188 Y174.185 Z-1.688 R0.188
X131. Y174.372 Z-1.75 R0.188
X130.813 Y174.185 Z-1.813 R0.188
X131. Y173.997 Z-1.875 R0.188
X131.188 Y174.185 Z-1.938 R0.188
X131. Y174.372 Z-2. R0.188
X130.813 Y174.185 Z-2.063 R0.188
X131. Y173.997 Z-2.125 R0.188
X131.188 Y174.185 Z-2.188 R0.188
X131. Y174.372 Z-2.25 R0.188
X130.813 Y174.185 Z-2.313 R0.188
X131. Y173.997 Z-2.375 R0.188
X131.188 Y174.185 Z-2.438 R0.188
X131. Y174.372 Z-2.5 R0.188
X130.813 Y174.185 Z-2.563 R0.188
X131. Y173.997 Z-2.625 R0.188
X131.188 Y174.185 Z-2.688 R0.188
X131. Y174.372 Z-2.75 R0.188
X130.813 Y174.185 Z-2.813 R0.188
X131. Y173.997 Z-2.875 R0.188
X131.188 Y174.185 Z-2.938 R0.188
X131. Y174.372 Z-3. R0.188
X130.813 Y174.185 Z-3.063 R0.188
X131. Y173.997 Z-3.125 R0.188
X131.188 Y174.185 Z-3.188 R0.188
X131. Y174.372 Z-3.25 R0.188
X130.813 Y174.185 Z-3.313 R0.188
X131. Y173.997 Z-3.375 R0.188
X131.188 Y174.185 Z-3.438 R0.188
X131. Y174.372 Z-3.5 R0.188
X130.813 Y174.185 Z-3.563 R0.188
X131. Y173.997 Z-3.625 R0.188
X131.188 Y174.185 Z-3.688 R0.188
X131. Y174.372 Z-3.75 R0.188
X130.813 Y174.185 Z-3.813 R0.188
X131. Y173.997 Z-3.875 R0.188
X131.188 Y174.185 Z-3.938 R0.188
X131. Y174.372 Z-4. R0.188
X130.813 Y174.185 R0.188
X131. Y173.997 R0.188
X131.188 Y174.185 R0.188
X131. Y174.372 R0.188
G1 X130.964 Y174.365 F400.
X130.934 Y174.345
X130.913 Y174.314
X130.906 Y174.278
Y174.122
G0 Z5.
X70.794
Z1.688
G1 Z0. F400.
Y174.278
X70.787 Y174.314
X70.766 Y174.345
X70.736 Y174.365
X70.7 Y174.372
G3 X70.512 Y174.185 Z-0.063 R0.188 F796.8
X70.7 Y173.997 Z-0.125 R0.188
X70.887 Y174.185 Z-0.188 R0.188
X70.7 Y174.372 Z-0.25 R0.188
X70.512 Y174.185 Z-0.313 R0.188
X70.7 Y173.997 Z-0.375 R0.188
X70.887 Y174.185 Z-0.438 R0.188
X70.7 Y174.372 Z-0.5 R0.188
X70.512 Y174.185 Z-0.563 R0.188
X70.7 Y173.997 Z-0.625 R0.188
X70.887 Y174.185 Z-0.688 R0.188
X70.7 Y174.372 Z-0.75 R0.188
X70.512 Y174.185 Z-0.813 R0.188
X70.7 Y173.997 Z-0.875 R0.188
X70.887 Y174.185 Z-0.938 R0.188
X70.7 Y174.372 Z-1. R0.188
X70.512 Y174.185 Z-1.063 R0.188
X70.7 Y173.997 Z-1.125 R0.188
X70.887 Y174.185 Z-1.188 R0.188
X70.7 Y174.372 Z-1.25 R0.188
X70.512 Y174.185 Z-1.313 R0.188
X70.7 Y173.997 Z-1.375 R0.188
X70.887 Y174.185 Z-1.438 R0.188
X70.7 Y174.372 Z-1.5 R0.188
X70.512 Y174.185 Z-1.563 R0.188
X70.7 Y173.997 Z-1.625 R0.188
X70.887 Y174.185 Z-1.688 R0.188
X70.7 Y174.372 Z-1.75 R0.188
X70.512 Y174.185 Z-1.813 R0.188
X70.7 Y173.997 Z-1.875 R0.188
X70.887 Y174.185 Z-1.938 R0.188
X70.7 Y174.372 Z-2. R0.188
X70.512 Y174.185 Z-2.063 R0.188
X70.7 Y173.997 Z-2.125 R0.188
X70.887 Y174.185 Z-2.188 R0.188
X70.7 Y174.372 Z-2.25 R0.188
X70.512 Y174.185 Z-2.313 R0.188
X70.7 Y173.997 Z-2.375 R0.188
X70.887 Y174.185 Z-2.438 R0.188
X70.7 Y174.372 Z-2.5 R0.188
X70.512 Y174.185 Z-2.563 R0.188
X70.7 Y173.997 Z-2.625 R0.188
X70.887 Y174.185 Z-2.688 R0.188
X70.7 Y174.372 Z-2.75 R0.188
X70.512 Y174.185 Z-2.813 R0.188
X70.7 Y173.997 Z-2.875 R0.188
X70.887 Y174.185 Z-2.938 R0.188
X70.7 Y174.372 Z-3. R0.188
X70.512 Y174.185 Z-3.063 R0.188
X70.7 Y173.997 Z-3.125 R0.188
X70.887 Y174.185 Z-3.188 R0.188
X70.7 Y174.372 Z-3.25 R0.188
X70.512 Y174.185 Z-3.313 R0.188
X70.7 Y173.997 Z-3.375 R0.188
X70.887 Y174.185 Z-3.438 R0.188
X70.7 Y174.372 Z-3.5 R0.188
X70.512 Y174.185 Z-3.563 R0.188
X70.7 Y173.997 Z-3.625 R0.188
X70.887 Y174.185 Z-3.688 R0.188
X70.7 Y174.372 Z-3.75 R0.188
X70.512 Y174.185 Z-3.813 R0.188
X70.7 Y173.997 Z-3.875 R0.188
X70.887 Y174.185 Z-3.938 R0.188
X70.7 Y174.372 Z-4. R0.188
X70.512 Y174.185 R0.188
X70.7 Y173.997 R0.188
X70.887 Y174.185 R0.188
X70.7 Y174.372 R0.188
G1 X70.664 Y174.365 F400.
X70.634 Y174.345
X70.613 Y174.314
X70.606 Y174.278
Y174.122
G0 Z5.
X40.749 Y152.012
Z1.688
G1 Z0. F400.
Y152.169
X40.744 Y152.195
X40.729 Y152.217
X40.706 Y152.232
X40.68 Y152.238
G3 X40.543 Y152.1 Z-0.063 R0.137 F796.8
X40.68 Y151.963 Z-0.125 R0.137
X40.817 Y152.1 Z-0.188 R0.137
X40.68 Y152.238 Z-0.25 R0.137
X40.543 Y152.1 Z-0.313 R0.137
X40.68 Y151.963 Z-0.375 R0.137
X40.817 Y152.1 Z-0.438 R0.137
X40.68 Y152.238 Z-0.5 R0.137
X40.543 Y152.1 Z-0.563 R0.137
X40.68 Y151.963 Z-0.625 R0.137
X40.817 Y152.1 Z-0.688 R0.137
X40.68 Y152.238 Z-0.75 R0.137
X40.543 Y152.1 Z-0.813 R0.137
X40.68 Y151.963 Z-0.875 R0.137
X40.817 Y152.1 Z-0.938 R0.137
X40.68 Y152.238 Z-1. R0.137
X40.543 Y152.1 Z-1.063 R0.137
X40.68 Y151.963 Z-1.125 R0.137
X40.817 Y152.1 Z-1.188 R0.137
X40.68 Y152.238 Z-1.25 R0.137
X40.543 Y152.1 Z-1.313 R0.137
X40.68 Y151.963 Z-1.375 R0.137
X40.817 Y152.1 Z-1.438 R0.137
X40.68 Y152.238 Z-1.5 R0.137
X40.543 Y152.1 Z-1.563 R0.137
X40.68 Y151.963 Z-1.625 R0.137
X40.817 Y152.1 Z-1.688 R0.137
X40.68 Y152.238 Z-1.75 R0.137
X40.543 Y152.1 Z-1.813 R0.137
X40.68 Y151.963 Z-1.875 R0.137
X40.817 Y152.1 Z-1.938 R0.137
X40.68 Y152.238 Z-2. R0.137
X40.543 Y152.1 Z-2.063 R0.137
X40.68 Y151.963 Z-2.125 R0.137
X40.817 Y152.1 Z-2.188 R0.137
X40.68 Y152.238 Z-2.25 R0.137
X40.543 Y152.1 Z-2.313 R0.137
X40.68 Y151.963 Z-2.375 R0.137
X40.817 Y152.1 Z-2.438 R0.137
X40.68 Y152.238 Z-2.5 R0.137
X40.543 Y152.1 Z-2.563 R0.137
X40.68 Y151.963 Z-2.625 R0.137
X40.817 Y152.1 Z-2.688 R0.137
X40.68 Y152.238 Z-2.75 R0.137
X40.543 Y152.1 Z-2.813 R0.137
X40.68 Y151.963 Z-2.875 R0.137
X40.817 Y152.1 Z-2.938 R0.137
X40.68 Y152.238 Z-3. R0.137
X40.543 Y152.1 Z-3.063 R0.137
X40.68 Y151.963 Z-3.125 R0.137
X40.817 Y152.1 Z-3.188 R0.137
X40.68 Y152.238 Z-3.25 R0.137
X40.543 Y152.1 Z-3.313 R0.137
X40.68 Y151.963 Z-3.375 R0.137
X40.817 Y152.1 Z-3.438 R0.137
X40.68 Y152.238 Z-3.5 R0.137
X40.543 Y152.1 Z-3.563 R0.137
X40.68 Y151.963 Z-3.625 R0.137
X40.817 Y152.1 Z-3.688 R0.137
X40.68 Y152.238 Z-3.75 R0.137
X40.543 Y152.1 Z-3.813 R0.137
X40.68 Y151.963 Z-3.875 R0.137
X40.817 Y152.1 Z-3.938 R0.137
X40.68 Y152.238 Z-4. R0.137
X40.543 Y152.1 R0.137
X40.68 Y151.963 R0.137
X40.817 Y152.1 R0.137
X40.68 Y152.238 R0.137
G1 X40.654 Y152.232 F400.
X40.631 Y152.217
X40.616 Y152.195
X40.611 Y152.169
Y152.012
G0 Z5.
X20.069
Z1.688
G1 Z0. F400.
Y152.169
X20.064 Y152.195
X20.049 Y152.217
X20.026 Y152.232
X20. Y152.238
G3 X19.863 Y152.1 Z-0.063 R0.137 F796.8
X20. Y151.963 Z-0.125 R0.137
X20.137 Y152.1 Z-0.188 R0.137
X20. Y152.238 Z-0.25 R0.137
X19.863 Y152.1 Z-0.313 R0.137
X20. Y151.963 Z-0.375 R0.137
X20.137 Y152.1 Z-0.438 R0.137
X20. Y152.238 Z-0.5 R0.137
X19.863 Y152.1 Z-0.563 R0.137
X20. Y151.963 Z-0.625 R0.137
X20.137 Y152.1 Z-0.688 R0.137
X20. Y152.238 Z-0.75 R0.137
X19.863 Y152.1 Z-0.813 R0.137
X20. Y151.963 Z-0.875 R0.137
X20.137 Y152.1 Z-0.938 R0.137
X20. Y152.238 Z-1. R0.137
X19.863 Y152.1 Z-1.063 R0.137
X20. Y151.963 Z-1.125 R0.137
X20.137 Y152.1 Z-1.188 R0.137
X20. Y152.238 Z-1.25 R0.137
X19.863 Y152.1 Z-1.313 R0.137
X20. Y151.963 Z-1.375 R0.137
X20.137 Y152.1 Z-1.438 R0.137
X20. Y152.238 Z-1.5 R0.137
X19.863 Y152.1 Z-1.563 R0.137
X20. Y151.963 Z-1.625 R0.137
X20.137 Y152.1 Z-1.688 R0.137
X20. Y152.238 Z-1.75 R0.137
X19.863 Y152.1 Z-1.813 R0.137
X20. Y151.963 Z-1.875 R0.137
X20.137 Y152.1 Z-1.938 R0.137
X20. Y152.238 Z-2. R0.137
X19.863 Y152.1 Z-2.063 R0.137
X20. Y151.963 Z-2.125 R0.137
X20.137 Y152.1 Z-2.188 R0.137
X20. Y152.238 Z-2.25 R0.137
X19.863 Y152.1 Z-2.313 R0.137
X20. Y151.963 Z-2.375 R0.137
X20.137 Y152.1 Z-2.438 R0.137
X20. Y152.238 Z-2.5 R0.137
X19.863 Y152.1 Z-2.563 R0.137
X20. Y151.963 Z-2.625 R0.137
X20.137 Y152.1 Z-2.688 R0.137
X20. Y152.238 Z-2.75 R0.137
X19.863 Y152.1 Z-2.813 R0.137
X20. Y151.963 Z-2.875 R0.137
X20.137 Y152.1 Z-2.938 R0.137
X20. Y152.238 Z-3. R0.137
X19.863 Y152.1 Z-3.063 R0.137
X20. Y151.963 Z-3.125 R0.137
X20.137 Y152.1 Z-3.188 R0.137
X20. Y152.238 Z-3.25 R0.137
X19.863 Y152.1 Z-3.313 R0.137
X20. Y151.963 Z-3.375 R0.137
X20.137 Y152.1 Z-3.438 R0.137
X20. Y152.238 Z-3.5 R0.137
X19.863 Y152.1 Z-3.563 R0.137
X20. Y151.963 Z-3.625 R0.137
X20.137 Y152.1 Z-3.688 R0.137
X20. Y152.238 Z-3.75 R0.137
X19.863 Y152.1 Z-3.813 R0.137
X20. Y151.963 Z-3.875 R0.137
X20.137 Y152.1 Z-3.938 R0.137
X20. Y152.238 Z-4. R0.137
X19.863 Y152.1 R0.137
X20. Y151.963 R0.137
X20.137 Y152.1 R0.137
X20. Y152.238 R0.137
G1 X19.974 Y152.232 F400.
X19.951 Y152.217
X19.936 Y152.195
X19.931 Y152.169
Y152.012
G0 Z5.
X20.069 Y123.412
Z1.688
G1 Z0. F400.
Y123.569
X20.064 Y123.595
X20.049 Y123.617
X20.026 Y123.632
X20. Y123.637
G3 X19.863 Y123.5 Z-0.063 R0.137 F796.8
X20. Y123.363 Z-0.125 R0.137
X20.137 Y123.5 Z-0.188 R0.137
X20. Y123.637 Z-0.25 R0.137
X19.863 Y123.5 Z-0.313 R0.137
X20. Y123.363 Z-0.375 R0.137
X20.137 Y123.5 Z-0.438 R0.137
X20. Y123.637 Z-0.5 R0.137
X19.863 Y123.5 Z-0.563 R0.137
X20. Y123.363 Z-0.625 R0.137
X20.137 Y123.5 Z-0.688 R0.137
X20. Y123.637 Z-0.75 R0.137
X19.863 Y123.5 Z-0.813 R0.137
X20. Y123.363 Z-0.875 R0.137
X20.137 Y123.5 Z-0.938 R0.137
X20. Y123.637 Z-1. R0.137
X19.863 Y123.5 Z-1.063 R0.137
X20. Y123.363 Z-1.125 R0.137
X20.137 Y123.5 Z-1.188 R0.137
X20. Y123.637 Z-1.25 R0.137
X19.863 Y123.5 Z-1.313 R0.137
X20. Y123.363 Z-1.375 R0.137
X20.137 Y123.5 Z-1.438 R0.137
X20. Y123.637 Z-1.5 R0.137
X19.863 Y123.5 Z-1.563 R0.137
X20. Y123.363 Z-1.625 R0.137
X20.137 Y123.5 Z-1.688 R0.137
X20. Y123.637 Z-1.75 R0.137
X19.863 Y123.5 Z-1.813 R0.137
X20. Y123.363 Z-1.875 R0.137
X20.137 Y123.5 Z-1.938 R0.137
X20. Y123.637 Z-2. R0.137
X19.863 Y123.5 Z-2.063 R0.137
X20. Y123.363 Z-2.125 R0.137
X20.137 Y123.5 Z-2.188 R0.137
X20. Y123.637 Z-2.25 R0.137
X19.863 Y123.5 Z-2.313 R0.137
X20. Y123.363 Z-2.375 R0.137
X20.137 Y123.5 Z-2.438 R0.137
X20. Y123.637 Z-2.5 R0.137
X19.863 Y123.5 Z-2.563 R0.137
X20. Y123.363 Z-2.625 R0.137
X20.137 Y123.5 Z-2.688 R0.137
X20. Y123.637 Z-2.75 R0.137
X19.863 Y123.5 Z-2.813 R0.137
X20. Y123.363 Z-2.875 R0.137
X20.137 Y123.5 Z-2.938 R0.137
X20. Y123.637 Z-3. R0.137
X19.863 Y123.5 Z-3.063 R0.137
X20. Y123.363 Z-3.125 R0.137
X20.137 Y123.5 Z-3.188 R0.137
X20. Y123.637 Z-3.25 R0.137
X19.863 Y123.5 Z-3.313 R0.137
X20. Y123.363 Z-3.375 R0.137
X20.137 Y123.5 Z-3.438 R0.137
X20. Y123.637 Z-3.5 R0.137
X19.863 Y123.5 Z-3.563 R0.137
X20. Y123.363 Z-3.625 R0.137
X20.137 Y123.5 Z-3.688 R0.137
X20. Y123.637 Z-3.75 R0.137
X19.863 Y123.5 Z-3.813 R0.137
X20. Y123.363 Z-3.875 R0.137
X20.137 Y123.5 Z-3.938 R0.137
X20. Y123.637 Z-4. R0.137
X19.863 Y123.5 R0.137
X20. Y123.363 R0.137
X20.137 Y123.5 R0.137
X20. Y123.637 R0.137
G1 X19.974 Y123.632 F400.
X19.951 Y123.617
X19.936 Y123.595
X19.931 Y123.569
Y123.412
G0 Z5.
X40.749
Z1.688
G1 Z0. F400.
Y123.569
X40.744 Y123.595
X40.729 Y123.617
X40.706 Y123.632
X40.68 Y123.637
G3 X40.543 Y123.5 Z-0.063 R0.137 F796.8
X40.68 Y123.363 Z-0.125 R0.137
X40.817 Y123.5 Z-0.188 R0.137
X40.68 Y123.637 Z-0.25 R0.137
X40.543 Y123.5 Z-0.313 R0.137
X40.68 Y123.363 Z-0.375 R0.137
X40.817 Y123.5 Z-0.438 R0.137
X40.68 Y123.637 Z-0.5 R0.137
X40.543 Y123.5 Z-0.563 R0.137
X40.68 Y123.363 Z-0.625 R0.137
X40.817 Y123.5 Z-0.688 R0.137
X40.68 Y123.637 Z-0.75 R0.137
X40.543 Y123.5 Z-0.813 R0.137
X40.68 Y123.363 Z-0.875 R0.137
X40.817 Y123.5 Z-0.938 R0.137
X40.68 Y123.637 Z-1. R0.137
X40.543 Y123.5 Z-1.063 R0.137
X40.68 Y123.363 Z-1.125 R0.137
X40.817 Y123.5 Z-1.188 R0.137
X40.68 Y123.637 Z-1.25 R0.137
X40.543 Y123.5 Z-1.313 R0.137
X40.68 Y123.363 Z-1.375 R0.137
X40.817 Y123.5 Z-1.438 R0.137
X40.68 Y123.637 Z-1.5 R0.137
X40.543 Y123.5 Z-1.563 R0.137
X40.68 Y123.363 Z-1.625 R0.137
X40.817 Y123.5 Z-1.688 R0.137
X40.68 Y123.637 Z-1.75 R0.137
X40.543 Y123.5 Z-1.813 R0.137
X40.68 Y123.363 Z-1.875 R0.137
X40.817 Y123.5 Z-1.938 R0.137
X40.68 Y123.637 Z-2. R0.137
X40.543 Y123.5 Z-2.063 R0.137
X40.68 Y123.363 Z-2.125 R0.137
X40.817 Y123.5 Z-2.188 R0.137
X40.68 Y123.637 Z-2.25 R0.137
X40.543 Y123.5 Z-2.313 R0.137
X40.68 Y123.363 Z-2.375 R0.137
X40.817 Y123.5 Z-2.438 R0.137
X40.68 Y123.637 Z-2.5 R0.137
X40.543 Y123.5 Z-2.563 R0.137
X40.68 Y123.363 Z-2.625 R0.137
X40.817 Y123.5 Z-2.688 R0.137
X40.68 Y123.637 Z-2.75 R0.137
X40.543 Y123.5 Z-2.813 R0.137
X40.68 Y123.363 Z-2.875 R0.137
X40.817 Y123.5 Z-2.938 R0.137
X40.68 Y123.637 Z-3. R0.137
X40.543 Y123.5 Z-3.063 R0.137
X40.68 Y123.363 Z-3.125 R0.137
X40.817 Y123.5 Z-3.188 R0.137
X40.68 Y123.637 Z-3.25 R0.137
X40.543 Y123.5 Z-3.313 R0.137
X40.68 Y123.363 Z-3.375 R0.137
X40.817 Y123.5 Z-3.438 R0.137
X40.68 Y123.637 Z-3.5 R0.137
X40.543 Y123.5 Z-3.563 R0.137
X40.68 Y123.363 Z-3.625 R0.137
X40.817 Y123.5 Z-3.688 R0.137
X40.68 Y123.637 Z-3.75 R0.137
X40.543 Y123.5 Z-3.813 R0.137
X40.68 Y123.363 Z-3.875 R0.137
X40.817 Y123.5 Z-3.938 R0.137
X40.68 Y123.637 Z-4. R0.137
X40.543 Y123.5 R0.137
X40.68 Y123.363 R0.137
X40.817 Y123.5 R0.137
X40.68 Y123.637 R0.137
G1 X40.654 Y123.632 F400.
X40.631 Y123.617
X40.616 Y123.595
X40.611 Y123.569
Y123.412
G0 Z5.
X70.794 Y129.622
Z1.688
G1 Z0. F400.
Y129.778
X70.787 Y129.814
X70.766 Y129.845
X70.736 Y129.865
X70.7 Y129.872
G3 X70.512 Y129.685 Z-0.063 R0.188 F796.8
X70.7 Y129.497 Z-0.125 R0.188
X70.887 Y129.685 Z-0.188 R0.188
X70.7 Y129.872 Z-0.25 R0.188
X70.512 Y129.685 Z-0.313 R0.188
X70.7 Y129.497 Z-0.375 R0.188
X70.887 Y129.685 Z-0.438 R0.188
X70.7 Y129.872 Z-0.5 R0.188
X70.512 Y129.685 Z-0.563 R0.188
X70.7 Y129.497 Z-0.625 R0.188
X70.887 Y129.685 Z-0.688 R0.188
X70.7 Y129.872 Z-0.75 R0.188
X70.512 Y129.685 Z-0.813 R0.188
X70.7 Y129.497 Z-0.875 R0.188
X70.887 Y129.685 Z-0.938 R0.188
X70.7 Y129.872 Z-1. R0.188
X70.512 Y129.685 Z-1.063 R0.188
X70.7 Y129.497 Z-1.125 R0.188
X70.887 Y129.685 Z-1.188 R0.188
X70.7 Y129.872 Z-1.25 R0.188
X70.512 Y129.685 Z-1.313 R0.188
X70.7 Y129.497 Z-1.375 R0.188
X70.887 Y129.685 Z-1.438 R0.188
X70.7 Y129.872 Z-1.5 R0.188
X70.512 Y129.685 Z-1.563 R0.188
X70.7 Y129.497 Z-1.625 R0.188
X70.887 Y129.685 Z-1.688 R0.188
X70.7 Y129.872 Z-1.75 R0.188
X70.512 Y129.685 Z-1.813 R0.188
X70.7 Y129.497 Z-1.875 R0.188
X70.887 Y129.685 Z-1.938 R0.188
X70.7 Y129.872 Z-2. R0.188
X70.512 Y129.685 Z-2.063 R0.188
X70.7 Y129.497 Z-2.125 R0.188
X70.887 Y129.685 Z-2.188 R0.188
X70.7 Y129.872 Z-2.25 R0.188
X70.512 Y129.685 Z-2.313 R0.188
X70.7 Y129.497 Z-2.375 R0.188
X70.887 Y129.685 Z-2.438 R0.188
X70.7 Y129.872 Z-2.5 R0.188
X70.512 Y129.685 Z-2.563 R0.188
X70.7 Y129.497 Z-2.625 R0.188
X70.887 Y129.685 Z-2.688 R0.188
X70.7 Y129.872 Z-2.75 R0.188
X70.512 Y129.685 Z-2.813 R0.188
X70.7 Y129.497 Z-2.875 R0.188
X70.887 Y129.685 Z-2.938 R0.188
X70.7 Y129.872 Z-3. R0.188
X70.512 Y129.685 Z-3.063 R0.188
X70.7 Y129.497 Z-3.125 R0.188
X70.887 Y129.685 Z-3.188 R0.188
X70.7 Y129.872 Z-3.25 R0.188
X70.512 Y129.685 Z-3.313 R0.188
X70.7 Y129.497 Z-3.375 R0.188
X70.887 Y129.685 Z-3.438 R0.188
X70.7 Y129.872 Z-3.5 R0.188
X70.512 Y129.685 Z-3.563 R0.188
X70.7 Y129.497 Z-3.625 R0.188
X70.887 Y129.685 Z-3.688 R0.188
X70.7 Y129.872 Z-3.75 R0.188
X70.512 Y129.685 Z-3.813 R0.188
X70.7 Y129.497 Z-3.875 R0.188
X70.887 Y129.685 Z-3.938 R0.188
X70.7 Y129.872 Z-4. R0.188
X70.512 Y129.685 R0.188
X70.7 Y129.497 R0.188
X70.887 Y129.685 R0.188
X70.7 Y129.872 R0.188
G1 X70.664 Y129.865 F400.
X70.634 Y129.845
X70.613 Y129.814
X70.606 Y129.778
Y129.622
G0 Z5.
X15.569 Y91.912
Z1.688
G1 Z0. F400.
Y92.069
X15.564 Y92.095
X15.549 Y92.117
X15.526 Y92.132
X15.5 Y92.137
G3 X15.363 Y92. Z-0.063 R0.137 F796.8
X15.5 Y91.863 Z-0.125 R0.137
X15.637 Y92. Z-0.188 R0.137
X15.5 Y92.137 Z-0.25 R0.137
X15.363 Y92. Z-0.313 R0.137
X15.5 Y91.863 Z-0.375 R0.137
X15.637 Y92. Z-0.438 R0.137
X15.5 Y92.137 Z-0.5 R0.137
X15.363 Y92. Z-0.563 R0.137
X15.5 Y91.863 Z-0.625 R0.137
X15.637 Y92. Z-0.688 R0.137
X15.5 Y92.137 Z-0.75 R0.137
X15.363 Y92. Z-0.813 R0.137
X15.5 Y91.863 Z-0.875 R0.137
X15.637 Y92. Z-0.938 R0.137
X15.5 Y92.137 Z-1. R0.137
X15.363 Y92. Z-1.063 R0.137
X15.5 Y91.863 Z-1.125 R0.137
X15.637 Y92. Z-1.188 R0.137
X15.5 Y92.137 Z-1.25 R0.137
X15.363 Y92. Z-1.313 R0.137
X15.5 Y91.863 Z-1.375 R0.137
X15.637 Y92. Z-1.438 R0.137
X15.5 Y92.137 Z-1.5 R0.137
X15.363 Y92. Z-1.563 R0.137
X15.5 Y91.863 Z-1.625 R0.137
X15.637 Y92. Z-1.688 R0.137
X15.5 Y92.137 Z-1.75 R0.137
X15.363 Y92. Z-1.813 R0.137
X15.5 Y91.863 Z-1.875 R0.137
X15.637 Y92. Z-1.938 R0.137
X15.5 Y92.137 Z-2. R0.137
X15.363 Y92. Z-2.063 R0.137
X15.5 Y91.863 Z-2.125 R0.137
X15.637 Y92. Z-2.188 R0.137
X15.5 Y92.137 Z-2.25 R0.137
X15.363 Y92. Z-2.313 R0.137
X15.5 Y91.863 Z-2.375 R0.137
X15.637 Y92. Z-2.438 R0.137
X15.5 Y92.137 Z-2.5 R0.137
X15.363 Y92. Z-2.563 R0.137
X15.5 Y91.863 Z-2.625 R0.137
X15.637 Y92. Z-2.688 R0.137
X15.5 Y92.137 Z-2.75 R0.137
X15.363 Y92. Z-2.813 R0.137
X15.5 Y91.863 Z-2.875 R0.137
X15.637 Y92. Z-2.938 R0.137
X15.5 Y92.137 Z-3. R0.137
X15.363 Y92. Z-3.063 R0.137
X15.5 Y91.863 Z-3.125 R0.137
X15.637 Y92. Z-3.188 R0.137
X15.5 Y92.137 Z-3.25 R0.137
X15.363 Y92. Z-3.313 R0.137
X15.5 Y91.863 Z-3.375 R0.137
X15.637 Y92. Z-3.438 R0.137
X15.5 Y92.137 Z-3.5 R0.137
X15.363 Y92. Z-3.563 R0.137
X15.5 Y91.863 Z-3.625 R0.137
X15.637 Y92. Z-3.688 R0.137
X15.5 Y92.137 Z-3.75 R0.137
X15.363 Y92. Z-3.813 R0.137
X15.5 Y91.863 Z-3.875 R0.137
X15.637 Y92. Z-3.938 R0.137
X15.5 Y92.137 Z-4. R0.137
X15.363 Y92. R0.137
X15.5 Y91.863 R0.137
X15.637 Y92. R0.137
X15.5 Y92.137 R0.137
G1 X15.474 Y92.132 F400.
X15.451 Y92.117
X15.436 Y92.095
X15.431 Y92.069
Y91.912
G0 Z5.
X15.569 Y16.913
Z1.688
G1 Z0. F400.
Y17.069
X15.564 Y17.095
X15.549 Y17.117
X15.526 Y17.132
X15.5 Y17.138
G3 X15.362 Y17. Z-0.063 R0.138 F796.8
X15.5 Y16.862 Z-0.125 R0.138
X15.638 Y17. Z-0.188 R0.138
X15.5 Y17.138 Z-0.25 R0.138
X15.362 Y17. Z-0.313 R0.138
X15.5 Y16.862 Z-0.375 R0.138
X15.638 Y17. Z-0.438 R0.138
X15.5 Y17.138 Z-0.5 R0.138
X15.362 Y17. Z-0.563 R0.138
X15.5 Y16.862 Z-0.625 R0.138
X15.638 Y17. Z-0.688 R0.138
X15.5 Y17.138 Z-0.75 R0.138
X15.362 Y17. Z-0.813 R0.138
X15.5 Y16.862 Z-0.875 R0.138
X15.638 Y17. Z-0.938 R0.138
X15.5 Y17.138 Z-1. R0.138
X15.362 Y17. Z-1.063 R0.138
X15.5 Y16.862 Z-1.125 R0.138
X15.638 Y17. Z-1.188 R0.138
X15.5 Y17.138 Z-1.25 R0.138
X15.362 Y17. Z-1.313 R0.138
X15.5 Y16.862 Z-1.375 R0.138
X15.638 Y17. Z-1.438 R0.138
X15.5 Y17.138 Z-1.5 R0.138
X15.362 Y17. Z-1.563 R0.138
X15.5 Y16.862 Z-1.625 R0.138
X15.638 Y17. Z-1.688 R0.138
X15.5 Y17.138 Z-1.75 R0.138
X15.362 Y17. Z-1.813 R0.138
X15.5 Y16.862 Z-1.875 R0.138
X15.638 Y17. Z-1.938 R0.138
X15.5 Y17.138 Z-2. R0.138
X15.362 Y17. Z-2.063 R0.138
X15.5 Y16.862 Z-2.125 R0.138
X15.638 Y17. Z-2.188 R0.138
X15.5 Y17.138 Z-2.25 R0.138
X15.362 Y17. Z-2.313 R0.138
X15.5 Y16.862 Z-2.375 R0.138
X15.638 Y17. Z-2.438 R0.138
X15.5 Y17.138 Z-2.5 R0.138
X15.362 Y17. Z-2.563 R0.138
X15.5 Y16.862 Z-2.625 R0.138
X15.638 Y17. Z-2.688 R0.138
X15.5 Y17.138 Z-2.75 R0.138
X15.362 Y17. Z-2.813 R0.138
X15.5 Y16.862 Z-2.875 R0.138
X15.638 Y17. Z-2.938 R0.138
X15.5 Y17.138 Z-3. R0.138
X15.362 Y17. Z-3.063 R0.138
X15.5 Y16.862 Z-3.125 R0.138
X15.638 Y17. Z-3.188 R0.138
X15.5 Y17.138 Z-3.25 R0.138
X15.362 Y17. Z-3.313 R0.138
X15.5 Y16.862 Z-3.375 R0.138
X15.638 Y17. Z-3.438 R0.138
X15.5 Y17.138 Z-3.5 R0.138
X15.362 Y17. Z-3.563 R0.138
X15.5 Y16.862 Z-3.625 R0.138
X15.638 Y17. Z-3.688 R0.138
X15.5 Y17.138 Z-3.75 R0.138
X15.362 Y17. Z-3.813 R0.138
X15.5 Y16.862 Z-3.875 R0.138
X15.638 Y17. Z-3.938 R0.138
X15.5 Y17.138 Z-4. R0.138
X15.362 Y17. R0.138
X15.5 Y16.862 R0.138
X15.638 Y17. R0.138
X15.5 Y17.138 R0.138
G1 X15.474 Y17.132 F400.
X15.451 Y17.117
X15.436 Y17.095
X15.431 Y17.069
Y16.913
G0 Z15.
M9
G53 Z0.
M30
%
