%
(1001)
(T1  D=3.175 CR=0. TAPER=30DEG - ZMIN=-0.2 - CHAMFER MILL)
G90 G94 G17 G91.1 G64 P0.1
G21
G53 G0 Z0.
(ENGRAVE2)
T1 M6
S5000 M3
G54
B0.
M8
G0 G43 X60.988 Y34.152 Z15. H1
G0 Z5.
G1 Z0. F1000.
X61.061 Y34.085 Z-0.116
X61.117 Y34.037 Z-0.2
X61.126 Y33.985
X61.137 Y33.933
X61.149 Y33.882
X61.162 Y33.832
X61.178 Y33.784
X61.194 Y33.736
X61.212 Y33.689
X61.232 Y33.643
X61.253 Y33.599
X61.276 Y33.555
X61.301 Y33.511
X61.326 Y33.469
X61.354 Y33.427
X61.383 Y33.386
X61.414 Y33.346
X61.446 Y33.307
X61.48 Y33.268
X61.516 Y33.231
X61.553 Y33.194
X61.592 Y33.158
X61.631 Y33.123
X61.673 Y33.09
X61.715 Y33.059
X61.76 Y33.029
X61.806 Y33.001
X61.855 Y32.973
X61.905 Y32.947
X61.957 Y32.923
X62.012 Y32.899
X62.068 Y32.877
X62.127 Y32.857
X62.187 Y32.838
X62.25 Y32.82
X62.314 Y32.804
X62.381 Y32.789
X62.45 Y32.776
X62.521 Y32.764
X62.595 Y32.754
X62.67 Y32.745
X62.747 Y32.738
X62.826 Y32.732
X62.908 Y32.728
X62.992 Y32.726
X63.077 Y32.725
X63.143
X63.207 Y32.728
X63.27 Y32.731
X63.332 Y32.736
X63.393 Y32.742
X63.452 Y32.75
X63.511 Y32.759
X63.567 Y32.77
X63.623 Y32.781
X63.678 Y32.794
X63.731 Y32.809
X63.783 Y32.824
X63.833 Y32.841
X63.883 Y32.86
X63.932 Y32.879
X63.979 Y32.9
X64.025 Y32.922
X64.071 Y32.946
X64.115 Y32.971
X64.158 Y32.997
X64.2 Y33.024
X64.241 Y33.053
X64.281 Y33.083
X64.32 Y33.114
X64.358 Y33.147
X64.394 Y33.18
X64.428 Y33.213
X64.461 Y33.247
X64.492 Y33.282
X64.521 Y33.317
X64.548 Y33.352
X64.573 Y33.388
X64.597 Y33.424
X64.62 Y33.461
X64.641 Y33.499
X64.66 Y33.537
X64.677 Y33.575
X64.693 Y33.615
X64.708 Y33.655
X64.721 Y33.696
X64.733 Y33.737
X64.743 Y33.779
X64.751 Y33.822
X64.758 Y33.867
X64.764 Y33.912
X64.768 Y33.957
X64.77 Y34.004
X64.771 Y34.052
X64.77 Y34.09
X64.769 Y34.127
X64.767 Y34.164
X64.764 Y34.2
X64.76 Y34.235
X64.755 Y34.268
X64.75 Y34.301
X64.743 Y34.333
X64.736 Y34.364
X64.728 Y34.395
X64.72 Y34.425
X64.711 Y34.453
X64.701 Y34.481
X64.69 Y34.508
X64.678 Y34.534
X64.666 Y34.56
X64.653 Y34.585
X64.639 Y34.609
X64.625 Y34.632
X64.609 Y34.656
X64.593 Y34.678
X64.577 Y34.7
X64.559 Y34.721
X64.54 Y34.742
X64.519 Y34.764
X64.498 Y34.786
X64.476 Y34.808
X64.453 Y34.829
X64.431 Y34.849
X64.408 Y34.869
X64.384 Y34.889
X64.361 Y34.908
X64.337 Y34.926
X64.313 Y34.944
X64.288 Y34.961
X64.263 Y34.978
X64.238 Y34.995
X64.212 Y35.011
X64.186 Y35.026
X64.159 Y35.041
X64.132 Y35.056
X64.105 Y35.07
X64.077 Y35.083
X64.049 Y35.096
X64.021 Y35.109
X63.992 Y35.121
X63.962 Y35.133
X63.932 Y35.144
X63.9 Y35.156
X63.867 Y35.167
X63.832 Y35.179
X63.797 Y35.191
X63.76 Y35.203
X63.722 Y35.215
X63.684 Y35.227
X63.644 Y35.239
X63.603 Y35.251
X63.561 Y35.263
X63.518 Y35.275
X63.474 Y35.287
X63.43 Y35.299
X63.383 Y35.311
X63.336 Y35.323
X63.288 Y35.335
X63.239 Y35.348
X63.189 Y35.36
X63.138 Y35.372
X63.086 Y35.385
X63.033 Y35.397
X62.979 Y35.409
X62.924 Y35.421
X62.867 Y35.434
X62.81 Y35.447
X62.809
X62.754 Y35.459
X62.753 Y35.46
X62.699 Y35.472
X62.698 Y35.473
X62.645 Y35.485
X62.644 Y35.486
X62.593 Y35.499
X62.592
X62.543 Y35.512
X62.541
X62.493 Y35.525
X62.492
X62.446 Y35.538
X62.443 Y35.539
X62.399 Y35.552
X62.397
X62.354 Y35.565
X62.352 Y35.566
X62.31 Y35.579
X62.308 Y35.58
X62.268 Y35.593
X62.266 Y35.594
X62.227 Y35.607
X62.225 Y35.608
X62.188 Y35.621
X62.185 Y35.622
X62.15 Y35.635
X62.146 Y35.636
X62.112 Y35.649
X62.109 Y35.651
X62.077 Y35.664
X62.074 Y35.665
X62.043 Y35.678
X62.038 Y35.68
X62.009 Y35.694
X62.005 Y35.696
X61.977 Y35.709
X61.973 Y35.711
X61.947 Y35.724
X61.942 Y35.727
X61.917 Y35.74
X61.912 Y35.744
X61.888 Y35.757
X61.882 Y35.761
X61.861 Y35.774
X61.854 Y35.778
X61.834 Y35.792
X61.828 Y35.797
X61.808 Y35.811
X61.8 Y35.817
X61.782 Y35.832
X61.775 Y35.837
X61.758 Y35.852
X61.75 Y35.859
X61.733 Y35.875
X61.727 Y35.881
X61.711 Y35.898
X61.704 Y35.905
X61.689 Y35.923
X61.683 Y35.929
X61.669 Y35.947
X61.662 Y35.956
X61.649 Y35.974
X61.644 Y35.981
X61.631 Y36.
X61.625 Y36.009
X61.614 Y36.028
X61.609 Y36.036
X61.598 Y36.056
X61.594 Y36.065
X61.584 Y36.086
X61.579 Y36.095
X61.57 Y36.116
X61.567 Y36.124
X61.559 Y36.146
X61.555 Y36.155
X61.548 Y36.177
X61.545 Y36.186
X61.539 Y36.209
X61.536 Y36.218
X61.531 Y36.241
X61.529 Y36.249
X61.524 Y36.273
X61.523 Y36.281
X61.519 Y36.306
X61.518 Y36.313
X61.515 Y36.338
X61.514 Y36.346
X61.512 Y36.372
X61.511 Y36.38
X61.51 Y36.406
Y36.413
X61.509 Y36.44
Y36.448
X61.51 Y36.477
Y36.485
X61.512 Y36.514
Y36.522
X61.515 Y36.55
X61.516 Y36.559
X61.52 Y36.587
X61.521 Y36.596
X61.526 Y36.623
X61.528 Y36.632
X61.534 Y36.658
X61.536 Y36.668
X61.543 Y36.695
X61.546 Y36.703
X61.554 Y36.729
X61.557 Y36.738
X61.566 Y36.763
X61.57 Y36.773
X61.58 Y36.798
X61.583 Y36.806
X61.595 Y36.83
X61.599 Y36.839
X61.612 Y36.863
X61.616 Y36.872
X61.63 Y36.895
X61.634 Y36.903
X61.649 Y36.926
X61.655 Y36.934
X61.67 Y36.956
X61.675 Y36.963
X61.692 Y36.985
X61.698 Y36.992
X61.716 Y37.014
X61.722 Y37.021
X61.741 Y37.042
X61.746 Y37.048
X61.766 Y37.068
X61.773 Y37.074
X61.794 Y37.094
X61.799 Y37.099
X61.821 Y37.119
X61.828 Y37.124
X61.851 Y37.143
X61.857 Y37.148
X61.881 Y37.166
X61.887 Y37.17
X61.912 Y37.189
X61.919 Y37.193
X61.945 Y37.21
X61.951 Y37.214
X61.979 Y37.231
X61.985 Y37.235
X62.014 Y37.251
X62.019 Y37.254
X62.048 Y37.269
X62.055 Y37.272
X62.085 Y37.287
X62.091 Y37.29
X62.122 Y37.303
X62.128 Y37.306
X62.16 Y37.319
X62.166 Y37.321
X62.199 Y37.333
X62.204 Y37.335
X62.238 Y37.347
X62.243 Y37.349
X62.278 Y37.359
X62.284 Y37.361
X62.319 Y37.371
X62.324 Y37.372
X62.36 Y37.382
X62.366 Y37.383
X62.403 Y37.392
X62.408 Y37.393
X62.446 Y37.4
X62.451 Y37.401
X62.49 Y37.408
X62.494 Y37.409
X62.534 Y37.415
X62.539 Y37.416
X62.579 Y37.422
X62.584
X62.626 Y37.427
X62.63
X62.672 Y37.432
X62.677
X62.72 Y37.435
X62.724 Y37.436
X62.768 Y37.438
X62.772
X62.817 Y37.44
X62.821
X62.867 Y37.441
X62.87
X62.917 Y37.442
X62.923
X63.019 Y37.44
X63.027
X63.119 Y37.435
X63.128 Y37.434
X63.216 Y37.426
X63.226 Y37.425
X63.311 Y37.414
X63.32 Y37.413
X63.401 Y37.398
X63.412 Y37.396
X63.489 Y37.378
X63.5 Y37.375
X63.574 Y37.354
X63.586 Y37.351
X63.656 Y37.326
X63.668 Y37.322
X63.734 Y37.294
X63.747 Y37.289
X63.809 Y37.258
X63.822 Y37.251
X63.881 Y37.217
X63.894 Y37.209
X63.949 Y37.172
X63.962 Y37.162
X64.013 Y37.122
X64.026 Y37.112
X64.073 Y37.068
X64.085 Y37.056
X64.129 Y37.009
X64.14 Y36.997
X64.181 Y36.946
X64.19 Y36.933
X64.227 Y36.88
X64.236 Y36.866
X64.268 Y36.809
X64.276 Y36.795
X64.305 Y36.736
X64.311 Y36.722
X64.336 Y36.659
X64.341 Y36.645
X64.363 Y36.579
X64.367 Y36.565
X64.381 Y36.508
X64.357 Y36.477 Z-0.146
X64.288 Y36.394 Z-0.001
X64.357 Y36.477 Z-0.146
X64.381 Y36.508 Z-0.2
X64.625
X64.693 Y36.451 Z-0.1
X64.757 Y36.393 Z0.
X64.693 Y36.451 Z-0.1
X64.625 Y36.508 Z-0.2
X64.619 Y36.543
X64.608 Y36.591
X64.596 Y36.637
X64.583 Y36.683
X64.568 Y36.727
X64.551 Y36.769
X64.533 Y36.811
X64.514 Y36.852
X64.494 Y36.891
X64.472 Y36.93
X64.449 Y36.967
X64.423 Y37.003
X64.397 Y37.039
X64.369 Y37.073
X64.34 Y37.107
X64.309 Y37.14
X64.276 Y37.172
X64.242 Y37.203
X64.206 Y37.233
X64.168 Y37.263
X64.129 Y37.291
X64.088 Y37.319
X64.047 Y37.345
X64.004 Y37.371
X63.96 Y37.395
X63.915 Y37.418
X63.869 Y37.439
X63.821 Y37.46
X63.772 Y37.479
X63.723 Y37.497
X63.671 Y37.514
X63.619 Y37.53
X63.565 Y37.545
X63.51 Y37.558
X63.454 Y37.57
X63.397 Y37.581
X63.338 Y37.591
X63.278 Y37.599
X63.217 Y37.606
X63.154 Y37.612
X63.09 Y37.617
X63.025 Y37.62
X62.958 Y37.622
X62.89 Y37.623
X62.826 Y37.622
X62.763 Y37.62
X62.702 Y37.617
X62.642 Y37.612
X62.583 Y37.607
X62.525 Y37.599
X62.469 Y37.591
X62.414 Y37.582
X62.36 Y37.571
X62.307 Y37.559
X62.256 Y37.546
X62.206 Y37.532
X62.157 Y37.516
X62.11 Y37.499
X62.063 Y37.481
X62.018 Y37.463
X61.974 Y37.443
X61.931 Y37.421
X61.889 Y37.399
X61.848 Y37.375
X61.809 Y37.35
X61.77 Y37.324
X61.732 Y37.297
X61.696 Y37.269
X61.66 Y37.24
X61.626 Y37.21
X61.595 Y37.18
X61.564 Y37.149
X61.535 Y37.118
X61.509 Y37.086
X61.483 Y37.054
X61.459 Y37.021
X61.437 Y36.988
X61.416 Y36.955
X61.397 Y36.921
X61.379 Y36.886
X61.363 Y36.851
X61.348 Y36.815
X61.334 Y36.778
X61.322 Y36.741
X61.311 Y36.703
X61.302 Y36.664
X61.294 Y36.624
X61.287 Y36.583
X61.282 Y36.542
X61.279 Y36.499
X61.276 Y36.456
Y36.411
Y36.372
X61.278 Y36.333
X61.281 Y36.296
X61.285 Y36.259
X61.29 Y36.223
X61.296 Y36.188
X61.303 Y36.154
X61.311 Y36.121
X61.32 Y36.089
X61.331 Y36.057
X61.342 Y36.026
X61.354 Y35.997
X61.368 Y35.967
X61.382 Y35.939
X61.397 Y35.911
X61.414 Y35.884
X61.431 Y35.857
X61.45 Y35.831
X61.469 Y35.805
X61.49 Y35.78
X61.513 Y35.756
X61.536 Y35.731
X61.56 Y35.708
X61.586 Y35.685
X61.614 Y35.662
X61.643 Y35.639
X61.673 Y35.617
X61.706 Y35.594
X61.741 Y35.572
X61.777 Y35.55
X61.816 Y35.528
X61.856 Y35.507
X61.898 Y35.486
X61.943 Y35.465
X61.989 Y35.444
X62.037 Y35.424
X62.087 Y35.404
X62.138 Y35.384
X62.192 Y35.365
X62.247 Y35.346
X62.305 Y35.328
X62.364 Y35.31
X62.425 Y35.292
X62.488 Y35.275
X62.553 Y35.258
X62.62 Y35.242
X62.688 Y35.226
X62.759 Y35.21
X62.832 Y35.194
X62.833
X62.904 Y35.179
X62.905 Y35.178
X62.974 Y35.162
X62.975
X63.042 Y35.147
X63.044 Y35.146
X63.109 Y35.13
X63.111
X63.174 Y35.114
X63.176
X63.238 Y35.098
X63.239
X63.299 Y35.082
X63.301 Y35.081
X63.359 Y35.065
X63.361
X63.417 Y35.049
X63.419 Y35.048
X63.474 Y35.033
X63.476 Y35.032
X63.529 Y35.016
X63.531
X63.582 Y35.
X63.584 Y34.999
X63.633 Y34.983
X63.636 Y34.982
X63.683 Y34.966
X63.685 Y34.965
X63.731 Y34.949
X63.734 Y34.948
X63.777 Y34.932
X63.78 Y34.931
X63.822 Y34.915
X63.825 Y34.914
X63.865 Y34.898
X63.869 Y34.897
X63.907 Y34.88
X63.911 Y34.879
X63.947 Y34.863
X63.951 Y34.861
X63.986 Y34.845
X63.99 Y34.843
X64.023 Y34.827
X64.028 Y34.825
X64.059 Y34.808
X64.064 Y34.806
X64.094 Y34.789
X64.102 Y34.784
X64.13 Y34.767
X64.137 Y34.763
X64.164 Y34.744
X64.172 Y34.739
X64.198 Y34.72
X64.205 Y34.714
X64.229 Y34.695
X64.238 Y34.688
X64.261 Y34.667
X64.267 Y34.661
X64.289 Y34.64
X64.297 Y34.632
X64.318 Y34.609
X64.325 Y34.602
X64.344 Y34.579
X64.351 Y34.571
X64.369 Y34.547
X64.376 Y34.538
X64.393 Y34.514
X64.398 Y34.505
X64.414 Y34.48
X64.42 Y34.47
X64.434 Y34.444
X64.439 Y34.434
X64.452 Y34.407
X64.457 Y34.398
X64.469 Y34.371
X64.473 Y34.361
X64.483 Y34.332
X64.487 Y34.322
X64.496 Y34.293
X64.499 Y34.284
X64.507 Y34.254
X64.509 Y34.244
X64.516 Y34.213
X64.518 Y34.204
X64.524 Y34.172
X64.525 Y34.163
X64.53 Y34.13
X64.531 Y34.122
X64.534 Y34.089
Y34.08
X64.536 Y34.045
X64.537 Y34.038
Y34.003
Y33.995
Y33.962
X64.536 Y33.954
X64.535 Y33.921
X64.534 Y33.912
X64.531 Y33.88
X64.53 Y33.872
X64.526 Y33.841
X64.524 Y33.832
X64.519 Y33.801
X64.517 Y33.792
X64.51 Y33.761
X64.508 Y33.753
X64.501 Y33.724
X64.498 Y33.714
X64.489 Y33.685
X64.486 Y33.675
X64.475 Y33.647
X64.472 Y33.638
X64.461 Y33.61
X64.457 Y33.602
X64.444 Y33.574
X64.44 Y33.565
X64.426 Y33.538
X64.421 Y33.531
X64.406 Y33.504
X64.401 Y33.496
X64.385 Y33.47
X64.379 Y33.462
X64.362 Y33.436
X64.357 Y33.43
X64.338 Y33.405
X64.332 Y33.398
X64.312 Y33.374
X64.306 Y33.367
X64.285 Y33.343
X64.279 Y33.337
X64.257 Y33.314
X64.251 Y33.309
X64.227 Y33.286
X64.221 Y33.28
X64.196 Y33.259
X64.19 Y33.254
X64.164 Y33.233
X64.158 Y33.228
X64.13 Y33.207
X64.125 Y33.203
X64.096 Y33.183
X64.09 Y33.179
X64.06 Y33.16
X64.055 Y33.156
X64.025 Y33.138
X64.019 Y33.134
X63.988 Y33.117
X63.982 Y33.114
X63.95 Y33.097
X63.945 Y33.094
X63.912 Y33.078
X63.906 Y33.075
X63.872 Y33.06
X63.867 Y33.058
X63.833 Y33.043
X63.827 Y33.041
X63.792 Y33.028
X63.787 Y33.025
X63.751 Y33.013
X63.745 Y33.011
X63.709 Y32.999
X63.703 Y32.997
X63.666 Y32.986
X63.661 Y32.985
X63.623 Y32.975
X63.617 Y32.973
X63.578 Y32.964
X63.573 Y32.963
X63.534 Y32.954
X63.529 Y32.953
X63.488 Y32.945
X63.483 Y32.944
X63.442 Y32.937
X63.438
X63.396 Y32.931
X63.391 Y32.93
X63.348 Y32.925
X63.344 Y32.924
X63.3 Y32.92
X63.296 Y32.919
X63.251 Y32.915
X63.247
X63.202 Y32.912
X63.198
X63.152 Y32.91
X63.148
X63.102 Y32.909
X63.098
X63.05 Y32.908
X63.046
X62.996 Y32.909
X62.992
X62.943 Y32.91
X62.938
X62.889 Y32.913
X62.885
X62.837 Y32.916
X62.833 Y32.917
X62.785 Y32.921
X62.78
X62.733 Y32.927
X62.729
X62.682 Y32.934
X62.678
X62.632 Y32.941
X62.627 Y32.942
X62.582 Y32.95
X62.577 Y32.951
X62.533 Y32.96
X62.528 Y32.961
X62.484 Y32.971
X62.479 Y32.973
X62.436 Y32.984
X62.43 Y32.985
X62.388 Y32.997
X62.383 Y32.999
X62.341 Y33.011
X62.335 Y33.013
X62.294 Y33.027
X62.289 Y33.029
X62.248 Y33.044
X62.243 Y33.046
X62.203 Y33.061
X62.198 Y33.063
X62.158 Y33.08
X62.153 Y33.082
X62.114 Y33.1
X62.108 Y33.103
X62.07 Y33.121
X62.065 Y33.124
X62.028 Y33.143
X62.022 Y33.146
X61.985 Y33.167
X61.98 Y33.17
X61.944 Y33.191
X61.939 Y33.194
X61.903 Y33.217
X61.897 Y33.22
X61.862 Y33.244
X61.855 Y33.249
X61.822 Y33.273
X61.815 Y33.278
X61.783 Y33.304
X61.776 Y33.309
X61.745 Y33.336
X61.738 Y33.342
X61.709 Y33.37
X61.703 Y33.375
X61.674 Y33.404
X61.668 Y33.411
X61.641 Y33.441
X61.635 Y33.447
X61.609 Y33.478
X61.603 Y33.485
X61.579 Y33.517
X61.574 Y33.524
X61.55 Y33.557
X61.545 Y33.565
X61.523 Y33.599
X61.519 Y33.606
X61.498 Y33.641
X61.494 Y33.648
X61.474 Y33.684
X61.47 Y33.692
X61.452 Y33.73
X61.449 Y33.736
X61.432 Y33.775
X61.429 Y33.783
X61.414 Y33.822
X61.411 Y33.829
X61.397 Y33.869
X61.394 Y33.877
X61.381 Y33.919
X61.379 Y33.925
X61.368 Y33.968
X61.366 Y33.975
X61.356 Y34.019
X61.354 Y34.025
X61.352 Y34.037
X61.117
X61.352
X61.441 Y34.143 Z-0.015
X61.448 Y34.152 Z-0.001
G0 Z5.
X65.585 Y35.905
G1 Z0. F1000.
X65.699 Y36.02 Z-0.199
G0 Z5.
X65.585 Y36.227
G1 Z0. F1000.
X65.7 Y36.112 Z-0.2
X65.943
G3 X66.159 Y36.327 R0.215
G1 Y37.04
X66.043 Y37.155 Z0.
X66.159 Y37.04 Z-0.2
X66.39
X66.505 Y37.155 Z0.
X66.39 Y37.04 Z-0.2
Y36.327
G3 X66.605 Y36.112 R0.215
G1 X66.994
X67.109 Y36.227 Z0.
X66.994 Y36.112 Z-0.2
Y36.021
X66.605
G3 X66.39 Y35.805 R0.215
G1 Y33.654
Y33.653
Y33.622
Y33.619
Y33.588
Y33.585
X66.391 Y33.556
Y33.554
X66.392 Y33.526
X66.393 Y33.521
X66.394 Y33.494
Y33.492
X66.396 Y33.465
X66.397 Y33.461
X66.399 Y33.436
Y33.433
X66.402 Y33.408
Y33.404
X66.405 Y33.381
Y33.376
X66.409 Y33.353
Y33.349
X66.413 Y33.327
Y33.323
X66.417 Y33.302
X66.418 Y33.296
X66.423 Y33.276
X66.424 Y33.271
X66.428 Y33.252
X66.43 Y33.245
X66.435 Y33.227
X66.437 Y33.222
X66.442 Y33.205
X66.445 Y33.196
X66.45 Y33.18
X66.453 Y33.174
X66.458 Y33.159
X66.462 Y33.149
X66.468 Y33.135
X66.473 Y33.126
X66.479 Y33.113
X66.485 Y33.103
X66.492 Y33.091
X66.497 Y33.081
X66.504 Y33.07
X66.514 Y33.057
X66.521 Y33.047
X66.529 Y33.037
X66.537 Y33.028
X66.546 Y33.018
X66.555 Y33.009
X66.56 Y33.003
X66.568 Y32.995
X66.573 Y32.991
X66.582 Y32.983
X66.589 Y32.977
X66.598 Y32.97
X66.605 Y32.964
X66.614 Y32.957
X66.62 Y32.953
X66.629 Y32.946
X66.635 Y32.942
X66.644 Y32.936
X66.653 Y32.93
X66.663 Y32.924
X66.67 Y32.92
X66.68 Y32.915
X66.686 Y32.912
X66.696 Y32.906
X66.704 Y32.902
X66.715 Y32.898
X66.723 Y32.894
X66.734 Y32.89
X66.742 Y32.887
X66.753 Y32.883
X66.759 Y32.88
X66.77 Y32.877
X66.776 Y32.875
X66.788 Y32.871
X66.798 Y32.869
X66.81 Y32.866
X66.813 Y32.865
X66.826 Y32.862
X66.835 Y32.86
X66.848 Y32.858
X66.853 Y32.857
X66.865 Y32.855
X66.873 Y32.854
X66.886 Y32.852
X66.891 Y32.851
X66.904 Y32.85
X66.911
X66.924 Y32.849
X66.931 Y32.848
X66.945
X66.949
X66.963
X66.966
X66.981
X66.984
X67.013
X67.016
X67.03
X67.044 Y32.849
X67.047
X67.061 Y32.85
X67.063
X67.077
X67.083 Y32.851
X67.177 Y32.951 Z-0.038
X67.198 Y32.976 Z-0.001
X67.177 Y32.951 Z-0.038
X67.083 Y32.851 Z-0.2
Y32.774
X67.19 Y32.68 Z-0.015
X67.199 Y32.673 Z0.
X67.19 Y32.68 Z-0.015
X67.083 Y32.774 Z-0.2
X67.07 Y32.773
X67.052 Y32.771
X67.033 Y32.77
X67.015 Y32.768
X66.997 Y32.767
X66.978 Y32.766
X66.959 Y32.765
X66.94 Y32.764
X66.922 Y32.763
X66.903
X66.883 Y32.762
X66.863
X66.844
X66.824
X66.794
X66.764 Y32.763
X66.736 Y32.764
X66.708 Y32.765
X66.681 Y32.767
X66.656 Y32.77
X66.631 Y32.772
X66.607 Y32.776
X66.584 Y32.779
X66.562 Y32.783
X66.541 Y32.787
X66.521 Y32.792
X66.502 Y32.797
X66.485 Y32.802
X66.467 Y32.808
X66.451 Y32.813
X66.436 Y32.819
X66.423 Y32.825
X66.409 Y32.831
X66.397 Y32.838
X66.386 Y32.844
X66.376 Y32.85
X66.366 Y32.857
X66.356 Y32.864
X66.346 Y32.872
X66.335 Y32.881
X66.326 Y32.89
X66.316 Y32.899
X66.306 Y32.908
X66.298 Y32.917
X66.29 Y32.926
X66.282 Y32.936
X66.274 Y32.945
X66.267 Y32.955
X66.26 Y32.964
X66.254 Y32.974
X66.248 Y32.984
X66.242 Y32.994
X66.236 Y33.005
X66.231 Y33.015
X66.227 Y33.026
X66.222 Y33.037
X66.218 Y33.049
X66.214 Y33.06
X66.21 Y33.072
X66.207 Y33.084
X66.203 Y33.097
X66.2 Y33.111
X66.197 Y33.126
X66.194 Y33.143
X66.191 Y33.161
X66.188 Y33.18
X66.186 Y33.199
X66.183 Y33.219
X66.181 Y33.239
X66.178 Y33.261
X66.176 Y33.283
X66.174 Y33.306
X66.172 Y33.329
X66.17 Y33.353
X66.168 Y33.377
X66.166 Y33.403
X66.165 Y33.429
X66.164 Y33.455
X66.163 Y33.483
X66.162 Y33.51
X66.161 Y33.539
X66.16 Y33.568
Y33.597
X66.159 Y33.628
Y33.659
Y35.805
G3 X65.943 Y36.021 R0.215
G1 X65.7
Y36.112
G0 Z5.
X66.994 Y36.02
G1 Z-0.199 F1000.
X67.109 Y35.905 Z0.
G0 Z5.
X68.252 Y35.383
G1 Z-0.2 F1000.
Y35.385
X68.268 Y35.418
X68.27 Y35.423
X68.286 Y35.455
X68.29 Y35.462
X68.307 Y35.493
X68.31 Y35.498
X68.327 Y35.529
X68.331 Y35.535
X68.349 Y35.564
X68.353 Y35.57
X68.372 Y35.598
X68.376 Y35.604
X68.396 Y35.632
X68.4 Y35.637
X68.421 Y35.664
X68.425 Y35.67
X68.446 Y35.695
X68.452 Y35.702
X68.474 Y35.726
X68.479 Y35.731
X68.501 Y35.755
X68.507 Y35.76
X68.53 Y35.783
X68.535 Y35.788
X68.559 Y35.81
X68.564 Y35.814
X68.588 Y35.834
X68.594 Y35.839
X68.618 Y35.859
X68.623 Y35.863
X68.648 Y35.882
X68.654 Y35.886
X68.68 Y35.904
X68.685 Y35.908
X68.711 Y35.925
X68.717 Y35.928
X68.743 Y35.945
X68.749 Y35.948
X68.776 Y35.963
X68.782 Y35.967
X68.809 Y35.981
X68.815 Y35.984
X68.843 Y35.998
X68.849 Y36.001
X68.877 Y36.013
X68.884 Y36.016
X68.912 Y36.028
X68.918 Y36.03
X68.946 Y36.041
X68.954 Y36.043
X68.983 Y36.053
X68.989 Y36.055
X69.019 Y36.064
X69.026 Y36.066
X69.056 Y36.074
X69.062 Y36.075
X69.092 Y36.082
X69.099 Y36.084
X69.13 Y36.09
X69.136 Y36.091
X69.167 Y36.096
X69.174 Y36.097
X69.206 Y36.101
X69.211 Y36.102
X69.243 Y36.105
X69.25 Y36.106
X69.282 Y36.108
X69.288
X69.321 Y36.11
X69.328
X69.361
X69.366
X69.399
X69.406
X69.439 Y36.108
X69.446
X69.479 Y36.105
X69.484
X69.516 Y36.102
X69.523 Y36.101
X69.555 Y36.097
X69.561 Y36.096
X69.593 Y36.091
X69.599 Y36.09
X69.63 Y36.084
X69.638 Y36.082
X69.668 Y36.075
X69.675 Y36.074
X69.705 Y36.066
X69.712 Y36.064
X69.741 Y36.055
X69.748 Y36.053
X69.778 Y36.043
X69.784 Y36.041
X69.813 Y36.03
X69.82 Y36.027
X69.848 Y36.016
X69.855 Y36.013
X69.883 Y36.001
X69.889 Y35.997
X69.917 Y35.984
X69.923 Y35.981
X69.95 Y35.966
X69.957 Y35.963
X69.984 Y35.947
X69.989 Y35.944
X70.015 Y35.928
X70.022 Y35.924
X70.048 Y35.906
X70.053 Y35.903
X70.079 Y35.885
X70.085 Y35.88
X70.11 Y35.861
X70.115 Y35.857
X70.139 Y35.837
X70.145 Y35.833
X70.169 Y35.812
X70.173 Y35.808
X70.197 Y35.786
X70.203 Y35.781
X70.226 Y35.758
X70.231 Y35.753
X70.253 Y35.729
X70.259 Y35.723
X70.28 Y35.699
X70.285 Y35.693
X70.306 Y35.668
X70.311 Y35.662
X70.331 Y35.635
X70.336 Y35.629
X70.355 Y35.602
X70.359 Y35.596
X70.378 Y35.568
X70.382 Y35.562
X70.4 Y35.532
X70.403 Y35.527
X70.421 Y35.496
X70.424 Y35.491
X70.441 Y35.459
X70.444 Y35.454
X70.46 Y35.421
X70.463 Y35.416
X70.478 Y35.383
X70.48 Y35.378
X70.495 Y35.344
X70.497 Y35.338
X70.511 Y35.303
X70.513 Y35.298
X70.527 Y35.262
X70.529 Y35.257
X70.541 Y35.22
X70.543 Y35.215
X70.555 Y35.177
X70.556 Y35.172
X70.567 Y35.133
X70.569 Y35.128
X70.579 Y35.089
X70.58 Y35.085
X70.59 Y35.044
X70.591 Y35.039
X70.6 Y34.997
X70.601 Y34.994
X70.609 Y34.951
X70.61 Y34.947
X70.618 Y34.904
X70.619 Y34.899
X70.626 Y34.855
G2 X70.576 Y34.682 R0.215
X70.413 Y34.606 R0.215
G1 X68.319
G2 X68.156 Y34.681 R0.215
X68.106 Y34.854 R0.215
G1 X68.113 Y34.899
Y34.902
X68.121 Y34.946
X68.122 Y34.951
X68.13 Y34.993
X68.131 Y34.997
X68.14 Y35.039
X68.141 Y35.044
X68.15 Y35.084
X68.151 Y35.089
X68.162 Y35.129
X68.163 Y35.134
X68.174 Y35.173
X68.176 Y35.178
X68.187 Y35.216
X68.189 Y35.221
X68.202 Y35.258
X68.203 Y35.263
X68.217 Y35.299
X68.219 Y35.304
X68.233 Y35.339
X68.235 Y35.345
X68.25 Y35.379
X68.252 Y35.383
G0 Z5.
X70.448 Y33.612
G1 Z0. F1000.
X70.5 Y33.549 Z-0.109
X70.541 Y33.496 Z-0.2
X70.533 Y33.472
X70.531 Y33.463
X70.522 Y33.44
X70.52 Y33.432
X70.511 Y33.409
X70.507 Y33.4
X70.497 Y33.378
X70.493 Y33.369
X70.482 Y33.348
X70.478 Y33.339
X70.466 Y33.318
X70.461 Y33.31
X70.449 Y33.289
X70.444 Y33.281
X70.43 Y33.261
X70.425 Y33.254
X70.411 Y33.234
X70.405 Y33.226
X70.389 Y33.207
X70.383 Y33.2
X70.367 Y33.181
X70.362 Y33.175
X70.344 Y33.157
X70.338 Y33.15
X70.319 Y33.132
X70.313 Y33.127
X70.294 Y33.11
X70.288 Y33.105
X70.268 Y33.088
X70.261 Y33.083
X70.24 Y33.066
X70.234 Y33.062
X70.212 Y33.046
X70.206 Y33.042
X70.184 Y33.027
X70.178 Y33.023
X70.154 Y33.009
X70.15 Y33.007
X70.127 Y32.993
X70.122 Y32.99
X70.098 Y32.977
X70.094 Y32.974
X70.07 Y32.962
X70.065 Y32.959
X70.04 Y32.947
X70.036 Y32.945
X70.012 Y32.934
X70.007 Y32.931
X69.982 Y32.92
X69.977 Y32.918
X69.952 Y32.908
X69.947 Y32.906
X69.922 Y32.897
X69.916 Y32.895
X69.89 Y32.886
X69.886 Y32.884
X69.861 Y32.876
X69.855 Y32.874
X69.829 Y32.867
X69.824 Y32.865
X69.798 Y32.858
X69.793 Y32.857
X69.766 Y32.85
X69.762 Y32.849
X69.735 Y32.843
X69.729 Y32.842
X69.702 Y32.837
X69.697 Y32.836
X69.67 Y32.831
X69.666
X69.639 Y32.827
X69.633 Y32.826
X69.605 Y32.823
X69.6 Y32.822
X69.572 Y32.819
X69.568
X69.54 Y32.817
X69.535 Y32.816
X69.507 Y32.815
X69.501
X69.473 Y32.814
X69.468
X69.439 Y32.813
X69.434
X69.395 Y32.814
X69.39
X69.352 Y32.816
X69.346
X69.308 Y32.819
X69.302
X69.265 Y32.823
X69.258 Y32.824
X69.222 Y32.829
X69.216 Y32.83
X69.18 Y32.836
X69.173 Y32.837
X69.138 Y32.844
X69.131 Y32.846
X69.097 Y32.854
X69.09 Y32.855
X69.056 Y32.865
X69.048 Y32.867
X69.014 Y32.877
X69.008 Y32.879
X68.975 Y32.89
X68.968 Y32.893
X68.935 Y32.906
X68.928 Y32.908
X68.896 Y32.922
X68.89 Y32.925
X68.858 Y32.939
X68.851 Y32.943
X68.82 Y32.959
X68.814 Y32.962
X68.783 Y32.979
X68.777 Y32.982
X68.747 Y33.
X68.74 Y33.004
X68.711 Y33.023
X68.705 Y33.027
X68.676 Y33.047
X68.669 Y33.052
X68.641 Y33.073
X68.636 Y33.077
X68.608 Y33.099
X68.602 Y33.104
X68.575 Y33.127
X68.57 Y33.131
X68.543 Y33.156
X68.538 Y33.16
X68.511 Y33.186
X68.506 Y33.191
X68.48 Y33.218
X68.474 Y33.224
X68.449 Y33.252
X68.444 Y33.258
X68.42 Y33.287
X68.415 Y33.294
X68.392 Y33.324
X68.387 Y33.331
X68.365 Y33.362
X68.36 Y33.369
X68.339 Y33.401
X68.335 Y33.408
X68.315 Y33.441
X68.311 Y33.448
X68.292 Y33.483
X68.289 Y33.49
X68.27 Y33.526
X68.267 Y33.532
X68.25 Y33.569
X68.247 Y33.576
X68.231 Y33.614
X68.228 Y33.62
X68.213 Y33.659
X68.211 Y33.666
X68.196 Y33.706
X68.194 Y33.713
X68.181 Y33.754
X68.179 Y33.759
X68.166 Y33.802
X68.165 Y33.809
X68.153 Y33.853
X68.152 Y33.858
X68.141 Y33.903
X68.14 Y33.909
X68.13 Y33.955
Y33.96
X68.121 Y34.008
X68.12 Y34.013
X68.112 Y34.062
X68.111 Y34.066
X68.105 Y34.116
X68.104 Y34.121
X68.098 Y34.172
Y34.176
X68.093 Y34.229
X68.092 Y34.233
X68.088 Y34.286
G2 X68.145 Y34.449 R0.215
X68.303 Y34.518 R0.215
G1 X70.898
X71.014 Y34.402 Z0.
X70.898 Y34.518 Z-0.2
Y34.533
X70.895 Y34.603
X70.892 Y34.672
X70.886 Y34.739
X70.879 Y34.805
X70.871 Y34.869
X70.861 Y34.931
X70.85 Y34.992
X70.837 Y35.051
X70.823 Y35.108
X70.807 Y35.164
X70.79 Y35.218
X70.772 Y35.271
X70.752 Y35.322
X70.731 Y35.372
X70.708 Y35.42
X70.684 Y35.466
X70.659 Y35.512
X70.633 Y35.555
X70.605 Y35.598
X70.576 Y35.639
X70.545 Y35.679
X70.513 Y35.717
X70.479 Y35.754
X70.444 Y35.79
X70.408 Y35.825
X70.372 Y35.858
X70.334 Y35.889
X70.296 Y35.919
X70.256 Y35.947
X70.216 Y35.974
X70.175 Y35.999
X70.132 Y36.022
X70.089 Y36.044
X70.045 Y36.065
X70. Y36.084
X69.953 Y36.102
X69.906 Y36.118
X69.857 Y36.133
X69.807 Y36.146
X69.756 Y36.157
X69.704 Y36.168
X69.65 Y36.176
X69.595 Y36.183
X69.539 Y36.189
X69.482 Y36.193
X69.423 Y36.195
X69.363 Y36.196
X69.305 Y36.195
X69.248 Y36.193
X69.191 Y36.189
X69.137 Y36.183
X69.083 Y36.176
X69.031 Y36.167
X68.979 Y36.157
X68.929 Y36.145
X68.88 Y36.132
X68.832 Y36.117
X68.785 Y36.1
X68.739 Y36.082
X68.694 Y36.063
X68.65 Y36.042
X68.607 Y36.02
X68.564 Y35.995
X68.523 Y35.97
X68.483 Y35.943
X68.443 Y35.914
X68.404 Y35.884
X68.366 Y35.851
X68.329 Y35.818
X68.292 Y35.782
X68.257 Y35.745
X68.222 Y35.707
X68.19 Y35.668
X68.158 Y35.627
X68.128 Y35.586
X68.1 Y35.543
X68.073 Y35.499
X68.047 Y35.453
X68.023 Y35.406
X68. Y35.358
X67.979 Y35.309
X67.959 Y35.258
X67.94 Y35.206
X67.923 Y35.152
X67.907 Y35.096
X67.893 Y35.04
X67.88 Y34.981
X67.868 Y34.922
X67.858 Y34.86
X67.85 Y34.798
X67.843 Y34.733
X67.838 Y34.667
X67.834 Y34.6
X67.831 Y34.531
X67.83 Y34.46
X67.831 Y34.389
X67.834 Y34.32
X67.838 Y34.252
X67.843 Y34.185
X67.851 Y34.12
X67.859 Y34.057
X67.87 Y33.995
X67.881 Y33.935
X67.895 Y33.877
X67.909 Y33.82
X67.926 Y33.765
X67.944 Y33.711
X67.963 Y33.658
X67.983 Y33.607
X68.005 Y33.558
X68.029 Y33.51
X68.054 Y33.463
X68.08 Y33.418
X68.108 Y33.374
X68.137 Y33.332
X68.168 Y33.29
X68.2 Y33.25
X68.234 Y33.211
X68.269 Y33.174
X68.306 Y33.137
X68.344 Y33.102
X68.383 Y33.068
X68.422 Y33.037
X68.463 Y33.007
X68.504 Y32.978
X68.546 Y32.951
X68.59 Y32.925
X68.634 Y32.901
X68.679 Y32.879
X68.726 Y32.858
X68.773 Y32.839
X68.822 Y32.821
X68.872 Y32.804
X68.922 Y32.789
X68.975 Y32.776
X69.028 Y32.764
X69.083 Y32.754
X69.138 Y32.745
X69.196 Y32.738
X69.254 Y32.732
X69.314 Y32.728
X69.375 Y32.726
X69.437 Y32.725
X69.486
X69.533 Y32.727
X69.58 Y32.729
X69.626 Y32.733
X69.671 Y32.737
X69.716 Y32.742
X69.76 Y32.749
X69.803 Y32.756
X69.845 Y32.764
X69.886 Y32.773
X69.927 Y32.783
X69.967 Y32.794
X70.007 Y32.806
X70.045 Y32.819
X70.083 Y32.833
X70.121 Y32.848
X70.157 Y32.863
X70.193 Y32.88
X70.229 Y32.897
X70.264 Y32.915
X70.298 Y32.935
X70.332 Y32.955
X70.364 Y32.976
X70.397 Y32.998
X70.428 Y33.02
X70.457 Y33.043
X70.485 Y33.067
X70.513 Y33.091
X70.538 Y33.116
X70.563 Y33.141
X70.586 Y33.168
X70.609 Y33.195
X70.63 Y33.222
X70.651 Y33.25
X70.67 Y33.279
X70.688 Y33.309
X70.705 Y33.34
X70.722 Y33.372
X70.737 Y33.404
X70.751 Y33.438
X70.765 Y33.472
X70.773 Y33.496
X70.541
X70.773
X70.823 Y33.533 Z-0.136
X70.906 Y33.597 Z-0.026
X70.923 Y33.611 Z-0.001
G0 Z5.
X71.955 Y31.262
G1 Z0. F1000.
X72.07 Y31.377 Z-0.2
X72.304
X72.419 Y31.262 Z0.
X72.304 Y31.377 Z-0.2
Y32.884
G2 X72.519 Y33.099 R0.215
X72.661 Y33.046 R0.215
G1 X72.693 Y33.018
X72.724 Y32.993
X72.755 Y32.969
X72.787 Y32.946
X72.819 Y32.925
X72.851 Y32.904
X72.884 Y32.885
X72.918 Y32.867
X72.951 Y32.85
X72.986 Y32.834
X73.021 Y32.819
X73.057 Y32.805
X73.093 Y32.792
X73.13 Y32.781
X73.168 Y32.77
X73.206 Y32.761
X73.246 Y32.752
X73.285 Y32.745
X73.326 Y32.739
X73.367 Y32.734
X73.409 Y32.73
X73.452 Y32.727
X73.495 Y32.725
X73.539
X73.589 Y32.726
X73.637 Y32.728
X73.685 Y32.732
X73.731 Y32.738
X73.777 Y32.745
X73.821 Y32.753
X73.865 Y32.764
X73.908 Y32.775
X73.95 Y32.789
X73.992 Y32.803
X74.032 Y32.82
X74.072 Y32.837
X74.111 Y32.857
X74.15 Y32.878
X74.188 Y32.9
X74.226 Y32.925
X74.262 Y32.951
X74.299 Y32.978
X74.335 Y33.007
X74.37 Y33.039
X74.405 Y33.071
X74.439 Y33.106
X74.473 Y33.142
X74.506 Y33.181
X74.538 Y33.22
X74.568 Y33.26
X74.597 Y33.302
X74.625 Y33.344
X74.652 Y33.388
X74.677 Y33.434
X74.701 Y33.481
X74.724 Y33.528
X74.745 Y33.578
X74.765 Y33.629
X74.784 Y33.681
X74.801 Y33.735
X74.817 Y33.789
X74.832 Y33.846
X74.846 Y33.904
X74.858 Y33.963
X74.868 Y34.024
X74.878 Y34.087
X74.886 Y34.15
X74.892 Y34.216
X74.897 Y34.283
X74.901 Y34.351
X74.903 Y34.421
X74.904 Y34.492
X74.903 Y34.561
X74.901 Y34.628
X74.898 Y34.694
X74.893 Y34.758
X74.887 Y34.821
X74.88 Y34.883
X74.872 Y34.943
X74.862 Y35.002
X74.852 Y35.059
X74.84 Y35.115
X74.826 Y35.17
X74.812 Y35.223
X74.796 Y35.275
X74.779 Y35.325
X74.761 Y35.375
X74.742 Y35.423
X74.722 Y35.469
X74.7 Y35.515
X74.678 Y35.559
X74.654 Y35.601
X74.629 Y35.643
X74.603 Y35.683
X74.576 Y35.723
X74.548 Y35.76
X74.519 Y35.797
X74.489 Y35.831
X74.459 Y35.863
X74.427 Y35.895
X74.395 Y35.924
X74.362 Y35.952
X74.328 Y35.978
X74.293 Y36.002
X74.258 Y36.025
X74.221 Y36.047
X74.183 Y36.067
X74.145 Y36.086
X74.105 Y36.103
X74.064 Y36.119
X74.022 Y36.133
X73.979 Y36.146
X73.934 Y36.158
X73.888 Y36.168
X73.841 Y36.176
X73.792 Y36.183
X73.742 Y36.189
X73.691 Y36.193
X73.639 Y36.195
X73.585 Y36.196
X73.541 Y36.195
X73.498 Y36.193
X73.456 Y36.189
X73.414 Y36.184
X73.373 Y36.177
X73.333 Y36.168
X73.293 Y36.158
X73.255 Y36.147
X73.216 Y36.134
X73.178 Y36.119
X73.141 Y36.103
X73.104 Y36.086
X73.067 Y36.066
X73.03 Y36.046
X72.995 Y36.023
X72.959 Y35.999
X72.924 Y35.973
X72.889 Y35.945
X72.854 Y35.916
X72.82 Y35.885
X72.785 Y35.851
X72.776 Y35.842
X72.782 Y35.846
X72.788 Y35.851
X72.83 Y35.881
X72.837 Y35.886
X72.879 Y35.914
X72.886 Y35.919
X72.928 Y35.944
X72.936 Y35.949
X72.979 Y35.972
X72.987 Y35.977
X73.03 Y35.998
X73.039 Y36.002
X73.082 Y36.021
X73.091 Y36.025
X73.135 Y36.041
X73.145 Y36.045
X73.188 Y36.059
X73.199 Y36.063
X73.243 Y36.075
X73.253 Y36.077
X73.298 Y36.087
X73.308 Y36.089
X73.353 Y36.097
X73.363 Y36.099
X73.409 Y36.104
X73.419 Y36.105
X73.465 Y36.109
X73.475
X73.521 Y36.11
X73.53
X73.565
X73.574 Y36.109
X73.608 Y36.107
X73.616
X73.65 Y36.104
X73.658 Y36.103
X73.691 Y36.099
X73.7 Y36.097
X73.733 Y36.092
X73.741 Y36.09
X73.773 Y36.083
X73.782 Y36.081
X73.814 Y36.073
X73.822 Y36.071
X73.853 Y36.061
X73.861 Y36.059
X73.892 Y36.048
X73.901 Y36.045
X73.93 Y36.033
X73.939 Y36.029
X73.967 Y36.016
X73.977 Y36.012
X74.005 Y35.998
X74.013 Y35.993
X74.04 Y35.978
X74.048 Y35.973
X74.075 Y35.956
X74.083 Y35.951
X74.109 Y35.933
X74.117 Y35.927
X74.143 Y35.908
X74.149 Y35.903
X74.174 Y35.882
X74.182 Y35.876
X74.206 Y35.854
X74.212 Y35.848
X74.236 Y35.825
X74.242 Y35.819
X74.265 Y35.795
X74.271 Y35.788
X74.293 Y35.763
X74.298 Y35.757
X74.32 Y35.73
X74.325 Y35.724
X74.346 Y35.696
X74.35 Y35.69
X74.37 Y35.661
X74.375 Y35.654
X74.394 Y35.624
X74.398 Y35.618
X74.417 Y35.586
X74.421 Y35.579
X74.439 Y35.547
X74.442 Y35.54
X74.459 Y35.507
X74.463 Y35.5
X74.479 Y35.465
X74.481 Y35.459
X74.497 Y35.423
X74.499 Y35.417
X74.514 Y35.38
X74.516 Y35.374
X74.53 Y35.335
X74.532 Y35.329
X74.545 Y35.29
X74.547 Y35.284
X74.559 Y35.243
X74.56 Y35.239
X74.571 Y35.197
X74.573 Y35.191
X74.583 Y35.148
X74.584 Y35.143
X74.594 Y35.099
X74.595 Y35.094
X74.604 Y35.049
Y35.045
X74.612 Y34.998
X74.613 Y34.993
X74.62 Y34.945
X74.621 Y34.942
X74.627 Y34.893
Y34.889
X74.633 Y34.839
Y34.835
X74.638 Y34.784
Y34.78
X74.642 Y34.728
Y34.724
X74.645 Y34.671
Y34.667
X74.647 Y34.613
Y34.61
X74.649 Y34.554
Y34.55
Y34.494
Y34.491
Y34.431
Y34.427
X74.647 Y34.368
Y34.365
X74.645 Y34.308
Y34.304
X74.642 Y34.248
Y34.244
X74.638 Y34.189
X74.637 Y34.185
X74.632 Y34.132
Y34.127
X74.626 Y34.075
Y34.071
X74.619 Y34.019
Y34.015
X74.611 Y33.965
X74.61 Y33.96
X74.602 Y33.912
X74.601 Y33.907
X74.592 Y33.86
X74.591 Y33.855
X74.581 Y33.808
X74.58 Y33.803
X74.569 Y33.758
X74.567 Y33.753
X74.556 Y33.709
X74.554 Y33.703
X74.541 Y33.661
X74.539 Y33.656
X74.526 Y33.614
X74.524 Y33.608
X74.509 Y33.568
X74.507 Y33.562
X74.491 Y33.523
X74.489 Y33.517
X74.473 Y33.48
X74.47 Y33.473
X74.453 Y33.437
X74.449 Y33.431
X74.431 Y33.396
X74.428 Y33.389
X74.409 Y33.355
X74.405 Y33.348
X74.385 Y33.316
X74.381 Y33.309
X74.36 Y33.278
X74.356 Y33.271
X74.335 Y33.241
X74.33 Y33.235
X74.308 Y33.207
X74.303 Y33.201
X74.281 Y33.173
X74.276 Y33.167
X74.253 Y33.141
X74.247 Y33.135
X74.223 Y33.11
X74.217 Y33.104
X74.193 Y33.081
X74.186 Y33.075
X74.161 Y33.052
X74.155 Y33.047
X74.129 Y33.026
X74.122 Y33.02
X74.095 Y33.
X74.088 Y32.995
X74.061 Y32.976
X74.053 Y32.971
X74.026 Y32.954
X74.017 Y32.949
X73.989 Y32.933
X73.981 Y32.929
X73.952 Y32.914
X73.944 Y32.91
X73.914 Y32.897
X73.906 Y32.893
X73.877 Y32.881
X73.867 Y32.877
X73.836 Y32.866
X73.828 Y32.864
X73.796 Y32.854
X73.788 Y32.852
X73.756 Y32.843
X73.747 Y32.841
X73.715 Y32.834
X73.706 Y32.832
X73.673 Y32.827
X73.664 Y32.825
X73.63 Y32.821
X73.622 Y32.82
X73.588 Y32.817
X73.58 Y32.816
X73.545 Y32.814
X73.537
X73.501 Y32.813
X73.494
X73.448 Y32.814
X73.44
X73.395 Y32.817
X73.388
X73.343 Y32.821
X73.335 Y32.822
X73.291 Y32.827
X73.283 Y32.829
X73.239 Y32.836
X73.231 Y32.837
X73.188 Y32.846
X73.18 Y32.847
X73.137 Y32.858
X73.129 Y32.86
X73.087 Y32.871
X73.079 Y32.874
X73.036 Y32.887
X73.03 Y32.889
X72.988 Y32.904
X72.98 Y32.907
X72.938 Y32.924
X72.931 Y32.927
X72.89 Y32.945
X72.883 Y32.948
X72.843 Y32.968
X72.836 Y32.971
X72.796 Y32.993
X72.789 Y32.996
X72.749 Y33.019
X72.743 Y33.023
X72.704 Y33.047
X72.698 Y33.051
X72.659 Y33.077
X72.653 Y33.081
X72.615 Y33.109
X72.61 Y33.113
X72.572 Y33.142
X72.566 Y33.146
X72.528 Y33.177
X72.524 Y33.181
X72.487 Y33.213
X72.482 Y33.218
X72.445 Y33.252
X72.441 Y33.256
X72.405 Y33.291
X72.4 Y33.295
X72.364 Y33.332
X72.332 Y33.377
X72.311 Y33.428
X72.304 Y33.482
Y35.254
X72.309 Y35.299
X72.322 Y35.342
X72.345 Y35.381
X72.383 Y35.433
X72.386 Y35.437
X72.425 Y35.487
X72.428 Y35.492
X72.467 Y35.54
X72.471 Y35.544
X72.51 Y35.59
X72.514 Y35.595
X72.553 Y35.638
X72.558 Y35.643
X72.589 Y35.675
X72.6 Y35.682 Z-0.195
X72.649 Y35.72 Z-0.182
X72.655 Y35.725
X72.699 Y35.769 Z-0.187
X72.776 Y35.842 Z-0.2
X72.699 Y35.769 Z-0.187
X72.655 Y35.725 Z-0.182
X72.649 Y35.72
X72.6 Y35.682 Z-0.195
X72.589 Y35.675 Z-0.2
G2 X72.315 Y35.81 R0.215
X72.304 Y35.879 R0.215
G1 Y36.112
X72.419 Y36.227 Z0.
X72.304 Y36.112 Z-0.2
X72.07
X71.955 Y36.227 Z0.
X72.07 Y36.112 Z-0.2
Y31.377
G0 Z5.
X87.231 Y32.066
G1 Z0. F1000.
X87.345 Y32.181 Z-0.199
G0 Z5.
X87.231 Y37.021
G1 Z0. F1000.
X87.346 Y36.905 Z-0.2
X90.638
X90.754 Y37.021 Z0.
X90.638 Y36.905 Z-0.2
Y36.725
X90.754 Y36.609 Z0.
X90.638 Y36.725 Z-0.2
X87.811
G3 X87.595 Y36.509 R0.215
G1 Y34.932
G3 X87.811 Y34.717 R0.215
G1 X90.441
X90.556 Y34.832 Z0.
X90.441 Y34.717 Z-0.2
Y34.536
X90.556 Y34.421 Z0.
X90.441 Y34.536 Z-0.2
X87.811
G3 X87.595 Y34.321 R0.215
G1 Y32.578
G3 X87.811 Y32.362 R0.215
G1 X90.757
X90.872 Y32.478 Z0.
X90.757 Y32.362 Z-0.2
Y32.182
X90.872 Y32.066 Z0.
X90.757 Y32.182 Z-0.2
X87.346
Y36.905
G0 Z5.
X91.945 Y32.066
G1 Z0. F1000.
X92.061 Y32.182 Z-0.2
X92.294
X92.41 Y32.066 Z0.
X92.294 Y32.182 Z-0.2
Y34.637
X92.3 Y34.688
X92.318 Y34.736
X92.347 Y34.778
X92.389 Y34.827
X92.392 Y34.83
X92.434 Y34.877
X92.437 Y34.881
X92.479 Y34.925
X92.483 Y34.929
X92.525 Y34.972
X92.529 Y34.975
X92.571 Y35.016
G2 X92.303 Y35.161 R0.215
X92.294 Y35.222 R0.215
G1 Y35.482
X92.41 Y35.597 Z0.
X92.294 Y35.482 Z-0.2
X92.061
X91.945 Y35.597 Z0.
X92.061 Y35.482 Z-0.2
Y32.182
Y35.482
X92.294
Y35.222
G3 X92.51 Y35.007 R0.215
X92.571 Y35.016 R0.215
G1 X92.624 Y35.051 Z-0.184
X92.643 Y35.067 Z-0.182
X92.705 Y35.125 Z-0.191
X92.762 Y35.175 Z-0.2
X92.784 Y35.198
X92.822 Y35.233
X92.861 Y35.267
X92.899 Y35.298
X92.938 Y35.328
X92.977 Y35.356
X93.015 Y35.382
X93.054 Y35.406
X93.094 Y35.428
X93.133 Y35.449
X93.172 Y35.468
X93.212 Y35.485
X93.252 Y35.5
X93.292 Y35.514
X93.332 Y35.526
X93.373 Y35.537
X93.414 Y35.546
X93.455 Y35.553
X93.497 Y35.559
X93.539 Y35.563
X93.582 Y35.565
X93.624 Y35.566
X93.718 Y35.564
X93.805 Y35.557
X93.888 Y35.547
X93.965 Y35.533
X94.037 Y35.514
X94.104 Y35.493
X94.166 Y35.468
X94.223 Y35.439
X94.276 Y35.407
X94.326 Y35.372
X94.371 Y35.334
X94.413 Y35.292
X94.452 Y35.245
X94.488 Y35.195
X94.521 Y35.14
X94.552 Y35.08
X94.579 Y35.015
X94.603 Y34.944
X94.624 Y34.868
X94.641 Y34.787
X94.655 Y34.7
X94.664 Y34.607
X94.67 Y34.509
X94.672 Y34.403
Y32.182
X94.788 Y32.066 Z0.
X94.672 Y32.182 Z-0.2
X94.439
X94.323 Y32.066 Z0.
X94.439 Y32.182 Z-0.2
Y34.379
Y34.38
Y34.417
Y34.422
X94.438 Y34.458
Y34.461
X94.436 Y34.497
Y34.501
X94.434 Y34.536
Y34.54
X94.431 Y34.574
Y34.578
X94.428 Y34.611
X94.427 Y34.615
X94.424 Y34.648
X94.423 Y34.652
X94.419 Y34.683
X94.418 Y34.689
X94.413 Y34.719
X94.412 Y34.723
X94.407 Y34.753
X94.406 Y34.758
X94.4 Y34.787
X94.399 Y34.792
X94.392 Y34.82
X94.391 Y34.826
X94.384 Y34.853
X94.382 Y34.859
X94.374 Y34.885
X94.373 Y34.891
X94.364 Y34.916
X94.362 Y34.923
X94.353 Y34.947
X94.351 Y34.954
X94.341 Y34.977
X94.339 Y34.983
X94.329 Y35.006
X94.325 Y35.013
X94.315 Y35.035
X94.311 Y35.043
X94.3 Y35.063
X94.296 Y35.07
X94.284 Y35.09
X94.279 Y35.098
X94.267 Y35.117
X94.262 Y35.125
X94.249 Y35.143
X94.244 Y35.15
X94.23 Y35.167
X94.223 Y35.176
X94.209 Y35.192
X94.203 Y35.199
X94.189 Y35.215
X94.181 Y35.223
X94.165 Y35.238
X94.158 Y35.244
X94.142 Y35.258
X94.135 Y35.264
X94.118 Y35.278
X94.109 Y35.285
X94.091 Y35.298
X94.085 Y35.302
X94.066 Y35.314
X94.057 Y35.32
X94.038 Y35.331
X94.031 Y35.336
X94.011 Y35.347
X94.003 Y35.351
X93.982 Y35.361
X93.973 Y35.365
X93.952 Y35.374
X93.945 Y35.377
X93.923 Y35.386
X93.915 Y35.389
X93.892 Y35.397
X93.886 Y35.399
X93.862 Y35.406
X93.854 Y35.409
X93.83 Y35.415
X93.823 Y35.417
X93.798 Y35.423
X93.791 Y35.425
X93.765 Y35.43
X93.759 Y35.431
X93.732 Y35.436
X93.726
X93.699 Y35.44
X93.693 Y35.441
X93.666 Y35.444
X93.659 Y35.445
X93.63 Y35.447
X93.626 Y35.448
X93.596 Y35.449
X93.59 Y35.45
X93.56 Y35.451
X93.555
X93.524
X93.517
X93.475 Y35.45
X93.464 Y35.449
X93.422 Y35.446
X93.411 Y35.445
X93.369 Y35.44
X93.359 Y35.439
X93.317 Y35.431
X93.307 Y35.429
X93.265 Y35.42
X93.254 Y35.418
X93.212 Y35.406
X93.203 Y35.403
X93.161 Y35.39
X93.152 Y35.387
X93.11 Y35.371
X93.102 Y35.368
X93.059 Y35.35
X93.051 Y35.347
X93.009 Y35.327
X93.001 Y35.323
X92.959 Y35.301
X92.952 Y35.297
X92.91 Y35.273
X92.903 Y35.269
X92.861 Y35.243
X92.854 Y35.24
X92.812 Y35.212
X92.806 Y35.207
X92.764 Y35.177
X92.762 Y35.175
G0 Z5.
X98.276 Y32.981
G1 Z0. F1000.
X98.329 Y32.92 Z-0.107
X98.372 Y32.866 Z-0.2
X98.367 Y32.847
X98.365 Y32.839
X98.358 Y32.815
X98.355 Y32.808
X98.347 Y32.785
X98.345 Y32.777
X98.336 Y32.755
X98.333 Y32.747
X98.323 Y32.725
X98.32 Y32.718
X98.31 Y32.696
X98.306 Y32.688
X98.295 Y32.668
X98.291 Y32.66
X98.28 Y32.64
X98.275 Y32.632
X98.262 Y32.612
X98.258 Y32.605
X98.244 Y32.586
X98.239 Y32.579
X98.225 Y32.56
X98.22 Y32.553
X98.205 Y32.535
X98.2 Y32.529
X98.185 Y32.512
X98.178 Y32.504
X98.161 Y32.487
X98.156 Y32.482
X98.139 Y32.466
X98.133 Y32.46
X98.115 Y32.444
X98.109 Y32.438
X98.09 Y32.423
X98.084 Y32.418
X98.065 Y32.403
X98.059 Y32.399
X98.039 Y32.385
X98.034 Y32.381
X98.014 Y32.367
X98.009 Y32.364
X97.988 Y32.351
X97.983 Y32.348
X97.962 Y32.335
X97.957 Y32.332
X97.935 Y32.32
X97.929 Y32.317
X97.908 Y32.306
X97.903 Y32.304
X97.881 Y32.293
X97.875 Y32.29
X97.853 Y32.28
X97.848 Y32.278
X97.826 Y32.268
X97.819 Y32.266
X97.796 Y32.257
X97.791 Y32.255
X97.767 Y32.247
X97.762 Y32.245
X97.739 Y32.237
X97.733 Y32.236
X97.709 Y32.229
X97.703 Y32.227
X97.679 Y32.221
X97.674 Y32.219
X97.649 Y32.214
X97.644 Y32.212
X97.619 Y32.207
X97.613 Y32.206
X97.587 Y32.201
X97.583
X97.557 Y32.197
X97.552 Y32.196
X97.526 Y32.192
X97.52
X97.494 Y32.189
X97.489
X97.462 Y32.186
X97.457
X97.431 Y32.185
X97.426 Y32.184
X97.399 Y32.183
X97.394
X97.366
X97.36
X97.321 Y32.184
X97.314
X97.276 Y32.186
X97.268
X97.23 Y32.189
X97.223 Y32.19
X97.186 Y32.194
X97.177 Y32.196
X97.141 Y32.201
X97.134 Y32.202
X97.098 Y32.209
X97.089 Y32.211
X97.054 Y32.219
X97.047 Y32.221
X97.012 Y32.23
X97.004 Y32.233
X96.969 Y32.243
X96.961 Y32.246
X96.927 Y32.258
X96.92 Y32.261
X96.887 Y32.274
X96.879 Y32.277
X96.846 Y32.292
X96.839 Y32.295
X96.807 Y32.311
X96.799 Y32.315
X96.768 Y32.332
X96.761 Y32.336
X96.731 Y32.354
X96.723 Y32.358
X96.693 Y32.378
X96.686 Y32.382
X96.657 Y32.403
X96.651 Y32.408
X96.622 Y32.43
X96.616 Y32.435
X96.588 Y32.458
X96.581 Y32.463
X96.554 Y32.488
X96.548 Y32.493
X96.522 Y32.518
X96.516 Y32.524
X96.49 Y32.551
X96.485 Y32.556
X96.459 Y32.584
X96.455 Y32.589
X96.43 Y32.619
X96.424 Y32.626
X96.4 Y32.656
X96.395 Y32.662
X96.372 Y32.694
X96.368 Y32.701
X96.346 Y32.734
X96.341 Y32.741
X96.32 Y32.776
X96.316 Y32.782
X96.296 Y32.818
X96.292 Y32.825
X96.273 Y32.861
X96.27 Y32.868
X96.252 Y32.906
X96.249 Y32.913
X96.232 Y32.952
X96.229 Y32.959
X96.213 Y32.999
X96.211 Y33.005
X96.196 Y33.047
X96.194 Y33.053
X96.18 Y33.096
X96.178 Y33.102
X96.165 Y33.146
X96.164 Y33.152
X96.152 Y33.197
X96.151 Y33.203
X96.14 Y33.249
X96.139 Y33.255
X96.129 Y33.303
X96.128 Y33.308
X96.119 Y33.357
X96.118 Y33.362
X96.111 Y33.413
X96.11 Y33.417
X96.103 Y33.468
Y33.473
X96.097 Y33.526
Y33.53
X96.092 Y33.584
Y33.589
X96.088 Y33.644
Y33.648
X96.085 Y33.705
Y33.708
X96.084 Y33.766
Y33.77
X96.083 Y33.828
Y33.832
X96.084 Y33.891
Y33.895
X96.085 Y33.952
Y33.956
X96.088 Y34.012
Y34.017
X96.092 Y34.072
Y34.077
X96.097 Y34.13
Y34.135
X96.103 Y34.187
Y34.192
X96.11 Y34.244
X96.111 Y34.248
X96.118 Y34.298
X96.119 Y34.304
X96.128 Y34.353
X96.129 Y34.358
X96.139 Y34.406
X96.14 Y34.411
X96.151 Y34.458
X96.152 Y34.464
X96.164 Y34.509
X96.165 Y34.515
X96.178 Y34.559
X96.18 Y34.565
X96.194 Y34.607
X96.196 Y34.614
X96.211 Y34.656
X96.213 Y34.662
X96.229 Y34.703
X96.232 Y34.709
X96.249 Y34.748
X96.252 Y34.755
X96.27 Y34.793
X96.273 Y34.8
X96.292 Y34.837
X96.296 Y34.843
X96.316 Y34.879
X96.32 Y34.886
X96.341 Y34.92
X96.345 Y34.927
X96.367 Y34.96
X96.372 Y34.967
X96.395 Y34.999
X96.4 Y35.005
X96.424 Y35.036
X96.429 Y35.043
X96.454 Y35.072
X96.459 Y35.077
X96.484 Y35.106
X96.49 Y35.111
X96.516 Y35.138
X96.521 Y35.144
X96.548 Y35.169
X96.554 Y35.174
X96.581 Y35.199
X96.587 Y35.204
X96.615 Y35.227
X96.622 Y35.233
X96.651 Y35.255
X96.657 Y35.259
X96.686 Y35.28
X96.693 Y35.285
X96.723 Y35.304
X96.73 Y35.309
X96.761 Y35.327
X96.768 Y35.331
X96.799 Y35.348
X96.807 Y35.352
X96.839 Y35.368
X96.846 Y35.371
X96.878 Y35.385
X96.887 Y35.389
X96.92 Y35.402
X96.927 Y35.405
X96.961 Y35.417
X96.969 Y35.42
X97.004 Y35.43
X97.011 Y35.433
X97.046 Y35.442
X97.054 Y35.444
X97.089 Y35.452
X97.097 Y35.454
X97.133 Y35.461
X97.141 Y35.462
X97.178 Y35.468
X97.185 Y35.469
X97.223 Y35.473
X97.23 Y35.474
X97.268 Y35.477
X97.275
X97.314 Y35.479
X97.321
X97.361 Y35.48
X97.366
X97.394
X97.398
X97.426 Y35.479
X97.431
X97.457 Y35.477
X97.463
X97.49 Y35.474
X97.494
X97.52 Y35.471
X97.526
X97.552 Y35.467
X97.557 Y35.466
X97.583 Y35.462
X97.588
X97.613 Y35.457
X97.619 Y35.456
X97.644 Y35.451
X97.649 Y35.449
X97.674 Y35.444
X97.68 Y35.442
X97.704 Y35.436
X97.709 Y35.434
X97.733 Y35.427
X97.739 Y35.425
X97.763 Y35.418
X97.768 Y35.416
X97.791 Y35.407
X97.797 Y35.405
X97.82 Y35.396
X97.826 Y35.394
X97.848 Y35.385
X97.854 Y35.382
X97.876 Y35.372
X97.881 Y35.37
X97.903 Y35.359
X97.909 Y35.356
X97.931 Y35.344
X97.935 Y35.342
X97.957 Y35.33
X97.963 Y35.327
X97.984 Y35.314
X97.989 Y35.311
X98.009 Y35.298
X98.014 Y35.294
X98.035 Y35.281
X98.04 Y35.277
X98.06 Y35.263
X98.065 Y35.258
X98.084 Y35.243
X98.091 Y35.239
X98.109 Y35.223
X98.115 Y35.218
X98.133 Y35.202
X98.139 Y35.196
X98.156 Y35.179
X98.163 Y35.173
X98.179 Y35.156
X98.185 Y35.15
X98.2 Y35.132
X98.205 Y35.126
X98.22 Y35.108
X98.226 Y35.1
X98.24 Y35.082
X98.245 Y35.075
X98.258 Y35.055
X98.262 Y35.049
X98.275 Y35.029
X98.28 Y35.021
X98.291 Y35.001
X98.296 Y34.993
X98.306 Y34.972
X98.31 Y34.965
X98.32 Y34.944
X98.324 Y34.935
X98.333 Y34.913
X98.336 Y34.906
X98.345 Y34.883
X98.347 Y34.876
X98.355 Y34.853
X98.358 Y34.845
X98.365 Y34.822
X98.367 Y34.814
X98.372 Y34.795
X98.329 Y34.741 Z-0.107
X98.277 Y34.679 Z-0.001
X98.329 Y34.741 Z-0.107
X98.372 Y34.795 Z-0.2
X98.604
X98.648 Y34.762 Z-0.143
X98.731 Y34.696 Z-0.03
X98.751 Y34.679 Z0.
X98.731 Y34.696 Z-0.03
X98.648 Y34.762 Z-0.143
X98.604 Y34.795 Z-0.2
X98.594 Y34.826
X98.581 Y34.861
X98.568 Y34.895
X98.553 Y34.928
X98.538 Y34.96
X98.522 Y34.991
X98.505 Y35.021
X98.487 Y35.05
X98.468 Y35.079
X98.448 Y35.106
X98.428 Y35.133
X98.406 Y35.159
X98.384 Y35.184
X98.36 Y35.209
X98.336 Y35.232
X98.31 Y35.256
X98.283 Y35.278
X98.255 Y35.3
X98.226 Y35.321
X98.197 Y35.342
X98.166 Y35.361
X98.135 Y35.38
X98.103 Y35.398
X98.071 Y35.415
X98.038 Y35.431
X98.004 Y35.446
X97.97 Y35.46
X97.935 Y35.474
X97.899 Y35.486
X97.862 Y35.498
X97.825 Y35.509
X97.787 Y35.518
X97.749 Y35.527
X97.709 Y35.535
X97.669 Y35.542
X97.628 Y35.549
X97.586 Y35.554
X97.543 Y35.558
X97.499 Y35.562
X97.455 Y35.564
X97.41 Y35.565
X97.364 Y35.566
X97.304 Y35.565
X97.245 Y35.563
X97.188 Y35.559
X97.132 Y35.553
X97.077 Y35.546
X97.023 Y35.537
X96.971 Y35.527
X96.92 Y35.516
X96.87 Y35.502
X96.822 Y35.488
X96.774 Y35.472
X96.728 Y35.454
X96.683 Y35.435
X96.638 Y35.414
X96.595 Y35.392
X96.553 Y35.369
X96.512 Y35.344
X96.472 Y35.317
X96.433 Y35.289
X96.394 Y35.259
X96.356 Y35.228
X96.32 Y35.195
X96.284 Y35.16
X96.249 Y35.124
X96.216 Y35.087
X96.184 Y35.049
X96.153 Y35.009
X96.124 Y34.968
X96.096 Y34.925
X96.07 Y34.882
X96.045 Y34.836
X96.021 Y34.79
X95.998 Y34.742
X95.977 Y34.692
X95.958 Y34.641
X95.939 Y34.588
X95.922 Y34.534
X95.907 Y34.478
X95.893 Y34.421
X95.88 Y34.362
X95.868 Y34.301
X95.859 Y34.239
X95.85 Y34.175
X95.843 Y34.109
X95.838 Y34.042
X95.834 Y33.973
X95.832 Y33.902
X95.831 Y33.83
X95.832 Y33.758
X95.834 Y33.688
X95.838 Y33.619
X95.843 Y33.552
X95.85 Y33.487
X95.859 Y33.423
X95.868 Y33.361
X95.88 Y33.3
X95.893 Y33.241
X95.907 Y33.184
X95.922 Y33.128
X95.939 Y33.074
X95.958 Y33.021
X95.977 Y32.97
X95.998 Y32.92
X96.021 Y32.872
X96.045 Y32.826
X96.07 Y32.78
X96.096 Y32.737
X96.124 Y32.694
X96.153 Y32.653
X96.184 Y32.613
X96.216 Y32.575
X96.249 Y32.537
X96.284 Y32.501
X96.32 Y32.466
X96.357 Y32.434
X96.394 Y32.402
X96.433 Y32.372
X96.472 Y32.344
X96.512 Y32.318
X96.553 Y32.292
X96.595 Y32.269
X96.638 Y32.247
X96.683 Y32.226
X96.728 Y32.207
X96.774 Y32.189
X96.822 Y32.173
X96.87 Y32.158
X96.92 Y32.145
X96.971 Y32.133
X97.023 Y32.123
X97.077 Y32.115
X97.132 Y32.107
X97.188 Y32.102
X97.245 Y32.098
X97.304 Y32.095
X97.364
X97.41
X97.455 Y32.096
X97.499 Y32.099
X97.543 Y32.102
X97.586 Y32.107
X97.628 Y32.112
X97.669 Y32.118
X97.709 Y32.125
X97.749 Y32.133
X97.788 Y32.142
X97.826 Y32.152
X97.863 Y32.163
X97.899 Y32.174
X97.935 Y32.187
X97.97 Y32.2
X98.004 Y32.214
X98.038 Y32.229
X98.071 Y32.245
X98.103 Y32.262
X98.135 Y32.28
X98.166 Y32.298
X98.197 Y32.318
X98.227 Y32.338
X98.256 Y32.36
X98.284 Y32.381
X98.31 Y32.404
X98.336 Y32.427
X98.36 Y32.45
X98.384 Y32.475
X98.406 Y32.5
X98.428 Y32.526
X98.448 Y32.552
X98.468 Y32.58
X98.487 Y32.609
X98.505 Y32.638
X98.522 Y32.668
X98.538 Y32.699
X98.553 Y32.731
X98.568 Y32.764
X98.581 Y32.798
X98.594 Y32.833
X98.604 Y32.866
X98.372
X98.604
X98.647 Y32.898 Z-0.145
X98.73 Y32.964 Z-0.031
X98.752 Y32.981 Z0.
G0 Z5.
X106.341 Y34.152
G1 Z0. F1000.
X106.414 Y34.085 Z-0.116
X106.47 Y34.037 Z-0.2
X106.705
X106.792 Y34.141 Z-0.019
X106.802 Y34.152 Z0.
X106.792 Y34.141 Z-0.019
X106.705 Y34.037 Z-0.2
X106.707 Y34.025
X106.708 Y34.02
X106.718 Y33.976
X106.721 Y33.966
X106.733 Y33.924
X106.734 Y33.918
X106.747 Y33.876
X106.749 Y33.87
X106.763 Y33.83
X106.766 Y33.824
X106.781 Y33.784
X106.785 Y33.774
X106.802 Y33.736
X106.805 Y33.73
X106.823 Y33.692
X106.829 Y33.682
X106.849 Y33.646
X106.85 Y33.643
X106.87 Y33.608
X106.876 Y33.598
X106.898 Y33.564
X106.902 Y33.558
X106.925 Y33.525
X106.932 Y33.515
X106.957 Y33.483
X106.962 Y33.477
X106.988 Y33.447
X106.993 Y33.441
X107.02 Y33.411
X107.026 Y33.405
X107.054 Y33.377
X107.062 Y33.369
X107.092 Y33.341
X107.098 Y33.336
X107.129 Y33.309
X107.134 Y33.305
X107.166 Y33.279
X107.175 Y33.272
X107.209 Y33.248
X107.215 Y33.244
X107.25 Y33.22
X107.256 Y33.216
X107.292 Y33.194
X107.296 Y33.192
X107.332 Y33.17
X107.339 Y33.166
X107.377 Y33.145
X107.379 Y33.144
X107.416 Y33.125
X107.424 Y33.121
X107.463 Y33.102
X107.467 Y33.1
X107.506 Y33.082
X107.51 Y33.081
X107.549 Y33.064
X107.555 Y33.061
X107.595 Y33.046
X107.601 Y33.043
X107.642 Y33.029
X107.647 Y33.027
X107.689 Y33.013
X107.694 Y33.011
X107.736 Y32.999
X107.74 Y32.997
X107.782 Y32.985
X107.789 Y32.983
X107.833 Y32.972
X107.837 Y32.971
X107.881 Y32.961
X107.885 Y32.96
X107.929 Y32.951
X107.934 Y32.95
X107.979 Y32.942
X107.985 Y32.941
X108.031 Y32.934
X108.035
X108.081 Y32.927
X108.086
X108.133 Y32.921
X108.138
X108.186 Y32.917
X108.19 Y32.916
X108.238 Y32.913
X108.242
X108.291 Y32.91
X108.296
X108.345 Y32.909
X108.349
X108.399 Y32.908
X108.403
X108.451 Y32.909
X108.455
X108.501 Y32.91
X108.504
X108.55 Y32.912
X108.555
X108.6 Y32.915
X108.604
X108.649 Y32.919
X108.653 Y32.92
X108.696 Y32.924
X108.7 Y32.925
X108.743 Y32.93
X108.748 Y32.931
X108.79 Y32.937
X108.795
X108.836 Y32.944
X108.84 Y32.945
X108.881 Y32.953
X108.886 Y32.954
X108.926 Y32.963
X108.933 Y32.964
X108.971 Y32.973
X108.974 Y32.974
X109.013 Y32.985
X109.019 Y32.986
X109.056 Y32.997
X109.063 Y32.999
X109.099 Y33.011
X109.103 Y33.013
X109.139 Y33.025
X109.145 Y33.027
X109.18 Y33.041
X109.186 Y33.044
X109.22 Y33.058
X109.223 Y33.059
X109.257 Y33.075
X109.266 Y33.079
X109.298 Y33.095
X109.302 Y33.097
X109.334 Y33.114
X109.34 Y33.117
X109.371 Y33.135
X109.375 Y33.137
X109.406 Y33.155
X109.415 Y33.161
X109.444 Y33.18
X109.447 Y33.182
X109.476 Y33.202
X109.484 Y33.208
X109.511 Y33.228
X109.517 Y33.233
X109.543 Y33.254
X109.548 Y33.258
X109.573 Y33.28
X109.579 Y33.285
X109.603 Y33.307
X109.611 Y33.316
X109.633 Y33.339
X109.638 Y33.344
X109.659 Y33.368
X109.665 Y33.374
X109.685 Y33.398
X109.69 Y33.404
X109.709 Y33.429
X109.713 Y33.435
X109.731 Y33.46
X109.739 Y33.472
X109.755 Y33.498
X109.759 Y33.505
X109.774 Y33.531
X109.778 Y33.538
X109.792 Y33.565
X109.796 Y33.572
X109.809 Y33.6
X109.815 Y33.613
X109.826 Y33.641
Y33.643
X109.837 Y33.672
X109.842 Y33.685
X109.851 Y33.714
X109.853 Y33.722
X109.861 Y33.752
X109.864 Y33.766
X109.87 Y33.796
X109.871 Y33.797
X109.877 Y33.828
X109.879 Y33.842
X109.883 Y33.874
X109.884 Y33.881
X109.887 Y33.913
Y33.92
X109.889 Y33.953
Y33.959
X109.89 Y33.993
Y34.005
X109.889 Y34.04
Y34.047
X109.887 Y34.081
Y34.088
X109.884 Y34.121
X109.882 Y34.134
X109.877 Y34.167
Y34.168
X109.872 Y34.199
X109.869 Y34.213
X109.862 Y34.244
X109.86 Y34.252
X109.852 Y34.282
X109.848 Y34.296
X109.838 Y34.326
X109.837 Y34.328
X109.827 Y34.356
X109.822 Y34.371
X109.81 Y34.398
X109.803 Y34.412
X109.789 Y34.439
X109.788 Y34.441
X109.774 Y34.467
X109.766 Y34.481
X109.75 Y34.506
X109.745 Y34.514
X109.728 Y34.538
X109.723 Y34.546
X109.705 Y34.57
X109.696 Y34.581
X109.676 Y34.604
X109.673 Y34.607
X109.653 Y34.629
X109.643 Y34.64
X109.621 Y34.661
X109.611 Y34.67
X109.587 Y34.69
X109.584 Y34.693
X109.56 Y34.713
X109.55 Y34.72
X109.524 Y34.739
X109.517 Y34.744
X109.49 Y34.762
X109.484 Y34.766
X109.456 Y34.784
X109.446 Y34.79
X109.416 Y34.806
X109.412 Y34.808
X109.381 Y34.824
X109.375 Y34.827
X109.342 Y34.843
X109.338 Y34.845
X109.303 Y34.861
X109.301 Y34.862
X109.265 Y34.878
X109.259 Y34.881
X109.22 Y34.897
X109.218 Y34.898
X109.178 Y34.914
X109.175 Y34.915
X109.133 Y34.931
X109.13 Y34.932
X109.086 Y34.948
X109.084 Y34.949
X109.039 Y34.965
X109.035 Y34.966
X108.987 Y34.982
X108.986 Y34.983
X108.937 Y34.999
X108.934 Y35.
X108.883 Y35.016
X108.881
X108.828 Y35.032
X108.827
X108.773 Y35.048
X108.77 Y35.049
X108.713 Y35.065
X108.712
X108.654 Y35.081
X108.652 Y35.082
X108.592 Y35.098
X108.591
X108.529 Y35.114
X108.527
X108.464 Y35.13
X108.462
X108.396 Y35.146
X108.395
X108.328 Y35.162
X108.327
X108.258 Y35.178
X108.257 Y35.179
X108.186 Y35.194
X108.185
X108.112 Y35.21
X108.04 Y35.226
X107.972 Y35.242
X107.906 Y35.258
X107.841 Y35.275
X107.778 Y35.292
X107.717 Y35.31
X107.657 Y35.328
X107.601 Y35.346
X107.545 Y35.365
X107.491 Y35.384
X107.439 Y35.404
X107.389 Y35.424
X107.341 Y35.444
X107.296 Y35.464
X107.252 Y35.486
X107.209 Y35.507
X107.169 Y35.528
X107.13 Y35.55
X107.093 Y35.572
X107.059 Y35.594
X107.027 Y35.616
X106.996 Y35.639
X106.966 Y35.662
X106.938 Y35.685
X106.912 Y35.708
X106.889 Y35.73
X106.866 Y35.755
X106.842 Y35.781
X106.822 Y35.806
X106.802 Y35.831
X106.784 Y35.856
X106.766 Y35.884
X106.75 Y35.911
X106.735 Y35.938
X106.72 Y35.968
X106.707 Y35.996
X106.695 Y36.026
X106.683 Y36.058
X106.673 Y36.089
X106.664 Y36.12
X106.656 Y36.155
X106.649 Y36.188
X106.643 Y36.222
X106.638 Y36.26
X106.634 Y36.296
X106.631 Y36.332
X106.629 Y36.373
Y36.412
Y36.457
X106.631 Y36.499
X106.635 Y36.541
X106.64 Y36.583
X106.647 Y36.625
X106.654 Y36.663
X106.664 Y36.701
X106.676 Y36.742
X106.687 Y36.779
X106.7 Y36.814
X106.716 Y36.851
X106.731 Y36.885
X106.75 Y36.921
X106.768 Y36.954
X106.789 Y36.987
X106.813 Y37.022
X106.836 Y37.054
X106.861 Y37.086
X106.888 Y37.118
X106.918 Y37.149
X106.947 Y37.18
X106.979 Y37.209
X107.013 Y37.24
X107.049 Y37.269
X107.085 Y37.297
X107.123 Y37.324
X107.161 Y37.351
X107.201 Y37.375
X107.242 Y37.399
X107.284 Y37.421
X107.327 Y37.443
X107.37 Y37.462
X107.416 Y37.481
X107.462 Y37.499
X107.51 Y37.516
X107.559 Y37.532
X107.609 Y37.546
X107.661 Y37.559
X107.713 Y37.571
X107.766 Y37.582
X107.822 Y37.591
X107.878 Y37.599
X107.936 Y37.607
X107.994 Y37.612
X108.055 Y37.617
X108.116 Y37.62
X108.178 Y37.622
X108.243 Y37.623
X108.311 Y37.622
X108.377 Y37.62
X108.443 Y37.617
X108.506 Y37.612
X108.57 Y37.606
X108.631 Y37.599
X108.691 Y37.591
X108.75 Y37.581
X108.807 Y37.57
X108.864 Y37.558
X108.918 Y37.545
X108.972 Y37.53
X109.024 Y37.514
X109.075 Y37.497
X109.125 Y37.479
X109.173 Y37.46
X109.222 Y37.439
X109.267 Y37.418
X109.312 Y37.395
X109.357 Y37.37
X109.399 Y37.345
X109.441 Y37.319
X109.482 Y37.291
X109.521 Y37.263
X109.559 Y37.233
X109.595 Y37.203
X109.628 Y37.172
X109.661 Y37.14
X109.693 Y37.107
X109.722 Y37.074
X109.75 Y37.039
X109.776 Y37.004
X109.8 Y36.968
X109.825 Y36.928
X109.847 Y36.891
X109.867 Y36.852
X109.887 Y36.811
X109.904 Y36.77
X109.92 Y36.726
X109.935 Y36.683
X109.948 Y36.639
X109.961 Y36.589
X109.972 Y36.542
X109.978 Y36.508
X110.046 Y36.451 Z-0.1
X110.109 Y36.393 Z-0.001
X110.046 Y36.451 Z-0.1
X109.978 Y36.508 Z-0.2
X109.734
X109.709 Y36.477 Z-0.145
X109.641 Y36.394 Z-0.001
X109.709 Y36.477 Z-0.145
X109.734 Y36.508 Z-0.2
X109.72 Y36.566
X109.716 Y36.579
X109.694 Y36.646
X109.689 Y36.657
X109.664 Y36.721
X109.658 Y36.735
X109.629 Y36.795
X109.621 Y36.81
X109.588 Y36.866
X109.579 Y36.881
X109.542 Y36.934
X109.534 Y36.946
X109.494 Y36.996
X109.482 Y37.009
X109.438 Y37.056
X109.426 Y37.068
X109.378 Y37.112
X109.365 Y37.122
X109.313 Y37.163
X109.302 Y37.171
X109.247 Y37.209
X109.234 Y37.217
X109.175 Y37.251
X109.163 Y37.257
X109.101 Y37.288
X109.087 Y37.294
X109.02 Y37.322
X109.009 Y37.326
X108.939 Y37.351
X108.927 Y37.354
X108.853 Y37.375
X108.842 Y37.378
X108.764 Y37.396
X108.754 Y37.398
X108.673 Y37.412
X108.664 Y37.414
X108.579 Y37.425
X108.57 Y37.426
X108.481 Y37.434
X108.472 Y37.435
X108.379 Y37.44
X108.372
X108.276 Y37.442
X108.27
X108.223 Y37.441
X108.22
X108.174 Y37.44
X108.17
X108.124 Y37.438
X108.12
X108.076 Y37.435
X108.073
X108.03 Y37.432
X108.026
X107.983 Y37.427
X107.979
X107.937 Y37.422
X107.931
X107.891 Y37.416
X107.887 Y37.415
X107.847 Y37.409
X107.843 Y37.408
X107.804 Y37.401
X107.799 Y37.4
X107.761 Y37.393
X107.756 Y37.391
X107.719 Y37.383
X107.714 Y37.382
X107.677 Y37.373
X107.671 Y37.371
X107.636 Y37.361
X107.631 Y37.36
X107.596 Y37.349
X107.589 Y37.346
X107.556 Y37.335
X107.552 Y37.333
X107.519 Y37.321
X107.513 Y37.319
X107.481 Y37.306
X107.475 Y37.303
X107.444 Y37.29
X107.438 Y37.287
X107.408 Y37.272
X107.4 Y37.269
X107.371 Y37.253
X107.366 Y37.25
X107.338 Y37.234
X107.334 Y37.232
X107.306 Y37.215
X107.296 Y37.209
X107.27 Y37.192
X107.267 Y37.19
X107.241 Y37.172
X107.232 Y37.165
X107.208 Y37.147
X107.203 Y37.142
X107.18 Y37.123
X107.177 Y37.121
X107.154 Y37.102
X107.145 Y37.094
X107.124 Y37.074
X107.119 Y37.068
X107.099 Y37.048
X107.093 Y37.042
X107.074 Y37.021
X107.069 Y37.014
X107.051 Y36.993
X107.046 Y36.986
X107.029 Y36.964
X107.02 Y36.952
X107.005 Y36.93
X107.004 Y36.928
X106.989 Y36.905
X106.98 Y36.891
X106.967 Y36.868
Y36.866
X106.954 Y36.842
X106.947 Y36.828
X106.936 Y36.804
X106.935 Y36.802
X106.924 Y36.777
X106.918 Y36.762
X106.909 Y36.736
X106.906 Y36.728
X106.898 Y36.702
X106.896 Y36.694
X106.889 Y36.667
X106.887 Y36.659
X106.881 Y36.632
X106.879 Y36.624
X106.874 Y36.597
X106.873 Y36.588
X106.869 Y36.56
X106.867 Y36.545
X106.865 Y36.517
Y36.516
X106.863 Y36.488
Y36.48
X106.862 Y36.451
Y36.435
X106.863 Y36.408
X106.864 Y36.382
Y36.374
X106.866 Y36.348
X106.867 Y36.339
X106.87 Y36.314
X106.871 Y36.305
X106.875 Y36.28
X106.877 Y36.271
X106.882 Y36.247
X106.884 Y36.237
X106.89 Y36.214
X106.891 Y36.213
X106.897 Y36.19
X106.902 Y36.172
X106.91 Y36.15
X106.911 Y36.148
X106.919 Y36.126
X106.923 Y36.117
X106.932 Y36.096
X106.936 Y36.086
X106.946 Y36.065
X106.951 Y36.056
X106.962 Y36.036
X106.968 Y36.026
X106.98 Y36.007
X106.981 Y36.005
X106.993 Y35.986
X107.004 Y35.97
X107.018 Y35.952
X107.02 Y35.949
X107.034 Y35.932
X107.041 Y35.924
X107.056 Y35.906
X107.063 Y35.898
X107.079 Y35.882
X107.086 Y35.875
X107.103 Y35.859
X107.111 Y35.852
X107.129 Y35.836
X107.135 Y35.831
X107.154 Y35.816
X107.158 Y35.813
X107.177 Y35.798
X107.189 Y35.791
X107.21 Y35.777
X107.215 Y35.773
X107.237 Y35.76
X107.241 Y35.757
X107.264 Y35.744
X107.268 Y35.742
X107.292 Y35.728
X107.302 Y35.723
X107.328 Y35.71
X107.355 Y35.697
X107.361 Y35.694
X107.39 Y35.681
X107.396 Y35.678
X107.427 Y35.665
X107.431 Y35.663
X107.497 Y35.637
X107.503 Y35.634
X107.575 Y35.608
X107.581 Y35.606
X107.62 Y35.593
X107.621
X107.661 Y35.58
X107.663 Y35.579
X107.704 Y35.566
X107.707 Y35.565
X107.75 Y35.552
X107.751
X107.795 Y35.539
X107.798 Y35.538
X107.844 Y35.525
X107.846
X107.894 Y35.512
X107.896
X107.945 Y35.499
X107.946
X107.996 Y35.486
X107.998 Y35.485
X108.05 Y35.473
X108.052 Y35.472
X108.106 Y35.46
X108.107 Y35.459
X108.162 Y35.447
X108.163
X108.22 Y35.434
X108.332 Y35.409
X108.386 Y35.397
X108.439 Y35.384
X108.491 Y35.372
X108.542 Y35.36
X108.592 Y35.348
X108.641 Y35.335
X108.689 Y35.323
X108.736 Y35.311
X108.782 Y35.299
X108.827 Y35.287
X108.871 Y35.275
X108.914 Y35.263
X108.956 Y35.251
X108.996 Y35.239
X109.036 Y35.227
X109.075 Y35.215
X109.114 Y35.203
X109.15 Y35.191
X109.185 Y35.179
X109.219 Y35.167
X109.253 Y35.156
X109.285 Y35.144
X109.316 Y35.133
X109.345 Y35.121
X109.374 Y35.109
X109.402 Y35.096
X109.431 Y35.083
X109.459 Y35.07
X109.485 Y35.056
X109.512 Y35.041
X109.539 Y35.026
X109.564 Y35.011
X109.591 Y34.994
X109.616 Y34.978
X109.641 Y34.961
X109.666 Y34.944
X109.69 Y34.926
X109.713 Y34.908
X109.738 Y34.888
X109.761 Y34.869
X109.784 Y34.849
X109.806 Y34.829
X109.828 Y34.808
X109.85 Y34.787
X109.871 Y34.764
X109.873 Y34.763
X109.894 Y34.741
X109.912 Y34.721
X109.93 Y34.699
X109.945 Y34.68
X109.962 Y34.655
X109.977 Y34.632
X109.992 Y34.609
X110.006 Y34.585
X110.018 Y34.56
X110.031 Y34.534
X110.042 Y34.508
X110.054 Y34.481
X110.063 Y34.453
X110.073 Y34.424
X110.081 Y34.395
X110.09 Y34.364
X110.096 Y34.333
X110.103 Y34.301
X110.108 Y34.268
X110.113 Y34.234
X110.117 Y34.2
X110.12 Y34.164
X110.122 Y34.128
X110.124 Y34.09
Y34.054
X110.123 Y34.005
X110.12 Y33.957
X110.117 Y33.911
X110.111 Y33.867
X110.104 Y33.822
X110.095 Y33.779
X110.085 Y33.738
X110.073 Y33.695
X110.061 Y33.655
X110.046 Y33.615
X110.03 Y33.575
X110.013 Y33.537
X109.994 Y33.499
X109.972 Y33.461
X109.951 Y33.424
X109.927 Y33.388
X109.901 Y33.351
X109.874 Y33.316
X109.845 Y33.282
X109.814 Y33.248
X109.781 Y33.213
X109.747 Y33.18
X109.711 Y33.147
X109.672 Y33.114
X109.634 Y33.083
X109.594 Y33.053
X109.552 Y33.024
X109.51 Y32.997
X109.467 Y32.97
X109.424 Y32.946
X109.378 Y32.922
X109.332 Y32.9
X109.284 Y32.879
X109.236 Y32.86
X109.187 Y32.841
X109.136 Y32.824
X109.084 Y32.809
X109.031 Y32.794
X108.976 Y32.781
X108.92 Y32.77
X108.863 Y32.759
X108.805 Y32.75
X108.746 Y32.742
X108.685 Y32.736
X108.623 Y32.731
X108.56 Y32.728
X108.495 Y32.725
X108.43
X108.344 Y32.726
X108.26 Y32.728
X108.179 Y32.732
X108.099 Y32.738
X108.023 Y32.745
X107.947 Y32.754
X107.874 Y32.764
X107.803 Y32.776
X107.734 Y32.789
X107.668 Y32.804
X107.602 Y32.82
X107.54 Y32.838
X107.479 Y32.857
X107.421 Y32.877
X107.365 Y32.899
X107.311 Y32.922
X107.258 Y32.947
X107.207 Y32.973
X107.159 Y33.001
X107.112 Y33.03
X107.067 Y33.059
X107.025 Y33.09
X106.985 Y33.123
X106.944 Y33.158
X106.905 Y33.194
X106.868 Y33.231
X106.833 Y33.268
X106.8 Y33.306
X106.766 Y33.347
X106.735 Y33.387
X106.707 Y33.427
X106.678 Y33.47
X106.653 Y33.511
X106.629 Y33.554
X106.607 Y33.597
X106.586 Y33.643
X106.565 Y33.69
X106.547 Y33.736
X106.53 Y33.784
X106.515 Y33.832
X106.502 Y33.881
X106.489 Y33.933
X106.479 Y33.984
X106.47 Y34.037
G0 Z5.
X111.301 Y31.262
G1 Z0. F1000.
X111.416 Y31.377 Z-0.2
Y36.112
X111.301 Y36.227 Z0.
X111.416 Y36.112 Z-0.2
X111.651
X111.766 Y36.227 Z0.
X111.651 Y36.112 Z-0.2
Y35.879
G3 X111.866 Y35.664 R0.215
X111.935 Y35.675 R0.215
G1 X111.951 Y35.686 Z-0.193
X112.005 Y35.728 Z-0.182
X112.045 Y35.769 Z-0.187
X112.097 Y35.819 Z-0.196
X112.122 Y35.842 Z-0.2
X112.128 Y35.846
X112.134 Y35.851
X112.175 Y35.881
X112.183 Y35.886
X112.225 Y35.914
X112.232 Y35.919
X112.274 Y35.944
X112.283 Y35.949
X112.326 Y35.973
X112.334 Y35.977
X112.377 Y35.998
X112.385 Y36.002
X112.428 Y36.021
X112.437 Y36.024
X112.48 Y36.041
X112.491 Y36.045
X112.535 Y36.059
X112.546 Y36.063
X112.591 Y36.075
X112.599 Y36.077
X112.643 Y36.087
X112.654 Y36.089
X112.699 Y36.097
X112.709 Y36.099
X112.754 Y36.104
X112.766 Y36.105
X112.812 Y36.109
X112.822
X112.868 Y36.11
X112.877
X112.912
X112.92 Y36.109
X112.955 Y36.107
X112.963
X112.997 Y36.104
X113.005 Y36.103
X113.038 Y36.099
X113.046 Y36.097
X113.079 Y36.092
X113.088 Y36.09
X113.12 Y36.083
X113.129 Y36.081
X113.16 Y36.073
X113.168 Y36.071
X113.199 Y36.061
X113.208 Y36.058
X113.238 Y36.048
X113.248 Y36.044
X113.277 Y36.032
X113.284 Y36.029
X113.313 Y36.016
X113.323 Y36.012
X113.351 Y35.997
X113.357 Y35.994
X113.385 Y35.979
X113.394 Y35.973
X113.421 Y35.957
X113.431 Y35.95
X113.457 Y35.932
X113.466 Y35.926
X113.491 Y35.907
X113.495 Y35.903
X113.52 Y35.883
X113.529 Y35.875
X113.553 Y35.854
X113.557 Y35.849
X113.581 Y35.826
X113.588 Y35.819
X113.611 Y35.795
X113.618 Y35.788
X113.64 Y35.762
X113.643 Y35.758
X113.665 Y35.732
X113.671 Y35.724
X113.692 Y35.696
X113.698 Y35.688
X113.718 Y35.659
X113.72 Y35.656
X113.74 Y35.626
X113.747 Y35.614
X113.765 Y35.583
X113.767 Y35.58
X113.785 Y35.547
X113.788 Y35.54
X113.805 Y35.506
X113.807 Y35.503
X113.824 Y35.468
X113.829 Y35.457
X113.844 Y35.421
X113.845 Y35.419
X113.86 Y35.382
X113.864 Y35.37
X113.877 Y35.332
X113.878 Y35.33
X113.891 Y35.29
X113.893 Y35.284
X113.905 Y35.243
Y35.242
X113.917 Y35.2
X113.92 Y35.189
X113.93 Y35.146
Y35.145
X113.94 Y35.101
X113.942 Y35.091
X113.95 Y35.046
Y35.045
X113.958 Y34.998
X113.959 Y34.993
X113.966 Y34.945
X113.973 Y34.896
X113.974 Y34.887
X113.979 Y34.837
X113.984 Y34.786
X113.985 Y34.777
X113.988 Y34.725
Y34.724
X113.991 Y34.671
Y34.667
X113.993 Y34.612
X113.995 Y34.557
Y34.549
Y34.492
Y34.489
X113.994 Y34.429
X113.993 Y34.37
Y34.366
X113.991 Y34.308
Y34.304
X113.988 Y34.248
Y34.244
X113.984 Y34.189
Y34.185
X113.979 Y34.131
X113.978 Y34.126
X113.972 Y34.074
Y34.073
X113.966 Y34.022
X113.965 Y34.013
X113.957 Y33.963
Y33.962
X113.949 Y33.913
X113.948 Y33.908
X113.939 Y33.86
X113.938 Y33.855
X113.928 Y33.809
X113.926 Y33.803
X113.915 Y33.758
X113.914 Y33.752
X113.902 Y33.709
X113.9 Y33.702
X113.887 Y33.66
X113.885 Y33.654
X113.871 Y33.613
X113.87 Y33.611
X113.856 Y33.571
X113.854 Y33.564
X113.839 Y33.525
X113.834 Y33.514
X113.817 Y33.476
X113.816 Y33.474
X113.799 Y33.438
X113.796 Y33.431
X113.778 Y33.396
X113.774 Y33.389
X113.755 Y33.355
X113.751 Y33.347
X113.731 Y33.315
X113.729 Y33.312
X113.709 Y33.28
X113.701 Y33.269
X113.679 Y33.239
X113.676 Y33.235
X113.654 Y33.207
X113.651 Y33.203
X113.629 Y33.176
X113.623 Y33.168
X113.6 Y33.142
X113.593 Y33.135
X113.569 Y33.11
X113.562 Y33.103
X113.537 Y33.079
X113.532 Y33.075
X113.507 Y33.053
X113.5 Y33.046
X113.474 Y33.025
X113.469 Y33.021
X113.443 Y33.001
X113.434 Y32.995
X113.407 Y32.976
X113.401 Y32.972
X113.374 Y32.955
X113.364 Y32.949
X113.336 Y32.933
X113.327 Y32.929
X113.298 Y32.914
X113.289 Y32.909
X113.259 Y32.896
X113.252 Y32.893
X113.222 Y32.881
X113.214 Y32.878
X113.184 Y32.867
X113.175 Y32.864
X113.144 Y32.854
X113.134 Y32.851
X113.102 Y32.843
X113.093 Y32.841
X113.06 Y32.834
X113.052 Y32.832
X113.019 Y32.827
X113.01 Y32.825
X112.977 Y32.821
X112.969 Y32.82
X112.934 Y32.817
X112.926 Y32.816
X112.891 Y32.814
X112.883
X112.848 Y32.813
X112.84
X112.794 Y32.814
X112.787
X112.742 Y32.817
X112.734
X112.689 Y32.821
X112.681 Y32.822
X112.637 Y32.827
X112.63 Y32.829
X112.586 Y32.836
X112.578 Y32.837
X112.534 Y32.846
X112.526 Y32.847
X112.483 Y32.858
X112.476 Y32.86
X112.433 Y32.871
X112.425 Y32.874
X112.383 Y32.887
X112.376 Y32.889
X112.334 Y32.904
X112.325 Y32.908
X112.284 Y32.924
X112.278 Y32.927
X112.237 Y32.945
X112.231 Y32.948
X112.19 Y32.968
X112.182 Y32.971
X112.142 Y32.993
X112.136 Y32.996
X112.096 Y33.019
X112.089 Y33.023
X112.05 Y33.048
X112.044 Y33.051
X112.005 Y33.077
X111.999 Y33.082
X111.961 Y33.109
X111.956 Y33.113
X111.918 Y33.142
X111.913 Y33.146
X111.875 Y33.176
X111.87 Y33.181
X111.833 Y33.213
X111.826 Y33.219
X111.79 Y33.253
X111.789 Y33.254
X111.752 Y33.29
X111.744 Y33.297
X111.709 Y33.334
X111.677 Y33.378
X111.657 Y33.428
X111.651 Y33.482
Y35.254
X111.655 Y35.299
X111.669 Y35.342
X111.692 Y35.381
X111.73 Y35.433
X111.732 Y35.437
X111.77 Y35.487
X111.775 Y35.492
X111.814 Y35.54
X111.817 Y35.544
X111.856 Y35.59
X111.86 Y35.594
X111.899 Y35.637
X111.905 Y35.644
X111.935 Y35.675
X111.905 Y35.644
X111.899 Y35.637
X111.86 Y35.594
X111.856 Y35.59
X111.817 Y35.544
X111.814 Y35.54
X111.775 Y35.492
X111.77 Y35.487
X111.732 Y35.437
X111.73 Y35.433
X111.692 Y35.381
X111.669 Y35.342
X111.655 Y35.299
X111.651 Y35.254
Y33.482
X111.657 Y33.428
X111.677 Y33.378
X111.709 Y33.334
X111.744 Y33.297
X111.752 Y33.29
X111.789 Y33.254
X111.79 Y33.253
X111.826 Y33.219
X111.833 Y33.213
X111.87 Y33.181
X111.875 Y33.176
X111.913 Y33.146
X111.918 Y33.142
X111.956 Y33.113
X111.961 Y33.109
X111.999 Y33.082
X112.005 Y33.077
X112.044 Y33.051
X112.05 Y33.048
X112.089 Y33.023
X112.096 Y33.019
X112.136 Y32.996
X112.142 Y32.993
X112.182 Y32.971
X112.19 Y32.968
X112.231 Y32.948
X112.237 Y32.945
X112.278 Y32.927
X112.284 Y32.924
X112.325 Y32.908
X112.334 Y32.904
X112.376 Y32.889
X112.383 Y32.887
X112.425 Y32.874
X112.433 Y32.871
X112.476 Y32.86
X112.483 Y32.858
X112.526 Y32.847
X112.534 Y32.846
X112.578 Y32.837
X112.586 Y32.836
X112.63 Y32.829
X112.637 Y32.827
X112.681 Y32.822
X112.689 Y32.821
X112.734 Y32.817
X112.742
X112.787 Y32.814
X112.794
X112.84 Y32.813
X112.848
X112.883 Y32.814
X112.891
X112.926 Y32.816
X112.934 Y32.817
X112.969 Y32.82
X112.977 Y32.821
X113.01 Y32.825
X113.019 Y32.827
X113.052 Y32.832
X113.06 Y32.834
X113.093 Y32.841
X113.102 Y32.843
X113.134 Y32.851
X113.144 Y32.854
X113.175 Y32.864
X113.184 Y32.867
X113.214 Y32.878
X113.222 Y32.881
X113.252 Y32.893
X113.259 Y32.896
X113.289 Y32.909
X113.298 Y32.914
X113.327 Y32.929
X113.336 Y32.933
X113.364 Y32.949
X113.374 Y32.955
X113.401 Y32.972
X113.407 Y32.976
X113.434 Y32.995
X113.443 Y33.001
X113.469 Y33.021
X113.474 Y33.025
X113.5 Y33.046
X113.507 Y33.053
X113.532 Y33.075
X113.537 Y33.079
X113.562 Y33.103
X113.569 Y33.11
X113.593 Y33.135
X113.6 Y33.142
X113.623 Y33.168
X113.629 Y33.176
X113.651 Y33.203
X113.654 Y33.207
X113.676 Y33.235
X113.679 Y33.239
X113.701 Y33.269
X113.709 Y33.28
X113.729 Y33.312
X113.731 Y33.315
X113.751 Y33.347
X113.755 Y33.355
X113.774 Y33.389
X113.778 Y33.396
X113.796 Y33.431
X113.799 Y33.438
X113.816 Y33.474
X113.817 Y33.476
X113.834 Y33.514
X113.839 Y33.525
X113.854 Y33.564
X113.856 Y33.571
X113.87 Y33.611
X113.871 Y33.613
X113.885 Y33.654
X113.887 Y33.66
X113.9 Y33.702
X113.902 Y33.709
X113.914 Y33.752
X113.915 Y33.758
X113.926 Y33.803
X113.928 Y33.809
X113.938 Y33.855
X113.939 Y33.86
X113.948 Y33.908
X113.949 Y33.913
X113.957 Y33.962
Y33.963
X113.965 Y34.013
X113.966 Y34.022
X113.972 Y34.073
Y34.074
X113.978 Y34.126
X113.979 Y34.131
X113.984 Y34.185
Y34.189
X113.988 Y34.244
Y34.248
X113.991 Y34.304
Y34.308
X113.993 Y34.366
Y34.37
X113.994 Y34.429
X113.995 Y34.489
Y34.492
Y34.549
Y34.557
X113.993 Y34.612
X113.991 Y34.667
Y34.671
X113.988 Y34.724
Y34.725
X113.985 Y34.777
X113.984 Y34.786
X113.979 Y34.837
X113.974 Y34.887
X113.973 Y34.896
X113.966 Y34.945
X113.959 Y34.993
X113.958 Y34.998
X113.95 Y35.045
Y35.046
X113.942 Y35.091
X113.94 Y35.101
X113.93 Y35.145
Y35.146
X113.92 Y35.189
X113.917 Y35.2
X113.905 Y35.242
Y35.243
X113.893 Y35.284
X113.891 Y35.29
X113.878 Y35.33
X113.877 Y35.332
X113.864 Y35.37
X113.86 Y35.382
X113.845 Y35.419
X113.844 Y35.421
X113.829 Y35.457
X113.824 Y35.468
X113.807 Y35.503
X113.805 Y35.506
X113.788 Y35.54
X113.785 Y35.547
X113.767 Y35.58
X113.765 Y35.583
X113.747 Y35.614
X113.74 Y35.626
X113.72 Y35.656
X113.718 Y35.659
X113.698 Y35.688
X113.692 Y35.696
X113.671 Y35.724
X113.665 Y35.732
X113.643 Y35.758
X113.64 Y35.762
X113.618 Y35.788
X113.611 Y35.795
X113.588 Y35.819
X113.581 Y35.826
X113.557 Y35.849
X113.553 Y35.854
X113.529 Y35.875
X113.52 Y35.883
X113.495 Y35.903
X113.491 Y35.907
X113.466 Y35.926
X113.457 Y35.932
X113.431 Y35.95
X113.421 Y35.957
X113.394 Y35.973
X113.385 Y35.979
X113.357 Y35.994
X113.351 Y35.997
X113.323 Y36.012
X113.313 Y36.016
X113.284 Y36.029
X113.277 Y36.032
X113.248 Y36.044
X113.238 Y36.048
X113.208 Y36.058
X113.199 Y36.061
X113.168 Y36.071
X113.16 Y36.073
X113.129 Y36.081
X113.12 Y36.083
X113.088 Y36.09
X113.079 Y36.092
X113.046 Y36.097
X113.038 Y36.099
X113.005 Y36.103
X112.997 Y36.104
X112.963 Y36.107
X112.955
X112.92 Y36.109
X112.912 Y36.11
X112.877
X112.868
X112.822 Y36.109
X112.812
X112.766 Y36.105
X112.754 Y36.104
X112.709 Y36.099
X112.699 Y36.097
X112.654 Y36.089
X112.643 Y36.087
X112.599 Y36.077
X112.591 Y36.075
X112.546 Y36.063
X112.535 Y36.059
X112.491 Y36.045
X112.48 Y36.041
X112.437 Y36.024
X112.428 Y36.021
X112.385 Y36.002
X112.377 Y35.998
X112.334 Y35.977
X112.326 Y35.973
X112.283 Y35.949
X112.274 Y35.944
X112.232 Y35.919
X112.225 Y35.914
X112.183 Y35.886
X112.175 Y35.881
X112.134 Y35.851
X112.128 Y35.846
X112.122 Y35.842
X112.132 Y35.852
X112.165 Y35.884
X112.2 Y35.916
X112.235 Y35.946
X112.269 Y35.973
X112.305 Y35.999
X112.341 Y36.023
X112.377 Y36.046
X112.413 Y36.067
X112.449 Y36.086
X112.487 Y36.103
X112.524 Y36.12
X112.561 Y36.134
X112.601 Y36.147
X112.64 Y36.158
X112.68 Y36.168
X112.719 Y36.177
X112.76 Y36.184
X112.802 Y36.189
X112.844 Y36.193
X112.887 Y36.195
X112.931 Y36.196
X112.985 Y36.195
X113.038 Y36.193
X113.089 Y36.189
X113.139 Y36.183
X113.187 Y36.176
X113.234 Y36.168
X113.28 Y36.158
X113.325 Y36.146
X113.368 Y36.133
X113.41 Y36.119
X113.452 Y36.103
X113.492 Y36.086
X113.53 Y36.067
X113.567 Y36.047
X113.604 Y36.025
X113.641 Y36.002
X113.675 Y35.978
X113.708 Y35.952
X113.741 Y35.924
X113.774 Y35.895
X113.805 Y35.863
X113.836 Y35.83
X113.865 Y35.797
X113.894 Y35.761
X113.922 Y35.723
X113.951 Y35.682
X113.976 Y35.644
X114. Y35.602
X114.024 Y35.558
X114.047 Y35.515
X114.068 Y35.47
X114.088 Y35.422
X114.108 Y35.374
X114.126 Y35.325
X114.142 Y35.275
X114.158 Y35.224
X114.172 Y35.169
X114.186 Y35.115
X114.198 Y35.059
X114.209 Y35.002
X114.218 Y34.944
X114.226 Y34.882
X114.234 Y34.821
X114.239 Y34.758
X114.244 Y34.693
X114.248 Y34.627
X114.25 Y34.562
Y34.421
X114.247 Y34.352
X114.243 Y34.282
X114.238 Y34.215
X114.232 Y34.151
X114.224 Y34.087
X114.214 Y34.023
X114.204 Y33.963
X114.191 Y33.904
X114.179 Y33.846
X114.164 Y33.791
X114.147 Y33.734
X114.13 Y33.68
X114.112 Y33.629
X114.091 Y33.578
X114.069 Y33.527
X114.048 Y33.481
X114.023 Y33.434
X113.998 Y33.388
X113.972 Y33.345
X113.943 Y33.301
X113.914 Y33.259
X113.885 Y33.22
X113.853 Y33.181
X113.818 Y33.142
X113.785 Y33.105
X113.752 Y33.072
X113.717 Y33.039
X113.681 Y33.008
X113.644 Y32.978
X113.609 Y32.95
X113.572 Y32.925
X113.534 Y32.9
X113.496 Y32.878
X113.458 Y32.857
X113.418 Y32.837
X113.379 Y32.82
X113.338 Y32.803
X113.296 Y32.789
X113.254 Y32.775
X113.211 Y32.763
X113.168 Y32.753
X113.123 Y32.745
X113.077 Y32.738
X113.031 Y32.732
X112.984 Y32.728
X112.936 Y32.726
X112.886 Y32.725
X112.842
X112.798 Y32.727
X112.755 Y32.73
X112.713 Y32.734
X112.673 Y32.739
X112.632 Y32.745
X112.592 Y32.752
X112.553 Y32.761
X112.515 Y32.77
X112.476 Y32.781
X112.44 Y32.792
X112.403 Y32.805
X112.367 Y32.819
X112.332 Y32.834
X112.298 Y32.85
X112.264 Y32.866
X112.231 Y32.885
X112.197 Y32.905
X112.165 Y32.925
X112.134 Y32.946
X112.101 Y32.969
X112.07 Y32.993
X112.041 Y33.017
X112.008 Y33.046
G3 X111.704 Y33.026 R0.215
X111.651 Y32.884 R0.215
G1 Y31.377
X111.416
X111.651
X111.766 Y31.262 Z0.
G0 Z5.
X115.306 Y32.696
G1 Z0. F1000.
X115.421 Y32.811 Z-0.199
G0 Z5.
X115.656
G1 Z-0.199 F1000.
X115.771 Y32.696 Z0.
G0 Z5.
X115.306 Y36.227
G1 Z0. F1000.
X115.421 Y36.112 Z-0.2
Y32.812
X115.656
Y36.112
X115.421
X115.656
X115.771 Y36.227 Z0.
G0 Z5.
X116.949 Y32.696
G1 Z0. F1000.
X117.064 Y32.812 Z-0.2
Y36.112
X116.949 Y36.227 Z0.
X117.064 Y36.112 Z-0.2
X117.299
X117.414 Y36.227 Z0.
X117.299 Y36.112 Z-0.2
Y35.853
G3 X117.514 Y35.637 R0.215
X117.574 Y35.646 R0.215
G1 X117.532 Y35.605
X117.529 Y35.601
X117.487 Y35.559
X117.483 Y35.555
X117.441 Y35.51
X117.438 Y35.507
X117.396 Y35.46
X117.393 Y35.457
X117.351 Y35.408
X117.322 Y35.366
X117.305 Y35.318
X117.299 Y35.267
Y32.812
X117.064
X117.299
X117.414 Y32.696 Z0.
X117.299 Y32.812 Z-0.2
Y35.267
X117.305 Y35.318
X117.322 Y35.366
X117.351 Y35.408
X117.393 Y35.457
X117.396 Y35.46
X117.438 Y35.507
X117.441 Y35.51
X117.483 Y35.555
X117.487 Y35.559
X117.529 Y35.601
X117.532 Y35.605
X117.574 Y35.646
X117.582 Y35.65 Z-0.197
X117.607 Y35.666 Z-0.188
X117.632 Y35.684 Z-0.183
X117.648 Y35.698 Z-0.182
X117.678 Y35.726 Z-0.185
X117.766 Y35.806 Z-0.2
X117.767 Y35.807
X117.809 Y35.837
X117.817 Y35.843
X117.86 Y35.871
X117.865 Y35.873
X117.907 Y35.899
X117.913 Y35.903
X117.955 Y35.927
X117.963 Y35.931
X118.005 Y35.953
X118.012 Y35.957
X118.054 Y35.977
X118.064 Y35.981
X118.107 Y35.999
X118.114 Y36.001
X118.156 Y36.017
X118.165 Y36.02
X118.207 Y36.034
X118.217 Y36.036
X118.259 Y36.048
X118.268 Y36.05
X118.31 Y36.059
X118.32 Y36.061
X118.362 Y36.069
X118.373 Y36.07
X118.416 Y36.076
X118.426 Y36.077
X118.468 Y36.08
X118.479
X118.521 Y36.081
X118.528
X118.559
X118.565
X118.595 Y36.08
X118.6
X118.629 Y36.078
X118.634 Y36.077
X118.663 Y36.075
X118.669 Y36.074
X118.697 Y36.071
X118.703 Y36.07
X118.73 Y36.067
X118.737 Y36.066
X118.763 Y36.061
X118.768 Y36.06
X118.794 Y36.055
X118.802 Y36.053
X118.827 Y36.047
X118.834 Y36.045
X118.858 Y36.039
X118.864 Y36.037
X118.888 Y36.03
X118.896 Y36.027
X118.919 Y36.019
X118.927 Y36.016
X118.949 Y36.007
X118.958 Y36.004
X118.979 Y35.994
X118.984 Y35.992
X119.005 Y35.982
X119.018 Y35.975
X119.037 Y35.965
X119.038 Y35.964
X119.058 Y35.952
X119.072 Y35.944
X119.09 Y35.931
X119.095 Y35.928
X119.113 Y35.915
X119.121 Y35.909
X119.138 Y35.895
X119.148 Y35.887
X119.164 Y35.873
X119.172 Y35.865
X119.187 Y35.85
X119.19 Y35.847
X119.205 Y35.831
X119.214 Y35.822
X119.228 Y35.805
X119.236 Y35.796
X119.249 Y35.779
X119.252 Y35.774
X119.265 Y35.756
X119.272 Y35.745
X119.284 Y35.726
X119.286 Y35.723
X119.298 Y35.703
X119.304 Y35.693
X119.315 Y35.672
X119.321 Y35.661
X119.331 Y35.64
X119.332 Y35.637
X119.342 Y35.615
X119.343 Y35.611
X119.353 Y35.588
X119.357 Y35.579
X119.366 Y35.554
X119.369 Y35.544
X119.377 Y35.519
X119.38 Y35.51
X119.386 Y35.487
X119.394 Y35.463
X119.398 Y35.447
X119.404 Y35.419
Y35.417
X119.41 Y35.389
X119.411 Y35.38
X119.416 Y35.351
X119.417 Y35.35
X119.422 Y35.32
X119.423 Y35.312
X119.427 Y35.28
X119.431 Y35.248
X119.432 Y35.24
X119.435 Y35.207
X119.438 Y35.173
Y35.166
X119.44 Y35.131
Y35.125
X119.441 Y35.089
X119.442 Y35.052
Y35.047
Y32.812
X119.327 Y32.696 Z0.
X119.442 Y32.812 Z-0.2
X119.677
X119.792 Y32.696 Z0.
X119.677 Y32.812 Z-0.2
Y35.033
X119.675 Y35.139
X119.668 Y35.237
X119.658 Y35.33
X119.645 Y35.417
X119.628 Y35.498
X119.607 Y35.574
X119.582 Y35.645
X119.556 Y35.71
X119.525 Y35.77
X119.492 Y35.826
X119.457 Y35.875
X119.418 Y35.921
X119.375 Y35.964
X119.33 Y36.002
X119.28 Y36.038
X119.228 Y36.069
X119.17 Y36.098
X119.107 Y36.123
X119.04 Y36.145
X118.969 Y36.163
X118.892 Y36.177
X118.81 Y36.188
X118.722 Y36.194
X118.628 Y36.196
X118.585 Y36.195
X118.543 Y36.193
X118.501 Y36.189
X118.459 Y36.183
X118.417 Y36.176
X118.377 Y36.167
X118.336 Y36.157
X118.296 Y36.144
X118.256 Y36.13
X118.215 Y36.115
X118.176 Y36.098
X118.137 Y36.079
X118.098 Y36.059
X118.058 Y36.036
X118.02 Y36.012
X117.98 Y35.986
X117.941 Y35.958
X117.903 Y35.928
X117.864 Y35.897
X117.826 Y35.863
X117.788 Y35.828
X117.766 Y35.806
G0 Z5.
X123.317 Y32.696
G1 Z0. F1000.
X123.432 Y32.812 Z-0.2
X123.664
X123.779 Y32.696 Z0.
X123.664 Y32.812 Z-0.2
Y37.536
X123.432
Y36.04
G2 X123.217 Y35.824 R0.215
X123.076 Y35.877 R0.215
G1 X123.044 Y35.905
X123.013 Y35.93
X122.982 Y35.954
X122.951 Y35.976
X122.918 Y35.998
X122.886 Y36.018
X122.853 Y36.037
X122.819 Y36.055
X122.785 Y36.072
X122.751 Y36.087
X122.715 Y36.102
X122.679 Y36.116
X122.643 Y36.129
X122.605 Y36.14
X122.568 Y36.151
X122.529 Y36.16
X122.489 Y36.169
X122.45 Y36.176
X122.409 Y36.182
X122.368 Y36.187
X122.325 Y36.191
X122.282 Y36.194
X122.238 Y36.196
X122.194
X122.145 Y36.195
X122.097 Y36.193
X122.05 Y36.189
X122.004 Y36.183
X121.958 Y36.176
X121.914 Y36.168
X121.871 Y36.157
X121.828 Y36.146
X121.787 Y36.133
X121.746 Y36.118
X121.705 Y36.101
X121.665 Y36.084
X121.627 Y36.064
X121.587 Y36.043
X121.55 Y36.021
X121.513 Y35.997
X121.476 Y35.97
X121.44 Y35.943
X121.405 Y35.914
X121.368 Y35.882
X121.333 Y35.849
X121.3 Y35.816
X121.267 Y35.779
X121.232 Y35.74
X121.2 Y35.701
X121.171 Y35.661
X121.142 Y35.62
X121.114 Y35.577
X121.088 Y35.533
X121.061 Y35.486
X121.037 Y35.44
X121.016 Y35.394
X120.994 Y35.343
X120.973 Y35.292
X120.955 Y35.241
X120.938 Y35.188
X120.921 Y35.131
X120.906 Y35.076
X120.894 Y35.018
X120.881 Y34.959
X120.871 Y34.899
X120.861 Y34.835
X120.853 Y34.771
X120.847 Y34.708
X120.842 Y34.641
X120.838 Y34.571
X120.835 Y34.503
Y34.362
X120.837 Y34.296
X120.841 Y34.23
X120.846 Y34.164
X120.851 Y34.102
X120.859 Y34.04
X120.867 Y33.978
X120.876 Y33.92
X120.887 Y33.863
X120.899 Y33.807
X120.913 Y33.752
X120.927 Y33.698
X120.943 Y33.646
X120.959 Y33.596
X120.977 Y33.547
X120.997 Y33.499
X121.017 Y33.451
X121.038 Y33.406
X121.061 Y33.362
X121.085 Y33.319
X121.11 Y33.277
X121.135 Y33.239
X121.163 Y33.198
X121.191 Y33.16
X121.22 Y33.124
X121.249 Y33.091
X121.28 Y33.058
X121.311 Y33.026
X121.344 Y32.997
X121.377 Y32.969
X121.41 Y32.943
X121.445 Y32.918
X121.48 Y32.896
X121.517 Y32.874
X121.555 Y32.854
X121.594 Y32.835
X121.633 Y32.818
X121.674 Y32.802
X121.716 Y32.787
X121.759 Y32.775
X121.804 Y32.763
X121.85 Y32.753
X121.896 Y32.744
X121.944 Y32.737
X121.994 Y32.732
X122.045 Y32.728
X122.098 Y32.726
X122.152 Y32.725
X122.195 Y32.726
X122.238 Y32.728
X122.28 Y32.732
X122.322 Y32.737
X122.363 Y32.744
X122.402 Y32.753
X122.442 Y32.763
X122.481 Y32.774
X122.521 Y32.787
X122.558 Y32.801
X122.595 Y32.818
X122.633 Y32.835
X122.669 Y32.854
X122.705 Y32.875
X122.742 Y32.898
X122.778 Y32.922
X122.812 Y32.948
X122.847 Y32.975
X122.882 Y33.005
X122.917 Y33.036
X122.951 Y33.07
X122.971 Y33.09
X123.022 Y33.138 Z-0.192
X123.08 Y33.195 Z-0.183
X123.088 Y33.202 Z-0.184
X123.144 Y33.245 Z-0.2
G2 X123.42 Y33.115 R0.215
X123.432 Y33.042 R0.215
G1 Y32.812
Y33.042
G3 X123.217 Y33.257 R0.215
X123.144 Y33.245 R0.215
G1 X123.179 Y33.282
X123.181 Y33.284
X123.221 Y33.328
X123.227 Y33.334
X123.266 Y33.379
X123.271 Y33.385
X123.309 Y33.433
X123.31 Y33.435
X123.349 Y33.485
X123.353 Y33.49
X123.391 Y33.543
X123.414 Y33.582
X123.428 Y33.625
X123.432 Y33.669
Y35.441
X123.425 Y35.496
X123.405 Y35.547
X123.371 Y35.592
X123.335 Y35.629
X123.332 Y35.632
X123.296 Y35.667
X123.291 Y35.673
X123.254 Y35.706
X123.25 Y35.71
X123.213 Y35.742
X123.206 Y35.748
X123.168 Y35.778
X123.164 Y35.782
X123.126 Y35.811
X123.122 Y35.814
X123.084 Y35.842
X123.077 Y35.847
X123.038 Y35.873
X123.032 Y35.876
X122.993 Y35.9
X122.986 Y35.905
X122.946 Y35.928
X122.94 Y35.931
X122.9 Y35.952
X122.892 Y35.956
X122.851 Y35.976
X122.845 Y35.978
X122.804 Y35.997
X122.796 Y36.
X122.754 Y36.017
X122.747 Y36.019
X122.705 Y36.034
X122.698 Y36.036
X122.656 Y36.05
X122.648 Y36.052
X122.605 Y36.064
X122.598 Y36.066
X122.555 Y36.076
X122.546 Y36.078
X122.502 Y36.087
X122.495 Y36.088
X122.451 Y36.095
X122.443 Y36.096
X122.398 Y36.102
X122.391
X122.346 Y36.106
X122.338 Y36.107
X122.293 Y36.109
X122.286
X122.24 Y36.11
X122.232
X122.197
X122.189 Y36.109
X122.154 Y36.107
X122.146
X122.112 Y36.104
X122.103 Y36.103
X122.07 Y36.098
X122.062 Y36.097
X122.029 Y36.091
X122.019 Y36.089
X121.987 Y36.082
X121.978 Y36.08
X121.947 Y36.072
X121.94 Y36.07
X121.909 Y36.06
X121.901 Y36.057
X121.87 Y36.046
X121.858 Y36.042
X121.829 Y36.03
X121.824 Y36.028
X121.794 Y36.014
X121.782 Y36.008
X121.754 Y35.994
X121.747 Y35.99
X121.719 Y35.974
X121.713 Y35.97
X121.685 Y35.953
X121.673 Y35.945
X121.647 Y35.926
X121.645 Y35.925
X121.618 Y35.905
X121.606 Y35.896
X121.581 Y35.875
X121.576 Y35.871
X121.551 Y35.848
X121.547 Y35.845
X121.522 Y35.821
X121.515 Y35.814
X121.491 Y35.789
X121.484 Y35.782
X121.461 Y35.755
X121.455 Y35.748
X121.433 Y35.721
Y35.72
X121.41 Y35.691
X121.401 Y35.681
X121.38 Y35.651
X121.378 Y35.647
X121.357 Y35.616
X121.352 Y35.609
X121.332 Y35.576
X121.328 Y35.569
X121.309 Y35.535
X121.305 Y35.528
X121.287 Y35.493
X121.284 Y35.486
X121.267 Y35.449
X121.264 Y35.443
X121.248 Y35.405
X121.247 Y35.403
X121.231 Y35.364
X121.227 Y35.353
X121.213 Y35.313
X121.212 Y35.311
X121.198 Y35.27
X121.196 Y35.264
X121.183 Y35.221
X121.181 Y35.215
X121.169 Y35.171
X121.168 Y35.165
X121.157 Y35.12
X121.155 Y35.115
X121.145 Y35.068
X121.144 Y35.063
X121.135 Y35.016
Y35.014
X121.126 Y34.966
X121.125 Y34.956
X121.118 Y34.906
X121.111 Y34.854
X121.11 Y34.85
X121.104 Y34.797
X121.103 Y34.789
X121.099 Y34.735
X121.095 Y34.68
Y34.679
X121.091 Y34.623
Y34.615
X121.089 Y34.558
Y34.554
X121.088 Y34.495
X121.087 Y34.435
Y34.428
X121.088 Y34.371
X121.089 Y34.315
Y34.311
X121.091 Y34.257
Y34.253
X121.094 Y34.199
Y34.195
X121.098 Y34.143
Y34.142
X121.102 Y34.091
X121.103 Y34.082
X121.109 Y34.032
X121.115 Y33.983
X121.116 Y33.978
X121.123 Y33.93
X121.124 Y33.925
X121.132 Y33.879
X121.133 Y33.873
X121.142 Y33.828
Y33.827
X121.151 Y33.783
X121.153 Y33.773
X121.164 Y33.73
X121.165 Y33.728
X121.176 Y33.686
X121.177 Y33.68
X121.189 Y33.64
X121.191 Y33.633
X121.204 Y33.594
X121.207 Y33.587
X121.221 Y33.549
Y33.547
X121.235 Y33.509
X121.24 Y33.498
X121.256 Y33.462
X121.257 Y33.459
X121.273 Y33.425
X121.277 Y33.417
X121.294 Y33.384
X121.297 Y33.377
X121.315 Y33.344
X121.319 Y33.337
X121.338 Y33.305
X121.34 Y33.302
X121.359 Y33.272
X121.367 Y33.26
X121.388 Y33.231
X121.391 Y33.227
X121.412 Y33.199
X121.415 Y33.196
X121.436 Y33.169
X121.445 Y33.158
X121.468 Y33.132
X121.472 Y33.128
X121.495 Y33.104
X121.499 Y33.1
X121.522 Y33.077
X121.529 Y33.07
X121.553 Y33.048
X121.561 Y33.041
X121.586 Y33.021
X121.595 Y33.014
X121.621 Y32.995
X121.626 Y32.991
X121.652 Y32.973
X121.661 Y32.967
X121.688 Y32.951
X121.695 Y32.947
X121.722 Y32.931
X121.732 Y32.926
X121.76 Y32.912
X121.768 Y32.907
X121.797 Y32.894
X121.805 Y32.891
X121.834 Y32.879
X121.845 Y32.875
X121.876 Y32.865
X121.882 Y32.863
X121.912 Y32.853
X121.923 Y32.85
X121.955 Y32.842
X121.963 Y32.84
X121.995 Y32.833
X122.003 Y32.832
X122.035 Y32.826
X122.045 Y32.825
X122.079 Y32.821
X122.086 Y32.82
X122.12 Y32.817
X122.128 Y32.816
X122.162 Y32.814
X122.17
X122.206 Y32.813
X122.215
X122.26 Y32.814
X122.271 Y32.815
X122.317 Y32.818
X122.327 Y32.819
X122.372 Y32.825
X122.383 Y32.826
X122.428 Y32.834
X122.438 Y32.836
X122.483 Y32.846
X122.494 Y32.849
X122.538 Y32.861
X122.547 Y32.864
X122.591 Y32.878
X122.6 Y32.882
X122.644 Y32.898
X122.655 Y32.903
X122.698 Y32.922
X122.706 Y32.925
X122.749 Y32.946
X122.759 Y32.952
X122.801 Y32.975
X122.808 Y32.979
X122.85 Y33.005
X122.857 Y33.009
X122.899 Y33.037
X122.907 Y33.043
X122.948 Y33.073
X122.952 Y33.076
X122.971 Y33.09
G0 Z5.
X123.317 Y37.651
G1 Z0. F1000.
X123.432 Y37.536 Z-0.199
G0 Z5.
X123.664
G1 Z-0.199 F1000.
X123.779 Y37.651 Z0.
G0 Z5.
X124.959 Y32.696
G1 Z0. F1000.
X125.074 Y32.812 Z-0.2
X125.309
X125.424 Y32.696 Z0.
X125.309 Y32.812 Z-0.2
Y37.536
X125.424 Y37.651 Z0.
X125.309 Y37.536 Z-0.2
X125.074
X124.959 Y37.651 Z0.
X125.074 Y37.536 Z-0.2
Y32.812
G0 Z5.
X126.823 Y34.665
G1 Z-0.2 F1000.
X126.867 Y34.633
X126.917 Y34.613
X126.971 Y34.606
X129.065
G3 X129.229 Y34.682 R0.215
X129.278 Y34.855 R0.215
G1 X129.271 Y34.9
X129.27 Y34.905
X129.262 Y34.948
Y34.949
X129.254 Y34.992
X129.253 Y34.997
X129.244 Y35.039
X129.242 Y35.045
X129.232 Y35.086
Y35.087
X129.222 Y35.126
X129.22 Y35.132
X129.209 Y35.171
X129.207 Y35.178
X129.195 Y35.216
X129.193 Y35.222
X129.18 Y35.259
Y35.26
X129.167 Y35.296
X129.164 Y35.303
X129.15 Y35.338
X129.147 Y35.345
X129.132 Y35.379
X129.131 Y35.381
X129.116 Y35.414
X129.113 Y35.421
X129.097 Y35.453
X129.093 Y35.46
X129.076 Y35.492
X129.072 Y35.499
X129.054 Y35.529
X129.053 Y35.532
X129.035 Y35.561
X129.03 Y35.568
X129.011 Y35.596
X129.009 Y35.599
X128.99 Y35.626
X128.982 Y35.638
X128.961 Y35.664
X128.959 Y35.667
X128.938 Y35.693
X128.932 Y35.7
X128.91 Y35.724
X128.907 Y35.727
X128.885 Y35.751
X128.879 Y35.757
X128.856 Y35.78
X128.849 Y35.787
X128.825 Y35.808
X128.822 Y35.811
X128.798 Y35.832
X128.791 Y35.838
X128.766 Y35.858
X128.762 Y35.861
X128.737 Y35.88
X128.732 Y35.884
X128.707 Y35.902
X128.7 Y35.907
X128.674 Y35.924
X128.669 Y35.927
X128.643 Y35.943
X128.636 Y35.948
X128.609 Y35.963
X128.603 Y35.966
X128.576 Y35.98
X128.569 Y35.984
X128.541 Y35.998
X128.535 Y36.001
X128.507 Y36.013
X128.501 Y36.015
X128.473 Y36.027
X128.466 Y36.03
X128.437 Y36.041
X128.429 Y36.043
X128.399 Y36.053
X128.395 Y36.055
X128.366 Y36.063
X128.358 Y36.066
X128.328 Y36.073
X128.32 Y36.075
X128.289 Y36.082
X128.283 Y36.084
X128.252 Y36.09
X128.245 Y36.091
X128.213 Y36.096
X128.207 Y36.097
X128.175 Y36.101
X128.168 Y36.102
X128.136 Y36.105
X128.131 Y36.106
X128.098 Y36.108
X128.091
X128.058 Y36.11
X128.052
X128.019
X128.013
X127.98
X127.974
X127.941 Y36.108
X127.935
X127.903 Y36.106
X127.896 Y36.105
X127.864 Y36.102
X127.858 Y36.101
X127.827 Y36.097
X127.82 Y36.096
X127.789 Y36.091
X127.783 Y36.09
X127.752 Y36.084
X127.744 Y36.082
X127.714 Y36.075
X127.709 Y36.074
X127.679 Y36.066
X127.672 Y36.064
X127.642 Y36.055
X127.635 Y36.053
X127.606 Y36.043
X127.597 Y36.04
X127.569 Y36.029
X127.564 Y36.028
X127.536 Y36.016
X127.53 Y36.013
X127.502 Y36.001
X127.497 Y35.999
X127.469 Y35.985
X127.461 Y35.981
X127.434 Y35.967
X127.429 Y35.964
X127.402 Y35.949
X127.394 Y35.944
X127.368 Y35.928
X127.364 Y35.925
X127.338 Y35.908
X127.33 Y35.903
X127.305 Y35.885
X127.301 Y35.881
X127.276 Y35.862
X127.272 Y35.86
X127.247 Y35.84
X127.239 Y35.834
X127.215 Y35.813
X127.212 Y35.81
X127.188 Y35.788
X127.185 Y35.785
X127.161 Y35.762
X127.151 Y35.753
X127.129 Y35.729
X127.127 Y35.726
X127.105 Y35.702
X127.098 Y35.694
X127.077 Y35.669
X127.075 Y35.666
X127.054 Y35.64
X127.049 Y35.632
X127.029 Y35.605
X127.024 Y35.598
X127.005 Y35.57
X127. Y35.563
X126.982 Y35.533
X126.981 Y35.531
X126.963 Y35.5
X126.956 Y35.489
X126.941 Y35.458
X126.924 Y35.427
X126.919 Y35.416
X126.904 Y35.383
X126.903 Y35.38
X126.888 Y35.346
X126.885 Y35.339
X126.871 Y35.304
X126.868 Y35.298
X126.855 Y35.262
X126.853 Y35.255
X126.841 Y35.218
Y35.217
X126.829 Y35.179
X126.827 Y35.172
X126.816 Y35.133
X126.815 Y35.132
X126.804 Y35.092
X126.802 Y35.081
X126.793 Y35.041
X126.792 Y35.04
X126.783 Y34.998
X126.782 Y34.992
X126.774 Y34.95
Y34.949
X126.766 Y34.905
X126.765 Y34.9
X126.758 Y34.855
X126.756 Y34.803
X126.767 Y34.752
X126.79 Y34.705
X126.823 Y34.665
G0 Z5.
X129.1 Y33.611
G1 Z-0.001 F1000.
X129.151 Y33.55 Z-0.107
X129.193 Y33.496 Z-0.2
X129.425
X129.474 Y33.532 Z-0.138
X129.559 Y33.597 Z-0.025
X129.575 Y33.611 Z-0.001
X129.559 Y33.597 Z-0.025
X129.474 Y33.532 Z-0.138
X129.425 Y33.496 Z-0.2
X129.417 Y33.472
X129.403 Y33.437
X129.39 Y33.405
X129.373 Y33.371
X129.358 Y33.34
X129.341 Y33.31
X129.322 Y33.279
X129.303 Y33.251
X129.282 Y33.222
X129.26 Y33.193
X129.239 Y33.167
X129.216 Y33.142
X129.191 Y33.117
X129.164 Y33.091
X129.137 Y33.066
X129.109 Y33.043
X129.081 Y33.021
X129.049 Y32.998
X129.018 Y32.976
X128.984 Y32.955
X128.95 Y32.935
X128.916 Y32.916
X128.881 Y32.897
X128.845 Y32.88
X128.809 Y32.863
X128.774 Y32.848
X128.737 Y32.833
X128.698 Y32.819
X128.659 Y32.806
X128.619 Y32.794
X128.579 Y32.783
X128.539 Y32.773
X128.498 Y32.764
X128.455 Y32.756
X128.412 Y32.749
X128.367 Y32.742
X128.324 Y32.737
X128.279 Y32.733
X128.232 Y32.729
X128.185 Y32.727
X128.138 Y32.725
X128.089
X128.027 Y32.726
X127.967 Y32.728
X127.907 Y32.732
X127.848 Y32.738
X127.791 Y32.745
X127.735 Y32.754
X127.681 Y32.764
X127.627 Y32.776
X127.575 Y32.789
X127.524 Y32.804
X127.474 Y32.821
X127.425 Y32.839
X127.379 Y32.858
X127.332 Y32.879
X127.286 Y32.902
X127.242 Y32.925
X127.199 Y32.951
X127.156 Y32.978
X127.115 Y33.006
X127.075 Y33.037
X127.035 Y33.068
X126.997 Y33.102
X126.958 Y33.137
X126.922 Y33.174
X126.886 Y33.211
X126.853 Y33.25
X126.82 Y33.29
X126.79 Y33.331
X126.761 Y33.374
X126.732 Y33.419
X126.707 Y33.462
X126.682 Y33.509
X126.658 Y33.559
X126.635 Y33.608
X126.615 Y33.658
X126.595 Y33.711
X126.578 Y33.764
X126.562 Y33.819
X126.547 Y33.876
X126.534 Y33.936
X126.522 Y33.995
X126.512 Y34.057
X126.503 Y34.121
X126.495 Y34.185
X126.49 Y34.251
X126.486 Y34.32
X126.483 Y34.39
X126.482 Y34.46
X126.483 Y34.53
X126.486 Y34.6
X126.49 Y34.667
X126.496 Y34.734
X126.502 Y34.797
X126.511 Y34.859
X126.521 Y34.922
X126.532 Y34.983
X126.545 Y35.04
X126.559 Y35.096
X126.575 Y35.152
X126.592 Y35.206
X126.611 Y35.257
X126.631 Y35.309
X126.653 Y35.359
X126.675 Y35.406
X126.699 Y35.452
X126.725 Y35.498
X126.753 Y35.544
X126.781 Y35.586
X126.81 Y35.627
X126.842 Y35.668
X126.875 Y35.707
X126.909 Y35.746
X126.944 Y35.782
X126.981 Y35.818
X127.018 Y35.851
X127.057 Y35.884
X127.096 Y35.914
X127.135 Y35.943
X127.176 Y35.97
X127.217 Y35.996
X127.259 Y36.02
X127.302 Y36.042
X127.346 Y36.063
X127.391 Y36.083
X127.436 Y36.1
X127.484 Y36.117
X127.533 Y36.132
X127.581 Y36.145
X127.632 Y36.157
X127.683 Y36.167
X127.735 Y36.176
X127.789 Y36.183
X127.844 Y36.189
X127.9 Y36.193
X127.957 Y36.195
X128.016 Y36.196
X128.075 Y36.195
X128.134 Y36.193
X128.192 Y36.189
X128.248 Y36.183
X128.303 Y36.176
X128.356 Y36.168
X128.408 Y36.157
X128.459 Y36.146
X128.509 Y36.133
X128.558 Y36.118
X128.605 Y36.102
X128.652 Y36.084
X128.698 Y36.065
X128.741 Y36.045
X128.784 Y36.022
X128.827 Y35.998
X128.869 Y35.973
X128.908 Y35.947
X128.947 Y35.919
X128.987 Y35.889
X129.024 Y35.858
X129.06 Y35.825
X129.097 Y35.79
X129.131 Y35.754
X129.165 Y35.717
X129.197 Y35.679
X129.228 Y35.638
X129.257 Y35.598
X129.285 Y35.555
X129.312 Y35.511
X129.337 Y35.467
X129.36 Y35.42
X129.383 Y35.371
X129.404 Y35.323
X129.424 Y35.271
X129.443 Y35.218
X129.46 Y35.163
X129.476 Y35.108
X129.489 Y35.052
X129.502 Y34.991
X129.514 Y34.93
X129.524 Y34.868
X129.532 Y34.806
X129.538 Y34.74
X129.544 Y34.672
X129.548 Y34.603
X129.551 Y34.533
Y34.518
X129.666 Y34.403 Z-0.001
X129.551 Y34.518 Z-0.2
X126.956
G3 X126.798 Y34.449 R0.215
X126.741 Y34.286 R0.215
G1 X126.745 Y34.233
X126.746 Y34.228
X126.751 Y34.176
X126.756 Y34.124
X126.757 Y34.115
X126.764 Y34.065
Y34.061
X126.772 Y34.012
X126.773 Y34.007
X126.782 Y33.959
Y33.958
X126.791 Y33.911
X126.794 Y33.902
X126.805 Y33.856
X126.806 Y33.851
X126.818 Y33.807
Y33.805
X126.83 Y33.762
X126.834 Y33.752
X126.848 Y33.71
Y33.708
X126.862 Y33.667
X126.865 Y33.661
X126.88 Y33.622
X126.884 Y33.611
X126.901 Y33.572
X126.902 Y33.57
X126.919 Y33.533
X126.922 Y33.526
X126.94 Y33.49
X126.944 Y33.484
X126.963 Y33.449
X126.967 Y33.442
X126.987 Y33.408
X126.991 Y33.401
X127.012 Y33.369
X127.017 Y33.362
X127.039 Y33.331
X127.044 Y33.324
X127.067 Y33.294
X127.072 Y33.287
X127.096 Y33.258
X127.102 Y33.252
X127.127 Y33.224
X127.133 Y33.217
X127.159 Y33.191
X127.162 Y33.187
X127.188 Y33.162
X127.195 Y33.156
X127.222 Y33.131
X127.228 Y33.126
X127.256 Y33.103
X127.26 Y33.099
X127.288 Y33.077
X127.295 Y33.072
X127.324 Y33.051
X127.329 Y33.047
X127.358 Y33.027
X127.362 Y33.024
X127.391 Y33.005
X127.399 Y33.
X127.429 Y32.983
X127.436 Y32.978
X127.467 Y32.961
X127.472 Y32.959
X127.503 Y32.943
X127.509 Y32.94
X127.54 Y32.925
X127.55 Y32.921
X127.583 Y32.908
X127.587 Y32.906
X127.619 Y32.894
X127.627 Y32.89
X127.66 Y32.879
X127.667 Y32.877
X127.701 Y32.867
X127.708 Y32.865
X127.742 Y32.855
X127.749 Y32.853
X127.784 Y32.845
X127.79 Y32.844
X127.825 Y32.837
X127.832 Y32.836
X127.867 Y32.83
X127.875 Y32.829
X127.912 Y32.824
X127.917 Y32.823
X127.953 Y32.819
X127.961
X127.999 Y32.816
X128.005
X128.042 Y32.814
X128.048
X128.086 Y32.813
X128.091
X128.12 Y32.814
X128.125
X128.154 Y32.815
X128.159
X128.187 Y32.816
X128.191 Y32.817
X128.22 Y32.819
X128.225
X128.252 Y32.822
X128.257 Y32.823
X128.285 Y32.826
X128.29 Y32.827
X128.318 Y32.831
X128.323
X128.35 Y32.836
X128.355 Y32.837
X128.382 Y32.842
X128.387 Y32.843
X128.414 Y32.849
X128.42 Y32.851
X128.446 Y32.857
X128.451 Y32.858
X128.477 Y32.865
X128.481 Y32.867
X128.507 Y32.874
X128.512 Y32.876
X128.538 Y32.884
X128.542 Y32.885
X128.568 Y32.894
X128.575 Y32.897
X128.6 Y32.907
X128.604 Y32.908
X128.629 Y32.918
X128.633 Y32.92
X128.658 Y32.931
X128.663 Y32.933
X128.688 Y32.945
X128.694 Y32.948
X128.718 Y32.96
X128.723 Y32.962
X128.747 Y32.975
X128.75 Y32.977
X128.774 Y32.99
X128.778 Y32.992
X128.802 Y33.006
X128.809 Y33.01
X128.832 Y33.024
X128.835 Y33.027
X128.858 Y33.042
X128.865 Y33.046
X128.887 Y33.062
X128.893 Y33.066
X128.914 Y33.083
X128.921 Y33.088
X128.941 Y33.105
X128.947 Y33.11
X128.966 Y33.127
X128.973 Y33.134
X128.991 Y33.151
X128.997 Y33.158
X129.014 Y33.176
X129.016 Y33.178
X129.033 Y33.197
X129.044 Y33.209
X129.059 Y33.228
X129.061 Y33.231
X129.076 Y33.251
X129.085 Y33.264
X129.098 Y33.284
X129.1 Y33.287
X129.113 Y33.308
X129.118 Y33.316
X129.13 Y33.337
X129.138 Y33.353
X129.148 Y33.375
X129.149 Y33.377
X129.159 Y33.4
X129.162 Y33.408
X129.171 Y33.431
X129.175 Y33.44
X129.183 Y33.464
X129.186 Y33.473
X129.193 Y33.496
G0 Z5.
X115.306 Y37.651
G1 Z0. F1000.
X115.421 Y37.536 Z-0.2
X115.656
X115.771 Y37.651 Z0.
X115.656 Y37.536 Z-0.2
Y37.249
X115.771 Y37.134 Z0.
X115.656 Y37.249 Z-0.2
X115.421
X115.306 Y37.134 Z0.
X115.421 Y37.249 Z-0.2
Y37.536
G0 Z15.
M9
G53 Z0.
M30
%
