%
(1001)
(T2  D=3.125 CR=0. - ZMIN=-5. - FLAT END MILL)
G90 G94 G17 G91.1 G64 P0.1
G21
G53 G0 Z0.
(2D CONTOUR1)
T2 M6
S24000 M3
G54
B0.
M8
G0 G43 X73.3 Y16.188 Z7. H2
G0 Z3.
G1 Z0.312 F333.33
G18 G2 X73.612 Z0. R0.313
G1 X73.925 F400.
G17 G3 X74.237 Y16.5 R0.313
X68. Y22.737 R6.237 F500.8
X62.563 Y19.556 R6.237
G1 Y13.444
G3 X71.056 Y11.063 R6.237
X74.237 Y16.5 R6.237
X73.925 Y16.813 R0.313 F400.
G1 X73.612
G18 G3 X73.3 Z0.312 R0.313
G0 Z3.
Y16.188
G1 Z2. F333.33
Z-0.688
G2 X73.612 Z-1. R0.313
G1 X73.925 F400.
G17 G3 X74.237 Y16.5 R0.313
X68. Y22.737 R6.237 F500.8
X62.563 Y19.556 R6.237
G1 Y13.444
G3 X71.056 Y11.063 R6.237
X74.237 Y16.5 R6.237
X73.925 Y16.813 R0.313 F400.
G1 X73.612
G18 G3 X73.3 Z-0.688 R0.313
G0 Z3.
Y16.188
G1 Z1. F333.33
Z-1.688
G2 X73.612 Z-2. R0.313
G1 X73.925 F400.
G17 G3 X74.237 Y16.5 R0.313
X68. Y22.737 R6.237 F500.8
X62.563 Y19.556 R6.237
G1 Y13.444
G3 X71.056 Y11.063 R6.237
X74.237 Y16.5 R6.237
X73.925 Y16.813 R0.313 F400.
G1 X73.612
G18 G3 X73.3 Z-1.688 R0.313
G0 Z3.
Y16.188
G1 Z0. F333.33
Z-2.688
G2 X73.612 Z-3. R0.313
G1 X73.925 F400.
G17 G3 X74.237 Y16.5 R0.313
X68. Y22.737 R6.237 F500.8
X62.563 Y19.556 R6.237
G1 Y13.444
G3 X71.056 Y11.063 R6.237
X74.237 Y16.5 R6.237
X73.925 Y16.813 R0.313 F400.
G1 X73.612
G18 G3 X73.3 Z-2.688 R0.313
G0 Z3.
Y16.188
G1 Z-1. F333.33
Z-3.688
G2 X73.612 Z-4. R0.313
G1 X73.925 F400.
G17 G3 X74.237 Y16.5 R0.313
X68. Y22.737 R6.237 F500.8
X62.563 Y19.556 R6.237
G1 Y13.444
G3 X71.056 Y11.063 R6.237
X74.237 Y16.5 R6.237
X73.925 Y16.813 R0.313 F400.
G1 X73.612
G18 G3 X73.3 Z-3.688 R0.313
G0 Z3.
Y16.188
G1 Z-2. F333.33
Z-4.688
G2 X73.612 Z-5. R0.313
G1 X73.925 F400.
G17 G3 X74.237 Y16.5 R0.313
X68. Y22.737 R6.237 F500.8
X62.563 Y19.556 R6.237
G1 Y13.444
G3 X71.056 Y11.063 R6.237
X74.237 Y16.5 R6.237
X73.925 Y16.813 R0.313 F400.
G1 X73.612
G18 G3 X73.3 Z-4.688 R0.313
G0 Z3.
X97.9 Y16.662
G1 Z0.312 F333.33
G2 X98.213 Z0. R0.313
G1 X98.525 F400.
G17 G3 X98.838 Y16.975 R0.313
G1 Y18.902 F500.8
G3 X90.598 Y22.338 R6.313
X87.162 Y18.902 R6.313
G1 Y14.098
G3 X95.402 Y10.662 R6.313
X98.838 Y14.098 R6.313
G1 Y16.975
G3 X98.525 Y17.287 R0.313 F400.
G1 X98.213
G18 G3 X97.9 Z0.312 R0.313
G0 Z3.
Y16.662
G1 Z2. F333.33
Z-0.688
G2 X98.213 Z-1. R0.313
G1 X98.525 F400.
G17 G3 X98.838 Y16.975 R0.313
G1 Y18.902 F500.8
G3 X90.598 Y22.338 R6.313
X87.162 Y18.902 R6.313
G1 Y14.098
G3 X95.402 Y10.662 R6.313
X98.838 Y14.098 R6.313
G1 Y16.975
G3 X98.525 Y17.287 R0.313 F400.
G1 X98.213
G18 G3 X97.9 Z-0.688 R0.313
G0 Z3.
Y16.662
G1 Z1. F333.33
Z-1.688
G2 X98.213 Z-2. R0.313
G1 X98.525 F400.
G17 G3 X98.838 Y16.975 R0.313
G1 Y18.902 F500.8
G3 X90.598 Y22.338 R6.313
X87.162 Y18.902 R6.313
G1 Y14.098
G3 X95.402 Y10.662 R6.313
X98.838 Y14.098 R6.313
G1 Y16.975
G3 X98.525 Y17.287 R0.313 F400.
G1 X98.213
G18 G3 X97.9 Z-1.688 R0.313
G0 Z3.
Y16.662
G1 Z0. F333.33
Z-2.688
G2 X98.213 Z-3. R0.313
G1 X98.525 F400.
G17 G3 X98.838 Y16.975 R0.313
G1 Y18.902 F500.8
G3 X90.598 Y22.338 R6.313
X87.162 Y18.902 R6.313
G1 Y14.098
G3 X95.402 Y10.662 R6.313
X98.838 Y14.098 R6.313
G1 Y16.975
G3 X98.525 Y17.287 R0.313 F400.
G1 X98.213
G18 G3 X97.9 Z-2.688 R0.313
G0 Z3.
Y16.662
G1 Z-1. F333.33
Z-3.688
G2 X98.213 Z-4. R0.313
G1 X98.525 F400.
G17 G3 X98.838 Y16.975 R0.313
G1 Y18.902 F500.8
G3 X90.598 Y22.338 R6.313
X87.162 Y18.902 R6.313
G1 Y14.098
G3 X95.402 Y10.662 R6.313
X98.838 Y14.098 R6.313
G1 Y16.975
G3 X98.525 Y17.287 R0.313 F400.
G1 X98.213
G18 G3 X97.9 Z-3.688 R0.313
G0 Z3.
Y16.662
G1 Z-2. F333.33
Z-4.688
G2 X98.213 Z-5. R0.313
G1 X98.525 F400.
G17 G3 X98.838 Y16.975 R0.313
G1 Y18.902 F500.8
G3 X90.598 Y22.338 R6.313
X87.162 Y18.902 R6.313
G1 Y14.098
G3 X95.402 Y10.662 R6.313
X98.838 Y14.098 R6.313
G1 Y16.975
G3 X98.525 Y17.287 R0.313 F400.
G1 X98.213
G18 G3 X97.9 Z-4.688 R0.313
G0 Z3.
X122.9 Y15.713
G1 Z0.312 F333.33
G2 X123.213 Z0. R0.313
G1 X123.525 F400.
G17 G3 X123.838 Y16.025 R0.313
G1 Y18.902 F500.8
G3 X115.598 Y22.338 R6.313
X112.162 Y18.902 R6.313
G1 Y14.098
G3 X120.402 Y10.662 R6.313
X123.838 Y14.098 R6.313
G1 Y16.025
G3 X123.525 Y16.338 R0.313 F400.
G1 X123.213
G18 G3 X122.9 Z0.312 R0.313
G0 Z3.
Y15.713
G1 Z2. F333.33
Z-0.688
G2 X123.213 Z-1. R0.313
G1 X123.525 F400.
G17 G3 X123.838 Y16.025 R0.313
G1 Y18.902 F500.8
G3 X115.598 Y22.338 R6.313
X112.162 Y18.902 R6.313
G1 Y14.098
G3 X120.402 Y10.662 R6.313
X123.838 Y14.098 R6.313
G1 Y16.025
G3 X123.525 Y16.338 R0.313 F400.
G1 X123.213
G18 G3 X122.9 Z-0.688 R0.313
G0 Z3.
Y15.713
G1 Z1. F333.33
Z-1.688
G2 X123.213 Z-2. R0.313
G1 X123.525 F400.
G17 G3 X123.838 Y16.025 R0.313
G1 Y18.902 F500.8
G3 X115.598 Y22.338 R6.313
X112.162 Y18.902 R6.313
G1 Y14.098
G3 X120.402 Y10.662 R6.313
X123.838 Y14.098 R6.313
G1 Y16.025
G3 X123.525 Y16.338 R0.313 F400.
G1 X123.213
G18 G3 X122.9 Z-1.688 R0.313
G0 Z3.
Y15.713
G1 Z0. F333.33
Z-2.688
G2 X123.213 Z-3. R0.313
G1 X123.525 F400.
G17 G3 X123.838 Y16.025 R0.313
G1 Y18.902 F500.8
G3 X115.598 Y22.338 R6.313
X112.162 Y18.902 R6.313
G1 Y14.098
G3 X120.402 Y10.662 R6.313
X123.838 Y14.098 R6.313
G1 Y16.025
G3 X123.525 Y16.338 R0.313 F400.
G1 X123.213
G18 G3 X122.9 Z-2.688 R0.313
G0 Z3.
Y15.713
G1 Z-1. F333.33
Z-3.688
G2 X123.213 Z-4. R0.313
G1 X123.525 F400.
G17 G3 X123.838 Y16.025 R0.313
G1 Y18.902 F500.8
G3 X115.598 Y22.338 R6.313
X112.162 Y18.902 R6.313
G1 Y14.098
G3 X120.402 Y10.662 R6.313
X123.838 Y14.098 R6.313
G1 Y16.025
G3 X123.525 Y16.338 R0.313 F400.
G1 X123.213
G18 G3 X122.9 Z-3.688 R0.313
G0 Z3.
Y15.713
G1 Z-2. F333.33
Z-4.688
G2 X123.213 Z-5. R0.313
G1 X123.525 F400.
G17 G3 X123.838 Y16.025 R0.313
G1 Y18.902 F500.8
G3 X115.598 Y22.338 R6.313
X112.162 Y18.902 R6.313
G1 Y14.098
G3 X120.402 Y10.662 R6.313
X123.838 Y14.098 R6.313
G1 Y16.025
G3 X123.525 Y16.338 R0.313 F400.
G1 X123.213
G18 G3 X122.9 Z-4.688 R0.313
G0 Z3.
X42. Y16.688
G1 Z0.312 F333.33
G2 X42.313 Z0. R0.313
G1 X42.625 F400.
G17 G3 X42.938 Y17. R0.313
X37. Y22.938 R5.938 F500.8
X31.063 Y17. R5.938
X37. Y11.063 R5.938
X42.938 Y17. R5.938
X42.625 Y17.313 R0.313 F400.
G1 X42.313
G18 G3 X42. Z0.312 R0.313
G0 Z3.
Y16.688
G1 Z2. F333.33
Z-0.688
G2 X42.313 Z-1. R0.313
G1 X42.625 F400.
G17 G3 X42.938 Y17. R0.313
X37. Y22.938 R5.938 F500.8
X31.063 Y17. R5.938
X37. Y11.063 R5.938
X42.938 Y17. R5.938
X42.625 Y17.313 R0.313 F400.
G1 X42.313
G18 G3 X42. Z-0.688 R0.313
G0 Z3.
Y16.688
G1 Z1. F333.33
Z-1.688
G2 X42.313 Z-2. R0.313
G1 X42.625 F400.
G17 G3 X42.938 Y17. R0.313
X37. Y22.938 R5.938 F500.8
X31.063 Y17. R5.938
X37. Y11.063 R5.938
X42.938 Y17. R5.938
X42.625 Y17.313 R0.313 F400.
G1 X42.313
G18 G3 X42. Z-1.688 R0.313
G0 Z3.
Y16.688
G1 Z0. F333.33
Z-2.688
G2 X42.313 Z-3. R0.313
G1 X42.625 F400.
G17 G3 X42.938 Y17. R0.313
X37. Y22.938 R5.938 F500.8
X31.063 Y17. R5.938
X37. Y11.063 R5.938
X42.938 Y17. R5.938
X42.625 Y17.313 R0.313 F400.
G1 X42.313
G18 G3 X42. Z-2.688 R0.313
G0 Z3.
Y16.688
G1 Z-1. F333.33
Z-3.688
G2 X42.313 Z-4. R0.313
G1 X42.625 F400.
G17 G3 X42.938 Y17. R0.313
X37. Y22.938 R5.938 F500.8
X31.063 Y17. R5.938
X37. Y11.063 R5.938
X42.938 Y17. R5.938
X42.625 Y17.313 R0.313 F400.
G1 X42.313
G18 G3 X42. Z-3.688 R0.313
G0 Z3.
Y16.688
G1 Z-2. F333.33
Z-4.688
G2 X42.313 Z-5. R0.313
G1 X42.625 F400.
G17 G3 X42.938 Y17. R0.313
X37. Y22.938 R5.938 F500.8
X31.063 Y17. R5.938
X37. Y11.063 R5.938
X42.938 Y17. R5.938
X42.625 Y17.313 R0.313 F400.
G1 X42.313
G18 G3 X42. Z-4.688 R0.313
G0 Z7.
G17
M9
G53 G0 Z0.
M30
%
