%
(CARPET RAMP RIGHT)
(T3  D=6.35 CR=0. - ZMIN=-17. - FLAT END MILL)
G90 G94 G17 G91.1
G21
G53 G0 Z0.
(POCKET1)
M9
T3 M6
(ENDMILL 14IN 6.35MM CARBIDE ROUGHING)
S20602 M3
G54
M9
G0 X183.139 Y-37.847
G43 Z10. H0
G0 Z4.25
G1 Z4.047 F333.33
G3 X183.151 Y-37.856 Z3.909 I1.765 J2.446 F1333.33
X183.188 Y-37.882 Z3.777 I1.753 J2.455
X183.248 Y-37.923 Z3.659 I1.716 J2.481
X183.33 Y-37.974 Z3.559 I1.656 J2.521
X183.43 Y-38.033 Z3.482 I1.574 J2.573
X183.545 Y-38.094 Z3.433 I1.474 J2.632
X183.669 Y-38.153 Z3.412 I1.359 J2.693
X186.139 Y-32.65 Z3.082 I1.235 J2.752
X183.669 Y-38.153 Z2.751 I-1.235 J-2.752
X186.139 Y-32.65 Z2.42 I1.235 J2.752
X183.669 Y-38.153 Z2.089 I-1.235 J-2.752
X186.139 Y-32.65 Z1.758 I1.235 J2.752
X183.669 Y-38.153 Z1.427 I-1.235 J-2.752
X186.139 Y-32.65 Z1.096 I1.235 J2.752
X183.669 Y-38.153 Z0.765 I-1.235 J-2.752
X186.139 Y-32.65 Z0.434 I1.235 J2.752
X183.669 Y-38.153 Z0.103 I-1.235 J-2.752
X186.139 Y-32.65 Z-0.227 I1.235 J2.752
X183.669 Y-38.153 Z-0.558 I-1.235 J-2.752
X186.139 Y-32.65 Z-0.889 I1.235 J2.752
X183.669 Y-38.153 Z-1.22 I-1.235 J-2.752
X186.139 Y-32.65 Z-1.551 I1.235 J2.752
X183.669 Y-38.153 Z-1.882 I-1.235 J-2.752
X186.139 Y-32.65 Z-2.213 I1.235 J2.752
X183.669 Y-38.153 Z-2.544 I-1.235 J-2.752
X186.139 Y-32.65 Z-2.875 I1.235 J2.752
X183.669 Y-38.153 Z-3.206 I-1.235 J-2.752
X184.904 Y-38.418 Z-3.25 I1.235 J2.752
G1 X185.135 F5000.
G3 X185.92 Y-37.633 I0. J0.785
G1 Y-37.098
G3 X184.397 Y-36.471 I-0.891 J0.
G1 X183.973 Y-36.895
G3 X184.599 Y-38.418 I0.626 J-0.633
G1 X184.904
G2 X186.995 Y-39.925 I0. J-2.205
G3 X189.54 Y-39.512 I1.239 J0.413
G1 Y-26.924
G3 X188.106 Y-26.466 I-0.79 J0.
G2 X185.685 Y-29.841 I-452.215 J321.776
X183.037 Y-33.042 I-25.838 J18.678
X178.679 Y-37.048 I-30.273 J28.561
X173.947 Y-40.605 I-66.72 J83.849
G3 X174.403 Y-42.038 I0.456 J-0.644
G1 X187.613
G3 X189.54 Y-40.111 I0. J1.927
G1 Y-39.512
G2 X191.228 Y-36.979 I2.744 J0.
G3 X192.917 Y-34.446 I-1.055 J2.533
G1 X192.918 Y-15.64
G3 X191.861 Y-14.583 I-1.057 J0.
G1 X191.705
G3 X190.75 Y-15.189 I0. J-1.057
G2 X186.284 Y-23.363 I-71.215 J33.602
X180.59 Y-30.733 I-40.119 J25.108
X173.899 Y-36.693 I-37.581 J35.456
X166.385 Y-41.575 I-41.472 J55.605
X163.638 Y-42.914 I-12.868 J22.921
G3 X160.822 Y-44.102 I143.233 J-343.328
X161.091 Y-45.415 I0.268 J-0.629
G1 X190.99
G3 X192.917 Y-43.488 I0. J1.927
G1 Y-34.446
G2 X194.445 Y-32.154 I2.483 J0.
G3 X195.974 Y-29.861 I-0.955 J2.292
G1 Y-13.454
G3 X194.048 Y-11.527 I-1.926 J0.
G1 X191.322
G3 X188.137 Y-13.561 I0. J-3.51
G2 X183.86 Y-21.493 I-67.78 J31.426
X178.367 Y-28.636 I-38.081 J23.602
X161.253 Y-40.839 I-39.439 J37.21
X140.83 Y-45.808 I-23.437 J51.874
G1 X-194.271 Y-45.612
G3 Y-48.471 I0. J-1.43
G1 X194.047
G3 X195.973 Y-46.545 I0. J1.927
G1 X195.974 Y-29.861
G2 X198.314 Y-26.351 I3.804 J0.
G3 X200.655 Y-22.84 I-1.463 J3.511
G1 X200.656 Y-8.773
G3 X198.729 Y-6.846 I-1.926 J0.
G1 X188.009
G3 X185.057 Y-8.86 I0. J-3.17
G2 X176.102 Y-23.822 I-49.07 J19.209
X162.637 Y-34.899 I-37.725 J32.134
X150.718 Y-39.635 I-23.618 J42.069
X137.99 Y-41.202 I-12.729 J50.922
G1 X-198.729 Y-40.93
G3 X-200.655 Y-42.857 I0. J-1.926
G1 Y-51.226
G3 X-198.728 Y-53.153 I1.927 J0.
G1 X198.728
G3 X200.654 Y-51.226 I0. J1.927
G1 X200.655 Y-22.84
G2 X202.996 Y-19.329 I3.804 J0.
G3 X205.337 Y-15.818 I-1.463 J3.511
G1 Y-4.091
G3 X203.411 Y-2.165 I-1.926 J0.
G1 X184.45 Y-2.164
G3 X181.748 Y-4.155 I0. J-2.829
G2 X140.334 Y-36.459 I-43.942 J13.636
G1 X-203.41 Y-36.249
G3 X-205.336 Y-38.176 I0. J-1.926
G1 Y-55.907
G3 X-203.409 Y-57.834 I1.927 J0.
G1 X203.409
G3 X205.335 Y-55.907 I0. J1.927
G1 X205.337 Y-15.818
G2 X207.677 Y-12.307 I3.804 J0.
G3 X210.018 Y-8.796 I-1.463 J3.511
G1 Y0.59
G3 X208.092 Y2.516 I-1.926 J0.
G1 X180.582 Y2.517
G3 X178.152 Y0.557 I0. J-2.486
G2 X140.086 Y-31.784 I-40.168 J8.706
G1 X-208.091 Y-31.568
G3 X-210.018 Y-33.494 I0. J-1.926
G1 X-210.017 Y-60.589
G3 X-208.09 Y-62.515 I1.927 J0.
G1 X208.09
G3 X210.016 Y-60.589 I0. J1.927
G1 X210.018 Y-8.796
G2 X212.359 Y-5.285 I3.804 J0.
G3 X214.7 Y-1.774 I-1.463 J3.511
G1 Y5.271
G3 X212.773 Y7.197 I-1.926 J0.
G1 X176.305 Y7.198
G3 X174.174 Y5.279 I0. J-2.142
G2 X162.98 Y-17.248 I-35.805 J3.748
X139.838 Y-27.109 I-25.085 J26.781
G1 X-212.773 Y-26.887
G3 X-214.699 Y-28.813 I0. J-1.926
G1 X-214.698 Y-65.27
G3 X-212.771 Y-67.196 I1.927 J0.
G1 X212.771
G3 X214.698 Y-65.27 I0. J1.927
G1 X214.7 Y-1.774
G2 X217.04 Y1.736 I3.804 J0.
G3 X219.381 Y5.247 I-1.463 J3.511
G1 Y9.952
G3 X217.455 Y11.878 I-1.926 J0.
G1 X171.632 Y11.88
G3 X169.705 Y9.953 I0. J-1.926
G2 X169.09 Y2.523 I-45.193 J0.
X166.793 Y-4.569 I-24.923 J4.154
X137.99 Y-22.477 I-28.899 J14.365
G1 X-217.454 Y-22.205
G3 X-219.381 Y-24.132 I0. J-1.926
G1 X-219.379 Y-69.951
G3 X-217.452 Y-71.878 I1.927 J0.
G1 X217.452
G3 X219.379 Y-69.951 I0. J1.927
G1 X219.381 Y5.247
G2 X221.722 Y8.758 I3.804 J0.
G3 X224.063 Y12.269 I-1.463 J3.511
G1 Y14.633
G3 X222.136 Y16.56 I-1.926 J0.
G1 X166.951 Y16.561
G3 X165.024 Y14.635 I0. J-1.926
X165.137 Y11.311 I48.894 J0.
G2 X165.192 Y7.986 I-32.123 J-2.189
X157.269 Y-9.909 I-26.267 J0.928
X139.342 Y-17.76 I-19.398 J19.904
G1 X-222.136 Y-17.524
G3 X-224.062 Y-19.451 I0. J-1.926
G1 X-224.06 Y-74.632
G3 X-222.133 Y-76.559 I1.927 J0.
G1 X222.133
G3 X224.06 Y-74.632 I0. J1.927
G1 X224.063 Y12.269
G2 X226.403 Y15.78 I3.804 J0.
G3 X228.744 Y19.291 I-1.463 J3.511
G1 Y19.314
G3 X226.818 Y21.241 I-1.926 J0.
G1 X162.269 Y21.243
G3 X160.343 Y19.316 I0. J-1.926
X160.518 Y9.345 I283.681 J0.
G2 X158.409 Y-0.402 I-20.283 J-0.713
X137.99 Y-13.114 I-20.516 J10.198
G1 X-226.817 Y-12.843
G3 X-228.744 Y-14.769 I0. J-1.926
G1 X-228.741 Y-79.314
G3 X-226.814 Y-81.24 I1.927 J0.
G1 X226.814
G3 X228.741 Y-79.314 I0. J1.927
G1 X228.744 Y19.291
G2 X230.679 Y22.374 I3.424 J0.
G3 X229.867 Y25.922 I-0.812 J1.681
G1 X157.588 Y25.924
G3 X155.662 Y23.998 I0. J-1.926
G1 X155.899 Y8.314
G2 X150.622 Y-3.361 I-16.873 J0.596
X138.847 Y-8.41 I-12.759 J13.501
G1 X-231.499 Y-8.162
G3 X-233.425 Y-10.088 I0. J-1.926
G1 X-233.422 Y-83.995
G3 X-231.496 Y-85.921 I1.927 J0.
G1 X231.495
G3 X233.422 Y-83.995 I0. J1.927
G1 X233.426 Y23.995
G3 X231.499 Y25.922 I-1.926 J0.
G1 X229.867
G2 X226.356 Y28.263 I0. J3.804
G3 X222.846 Y30.603 I-3.511 J-1.463
G1 X152.907 Y30.605
G3 X150.98 Y28.679 I0. J-1.926
G1 X151.22 Y8.479
G2 X147.283 Y-0.081 I-12.21 J0.431
X138.599 Y-3.736 I-9.421 J10.239
G1 X-236.18 Y-3.48
G3 X-238.107 Y-5.407 I0. J-1.926
G1 X-238.103 Y-88.676
G3 X-236.177 Y-90.603 I1.927 J0.
G1 X236.177
G3 X238.103 Y-88.676 I0. J1.927
G1 X238.107 Y28.676
G3 X236.181 Y30.603 I-1.926 J0.
G1 X222.846
G2 X219.335 Y32.944 I0. J3.804
G3 X215.824 Y35.285 I-3.511 J-1.463
G1 X148.225 Y35.287
G3 X146.299 Y33.36 I0. J-1.926
G1 X146.542 Y8.644
G2 X143.944 Y3.2 I-7.562 J0.267
X138.351 Y0.939 I-6.084 J7.
G1 X-240.862 Y1.201
G3 X-242.788 Y-0.725 I0. J-1.926
G1 X-242.784 Y-93.357
G3 X-240.858 Y-95.284 I1.927 J0.
G1 X240.858
G3 X242.784 Y-93.357 I0. J1.927
G1 X242.788 Y33.358
G3 X240.862 Y35.284 I-1.926 J0.
G1 X215.824 Y35.285
G2 X212.29 Y37.641 I0. J3.828
G3 X208.757 Y39.997 I-3.534 J-1.472
G1 X141.57 Y39.998
X141.585 Y39.744
G2 X141.588 Y39.641 I-1.835 J-0.103
G1 Y9.569
G2 X141.586 Y9.504 I-1.838 J0.
G1 X141.562 Y8.82
G2 X141.371 Y8.067 I-1.836 J0.065
G1 X141.032 Y7.384
G2 X140.723 Y6.941 I-1.645 J0.818
G1 X140.693 Y6.909
G2 X140.255 Y6.567 I-1.337 J1.261
G1 X139.572 Y6.184
G2 X138.77 Y5.951 I-0.9 J1.602
G1 X138.087 Y5.915
G2 X137.99 Y5.912 I-0.097 J1.835
G1 X-247.289
G2 X-247.5 Y5.925 I0. J1.837
G1 X-247.495 Y-99.995
X137.99
X247.495
X247.5 Y39.927
X247.496 Y39.995
X208.757 Y39.997
G3 X208.617 Y39.981 Z-3.234 I0. J-0.635 F1000.
X208.49 Y39.938 Z-3.187 I0.14 J-0.619
X208.386 Y39.877 Z-3.111 I0.267 J-0.576
X208.309 Y39.812 Z-3.011 I0.371 J-0.516
X208.259 Y39.756 Z-2.891 I0.447 J-0.451
X208.231 Y39.718 Z-2.756 I0.498 J-0.394
X208.222 Y39.705 Z-2.615 I0.526 J-0.356
G0 Z5.
X200.127 Y-50.13
Z0.797
G3 X200.112 Y-50.133 Z0.659 I0.482 J-2.978 F1333.33
X200.068 Y-50.14 Z0.527 I0.497 J-2.975
X199.997 Y-50.154 Z0.409 I0.541 J-2.967
X199.903 Y-50.175 Z0.309 I0.612 J-2.953
X199.79 Y-50.205 Z0.232 I0.707 J-2.932
X199.666 Y-50.243 Z0.183 I0.819 J-2.903
X199.536 Y-50.289 Z0.162 I0.943 J-2.865
X201.682 Y-55.927 Z-0.168 I1.073 J-2.819
X199.536 Y-50.289 Z-0.499 I-1.073 J2.819
X201.682 Y-55.927 Z-0.83 I1.073 J-2.819
X199.536 Y-50.289 Z-1.161 I-1.073 J2.819
X201.682 Y-55.927 Z-1.492 I1.073 J-2.819
X199.536 Y-50.289 Z-1.823 I-1.073 J2.819
X201.682 Y-55.927 Z-2.154 I1.073 J-2.819
X199.536 Y-50.289 Z-2.485 I-1.073 J2.819
X201.682 Y-55.927 Z-2.816 I1.073 J-2.819
X199.536 Y-50.289 Z-3.147 I-1.073 J2.819
X201.682 Y-55.927 Z-3.477 I1.073 J-2.819
X199.536 Y-50.289 Z-3.808 I-1.073 J2.819
X201.682 Y-55.927 Z-4.139 I1.073 J-2.819
X199.536 Y-50.289 Z-4.47 I-1.073 J2.819
X201.682 Y-55.927 Z-4.801 I1.073 J-2.819
X199.536 Y-50.289 Z-5.132 I-1.073 J2.819
X201.682 Y-55.927 Z-5.463 I1.073 J-2.819
X199.536 Y-50.289 Z-5.794 I-1.073 J2.819
X201.682 Y-55.927 Z-6.125 I1.073 J-2.819
X199.536 Y-50.289 Z-6.456 I-1.073 J2.819
X198.476 Y-50.975 Z-6.5 I1.073 J-2.819
G2 X194.417 Y-54.595 I-33.648 J33.643 F5000.
G3 X194.925 Y-56.055 I0.508 J-0.642
G1 X201.63
G3 X203.556 Y-54.128 I0. J1.927
G1 X203.557 Y-47.424
G3 X202.096 Y-46.915 I-0.819 J0.
G2 X198.476 Y-50.975 I-37.268 J29.583
X195.374 Y-51.561 I-1.98 J1.98
G3 X192.243 Y-51.963 I-1.23 J-2.813
G2 X182.762 Y-57.639 I-26.705 J33.852
X182.014 Y-57.933 I-5.024 J11.668
G3 X181.264 Y-58.22 I6.306 J-17.637
X181.514 Y-59.495 I0.249 J-0.613
G1 X205.109
G3 X206.997 Y-57.607 I0. J1.888
G1 Y-33.975
G3 X205.724 Y-33.736 I-0.659 J0.
G2 X192.243 Y-51.963 I-40.187 J15.625
X189.654 Y-52.136 I-1.42 J1.801
G3 X187.059 Y-52.166 I-1.273 J-2.149
G2 X165.417 Y-58.596 I-22.485 J36.043
G1 X-208.086 Y-58.332
G3 X-210.013 Y-60.259 I0. J-1.927
G1 Y-60.589
G3 X-208.087 Y-62.515 I1.926 J0.
G1 X208.09
G3 X210.017 Y-60.589 I0. J1.927
G1 X210.019 Y0.591
G3 X208.092 Y2.517 I-1.927 J0.
G1 X207.759
G3 X205.832 Y0.591 I0. J-1.926
X206.038 Y-16.23 I688.33 J0.
G2 X203.139 Y-32.8 I-42.824 J-1.047
X188.198 Y-51.43 I-37.044 J14.403
X187.059 Y-52.166 I-23.624 J35.307
X182.668 Y-51.955 I-2.043 J3.275
G3 X178.315 Y-51.338 I-2.724 J-3.556
G2 X165.324 Y-53.916 I-13.741 J35.221
G1 X-212.767 Y-53.651
G3 X-214.694 Y-55.578 I0. J-1.927
G1 X-214.695 Y-65.27
G3 X-212.768 Y-67.196 I1.926 J0.
G1 X212.771
G3 X214.698 Y-65.27 I0. J1.927
G1 X214.7 Y5.272
G3 X212.774 Y7.198 I-1.927 J0.
G1 X203.078 Y7.199
G3 X201.151 Y5.272 I0. J-1.926
X201.655 Y-13.026 I332.814 J0.
G2 X198.776 Y-31.104 I-43.248 J-2.381
X185.516 Y-47.593 I-32.686 J12.709
X178.315 Y-51.338 I-20.943 J31.476
X174.052 Y-50.3 I-1.39 J3.563
G3 X169.924 Y-48.815 I-3.409 J-2.997
G2 X165.231 Y-49.235 I-5.365 J33.446
G1 X-217.448 Y-48.97
G3 X-219.375 Y-50.896 I0. J-1.927
G1 X-219.376 Y-69.951
G3 X-217.45 Y-71.878 I1.926 J0.
G1 X217.452
G3 X219.379 Y-69.951 I0. J1.927
G1 X219.381 Y9.953
G3 X217.455 Y11.879 I-1.927 J0.
G1 X198.396 Y11.88
G3 X196.47 Y9.954 I0. J-1.926
X196.937 Y-15.687 I704.65 J0.
G2 X187.795 Y-39.648 I-32.838 J-1.196
X177.467 Y-46.686 I-21.901 J21.04
X169.924 Y-48.815 I-12.908 J31.318
X165.958 Y-46.839 I-0.603 J3.759
G3 X162.161 Y-44.553 I-3.799 J-2.015
G1 X-222.129 Y-44.289
G3 X-224.056 Y-46.215 I0. J-1.927
G1 X-224.058 Y-74.633
G3 X-222.131 Y-76.559 I1.926 J0.
G1 X222.133
G3 X224.06 Y-74.632 I0. J1.927
G1 X224.063 Y14.634
G3 X222.136 Y16.56 I-1.927 J0.
G1 X193.715 Y16.562
G3 X191.789 Y14.635 I0. J-1.926
G1 X192.05 Y-18.075
G2 X183.956 Y-36.764 I-26.348 J0.314
X165.138 Y-44.555 I-19.373 J20.168
G1 X162.161 Y-44.553
G2 X158.653 Y-42.211 I0.003 J3.803
G3 X155.144 Y-39.868 I-3.511 J-1.46
G1 X-226.81 Y-39.607
G3 X-228.737 Y-41.534 I0. J-1.927
G1 X-228.739 Y-79.314
G3 X-226.813 Y-81.24 I1.926 J0.
G1 X226.814
G3 X228.741 Y-79.314 I0. J1.927
G1 X228.744 Y19.315
G3 X226.818 Y21.241 I-1.927 J0.
G1 X189.034 Y21.243
G3 X187.107 Y19.317 I0. J-1.926
G1 X187.369 Y-18.019
G2 X180.633 Y-33.467 I-21.672 J0.258
X165.046 Y-39.875 I-16.049 J16.878
G1 X155.144 Y-39.868
G2 X151.636 Y-37.526 I0.003 J3.803
G3 X148.127 Y-35.183 I-3.511 J-1.46
G1 X-231.491 Y-34.926
G3 X-233.418 Y-36.853 I0. J-1.927
G1 X-233.421 Y-83.995
G3 X-231.494 Y-85.921 I1.926 J0.
G1 X231.496
G3 X233.422 Y-83.995 I0. J1.927
G1 X233.426 Y23.996
G3 X231.499 Y25.922 I-1.927 J0.
G1 X184.353 Y25.925
G3 X182.426 Y23.998 I0. J-1.926
G1 X182.688 Y-17.963
G2 X177.309 Y-30.17 I-16.999 J0.203
X164.953 Y-35.194 I-12.726 J13.59
G1 X148.127 Y-35.183
G2 X144.618 Y-32.841 I0.003 J3.803
G3 X141.11 Y-30.498 I-3.511 J-1.46
G1 X-236.172 Y-30.245
G3 X-238.099 Y-32.171 I0. J-1.927
G1 X-238.102 Y-88.676
G3 X-236.176 Y-90.603 I1.926 J0.
G1 X236.177
G3 X238.103 Y-88.676 I0. J1.927
G1 X238.107 Y28.677
G3 X236.181 Y30.603 I-1.927 J0.
G1 X179.671 Y30.606
G3 X177.745 Y28.68 I0. J-1.926
G1 X178.007 Y-17.907
G2 X173.986 Y-26.873 I-12.332 J0.147
X164.86 Y-30.514 I-9.403 J10.31
G1 X141.11 Y-30.498
G2 X137.601 Y-28.156 I0.003 J3.803
G3 X134.093 Y-25.813 I-3.511 J-1.46
G1 X-240.853 Y-25.564
G3 X-242.78 Y-27.49 I0. J-1.927
G1 X-242.784 Y-93.358
G3 X-240.857 Y-95.284 I1.926 J0.
G1 X240.858
G3 X242.784 Y-93.357 I0. J1.927
G1 X242.788 Y33.358
G3 X240.862 Y35.284 I-1.927 J0.
G1 X174.99 Y35.287
G3 X173.064 Y33.361 I0. J-1.926
G1 X173.327 Y-17.852
G2 X170.663 Y-23.576 I-7.679 J0.092
X164.767 Y-25.834 I-6.081 J7.051
G1 X134.093 Y-25.813
G2 X130.374 Y-23.333 I0.003 J4.032
G3 X126.654 Y-20.852 I-3.719 J-1.548
G1 X-247.289
G2 X-247.491 Y-20.841 I0. J1.837
G1 X-247.495 Y-99.995
X247.495
X247.5 Y39.927
X247.496 Y39.995
X168.335 Y39.999
X168.349 Y39.744
G2 X168.352 Y39.641 I-1.835 J-0.103
G1 Y-17.087
G2 Y-17.109 I-1.838 J0.
G1 X168.344 Y-17.792
G2 X168.219 Y-18.436 I-1.837 J0.022
G1 X167.954 Y-19.12
G2 X167.566 Y-19.727 I-1.713 J0.666
G1 X167.323 Y-19.98
G2 X166.724 Y-20.395 I-1.325 J1.273
G1 X166.041 Y-20.689
G2 X165.351 Y-20.838 I-0.727 J1.688
G1 X164.668 Y-20.852
G2 X164.631 I-0.036 J1.837
G1 X126.654
G3 X126.514 Y-20.868 Z-6.484 I0. J-0.635 F1000.
X126.388 Y-20.911 Z-6.437 I0.14 J-0.619
X126.284 Y-20.972 Z-6.361 I0.267 J-0.576
X126.207 Y-21.037 Z-6.261 I0.371 J-0.516
X126.157 Y-21.093 Z-6.141 I0.447 J-0.451
X126.129 Y-21.131 Z-6.006 I0.498 J-0.394
X126.12 Y-21.144 Z-5.865 I0.526 J-0.356
G0 Z5.
X216.916 Y-66.909
Z4.25
G1 Z-2.453 F333.33
G3 X216.901 Y-66.911 Z-2.591 I0.5 J-2.974 F1333.33
X216.857 Y-66.92 Z-2.723 I0.515 J-2.972
X216.786 Y-66.934 Z-2.841 I0.56 J-2.964
X216.691 Y-66.956 Z-2.941 I0.631 J-2.95
X216.579 Y-66.986 Z-3.018 I0.725 J-2.928
X216.455 Y-67.024 Z-3.067 I0.837 J-2.898
X216.326 Y-67.071 Z-3.088 I0.961 J-2.859
X218.506 Y-72.696 Z-3.418 I1.09 J-2.812
X216.326 Y-67.071 Z-3.749 I-1.09 J2.812
X218.506 Y-72.696 Z-4.08 I1.09 J-2.812
X216.326 Y-67.071 Z-4.411 I-1.09 J2.812
X218.506 Y-72.696 Z-4.742 I1.09 J-2.812
X216.326 Y-67.071 Z-5.073 I-1.09 J2.812
X218.506 Y-72.696 Z-5.404 I1.09 J-2.812
X216.326 Y-67.071 Z-5.735 I-1.09 J2.812
X218.506 Y-72.696 Z-6.066 I1.09 J-2.812
X216.326 Y-67.071 Z-6.397 I-1.09 J2.812
X218.506 Y-72.696 Z-6.727 I1.09 J-2.812
X216.326 Y-67.071 Z-7.058 I-1.09 J2.812
X218.506 Y-72.696 Z-7.389 I1.09 J-2.812
X216.326 Y-67.071 Z-7.72 I-1.09 J2.812
X218.506 Y-72.696 Z-8.051 I1.09 J-2.812
X216.326 Y-67.071 Z-8.382 I-1.09 J2.812
X218.506 Y-72.696 Z-8.713 I1.09 J-2.812
X216.326 Y-67.071 Z-9.044 I-1.09 J2.812
X218.506 Y-72.696 Z-9.375 I1.09 J-2.812
X216.326 Y-67.071 Z-9.706 I-1.09 J2.812
X215.27 Y-67.764 Z-9.75 I1.09 J-2.812
G2 X214.385 Y-68.628 I-24.6 J24.293 F5000.
G3 X214.982 Y-70.131 I0.596 J-0.633
G1 X216.575
G3 X217.632 Y-69.074 I0. J1.057
G1 Y-67.472
G3 X216.129 Y-66.874 I-0.87 J0.
G2 X215.27 Y-67.764 I-40.176 J37.936
X212.064 Y-68.359 I-2.03 J2.005
G3 X208.816 Y-68.651 I-1.365 J-3.018
G2 X201.097 Y-72.428 I-16.405 J23.752
G3 X201.289 Y-73.666 I0.192 J-0.604
G1 X219.279
G3 X221.167 Y-71.778 I0. J1.888
G1 Y-53.779
G3 X219.939 Y-53.59 I-0.629 J0.
G2 X208.816 Y-68.651 I-27.527 J8.691
X206.255 Y-68.665 I-1.291 J1.869
G3 X203.7 Y-68.497 I-1.421 J-2.105
G2 X199.702 Y-70.12 I-12.443 J24.918
X191.956 Y-71.323 I-7.746 J24.343
G1 X-222.131 Y-71.053
G3 X-224.058 Y-72.98 I0. J-1.927
G1 Y-74.633
G3 X-222.132 Y-76.559 I1.926 J0.
G1 X222.133
G3 X224.06 Y-74.633 I0. J1.927
G1 X224.063 Y14.634
G3 X222.136 Y16.561 I-1.927 J0.
G1 X220.48
G3 X218.553 Y14.635 I0. J-1.926
G1 X218.824 Y-44.427
G2 X213.459 Y-60.396 I-26.451 J0.001
X203.7 Y-68.497 I-22.202 J16.816
X199.239 Y-67.812 I-1.746 J3.496
G3 X194.945 Y-66.427 I-3.561 J-3.687
G2 X191.956 Y-66.642 I-2.988 J20.649
G1 X-226.812 Y-66.372
G3 X-228.739 Y-68.299 I0. J-1.927
G1 Y-79.314
G3 X-226.813 Y-81.24 I1.926 J0.
G1 X226.814
G3 X228.741 Y-79.314 I0. J1.927
G1 X228.744 Y19.315
G3 X226.818 Y21.242 I-1.927 J0.
G1 X215.798 Y21.243
G3 X213.872 Y19.316 I0. J-1.926
G1 X214.143 Y-44.426
G2 X209.68 Y-57.633 I-21.773 J0.001
X198.282 Y-65.659 I-18.424 J14.057
X194.945 Y-66.427 I-6.326 J19.882
X191.022 Y-64.331 I-0.537 J3.713
G3 X187.26 Y-61.957 I-3.764 J-1.798
G1 X-231.493 Y-61.691
G3 X-233.42 Y-63.617 I0. J-1.927
G1 X-233.421 Y-83.995
G3 X-231.495 Y-85.922 I1.926 J0.
G1 X231.496
G3 X233.422 Y-83.995 I0. J1.927
G1 X233.426 Y23.996
G3 X231.499 Y25.923 I-1.927 J0.
G1 X211.117 Y25.924
G3 X209.191 Y23.998 I0. J-1.926
G1 X209.462 Y-44.426
G2 X205.901 Y-54.87 I-17.098 J0.001
X196.863 Y-61.199 I-14.648 J11.301
X191.956 Y-61.96 I-4.907 J15.421
G1 X187.26 Y-61.957
G2 X183.751 Y-59.615 I0.002 J3.803
G3 X180.241 Y-57.272 I-3.512 J-1.461
G1 X-236.174 Y-57.01
G3 X-238.101 Y-58.936 I0. J-1.927
G1 X-238.102 Y-88.676
G3 X-236.176 Y-90.603 I1.926 J0.
G1 X236.177
G3 X238.103 Y-88.676 I0. J1.927
G1 X238.107 Y28.677
G3 X236.181 Y30.604 I-1.927 J0.
G1 X206.436 Y30.606
G3 X204.51 Y28.68 I0. J-1.926
G1 X204.78 Y-44.426
G2 X202.122 Y-52.107 I-12.427 J0.
X195.443 Y-56.738 I-10.873 J8.549
X191.956 Y-57.279 I-3.487 J10.96
G1 X180.241 Y-57.272
G2 X176.732 Y-54.929 I0.002 J3.803
G3 X173.223 Y-52.586 I-3.512 J-1.461
G1 X-240.855 Y-52.328
G3 X-242.782 Y-54.255 I0. J-1.927
G1 X-242.784 Y-93.358
G3 X-240.857 Y-95.284 I1.926 J0.
G1 X240.858
G3 X242.784 Y-93.357 I0. J1.927
G1 X242.788 Y33.358
G3 X240.862 Y35.285 I-1.927 J0.
G1 X201.755 Y35.288
G3 X199.828 Y33.361 I0. J-1.926
G1 X200.099 Y-44.426
G2 X198.344 Y-49.344 I-7.766 J0.
X194.024 Y-52.277 I-7.102 J5.811
X191.956 Y-52.598 I-2.068 J6.499
G1 X173.223 Y-52.586
G2 X169.496 Y-50.101 I0.003 J4.04
G3 X165.769 Y-47.615 I-3.727 J-1.551
G1 X-247.289 Y-47.617
G2 X-247.493 Y-47.606 I0. J1.838
G1 X-247.495 Y-99.995
X247.495
X247.5 Y39.927
X247.496 Y39.995
X195.1 Y39.999
X195.114 Y39.744
G2 X195.117 Y39.641 I-1.835 J-0.103
G1 X195.116 Y-44.426
G2 X195.042 Y-44.942 I-1.838 J0.
G1 X194.842 Y-45.625
G2 X194.395 Y-46.392 I-1.764 J0.516
G1 X193.955 Y-46.843
G2 X193.196 Y-47.311 I-1.316 J1.283
G1 X192.513 Y-47.529
G2 X191.956 Y-47.615 I-0.557 J1.751
G1 X165.769
G3 X165.629 Y-47.631 Z-9.734 I0. J-0.635 F1000.
X165.502 Y-47.674 Z-9.687 I0.14 J-0.619
X165.398 Y-47.735 Z-9.611 I0.267 J-0.576
X165.322 Y-47.8 Z-9.511 I0.371 J-0.516
X165.271 Y-47.856 Z-9.391 I0.447 J-0.451
X165.243 Y-47.894 Z-9.256 I0.498 J-0.394
X165.235 Y-47.907 Z-9.115 I0.526 J-0.356
G0 Z5.
X232.668 Y-82.663
Z-5.703
G3 X232.653 Y-82.666 Z-5.841 I0.499 J-2.975 F1333.33
X232.609 Y-82.674 Z-5.973 I0.514 J-2.972
X232.538 Y-82.688 Z-6.091 I0.559 J-2.964
X232.444 Y-82.71 Z-6.191 I0.63 J-2.95
X232.332 Y-82.74 Z-6.268 I0.724 J-2.928
X232.208 Y-82.778 Z-6.317 I0.836 J-2.898
X232.078 Y-82.825 Z-6.338 I0.96 J-2.859
X234.257 Y-88.45 Z-6.668 I1.089 J-2.813
X232.078 Y-82.825 Z-6.999 I-1.089 J2.813
X234.257 Y-88.45 Z-7.33 I1.089 J-2.813
X232.078 Y-82.825 Z-7.661 I-1.089 J2.813
X234.257 Y-88.45 Z-7.992 I1.089 J-2.813
X232.078 Y-82.825 Z-8.323 I-1.089 J2.813
X234.257 Y-88.45 Z-8.654 I1.089 J-2.813
X232.078 Y-82.825 Z-8.985 I-1.089 J2.813
X234.257 Y-88.45 Z-9.316 I1.089 J-2.813
X232.078 Y-82.825 Z-9.647 I-1.089 J2.813
X234.257 Y-88.45 Z-9.977 I1.089 J-2.813
X232.078 Y-82.825 Z-10.308 I-1.089 J2.813
X234.257 Y-88.45 Z-10.639 I1.089 J-2.813
X232.078 Y-82.825 Z-10.97 I-1.089 J2.813
X234.257 Y-88.45 Z-11.301 I1.089 J-2.813
X232.078 Y-82.825 Z-11.632 I-1.089 J2.813
X234.257 Y-88.45 Z-11.963 I1.089 J-2.813
X232.078 Y-82.825 Z-12.294 I-1.089 J2.813
X234.257 Y-88.45 Z-12.625 I1.089 J-2.813
X232.078 Y-82.825 Z-12.956 I-1.089 J2.813
X231.022 Y-83.518 Z-13. I1.089 J-2.813
G2 X230.34 Y-84.182 I-17.903 J17.69 F5000.
G3 X230.929 Y-85.67 I0.589 J-0.627
G1 X232.113
G3 X233.17 Y-84.613 I0. J1.057
G1 Y-83.422
G3 X231.682 Y-82.833 I-0.861 J0.
G2 X231.022 Y-83.518 I-27.586 J25.92
X228.867 Y-83.909 I-1.356 J1.34
G3 X226.682 Y-84.05 I-0.963 J-2.089
G2 X224.776 Y-85.066 I-8.138 J12.968
X221.755 Y-86.035 I-5.965 J13.405
X218.598 Y-86.355 I-3.157 J15.415
G1 X-234.737 Y-86.083
G3 X-235.794 Y-87.14 I0. J-1.057
G1 Y-87.237
G3 X-234.737 Y-88.294 I1.057 J0.
G1 X233.868
G3 X235.794 Y-86.367 I0. J1.927
G1 X235.798 Y27.239
G3 X234.741 Y28.296 I-1.057 J0.
G1 X234.64
G3 X233.583 Y27.239 I0. J-1.057
G1 X233.855 Y-71.082
G2 X226.682 Y-84.05 I-15.31 J0.
X224.478 Y-83.934 I-1.02 J1.625
G3 X222.31 Y-83.519 I-1.487 J-1.894
G2 X221.275 Y-83.776 I-3.5 J11.86
X218.598 Y-84.046 I-2.677 J13.16
G1 X-236.176 Y-83.774
G3 X-238.103 Y-85.701 I0. J-1.927
G1 Y-88.676
G3 X-236.176 Y-90.603 I1.926 J0.
G1 X236.177
G3 X238.103 Y-88.676 I0. J1.927
G1 X238.107 Y28.678
G3 X236.181 Y30.605 I-1.927 J0.
G1 X233.201
G3 X231.274 Y28.679 I0. J-1.926
G1 X231.546 Y-71.082
G2 X223.837 Y-82.956 I-13.001 J0.
X222.31 Y-83.519 I-5.028 J11.298
X218.002 Y-81.74 I-1.051 J3.56
G3 X213.995 Y-79.362 I-4.01 J-2.193
G1 X-240.857 Y-79.093
G3 X-242.784 Y-81.02 I0. J-1.927
G1 Y-93.358
G3 X-240.858 Y-95.284 I1.926 J0.
G1 X240.858
G3 X242.784 Y-93.358 I0. J1.927
G1 X242.788 Y33.358
G3 X240.862 Y35.285 I-1.927 J0.
G1 X228.519 Y35.287
G3 X226.593 Y33.361 I0. J-1.926
G1 X226.865 Y-71.081
G2 X221.934 Y-78.679 I-8.32 J0.
X220.302 Y-79.197 I-3.129 J7.032
X218.598 Y-79.365 I-1.704 J8.595
G1 X213.995 Y-79.362
G2 X210.261 Y-76.872 I0.002 J4.048
G3 X206.528 Y-74.382 I-3.734 J-1.554
G1 X-247.289
G2 X-247.495 Y-74.37 I0. J1.837
G1 Y-99.995
X247.495
X247.5 Y39.927
X247.496 Y39.995
X221.865 Y39.999
X221.879 Y39.744
G2 X221.882 Y39.641 I-1.835 J-0.103
G1 Y-71.081
G2 X221.862 Y-71.353 I-1.837 J0.
G1 X221.781 Y-71.891
G2 X221.659 Y-72.328 I-1.817 J0.272
G1 X221.598 Y-72.474
G2 X221.211 Y-73.056 I-1.695 J0.709
G1 X220.588 Y-73.686
G2 X220.028 Y-74.074 I-1.308 J1.291
G1 X219.908 Y-74.127
G2 X219.47 Y-74.26 I-0.747 J1.679
G1 X218.906 Y-74.356
G2 X218.598 Y-74.382 I-0.309 J1.811
G1 X206.528
G3 X206.387 Y-74.397 Z-12.984 I0. J-0.635 F1000.
X206.261 Y-74.441 Z-12.937 I0.14 J-0.619
X206.157 Y-74.501 Z-12.861 I0.267 J-0.576
X206.08 Y-74.566 Z-12.761 I0.371 J-0.516
X206.03 Y-74.622 Z-12.641 I0.447 J-0.451
X206.002 Y-74.66 Z-12.506 I0.498 J-0.394
X205.993 Y-74.674 Z-12.365 I0.526 J-0.356
G0 Z5.
X242.345 Y-89.379
Z-8.953
G3 X242.358 Y-89.388 Z-9.091 I1.841 J2.389 F1333.33
X242.394 Y-89.415 Z-9.223 I1.829 J2.398
X242.452 Y-89.458 Z-9.341 I1.793 J2.425
X242.532 Y-89.512 Z-9.441 I1.735 J2.468
X242.63 Y-89.574 Z-9.518 I1.655 J2.522
X242.743 Y-89.638 Z-9.567 I1.556 J2.584
X242.865 Y-89.701 Z-9.587 I1.444 J2.648
X245.508 Y-84.279 Z-9.918 I1.321 J2.711
X242.865 Y-89.701 Z-10.249 I-1.321 J-2.711
X245.508 Y-84.279 Z-10.58 I1.321 J2.711
X242.865 Y-89.701 Z-10.911 I-1.321 J-2.711
X245.508 Y-84.279 Z-11.242 I1.321 J2.711
X242.865 Y-89.701 Z-11.573 I-1.321 J-2.711
X245.508 Y-84.279 Z-11.904 I1.321 J2.711
X242.865 Y-89.701 Z-12.235 I-1.321 J-2.711
X245.508 Y-84.279 Z-12.566 I1.321 J2.711
X242.865 Y-89.701 Z-12.897 I-1.321 J-2.711
X245.508 Y-84.279 Z-13.227 I1.321 J2.711
X242.865 Y-89.701 Z-13.558 I-1.321 J-2.711
X245.508 Y-84.279 Z-13.889 I1.321 J2.711
X242.865 Y-89.701 Z-14.22 I-1.321 J-2.711
X245.508 Y-84.279 Z-14.551 I1.321 J2.711
X241.198 Y-86.583 Z-14.75 I-1.321 J-2.711
G2 X240.01 Y-89.899 I-8.427 J1.148 F5000.
X236.555 Y-92.997 I-6.973 J4.301
X234.793 Y-93.588 I-3.321 J6.983
X232.943 Y-93.776 I-1.849 J8.989
G1 X-242.001 Y-93.505
G3 X-242.786 Y-94.29 I0. J-0.785
G1 Y-94.499
G3 X-242.001 Y-95.284 I0.785 J0.
G1 X240.858
G3 X242.785 Y-93.358 I0. J1.927
G1 X242.789 Y34.499
G3 X242.003 Y35.284 I-0.785 J0.
G1 X241.79
G3 X241.005 Y34.499 I0. J-0.785
G1 X241.276 Y-85.434
G2 X241.198 Y-86.583 I-8.505 J0.
X236.143 Y-89.74 I-3.84 J0.523
G3 X230.258 Y-88.793 I-5.885 J-17.825
G1 X-247.289
G2 X-247.498 Y-88.781 I0. J1.838
G1 X-247.496 Y-99.995
X247.495
X247.5 Y39.927
X247.496 Y39.995
X236.277 Y39.996
X236.291 Y39.744
G2 X236.293 Y39.641 I-1.835 J-0.103
G1 Y-85.434
G2 X236.268 Y-85.737 I-1.838 J0.
G1 X236.154 Y-86.421
G2 X236.009 Y-86.89 I-1.812 J0.303
G1 X235.976 Y-86.96
G2 X235.617 Y-87.478 I-1.667 J0.773
G1 X235.011 Y-88.092
G2 X234.493 Y-88.461 I-1.308 J1.291
G1 X234.415 Y-88.497
G2 X233.939 Y-88.649 I-0.789 J1.659
G1 X233.256 Y-88.767
G2 X232.943 Y-88.793 I-0.313 J1.811
G1 X230.258
G3 X230.118 Y-88.809 Z-14.734 I0. J-0.635 F1000.
X229.991 Y-88.852 Z-14.687 I0.14 J-0.619
X229.887 Y-88.913 Z-14.611 I0.267 J-0.576
X229.81 Y-88.978 Z-14.511 I0.371 J-0.516
X229.76 Y-89.034 Z-14.391 I0.447 J-0.451
X229.732 Y-89.072 Z-14.256 I0.498 J-0.394
X229.723 Y-89.085 Z-14.115 I0.526 J-0.356
G0 Z10.
(PARALLEL1)
M9
G0 Z15.
X248.157 Y-99.99
Z-14.762
G1 Z-16.092 F1000.
G18 G3 X247.49 Z-16.726 I-0.635 K0.
G1 X246.086 Z-16.655 F5000.
X244.908 Z-16.619
X242.877 Z-16.613
X-247.5
G3 X-247.64 Z-16.581 I0. K0.318
G2 X-247.779 Z-16.548 I-0.14 K-0.285
G1 X-247.839 Y-99.988
X-247.899 Y-99.983
X-247.958 Y-99.973 Z-16.546
X-248.016 Y-99.96 Z-16.545
X-248.074 Y-99.944 Z-16.543
X-248.13 Y-99.924 Z-16.54
X-248.185 Y-99.9 Z-16.538
X-248.238 Y-99.873 Z-16.534
X-248.29 Y-99.843 Z-16.531
X-248.339 Y-99.809 Z-16.527
X-248.387 Y-99.773 Z-16.522
X-248.431 Y-99.734 Z-16.517
X-248.474 Y-99.692 Z-16.512
X-248.513 Y-99.647 Z-16.507
X-248.55 Y-99.6 Z-16.501
X-248.584 Y-99.551 Z-16.495
X-248.614 Y-99.5 Z-16.489
X-248.641 Y-99.447 Z-16.483
X-248.665 Y-99.393 Z-16.476
X-248.685 Y-99.337 Z-16.469
X-248.702 Y-99.28 Z-16.462
X-248.715 Y-99.222 Z-16.455
X-248.724 Y-99.163 Z-16.448
X-248.73 Y-99.104 Z-16.441
X-248.732 Y-99.044 Z-16.434
Y-98.936 Z-16.42
X-248.73 Y-98.876 Z-16.413
X-248.724 Y-98.817 Z-16.406
X-248.715 Y-98.759 Z-16.399
X-248.702 Y-98.701 Z-16.392
X-248.685 Y-98.644 Z-16.385
X-248.665 Y-98.588 Z-16.378
X-248.641 Y-98.533 Z-16.372
X-248.614 Y-98.48 Z-16.365
X-248.584 Y-98.429 Z-16.359
X-248.55 Y-98.38 Z-16.353
X-248.513 Y-98.333 Z-16.347
X-248.474 Y-98.289 Z-16.342
X-248.431 Y-98.247 Z-16.337
X-248.387 Y-98.207 Z-16.332
X-248.339 Y-98.171 Z-16.328
X-248.29 Y-98.137 Z-16.324
X-248.238 Y-98.107 Z-16.32
X-248.185 Y-98.08 Z-16.317
X-248.13 Y-98.057 Z-16.314
X-248.074 Y-98.037 Z-16.311
X-248.016 Y-98.02 Z-16.309
X-247.958 Y-98.007 Z-16.308
X-247.899 Y-97.998 Z-16.307
X-247.839 Y-97.992 Z-16.306
X-247.779 Y-97.99
G3 X-247.64 Z-16.338 I0. K-0.317
G2 X-247.5 Z-16.37 I0.14 K0.285
G1 X240.877
X242.908 Z-16.376
X244.087 Z-16.412
X245.49 Z-16.483
G2 X245.646 Z-16.451 I0.016 K0.317
G3 X245.786 Z-16.419 I0.14 K-0.285
G1 X245.846 Y-97.988
X245.905 Y-97.983 Z-16.418
X245.964 Y-97.974 Z-16.417
X246.023 Y-97.961 Z-16.415
X246.08 Y-97.944 Z-16.413
X246.137 Y-97.924 Z-16.411
X246.191 Y-97.9 Z-16.408
X246.245 Y-97.873 Z-16.405
X246.296 Y-97.843 Z-16.401
X246.346 Y-97.81 Z-16.397
X246.393 Y-97.773 Z-16.393
X246.438 Y-97.734 Z-16.388
X246.48 Y-97.692 Z-16.383
X246.52 Y-97.647 Z-16.377
X246.556 Y-97.601 Z-16.372
X246.59 Y-97.551 Z-16.366
X246.621 Y-97.5 Z-16.359
X246.648 Y-97.447 Z-16.353
X246.672 Y-97.393 Z-16.346
X246.692 Y-97.337 Z-16.34
X246.708 Y-97.28 Z-16.333
X246.722 Y-97.222 Z-16.326
X246.731 Y-97.163 Z-16.319
X246.737 Y-97.104 Z-16.311
X246.738 Y-97.045 Z-16.304
Y-96.936 Z-16.291
X246.737 Y-96.877 Z-16.284
X246.731 Y-96.818 Z-16.277
X246.722 Y-96.759 Z-16.269
X246.708 Y-96.701 Z-16.262
X246.692 Y-96.644 Z-16.255
X246.672 Y-96.588 Z-16.249
X246.648 Y-96.534 Z-16.242
X246.621 Y-96.481 Z-16.236
X246.59 Y-96.429 Z-16.229
X246.556 Y-96.38 Z-16.223
X246.52 Y-96.333 Z-16.218
X246.48 Y-96.289 Z-16.212
X246.438 Y-96.247 Z-16.207
X246.393 Y-96.208 Z-16.202
X246.346 Y-96.171 Z-16.198
X246.296 Y-96.138 Z-16.194
X246.245 Y-96.108 Z-16.19
X246.191 Y-96.081 Z-16.187
X246.137 Y-96.057 Z-16.184
X246.08 Y-96.037 Z-16.182
X246.023 Y-96.02 Z-16.18
X245.964 Y-96.007 Z-16.178
X245.905 Y-95.998 Z-16.177
X245.846 Y-95.992 Z-16.176
X245.786 Y-95.991
X243.786
G2 X243.646 Z-16.209 I0. K-0.317
G3 X243.491 Z-16.241 I-0.14 K0.285
G1 X242.087 Z-16.169
X240.909 Z-16.133
X238.877 Z-16.128
X-247.5
G3 X-247.64 Z-16.095 I0. K0.318
G2 X-247.779 Z-16.063 I-0.14 K-0.285
G1 X-247.839 Y-95.989
X-247.899 Y-95.983 Z-16.062
X-247.958 Y-95.974 Z-16.061
X-248.016 Y-95.961 Z-16.059
X-248.074 Y-95.944 Z-16.057
X-248.13 Y-95.924 Z-16.055
X-248.185 Y-95.901 Z-16.052
X-248.238 Y-95.874 Z-16.049
X-248.29 Y-95.843 Z-16.045
X-248.339 Y-95.81 Z-16.041
X-248.387 Y-95.774 Z-16.036
X-248.431 Y-95.734 Z-16.032
X-248.474 Y-95.692 Z-16.027
X-248.513 Y-95.648 Z-16.021
X-248.55 Y-95.601 Z-16.015
X-248.584 Y-95.552 Z-16.01
X-248.614 Y-95.501 Z-16.003
X-248.641 Y-95.448 Z-15.997
X-248.665 Y-95.393 Z-15.99
X-248.685 Y-95.337 Z-15.983
X-248.702 Y-95.28 Z-15.977
X-248.715 Y-95.222 Z-15.97
X-248.724 Y-95.164 Z-15.962
X-248.73 Y-95.104 Z-15.955
X-248.732 Y-95.045 Z-15.948
Y-94.936 Z-15.935
X-248.73 Y-94.877 Z-15.928
X-248.724 Y-94.818 Z-15.92
X-248.715 Y-94.759 Z-15.913
X-248.702 Y-94.701 Z-15.906
X-248.685 Y-94.644 Z-15.899
X-248.665 Y-94.588 Z-15.893
X-248.641 Y-94.534 Z-15.886
X-248.614 Y-94.481 Z-15.879
X-248.584 Y-94.43 Z-15.873
X-248.55 Y-94.381 Z-15.867
X-248.513 Y-94.334 Z-15.862
X-248.474 Y-94.289 Z-15.856
X-248.431 Y-94.247 Z-15.851
X-248.387 Y-94.208 Z-15.846
X-248.339 Y-94.171 Z-15.842
X-248.29 Y-94.138 Z-15.838
X-248.238 Y-94.108 Z-15.834
X-248.185 Y-94.081 Z-15.831
X-248.13 Y-94.057 Z-15.828
X-248.074 Y-94.037 Z-15.826
X-248.016 Y-94.021 Z-15.824
X-247.958 Y-94.008 Z-15.822
X-247.899 Y-93.998 Z-15.821
X-247.839 Y-93.993 Z-15.82
X-247.779 Y-93.991
G3 X-247.64 Z-15.852 I0. K-0.318
G2 X-247.5 Z-15.885 I0.14 K0.285
G1 X236.877
X238.909 Z-15.891
X240.087 Z-15.926
X241.491 Z-15.998
G2 X241.647 Z-15.966 I0.016 K0.317
G3 X241.786 Z-15.933 I0.14 K-0.285
G1 X241.846 Y-93.989
X241.906 Y-93.983 Z-15.932
X241.965 Y-93.974 Z-15.931
X242.023 Y-93.961 Z-15.93
X242.081 Y-93.945 Z-15.928
X242.137 Y-93.924 Z-15.925
X242.192 Y-93.901 Z-15.922
X242.245 Y-93.874 Z-15.919
X242.297 Y-93.844 Z-15.915
X242.346 Y-93.81 Z-15.911
X242.394 Y-93.774 Z-15.907
X242.439 Y-93.735 Z-15.902
X242.481 Y-93.693 Z-15.897
X242.52 Y-93.648 Z-15.892
X242.557 Y-93.601 Z-15.886
X242.591 Y-93.552 Z-15.88
X242.621 Y-93.501 Z-15.874
X242.648 Y-93.448 Z-15.867
X242.672 Y-93.393 Z-15.861
X242.692 Y-93.337 Z-15.854
X242.709 Y-93.28 Z-15.847
X242.722 Y-93.222 Z-15.84
X242.731 Y-93.164 Z-15.833
X242.737 Y-93.105 Z-15.826
X242.739 Y-93.045 Z-15.819
Y-92.937 Z-15.805
X242.737 Y-92.877 Z-15.798
X242.731 Y-92.818 Z-15.791
X242.722 Y-92.76 Z-15.784
X242.709 Y-92.702 Z-15.777
X242.692 Y-92.645 Z-15.77
X242.672 Y-92.589 Z-15.763
X242.648 Y-92.534 Z-15.756
X242.621 Y-92.481 Z-15.75
X242.591 Y-92.43 Z-15.744
X242.557 Y-92.381 Z-15.738
X242.52 Y-92.334 Z-15.732
X242.481 Y-92.289 Z-15.727
X242.439 Y-92.247 Z-15.722
X242.394 Y-92.208 Z-15.717
X242.346 Y-92.172 Z-15.712
X242.297 Y-92.138 Z-15.708
X242.245 Y-92.108 Z-15.705
X242.192 Y-92.081 Z-15.701
X242.137 Y-92.058 Z-15.699
X242.081 Y-92.037 Z-15.696
X242.023 Y-92.021 Z-15.694
X241.965 Y-92.008 Z-15.693
X241.906 Y-91.999 Z-15.691
X241.846 Y-91.993
X241.786 Y-91.991 Z-15.69
X239.787
G2 X239.647 Z-15.723 I0. K-0.318
G3 X239.491 Z-15.755 I-0.14 K0.285
G1 X238.088 Z-15.683
X236.909 Z-15.648
X234.878 Z-15.642
X-247.5
G3 X-247.64 Z-15.61 I0. K0.318
G2 X-247.779 Z-15.577 I-0.14 K-0.285
G1 X-247.839 Y-91.989
X-247.899 Y-91.984 Z-15.576
X-247.958 Y-91.974 Z-15.575
X-248.016 Y-91.961 Z-15.574
X-248.074 Y-91.945 Z-15.572
X-248.13 Y-91.925 Z-15.569
X-248.185 Y-91.901 Z-15.566
X-248.238 Y-91.874 Z-15.563
X-248.29 Y-91.844 Z-15.559
X-248.339 Y-91.811 Z-15.555
X-248.387 Y-91.774 Z-15.551
X-248.431 Y-91.735 Z-15.546
X-248.474 Y-91.693 Z-15.541
X-248.513 Y-91.648 Z-15.536
X-248.55 Y-91.601 Z-15.53
X-248.584 Y-91.552 Z-15.524
X-248.614 Y-91.501 Z-15.518
X-248.641 Y-91.448 Z-15.511
X-248.665 Y-91.394 Z-15.505
X-248.685 Y-91.338 Z-15.498
X-248.702 Y-91.281 Z-15.491
X-248.715 Y-91.223 Z-15.484
X-248.724 Y-91.164 Z-15.477
X-248.73 Y-91.105 Z-15.47
X-248.732 Y-91.046 Z-15.462
Y-90.937 Z-15.449
X-248.73 Y-90.878 Z-15.442
X-248.724 Y-90.818 Z-15.435
X-248.715 Y-90.76 Z-15.428
X-248.702 Y-90.702 Z-15.421
X-248.685 Y-90.645 Z-15.414
X-248.665 Y-90.589 Z-15.407
X-248.641 Y-90.534 Z-15.4
X-248.614 Y-90.481 Z-15.394
X-248.584 Y-90.43 Z-15.388
X-248.55 Y-90.381 Z-15.382
X-248.513 Y-90.334 Z-15.376
X-248.474 Y-90.29 Z-15.371
X-248.431 Y-90.248 Z-15.365
X-248.387 Y-90.208 Z-15.361
X-248.339 Y-90.172 Z-15.356
X-248.29 Y-90.139 Z-15.352
X-248.238 Y-90.108 Z-15.349
X-248.185 Y-90.081 Z-15.345
X-248.13 Y-90.058 Z-15.342
X-248.074 Y-90.038 Z-15.34
X-248.016 Y-90.021 Z-15.338
X-247.958 Y-90.008 Z-15.336
X-247.899 Y-89.999 Z-15.335
X-247.839 Y-89.993
X-247.779 Y-89.991 Z-15.334
G3 X-247.64 Z-15.367 I0. K-0.318
G2 X-247.5 Z-15.399 I0.14 K0.285
G1 X232.878
X234.91 Z-15.405
X236.088 Z-15.441
X237.491 Z-15.512
G2 X237.647 Z-15.48 I0.016 K0.317
G3 X237.787 Z-15.448 I0.14 K-0.285
G1 X237.847 Y-89.99 Z-15.447
X237.906 Y-89.984
X237.966 Y-89.975 Z-15.446
X238.024 Y-89.962 Z-15.444
X238.081 Y-89.945 Z-15.442
X238.138 Y-89.925 Z-15.44
X238.193 Y-89.901 Z-15.437
X238.246 Y-89.874 Z-15.433
X238.297 Y-89.844 Z-15.43
X238.347 Y-89.811 Z-15.426
X238.394 Y-89.774 Z-15.421
X238.439 Y-89.735 Z-15.417
X238.481 Y-89.693 Z-15.411
X238.521 Y-89.649 Z-15.406
X238.558 Y-89.602 Z-15.4
X238.591 Y-89.553 Z-15.394
X238.622 Y-89.501 Z-15.388
X238.649 Y-89.448 Z-15.382
X238.673 Y-89.394 Z-15.375
X238.693 Y-89.338 Z-15.368
X238.71 Y-89.281 Z-15.361
X238.723 Y-89.223 Z-15.354
X238.732 Y-89.164 Z-15.347
X238.738 Y-89.105 Z-15.34
X238.74 Y-89.046 Z-15.333
Y-88.937 Z-15.32
X238.738 Y-88.878 Z-15.312
X238.732 Y-88.819 Z-15.305
X238.723 Y-88.76 Z-15.298
X238.71 Y-88.702 Z-15.291
X238.693 Y-88.645 Z-15.284
X238.673 Y-88.589 Z-15.277
X238.649 Y-88.535 Z-15.271
X238.622 Y-88.482 Z-15.264
X238.591 Y-88.431 Z-15.258
X238.558 Y-88.381 Z-15.252
X238.521 Y-88.335 Z-15.246
X238.481 Y-88.29 Z-15.241
X238.439 Y-88.248 Z-15.236
X238.394 Y-88.209 Z-15.231
X238.347 Y-88.172 Z-15.227
X238.297 Y-88.139 Z-15.223
X238.246 Y-88.109 Z-15.219
X238.193 Y-88.082 Z-15.216
X238.138 Y-88.058 Z-15.213
X238.081 Y-88.038 Z-15.21
X238.024 Y-88.021 Z-15.208
X237.966 Y-88.008 Z-15.207
X237.906 Y-87.999 Z-15.206
X237.847 Y-87.994 Z-15.205
X237.787 Y-87.992
X235.787
G2 X235.648 Z-15.237 I0. K-0.318
G3 X235.492 Z-15.269 I-0.14 K0.285
G1 X234.088 Z-15.198
X232.91 Z-15.162
X230.878 Z-15.156
X-247.5
G3 X-247.64 Z-15.124 I0. K0.317
G2 X-247.779 Z-15.092 I-0.14 K-0.285
G1 X-247.839 Y-87.99 Z-15.091
X-247.899 Y-87.984
X-247.958 Y-87.975 Z-15.089
X-248.016 Y-87.962 Z-15.088
X-248.074 Y-87.945 Z-15.086
X-248.13 Y-87.925 Z-15.083
X-248.185 Y-87.902 Z-15.081
X-248.238 Y-87.875 Z-15.077
X-248.29 Y-87.845 Z-15.074
X-248.339 Y-87.811 Z-15.07
X-248.387 Y-87.775 Z-15.065
X-248.431 Y-87.735 Z-15.06
X-248.474 Y-87.693 Z-15.055
X-248.513 Y-87.649 Z-15.05
X-248.55 Y-87.602 Z-15.044
X-248.584 Y-87.553 Z-15.038
X-248.614 Y-87.502 Z-15.032
X-248.641 Y-87.449 Z-15.026
X-248.665 Y-87.394 Z-15.019
X-248.685 Y-87.338 Z-15.012
X-248.702 Y-87.281 Z-15.005
X-248.715 Y-87.223 Z-14.998
X-248.724 Y-87.165 Z-14.991
X-248.73 Y-87.106 Z-14.984
X-248.732 Y-87.046 Z-14.977
Y-86.938 Z-14.964
X-248.73 Y-86.878 Z-14.956
X-248.724 Y-86.819 Z-14.949
X-248.715 Y-86.76 Z-14.942
X-248.702 Y-86.702 Z-14.935
X-248.685 Y-86.645 Z-14.928
X-248.665 Y-86.589 Z-14.921
X-248.641 Y-86.535 Z-14.915
X-248.614 Y-86.482 Z-14.908
X-248.584 Y-86.431 Z-14.902
X-248.55 Y-86.382 Z-14.896
X-248.513 Y-86.335 Z-14.89
X-248.474 Y-86.29 Z-14.885
X-248.431 Y-86.248 Z-14.88
X-248.387 Y-86.209 Z-14.875
X-248.339 Y-86.173 Z-14.871
X-248.29 Y-86.139 Z-14.867
X-248.238 Y-86.109 Z-14.863
X-248.185 Y-86.082 Z-14.86
X-248.13 Y-86.058 Z-14.857
X-248.074 Y-86.038 Z-14.854
X-248.016 Y-86.022 Z-14.852
X-247.958 Y-86.009 Z-14.851
X-247.899 Y-85.999 Z-14.85
X-247.839 Y-85.994 Z-14.849
X-247.779 Y-85.992
G3 X-247.64 Z-14.881 I0. K-0.318
G2 X-247.5 Z-14.913 I0.14 K0.285
G1 X228.879
X230.91 Z-14.919
X232.088 Z-14.955
X233.492 Z-15.026
G2 X233.648 Z-14.994 I0.016 K0.317
G3 X233.788 Z-14.962 I0.14 K-0.285
G1 X233.847 Y-85.99
X233.907 Y-85.985 Z-14.961
X233.966 Y-85.975 Z-14.96
X234.024 Y-85.962 Z-14.958
X234.082 Y-85.946 Z-14.956
X234.138 Y-85.926 Z-14.954
X234.193 Y-85.902 Z-14.951
X234.246 Y-85.875 Z-14.948
X234.298 Y-85.845 Z-14.944
X234.347 Y-85.811 Z-14.94
X234.395 Y-85.775 Z-14.936
X234.44 Y-85.736 Z-14.931
X234.482 Y-85.694 Z-14.926
X234.522 Y-85.649 Z-14.92
X234.558 Y-85.602 Z-14.915
X234.592 Y-85.553 Z-14.909
X234.622 Y-85.502 Z-14.903
X234.649 Y-85.449 Z-14.896
X234.673 Y-85.395 Z-14.889
X234.693 Y-85.339 Z-14.883
X234.71 Y-85.282 Z-14.876
X234.723 Y-85.224 Z-14.869
X234.733 Y-85.165 Z-14.862
X234.738 Y-85.106 Z-14.854
X234.74 Y-85.046 Z-14.847
Y-84.938 Z-14.834
X234.738 Y-84.878 Z-14.827
X234.733 Y-84.819 Z-14.82
X234.723 Y-84.761 Z-14.813
X234.71 Y-84.703 Z-14.805
X234.693 Y-84.646 Z-14.799
X234.673 Y-84.59 Z-14.792
X234.649 Y-84.535 Z-14.785
X234.622 Y-84.482 Z-14.779
X234.592 Y-84.431 Z-14.773
X234.558 Y-84.382 Z-14.767
X234.522 Y-84.335 Z-14.761
X234.482 Y-84.291 Z-14.755
X234.44 Y-84.249 Z-14.75
X234.395 Y-84.209 Z-14.746
X234.347 Y-84.173 Z-14.741
X234.298 Y-84.139 Z-14.737
X234.246 Y-84.109 Z-14.733
X234.193 Y-84.082 Z-14.73
X234.138 Y-84.059 Z-14.727
X234.082 Y-84.039 Z-14.725
X234.024 Y-84.022 Z-14.723
X233.966 Y-84.009 Z-14.721
X233.907 Y-84. Z-14.72
X233.847 Y-83.994 Z-14.719
X233.788 Y-83.992
X231.788
G2 X231.648 Z-14.752 I0. K-0.318
G3 X231.492 Z-14.784 I-0.14 K0.285
G1 X230.089 Z-14.712
X228.91 Z-14.676
X226.879 Z-14.671
X-247.5
G3 X-247.64 Z-14.638 I0. K0.318
G2 X-247.779 Z-14.606 I-0.14 K-0.285
G1 X-247.839 Y-83.99
X-247.899 Y-83.985 Z-14.605
X-247.958 Y-83.976 Z-14.604
X-248.016 Y-83.963 Z-14.602
X-248.074 Y-83.946 Z-14.6
X-248.13 Y-83.926 Z-14.598
X-248.185 Y-83.902 Z-14.595
X-248.238 Y-83.875 Z-14.592
X-248.29 Y-83.845 Z-14.588
X-248.339 Y-83.812 Z-14.584
X-248.387 Y-83.775 Z-14.58
X-248.431 Y-83.736 Z-14.575
X-248.474 Y-83.694 Z-14.57
X-248.513 Y-83.649 Z-14.564
X-248.55 Y-83.603 Z-14.559
X-248.584 Y-83.553 Z-14.553
X-248.614 Y-83.502 Z-14.546
X-248.641 Y-83.449 Z-14.54
X-248.665 Y-83.395 Z-14.533
X-248.685 Y-83.339 Z-14.527
X-248.702 Y-83.282 Z-14.52
X-248.715 Y-83.224 Z-14.513
X-248.724 Y-83.165 Z-14.505
X-248.73 Y-83.106 Z-14.498
X-248.732 Y-83.047 Z-14.491
Y-82.938 Z-14.478
X-248.73 Y-82.879 Z-14.471
X-248.724 Y-82.82 Z-14.463
X-248.715 Y-82.761 Z-14.456
X-248.702 Y-82.703 Z-14.449
X-248.685 Y-82.646 Z-14.442
X-248.665 Y-82.59 Z-14.436
X-248.641 Y-82.536 Z-14.429
X-248.614 Y-82.483 Z-14.423
X-248.584 Y-82.431 Z-14.416
X-248.55 Y-82.382 Z-14.41
X-248.513 Y-82.335 Z-14.405
X-248.474 Y-82.291 Z-14.399
X-248.431 Y-82.249 Z-14.394
X-248.387 Y-82.21 Z-14.389
X-248.339 Y-82.173 Z-14.385
X-248.29 Y-82.14 Z-14.381
X-248.238 Y-82.11 Z-14.377
X-248.185 Y-82.083 Z-14.374
X-248.13 Y-82.059 Z-14.371
X-248.074 Y-82.039 Z-14.369
X-248.016 Y-82.022 Z-14.367
X-247.958 Y-82.009 Z-14.365
X-247.899 Y-82. Z-14.364
X-247.839 Y-81.994 Z-14.363
X-247.779 Y-81.993
G3 X-247.64 Z-14.395 I0. K-0.318
G2 X-247.5 Z-14.428 I0.14 K0.285
G1 X224.879
X226.911 Z-14.434
X228.089 Z-14.469
X229.493 Z-14.541
G2 X229.648 Z-14.509 I0.016 K0.317
G3 X229.788 Z-14.476 I0.14 K-0.285
G1 X229.848 Y-81.991
X229.908 Y-81.985 Z-14.475
X229.967 Y-81.976 Z-14.474
X230.025 Y-81.963 Z-14.473
X230.083 Y-81.946 Z-14.471
X230.139 Y-81.926 Z-14.468
X230.194 Y-81.903 Z-14.465
X230.247 Y-81.876 Z-14.462
X230.299 Y-81.845 Z-14.459
X230.348 Y-81.812 Z-14.454
X230.395 Y-81.776 Z-14.45
X230.44 Y-81.736 Z-14.445
X230.483 Y-81.694 Z-14.44
X230.522 Y-81.65 Z-14.435
X230.559 Y-81.603 Z-14.429
X230.592 Y-81.554 Z-14.423
X230.623 Y-81.503 Z-14.417
X230.65 Y-81.45 Z-14.41
X230.674 Y-81.395 Z-14.404
X230.694 Y-81.339 Z-14.397
X230.711 Y-81.282 Z-14.39
X230.724 Y-81.224 Z-14.383
X230.733 Y-81.166 Z-14.376
X230.739 Y-81.106 Z-14.369
X230.741 Y-81.047 Z-14.362
Y-80.938 Z-14.348
X230.739 Y-80.879 Z-14.341
X230.733 Y-80.82 Z-14.334
X230.724 Y-80.761 Z-14.327
X230.711 Y-80.703 Z-14.32
X230.694 Y-80.646 Z-14.313
X230.674 Y-80.59 Z-14.306
X230.65 Y-80.536 Z-14.299
X230.623 Y-80.483 Z-14.293
X230.592 Y-80.432 Z-14.287
X230.559 Y-80.383 Z-14.281
X230.522 Y-80.336 Z-14.275
X230.483 Y-80.291 Z-14.27
X230.44 Y-80.249 Z-14.265
X230.395 Y-80.21 Z-14.26
X230.348 Y-80.173 Z-14.255
X230.299 Y-80.14 Z-14.251
X230.247 Y-80.11 Z-14.248
X230.194 Y-80.083 Z-14.244
X230.139 Y-80.059 Z-14.242
X230.083 Y-80.039 Z-14.239
X230.025 Y-80.023 Z-14.237
X229.967 Y-80.01 Z-14.236
X229.908 Y-80. Z-14.234
X229.848 Y-79.995
X229.788 Y-79.993
X227.788
G2 X227.649 Z-14.266 I0. K-0.318
G3 X227.493 Z-14.298 I-0.14 K0.285
G1 X226.089 Z-14.226
X224.911 Z-14.191
X222.879 Z-14.185
X-247.5
G3 X-247.64 Z-14.153 I0. K0.318
G2 X-247.779 Z-14.12 I-0.14 K-0.285
G1 X-247.839 Y-79.991
X-247.899 Y-79.985 Z-14.119
X-247.958 Y-79.976 Z-14.118
X-248.016 Y-79.963 Z-14.117
X-248.074 Y-79.947 Z-14.115
X-248.13 Y-79.926 Z-14.112
X-248.185 Y-79.903 Z-14.109
X-248.238 Y-79.876 Z-14.106
X-248.29 Y-79.846 Z-14.102
X-248.339 Y-79.812 Z-14.098
X-248.387 Y-79.776 Z-14.094
X-248.431 Y-79.737 Z-14.089
X-248.474 Y-79.695 Z-14.084
X-248.513 Y-79.65 Z-14.079
X-248.55 Y-79.603 Z-14.073
X-248.584 Y-79.554 Z-14.067
X-248.614 Y-79.503 Z-14.061
X-248.641 Y-79.45 Z-14.054
X-248.665 Y-79.395 Z-14.048
X-248.685 Y-79.339 Z-14.041
X-248.702 Y-79.282 Z-14.034
X-248.715 Y-79.224 Z-14.027
X-248.724 Y-79.166 Z-14.02
X-248.73 Y-79.107 Z-14.013
X-248.732 Y-79.047 Z-14.005
Y-78.939 Z-13.992
X-248.73 Y-78.879 Z-13.985
X-248.724 Y-78.82 Z-13.978
X-248.715 Y-78.762 Z-13.971
X-248.702 Y-78.704 Z-13.964
X-248.685 Y-78.647 Z-13.957
X-248.665 Y-78.591 Z-13.95
X-248.641 Y-78.536 Z-13.943
X-248.614 Y-78.483 Z-13.937
X-248.584 Y-78.432 Z-13.931
X-248.55 Y-78.383 Z-13.925
X-248.513 Y-78.336 Z-13.919
X-248.474 Y-78.291 Z-13.914
X-248.431 Y-78.249 Z-13.909
X-248.387 Y-78.21 Z-13.904
X-248.339 Y-78.174 Z-13.899
X-248.29 Y-78.14 Z-13.895
X-248.238 Y-78.11 Z-13.892
X-248.185 Y-78.083 Z-13.888
X-248.13 Y-78.06 Z-13.885
X-248.074 Y-78.039 Z-13.883
X-248.016 Y-78.023 Z-13.881
X-247.958 Y-78.01 Z-13.879
X-247.899 Y-78.001 Z-13.878
X-247.839 Y-77.995
X-247.779 Y-77.993 Z-13.877
G3 X-247.64 Z-13.91 I0. K-0.318
G2 X-247.5 Z-13.942 I0.14 K0.285
G1 X220.88
X222.911 Z-13.948
X224.09 Z-13.984
X225.493 Z-14.055
G2 X225.649 Z-14.023 I0.016 K0.317
G3 X225.789 Z-13.991 I0.14 K-0.285
G1 X225.849 Y-77.991
X225.908 Y-77.986 Z-13.99
X225.967 Y-77.976 Z-13.989
X226.026 Y-77.963 Z-13.987
X226.083 Y-77.947 Z-13.985
X226.139 Y-77.927 Z-13.983
X226.194 Y-77.903 Z-13.98
X226.248 Y-77.876 Z-13.977
X226.299 Y-77.846 Z-13.973
X226.349 Y-77.813 Z-13.969
X226.396 Y-77.776 Z-13.964
X226.441 Y-77.737 Z-13.96
X226.483 Y-77.695 Z-13.955
X226.523 Y-77.65 Z-13.949
X226.559 Y-77.603 Z-13.943
X226.593 Y-77.554 Z-13.937
X226.623 Y-77.503 Z-13.931
X226.651 Y-77.45 Z-13.925
X226.674 Y-77.396 Z-13.918
X226.695 Y-77.34 Z-13.911
X226.711 Y-77.283 Z-13.904
X226.724 Y-77.225 Z-13.897
X226.734 Y-77.166 Z-13.89
X226.739 Y-77.107 Z-13.883
X226.741 Y-77.048 Z-13.876
Y-76.939 Z-13.863
X226.739 Y-76.88 Z-13.856
X226.734 Y-76.82 Z-13.848
X226.724 Y-76.762 Z-13.841
X226.711 Y-76.704 Z-13.834
X226.695 Y-76.647 Z-13.827
X226.674 Y-76.591 Z-13.82
X226.651 Y-76.536 Z-13.814
X226.623 Y-76.483 Z-13.807
X226.593 Y-76.432 Z-13.801
X226.559 Y-76.383 Z-13.795
X226.523 Y-76.336 Z-13.79
X226.483 Y-76.292 Z-13.784
X226.441 Y-76.25 Z-13.779
X226.396 Y-76.21 Z-13.774
X226.349 Y-76.174 Z-13.77
X226.299 Y-76.141 Z-13.766
X226.248 Y-76.11 Z-13.762
X226.194 Y-76.083 Z-13.759
X226.139 Y-76.06 Z-13.756
X226.083 Y-76.04 Z-13.754
X226.026 Y-76.023 Z-13.752
X225.967 Y-76.01 Z-13.75
X225.908 Y-76.001 Z-13.749
X225.849 Y-75.995 Z-13.748
X225.789 Y-75.993
X223.789
G2 X223.649 Z-13.78 I0. K-0.318
G3 X223.493 Z-13.812 I-0.14 K0.285
G1 X222.09 Z-13.741
X220.912 Z-13.705
X218.88 Z-13.699
X-247.5
G3 X-247.64 Z-13.667 I0. K0.318
G2 X-247.779 Z-13.635 I-0.14 K-0.285
G1 X-247.839 Y-75.992 Z-13.634
X-247.899 Y-75.986
X-247.958 Y-75.977 Z-13.633
X-248.016 Y-75.964 Z-13.631
X-248.074 Y-75.947 Z-13.629
X-248.13 Y-75.927 Z-13.627
X-248.185 Y-75.903 Z-13.624
X-248.238 Y-75.876 Z-13.62
X-248.29 Y-75.846 Z-13.617
X-248.339 Y-75.813 Z-13.613
X-248.387 Y-75.776 Z-13.608
X-248.431 Y-75.737 Z-13.603
X-248.474 Y-75.695 Z-13.598
X-248.513 Y-75.651 Z-13.593
X-248.55 Y-75.604 Z-13.587
X-248.584 Y-75.555 Z-13.581
X-248.614 Y-75.503 Z-13.575
X-248.641 Y-75.45 Z-13.569
X-248.665 Y-75.396 Z-13.562
X-248.685 Y-75.34 Z-13.555
X-248.702 Y-75.283 Z-13.548
X-248.715 Y-75.225 Z-13.541
X-248.724 Y-75.166 Z-13.534
X-248.73 Y-75.107 Z-13.527
X-248.732 Y-75.048 Z-13.52
Y-74.939 Z-13.507
X-248.73 Y-74.88 Z-13.499
X-248.724 Y-74.821 Z-13.492
X-248.715 Y-74.762 Z-13.485
X-248.702 Y-74.704 Z-13.478
X-248.685 Y-74.647 Z-13.471
X-248.665 Y-74.591 Z-13.464
X-248.641 Y-74.537 Z-13.458
X-248.614 Y-74.484 Z-13.451
X-248.584 Y-74.433 Z-13.445
X-248.55 Y-74.383 Z-13.439
X-248.513 Y-74.337 Z-13.433
X-248.474 Y-74.292 Z-13.428
X-248.431 Y-74.25 Z-13.423
X-248.387 Y-74.211 Z-13.418
X-248.339 Y-74.174 Z-13.414
X-248.29 Y-74.141 Z-13.41
X-248.238 Y-74.111 Z-13.406
X-248.185 Y-74.084 Z-13.403
X-248.13 Y-74.06 Z-13.4
X-248.074 Y-74.04 Z-13.397
X-248.016 Y-74.023 Z-13.395
X-247.958 Y-74.01 Z-13.394
X-247.899 Y-74.001 Z-13.393
X-247.839 Y-73.996 Z-13.392
X-247.779 Y-73.994
G3 X-247.64 Z-13.424 I0. K-0.317
G2 X-247.5 Z-13.457 I0.14 K0.285
G1 X216.88
X218.912 Z-13.462
X220.09 Z-13.498
X221.494 Z-13.569
G2 X221.65 Z-13.537 I0.016 K0.317
G3 X221.789 Z-13.505 I0.14 K-0.285
G1 X221.849 Y-73.992
X221.909 Y-73.986 Z-13.504
X221.968 Y-73.977 Z-13.503
X222.026 Y-73.964 Z-13.501
X222.084 Y-73.947 Z-13.499
X222.14 Y-73.927 Z-13.497
X222.195 Y-73.904 Z-13.494
X222.248 Y-73.877 Z-13.491
X222.3 Y-73.847 Z-13.487
X222.349 Y-73.813 Z-13.483
X222.396 Y-73.777 Z-13.479
X222.441 Y-73.737 Z-13.474
X222.484 Y-73.695 Z-13.469
X222.523 Y-73.651 Z-13.463
X222.56 Y-73.604 Z-13.458
X222.594 Y-73.555 Z-13.452
X222.624 Y-73.504 Z-13.446
X222.651 Y-73.451 Z-13.439
X222.675 Y-73.396 Z-13.433
X222.695 Y-73.34 Z-13.426
X222.712 Y-73.283 Z-13.419
X222.725 Y-73.225 Z-13.412
X222.734 Y-73.167 Z-13.405
X222.74 Y-73.108 Z-13.397
X222.742 Y-73.048 Z-13.39
Y-72.94 Z-13.377
X222.74 Y-72.88 Z-13.37
X222.734 Y-72.821 Z-13.363
X222.725 Y-72.762 Z-13.356
X222.712 Y-72.704 Z-13.349
X222.695 Y-72.647 Z-13.342
X222.675 Y-72.591 Z-13.335
X222.651 Y-72.537 Z-13.328
X222.624 Y-72.484 Z-13.322
X222.594 Y-72.433 Z-13.316
X222.56 Y-72.384 Z-13.31
X222.523 Y-72.337 Z-13.304
X222.484 Y-72.292 Z-13.298
X222.441 Y-72.25 Z-13.293
X222.396 Y-72.211 Z-13.289
X222.349 Y-72.175 Z-13.284
X222.3 Y-72.141 Z-13.28
X222.248 Y-72.111 Z-13.276
X222.195 Y-72.084 Z-13.273
X222.14 Y-72.06 Z-13.27
X222.084 Y-72.04 Z-13.268
X222.026 Y-72.024 Z-13.266
X221.968 Y-72.011 Z-13.264
X221.909 Y-72.001 Z-13.263
X221.849 Y-71.996 Z-13.262
X221.789 Y-71.994
X219.79
G2 X219.65 Z-13.295 I0. K-0.317
G3 X219.494 Z-13.327 I-0.14 K0.285
G1 X218.09 Z-13.255
X216.912 Z-13.219
X214.881 Z-13.214
X-247.5
G3 X-247.64 Z-13.181 I0. K0.318
G2 X-247.779 Z-13.149 I-0.14 K-0.285
G1 X-247.839 Y-71.992
X-247.899 Y-71.987 Z-13.148
X-247.958 Y-71.977 Z-13.147
X-248.016 Y-71.964 Z-13.145
X-248.074 Y-71.948 Z-13.143
X-248.13 Y-71.928 Z-13.141
X-248.185 Y-71.904 Z-13.138
X-248.238 Y-71.877 Z-13.135
X-248.29 Y-71.847 Z-13.131
X-248.339 Y-71.813 Z-13.127
X-248.387 Y-71.777 Z-13.123
X-248.431 Y-71.738 Z-13.118
X-248.474 Y-71.696 Z-13.113
X-248.513 Y-71.651 Z-13.107
X-248.55 Y-71.604 Z-13.102
X-248.584 Y-71.555 Z-13.096
X-248.614 Y-71.504 Z-13.089
X-248.641 Y-71.451 Z-13.083
X-248.665 Y-71.397 Z-13.076
X-248.685 Y-71.341 Z-13.07
X-248.702 Y-71.284 Z-13.063
X-248.715 Y-71.226 Z-13.056
X-248.724 Y-71.167 Z-13.049
X-248.73 Y-71.108 Z-13.041
X-248.732 Y-71.048 Z-13.034
Y-70.94 Z-13.021
X-248.73 Y-70.88 Z-13.014
X-248.724 Y-70.821 Z-13.007
X-248.715 Y-70.763 Z-12.999
X-248.702 Y-70.705 Z-12.992
X-248.685 Y-70.648 Z-12.985
X-248.665 Y-70.592 Z-12.979
X-248.641 Y-70.537 Z-12.972
X-248.614 Y-70.484 Z-12.966
X-248.584 Y-70.433 Z-12.959
X-248.55 Y-70.384 Z-12.953
X-248.513 Y-70.337 Z-12.948
X-248.474 Y-70.293 Z-12.942
X-248.431 Y-70.251 Z-12.937
X-248.387 Y-70.211 Z-12.932
X-248.339 Y-70.175 Z-12.928
X-248.29 Y-70.141 Z-12.924
X-248.238 Y-70.111 Z-12.92
X-248.185 Y-70.084 Z-12.917
X-248.13 Y-70.061 Z-12.914
X-248.074 Y-70.041 Z-12.912
X-248.016 Y-70.024 Z-12.91
X-247.958 Y-70.011 Z-12.908
X-247.899 Y-70.002 Z-12.907
X-247.839 Y-69.996 Z-12.906
X-247.779 Y-69.994
G3 X-247.64 Z-12.939 I0. K-0.318
G2 X-247.5 Z-12.971 I0.14 K0.285
G1 X212.881
X214.912 Z-12.977
X216.091 Z-13.012
X217.494 Z-13.084
G2 X217.65 Z-13.052 I0.016 K0.317
G3 X217.79 Z-13.019 I0.14 K-0.285
G1 X217.85 Y-69.992
X217.909 Y-69.987
X217.968 Y-69.978 Z-13.017
X218.027 Y-69.965 Z-13.016
X218.084 Y-69.948 Z-13.014
X218.141 Y-69.928 Z-13.011
X218.195 Y-69.904 Z-13.009
X218.249 Y-69.877 Z-13.005
X218.3 Y-69.847 Z-13.002
X218.35 Y-69.814 Z-12.998
X218.397 Y-69.777 Z-12.993
X218.442 Y-69.738 Z-12.988
X218.484 Y-69.696 Z-12.983
X218.524 Y-69.651 Z-12.978
X218.56 Y-69.605 Z-12.972
X218.594 Y-69.555 Z-12.966
X218.625 Y-69.504 Z-12.96
X218.652 Y-69.451 Z-12.954
X218.676 Y-69.397 Z-12.947
X218.696 Y-69.341 Z-12.94
X218.712 Y-69.284 Z-12.933
X218.726 Y-69.226 Z-12.926
X218.735 Y-69.167 Z-12.919
X218.741 Y-69.108 Z-12.912
X218.742 Y-69.049 Z-12.905
Y-68.94 Z-12.891
X218.741 Y-68.881 Z-12.884
X218.735 Y-68.822 Z-12.877
X218.726 Y-68.763 Z-12.87
X218.712 Y-68.705 Z-12.863
X218.696 Y-68.648 Z-12.856
X218.676 Y-68.592 Z-12.849
X218.652 Y-68.538 Z-12.843
X218.625 Y-68.485 Z-12.836
X218.594 Y-68.433 Z-12.83
X218.56 Y-68.384 Z-12.824
X218.524 Y-68.337 Z-12.818
X218.484 Y-68.293 Z-12.813
X218.442 Y-68.251 Z-12.808
X218.397 Y-68.212 Z-12.803
X218.35 Y-68.175 Z-12.799
X218.3 Y-68.142 Z-12.795
X218.249 Y-68.112 Z-12.791
X218.195 Y-68.085 Z-12.788
X218.141 Y-68.061 Z-12.785
X218.084 Y-68.041 Z-12.782
X218.027 Y-68.024 Z-12.78
X217.968 Y-68.011 Z-12.779
X217.909 Y-68.002 Z-12.778
X217.85 Y-67.996 Z-12.777
X217.79 Y-67.995
X215.79
G2 X215.65 Z-12.809 I0. K-0.318
G3 X215.495 Z-12.841 I-0.14 K0.285
G1 X214.091 Z-12.769
X212.913 Z-12.734
X210.881 Z-12.728
X-247.5
G3 X-247.64 Z-12.696 I0. K0.318
G2 X-247.779 Z-12.663 I-0.14 K-0.285
G1 X-247.839 Y-67.993
X-247.899 Y-67.987 Z-12.662
X-247.958 Y-67.978 Z-12.661
X-248.016 Y-67.965 Z-12.66
X-248.074 Y-67.948 Z-12.658
X-248.13 Y-67.928 Z-12.655
X-248.185 Y-67.905 Z-12.652
X-248.238 Y-67.878 Z-12.649
X-248.29 Y-67.847 Z-12.645
X-248.339 Y-67.814 Z-12.641
X-248.387 Y-67.778 Z-12.637
X-248.431 Y-67.738 Z-12.632
X-248.474 Y-67.696 Z-12.627
X-248.513 Y-67.652 Z-12.622
X-248.55 Y-67.605 Z-12.616
X-248.584 Y-67.556 Z-12.61
X-248.614 Y-67.505 Z-12.604
X-248.641 Y-67.452 Z-12.597
X-248.665 Y-67.397 Z-12.591
X-248.685 Y-67.341 Z-12.584
X-248.702 Y-67.284 Z-12.577
X-248.715 Y-67.226 Z-12.57
X-248.724 Y-67.168 Z-12.563
X-248.73 Y-67.108 Z-12.556
X-248.732 Y-67.049 Z-12.548
Y-66.94 Z-12.535
X-248.73 Y-66.881 Z-12.528
X-248.724 Y-66.822 Z-12.521
X-248.715 Y-66.763 Z-12.514
X-248.702 Y-66.705 Z-12.507
X-248.685 Y-66.648 Z-12.5
X-248.665 Y-66.592 Z-12.493
X-248.641 Y-66.538 Z-12.486
X-248.614 Y-66.485 Z-12.48
X-248.584 Y-66.434 Z-12.474
X-248.55 Y-66.385 Z-12.468
X-248.513 Y-66.338 Z-12.462
X-248.474 Y-66.293 Z-12.457
X-248.431 Y-66.251 Z-12.452
X-248.387 Y-66.212 Z-12.447
X-248.339 Y-66.175 Z-12.442
X-248.29 Y-66.142 Z-12.438
X-248.238 Y-66.112 Z-12.435
X-248.185 Y-66.085 Z-12.431
X-248.13 Y-66.061 Z-12.429
X-248.074 Y-66.041 Z-12.426
X-248.016 Y-66.025 Z-12.424
X-247.958 Y-66.012 Z-12.423
X-247.899 Y-66.002 Z-12.421
X-247.839 Y-65.997
X-247.779 Y-65.995 Z-12.42
G3 X-247.64 Z-12.453 I0. K-0.318
G2 X-247.5 Z-12.485 I0.14 K0.285
G1 X208.881
X210.913 Z-12.491
X212.091 Z-12.527
X213.495 Z-12.598
G2 X213.651 Z-12.566 I0.016 K0.317
G3 X213.79 Z-12.534 I0.14 K-0.285
G1 X213.85 Y-65.993
X213.91 Y-65.987 Z-12.533
X213.969 Y-65.978 Z-12.532
X214.027 Y-65.965 Z-12.53
X214.085 Y-65.949 Z-12.528
X214.141 Y-65.928 Z-12.526
X214.196 Y-65.905 Z-12.523
X214.249 Y-65.878 Z-12.52
X214.301 Y-65.848 Z-12.516
X214.35 Y-65.814 Z-12.512
X214.398 Y-65.778 Z-12.507
X214.443 Y-65.739 Z-12.503
X214.485 Y-65.697 Z-12.498
X214.524 Y-65.652 Z-12.492
X214.561 Y-65.605 Z-12.486
X214.595 Y-65.556 Z-12.481
X214.625 Y-65.505 Z-12.474
X214.652 Y-65.452 Z-12.468
X214.676 Y-65.397 Z-12.461
X214.696 Y-65.341 Z-12.454
X214.713 Y-65.284 Z-12.448
X214.726 Y-65.226 Z-12.441
X214.735 Y-65.168 Z-12.433
X214.741 Y-65.109 Z-12.426
X214.743 Y-65.049 Z-12.419
Y-64.941 Z-12.406
X214.741 Y-64.881 Z-12.399
X214.735 Y-64.822 Z-12.391
X214.726 Y-64.764 Z-12.384
X214.713 Y-64.706 Z-12.377
X214.696 Y-64.649 Z-12.37
X214.676 Y-64.593 Z-12.364
X214.652 Y-64.538 Z-12.357
X214.625 Y-64.485 Z-12.35
X214.595 Y-64.434 Z-12.344
X214.561 Y-64.385 Z-12.338
X214.524 Y-64.338 Z-12.333
X214.485 Y-64.293 Z-12.327
X214.443 Y-64.251 Z-12.322
X214.398 Y-64.212 Z-12.317
X214.35 Y-64.176 Z-12.313
X214.301 Y-64.142 Z-12.309
X214.249 Y-64.112 Z-12.305
X214.196 Y-64.085 Z-12.302
X214.141 Y-64.062 Z-12.299
X214.085 Y-64.041 Z-12.297
X214.027 Y-64.025 Z-12.295
X213.969 Y-64.012 Z-12.293
X213.91 Y-64.003 Z-12.292
X213.85 Y-63.997 Z-12.291
X213.79 Y-63.995
X211.791
G2 X211.651 Z-12.323 I0. K-0.318
G3 X211.495 Z-12.355 I-0.14 K0.285
G1 X210.092 Z-12.284
X208.913 Z-12.248
X206.882 Z-12.242
X-247.5
G3 X-247.64 Z-12.21 I0. K0.318
G2 X-247.779 Z-12.178 I-0.14 K-0.285
G1 X-247.839 Y-63.993 Z-12.177
X-247.899 Y-63.988
X-247.958 Y-63.978 Z-12.176
X-248.016 Y-63.965 Z-12.174
X-248.074 Y-63.949 Z-12.172
X-248.13 Y-63.929 Z-12.17
X-248.185 Y-63.905 Z-12.167
X-248.238 Y-63.878 Z-12.163
X-248.29 Y-63.848 Z-12.16
X-248.339 Y-63.815 Z-12.156
X-248.387 Y-63.778 Z-12.151
X-248.431 Y-63.739 Z-12.147
X-248.474 Y-63.697 Z-12.141
X-248.513 Y-63.652 Z-12.136
X-248.55 Y-63.605 Z-12.13
X-248.584 Y-63.556 Z-12.124
X-248.614 Y-63.505 Z-12.118
X-248.641 Y-63.452 Z-12.112
X-248.665 Y-63.398 Z-12.105
X-248.685 Y-63.342 Z-12.098
X-248.702 Y-63.285 Z-12.091
X-248.715 Y-63.227 Z-12.084
X-248.724 Y-63.168 Z-12.077
X-248.73 Y-63.109 Z-12.07
X-248.732 Y-63.05 Z-12.063
Y-62.941 Z-12.05
X-248.73 Y-62.882 Z-12.042
X-248.724 Y-62.822 Z-12.035
X-248.715 Y-62.764 Z-12.028
X-248.702 Y-62.706 Z-12.021
X-248.685 Y-62.649 Z-12.014
X-248.665 Y-62.593 Z-12.007
X-248.641 Y-62.538 Z-12.001
X-248.614 Y-62.485 Z-11.994
X-248.584 Y-62.434 Z-11.988
X-248.55 Y-62.385 Z-11.982
X-248.513 Y-62.338 Z-11.976
X-248.474 Y-62.294 Z-11.971
X-248.431 Y-62.252 Z-11.966
X-248.387 Y-62.212 Z-11.961
X-248.339 Y-62.176 Z-11.957
X-248.29 Y-62.143 Z-11.953
X-248.238 Y-62.112 Z-11.949
X-248.185 Y-62.085 Z-11.946
X-248.13 Y-62.062 Z-11.943
X-248.074 Y-62.042 Z-11.94
X-248.016 Y-62.025 Z-11.938
X-247.958 Y-62.012 Z-11.937
X-247.899 Y-62.003 Z-11.936
X-247.839 Y-61.997 Z-11.935
X-247.779 Y-61.995
G3 X-247.64 Z-11.967 I0. K-0.318
G2 X-247.5 Z-12. I0.14 K0.285
G1 X204.882
X206.914 Z-12.005
X208.092 Z-12.041
X209.495 Z-12.113
G2 X209.651 Z-12.081 I0.016 K0.317
G3 X209.791 Z-12.048 I0.14 K-0.285
G1 X209.851 Y-61.994
X209.91 Y-61.988 Z-12.047
X209.97 Y-61.979 Z-12.046
X210.028 Y-61.966 Z-12.045
X210.085 Y-61.949 Z-12.043
X210.142 Y-61.929 Z-12.04
X210.197 Y-61.905 Z-12.037
X210.25 Y-61.878 Z-12.034
X210.301 Y-61.848 Z-12.03
X210.351 Y-61.815 Z-12.026
X210.398 Y-61.778 Z-12.022
X210.443 Y-61.739 Z-12.017
X210.485 Y-61.697 Z-12.012
X210.525 Y-61.653 Z-12.007
X210.562 Y-61.606 Z-12.001
X210.595 Y-61.557 Z-11.995
X210.626 Y-61.505 Z-11.989
X210.653 Y-61.452 Z-11.982
X210.677 Y-61.398 Z-11.976
X210.697 Y-61.342 Z-11.969
X210.714 Y-61.285 Z-11.962
X210.727 Y-61.227 Z-11.955
X210.736 Y-61.168 Z-11.948
X210.742 Y-61.109 Z-11.941
X210.744 Y-61.05 Z-11.933
Y-60.941 Z-11.92
X210.742 Y-60.882 Z-11.913
X210.736 Y-60.823 Z-11.906
X210.727 Y-60.764 Z-11.899
X210.714 Y-60.706 Z-11.892
X210.697 Y-60.649 Z-11.885
X210.677 Y-60.593 Z-11.878
X210.653 Y-60.539 Z-11.871
X210.626 Y-60.486 Z-11.865
X210.595 Y-60.435 Z-11.859
X210.562 Y-60.385 Z-11.853
X210.525 Y-60.339 Z-11.847
X210.485 Y-60.294 Z-11.842
X210.443 Y-60.252 Z-11.836
X210.398 Y-60.213 Z-11.832
X210.351 Y-60.176 Z-11.827
X210.301 Y-60.143 Z-11.823
X210.25 Y-60.113 Z-11.82
X210.197 Y-60.086 Z-11.816
X210.142 Y-60.062 Z-11.813
X210.085 Y-60.042 Z-11.811
X210.028 Y-60.025 Z-11.809
X209.97 Y-60.012 Z-11.807
X209.91 Y-60.003 Z-11.806
X209.851 Y-59.998
X209.791 Y-59.996 Z-11.805
X207.791
G2 X207.652 Z-11.838 I0. K-0.318
G3 X207.496 Z-11.87 I-0.14 K0.285
G1 X206.092 Z-11.798
X204.914 Z-11.763
X202.882 Z-11.757
X-247.5
G3 X-247.64 Z-11.724 I0. K0.317
G2 X-247.779 Z-11.692 I-0.14 K-0.285
G1 X-247.839 Y-59.994
X-247.899 Y-59.988 Z-11.691
X-247.958 Y-59.979 Z-11.69
X-248.016 Y-59.966 Z-11.688
X-248.074 Y-59.949 Z-11.686
X-248.13 Y-59.929 Z-11.684
X-248.185 Y-59.906 Z-11.681
X-248.238 Y-59.879 Z-11.678
X-248.29 Y-59.849 Z-11.674
X-248.339 Y-59.815 Z-11.67
X-248.387 Y-59.779 Z-11.666
X-248.431 Y-59.739 Z-11.661
X-248.474 Y-59.697 Z-11.656
X-248.513 Y-59.653 Z-11.65
X-248.55 Y-59.606 Z-11.645
X-248.584 Y-59.557 Z-11.639
X-248.614 Y-59.506 Z-11.633
X-248.641 Y-59.453 Z-11.626
X-248.665 Y-59.398 Z-11.619
X-248.685 Y-59.342 Z-11.613
X-248.702 Y-59.285 Z-11.606
X-248.715 Y-59.227 Z-11.599
X-248.724 Y-59.169 Z-11.592
X-248.73 Y-59.11 Z-11.584
X-248.732 Y-59.05 Z-11.577
Y-58.942 Z-11.564
X-248.73 Y-58.882 Z-11.557
X-248.724 Y-58.823 Z-11.55
X-248.715 Y-58.764 Z-11.542
X-248.702 Y-58.706 Z-11.535
X-248.685 Y-58.649 Z-11.529
X-248.665 Y-58.593 Z-11.522
X-248.641 Y-58.539 Z-11.515
X-248.614 Y-58.486 Z-11.509
X-248.584 Y-58.435 Z-11.502
X-248.55 Y-58.386 Z-11.497
X-248.513 Y-58.339 Z-11.491
X-248.474 Y-58.294 Z-11.485
X-248.431 Y-58.252 Z-11.48
X-248.387 Y-58.213 Z-11.476
X-248.339 Y-58.177 Z-11.471
X-248.29 Y-58.143 Z-11.467
X-248.238 Y-58.113 Z-11.463
X-248.185 Y-58.086 Z-11.46
X-248.13 Y-58.062 Z-11.457
X-248.074 Y-58.042 Z-11.455
X-248.016 Y-58.026 Z-11.453
X-247.958 Y-58.013 Z-11.451
X-247.899 Y-58.003 Z-11.45
X-247.839 Y-57.998 Z-11.449
X-247.779 Y-57.996
G3 X-247.64 Z-11.482 I0. K-0.318
G2 X-247.5 Z-11.514 I0.14 K0.285
G1 X200.883
X202.914 Z-11.52
X204.092 Z-11.555
X205.496 Z-11.627
G2 X205.652 Z-11.595 I0.016 K0.317
G3 X205.792 Z-11.563 I0.14 K-0.285
G1 X205.851 Y-57.994 Z-11.562
X205.911 Y-57.989
X205.97 Y-57.979 Z-11.56
X206.028 Y-57.966 Z-11.559
X206.086 Y-57.95 Z-11.557
X206.142 Y-57.93 Z-11.554
X206.197 Y-57.906 Z-11.552
X206.25 Y-57.879 Z-11.548
X206.302 Y-57.849 Z-11.545
X206.351 Y-57.815 Z-11.541
X206.399 Y-57.779 Z-11.536
X206.444 Y-57.74 Z-11.531
X206.486 Y-57.698 Z-11.526
X206.526 Y-57.653 Z-11.521
X206.562 Y-57.606 Z-11.515
X206.596 Y-57.557 Z-11.509
X206.626 Y-57.506 Z-11.503
X206.653 Y-57.453 Z-11.497
X206.677 Y-57.399 Z-11.49
X206.697 Y-57.343 Z-11.483
X206.714 Y-57.286 Z-11.476
X206.727 Y-57.228 Z-11.469
X206.737 Y-57.169 Z-11.462
X206.742 Y-57.11 Z-11.455
X206.744 Y-57.05 Z-11.448
Y-56.942 Z-11.435
X206.742 Y-56.882 Z-11.427
X206.737 Y-56.823 Z-11.42
X206.727 Y-56.765 Z-11.413
X206.714 Y-56.707 Z-11.406
X206.697 Y-56.65 Z-11.399
X206.677 Y-56.594 Z-11.392
X206.653 Y-56.539 Z-11.386
X206.626 Y-56.486 Z-11.379
X206.596 Y-56.435 Z-11.373
X206.562 Y-56.386 Z-11.367
X206.526 Y-56.339 Z-11.361
X206.486 Y-56.295 Z-11.356
X206.444 Y-56.253 Z-11.351
X206.399 Y-56.213 Z-11.346
X206.351 Y-56.177 Z-11.342
X206.302 Y-56.143 Z-11.338
X206.25 Y-56.113 Z-11.334
X206.197 Y-56.086 Z-11.331
X206.142 Y-56.063 Z-11.328
X206.086 Y-56.043 Z-11.325
X206.028 Y-56.026 Z-11.323
X205.97 Y-56.013 Z-11.322
X205.911 Y-56.004 Z-11.321
X205.851 Y-55.998 Z-11.32
X205.792 Y-55.996
X203.792
G2 X203.652 Z-11.352 I0. K-0.318
G3 X203.496 Z-11.384 I-0.14 K0.285
G1 X202.093 Z-11.313
X200.914 Z-11.277
X198.883 Z-11.271
X-247.5
G3 X-247.64 Z-11.239 I0. K0.318
G2 X-247.779 Z-11.206 I-0.14 K-0.285
G1 X-247.839 Y-55.994
X-247.899 Y-55.989 Z-11.205
X-247.958 Y-55.98 Z-11.204
X-248.016 Y-55.967 Z-11.203
X-248.074 Y-55.95 Z-11.201
X-248.13 Y-55.93 Z-11.198
X-248.185 Y-55.906 Z-11.195
X-248.238 Y-55.879 Z-11.192
X-248.29 Y-55.849 Z-11.188
X-248.339 Y-55.816 Z-11.184
X-248.387 Y-55.779 Z-11.18
X-248.431 Y-55.74 Z-11.175
X-248.474 Y-55.698 Z-11.17
X-248.513 Y-55.653 Z-11.165
X-248.55 Y-55.607 Z-11.159
X-248.584 Y-55.557 Z-11.153
X-248.614 Y-55.506 Z-11.147
X-248.641 Y-55.453 Z-11.14
X-248.665 Y-55.399 Z-11.134
X-248.685 Y-55.343 Z-11.127
X-248.702 Y-55.286 Z-11.12
X-248.715 Y-55.228 Z-11.113
X-248.724 Y-55.169 Z-11.106
X-248.73 Y-55.11 Z-11.099
X-248.732 Y-55.051 Z-11.092
Y-54.942 Z-11.078
X-248.73 Y-54.883 Z-11.071
X-248.724 Y-54.824 Z-11.064
X-248.715 Y-54.765 Z-11.057
X-248.702 Y-54.707 Z-11.05
X-248.685 Y-54.65 Z-11.043
X-248.665 Y-54.594 Z-11.036
X-248.641 Y-54.54 Z-11.029
X-248.614 Y-54.487 Z-11.023
X-248.584 Y-54.435 Z-11.017
X-248.55 Y-54.386 Z-11.011
X-248.513 Y-54.339 Z-11.005
X-248.474 Y-54.295 Z-11.
X-248.431 Y-54.253 Z-10.995
X-248.387 Y-54.214 Z-10.99
X-248.339 Y-54.177 Z-10.985
X-248.29 Y-54.144 Z-10.981
X-248.238 Y-54.114 Z-10.978
X-248.185 Y-54.087 Z-10.974
X-248.13 Y-54.063 Z-10.972
X-248.074 Y-54.043 Z-10.969
X-248.016 Y-54.026 Z-10.967
X-247.958 Y-54.013 Z-10.966
X-247.899 Y-54.004 Z-10.964
X-247.839 Y-53.998
X-247.779 Y-53.997
G3 X-247.64 Z-10.996 I0. K-0.318
G2 X-247.5 Z-11.028 I0.14 K0.285
G1 X196.883
X198.915 Z-11.034
X200.093 Z-11.07
X201.497 Z-11.141
G2 X201.652 Z-11.109 I0.016 K0.317
G3 X201.792 Z-11.077 I0.14 K-0.285
G1 X201.852 Y-53.995
X201.912 Y-53.989 Z-11.076
X201.971 Y-53.98 Z-11.075
X202.029 Y-53.967 Z-11.073
X202.087 Y-53.95 Z-11.071
X202.143 Y-53.93 Z-11.069
X202.198 Y-53.907 Z-11.066
X202.251 Y-53.88 Z-11.063
X202.303 Y-53.849 Z-11.059
X202.352 Y-53.816 Z-11.055
X202.399 Y-53.78 Z-11.051
X202.444 Y-53.74 Z-11.046
X202.487 Y-53.698 Z-11.041
X202.526 Y-53.654 Z-11.035
X202.563 Y-53.607 Z-11.03
X202.596 Y-53.558 Z-11.024
X202.627 Y-53.507 Z-11.017
X202.654 Y-53.454 Z-11.011
X202.678 Y-53.399 Z-11.004
X202.698 Y-53.343 Z-10.998
X202.715 Y-53.286 Z-10.991
X202.728 Y-53.228 Z-10.984
X202.737 Y-53.17 Z-10.976
X202.743 Y-53.11 Z-10.969
X202.745 Y-53.051 Z-10.962
Y-52.942 Z-10.949
X202.743 Y-52.883 Z-10.942
X202.737 Y-52.824 Z-10.934
X202.728 Y-52.765 Z-10.927
X202.715 Y-52.707 Z-10.92
X202.698 Y-52.65 Z-10.913
X202.678 Y-52.594 Z-10.907
X202.654 Y-52.54 Z-10.9
X202.627 Y-52.487 Z-10.894
X202.596 Y-52.436 Z-10.887
X202.563 Y-52.387 Z-10.881
X202.526 Y-52.34 Z-10.876
X202.487 Y-52.295 Z-10.87
X202.444 Y-52.253 Z-10.865
X202.399 Y-52.214 Z-10.86
X202.352 Y-52.177 Z-10.856
X202.303 Y-52.144 Z-10.852
X202.251 Y-52.114 Z-10.848
X202.198 Y-52.087 Z-10.845
X202.143 Y-52.063 Z-10.842
X202.087 Y-52.043 Z-10.84
X202.029 Y-52.027 Z-10.838
X201.971 Y-52.014 Z-10.836
X201.912 Y-52.004 Z-10.835
X201.852 Y-51.999 Z-10.834
X201.792 Y-51.997
X199.792
G2 X199.653 Z-10.866 I0. K-0.318
G3 X199.497 Z-10.898 I-0.14 K0.285
G1 X198.093 Z-10.827
X196.915 Z-10.791
X194.883 Z-10.786
X-247.5
G3 X-247.64 Z-10.753 I0. K0.318
G2 X-247.779 Z-10.721 I-0.14 K-0.285
G1 X-247.839 Y-51.995 Z-10.72
X-247.899 Y-51.989
X-247.958 Y-51.98 Z-10.719
X-248.016 Y-51.967 Z-10.717
X-248.074 Y-51.951 Z-10.715
X-248.13 Y-51.93 Z-10.713
X-248.185 Y-51.907 Z-10.71
X-248.238 Y-51.88 Z-10.707
X-248.29 Y-51.85 Z-10.703
X-248.339 Y-51.816 Z-10.699
X-248.387 Y-51.78 Z-10.694
X-248.431 Y-51.741 Z-10.69
X-248.474 Y-51.699 Z-10.684
X-248.513 Y-51.654 Z-10.679
X-248.55 Y-51.607 Z-10.673
X-248.584 Y-51.558 Z-10.667
X-248.614 Y-51.507 Z-10.661
X-248.641 Y-51.454 Z-10.655
X-248.665 Y-51.399 Z-10.648
X-248.685 Y-51.343 Z-10.641
X-248.702 Y-51.286 Z-10.634
X-248.715 Y-51.228 Z-10.627
X-248.724 Y-51.17 Z-10.62
X-248.73 Y-51.111 Z-10.613
X-248.732 Y-51.051 Z-10.606
Y-50.943 Z-10.593
X-248.73 Y-50.883 Z-10.586
X-248.724 Y-50.824 Z-10.578
X-248.715 Y-50.766 Z-10.571
X-248.702 Y-50.708 Z-10.564
X-248.685 Y-50.651 Z-10.557
X-248.665 Y-50.595 Z-10.55
X-248.641 Y-50.54 Z-10.544
X-248.614 Y-50.487 Z-10.537
X-248.584 Y-50.436 Z-10.531
X-248.55 Y-50.387 Z-10.525
X-248.513 Y-50.34 Z-10.52
X-248.474 Y-50.295 Z-10.514
X-248.431 Y-50.253 Z-10.509
X-248.387 Y-50.214 Z-10.504
X-248.339 Y-50.178 Z-10.5
X-248.29 Y-50.144 Z-10.496
X-248.238 Y-50.114 Z-10.492
X-248.185 Y-50.087 Z-10.489
X-248.13 Y-50.064 Z-10.486
X-248.074 Y-50.043 Z-10.484
X-248.016 Y-50.027 Z-10.481
X-247.958 Y-50.014 Z-10.48
X-247.899 Y-50.005 Z-10.479
X-247.839 Y-49.999 Z-10.478
X-247.779 Y-49.997
G3 X-247.64 Z-10.51 I0. K-0.318
G2 X-247.5 Z-10.543 I0.14 K0.285
G1 X192.884
X194.915 Z-10.548
X196.094 Z-10.584
X197.497 Z-10.656
G2 X197.653 Z-10.624 I0.016 K0.317
G3 X197.793 Z-10.591 I0.14 K-0.285
G1 X197.853 Y-49.995
X197.912 Y-49.99 Z-10.59
X197.971 Y-49.98 Z-10.589
X198.03 Y-49.967 Z-10.588
X198.087 Y-49.951 Z-10.586
X198.143 Y-49.931 Z-10.583
X198.198 Y-49.907 Z-10.58
X198.252 Y-49.88 Z-10.577
X198.303 Y-49.85 Z-10.573
X198.353 Y-49.817 Z-10.569
X198.4 Y-49.78 Z-10.565
X198.445 Y-49.741 Z-10.56
X198.487 Y-49.699 Z-10.555
X198.527 Y-49.654 Z-10.55
X198.563 Y-49.607 Z-10.544
X198.597 Y-49.558 Z-10.538
X198.627 Y-49.507 Z-10.532
X198.655 Y-49.454 Z-10.525
X198.678 Y-49.4 Z-10.519
X198.699 Y-49.344 Z-10.512
X198.715 Y-49.287 Z-10.505
X198.728 Y-49.229 Z-10.498
X198.738 Y-49.17 Z-10.491
X198.743 Y-49.111 Z-10.484
X198.745 Y-49.052 Z-10.476
Y-48.943 Z-10.463
X198.743 Y-48.884 Z-10.456
X198.738 Y-48.824 Z-10.449
X198.728 Y-48.766 Z-10.442
X198.715 Y-48.708 Z-10.435
X198.699 Y-48.651 Z-10.428
X198.678 Y-48.595 Z-10.421
X198.655 Y-48.54 Z-10.414
X198.627 Y-48.487 Z-10.408
X198.597 Y-48.436 Z-10.402
X198.563 Y-48.387 Z-10.396
X198.527 Y-48.34 Z-10.39
X198.487 Y-48.296 Z-10.385
X198.445 Y-48.254 Z-10.38
X198.4 Y-48.214 Z-10.375
X198.353 Y-48.178 Z-10.37
X198.303 Y-48.145 Z-10.366
X198.252 Y-48.114 Z-10.363
X198.198 Y-48.087 Z-10.359
X198.143 Y-48.064 Z-10.356
X198.087 Y-48.044 Z-10.354
X198.03 Y-48.027 Z-10.352
X197.971 Y-48.014 Z-10.35
X197.912 Y-48.005 Z-10.349
X197.853 Y-47.999
X197.793 Y-47.997 Z-10.348
X195.793
G2 X195.653 Z-10.381 I0. K-0.318
G3 X195.497 Z-10.413 I-0.14 K0.285
G1 X194.094 Z-10.341
X192.916 Z-10.306
X190.884 Z-10.3
X-247.5
G3 X-247.64 Z-10.267 I0. K0.318
G2 X-247.779 Z-10.235 I-0.14 K-0.285
G1 X-247.839 Y-47.996
X-247.899 Y-47.99 Z-10.234
X-247.958 Y-47.981 Z-10.233
X-248.016 Y-47.968 Z-10.231
X-248.074 Y-47.951 Z-10.229
X-248.13 Y-47.931 Z-10.227
X-248.185 Y-47.907 Z-10.224
X-248.238 Y-47.88 Z-10.221
X-248.29 Y-47.85 Z-10.217
X-248.339 Y-47.817 Z-10.213
X-248.387 Y-47.78 Z-10.209
X-248.431 Y-47.741 Z-10.204
X-248.474 Y-47.699 Z-10.199
X-248.513 Y-47.655 Z-10.193
X-248.55 Y-47.608 Z-10.188
X-248.584 Y-47.559 Z-10.182
X-248.614 Y-47.507 Z-10.176
X-248.641 Y-47.454 Z-10.169
X-248.665 Y-47.4 Z-10.163
X-248.685 Y-47.344 Z-10.156
X-248.702 Y-47.287 Z-10.149
X-248.715 Y-47.229 Z-10.142
X-248.724 Y-47.17 Z-10.135
X-248.73 Y-47.111 Z-10.127
X-248.732 Y-47.052 Z-10.12
Y-46.943 Z-10.107
X-248.73 Y-46.884 Z-10.1
X-248.724 Y-46.825 Z-10.093
X-248.715 Y-46.766 Z-10.086
X-248.702 Y-46.708 Z-10.079
X-248.685 Y-46.651 Z-10.072
X-248.665 Y-46.595 Z-10.065
X-248.641 Y-46.541 Z-10.058
X-248.614 Y-46.488 Z-10.052
X-248.584 Y-46.437 Z-10.046
X-248.55 Y-46.387 Z-10.04
X-248.513 Y-46.341 Z-10.034
X-248.474 Y-46.296 Z-10.028
X-248.431 Y-46.254 Z-10.023
X-248.387 Y-46.215 Z-10.019
X-248.339 Y-46.178 Z-10.014
X-248.29 Y-46.145 Z-10.01
X-248.238 Y-46.115 Z-10.006
X-248.185 Y-46.088 Z-10.003
X-248.13 Y-46.064 Z-10.
X-248.074 Y-46.044 Z-9.998
X-248.016 Y-46.027 Z-9.996
X-247.958 Y-46.014 Z-9.994
X-247.899 Y-46.005 Z-9.993
X-247.839 Y-46. Z-9.992
X-247.779 Y-45.998
G3 X-247.64 Z-10.025 I0. K-0.318
G2 X-247.5 Z-10.057 I0.14 K0.285
G1 X188.884
X190.916 Z-10.063
X192.094 Z-10.098
X193.498 Z-10.17
G2 X193.654 Z-10.138 I0.016 K0.317
G3 X193.793 Z-10.106 I0.14 K-0.285
G1 X193.853 Y-45.996 Z-10.105
X193.913 Y-45.99
X193.972 Y-45.981 Z-10.104
X194.03 Y-45.968 Z-10.102
X194.088 Y-45.951 Z-10.1
X194.144 Y-45.931 Z-10.098
X194.199 Y-45.908 Z-10.095
X194.252 Y-45.881 Z-10.091
X194.304 Y-45.851 Z-10.088
X194.353 Y-45.817 Z-10.084
X194.4 Y-45.781 Z-10.079
X194.445 Y-45.741 Z-10.074
X194.488 Y-45.699 Z-10.069
X194.527 Y-45.655 Z-10.064
X194.564 Y-45.608 Z-10.058
X194.598 Y-45.559 Z-10.052
X194.628 Y-45.508 Z-10.046
X194.655 Y-45.455 Z-10.04
X194.679 Y-45.4 Z-10.033
X194.699 Y-45.344 Z-10.026
X194.716 Y-45.287 Z-10.019
X194.729 Y-45.229 Z-10.012
X194.738 Y-45.171 Z-10.005
X194.744 Y-45.112 Z-9.998
X194.746 Y-45.052 Z-9.991
Y-44.944 Z-9.978
X194.744 Y-44.884 Z-9.97
X194.738 Y-44.825 Z-9.963
X194.729 Y-44.766 Z-9.956
X194.716 Y-44.708 Z-9.949
X194.699 Y-44.651 Z-9.942
X194.679 Y-44.595 Z-9.935
X194.655 Y-44.541 Z-9.929
X194.628 Y-44.488 Z-9.922
X194.598 Y-44.437 Z-9.916
X194.564 Y-44.388 Z-9.91
X194.527 Y-44.341 Z-9.904
X194.488 Y-44.296 Z-9.899
X194.445 Y-44.254 Z-9.894
X194.4 Y-44.215 Z-9.889
X194.353 Y-44.179 Z-9.885
X194.304 Y-44.145 Z-9.881
X194.252 Y-44.115 Z-9.877
X194.199 Y-44.088 Z-9.874
X194.144 Y-44.064 Z-9.871
X194.088 Y-44.044 Z-9.868
X194.03 Y-44.028 Z-9.866
X193.972 Y-44.015 Z-9.865
X193.913 Y-44.005 Z-9.864
X193.853 Y-44. Z-9.863
X193.793 Y-43.998
X191.794
G2 X191.654 Z-9.895 I0. K-0.317
G3 X191.498 Z-9.927 I-0.14 K0.285
G1 X190.094 Z-9.856
X188.916 Z-9.82
X186.885 Z-9.814
X-247.5
G3 X-247.64 Z-9.782 I0. K0.318
G2 X-247.779 Z-9.749 I-0.14 K-0.285
G1 X-247.839 Y-43.996
X-247.899 Y-43.991
X-247.958 Y-43.981 Z-9.747
X-248.016 Y-43.968 Z-9.746
X-248.074 Y-43.952 Z-9.744
X-248.13 Y-43.932 Z-9.741
X-248.185 Y-43.908 Z-9.738
X-248.238 Y-43.881 Z-9.735
X-248.29 Y-43.851 Z-9.732
X-248.339 Y-43.817 Z-9.727
X-248.387 Y-43.781 Z-9.723
X-248.431 Y-43.742 Z-9.718
X-248.474 Y-43.7 Z-9.713
X-248.513 Y-43.655 Z-9.708
X-248.55 Y-43.608 Z-9.702
X-248.584 Y-43.559 Z-9.696
X-248.614 Y-43.508 Z-9.69
X-248.641 Y-43.455 Z-9.683
X-248.665 Y-43.401 Z-9.677
X-248.685 Y-43.345 Z-9.67
X-248.702 Y-43.288 Z-9.663
X-248.715 Y-43.23 Z-9.656
X-248.724 Y-43.171 Z-9.649
X-248.73 Y-43.112 Z-9.642
X-248.732 Y-43.052 Z-9.635
Y-42.944 Z-9.621
X-248.73 Y-42.884 Z-9.614
X-248.724 Y-42.825 Z-9.607
X-248.715 Y-42.767 Z-9.6
X-248.702 Y-42.709 Z-9.593
X-248.685 Y-42.652 Z-9.586
X-248.665 Y-42.596 Z-9.579
X-248.641 Y-42.541 Z-9.573
X-248.614 Y-42.488 Z-9.566
X-248.584 Y-42.437 Z-9.56
X-248.55 Y-42.388 Z-9.554
X-248.513 Y-42.341 Z-9.548
X-248.474 Y-42.297 Z-9.543
X-248.431 Y-42.255 Z-9.538
X-248.387 Y-42.215 Z-9.533
X-248.339 Y-42.179 Z-9.529
X-248.29 Y-42.145 Z-9.524
X-248.238 Y-42.115 Z-9.521
X-248.185 Y-42.088 Z-9.518
X-248.13 Y-42.065 Z-9.515
X-248.074 Y-42.045 Z-9.512
X-248.016 Y-42.028 Z-9.51
X-247.958 Y-42.015 Z-9.509
X-247.899 Y-42.006 Z-9.508
X-247.839 Y-42. Z-9.507
X-247.779 Y-41.998
G3 X-247.64 Z-9.539 I0. K-0.318
G2 X-247.5 Z-9.571 I0.14 K0.285
G1 X184.609
X186.916 Z-9.577
X188.095 Z-9.613
X189.498 Z-9.684
G2 X189.654 Z-9.652 I0.016 K0.317
G3 X189.794 Z-9.62 I0.14 K-0.285
G1 X189.854 Y-41.996
X189.913 Y-41.991 Z-9.619
X189.972 Y-41.982 Z-9.618
X190.031 Y-41.969 Z-9.616
X190.088 Y-41.952 Z-9.614
X190.145 Y-41.932 Z-9.612
X190.199 Y-41.908 Z-9.609
X190.253 Y-41.881 Z-9.606
X190.304 Y-41.851 Z-9.602
X190.354 Y-41.818 Z-9.598
X190.401 Y-41.781 Z-9.594
X190.446 Y-41.742 Z-9.589
X190.488 Y-41.7 Z-9.584
X190.528 Y-41.655 Z-9.578
X190.564 Y-41.609 Z-9.573
X190.598 Y-41.559 Z-9.567
X190.629 Y-41.508 Z-9.56
X190.656 Y-41.455 Z-9.554
X190.68 Y-41.401 Z-9.547
X190.7 Y-41.345 Z-9.541
X190.716 Y-41.288 Z-9.534
X190.73 Y-41.23 Z-9.527
X190.739 Y-41.171 Z-9.52
X190.745 Y-41.112 Z-9.512
X190.746 Y-41.053 Z-9.505
Y-40.944 Z-9.492
X190.745 Y-40.885 Z-9.485
X190.739 Y-40.826 Z-9.478
X190.73 Y-40.767 Z-9.47
X190.716 Y-40.709 Z-9.463
X190.7 Y-40.652 Z-9.456
X190.68 Y-40.596 Z-9.45
X190.656 Y-40.542 Z-9.443
X190.629 Y-40.489 Z-9.437
X190.598 Y-40.437 Z-9.43
X190.564 Y-40.388 Z-9.424
X190.528 Y-40.341 Z-9.419
X190.488 Y-40.297 Z-9.413
X190.446 Y-40.255 Z-9.408
X190.401 Y-40.216 Z-9.403
X190.354 Y-40.179 Z-9.399
X190.304 Y-40.146 Z-9.395
X190.253 Y-40.116 Z-9.391
X190.199 Y-40.089 Z-9.388
X190.145 Y-40.065 Z-9.385
X190.088 Y-40.045 Z-9.383
X190.031 Y-40.028 Z-9.381
X189.972 Y-40.015 Z-9.379
X189.913 Y-40.006 Z-9.378
X189.854 Y-40. Z-9.377
X189.794 Y-39.999
X187.794
G2 X187.654 Z-9.41 I0. K-0.318
G3 X187.499 Z-9.441 I-0.14 K0.285
G1 X186.095 Z-9.37
X184.917 Z-9.334
X182.885 Z-9.329
X-247.5
G3 X-247.64 Z-9.296 I0. K0.318
G2 X-247.779 Z-9.264 I-0.14 K-0.285
G1 X-247.839 Y-39.997
X-247.899 Y-39.991 Z-9.263
X-247.958 Y-39.982 Z-9.262
X-248.016 Y-39.969 Z-9.26
X-248.074 Y-39.952 Z-9.258
X-248.13 Y-39.932 Z-9.256
X-248.185 Y-39.909 Z-9.253
X-248.238 Y-39.882 Z-9.25
X-248.29 Y-39.851 Z-9.246
X-248.339 Y-39.818 Z-9.242
X-248.387 Y-39.782 Z-9.237
X-248.431 Y-39.742 Z-9.233
X-248.474 Y-39.7 Z-9.228
X-248.513 Y-39.656 Z-9.222
X-248.55 Y-39.609 Z-9.216
X-248.584 Y-39.56 Z-9.21
X-248.614 Y-39.509 Z-9.204
X-248.641 Y-39.456 Z-9.198
X-248.665 Y-39.401 Z-9.191
X-248.685 Y-39.345 Z-9.184
X-248.702 Y-39.288 Z-9.178
X-248.715 Y-39.23 Z-9.17
X-248.724 Y-39.172 Z-9.163
X-248.73 Y-39.112 Z-9.156
X-248.732 Y-39.053 Z-9.149
Y-38.944 Z-9.136
X-248.73 Y-38.885 Z-9.129
X-248.724 Y-38.826 Z-9.121
X-248.715 Y-38.767 Z-9.114
X-248.702 Y-38.709 Z-9.107
X-248.685 Y-38.652 Z-9.1
X-248.665 Y-38.596 Z-9.094
X-248.641 Y-38.542 Z-9.087
X-248.614 Y-38.489 Z-9.08
X-248.584 Y-38.438 Z-9.074
X-248.55 Y-38.389 Z-9.068
X-248.513 Y-38.342 Z-9.063
X-248.474 Y-38.297 Z-9.057
X-248.431 Y-38.255 Z-9.052
X-248.387 Y-38.216 Z-9.047
X-248.339 Y-38.179 Z-9.043
X-248.29 Y-38.146 Z-9.039
X-248.238 Y-38.116 Z-9.035
X-248.185 Y-38.089 Z-9.032
X-248.13 Y-38.065 Z-9.029
X-248.074 Y-38.045 Z-9.027
X-248.016 Y-38.029 Z-9.025
X-247.958 Y-38.016 Z-9.023
X-247.899 Y-38.006 Z-9.022
X-247.839 Y-38.001 Z-9.021
X-247.779 Y-37.999
G3 X-247.64 Z-9.053 I0. K-0.318
G2 X-247.5 Z-9.086 I0.14 K0.285
G1 X180.885
X182.917 Z-9.091
X184.095 Z-9.127
X185.499 Z-9.199
G2 X185.655 Z-9.167 I0.016 K0.317
G3 X185.794 Z-9.134 I0.14 K-0.285
G1 X185.854 Y-37.997
X185.914 Y-37.991 Z-9.133
X185.973 Y-37.982 Z-9.132
X186.031 Y-37.969 Z-9.131
X186.089 Y-37.953 Z-9.129
X186.145 Y-37.932 Z-9.126
X186.2 Y-37.909 Z-9.123
X186.253 Y-37.882 Z-9.12
X186.305 Y-37.852 Z-9.116
X186.354 Y-37.818 Z-9.112
X186.402 Y-37.782 Z-9.108
X186.447 Y-37.743 Z-9.103
X186.489 Y-37.701 Z-9.098
X186.528 Y-37.656 Z-9.093
X186.565 Y-37.609 Z-9.087
X186.599 Y-37.56 Z-9.081
X186.629 Y-37.509 Z-9.075
X186.656 Y-37.456 Z-9.068
X186.68 Y-37.401 Z-9.062
X186.7 Y-37.345 Z-9.055
X186.717 Y-37.288 Z-9.048
X186.73 Y-37.23 Z-9.041
X186.739 Y-37.172 Z-9.034
X186.745 Y-37.113 Z-9.027
X186.747 Y-37.053 Z-9.019
Y-36.945 Z-9.006
X186.745 Y-36.885 Z-8.999
X186.739 Y-36.826 Z-8.992
X186.73 Y-36.768 Z-8.985
X186.717 Y-36.71 Z-8.978
X186.7 Y-36.653 Z-8.971
X186.68 Y-36.597 Z-8.964
X186.656 Y-36.542 Z-8.957
X186.629 Y-36.489 Z-8.951
X186.599 Y-36.438 Z-8.945
X186.565 Y-36.389 Z-8.939
X186.528 Y-36.342 Z-8.933
X186.489 Y-36.297 Z-8.928
X186.447 Y-36.255 Z-8.923
X186.402 Y-36.216 Z-8.918
X186.354 Y-36.18 Z-8.913
X186.305 Y-36.146 Z-8.909
X186.253 Y-36.116 Z-8.906
X186.2 Y-36.089 Z-8.902
X186.145 Y-36.066 Z-8.9
X186.089 Y-36.045 Z-8.897
X186.031 Y-36.029 Z-8.895
X185.973 Y-36.016 Z-8.894
X185.914 Y-36.007 Z-8.892
X185.854 Y-36.001
X185.794 Y-35.999 Z-8.891
X183.795
G2 X183.655 Z-8.924 I0. K-0.318
G3 X183.499 Z-8.956 I-0.14 K0.285
G1 X182.096 Z-8.884
X180.917 Z-8.849
X178.886 Z-8.843
X-247.5
G3 X-247.64 Z-8.811 I0. K0.318
G2 X-247.779 Z-8.778 I-0.14 K-0.285
G1 X-247.839 Y-35.997
X-247.899 Y-35.992 Z-8.777
X-247.958 Y-35.982 Z-8.776
X-248.016 Y-35.969 Z-8.775
X-248.074 Y-35.953 Z-8.773
X-248.13 Y-35.933 Z-8.77
X-248.185 Y-35.909 Z-8.767
X-248.238 Y-35.882 Z-8.764
X-248.29 Y-35.852 Z-8.76
X-248.339 Y-35.819 Z-8.756
X-248.387 Y-35.782 Z-8.752
X-248.431 Y-35.743 Z-8.747
X-248.474 Y-35.701 Z-8.742
X-248.513 Y-35.656 Z-8.737
X-248.55 Y-35.609 Z-8.731
X-248.584 Y-35.56 Z-8.725
X-248.614 Y-35.509 Z-8.719
X-248.641 Y-35.456 Z-8.712
X-248.665 Y-35.402 Z-8.706
X-248.685 Y-35.346 Z-8.699
X-248.702 Y-35.289 Z-8.692
X-248.715 Y-35.231 Z-8.685
X-248.724 Y-35.172 Z-8.678
X-248.73 Y-35.113 Z-8.671
X-248.732 Y-35.054 Z-8.663
Y-34.945 Z-8.65
X-248.73 Y-34.886 Z-8.643
X-248.724 Y-34.826 Z-8.636
X-248.715 Y-34.768 Z-8.629
X-248.702 Y-34.71 Z-8.622
X-248.685 Y-34.653 Z-8.615
X-248.665 Y-34.597 Z-8.608
X-248.641 Y-34.542 Z-8.601
X-248.614 Y-34.489 Z-8.595
X-248.584 Y-34.438 Z-8.589
X-248.55 Y-34.389 Z-8.583
X-248.513 Y-34.342 Z-8.577
X-248.474 Y-34.298 Z-8.572
X-248.431 Y-34.256 Z-8.566
X-248.387 Y-34.216 Z-8.562
X-248.339 Y-34.18 Z-8.557
X-248.29 Y-34.147 Z-8.553
X-248.238 Y-34.116 Z-8.55
X-248.185 Y-34.089 Z-8.546
X-248.13 Y-34.066 Z-8.543
X-248.074 Y-34.046 Z-8.541
X-248.016 Y-34.029 Z-8.539
X-247.958 Y-34.016 Z-8.537
X-247.899 Y-34.007 Z-8.536
X-247.839 Y-34.001
X-247.779 Y-33.999 Z-8.535
G3 X-247.64 Z-8.568 I0. K-0.318
G2 X-247.5 Z-8.6 I0.14 K0.285
G1 X176.886
X178.918 Z-8.606
X180.096 Z-8.641
X181.499 Z-8.713
G2 X181.655 Z-8.681 I0.016 K0.317
G3 X181.795 Z-8.649 I0.14 K-0.285
G1 X181.855 Y-33.998 Z-8.648
X181.914 Y-33.992
X181.974 Y-33.983 Z-8.647
X182.032 Y-33.97 Z-8.645
X182.089 Y-33.953 Z-8.643
X182.146 Y-33.933 Z-8.641
X182.201 Y-33.909 Z-8.638
X182.254 Y-33.882 Z-8.634
X182.305 Y-33.852 Z-8.631
X182.355 Y-33.819 Z-8.627
X182.402 Y-33.782 Z-8.622
X182.447 Y-33.743 Z-8.618
X182.489 Y-33.701 Z-8.612
X182.529 Y-33.657 Z-8.607
X182.566 Y-33.61 Z-8.601
X182.599 Y-33.561 Z-8.595
X182.63 Y-33.509 Z-8.589
X182.657 Y-33.456 Z-8.583
X182.681 Y-33.402 Z-8.576
X182.701 Y-33.346 Z-8.569
X182.718 Y-33.289 Z-8.562
X182.731 Y-33.231 Z-8.555
X182.74 Y-33.172 Z-8.548
X182.746 Y-33.113 Z-8.541
X182.748 Y-33.054 Z-8.534
Y-32.945 Z-8.521
X182.746 Y-32.886 Z-8.513
X182.74 Y-32.827 Z-8.506
X182.731 Y-32.768 Z-8.499
X182.718 Y-32.71 Z-8.492
X182.701 Y-32.653 Z-8.485
X182.681 Y-32.597 Z-8.478
X182.657 Y-32.543 Z-8.472
X182.63 Y-32.49 Z-8.465
X182.599 Y-32.439 Z-8.459
X182.566 Y-32.389 Z-8.453
X182.529 Y-32.343 Z-8.447
X182.489 Y-32.298 Z-8.442
X182.447 Y-32.256 Z-8.437
X182.402 Y-32.217 Z-8.432
X182.355 Y-32.18 Z-8.428
X182.305 Y-32.147 Z-8.424
X182.254 Y-32.117 Z-8.42
X182.201 Y-32.09 Z-8.417
X182.146 Y-32.066 Z-8.414
X182.089 Y-32.046 Z-8.411
X182.032 Y-32.029 Z-8.409
X181.974 Y-32.016 Z-8.408
X181.914 Y-32.007 Z-8.407
X181.855 Y-32.002 Z-8.406
X181.795 Y-32.
X179.795
G2 X179.656 Z-8.438 I0. K-0.318
G3 X179.5 Z-8.47 I-0.14 K0.285
G1 X178.096 Z-8.399
X176.918 Z-8.363
X174.886 Z-8.357
X-247.5
G3 X-247.64 Z-8.325 I0. K0.317
G2 X-247.779 Z-8.292 I-0.14 K-0.285
G1 X-247.839 Y-31.998
X-247.899 Y-31.992
X-247.958 Y-31.983 Z-8.29
X-248.016 Y-31.97 Z-8.289
X-248.074 Y-31.953 Z-8.287
X-248.13 Y-31.933 Z-8.284
X-248.185 Y-31.91 Z-8.282
X-248.238 Y-31.883 Z-8.278
X-248.29 Y-31.853 Z-8.275
X-248.339 Y-31.819 Z-8.271
X-248.387 Y-31.783 Z-8.266
X-248.431 Y-31.743 Z-8.261
X-248.474 Y-31.701 Z-8.256
X-248.513 Y-31.657 Z-8.251
X-248.55 Y-31.61 Z-8.245
X-248.584 Y-31.561 Z-8.239
X-248.614 Y-31.51 Z-8.233
X-248.641 Y-31.457 Z-8.227
X-248.665 Y-31.402 Z-8.22
X-248.685 Y-31.346 Z-8.213
X-248.702 Y-31.289 Z-8.206
X-248.715 Y-31.231 Z-8.199
X-248.724 Y-31.173 Z-8.192
X-248.73 Y-31.114 Z-8.185
X-248.732 Y-31.054 Z-8.178
Y-30.946 Z-8.164
X-248.73 Y-30.886 Z-8.157
X-248.724 Y-30.827 Z-8.15
X-248.715 Y-30.768 Z-8.143
X-248.702 Y-30.71 Z-8.136
X-248.685 Y-30.653 Z-8.129
X-248.665 Y-30.597 Z-8.122
X-248.641 Y-30.543 Z-8.116
X-248.614 Y-30.49 Z-8.109
X-248.584 Y-30.439 Z-8.103
X-248.55 Y-30.39 Z-8.097
X-248.513 Y-30.343 Z-8.091
X-248.474 Y-30.298 Z-8.086
X-248.431 Y-30.256 Z-8.081
X-248.387 Y-30.217 Z-8.076
X-248.339 Y-30.181 Z-8.072
X-248.29 Y-30.147 Z-8.068
X-248.238 Y-30.117 Z-8.064
X-248.185 Y-30.09 Z-8.061
X-248.13 Y-30.066 Z-8.058
X-248.074 Y-30.046 Z-8.055
X-248.016 Y-30.03 Z-8.053
X-247.958 Y-30.017 Z-8.052
X-247.899 Y-30.007 Z-8.051
X-247.839 Y-30.002 Z-8.05
X-247.779 Y-30.
G3 X-247.64 Z-8.082 I0. K-0.318
G2 X-247.5 Z-8.114 I0.14 K0.285
G1 X172.887
X174.918 Z-8.12
X176.096 Z-8.156
X177.5 Z-8.227
G2 X177.656 Z-8.195 I0.016 K0.317
G3 X177.796 Z-8.163 I0.14 K-0.285
G1 X177.855 Y-29.998
X177.915 Y-29.993 Z-8.162
X177.974 Y-29.983 Z-8.161
X178.032 Y-29.97 Z-8.159
X178.09 Y-29.954 Z-8.157
X178.146 Y-29.934 Z-8.155
X178.201 Y-29.91 Z-8.152
X178.254 Y-29.883 Z-8.149
X178.306 Y-29.853 Z-8.145
X178.355 Y-29.819 Z-8.141
X178.403 Y-29.783 Z-8.137
X178.448 Y-29.744 Z-8.132
X178.49 Y-29.702 Z-8.127
X178.53 Y-29.657 Z-8.121
X178.566 Y-29.61 Z-8.116
X178.6 Y-29.561 Z-8.11
X178.63 Y-29.51 Z-8.103
X178.657 Y-29.457 Z-8.097
X178.681 Y-29.403 Z-8.09
X178.701 Y-29.347 Z-8.084
X178.718 Y-29.29 Z-8.077
X178.731 Y-29.232 Z-8.07
X178.741 Y-29.173 Z-8.063
X178.746 Y-29.114 Z-8.055
X178.748 Y-29.054 Z-8.048
Y-28.946 Z-8.035
X178.746 Y-28.886 Z-8.028
X178.741 Y-28.827 Z-8.021
X178.731 Y-28.769 Z-8.013
X178.718 Y-28.711 Z-8.006
X178.701 Y-28.654 Z-8.
X178.681 Y-28.598 Z-7.993
X178.657 Y-28.543 Z-7.986
X178.63 Y-28.49 Z-7.98
X178.6 Y-28.439 Z-7.973
X178.566 Y-28.39 Z-7.968
X178.53 Y-28.343 Z-7.962
X178.49 Y-28.299 Z-7.956
X178.448 Y-28.257 Z-7.951
X178.403 Y-28.217 Z-7.947
X178.355 Y-28.181 Z-7.942
X178.306 Y-28.147 Z-7.938
X178.254 Y-28.117 Z-7.934
X178.201 Y-28.09 Z-7.931
X178.146 Y-28.067 Z-7.928
X178.09 Y-28.047 Z-7.926
X178.032 Y-28.03 Z-7.924
X177.974 Y-28.017 Z-7.922
X177.915 Y-28.008 Z-7.921
X177.855 Y-28.002 Z-7.92
X177.796 Y-28.
X175.796
G2 X175.656 Z-7.953 I0. K-0.318
G3 X175.5 Z-7.985 I-0.14 K0.285
G1 X174.097 Z-7.913
X172.918 Z-7.877
X170.887 Z-7.872
X-247.5
G3 X-247.64 Z-7.839 I0. K0.318
G2 X-247.779 Z-7.807 I-0.14 K-0.285
G1 X-247.839 Y-27.998
X-247.899 Y-27.993 Z-7.806
X-247.958 Y-27.984 Z-7.805
X-248.016 Y-27.971 Z-7.803
X-248.074 Y-27.954 Z-7.801
X-248.13 Y-27.934 Z-7.799
X-248.185 Y-27.91 Z-7.796
X-248.238 Y-27.883 Z-7.793
X-248.29 Y-27.853 Z-7.789
X-248.339 Y-27.82 Z-7.785
X-248.387 Y-27.783 Z-7.78
X-248.431 Y-27.744 Z-7.776
X-248.474 Y-27.702 Z-7.771
X-248.513 Y-27.657 Z-7.765
X-248.55 Y-27.611 Z-7.76
X-248.584 Y-27.561 Z-7.754
X-248.614 Y-27.51 Z-7.747
X-248.641 Y-27.457 Z-7.741
X-248.665 Y-27.403 Z-7.734
X-248.685 Y-27.347 Z-7.728
X-248.702 Y-27.29 Z-7.721
X-248.715 Y-27.232 Z-7.714
X-248.724 Y-27.173 Z-7.706
X-248.73 Y-27.114 Z-7.699
X-248.732 Y-27.055 Z-7.692
Y-26.946 Z-7.679
X-248.73 Y-26.887 Z-7.672
X-248.724 Y-26.828 Z-7.664
X-248.715 Y-26.769 Z-7.657
X-248.702 Y-26.711 Z-7.65
X-248.685 Y-26.654 Z-7.643
X-248.665 Y-26.598 Z-7.637
X-248.641 Y-26.544 Z-7.63
X-248.614 Y-26.491 Z-7.624
X-248.584 Y-26.439 Z-7.617
X-248.55 Y-26.39 Z-7.611
X-248.513 Y-26.343 Z-7.606
X-248.474 Y-26.299 Z-7.6
X-248.431 Y-26.257 Z-7.595
X-248.387 Y-26.218 Z-7.59
X-248.339 Y-26.181 Z-7.586
X-248.29 Y-26.148 Z-7.582
X-248.238 Y-26.118 Z-7.578
X-248.185 Y-26.091 Z-7.575
X-248.13 Y-26.067 Z-7.572
X-248.074 Y-26.047 Z-7.57
X-248.016 Y-26.03 Z-7.568
X-247.958 Y-26.017 Z-7.566
X-247.899 Y-26.008 Z-7.565
X-247.839 Y-26.002 Z-7.564
X-247.779 Y-26.001
G3 X-247.64 Z-7.596 I0. K-0.318
G2 X-247.5 Z-7.629 I0.14 K0.285
G1 X168.887
X170.919 Z-7.635
X172.097 Z-7.67
X173.501 Z-7.742
G2 X173.656 Z-7.71 I0.016 K0.317
G3 X173.796 Z-7.677 I0.14 K-0.285
G1 X173.856 Y-25.999
X173.916 Y-25.993 Z-7.676
X173.975 Y-25.984 Z-7.675
X174.033 Y-25.971 Z-7.674
X174.091 Y-25.954 Z-7.672
X174.147 Y-25.934 Z-7.669
X174.202 Y-25.911 Z-7.666
X174.255 Y-25.884 Z-7.663
X174.307 Y-25.853 Z-7.659
X174.356 Y-25.82 Z-7.655
X174.403 Y-25.784 Z-7.651
X174.448 Y-25.744 Z-7.646
X174.491 Y-25.702 Z-7.641
X174.53 Y-25.658 Z-7.636
X174.567 Y-25.611 Z-7.63
X174.6 Y-25.562 Z-7.624
X174.631 Y-25.511 Z-7.618
X174.658 Y-25.458 Z-7.611
X174.682 Y-25.403 Z-7.605
X174.702 Y-25.347 Z-7.598
X174.719 Y-25.29 Z-7.591
X174.732 Y-25.232 Z-7.584
X174.741 Y-25.174 Z-7.577
X174.747 Y-25.114 Z-7.57
X174.749 Y-25.055 Z-7.563
Y-24.946 Z-7.549
X174.747 Y-24.887 Z-7.542
X174.741 Y-24.828 Z-7.535
X174.732 Y-24.769 Z-7.528
X174.719 Y-24.711 Z-7.521
X174.702 Y-24.654 Z-7.514
X174.682 Y-24.598 Z-7.507
X174.658 Y-24.544 Z-7.5
X174.631 Y-24.491 Z-7.494
X174.6 Y-24.44 Z-7.488
X174.567 Y-24.391 Z-7.482
X174.53 Y-24.344 Z-7.476
X174.491 Y-24.299 Z-7.471
X174.448 Y-24.257 Z-7.466
X174.403 Y-24.218 Z-7.461
X174.356 Y-24.181 Z-7.456
X174.307 Y-24.148 Z-7.452
X174.255 Y-24.118 Z-7.449
X174.202 Y-24.091 Z-7.445
X174.147 Y-24.067 Z-7.443
X174.091 Y-24.047 Z-7.44
X174.033 Y-24.031 Z-7.438
X173.975 Y-24.018 Z-7.437
X173.916 Y-24.008 Z-7.435
X173.856 Y-24.003
X173.796 Y-24.001
X171.796
G2 X171.657 Z-7.467 I0. K-0.318
G3 X171.501 Z-7.499 I-0.14 K0.285
G1 X170.097 Z-7.427
X168.919 Z-7.392
X166.887 Z-7.386
X-247.5
G3 X-247.64 Z-7.354 I0. K0.317
G2 X-247.779 Z-7.321 I-0.14 K-0.285
G1 X-247.839 Y-23.999
X-247.899 Y-23.993 Z-7.32
X-247.958 Y-23.984 Z-7.319
X-248.016 Y-23.971 Z-7.318
X-248.074 Y-23.955 Z-7.316
X-248.13 Y-23.934 Z-7.313
X-248.185 Y-23.911 Z-7.31
X-248.238 Y-23.884 Z-7.307
X-248.29 Y-23.854 Z-7.303
X-248.339 Y-23.82 Z-7.299
X-248.387 Y-23.784 Z-7.295
X-248.431 Y-23.745 Z-7.29
X-248.474 Y-23.703 Z-7.285
X-248.513 Y-23.658 Z-7.28
X-248.55 Y-23.611 Z-7.274
X-248.584 Y-23.562 Z-7.268
X-248.614 Y-23.511 Z-7.262
X-248.641 Y-23.458 Z-7.255
X-248.665 Y-23.403 Z-7.249
X-248.685 Y-23.347 Z-7.242
X-248.702 Y-23.29 Z-7.235
X-248.715 Y-23.232 Z-7.228
X-248.724 Y-23.174 Z-7.221
X-248.73 Y-23.115 Z-7.214
X-248.732 Y-23.055 Z-7.206
Y-22.947 Z-7.193
X-248.73 Y-22.887 Z-7.186
X-248.724 Y-22.828 Z-7.179
X-248.715 Y-22.77 Z-7.172
X-248.702 Y-22.712 Z-7.165
X-248.685 Y-22.655 Z-7.158
X-248.665 Y-22.599 Z-7.151
X-248.641 Y-22.544 Z-7.144
X-248.614 Y-22.491 Z-7.138
X-248.584 Y-22.44 Z-7.132
X-248.55 Y-22.391 Z-7.126
X-248.513 Y-22.344 Z-7.12
X-248.474 Y-22.299 Z-7.115
X-248.431 Y-22.257 Z-7.109
X-248.387 Y-22.218 Z-7.105
X-248.339 Y-22.182 Z-7.1
X-248.29 Y-22.148 Z-7.096
X-248.238 Y-22.118 Z-7.093
X-248.185 Y-22.091 Z-7.089
X-248.13 Y-22.068 Z-7.086
X-248.074 Y-22.047 Z-7.084
X-248.016 Y-22.031 Z-7.082
X-247.958 Y-22.018 Z-7.08
X-247.899 Y-22.009 Z-7.079
X-247.839 Y-22.003
X-247.779 Y-22.001 Z-7.078
G3 X-247.64 Z-7.111 I0. K-0.318
G2 X-247.5 Z-7.143 I0.14 K0.285
G1 X164.888
X166.919 Z-7.149
X168.098 Z-7.185
X169.501 Z-7.256
G2 X169.657 Z-7.224 I0.016 K0.317
G3 X169.797 Z-7.192 I0.14 K-0.285
G1 X169.857 Y-21.999 Z-7.191
X169.916 Y-21.994
X169.975 Y-21.984 Z-7.19
X170.034 Y-21.971 Z-7.188
X170.091 Y-21.955 Z-7.186
X170.147 Y-21.935 Z-7.184
X170.202 Y-21.911 Z-7.181
X170.256 Y-21.884 Z-7.178
X170.307 Y-21.854 Z-7.174
X170.357 Y-21.821 Z-7.17
X170.404 Y-21.784 Z-7.165
X170.449 Y-21.745 Z-7.161
X170.491 Y-21.703 Z-7.155
X170.531 Y-21.658 Z-7.15
X170.567 Y-21.611 Z-7.144
X170.601 Y-21.562 Z-7.138
X170.631 Y-21.511 Z-7.132
X170.659 Y-21.458 Z-7.126
X170.682 Y-21.404 Z-7.119
X170.703 Y-21.348 Z-7.112
X170.719 Y-21.291 Z-7.105
X170.732 Y-21.233 Z-7.098
X170.742 Y-21.174 Z-7.091
X170.747 Y-21.115 Z-7.084
X170.749 Y-21.056 Z-7.077
Y-20.947 Z-7.064
X170.747 Y-20.888 Z-7.056
X170.742 Y-20.828 Z-7.049
X170.732 Y-20.77 Z-7.042
X170.719 Y-20.712 Z-7.035
X170.703 Y-20.655 Z-7.028
X170.682 Y-20.599 Z-7.021
X170.659 Y-20.544 Z-7.015
X170.631 Y-20.491 Z-7.008
X170.601 Y-20.44 Z-7.002
X170.567 Y-20.391 Z-6.996
X170.531 Y-20.344 Z-6.991
X170.491 Y-20.3 Z-6.985
X170.449 Y-20.258 Z-6.98
X170.404 Y-20.218 Z-6.975
X170.357 Y-20.182 Z-6.971
X170.307 Y-20.149 Z-6.967
X170.256 Y-20.118 Z-6.963
X170.202 Y-20.091 Z-6.96
X170.147 Y-20.068 Z-6.957
X170.091 Y-20.048 Z-6.955
X170.034 Y-20.031 Z-6.952
X169.975 Y-20.018 Z-6.951
X169.916 Y-20.009 Z-6.95
X169.857 Y-20.003 Z-6.949
X169.797 Y-20.001
X167.797
G2 X167.657 Z-6.981 I0. K-0.318
G3 X167.501 Z-7.013 I-0.14 K0.285
G1 X166.098 Z-6.942
X164.92 Z-6.906
X162.888 Z-6.9
X-247.5
G3 X-247.64 Z-6.868 I0. K0.317
G2 X-247.779 Z-6.836 I-0.14 K-0.285
G1 X-247.839 Y-20. Z-6.835
X-247.899 Y-19.994
X-247.958 Y-19.985 Z-6.834
X-248.016 Y-19.972 Z-6.832
X-248.074 Y-19.955 Z-6.83
X-248.13 Y-19.935 Z-6.827
X-248.185 Y-19.911 Z-6.825
X-248.238 Y-19.884 Z-6.821
X-248.29 Y-19.854 Z-6.818
X-248.339 Y-19.821 Z-6.814
X-248.387 Y-19.784 Z-6.809
X-248.431 Y-19.745 Z-6.804
X-248.474 Y-19.703 Z-6.799
X-248.513 Y-19.659 Z-6.794
X-248.55 Y-19.612 Z-6.788
X-248.584 Y-19.563 Z-6.782
X-248.614 Y-19.511 Z-6.776
X-248.641 Y-19.458 Z-6.77
X-248.665 Y-19.404 Z-6.763
X-248.685 Y-19.348 Z-6.756
X-248.702 Y-19.291 Z-6.749
X-248.715 Y-19.233 Z-6.742
X-248.724 Y-19.174 Z-6.735
X-248.73 Y-19.115 Z-6.728
X-248.732 Y-19.056 Z-6.721
Y-18.947 Z-6.708
X-248.73 Y-18.888 Z-6.7
X-248.724 Y-18.829 Z-6.693
X-248.715 Y-18.77 Z-6.686
X-248.702 Y-18.712 Z-6.679
X-248.685 Y-18.655 Z-6.672
X-248.665 Y-18.599 Z-6.665
X-248.641 Y-18.545 Z-6.659
X-248.614 Y-18.492 Z-6.652
X-248.584 Y-18.441 Z-6.646
X-248.55 Y-18.391 Z-6.64
X-248.513 Y-18.345 Z-6.634
X-248.474 Y-18.3 Z-6.629
X-248.431 Y-18.258 Z-6.624
X-248.387 Y-18.219 Z-6.619
X-248.339 Y-18.182 Z-6.615
X-248.29 Y-18.149 Z-6.611
X-248.238 Y-18.119 Z-6.607
X-248.185 Y-18.092 Z-6.604
X-248.13 Y-18.068 Z-6.601
X-248.074 Y-18.048 Z-6.598
X-248.016 Y-18.031 Z-6.596
X-247.958 Y-18.018 Z-6.595
X-247.899 Y-18.009 Z-6.594
X-247.839 Y-18.004 Z-6.593
X-247.779 Y-18.002
G3 X-247.64 Z-6.625 I0. K-0.318
G2 X-247.5 Z-6.658 I0.14 K0.285
G1 X160.888
X162.92 Z-6.663
X164.098 Z-6.699
X165.502 Z-6.77
G2 X165.658 Z-6.738 I0.016 K0.317
G3 X165.797 Z-6.706 I0.14 K-0.285
G1 X165.857 Y-18.
X165.917 Y-17.994 Z-6.705
X165.976 Y-17.985 Z-6.704
X166.034 Y-17.972 Z-6.702
X166.092 Y-17.955 Z-6.7
X166.148 Y-17.935 Z-6.698
X166.203 Y-17.912 Z-6.695
X166.256 Y-17.885 Z-6.692
X166.308 Y-17.855 Z-6.688
X166.357 Y-17.821 Z-6.684
X166.404 Y-17.785 Z-6.68
X166.449 Y-17.745 Z-6.675
X166.492 Y-17.703 Z-6.67
X166.531 Y-17.659 Z-6.664
X166.568 Y-17.612 Z-6.659
X166.602 Y-17.563 Z-6.653
X166.632 Y-17.512 Z-6.647
X166.659 Y-17.459 Z-6.64
X166.683 Y-17.404 Z-6.634
X166.703 Y-17.348 Z-6.627
X166.72 Y-17.291 Z-6.62
X166.733 Y-17.233 Z-6.613
X166.742 Y-17.175 Z-6.606
X166.748 Y-17.116 Z-6.598
X166.75 Y-17.056 Z-6.591
Y-16.948 Z-6.578
X166.748 Y-16.888 Z-6.571
X166.742 Y-16.829 Z-6.564
X166.733 Y-16.77 Z-6.557
X166.72 Y-16.712 Z-6.55
X166.703 Y-16.655 Z-6.543
X166.683 Y-16.599 Z-6.536
X166.659 Y-16.545 Z-6.529
X166.632 Y-16.492 Z-6.523
X166.602 Y-16.441 Z-6.517
X166.568 Y-16.392 Z-6.511
X166.531 Y-16.345 Z-6.505
X166.492 Y-16.3 Z-6.499
X166.449 Y-16.258 Z-6.494
X166.404 Y-16.219 Z-6.49
X166.357 Y-16.183 Z-6.485
X166.308 Y-16.149 Z-6.481
X166.256 Y-16.119 Z-6.477
X166.203 Y-16.092 Z-6.474
X166.148 Y-16.068 Z-6.471
X166.092 Y-16.048 Z-6.469
X166.034 Y-16.032 Z-6.467
X165.976 Y-16.019 Z-6.465
X165.917 Y-16.009 Z-6.464
X165.857 Y-16.004 Z-6.463
X165.797 Y-16.002
X163.798
G2 X163.658 Z-6.496 I0. K-0.318
G3 X163.502 Z-6.528 I-0.14 K0.285
G1 X162.098 Z-6.456
X160.92 Z-6.42
X158.889 Z-6.415
X-247.5
G3 X-247.64 Z-6.382 I0. K0.318
G2 X-247.779 Z-6.35 I-0.14 K-0.285
G1 X-247.839 Y-16.
X-247.899 Y-15.995 Z-6.349
X-247.958 Y-15.985 Z-6.348
X-248.016 Y-15.972 Z-6.346
X-248.074 Y-15.956 Z-6.344
X-248.13 Y-15.936 Z-6.342
X-248.185 Y-15.912 Z-6.339
X-248.238 Y-15.885 Z-6.336
X-248.29 Y-15.855 Z-6.332
X-248.339 Y-15.821 Z-6.328
X-248.387 Y-15.785 Z-6.324
X-248.431 Y-15.746 Z-6.319
X-248.474 Y-15.704 Z-6.314
X-248.513 Y-15.659 Z-6.308
X-248.55 Y-15.612 Z-6.303
X-248.584 Y-15.563 Z-6.297
X-248.614 Y-15.512 Z-6.29
X-248.641 Y-15.459 Z-6.284
X-248.665 Y-15.405 Z-6.277
X-248.685 Y-15.349 Z-6.271
X-248.702 Y-15.292 Z-6.264
X-248.715 Y-15.234 Z-6.257
X-248.724 Y-15.175 Z-6.249
X-248.73 Y-15.116 Z-6.242
X-248.732 Y-15.056 Z-6.235
Y-14.948 Z-6.222
X-248.73 Y-14.888 Z-6.215
X-248.724 Y-14.829 Z-6.208
X-248.715 Y-14.771 Z-6.2
X-248.702 Y-14.713 Z-6.193
X-248.685 Y-14.656 Z-6.186
X-248.665 Y-14.6 Z-6.18
X-248.641 Y-14.545 Z-6.173
X-248.614 Y-14.492 Z-6.167
X-248.584 Y-14.441 Z-6.16
X-248.55 Y-14.392 Z-6.154
X-248.513 Y-14.345 Z-6.149
X-248.474 Y-14.301 Z-6.143
X-248.431 Y-14.259 Z-6.138
X-248.387 Y-14.219 Z-6.133
X-248.339 Y-14.183 Z-6.129
X-248.29 Y-14.149 Z-6.125
X-248.238 Y-14.119 Z-6.121
X-248.185 Y-14.092 Z-6.118
X-248.13 Y-14.069 Z-6.115
X-248.074 Y-14.049 Z-6.113
X-248.016 Y-14.032 Z-6.111
X-247.958 Y-14.019 Z-6.109
X-247.899 Y-14.01 Z-6.108
X-247.839 Y-14.004 Z-6.107
X-247.779 Y-14.002
G3 X-247.64 Z-6.139 I0. K-0.317
G2 X-247.5 Z-6.172 I0.14 K0.285
G1 X156.889
X158.92 Z-6.178
X160.099 Z-6.213
X161.502 Z-6.285
G2 X161.658 Z-6.253 I0.016 K0.317
G3 X161.798 Z-6.22 I0.14 K-0.285
G1 X161.858 Y-14.
X161.917 Y-13.995
X161.976 Y-13.986 Z-6.218
X162.035 Y-13.973 Z-6.217
X162.092 Y-13.956 Z-6.215
X162.149 Y-13.936 Z-6.212
X162.203 Y-13.912 Z-6.209
X162.257 Y-13.885 Z-6.206
X162.308 Y-13.855 Z-6.203
X162.358 Y-13.822 Z-6.198
X162.405 Y-13.785 Z-6.194
X162.45 Y-13.746 Z-6.189
X162.492 Y-13.704 Z-6.184
X162.532 Y-13.659 Z-6.179
X162.568 Y-13.613 Z-6.173
X162.602 Y-13.563 Z-6.167
X162.633 Y-13.512 Z-6.161
X162.66 Y-13.459 Z-6.154
X162.684 Y-13.405 Z-6.148
X162.704 Y-13.349 Z-6.141
X162.72 Y-13.292 Z-6.134
X162.734 Y-13.234 Z-6.127
X162.743 Y-13.175 Z-6.12
X162.749 Y-13.116 Z-6.113
X162.75 Y-13.057 Z-6.106
Y-12.948 Z-6.092
X162.749 Y-12.889 Z-6.085
X162.743 Y-12.83 Z-6.078
X162.734 Y-12.771 Z-6.071
X162.72 Y-12.713 Z-6.064
X162.704 Y-12.656 Z-6.057
X162.684 Y-12.6 Z-6.05
X162.66 Y-12.546 Z-6.044
X162.633 Y-12.493 Z-6.037
X162.602 Y-12.441 Z-6.031
X162.568 Y-12.392 Z-6.025
X162.532 Y-12.345 Z-6.019
X162.492 Y-12.301 Z-6.014
X162.45 Y-12.259 Z-6.009
X162.405 Y-12.22 Z-6.004
X162.358 Y-12.183 Z-6.
X162.308 Y-12.15 Z-5.995
X162.257 Y-12.12 Z-5.992
X162.203 Y-12.093 Z-5.989
X162.149 Y-12.069 Z-5.986
X162.092 Y-12.049 Z-5.983
X162.035 Y-12.032 Z-5.981
X161.976 Y-12.019 Z-5.98
X161.917 Y-12.01 Z-5.979
X161.858 Y-12.004 Z-5.978
X161.798 Y-12.003
X159.798
G2 X159.658 Z-6.01 I0. K-0.318
G3 X159.503 Z-6.042 I-0.14 K0.285
G1 X158.099 Z-5.97
X156.921 Z-5.935
X154.889 Z-5.929
X-247.5
G3 X-247.64 Z-5.897 I0. K0.318
G2 X-247.779 Z-5.864 I-0.14 K-0.285
G1 X-247.839 Y-12.001
X-247.899 Y-11.995 Z-5.863
X-247.958 Y-11.986 Z-5.862
X-248.016 Y-11.973 Z-5.861
X-248.074 Y-11.956 Z-5.859
X-248.13 Y-11.936 Z-5.856
X-248.185 Y-11.913 Z-5.853
X-248.238 Y-11.886 Z-5.85
X-248.29 Y-11.855 Z-5.846
X-248.339 Y-11.822 Z-5.842
X-248.387 Y-11.786 Z-5.838
X-248.431 Y-11.746 Z-5.833
X-248.474 Y-11.704 Z-5.828
X-248.513 Y-11.66 Z-5.823
X-248.55 Y-11.613 Z-5.817
X-248.584 Y-11.564 Z-5.811
X-248.614 Y-11.513 Z-5.805
X-248.641 Y-11.46 Z-5.798
X-248.665 Y-11.405 Z-5.792
X-248.685 Y-11.349 Z-5.785
X-248.702 Y-11.292 Z-5.778
X-248.715 Y-11.234 Z-5.771
X-248.724 Y-11.176 Z-5.764
X-248.73 Y-11.116 Z-5.757
X-248.732 Y-11.057 Z-5.749
Y-10.948 Z-5.736
X-248.73 Y-10.889 Z-5.729
X-248.724 Y-10.83 Z-5.722
X-248.715 Y-10.771 Z-5.715
X-248.702 Y-10.713 Z-5.708
X-248.685 Y-10.656 Z-5.701
X-248.665 Y-10.6 Z-5.694
X-248.641 Y-10.546 Z-5.687
X-248.614 Y-10.493 Z-5.681
X-248.584 Y-10.442 Z-5.675
X-248.55 Y-10.393 Z-5.669
X-248.513 Y-10.346 Z-5.663
X-248.474 Y-10.301 Z-5.658
X-248.431 Y-10.259 Z-5.653
X-248.387 Y-10.22 Z-5.648
X-248.339 Y-10.183 Z-5.643
X-248.29 Y-10.15 Z-5.639
X-248.238 Y-10.12 Z-5.636
X-248.185 Y-10.093 Z-5.632
X-248.13 Y-10.069 Z-5.63
X-248.074 Y-10.049 Z-5.627
X-248.016 Y-10.033 Z-5.625
X-247.958 Y-10.02 Z-5.623
X-247.899 Y-10.01 Z-5.622
X-247.839 Y-10.005
X-247.779 Y-10.003 Z-5.621
G3 X-247.64 Z-5.654 I0. K-0.317
G2 X-247.5 Z-5.686 I0.14 K0.285
G1 X152.889
X154.921 Z-5.692
X156.099 Z-5.728
X157.503 Z-5.799
G2 X157.659 Z-5.767 I0.016 K0.317
G3 X157.798 Z-5.735 I0.14 K-0.285
G1 X157.858 Y-10.001
X157.918 Y-9.995 Z-5.734
X157.977 Y-9.986 Z-5.733
X158.035 Y-9.973 Z-5.731
X158.093 Y-9.957 Z-5.729
X158.149 Y-9.936 Z-5.727
X158.204 Y-9.913 Z-5.724
X158.257 Y-9.886 Z-5.721
X158.309 Y-9.856 Z-5.717
X158.358 Y-9.822 Z-5.713
X158.406 Y-9.786 Z-5.708
X158.451 Y-9.747 Z-5.704
X158.493 Y-9.705 Z-5.699
X158.532 Y-9.66 Z-5.693
X158.569 Y-9.613 Z-5.687
X158.603 Y-9.564 Z-5.681
X158.633 Y-9.513 Z-5.675
X158.66 Y-9.46 Z-5.669
X158.684 Y-9.405 Z-5.662
X158.704 Y-9.349 Z-5.655
X158.721 Y-9.292 Z-5.649
X158.734 Y-9.234 Z-5.641
X158.743 Y-9.176 Z-5.634
X158.749 Y-9.117 Z-5.627
X158.751 Y-9.057 Z-5.62
Y-8.949 Z-5.607
X158.749 Y-8.889 Z-5.6
X158.743 Y-8.83 Z-5.592
X158.734 Y-8.772 Z-5.585
X158.721 Y-8.714 Z-5.578
X158.704 Y-8.657 Z-5.571
X158.684 Y-8.601 Z-5.565
X158.66 Y-8.546 Z-5.558
X158.633 Y-8.493 Z-5.551
X158.603 Y-8.442 Z-5.545
X158.569 Y-8.393 Z-5.539
X158.532 Y-8.346 Z-5.534
X158.493 Y-8.301 Z-5.528
X158.451 Y-8.259 Z-5.523
X158.406 Y-8.22 Z-5.518
X158.358 Y-8.184 Z-5.514
X158.309 Y-8.15 Z-5.51
X158.257 Y-8.12 Z-5.506
X158.204 Y-8.093 Z-5.503
X158.149 Y-8.07 Z-5.5
X158.093 Y-8.049 Z-5.498
X158.035 Y-8.033 Z-5.496
X157.977 Y-8.02 Z-5.494
X157.918 Y-8.011 Z-5.493
X157.858 Y-8.005 Z-5.492
X157.798 Y-8.003
X155.799
G2 X155.659 Z-5.524 I0. K-0.317
G3 X155.503 Z-5.556 I-0.14 K0.285
G1 X154.1 Z-5.485
X152.921 Z-5.449
X150.89 Z-5.443
X-247.5
G3 X-247.64 Z-5.411 I0. K0.318
G2 X-247.779 Z-5.379 I-0.14 K-0.285
G1 X-247.839 Y-8.001 Z-5.378
X-247.899 Y-7.996
X-247.958 Y-7.986 Z-5.377
X-248.016 Y-7.973 Z-5.375
X-248.074 Y-7.957 Z-5.373
X-248.13 Y-7.937 Z-5.371
X-248.185 Y-7.913 Z-5.368
X-248.238 Y-7.886 Z-5.364
X-248.29 Y-7.856 Z-5.361
X-248.339 Y-7.823 Z-5.357
X-248.387 Y-7.786 Z-5.352
X-248.431 Y-7.747 Z-5.348
X-248.474 Y-7.705 Z-5.342
X-248.513 Y-7.66 Z-5.337
X-248.55 Y-7.613 Z-5.331
X-248.584 Y-7.564 Z-5.325
X-248.614 Y-7.513 Z-5.319
X-248.641 Y-7.46 Z-5.313
X-248.665 Y-7.406 Z-5.306
X-248.685 Y-7.35 Z-5.299
