%
(CARPET RAMP RIGHT SMOOTH)
(T3  D=6.35 CR=0. - ZMIN=-17. - FLAT END MILL)
G90 G94 G17 G91.1
G21
G53 G0 Z0.
(POCKET1)
M9
T3 M6
(ENDMILL 14IN 6.35MM CARBIDE ROUGHING)
S20602 M3
G54
M9
G0 X177.824 Y-32.626
G43 Z10. H0
G0 Z4.25
G1 Z4.047 F333.33
G3 X177.836 Y-32.635 Z3.909 I1.765 J2.446 F1333.33
X177.873 Y-32.661 Z3.777 I1.753 J2.455
X177.933 Y-32.701 Z3.659 I1.716 J2.481
X178.015 Y-32.753 Z3.559 I1.656 J2.521
X178.115 Y-32.811 Z3.482 I1.574 J2.573
X178.229 Y-32.873 Z3.433 I1.474 J2.632
X178.354 Y-32.932 Z3.412 I1.359 J2.693
X180.824 Y-27.428 Z3.082 I1.235 J2.752
X178.354 Y-32.932 Z2.751 I-1.235 J-2.752
X180.824 Y-27.428 Z2.42 I1.235 J2.752
X178.354 Y-32.932 Z2.089 I-1.235 J-2.752
X180.824 Y-27.428 Z1.758 I1.235 J2.752
X178.354 Y-32.932 Z1.427 I-1.235 J-2.752
X180.824 Y-27.428 Z1.096 I1.235 J2.752
X178.354 Y-32.932 Z0.765 I-1.235 J-2.752
X180.824 Y-27.428 Z0.434 I1.235 J2.752
X178.354 Y-32.932 Z0.103 I-1.235 J-2.752
X180.824 Y-27.428 Z-0.227 I1.235 J2.752
X178.354 Y-32.932 Z-0.558 I-1.235 J-2.752
X180.824 Y-27.428 Z-0.889 I1.235 J2.752
X178.354 Y-32.932 Z-1.22 I-1.235 J-2.752
X180.824 Y-27.428 Z-1.551 I1.235 J2.752
X178.354 Y-32.932 Z-1.882 I-1.235 J-2.752
X180.824 Y-27.428 Z-2.213 I1.235 J2.752
X178.354 Y-32.932 Z-2.544 I-1.235 J-2.752
X180.824 Y-27.428 Z-2.875 I1.235 J2.752
X178.354 Y-32.932 Z-3.206 I-1.235 J-2.752
X179.589 Y-33.196 Z-3.25 I1.235 J2.752
G1 X179.644 F5000.
G3 X180.701 Y-32.139 I0. J1.057
G1 Y-31.547
G3 X179.178 Y-30.921 I-0.89 J0.
G2 X178.421 Y-31.675 I-48.819 J48.247
G3 X179.042 Y-33.196 I0.621 J-0.633
G1 X179.589
G2 X180.982 Y-34.305 I0. J-1.429
G3 X182.739 Y-34.589 I0.937 J0.215
X183.02 Y-33.589 I-1.646 J1.001
G1 Y-25.356
G3 X181.645 Y-24.837 I-0.785 J0.
G2 X177.18 Y-29.614 I-80.996 J71.22
X172.365 Y-34.037 I-50.521 J50.168
G3 X172.902 Y-35.515 I0.537 J-0.641
G1 X181.093
G3 X182.739 Y-34.589 I0. J1.926
G2 X184.928 Y-32.679 I4.105 J-2.495
G3 X186.521 Y-30.25 I-1.057 J2.429
G1 Y-22.909
G3 X184.594 Y-20.982 I-1.927 J0.
G1 X181.91
G3 X179.335 Y-22.159 I0. J-3.406
G1 X176.045 Y-25.959
G2 X172.183 Y-29.913 I-34.708 J30.045
X169.569 Y-32.105 I-29.389 J32.394
X166.84 Y-34.152 I-69.134 J89.302
X164.327 Y-35.861 I-28.601 J39.344
G3 X161.815 Y-37.57 I26.088 J-41.054
X162.285 Y-39.016 I0.47 J-0.647
G1 X184.594
G3 X186.521 Y-37.09 I0. J1.926
G1 Y-30.25
G2 X188.234 Y-27.68 I2.784 J0.
G3 X189.947 Y-25.111 I-1.071 J2.57
G1 Y-19.483
G3 X188.02 Y-17.556 I-1.927 J0.
G1 X181.501
G3 X176.986 Y-19.636 I0. J-5.94
G2 X173.556 Y-23.618 I-532.703 J455.379
X169.881 Y-27.375 I-33.319 J28.917
G1 X157.315 Y-36.898
G2 X153.502 Y-39.128 I-17.742 J25.953
G3 X149.548 Y-41.095 I383.49 J-775.899
X149.866 Y-42.442 I0.318 J-0.636
G1 X188.02 Y-42.443
G3 X189.947 Y-40.516 I0. J1.926
G1 Y-25.111
G2 X191.523 Y-22.747 I2.56 J0.
G3 X193.098 Y-20.384 I-0.985 J2.363
G1 Y-16.332
G3 X191.172 Y-14.405 I-1.927 J0.
G1 X179.869
G3 X175.514 Y-16.479 I0. J-5.607
G2 X171.802 Y-20.908 I-140.141 J113.703
X167.763 Y-25.041 I-36.323 J31.452
X158.503 Y-32.423 I-62.377 J68.754
X148.329 Y-38.485 I-47.224 J67.69
X140.605 Y-41.786 I-30.628 J60.967
X132.606 Y-44.349 I-43.637 J122.444
G3 X132.78 Y-45.594 I0.174 J-0.61
G1 X191.172
G3 X193.098 Y-43.667 I0. J1.926
G1 Y-20.384
G2 X194.537 Y-18.225 I2.338 J0.
G3 X195.976 Y-16.067 I-0.899 J2.158
G1 Y-13.454
G3 X194.05 Y-11.527 I-1.927 J0.
G1 X178.35
G3 X174.114 Y-13.611 I0. J-5.347
G2 X170.178 Y-18.444 I-91.65 J70.605
X165.829 Y-22.91 I-38.229 J32.879
X152.393 Y-32.704 I-52.341 J57.693
X137.436 Y-39.965 I-58.518 J101.509
X129.614 Y-42.408 I-19.514 J48.725
X121.609 Y-44.157 I-95.307 J417.095
X114.473 Y-45.38 I-20.663 J99.134
X107.249 Y-45.865 I-7.224 J53.591
G1 X-194.266 Y-45.593
G3 Y-48.472 I0. J-1.439
G1 X194.05
G3 X195.976 Y-46.545 I0. J1.926
G1 Y-16.067
G2 X198.317 Y-12.556 I3.804 J0.
G3 X200.657 Y-9.045 I-1.463 J3.511
G1 Y-8.773
G3 X198.731 Y-6.846 I-1.927 J0.
G1 X175.784
G3 X171.77 Y-8.912 I0. J-4.932
G2 X162.363 Y-19.387 I-51.32 J36.631
X151.27 Y-28.056 I-73.453 J82.552
X136.531 Y-35.328 I-32.938 J48.181
X120.654 Y-39.574 I-45.941 J139.99
X113.993 Y-40.724 I-19.909 J95.518
X107.249 Y-41.183 I-6.743 J49.203
G1 X-198.727 Y-40.912
G3 X-200.654 Y-42.839 I0. J-1.927
G1 Y-51.226
G3 X-198.728 Y-53.153 I1.926 J0.
G1 X198.731
G3 X200.657 Y-51.226 I0. J1.926
G1 Y-9.045
G2 X202.768 Y-5.889 I3.415 J0.
G3 X202.029 Y-2.165 I-0.739 J1.789
G1 X173.258 Y-2.164
G3 X169.245 Y-4.308 I0. J-4.829
G2 X165.016 Y-10.164 I-83.989 J56.189
X160.105 Y-15.462 I-33.02 J25.686
X144.195 Y-26.875 I-57.558 J63.443
X125.846 Y-33.71 I-31.619 J56.83
G1 X117.919 Y-35.363
G2 X109.363 Y-36.452 I-11.169 J53.585
G1 X-203.408 Y-36.231
G3 X-205.335 Y-38.157 I0. J-1.927
G1 X-205.336 Y-55.908
G3 X-203.41 Y-57.834 I1.926 J0.
G1 X203.412
G3 X205.339 Y-55.908 I0. J1.926
G1 Y-4.092
G3 X203.412 Y-2.165 I-1.927 J0.
G1 X202.029
G2 X198.518 Y0.176 I0. J3.804
G3 X195.007 Y2.516 I-3.511 J-1.463
G1 X170.739 Y2.517
G3 X166.755 Y0.389 I0. J-4.793
G1 X163.325 Y-4.738
G2 X159.732 Y-9.233 I-28.3 J18.933
X128.35 Y-28.249 I-50.423 J47.813
X118.846 Y-30.565 I-34.709 J121.749
X109.14 Y-31.776 I-12.769 J62.853
G1 X-208.089 Y-31.55
G3 X-210.016 Y-33.476 I0. J-1.927
G1 X-210.018 Y-60.589
G3 X-208.091 Y-62.515 I1.926 J0.
G1 X208.089
G3 X210.019 Y-60.588 I0. J1.929
G1 X210.02 Y0.59
G3 X208.093 Y2.516 I-1.927 J0.
G1 X195.007
G2 X191.497 Y4.857 I0. J3.804
G3 X187.986 Y7.198 I-3.511 J-1.463
G1 X168.016
G3 X164.266 Y5.119 I0. J-4.42
G2 X158.089 Y-3.825 I-99.38 J62.036
X150.318 Y-11.424 I-29.783 J22.682
X143.406 Y-16.355 I-279.544 J384.552
X135.939 Y-20.394 I-21.233 J30.333
X122.708 Y-24.875 I-47.781 J119.309
X108.916 Y-27.1 I-16.77 J60.087
G1 X-212.77 Y-26.868
G3 X-214.697 Y-28.795 I0. J-1.927
G1 X-214.699 Y-65.27
G3 X-212.773 Y-67.197 I1.926 J0.
G1 X212.516 Y-67.177
G3 X214.676 Y-65.02 I-0.078 J2.238
G1 X214.701 Y5.271
G3 X212.775 Y7.197 I-1.927 J0.
G1 X187.986 Y7.198
G2 X184.475 Y9.539 I0. J3.804
G3 X180.964 Y11.879 I-3.511 J-1.463
G1 X165. Y11.88
G3 X161.64 Y9.871 I0. J-3.815
G2 X156.531 Y1.656 I-67.621 J36.36
X150.102 Y-5.575 I-36.787 J26.232
X139.983 Y-12.859 I-37.176 J40.977
X128.734 Y-18.236 I-46.919 J83.69
X122.097 Y-20.188 I-13.567 J33.877
G1 X114.877 Y-21.585
G2 X111.084 Y-22.204 I-12.477 J64.498
X107.249 Y-22.458 I-3.835 J28.754
G1 X-217.451 Y-22.187
G3 X-219.378 Y-24.114 I0. J-1.927
G1 X-219.381 Y-69.951
G3 X-217.454 Y-71.878 I1.926 J0.
G1 X215.148 Y-71.656
G2 X215.553 Y-71.618 I1.058 J-9.134
G3 X215.957 Y-71.572 I-0.347 J4.878
X219.073 Y-68.461 I-0.574 J3.691
X219.264 Y-64.033 I-19.473 J3.058
G2 X219.111 Y-59.603 I63.003 J4.391
G1 X219.382 Y9.952
G3 X217.456 Y11.878 I-1.927 J0.
G1 X180.964 Y11.879
G2 X177.453 Y14.22 I0. J3.804
G3 X173.942 Y16.561 I-3.511 J-1.463
G1 X161.773
G3 X158.698 Y14.559 I0. J-3.362
G2 X144.862 Y-3.9 I-46.937 J20.767
X124.5 Y-14.743 I-35.419 J41.974
X115.98 Y-16.86 I-35.22 J123.543
X107.249 Y-17.777 I-8.731 J41.089
G1 X-222.132 Y-17.506
G3 X-224.059 Y-19.432 I0. J-1.927
G1 X-224.062 Y-74.633
G3 X-222.136 Y-76.559 I1.926 J0.
G1 X215.658 Y-76.062
G3 X219.233 Y-75.554 I-8.005 J69.119
X222.177 Y-73.464 I-0.691 J4.092
X223.392 Y-69.775 I-9.225 J5.082
X223.741 Y-65.907 I-45.068 J6.013
G1 X224.064 Y14.633
G3 X222.137 Y16.56 I-1.927 J0.
G1 X173.942 Y16.561
G2 X170.431 Y18.901 I0. J3.804
G3 X166.92 Y21.242 I-3.511 J-1.463
G1 X158.589
G3 X155.52 Y19.166 I0. J-3.307
X154.052 Y15.429 I265.286 J-106.344
G2 X152.204 Y11.865 I-16.882 J6.494
X148.597 Y6.63 I-192.536 J128.807
X144.378 Y1.873 I-23.949 J16.992
X133.571 Y-6.019 I-42.467 J46.809
X121.07 Y-10.796 I-21.092 J36.443
G3 X114.703 Y-12.187 I69.492 J-333.399
G2 X108.246 Y-13.072 I-8.219 J35.973
G1 X-226.813 Y-12.825
G3 X-228.74 Y-14.751 I0. J-1.927
G1 X-228.744 Y-79.314
G3 X-226.817 Y-81.24 I1.926 J0.
G1 X216.197 Y-80.713
G3 X222.208 Y-79.192 I-2.7 J23.315
X226.684 Y-74.901 I-3.071 J7.682
X228.388 Y-67.349 I-17.734 J7.97
X228.473 Y-59.609 I-370.076 J7.967
G1 X228.745 Y19.314
G3 X226.818 Y21.241 I-1.927 J0.
G1 X166.92 Y21.242
G2 X163.409 Y23.583 I0. J3.804
G3 X159.899 Y25.923 I-3.511 J-1.463
G1 X155.287 Y25.924
G3 X152.379 Y23.919 I0. J-3.112
X150.713 Y19.311 I134.405 J-51.193
G2 X148.609 Y14.885 I-20.362 J6.971
X140.61 Y4.953 I-45.214 J28.224
X130.226 Y-2.448 I-29.082 J29.817
X121.483 Y-5.828 I-21.786 J43.367
X112.313 Y-7.766 I-19.762 J70.824
G3 X109.793 Y-8.182 I9.698 J-66.619
G2 X107.249 Y-8.415 I-2.544 J13.782
G1 X-231.494 Y-8.143
G3 X-233.421 Y-10.07 I0. J-1.927
G1 X-233.425 Y-83.995
G3 X-231.499 Y-85.921 I1.926 J0.
G1 X216.736 Y-85.363
G3 X224.814 Y-83.095 I-3.059 J26.411
X230.78 Y-77.194 I-5.158 J11.182
X232.67 Y-70.847 I-19.528 J9.272
X233.149 Y-64.242 I-51.843 J7.078
G1 X233.426 Y23.995
G3 X231.5 Y25.922 I-1.927 J0.
G1 X159.899 Y25.923
G2 X156.388 Y28.264 I0. J3.804
G3 X152.877 Y30.605 I-3.511 J-1.463
G1 X151.377
G3 X148.91 Y28.608 I0. J-2.522
G2 X138.609 Y9.569 I-37.485 J7.976
X119.966 Y-1.432 I-30.388 J30.199
X114.204 Y-2.899 I-28.717 J100.732
X108.311 Y-3.696 I-7.534 J33.544
G1 X-236.175 Y-3.462
G3 X-238.102 Y-5.389 I0. J-1.927
G1 X-238.107 Y-88.676
G3 X-236.18 Y-90.603 I1.926 J0.
G1 X215.091 Y-90.213
G3 X225.727 Y-87.896 I-2.501 J37.058
X234.086 Y-80.924 I-5.879 J15.547
X236.683 Y-74.518 I-18.932 J11.402
X237.705 Y-67.681 I-42.374 J9.832
G1 X238.107 Y28.676
G3 X236.181 Y30.603 I-1.927 J0.
G1 X152.877 Y30.605
G2 X149.783 Y33.257 I0. J3.131
G3 X145.983 Y34.728 I-2.324 J-0.36
X145.096 Y33.275 I1.582 J-1.964
X144.571 Y30.145 I40.855 J-8.453
G2 X143.772 Y27.073 I-12.461 J1.603
X140.198 Y19.172 I-92.438 J37.055
X134.942 Y12.275 I-21.281 J10.766
X127.189 Y6.516 I-33.178 J36.571
X118.196 Y2.995 I-14.896 J24.8
X114.61 Y2.332 I-16.352 J78.451
X111.006 Y1.779 I-37.637 J233.235
G3 X109.519 Y1.482 I2.081 J-14.297
G2 X108.395 Y1.244 I-3.472 J13.624
X107.249 Y1.148 I-1.145 J6.763
G1 X-240.856 Y1.219
G3 X-242.783 Y-0.707 I0. J-1.927
G1 X-242.788 Y-93.358
G3 X-240.862 Y-95.284 I1.926 J0.
G1 X215.406 Y-94.884
G3 X228.166 Y-91.892 I-2.721 J40.317
X238.097 Y-83.34 I-8.035 J19.372
X241.148 Y-75.926 I-22.718 J13.682
X242.375 Y-68.004 I-45.961 J11.18
G1 X242.789 Y33.358
G3 X240.862 Y35.284 I-1.927 J0.
G1 X147.565 Y35.286
G3 X145.983 Y34.728 I0. J-2.522
G2 X142.494 Y33.138 I-4.851 J6.02
G3 X139.71 Y30.502 I0.615 J-3.439
G1 X139.554 Y29.842
G2 X139.486 Y29.619 I-1.788 J0.422
G1 X139.231 Y28.938
G2 X139.216 Y28.899 I-1.721 J0.645
G1 X137.305 Y24.133
G2 X137.28 Y24.073 I-1.706 J0.684
G1 X136.978 Y23.392
G2 X136.925 Y23.282 I-1.68 J0.743
G1 X136.885 Y23.204
G2 X136.816 Y23.085 I-1.627 J0.853
G1 X136.439 Y22.481
G2 X136.408 Y22.433 I-1.559 J0.973
G1 X133.675 Y18.347
G2 X133.626 Y18.278 I-1.527 J1.022
G1 X133.32 Y17.863
G2 X133.219 Y17.738 I-1.478 J1.091
G1 X132.382 Y16.791
G2 X132.338 Y16.743 I-1.377 J1.216
G1 X131.693 Y16.062
G2 X131.594 Y15.965 I-1.333 J1.264
G1 X131.027 Y15.451
G2 X130.873 Y15.325 I-1.235 J1.361
G1 X125.023 Y11.073
G2 X124.98 Y11.042 I-1.08 J1.486
G1 X124.681 Y10.838
G2 X124.469 Y10.713 I-1.037 J1.517
G1 X123.786 Y10.37
G2 X123.644 Y10.306 I-0.825 J1.642
G1 X118.179 Y8.118
G2 X118. Y8.056 I-0.683 J1.706
G1 X117.317 Y7.862
G2 X117.188 Y7.83 I-0.504 J1.767
G1 X111.04 Y6.549
G2 X110.93 Y6.529 I-0.375 J1.799
G1 X110.247 Y6.43
G2 X110.094 Y6.414 I-0.265 J1.818
G1 X109.087 Y6.352
X108.729 Y6.18
G2 X108.386 Y6.055 I-0.796 J1.656
G1 X108.216 Y6.012
G2 X107.85 Y5.957 I-0.454 J1.781
G1 X107.337 Y5.933
G2 X107.249 Y5.931 I-0.088 J1.835
G1 X-247.289
G2 X-247.384 Y5.933 I0. J1.838
G1 X-247.494 Y5.939
X-247.5 Y-99.783
X-247.497 Y-99.99
X-247.496 Y-99.995
X211.753 Y-99.996
X213.087 Y-99.976
X214.416 Y-99.93
X215.741 Y-99.855
X217.064 Y-99.751
X218.386 Y-99.614
X219.706 Y-99.445
X221.022 Y-99.24
X222.334 Y-98.999
X223.75 Y-98.689
X224.95 Y-98.387
X226.264 Y-98.009
X226.901 Y-97.808
X228.205 Y-97.356
X229.507 Y-96.84
X230.139 Y-96.566
X231.15 Y-96.094
X231.434 Y-95.957
X232.377 Y-95.463
X233.363 Y-94.896
X233.998 Y-94.498
X234.641 Y-94.074
X235.398 Y-93.542
X235.919 Y-93.154
X236.564 Y-92.638
X237. Y-92.275
X237.718 Y-91.638
X238.473 Y-90.911
X239.108 Y-90.25
X239.746 Y-89.533
X240.396 Y-88.746
X240.621 Y-88.462
X241.094 Y-87.828
X241.667 Y-87.004
X241.967 Y-86.547
X242.367 Y-85.911
X242.946 Y-84.906
X243.428 Y-83.989
X243.739 Y-83.347
X244.04 Y-82.701
X244.314 Y-82.068
X244.833 Y-80.768
X245.286 Y-79.47
X245.529 Y-78.7
X245.866 Y-77.528
X246.196 Y-76.223
X246.481 Y-74.917
X246.727 Y-73.609
X246.932 Y-72.298
X247.103 Y-70.983
X247.241 Y-69.667
X247.347 Y-68.347
X247.423 Y-67.025
X247.472 Y-65.701
X247.494 Y-64.371
X247.5 Y-59.62
Y39.783
X247.497 Y39.99
X247.496 Y39.995
X141.225 Y39.998
X141.23 Y39.929
G2 X141.232 Y39.687 I-1.833 J-0.131
G1 X141.109 Y37.645
G2 X141.1 Y37.537 I-1.834 J0.11
G1 X141.019 Y36.856
G2 X140.993 Y36.701 I-1.825 J0.217
G1 X139.725 Y30.573
G2 X139.714 Y30.523 I-1.799 J0.372
G1 X139.71 Y30.502
G3 X139.693 Y30.362 Z-3.234 I0.618 J-0.146 F1000.
X139.705 Y30.229 Z-3.187 I0.635 J-0.006
X139.741 Y30.114 Z-3.111 I0.622 J0.127
X139.786 Y30.024 Z-3.011 I0.587 J0.242
X139.829 Y29.962 Z-2.891 I0.541 J0.332
X139.86 Y29.926 Z-2.756 I0.498 J0.394
X139.871 Y29.915 Z-2.615 I0.468 J0.43
G0 Z5.
X196.531 Y-49.538
Z0.797
G3 X196.539 Y-49.526 Z0.659 I-2.446 J1.765 F1333.33
X196.565 Y-49.489 Z0.527 I-2.455 J1.753
X196.606 Y-49.429 Z0.409 I-2.481 J1.716
X196.657 Y-49.348 Z0.309 I-2.521 J1.656
X196.716 Y-49.247 Z0.232 I-2.573 J1.574
X196.777 Y-49.133 Z0.183 I-2.632 J1.474
X196.836 Y-49.009 Z0.162 I-2.693 J1.359
X191.333 Y-46.538 Z-0.168 I-2.752 J1.235
X196.836 Y-49.009 Z-0.499 I2.752 J-1.235
X191.333 Y-46.538 Z-0.83 I-2.752 J1.235
X196.836 Y-49.009 Z-1.161 I2.752 J-1.235
X191.333 Y-46.538 Z-1.492 I-2.752 J1.235
X196.836 Y-49.009 Z-1.823 I2.752 J-1.235
X191.333 Y-46.538 Z-2.154 I-2.752 J1.235
X196.836 Y-49.009 Z-2.485 I2.752 J-1.235
X191.333 Y-46.538 Z-2.816 I-2.752 J1.235
X196.836 Y-49.009 Z-3.147 I2.752 J-1.235
X191.333 Y-46.538 Z-3.477 I-2.752 J1.235
X196.836 Y-49.009 Z-3.808 I2.752 J-1.235
X191.333 Y-46.538 Z-4.139 I-2.752 J1.235
X196.836 Y-49.009 Z-4.47 I2.752 J-1.235
X191.333 Y-46.538 Z-4.801 I-2.752 J1.235
X196.836 Y-49.009 Z-5.132 I2.752 J-1.235
X191.333 Y-46.538 Z-5.463 I-2.752 J1.235
X196.836 Y-49.009 Z-5.794 I2.752 J-1.235
X191.333 Y-46.538 Z-6.125 I-2.752 J1.235
X196.836 Y-49.009 Z-6.456 I2.752 J-1.235
X197.101 Y-47.773 Z-6.5 I-2.752 J1.235
G1 Y-45.419 F5000.
G3 X195.594 Y-44.826 I-0.87 J0.
G2 X192.3 Y-48.094 I-42.893 J39.935
G3 X192.882 Y-49.596 I0.582 J-0.639
G1 X195.682
G3 X197.101 Y-48.177 I0. J1.419
G1 Y-47.773
G2 X198.888 Y-45.093 I2.904 J0.
G3 X200.675 Y-42.413 I-1.117 J2.68
G1 Y-35.144
G3 X199.245 Y-34.701 I-0.784 J0.
G2 X195.912 Y-39.299 I-89.002 J61.006
X192.201 Y-43.596 I-38.276 J29.311
X189.388 Y-46.207 I-26.945 J26.2
X186.424 Y-48.645 I-136.264 J162.681
X184.235 Y-50.213 I-14.696 J18.204
G3 X182.008 Y-51.724 I22.344 J-35.322
X182.478 Y-53.17 I0.47 J-0.647
G1 X198.748
G3 X200.675 Y-51.244 I0. J1.926
G1 Y-42.413
G2 X202.372 Y-39.867 I2.757 J0.
G3 X204.068 Y-37.322 I-1.061 J2.545
G1 Y-22.888
G3 X202.724 Y-22.573 I-0.709 J0.
G2 X196.97 Y-32.405 I-74.892 J37.229
X189.767 Y-41.23 I-54.275 J36.944
X183.48 Y-46.762 I-38.621 J37.553
X176.674 Y-51.642 I-115.687 J154.153
X173.663 Y-53.413 I-14.371 J20.991
G3 X170.551 Y-55.002 I86.576 J-173.474
G2 X170.327 Y-55.109 I-1.689 J3.237
G3 X170.103 Y-55.215 I1.746 J-3.986
X170.426 Y-56.564 I0.323 J-0.636
G1 X202.142
G3 X204.068 Y-54.637 I0. J1.926
G1 Y-37.322
G2 X205.64 Y-34.964 I2.554 J0.
G3 X207.212 Y-32.607 I-0.982 J2.358
G1 Y-4.412
G3 X206.009 Y-4.286 I-0.608 J0.
G2 X199.567 Y-22.261 I-68.53 J14.42
X188.603 Y-37.893 I-64.928 J33.876
X175.611 Y-48.588 I-44.525 J40.849
X160.569 Y-56.131 I-52.187 J85.304
X156.232 Y-57.49 I-10.985 J27.457
X151.8 Y-58.5 I-193.487 J838.783
G3 X151.934 Y-59.707 I0.134 J-0.597
G1 X205.285
G3 X207.212 Y-57.781 I0. J1.926
G1 Y-32.607
G2 X208.615 Y-30.502 I2.281 J0.
G3 X210.019 Y-28.396 I-0.877 J2.105
G1 X210.02 Y0.59
G3 X208.093 Y2.517 I-1.927 J0.
G1 X206.585
G3 X204.137 Y0.524 I0. J-2.499
X202.928 Y-5.607 I330.696 J-68.423
G2 X201.189 Y-11.608 I-31.852 J5.978
X193.134 Y-27.538 I-92.776 J36.909
X181.302 Y-40.903 I-45.561 J28.415
X162.104 Y-52.438 I-51.079 J63.272
X140.399 Y-57.961 I-28.681 J67.299
X134.762 Y-58.415 I-17.868 J186.518
X129.11 Y-58.6 I-5.653 J86.417
G1 X-208.093 Y-58.332
G3 X-210.02 Y-60.259 I0. J-1.927
G1 Y-60.588
G3 X-208.093 Y-62.515 I1.926 J0.
G1 X208.089
G3 X210.018 Y-60.588 I0. J1.929
G1 X210.019 Y-28.396
G2 X212.355 Y-24.894 I3.793 J0.
G3 X214.691 Y-21.392 I-1.459 J3.504
G1 X214.701 Y5.271
G3 X212.774 Y7.198 I-1.927 J0.
G1 X202.5
G3 X200.259 Y5.265 I0. J-2.266
G2 X197.536 Y-7.341 I-97.674 J14.501
X192.745 Y-19.316 I-60.624 J17.308
X176.068 Y-39.173 I-53.682 J28.154
X152.892 Y-50.806 I-41.597 J53.969
X142.474 Y-52.88 I-18.619 J66.307
X131.895 Y-53.833 I-21.406 J178.476
G1 X-212.774 Y-53.651
G3 X-214.701 Y-55.578 I0. J-1.927
G1 Y-65.27
G3 X-212.774 Y-67.196 I1.926 J0.
G1 X212.515 Y-67.177
G3 X214.676 Y-65.02 I-0.078 J2.238
G1 X214.691 Y-21.392
G2 X216.989 Y-17.966 I3.704 J-0.001
G3 X219.287 Y-14.541 I-1.426 J3.44
G1 X219.382 Y9.952
G3 X217.456 Y11.879 I-1.927 J0.
G1 X198.108 Y11.88
G3 X196.036 Y9.938 I0. J-2.077
G2 X191.222 Y-11.266 I-68.775 J4.465
X179.635 Y-29.665 I-56.245 J22.572
X163.662 Y-41.465 I-38.301 J35.139
X144.841 Y-47.801 I-35.851 J75.369
X138.251 Y-48.721 I-10.171 J48.798
X131.613 Y-49.16 I-41.013 J569.248
G1 X-217.456 Y-48.97
G3 X-219.382 Y-50.896 I0. J-1.927
G1 Y-69.951
G3 X-217.456 Y-71.878 I1.926 J0.
G1 X215.148 Y-71.656
G2 X215.553 Y-71.618 I1.058 J-9.133
G3 X215.957 Y-71.572 I-0.347 J4.877
X219.073 Y-68.461 I-0.574 J3.691
X219.264 Y-64.033 I-19.473 J3.058
G2 X219.111 Y-59.603 I63. J4.391
G1 X219.287 Y-14.541
G2 X221.631 Y-11.055 I3.786 J-0.015
G3 X223.974 Y-7.569 I-1.443 J3.501
G1 X224.063 Y14.633
G3 X222.137 Y16.56 I-1.927 J0.
G1 X193.696 Y16.561
G3 X191.626 Y14.611 I0. J-2.074
X191.399 Y9.28 I155.021 J-9.277
G2 X190.788 Y3.979 I-29.905 J0.76
X184.073 Y-15.537 I-79.559 J16.461
X170.769 Y-31.315 I-38.641 J19.084
X159.854 Y-38.084 I-51.498 J70.86
X147.761 Y-42.41 I-21.612 J41.34
X142.651 Y-43.45 I-111.959 J537.141
X137.479 Y-44.117 I-7.488 J37.713
G3 X133.298 Y-44.399 I17.378 J-288.011
G2 X129.11 Y-44.556 I-4.189 J55.9
G1 X-222.137 Y-44.289
G3 X-224.063 Y-46.215 I0. J-1.927
G1 Y-74.632
G3 X-222.137 Y-76.559 I1.926 J0.
G1 X215.658 Y-76.062
G3 X219.233 Y-75.554 I-8.006 J69.126
X222.177 Y-73.464 I-0.691 J4.092
X223.392 Y-69.775 I-9.225 J5.082
X223.74 Y-65.907 I-45.068 J6.013
G1 X223.974 Y-7.569
G2 X226.325 Y-4.07 I3.802 J-0.015
G3 X228.676 Y-0.571 I-1.448 J3.512
G1 X228.745 Y19.315
G3 X226.818 Y21.241 I-1.927 J0.
G1 X189.034 Y21.243
G3 X187.108 Y19.317 I0. J-1.926
G2 X185.893 Y4.119 I-95.681 J0.
X181.453 Y-10.466 I-55.522 J8.932
X169.227 Y-26.487 I-41.871 J19.276
X151.713 Y-36.46 I-36.011 J42.879
X141.22 Y-38.96 I-17.373 J49.64
X130.469 Y-39.842 I-14.294 J108.33
G1 X-226.818 Y-39.607
G3 X-228.745 Y-41.534 I0. J-1.927
G1 Y-79.314
G3 X-226.818 Y-81.24 I1.926 J0.
G1 X216.197 Y-80.713
G3 X222.208 Y-79.192 I-2.7 J23.315
X226.684 Y-74.901 I-3.071 J7.682
X228.388 Y-67.349 I-17.734 J7.97
X228.473 Y-59.609 I-370.081 J7.967
G1 X228.676 Y-0.571
G2 X231.024 Y2.925 I3.797 J-0.013
G3 X233.371 Y6.422 I-1.448 J3.508
G1 X233.426 Y23.996
G3 X231.5 Y25.922 I-1.927 J0.
G1 X184.353 Y25.924
G3 X182.426 Y23.998 I0. J-1.926
X182.565 Y20.181 I52.52 J0.
G2 X182.59 Y16.361 I-28.77 J-2.097
X180.587 Y1.133 I-108.071 J6.467
X174.67 Y-13.041 I-39.088 J7.995
X162.245 Y-25.975 I-42.536 J28.427
X145.85 Y-33.245 I-25.096 J34.473
G1 X141.413 Y-34.17
G2 X136.915 Y-34.771 I-6.382 J30.618
G3 X133.015 Y-35.041 I13.267 J-219.867
G2 X129.109 Y-35.193 I-3.907 J49.974
G1 X-231.5 Y-34.926
G3 X-233.426 Y-36.853 I0. J-1.927
G1 Y-83.995
G3 X-231.5 Y-85.921 I1.926 J0.
G1 X216.736 Y-85.363
G3 X224.814 Y-83.095 I-3.059 J26.411
X230.78 Y-77.194 I-5.158 J11.182
X232.67 Y-70.847 I-19.528 J9.272
X233.149 Y-64.242 I-51.843 J7.078
G1 X233.371 Y6.422
G2 X235.707 Y9.897 I3.771 J-0.012
G3 X238.043 Y13.372 I-1.44 J3.491
G1 X238.107 Y28.677
G3 X236.181 Y30.603 I-1.927 J0.
G1 X179.671 Y30.606
G3 X177.745 Y28.68 I0. J-1.926
X177.938 Y22.661 I94.145 J0.
G2 X177.95 Y16.639 I-48.595 J-3.113
X174.971 Y-0.951 I-82.583 J4.942
X166.275 Y-16.529 I-37.131 J10.51
X161.811 Y-20.628 I-26.086 J23.932
X156.787 Y-24.018 I-29.245 J37.916
X148.012 Y-27.906 I-21.468 J36.611
X138.623 Y-29.899 I-15.208 J48.524
X133.875 Y-30.342 I-12.578 J109.181
X129.109 Y-30.512 I-4.766 J66.732
G1 X-236.181 Y-30.245
G3 X-238.107 Y-32.171 I0. J-1.927
G1 Y-88.676
G3 X-236.181 Y-90.603 I1.926 J0.
G1 X215.091 Y-90.213
G3 X225.727 Y-87.896 I-2.501 J37.058
X234.086 Y-80.924 I-5.879 J15.547
X236.683 Y-74.518 I-18.932 J11.402
X237.705 Y-67.681 I-42.374 J9.832
G1 X238.043 Y13.372
G2 X240.389 Y16.86 I3.789 J-0.016
G3 X242.736 Y20.348 I-1.443 J3.503
G1 X242.789 Y33.358
G3 X240.862 Y35.284 I-1.927 J0.
G1 X174.99 Y35.287
G3 X173.064 Y33.361 I0. J-1.926
G1 X173.277 Y16.919
G2 X170.661 Y0.877 I-79.741 J4.772
X162.826 Y-13.364 I-33.091 J8.93
X158.869 Y-16.986 I-22.702 J20.828
X154.419 Y-19.98 I-26.39 J34.42
X146.528 Y-23.466 I-19.118 J32.603
X138.087 Y-25.249 I-13.731 J44.137
X133.607 Y-25.669 I-12.102 J105.05
X129.109 Y-25.831 I-4.498 J62.247
G1 X-240.862 Y-25.564
G3 X-242.789 Y-27.49 I0. J-1.927
G1 Y-93.357
G3 X-240.862 Y-95.284 I1.926 J0.
G1 X215.406 Y-94.884
G3 X228.166 Y-91.892 I-2.721 J40.317
X238.097 Y-83.34 I-8.035 J19.372
X241.148 Y-75.926 I-22.718 J13.682
X242.375 Y-68.004 I-45.961 J11.18
G1 X242.736 Y20.348
G2 X245.118 Y23.912 I3.88 J-0.016
G3 X247.5 Y27.475 I-1.474 J3.564
G1 Y39.783
X247.497 Y39.99
X247.496 Y39.995
X168.341 Y39.999
G2 X168.352 Y39.797 I-1.826 J-0.202
G1 Y18.688
G2 Y18.643 I-1.837 J0.
G1 X168.335 Y17.962
G2 X168.334 Y17.929 I-1.837 J0.045
G1 X168.305 Y17.248
G2 X168.303 Y17.216 I-1.836 J0.078
G1 X167.977 Y11.769
G2 X167.975 Y11.729 I-1.834 J0.11
G1 X167.919 Y11.048
G2 X167.915 Y11.003 I-1.831 J0.149
G1 X167.825 Y10.157
G2 X167.803 Y10.012 I-1.827 J0.195
G1 X167.578 Y8.815
G2 X167.572 Y8.782 I-1.806 J0.34
G1 X166.585 Y4.016
G2 X166.56 Y3.909 I-1.799 J0.372
G1 X166.376 Y3.228
G2 X166.366 Y3.191 I-1.774 J0.479
G1 X166.167 Y2.51
G2 X166.111 Y2.347 I-1.764 J0.516
G1 X164.972 Y-0.514
X164.207 Y-2.424
G2 X164.17 Y-2.509 I-1.706 J0.684
G1 X163.857 Y-3.19
G2 X163.815 Y-3.275 I-1.669 J0.768
G1 X163.458 Y-3.956
G2 X163.371 Y-4.104 I-1.627 J0.853
G1 X162.757 Y-5.05
G2 X162.743 Y-5.07 I-1.541 J1.001
G1 X161.1 Y-7.528
G2 X161.089 Y-7.545 I-1.528 J1.021
G1 X160.623 Y-8.226
G2 X160.559 Y-8.313 I-1.516 J1.038
G1 X160.032 Y-8.994
G2 X159.958 Y-9.084 I-1.453 J1.125
G1 X159.179 Y-9.968
G2 X159.154 Y-9.995 I-1.379 J1.215
G1 X158.716 Y-10.473
G2 X158.679 Y-10.512 I-1.354 J1.242
G1 X158.434 Y-10.764
G2 X158.347 Y-10.848 I-1.317 J1.281
G1 X157.664 Y-11.463
G2 X157.588 Y-11.528 I-1.23 J1.365
G1 X156.905 Y-12.08
G2 X156.831 Y-12.137 I-1.154 J1.43
G1 X152.732 Y-15.115
G2 X152.69 Y-15.145 I-1.08 J1.486
G1 X152.007 Y-15.613
G2 X151.898 Y-15.682 I-1.038 J1.516
G1 X151.215 Y-16.082
G2 X151.136 Y-16.126 I-0.929 J1.585
G1 X150.453 Y-16.483
G2 X150.285 Y-16.56 I-0.85 J1.629
G1 X145.503 Y-18.473
G2 X145.428 Y-18.501 I-0.683 J1.706
G1 X144.745 Y-18.74
G2 X144.635 Y-18.775 I-0.607 J1.734
G1 X143.951 Y-18.967
G2 X143.86 Y-18.99 I-0.497 J1.769
G1 X142.953 Y-19.195
G2 X142.923 Y-19.201 I-0.405 J1.792
G1 X139.048 Y-20.009
G2 X139.02 Y-20.015 I-0.375 J1.799
G1 X137.654 Y-20.278
G2 X137.517 Y-20.299 I-0.347 J1.804
G1 X136.834 Y-20.377
G2 X136.799 Y-20.381 I-0.21 J1.825
G1 X136.116 Y-20.447
G2 X136.051 Y-20.452 I-0.175 J1.829
G1 X129.903 Y-20.823
G2 X129.852 Y-20.825 I-0.111 J1.834
G1 X129.169 Y-20.847
G2 X129.109 Y-20.848 I-0.06 J1.837
G1 X-247.289 Y-20.852
G2 X-247.5 Y-20.84 I0. J1.837
G1 Y-99.783
X-247.497 Y-99.99
X-247.496 Y-99.995
X211.753 Y-99.996
X213.087 Y-99.976
X214.416 Y-99.93
X215.741 Y-99.855
X217.064 Y-99.751
X218.386 Y-99.614
X219.706 Y-99.445
X221.022 Y-99.24
X222.334 Y-98.999
X223.75 Y-98.689
X224.95 Y-98.387
X226.264 Y-98.009
X226.901 Y-97.808
X228.205 Y-97.356
X229.507 Y-96.84
X230.139 Y-96.566
X231.15 Y-96.094
X231.434 Y-95.957
X232.377 Y-95.463
X233.363 Y-94.896
X233.998 Y-94.498
X234.641 Y-94.074
X235.398 Y-93.542
X235.919 Y-93.154
X236.564 Y-92.638
X237. Y-92.275
X237.718 Y-91.638
X238.473 Y-90.911
X239.108 Y-90.25
X239.746 Y-89.533
X240.396 Y-88.746
X240.621 Y-88.462
X241.094 Y-87.828
X241.667 Y-87.004
X241.967 Y-86.547
X242.367 Y-85.911
X242.946 Y-84.906
X243.428 Y-83.989
X243.739 Y-83.347
X244.04 Y-82.701
X244.314 Y-82.068
X244.833 Y-80.768
X245.286 Y-79.47
X245.529 Y-78.7
X245.866 Y-77.528
X246.196 Y-76.223
X246.481 Y-74.917
X246.727 Y-73.609
X246.932 Y-72.298
X247.103 Y-70.983
X247.241 Y-69.667
X247.347 Y-68.347
X247.423 Y-67.025
X247.472 Y-65.701
X247.494 Y-64.371
X247.5 Y-59.62
Y27.475
G3 X247.484 Y27.616 Z-6.484 I-0.635 J0. F1000.
X247.441 Y27.742 Z-6.437 I-0.619 J-0.14
X247.381 Y27.846 Z-6.361 I-0.576 J-0.267
X247.316 Y27.923 Z-6.261 I-0.516 J-0.371
X247.259 Y27.973 Z-6.141 I-0.451 J-0.447
X247.221 Y28.001 Z-6.006 I-0.394 J-0.498
X247.208 Y28.01 Z-5.865 I-0.356 J-0.526
G0 Z5.
X211.633 Y-65.219
Z4.25
G1 Z-2.453 F333.33
G3 X211.642 Y-65.206 Z-2.591 I-2.444 J1.768 F1333.33
X211.668 Y-65.17 Z-2.723 I-2.453 J1.756
X211.709 Y-65.109 Z-2.841 I-2.479 J1.719
X211.761 Y-65.028 Z-2.941 I-2.519 J1.659
X211.819 Y-64.928 Z-3.018 I-2.571 J1.577
X211.881 Y-64.813 Z-3.067 I-2.63 J1.477
X211.94 Y-64.689 Z-3.088 I-2.691 J1.363
X206.439 Y-62.212 Z-3.418 I-2.75 J1.238
X211.94 Y-64.689 Z-3.749 I2.75 J-1.238
X206.439 Y-62.212 Z-4.08 I-2.75 J1.238
X211.94 Y-64.689 Z-4.411 I2.75 J-1.238
X206.439 Y-62.212 Z-4.742 I-2.75 J1.238
X211.94 Y-64.689 Z-5.073 I2.75 J-1.238
X206.439 Y-62.212 Z-5.404 I-2.75 J1.238
X211.94 Y-64.689 Z-5.735 I2.75 J-1.238
X206.439 Y-62.212 Z-6.066 I-2.75 J1.238
X211.94 Y-64.689 Z-6.397 I2.75 J-1.238
X206.439 Y-62.212 Z-6.727 I-2.75 J1.238
X211.94 Y-64.689 Z-7.058 I2.75 J-1.238
X206.439 Y-62.212 Z-7.389 I-2.75 J1.238
X211.94 Y-64.689 Z-7.72 I2.75 J-1.238
X206.439 Y-62.212 Z-8.051 I-2.75 J1.238
X211.94 Y-64.689 Z-8.382 I2.75 J-1.238
X206.439 Y-62.212 Z-8.713 I-2.75 J1.238
X211.94 Y-64.689 Z-9.044 I2.75 J-1.238
X206.439 Y-62.212 Z-9.375 I-2.75 J1.238
X211.94 Y-64.689 Z-9.706 I2.75 J-1.238
X212.206 Y-63.454 Z-9.75 I-2.75 J1.238
G1 X212.207 Y-62.536 F5000.
G3 X210.688 Y-61.927 I-0.881 J0.001
G2 X209.423 Y-63.198 I-29.821 J28.441
G3 X210.028 Y-64.706 I0.605 J-0.633
G1 X211.149
G3 X212.206 Y-63.65 I0. J1.057
G1 Y-63.454
G2 X213.444 Y-61.51 I2.149 J-0.003
G3 X214.683 Y-59.566 I-0.912 J1.948
G2 X214.75 Y-57.472 I34.767 J-0.056
G3 X214.816 Y-55.343 I-34.021 J2.129
X213.372 Y-54.86 I-0.803 J0.
G2 X205.315 Y-63.549 I-46.642 J35.168
X203.78 Y-64.742 I-10.289 J11.659
G3 X202.192 Y-65.864 I31.971 J-46.937
X202.665 Y-67.312 I0.474 J-0.647
G2 X207.471 Y-67.331 I0. J-611.151
G3 X212.276 Y-67.29 I1.157 J147.144
G2 X212.441 Y-67.289 I0.095 J-3.825
G3 X212.606 I0.074 J2.622
X214.788 Y-65.111 I-0.078 J2.26
X214.76 Y-62.355 I-29.617 J1.082
G2 X214.683 Y-59.6 I48.181 J2.726
Y-59.566 I34.767 J-0.021
X216.405 Y-57.02 I2.749 J-0.004
G3 X218.127 Y-54.474 I-1.058 J2.571
G1 X218.229 Y-43.219
G3 X216.88 Y-42.892 I-0.714 J0.
G2 X209.445 Y-54.398 I-62.228 J32.052
X199.569 Y-63.891 I-40.29 J32.028
X195.092 Y-66.818 I-29.667 J40.502
X190.395 Y-69.377 I-50.295 J86.711
G3 X190.719 Y-70.724 I0.324 J-0.635
G1 X215.231 Y-70.508
G3 X218.008 Y-67.735 I-0.409 J3.187
G1 X218.127 Y-54.474
G2 X219.687 Y-52.163 I2.526 J-0.023
G3 X221.246 Y-49.852 I-0.948 J2.321
G1 X221.359 Y-22.216
G3 X220.17 Y-22.105 I-0.6 J0.
G2 X218.532 Y-29.874 I-180.161 J33.92
X216.145 Y-37.447 I-50.972 J11.903
X202.69 Y-56.987 I-50.055 J20.065
X182.585 Y-69.582 I-43.462 J47.031
X176.172 Y-71.443 I-13.408 J34.229
X169.608 Y-72.672 I-100.654 J519.315
G3 X169.714 Y-73.855 I0.106 J-0.586
G1 X215.373 Y-73.597
G2 X216.136 Y-73.521 I2.769 J-23.905
G3 X216.895 Y-73.42 I-0.647 J7.735
X220.917 Y-69.411 I-0.909 J4.934
X221.163 Y-66.895 I-14.094 J2.646
G1 X221.188 Y-64.134
X221.246 Y-49.852
G2 X222.533 Y-47.938 I2.079 J-0.009
G3 X223.82 Y-46.024 I-0.792 J1.922
G1 X224.064 Y14.634
G3 X222.137 Y16.561 I-1.927 J0.
G1 X220.48
G3 X218.553 Y14.635 I0. J-1.926
G1 X218.695 Y-12.119
G2 X214.963 Y-32.897 I-89.526 J5.357
X204.669 Y-51.328 I-47.621 J14.507
X186.016 Y-65.253 I-42.561 J37.557
X163.45 Y-70.961 I-26.368 J56.776
G1 X159.216 Y-71.219
G2 X155.751 Y-71.324 I-3.465 J56.951
G1 X-222.137 Y-71.053
G3 X-224.064 Y-72.98 I0. J-1.926
G1 Y-74.633
G3 X-222.137 Y-76.559 I1.926 J0.
G1 X215.658 Y-76.062
G3 X219.233 Y-75.554 I-8.004 J69.112
X222.177 Y-73.464 I-0.691 J4.092
X223.392 Y-69.775 I-9.225 J5.082
X223.741 Y-65.907 I-45.068 J6.013
G1 X223.82 Y-46.024
G2 X226.182 Y-42.509 I3.82 J-0.015
G3 X228.544 Y-38.993 I-1.455 J3.528
G1 X228.745 Y19.315
G3 X226.818 Y21.242 I-1.927 J0.
G1 X215.799 Y21.243
G3 X213.872 Y19.317 I0. J-1.926
G1 X214.022 Y-11.839
G2 X210.636 Y-31.111 I-85.713 J5.129
X201.159 Y-48.231 I-43.484 J12.888
X183.962 Y-61.046 I-39.06 J34.467
X163.166 Y-66.289 I-24.315 J52.584
G1 X158.932 Y-66.547
G2 X155.751 Y-66.643 I-3.181 J52.278
G1 X-226.818 Y-66.372
G3 X-228.745 Y-68.299 I0. J-1.926
G1 Y-79.314
G3 X-226.818 Y-81.24 I1.926 J0.
G1 X216.197 Y-80.713
G3 X222.208 Y-79.192 I-2.7 J23.315
X226.684 Y-74.901 I-3.071 J7.682
X228.388 Y-67.35 I-17.734 J7.97
X228.473 Y-59.609 I-370.07 J7.967
G1 X228.544 Y-38.993
G2 X230.897 Y-35.488 I3.806 J-0.013
G3 X233.25 Y-31.984 I-1.452 J3.517
G1 X233.426 Y23.996
G3 X231.5 Y25.923 I-1.927 J0.
G1 X211.117 Y25.924
G3 X209.191 Y23.998 I0. J-1.926
G1 X209.35 Y-11.56
G2 X206.308 Y-29.326 I-82.122 J4.914
X197.649 Y-45.133 I-39.37 J11.291
X181.908 Y-56.84 I-35.56 J31.378
X162.882 Y-61.616 I-22.261 J48.394
G3 X159.319 Y-61.843 I37.895 J-622.823
G2 X155.751 Y-61.962 I-3.568 J53.584
G1 X-231.5 Y-61.691
G3 X-233.426 Y-63.617 I0. J-1.926
G1 Y-83.995
G3 X-231.5 Y-85.922 I1.926 J0.
G1 X216.736 Y-85.363
G3 X224.814 Y-83.095 I-3.059 J26.411
X230.78 Y-77.194 I-5.158 J11.182
X232.67 Y-70.847 I-19.528 J9.272
X233.149 Y-64.242 I-51.843 J7.078
G1 X233.25 Y-31.984
G2 X235.567 Y-28.538 I3.738 J-0.012
G3 X237.883 Y-25.092 I-1.428 J3.461
G1 X238.107 Y28.677
G3 X236.181 Y30.604 I-1.927 J0.
G1 X206.436 Y30.606
G3 X204.51 Y28.68 I0. J-1.926
G1 X204.677 Y-11.28
G2 X201.981 Y-27.54 I-78.852 J4.719
X194.139 Y-42.036 I-35.286 J9.72
X179.854 Y-52.634 I-32.062 J28.292
X162.597 Y-56.944 I-20.209 J44.208
G3 X159.177 Y-57.164 I28.836 J-473.925
G2 X155.751 Y-57.281 I-3.426 J50.311
G1 X-236.181 Y-57.01
G3 X-238.107 Y-58.936 I0. J-1.926
G1 Y-88.676
G3 X-236.181 Y-90.603 I1.926 J0.
G1 X215.091 Y-90.213
G3 X225.727 Y-87.896 I-2.501 J37.058
X234.086 Y-80.924 I-5.879 J15.547
X236.683 Y-74.518 I-18.932 J11.402
X237.705 Y-67.682 I-42.374 J9.832
G1 X237.883 Y-25.092
G2 X240.231 Y-21.602 I3.792 J-0.016
G3 X242.579 Y-18.111 I-1.444 J3.506
G1 X242.789 Y33.358
G3 X240.862 Y35.285 I-1.927 J0.
G1 X201.755 Y35.288
G3 X199.828 Y33.361 I0. J-1.926
G1 X200.004 Y-11.
G2 X197.654 Y-25.754 I-76.071 J4.552
X190.629 Y-38.939 I-31.238 J8.18
X177.8 Y-48.427 I-28.566 J25.207
X162.313 Y-52.271 I-18.156 J40.027
G3 X159.034 Y-52.485 I22.554 J-370.688
G2 X155.751 Y-52.6 I-3.284 J47.092
G1 X-240.862 Y-52.328
G3 X-242.789 Y-54.255 I0. J-1.926
G1 Y-93.358
G3 X-240.862 Y-95.284 I1.926 J0.
G1 X215.406 Y-94.884
G3 X228.166 Y-91.892 I-2.721 J40.317
X238.097 Y-83.34 I-8.035 J19.372
X241.148 Y-75.926 I-22.718 J13.682
X242.376 Y-68.004 I-45.961 J11.18
G1 X242.579 Y-18.111
G2 X245.039 Y-14.43 I4.008 J-0.016
G3 X247.5 Y-10.749 I-1.523 J3.681
G1 Y39.783
X247.497 Y39.99
X247.496 Y39.995
X195.106 Y39.999
G2 X195.117 Y39.797 I-1.826 J-0.202
G1 Y-7.869
G2 Y-7.896 I-1.837 J0.
G1 X195.107 Y-8.577
G2 X195.106 Y-8.61 I-1.837 J0.027
G1 X195.062 Y-9.972
G2 X195.061 Y-9.992 I-1.837 J0.06
G1 X195.031 Y-10.673
G2 X195.03 Y-10.703 I-1.836 J0.08
G1 X194.826 Y-14.107
G2 X194.824 Y-14.139 I-1.834 J0.11
G1 X194.771 Y-14.82
G2 X194.767 Y-14.869 I-1.832 J0.141
G1 X194.625 Y-16.231
G2 X194.621 Y-16.267 I-1.828 J0.19
G1 X194.537 Y-16.948
G2 X194.519 Y-17.061 I-1.823 J0.227
G1 X194.134 Y-19.104
G2 X194.128 Y-19.137 I-1.806 J0.34
G1 X193.564 Y-21.86
G2 X193.555 Y-21.903 I-1.799 J0.372
G1 X193.397 Y-22.584
G2 X193.376 Y-22.666 I-1.79 J0.415
G1 X192.994 Y-24.028
G2 X192.971 Y-24.102 I-1.769 J0.497
G1 X192.748 Y-24.783
G2 X192.71 Y-24.888 I-1.746 J0.571
G1 X191.632 Y-27.612
X191.629 Y-27.619
X191.083 Y-28.981
G2 X191.059 Y-29.039 I-1.706 J0.684
G1 X190.905 Y-29.388
G2 X190.849 Y-29.504 I-1.681 J0.741
G1 X189.954 Y-31.198
G2 X189.857 Y-31.361 I-1.625 J0.858
G1 X188.493 Y-33.404
G2 X188.482 Y-33.42 I-1.528 J1.021
G1 X187.325 Y-35.113
G2 X187.216 Y-35.257 I-1.517 J1.037
G1 X186.922 Y-35.607
G2 X186.892 Y-35.642 I-1.408 J1.181
G1 X185.691 Y-37.004
G2 X185.643 Y-37.056 I-1.378 J1.216
G1 X185.088 Y-37.637
G2 X184.974 Y-37.747 I-1.33 J1.268
G1 X183.608 Y-38.953
G2 X183.478 Y-39.057 I-1.216 J1.378
G1 X182.112 Y-40.058
X182.104 Y-40.064
X180.312 Y-41.362
G2 X180.272 Y-41.39 I-1.078 J1.488
G1 X179.278 Y-42.071
G2 X179.228 Y-42.104 I-1.038 J1.516
G1 X178.599 Y-42.505
G2 X178.464 Y-42.584 I-0.989 J1.549
G1 X177.098 Y-43.3
G2 X176.982 Y-43.356 I-0.853 J1.627
G1 X176.299 Y-43.655
G2 X176.241 Y-43.679 I-0.737 J1.683
G1 X172.961 Y-44.986
G2 X172.951 Y-44.989 I-0.68 J1.707
G1 X172.133 Y-45.31
G2 X171.96 Y-45.368 I-0.67 J1.711
G1 X169.911 Y-45.945
G2 X169.787 Y-45.975 I-0.498 J1.769
G1 X166.372 Y-46.685
G2 X166.333 Y-46.693 I-0.374 J1.799
G1 X164.967 Y-46.947
G2 X164.933 Y-46.953 I-0.336 J1.807
G1 X164.25 Y-47.066
G2 X164.135 Y-47.082 I-0.302 J1.813
G1 X162.086 Y-47.291
G2 X162.01 Y-47.297 I-0.187 J1.828
G1 X157.912 Y-47.547
G2 X157.86 Y-47.549 I-0.112 J1.834
G1 X155.81 Y-47.616
G2 X155.751 Y-47.617 I-0.06 J1.837
G1 X-247.289
G2 X-247.5 Y-47.605 I0. J1.838
G1 Y-99.783
X-247.497 Y-99.99
X-247.496 Y-99.995
X211.753 Y-99.996
X213.087 Y-99.976
X214.416 Y-99.93
X215.741 Y-99.855
X217.064 Y-99.751
X218.386 Y-99.614
X219.706 Y-99.445
X221.022 Y-99.24
X222.334 Y-98.999
X223.75 Y-98.689
X224.95 Y-98.387
X226.264 Y-98.009
X226.901 Y-97.808
X228.205 Y-97.356
X229.507 Y-96.84
X230.139 Y-96.566
X231.15 Y-96.094
X231.434 Y-95.957
X232.377 Y-95.463
X233.363 Y-94.896
X233.998 Y-94.498
X234.641 Y-94.074
X235.398 Y-93.542
X235.919 Y-93.154
X236.564 Y-92.638
X237. Y-92.275
X237.718 Y-91.638
X238.473 Y-90.911
X239.108 Y-90.25
X239.746 Y-89.533
X240.396 Y-88.746
X240.621 Y-88.462
X241.094 Y-87.828
X241.667 Y-87.004
X241.967 Y-86.547
X242.367 Y-85.911
X242.946 Y-84.906
X243.428 Y-83.989
X243.739 Y-83.347
X244.04 Y-82.701
X244.314 Y-82.068
X244.833 Y-80.768
X245.286 Y-79.47
X245.529 Y-78.7
X245.866 Y-77.528
X246.196 Y-76.223
X246.481 Y-74.917
X246.727 Y-73.609
X246.932 Y-72.298
X247.103 Y-70.983
X247.241 Y-69.667
X247.347 Y-68.347
X247.423 Y-67.025
X247.472 Y-65.701
X247.494 Y-64.371
X247.5 Y-59.62
Y-10.749
G3 X247.484 Y-10.609 Z-9.734 I-0.635 J0. F1000.
X247.441 Y-10.482 Z-9.687 I-0.619 J-0.14
X247.381 Y-10.378 Z-9.611 I-0.576 J-0.267
X247.316 Y-10.302 Z-9.511 I-0.516 J-0.371
X247.259 Y-10.251 Z-9.391 I-0.451 J-0.447
X247.221 Y-10.224 Z-9.256 I-0.394 J-0.498
X247.208 Y-10.215 Z-9.115 I-0.356 J-0.526
G0 Z5.
X223.924 Y-78.882
Z-5.703
G3 X223.939 Y-78.88 Z-5.841 I-0.475 J2.979 F1333.33
X223.984 Y-78.872 Z-5.973 I-0.49 J2.976
X224.055 Y-78.859 Z-6.091 I-0.535 J2.968
X224.149 Y-78.838 Z-6.191 I-0.606 J2.955
X224.262 Y-78.809 Z-6.268 I-0.7 J2.934
X224.386 Y-78.771 Z-6.317 I-0.812 J2.905
X224.516 Y-78.725 Z-6.338 I-0.937 J2.867
X222.382 Y-73.082 Z-6.668 I-1.067 J2.821
X224.516 Y-78.725 Z-6.999 I1.067 J-2.821
X222.382 Y-73.082 Z-7.33 I-1.067 J2.821
X224.516 Y-78.725 Z-7.661 I1.067 J-2.821
X222.382 Y-73.082 Z-7.992 I-1.067 J2.821
X224.516 Y-78.725 Z-8.323 I1.067 J-2.821
X222.382 Y-73.082 Z-8.654 I-1.067 J2.821
X224.516 Y-78.725 Z-8.985 I1.067 J-2.821
X222.382 Y-73.082 Z-9.316 I-1.067 J2.821
X224.516 Y-78.725 Z-9.647 I1.067 J-2.821
X222.382 Y-73.082 Z-9.977 I-1.067 J2.821
X224.516 Y-78.725 Z-10.308 I1.067 J-2.821
X222.382 Y-73.082 Z-10.639 I-1.067 J2.821
X224.516 Y-78.725 Z-10.97 I1.067 J-2.821
X222.382 Y-73.082 Z-11.301 I-1.067 J2.821
X224.516 Y-78.725 Z-11.632 I1.067 J-2.821
X222.382 Y-73.082 Z-11.963 I-1.067 J2.821
X224.516 Y-78.725 Z-12.294 I1.067 J-2.821
X222.382 Y-73.082 Z-12.625 I-1.067 J2.821
X224.516 Y-78.725 Z-12.956 I1.067 J-2.821
X225.577 Y-78.041 Z-13. I-1.067 J2.821
X226.455 Y-76.995 I-5.37 J5.392 F5000.
X225.622 Y-76.332 I-0.438 J0.304
G2 X223.788 Y-78.157 I-19.126 J17.39
G3 X224.449 Y-78.987 I0.355 J-0.395
X225.539 Y-78.079 I-4.986 J7.097
X225.577 Y-78.041 I-5.331 J5.43
G2 X227.623 Y-77.527 I1.455 J-1.461
G3 X229.568 Y-76.71 I0.476 J1.591
X231.352 Y-71.651 I-16.312 J8.596
X232.077 Y-64.766 I-38.621 J7.549
X230.725 Y-64.421 I-0.717 J0.012
G2 X223.262 Y-74.882 I-41.767 J21.905
X213.042 Y-82.672 I-28.775 J27.149
X212.479 Y-82.949 I-4.709 J8.867
G3 X211.916 Y-83.226 I4.146 J-9.144
X212.264 Y-84.578 I0.337 J-0.634
X221.335 Y-83.402 I-0.599 J40.194
X228.772 Y-78.076 I-2.977 J12.012
X229.568 Y-76.71 I-15.516 J9.962
G2 X231.859 Y-75.365 I2.231 J-1.175
G3 X233.973 Y-73.755 I0.051 J2.125
X234.335 Y-72.011 I-21.44 J5.355
X234.97 Y-65.367 I-47.941 J7.94
G1 X235.266 Y26.616
G3 X234.115 I-0.576 J0.
G1 X234.146 Y-40.915
G2 X231.099 Y-56.592 I-66.913 J4.87
X223.203 Y-70.473 I-37.181 J11.961
X196.639 Y-85.522 I-35.085 J30.961
X191.478 Y-86.344 I-17.876 J95.707
X186.27 Y-86.77 I-6.912 J52.47
G1 X-234.118 Y-86.615
G3 Y-87.762 I0. J-0.573
G1 X216.947 Y-87.191
G3 X225.719 Y-84.704 I-3.272 J28.254
X232.262 Y-78.355 I-5.904 J12.63
X233.973 Y-73.755 I-19.73 J9.955
G2 X235.76 Y-72.07 I2.207 J-0.551
G3 X237.447 Y-70.285 I-0.386 J2.054
X237.705 Y-67.682 I-43.139 J5.599
G1 X238.108 Y28.678
G3 X236.181 Y30.605 I-1.927 J0.
G1 X233.2
G3 X231.274 Y28.679 I0. J-1.926
G1 X231.312 Y-40.709
G2 X224.989 Y-62.418 I-53.898 J3.923
X208.911 Y-78.317 I-34.033 J18.336
X196.117 Y-82.729 I-20.901 J39.851
X191.171 Y-83.519 I-17.453 J93.438
X186.178 Y-83.929 I-6.609 J49.798
G1 X-236.177 Y-83.774
G3 X-238.104 Y-85.701 I0. J-1.927
G1 X-238.105 Y-88.677
G3 X-236.179 Y-90.603 I1.926 J0.
G1 X215.091 Y-90.213
G3 X225.727 Y-87.897 I-2.501 J37.058
X234.087 Y-80.925 I-5.879 J15.547
X236.683 Y-74.518 I-18.932 J11.402
X237.447 Y-70.285 I-42.375 J9.832
G2 X240.02 Y-67.161 I3.778 J-0.49
G3 X242.392 Y-63.883 I-1.098 J3.293
G1 X242.789 Y33.358
G3 X240.862 Y35.285 I-1.927 J0.
G1 X228.519 Y35.287
G3 X226.593 Y33.361 I0. J-1.926
G1 X226.643 Y-40.369
G2 X221.074 Y-59.852 I-49.454 J3.599
X206.737 Y-74.172 I-30.169 J15.868
X195.258 Y-78.128 I-18.727 J35.707
X190.664 Y-78.865 I-16.784 J89.858
X186.027 Y-79.251 I-6.112 J45.42
G1 X-240.857 Y-79.093
G3 X-242.784 Y-81.02 I0. J-1.927
G1 X-242.787 Y-93.358
G3 X-240.861 Y-95.284 I1.926 J0.
G1 X215.406 Y-94.884
G3 X228.166 Y-91.892 I-2.721 J40.318
X238.097 Y-83.34 I-8.035 J19.372
X241.148 Y-75.926 I-22.718 J13.682
X242.376 Y-68.004 I-45.961 J11.18
G1 X242.392 Y-63.883
G2 X244.946 Y-60.066 I4.154 J-0.017
G3 X247.5 Y-56.25 I-1.575 J3.816
G1 Y39.783
X247.497 Y39.99
X247.496 Y39.995
X221.871 Y39.999
G2 X221.882 Y39.797 I-1.826 J-0.202
G1 X221.878 Y-35.107
G2 Y-35.167 I-1.837 J0.
G1 X221.789 Y-37.89
G2 X221.788 Y-37.913 I-1.837 J0.06
G1 X221.758 Y-38.594
G2 X221.756 Y-38.622 I-1.836 J0.082
G1 X221.675 Y-39.984
G2 X221.673 Y-40.007 I-1.834 J0.11
G1 X221.624 Y-40.688
G2 X221.619 Y-40.745 I-1.833 J0.133
G1 X221.336 Y-43.468
G2 X221.322 Y-43.573 I-1.828 J0.19
G1 X221.211 Y-44.254
G2 X221.203 Y-44.299 I-1.814 J0.294
G1 X220.69 Y-47.023
G2 X220.684 Y-47.056 I-1.806 J0.34
G1 X220.397 Y-48.443
G2 X220.368 Y-48.561 I-1.799 J0.372
G1 X219.809 Y-50.579
X219.807 Y-50.585
X219.616 Y-51.266
G2 X219.575 Y-51.394 I-1.769 J0.497
G1 X219.329 Y-52.075
G2 X219.31 Y-52.124 I-1.728 J0.625
G1 X218.236 Y-54.848
G2 X218.232 Y-54.857 I-1.709 J0.674
G1 X217.959 Y-55.538
G2 X217.894 Y-55.683 I-1.706 J0.684
G1 X217.505 Y-56.452
G2 X217.492 Y-56.477 I-1.64 J0.829
G1 X216.809 Y-57.78
G2 X216.78 Y-57.833 I-1.627 J0.853
G1 X216.41 Y-58.486
G2 X216.333 Y-58.608 I-1.598 J0.907
G1 X214.951 Y-60.651
G2 X214.945 Y-60.659 I-1.522 J1.03
G1 X214.479 Y-61.34
G2 X214.43 Y-61.409 I-1.516 J1.038
G1 X213.916 Y-62.09
G2 X213.827 Y-62.199 I-1.467 J1.107
G1 X212.461 Y-63.747
G2 X212.443 Y-63.767 I-1.378 J1.216
G1 X211.993 Y-64.262
G2 X211.884 Y-64.371 I-1.36 J1.236
G1 X211.652 Y-64.588
G2 X211.616 Y-64.62 I-1.251 J1.345
G1 X210.25 Y-65.826
G2 X210.203 Y-65.866 I-1.216 J1.378
G1 X209.52 Y-66.429
G2 X209.43 Y-66.498 I-1.169 J1.418
G1 X208.064 Y-67.49
G2 X208.023 Y-67.519 I-1.079 J1.487
G1 X205.973 Y-68.922
G2 X205.797 Y-69.029 I-1.038 J1.516
G1 X204.431 Y-69.755
X204.422 Y-69.759
X203.739 Y-70.117
G2 X203.674 Y-70.15 I-0.853 J1.627
G1 X202.991 Y-70.474
G2 X202.879 Y-70.523 I-0.788 J1.66
G1 X200.147 Y-71.605
X200.141 Y-71.607
X199.458 Y-71.875
G2 X199.372 Y-71.906 I-0.671 J1.711
G1 X198.689 Y-72.136
G2 X198.601 Y-72.163 I-0.585 J1.742
G1 X196.551 Y-72.738
G2 X196.498 Y-72.752 I-0.497 J1.769
G1 X195.815 Y-72.922
G2 X195.747 Y-72.938 I-0.443 J1.783
G1 X194.38 Y-73.222
G2 X194.343 Y-73.23 I-0.375 J1.799
G1 X191.61 Y-73.74
G2 X191.521 Y-73.755 I-0.337 J1.806
G1 X190.837 Y-73.847
G2 X190.779 Y-73.854 I-0.248 J1.821
G1 X188.046 Y-74.137
G2 X187.969 Y-74.143 I-0.189 J1.828
G1 X185.92 Y-74.268
G2 X185.867 Y-74.271 I-0.112 J1.834
G1 X182.452 Y-74.381
G2 X182.392 Y-74.382 I-0.059 J1.837
G1 X-247.289
G2 X-247.494 Y-74.37 I0. J1.837
G1 X-247.5 Y-99.784
X-247.497 Y-99.99
X-247.496 Y-99.995
X211.753 Y-99.996
X213.087 Y-99.976
X214.416 Y-99.93
X215.741 Y-99.855
X217.064 Y-99.751
X218.386 Y-99.614
X219.706 Y-99.445
X221.022 Y-99.24
X222.334 Y-98.999
X223.75 Y-98.689
X224.95 Y-98.387
X226.264 Y-98.009
X226.901 Y-97.808
X228.205 Y-97.356
X229.507 Y-96.84
X230.139 Y-96.566
X231.15 Y-96.094
X231.434 Y-95.957
X232.377 Y-95.463
X233.363 Y-94.896
X233.998 Y-94.498
X234.641 Y-94.074
X235.398 Y-93.542
X235.919 Y-93.154
X236.564 Y-92.638
X237. Y-92.275
X237.718 Y-91.638
X238.473 Y-90.911
X239.108 Y-90.25
X239.746 Y-89.533
X240.396 Y-88.746
X240.621 Y-88.462
X241.094 Y-87.828
X241.667 Y-87.004
X241.967 Y-86.547
X242.367 Y-85.911
X242.946 Y-84.906
X243.428 Y-83.989
X243.739 Y-83.347
X244.04 Y-82.701
X244.314 Y-82.068
X244.833 Y-80.768
X245.286 Y-79.47
X245.529 Y-78.7
X245.866 Y-77.528
X246.196 Y-76.223
X246.481 Y-74.917
X246.727 Y-73.609
X246.932 Y-72.298
X247.103 Y-70.983
X247.241 Y-69.667
X247.347 Y-68.347
X247.423 Y-67.025
X247.472 Y-65.701
X247.494 Y-64.371
X247.5 Y-59.62
Y-56.25
G3 X246.913 Y-56.081 I-0.318 J0.
G1 X231.961 Y-79.942
G2 X231.663 Y-80.089 I-0.269 J0.169
G3 X231.114 Y-86.097 Z-13.331 I-0.275 J-3.004 F1333.33
X231.663 Y-80.089 Z-13.662 I0.275 J3.004
X231.114 Y-86.097 Z-13.993 I-0.275 J-3.004
X231.663 Y-80.089 Z-14.324 I0.275 J3.004
X231.114 Y-86.097 Z-14.655 I-0.275 J-3.004
X233.585 Y-85.161 Z-14.75 I0.275 J3.004
X237.262 Y-79.655 I-14.539 J13.692 F5000.
X237.901 Y-78.222 I-242.519 J108.992
X238.455 Y-76.754 I-12.913 J5.712
X237.346 Y-76.281 I-0.578 J0.182
G2 X231.515 Y-84.011 I-29.301 J16.042
X223.785 Y-89.842 I-25.695 J26.025
G3 X224.266 Y-90.952 I0.299 J-0.53
X231.972 Y-86.693 I-6.705 J21.231
X233.585 Y-85.161 I-12.926 J15.224
G2 X235.695 Y-84.622 I1.48 J-1.394
G3 X237.747 Y-83.894 I0.554 J1.696
X240.331 Y-78.553 I-20.38 J13.154
X242. Y-71.591 I-36.602 J12.453
X242.377 Y-67.967 I-46.462 J6.667
X242.512 Y-64.326 I-65.111 J4.23
G1 X242.789 Y33.888
G3 X241.005 I-0.892 J0.
G1 X241.061 Y-54.862
G2 X237.738 Y-69.782 I-64.577 J6.555
X229.466 Y-82.636 I-31.023 J10.876
X216.674 Y-90.56 I-25.007 J26.083
X201.935 Y-93.591 I-17.974 J50.038
G1 X-241.392 Y-93.505
G3 Y-95.284 I0. J-0.89
G1 X216.612 Y-94.788
G3 X227.904 Y-92.072 I-3.647 J39.987
X237.05 Y-84.916 I-7.745 J19.322
X237.747 Y-83.894 I-19.683 J14.176
G2 X241.567 Y-82.1 I3.345 J-2.159
G3 X245.147 Y-79.868 I0.402 J3.343
G1 X245.286 Y-79.47
X245.529 Y-78.7
X245.866 Y-77.528
X246.196 Y-76.223
X246.481 Y-74.917
X246.727 Y-73.609
X246.932 Y-72.298
X247.103 Y-70.983
X247.241 Y-69.667
X247.347 Y-68.347
X247.423 Y-67.025
X247.472 Y-65.701
X247.494 Y-64.371
X247.5 Y-59.62
Y39.783
X247.497 Y39.99
X247.496 Y39.995
X236.283 Y39.996
G2 X236.293 Y39.797 I-1.827 J-0.198
G1 Y-49.407
G2 X236.292 Y-49.466 I-1.838 J0.
G1 X236.182 Y-52.871
G2 Y-52.896 I-1.837 J0.059
G1 X236.145 Y-53.696
G2 X236.144 Y-53.722 I-1.836 J0.084
G1 X236.11 Y-54.283
G2 X236.104 Y-54.359 I-1.834 J0.11
G1 X235.827 Y-57.083
X235.756 Y-57.768
G2 X235.749 Y-57.83 I-1.828 J0.19
G1 X235.654 Y-58.511
G2 X235.641 Y-58.595 I-1.82 J0.252
G1 X235.134 Y-61.319
G2 X235.131 Y-61.335 I-1.807 J0.336
G1 X234.998 Y-62.016
G2 X234.992 Y-62.046 I-1.803 J0.352
G1 X234.847 Y-62.727
G2 X234.819 Y-62.842 I-1.797 J0.382
G1 X234.029 Y-65.656
G2 X234.007 Y-65.73 I-1.769 J0.497
G1 X233.814 Y-66.32
G2 X233.776 Y-66.423 I-1.747 J0.571
G1 X232.435 Y-69.828
G2 X232.354 Y-70.005 I-1.71 J0.674
G1 X230.933 Y-72.728
G2 X230.844 Y-72.881 I-1.629 J0.85
G1 X230.384 Y-73.587
G2 X230.361 Y-73.622 I-1.54 J1.003
G1 X228.979 Y-75.64
G2 X228.933 Y-75.705 I-1.516 J1.038
G1 X228.422 Y-76.386
G2 X228.33 Y-76.499 I-1.47 J1.103
G1 X226.527 Y-78.542
G2 X226.421 Y-78.652 I-1.378 J1.216
G1 X226.017 Y-79.039
G2 X225.962 Y-79.091 I-1.272 J1.326
G1 X224.085 Y-80.747
G2 X224.048 Y-80.778 I-1.216 J1.378
G1 X223.875 Y-80.923
G2 X223.777 Y-81. I-1.179 J1.409
G1 X223.039 Y-81.536
G2 X222.997 Y-81.565 I-1.08 J1.486
G1 X221.003 Y-82.933
G2 X220.956 Y-82.964 I-1.039 J1.516
G1 X220.273 Y-83.402
G2 X220.134 Y-83.483 I-0.992 J1.547
G1 X218.085 Y-84.557
G2 X218.046 Y-84.577 I-0.853 J1.627
G1 X217.363 Y-84.915
G2 X217.221 Y-84.978 I-0.815 J1.647
G1 X213.806 Y-86.322
G2 X213.663 Y-86.372 I-0.673 J1.71
G1 X212.98 Y-86.578
G2 X212.943 Y-86.589 I-0.531 J1.759
G1 X210.21 Y-87.35
G2 X210.092 Y-87.379 I-0.493 J1.77
G1 X209.409 Y-87.522
G2 X209.372 Y-87.529 I-0.375 J1.799
G1 X205.956 Y-88.167
G2 X205.836 Y-88.186 I-0.338 J1.806
G1 X205.153 Y-88.267
G2 X205.125 Y-88.271 I-0.218 J1.825
G1 X202.393 Y-88.555
G2 X202.356 Y-88.558 I-0.19 J1.828
G1 X201.673 Y-88.615
G2 X201.631 Y-88.618 I-0.153 J1.831
G1 X200.948 Y-88.66
G2 X200.898 Y-88.662 I-0.112 J1.834
G1 X197.482 Y-88.776
G2 X197.465 Y-88.777 I-0.061 J1.836
G1 X196.782 Y-88.793
G2 X196.738 I-0.044 J1.837
G1 X-247.289
G2 X-247.497 Y-88.782 I0. J1.838
G1 X-247.5 Y-99.784
X-247.497 Y-99.99
X-247.496 Y-99.995
X211.753 Y-99.996
X213.087 Y-99.976
X214.416 Y-99.93
X215.741 Y-99.855
X217.064 Y-99.751
X218.386 Y-99.614
X219.706 Y-99.445
X221.022 Y-99.24
X222.334 Y-98.999
X223.75 Y-98.689
X224.95 Y-98.387
X226.264 Y-98.009
X226.901 Y-97.808
X228.205 Y-97.356
X229.507 Y-96.84
X230.139 Y-96.566
X231.15 Y-96.094
X231.434 Y-95.957
X232.377 Y-95.463
X233.363 Y-94.896
X233.998 Y-94.498
X234.641 Y-94.074
X235.398 Y-93.542
X235.919 Y-93.154
X236.564 Y-92.638
X237. Y-92.275
X237.718 Y-91.638
X238.473 Y-90.911
X239.108 Y-90.25
X239.746 Y-89.533
X240.396 Y-88.746
X240.621 Y-88.462
X241.094 Y-87.828
X241.667 Y-87.004
X241.967 Y-86.547
X242.367 Y-85.911
X242.946 Y-84.906
X243.428 Y-83.989
X243.739 Y-83.347
X244.04 Y-82.701
X244.314 Y-82.068
X244.833 Y-80.768
X245.147 Y-79.868
G3 X245.179 Y-79.73 Z-14.734 I-0.599 J0.209 F1000.
X245.18 Y-79.596 Z-14.687 I-0.631 J0.072
X245.157 Y-79.478 Z-14.611 I-0.632 J-0.062
X245.121 Y-79.384 Z-14.511 I-0.609 J-0.18
X245.084 Y-79.318 Z-14.391 I-0.573 J-0.274
X245.058 Y-79.28 Z-14.256 I-0.536 J-0.34
X245.048 Y-79.267 Z-14.115 I-0.51 J-0.379
G0 Z10.
(PARALLEL1)
M9
G0 Z15.
X212.915 Y-99.99
Z-14.619
G1 Z-15.992 F1000.
G18 G3 X212.278 Z-16.627 I-0.635 K0.
G1 X208.138 Z-16.613 F5000.
X-247.5
G3 X-247.64 Z-16.581 I0. K0.318
G2 X-247.779 Z-16.548 I-0.14 K-0.285
G1 X-247.839 Y-99.988
X-247.899 Y-99.983
X-247.958 Y-99.973 Z-16.546
X-248.016 Y-99.96 Z-16.545
X-248.074 Y-99.944 Z-16.543
X-248.13 Y-99.924 Z-16.54
X-248.185 Y-99.9 Z-16.538
X-248.238 Y-99.873 Z-16.534
X-248.29 Y-99.843 Z-16.531
X-248.339 Y-99.809 Z-16.527
X-248.387 Y-99.773 Z-16.522
X-248.431 Y-99.734 Z-16.517
X-248.474 Y-99.692 Z-16.512
X-248.513 Y-99.647 Z-16.507
X-248.55 Y-99.6 Z-16.501
X-248.584 Y-99.551 Z-16.495
X-248.614 Y-99.5 Z-16.489
X-248.641 Y-99.447 Z-16.483
X-248.665 Y-99.393 Z-16.476
X-248.685 Y-99.337 Z-16.469
X-248.702 Y-99.28 Z-16.462
X-248.715 Y-99.222 Z-16.455
X-248.724 Y-99.163 Z-16.448
X-248.73 Y-99.104 Z-16.441
X-248.732 Y-99.044 Z-16.434
Y-98.936 Z-16.42
X-248.73 Y-98.876 Z-16.413
X-248.724 Y-98.817 Z-16.406
X-248.715 Y-98.759 Z-16.399
X-248.702 Y-98.701 Z-16.392
X-248.685 Y-98.644 Z-16.385
X-248.665 Y-98.588 Z-16.378
X-248.641 Y-98.533 Z-16.372
X-248.614 Y-98.48 Z-16.365
X-248.584 Y-98.429 Z-16.359
X-248.55 Y-98.38 Z-16.353
X-248.513 Y-98.333 Z-16.347
X-248.474 Y-98.289 Z-16.342
X-248.431 Y-98.247 Z-16.337
X-248.387 Y-98.207 Z-16.332
X-248.339 Y-98.171 Z-16.328
X-248.29 Y-98.137 Z-16.324
X-248.238 Y-98.107 Z-16.32
X-248.185 Y-98.08 Z-16.317
X-248.13 Y-98.057 Z-16.314
X-248.074 Y-98.037 Z-16.311
X-248.016 Y-98.02 Z-16.309
X-247.958 Y-98.007 Z-16.308
X-247.899 Y-97.998 Z-16.307
X-247.839 Y-97.992 Z-16.306
X-247.779 Y-97.99
G3 X-247.64 Z-16.338 I0. K-0.317
G2 X-247.5 Z-16.37 I0.14 K0.285
G1 X206.331 Z-16.371
X210.471 Z-16.386
X213.464 Z-16.414
X216.544 Z-16.457
X219.612 Z-16.516
X222.969 Z-16.596
X226.323 Z-16.695
G2 X226.472 Z-16.663 I0.009 K0.317
G3 X226.612 Z-16.63 I0.14 K-0.285
G1 X231.7
G17 G3 X232.653 Y-97.038 I0. J0.952
G1 Y-96.943
G3 X231.7 Y-95.991 I-0.953 J0.
G18 G2 X231.561 Z-16.663 I0. K-0.317
G1 X231.521 Z-16.682
G3 X231.368 Z-16.714 I-0.14 K0.285
G1 X228.152 Z-16.585
X224.808 Z-16.468
X221.591 Z-16.371
X218.33 Z-16.289
X215.104 Z-16.224
X212.263 Z-16.181
X208.833 Z-16.145
X204.693 Z-16.128
X-247.5
G3 X-247.64 Z-16.095 I0. K0.318
G2 X-247.779 Z-16.063 I-0.14 K-0.285
G1 X-247.839 Y-95.989
X-247.899 Y-95.983 Z-16.062
X-247.958 Y-95.974 Z-16.061
X-248.016 Y-95.961 Z-16.059
X-248.074 Y-95.944 Z-16.057
X-248.13 Y-95.924 Z-16.055
X-248.185 Y-95.901 Z-16.052
X-248.238 Y-95.874 Z-16.049
X-248.29 Y-95.843 Z-16.045
X-248.339 Y-95.81 Z-16.041
X-248.387 Y-95.774 Z-16.036
X-248.431 Y-95.734 Z-16.032
X-248.474 Y-95.692 Z-16.027
X-248.513 Y-95.648 Z-16.021
X-248.55 Y-95.601 Z-16.015
X-248.584 Y-95.552 Z-16.01
X-248.614 Y-95.501 Z-16.003
X-248.641 Y-95.448 Z-15.997
X-248.665 Y-95.393 Z-15.99
X-248.685 Y-95.337 Z-15.983
X-248.702 Y-95.28 Z-15.977
X-248.715 Y-95.222 Z-15.97
X-248.724 Y-95.164 Z-15.962
X-248.73 Y-95.104 Z-15.955
X-248.732 Y-95.045 Z-15.948
Y-94.936 Z-15.935
X-248.73 Y-94.877 Z-15.928
X-248.724 Y-94.818 Z-15.92
X-248.715 Y-94.759 Z-15.913
X-248.702 Y-94.701 Z-15.906
X-248.685 Y-94.644 Z-15.899
X-248.665 Y-94.588 Z-15.893
X-248.641 Y-94.534 Z-15.886
X-248.614 Y-94.481 Z-15.879
X-248.584 Y-94.43 Z-15.873
X-248.55 Y-94.381 Z-15.867
X-248.513 Y-94.334 Z-15.862
X-248.474 Y-94.289 Z-15.856
X-248.431 Y-94.247 Z-15.851
X-248.387 Y-94.208 Z-15.846
X-248.339 Y-94.171 Z-15.842
X-248.29 Y-94.138 Z-15.838
X-248.238 Y-94.108 Z-15.834
X-248.185 Y-94.081 Z-15.831
X-248.13 Y-94.057 Z-15.828
X-248.074 Y-94.037 Z-15.826
X-248.016 Y-94.021 Z-15.824
X-247.958 Y-94.008 Z-15.822
X-247.899 Y-93.998 Z-15.821
X-247.839 Y-93.993 Z-15.82
X-247.779 Y-93.991
G3 X-247.64 Z-15.852 I0. K-0.318
G2 X-247.5 Z-15.885 I0.14 K0.285
G1 X201.243
X205.934 Z-15.897
X209.242 Z-15.926
X212.006 Z-15.963
X215.347 Z-16.024
X218.572 Z-16.101
X221.666 Z-16.189
X225.011 Z-16.3
X228.146 Z-16.421
X231.417 Z-16.562
X234.771 Z-16.723
G2 X234.926 Z-16.691 I0.015 K0.317
G3 X235.066 Z-16.659 I0.14 K-0.285
G1 X237.634
G17 G3 X238.586 Y-93.038 I0. J0.952
G1 Y-92.944
G3 X237.634 Y-91.991 I-0.953 J0.
G18 G2 X237.494 Z-16.691 I0. K-0.318
G1 X237.486 Z-16.695
G3 X237.329 Z-16.727 I-0.14 K0.285
G1 X234.183 Z-16.554
X230.788 Z-16.383
X227.539 Z-16.236
X224.268 Z-16.104
X220.94 Z-15.986
X217.857 Z-15.892
X214.515 Z-15.807
X211.507 Z-15.746
X208.379 Z-15.697
X204.97 Z-15.661
X200.555 Z-15.642
X-247.5
G3 X-247.64 Z-15.61 I0. K0.318
G2 X-247.779 Z-15.577 I-0.14 K-0.285
G1 X-247.839 Y-91.989
X-247.899 Y-91.984 Z-15.576
X-247.958 Y-91.974 Z-15.575
X-248.016 Y-91.961 Z-15.574
X-248.074 Y-91.945 Z-15.572
X-248.13 Y-91.925 Z-15.569
X-248.185 Y-91.901 Z-15.566
X-248.238 Y-91.874 Z-15.563
X-248.29 Y-91.844 Z-15.559
X-248.339 Y-91.811 Z-15.555
X-248.387 Y-91.774 Z-15.551
X-248.431 Y-91.735 Z-15.546
X-248.474 Y-91.693 Z-15.541
X-248.513 Y-91.648 Z-15.536
X-248.55 Y-91.601 Z-15.53
X-248.584 Y-91.552 Z-15.524
X-248.614 Y-91.501 Z-15.518
X-248.641 Y-91.448 Z-15.511
X-248.665 Y-91.394 Z-15.505
X-248.685 Y-91.338 Z-15.498
X-248.702 Y-91.281 Z-15.491
X-248.715 Y-91.223 Z-15.484
X-248.724 Y-91.164 Z-15.477
X-248.73 Y-91.105 Z-15.47
X-248.732 Y-91.046 Z-15.462
Y-90.937 Z-15.449
X-248.73 Y-90.878 Z-15.442
X-248.724 Y-90.818 Z-15.435
X-248.715 Y-90.76 Z-15.428
X-248.702 Y-90.702 Z-15.421
X-248.685 Y-90.645 Z-15.414
X-248.665 Y-90.589 Z-15.407
X-248.641 Y-90.534 Z-15.4
X-248.614 Y-90.481 Z-15.394
X-248.584 Y-90.43 Z-15.388
X-248.55 Y-90.381 Z-15.382
X-248.513 Y-90.334 Z-15.376
X-248.474 Y-90.29 Z-15.371
X-248.431 Y-90.248 Z-15.365
X-248.387 Y-90.208 Z-15.361
X-248.339 Y-90.172 Z-15.356
X-248.29 Y-90.139 Z-15.352
X-248.238 Y-90.108 Z-15.349
X-248.185 Y-90.081 Z-15.345
X-248.13 Y-90.058 Z-15.342
X-248.074 Y-90.038 Z-15.34
X-248.016 Y-90.021 Z-15.338
X-247.958 Y-90.008 Z-15.336
X-247.899 Y-89.999 Z-15.335
X-247.839 Y-89.993
X-247.779 Y-89.991 Z-15.334
G3 X-247.64 Z-15.367 I0. K-0.318
G2 X-247.5 Z-15.399 I0.14 K0.285
G1 X194.26
X201.16 Z-15.407
X204.471 Z-15.432
X207.508 Z-15.47
X210.814 Z-15.528
X213.804 Z-15.595
X216.92 Z-15.68
X220.034 Z-15.78
X223.214 Z-15.898
X226.319 Z-16.027
X229.672 Z-16.183
X232.817 Z-16.345
X236.118 Z-16.53
X239.345 Z-16.727
G2 X239.504 Z-16.695 I0.019 K0.317
G3 X239.644 Z-16.663 I0.14 K-0.285
G1 X241.317
G17 G3 X242.27 Y-89.039 I0. J0.953
G1 Y-88.944
G3 X241.317 Y-87.992 I-0.952 J0.
G18 G2 X241.178 Z-16.695 I0. K-0.317
G1 X241.177 Z-16.696
G3 X241.017 Z-16.727 I-0.14 K0.285
G1 X240.977 Z-16.725
X237.838 Z-16.516
X234.4 Z-16.304
X231.178 Z-16.121
X227.92 Z-15.952
X224.757 Z-15.804
X221.6 Z-15.67
X218.422 Z-15.551
X215.279 Z-15.448
X212.105 Z-15.36
X209.059 Z-15.29
X205.627 Z-15.229
X202.653 Z-15.191
X199.617 Z-15.166
X194.649 Z-15.156
X-247.5
G3 X-247.64 Z-15.124 I0. K0.317
G2 X-247.779 Z-15.092 I-0.14 K-0.285
G1 X-247.839 Y-87.99 Z-15.091
X-247.899 Y-87.984
X-247.958 Y-87.975 Z-15.089
X-248.016 Y-87.962 Z-15.088
X-248.074 Y-87.945 Z-15.086
X-248.13 Y-87.925 Z-15.083
X-248.185 Y-87.902 Z-15.081
X-248.238 Y-87.875 Z-15.077
X-248.29 Y-87.845 Z-15.074
X-248.339 Y-87.811 Z-15.07
X-248.387 Y-87.775 Z-15.065
X-248.431 Y-87.735 Z-15.06
X-248.474 Y-87.693 Z-15.055
X-248.513 Y-87.649 Z-15.05
X-248.55 Y-87.602 Z-15.044
X-248.584 Y-87.553 Z-15.038
X-248.614 Y-87.502 Z-15.032
X-248.641 Y-87.449 Z-15.026
X-248.665 Y-87.394 Z-15.019
X-248.685 Y-87.338 Z-15.012
X-248.702 Y-87.281 Z-15.005
X-248.715 Y-87.223 Z-14.998
X-248.724 Y-87.165 Z-14.991
X-248.73 Y-87.106 Z-14.984
X-248.732 Y-87.046 Z-14.977
Y-86.938 Z-14.964
X-248.73 Y-86.878 Z-14.956
X-248.724 Y-86.819 Z-14.949
X-248.715 Y-86.76 Z-14.942
X-248.702 Y-86.702 Z-14.935
X-248.685 Y-86.645 Z-14.928
X-248.665 Y-86.589 Z-14.921
X-248.641 Y-86.535 Z-14.915
X-248.614 Y-86.482 Z-14.908
X-248.584 Y-86.431 Z-14.902
X-248.55 Y-86.382 Z-14.896
X-248.513 Y-86.335 Z-14.89
X-248.474 Y-86.29 Z-14.885
X-248.431 Y-86.248 Z-14.88
X-248.387 Y-86.209 Z-14.875
X-248.339 Y-86.173 Z-14.871
X-248.29 Y-86.139 Z-14.867
X-248.238 Y-86.109 Z-14.863
X-248.185 Y-86.082 Z-14.86
X-248.13 Y-86.058 Z-14.857
X-248.074 Y-86.038 Z-14.854
X-248.016 Y-86.022 Z-14.852
X-247.958 Y-86.009 Z-14.851
X-247.899 Y-85.999 Z-14.85
X-247.839 Y-85.994 Z-14.849
X-247.779 Y-85.992
G3 X-247.64 Z-14.881 I0. K-0.318
G2 X-247.5 Z-14.913 I0.14 K0.285
G1 X192.623
X197.59 Z-14.923
X200.626 Z-14.948
X203.604 Z-14.985
X207.187 Z-15.05
X210.319 Z-15.123
X213.364 Z-15.208
X216.494 Z-15.311
X219.654 Z-15.429
X222.879 Z-15.566
X226. Z-15.713
X229.334 Z-15.887
X232.491 Z-16.066
X235.878 Z-16.275
X239.013 Z-16.484
X242.318 Z-16.72
G2 X242.48 Z-16.689 I0.023 K0.317
G1 X242.491 Z-16.683
G3 X242.631 Z-16.651 I0.14 K-0.285
G1 X243.731
G17 G3 X244.684 Y-85.039 I0. J0.952
G1 Y-84.945
G3 X243.731 Y-83.992 I-0.952 J0.
G18 G2 X243.592 Z-16.683 I0. K-0.318
G3 X243.428 Z-16.715 I-0.14 K0.285
G1 X240.178 Z-16.467
X236.822 Z-16.228
X233.717 Z-16.022
X230.344 Z-15.815
X227.144 Z-15.634
X223.912 Z-15.466
X220.781 Z-15.319
X217.665 Z-15.187
X214.537 Z-15.069
X211.413 Z-14.967
X208.376 Z-14.882
X205.109 Z-14.805
X201.503 Z-14.741
X198.433 Z-14.703
X195.122 Z-14.678
X188.222 Z-14.671
X-247.5
G3 X-247.64 Z-14.638 I0. K0.318
G2 X-247.779 Z-14.606 I-0.14 K-0.285
G1 X-247.839 Y-83.99
X-247.899 Y-83.985 Z-14.605
X-247.958 Y-83.976 Z-14.604
X-248.016 Y-83.963 Z-14.602
X-248.074 Y-83.946 Z-14.6
X-248.13 Y-83.926 Z-14.598
X-248.185 Y-83.902 Z-14.595
X-248.238 Y-83.875 Z-14.592
X-248.29 Y-83.845 Z-14.588
X-248.339 Y-83.812 Z-14.584
X-248.387 Y-83.775 Z-14.58
X-248.431 Y-83.736 Z-14.575
X-248.474 Y-83.694 Z-14.57
X-248.513 Y-83.649 Z-14.564
X-248.55 Y-83.603 Z-14.559
X-248.584 Y-83.553 Z-14.553
X-248.614 Y-83.502 Z-14.546
X-248.641 Y-83.449 Z-14.54
X-248.665 Y-83.395 Z-14.533
X-248.685 Y-83.339 Z-14.527
X-248.702 Y-83.282 Z-14.52
X-248.715 Y-83.224 Z-14.513
X-248.724 Y-83.165 Z-14.505
X-248.73 Y-83.106 Z-14.498
X-248.732 Y-83.047 Z-14.491
Y-82.938 Z-14.478
X-248.73 Y-82.879 Z-14.471
X-248.724 Y-82.82 Z-14.463
X-248.715 Y-82.761 Z-14.456
X-248.702 Y-82.703 Z-14.449
X-248.685 Y-82.646 Z-14.442
X-248.665 Y-82.59 Z-14.436
X-248.641 Y-82.536 Z-14.429
X-248.614 Y-82.483 Z-14.423
X-248.584 Y-82.431 Z-14.416
X-248.55 Y-82.382 Z-14.41
X-248.513 Y-82.335 Z-14.405
X-248.474 Y-82.291 Z-14.399
X-248.431 Y-82.249 Z-14.394
X-248.387 Y-82.21 Z-14.389
X-248.339 Y-82.173 Z-14.385
X-248.29 Y-82.14 Z-14.381
X-248.238 Y-82.11 Z-14.377
X-248.185 Y-82.083 Z-14.374
X-248.13 Y-82.059 Z-14.371
X-248.074 Y-82.039 Z-14.369
X-248.016 Y-82.022 Z-14.367
X-247.958 Y-82.009 Z-14.365
X-247.899 Y-82. Z-14.364
X-247.839 Y-81.994 Z-14.363
X-247.779 Y-81.993
G3 X-247.64 Z-14.395 I0. K-0.318
G2 X-247.5 Z-14.428 I0.14 K0.285
G1 X187.881
X193.401 Z-14.437
X196.437 Z-14.46
X199.508 Z-14.498
X202.964 Z-14.56
X205.974 Z-14.628
X209.02 Z-14.712
X212.118 Z-14.812
X215.287 Z-14.929
X218.251 Z-15.053
X221.429 Z-15.2
X224.6 Z-15.362
X227.914 Z-15.547
X231.068 Z-15.738
X234.415 Z-15.958
X237.694 Z-16.189
X240.988 Z-16.437
X244.349 Z-16.708
G2 X244.514 Z-16.676 I0.025 K0.316
G1 X244.53 Z-16.669
G3 X244.67 Z-16.636 I0.14 K-0.285
G1 X245.417
G17 G3 X246.37 Y-81.04 I0. J0.952
G1 Y-80.945
G3 X245.417 Y-79.993 I-0.952 J0.
G18 G2 X245.278 Z-16.669 I0. K-0.318
G3 X245.111 Z-16.7 I-0.14 K0.285
G1 X241.798 Z-16.42
X238.696 Z-16.172
X235.275 Z-15.915
X231.896 Z-15.68
X228.678 Z-15.471
X225.386 Z-15.274
X222.248 Z-15.1
X218.859 Z-14.929
X215.619 Z-14.782
X212.427 Z-14.653
X209.306 Z-14.541
X206.043 Z-14.441
X202.648 Z-14.354
X199.846 Z-14.295
X196.626 Z-14.243
X192.998 Z-14.204
X188.582 Z-14.185
X-247.5
G3 X-247.64 Z-14.153 I0. K0.318
G2 X-247.779 Z-14.12 I-0.14 K-0.285
G1 X-247.839 Y-79.991
X-247.899 Y-79.985 Z-14.119
X-247.958 Y-79.976 Z-14.118
X-248.016 Y-79.963 Z-14.117
X-248.074 Y-79.947 Z-14.115
X-248.13 Y-79.926 Z-14.112
X-248.185 Y-79.903 Z-14.109
X-248.238 Y-79.876 Z-14.106
X-248.29 Y-79.846 Z-14.102
X-248.339 Y-79.812 Z-14.098
X-248.387 Y-79.776 Z-14.094
X-248.431 Y-79.737 Z-14.089
X-248.474 Y-79.695 Z-14.084
X-248.513 Y-79.65 Z-14.079
X-248.55 Y-79.603 Z-14.073
X-248.584 Y-79.554 Z-14.067
X-248.614 Y-79.503 Z-14.061
X-248.641 Y-79.45 Z-14.054
X-248.665 Y-79.395 Z-14.048
X-248.685 Y-79.339 Z-14.041
X-248.702 Y-79.282 Z-14.034
X-248.715 Y-79.224 Z-14.027
X-248.724 Y-79.166 Z-14.02
X-248.73 Y-79.107 Z-14.013
X-248.732 Y-79.047 Z-14.005
Y-78.939 Z-13.992
X-248.73 Y-78.879 Z-13.985
X-248.724 Y-78.82 Z-13.978
X-248.715 Y-78.762 Z-13.971
X-248.702 Y-78.704 Z-13.964
X-248.685 Y-78.647 Z-13.957
X-248.665 Y-78.591 Z-13.95
X-248.641 Y-78.536 Z-13.943
X-248.614 Y-78.483 Z-13.937
X-248.584 Y-78.432 Z-13.931
X-248.55 Y-78.383 Z-13.925
X-248.513 Y-78.336 Z-13.919
X-248.474 Y-78.291 Z-13.914
X-248.431 Y-78.249 Z-13.909
X-248.387 Y-78.21 Z-13.904
X-248.339 Y-78.174 Z-13.899
X-248.29 Y-78.14 Z-13.895
X-248.238 Y-78.11 Z-13.892
X-248.185 Y-78.083 Z-13.888
X-248.13 Y-78.06 Z-13.885
X-248.074 Y-78.039 Z-13.883
X-248.016 Y-78.023 Z-13.881
X-247.958 Y-78.01 Z-13.879
X-247.899 Y-78.001 Z-13.878
X-247.839 Y-77.995
X-247.779 Y-77.993 Z-13.877
G3 X-247.64 Z-13.91 I0. K-0.318
G2 X-247.5 Z-13.942 I0.14 K0.285
G1 X184.439
X189.407 Z-13.951
X192.443 Z-13.975
X195.505 Z-14.013
X199.255 Z-14.08
X202.601 Z-14.159
X205.65 Z-14.245
X209.038 Z-14.358
X212.458 Z-14.491
X215.755 Z-14.635
X219.169 Z-14.801
X222.635 Z-14.988
X225.931 Z-15.182
X229.255 Z-15.394
X232.838 Z-15.641
X235.942 Z-15.871
X239.255 Z-16.132
X242.542 Z-16.408
X245.735 Z-16.691
G2 X245.903 Z-16.66 I0.028 K0.316
G1 X245.92 Z-16.652
G3 X246.059 Z-16.619 I0.14 K-0.285
G1 X246.558
G17 G3 X247.51 Y-77.041 I0. J0.952
G1 Y-76.946
G3 X246.558 Y-75.993 I-0.952 J0.
G18 G2 X246.418 Z-16.652 I0. K-0.318
G3 X246.249 Z-16.683 I-0.14 K0.285
G1 X243.159 Z-16.396
X239.905 Z-16.11
X236.446 Z-15.824
X233.257 Z-15.576
X230.004 Z-15.339
X226.687 Z-15.114
X223.421 Z-14.908
X219.76 Z-14.696
X216.403 Z-14.519
X213.264 Z-14.369
X210.052 Z-14.231
X206.816 Z-14.108
X203.542 Z-13.999
X200.528 Z-13.914
X197.165 Z-13.835
X193.576 Z-13.771
X190.542 Z-13.733
X187.506 Z-13.709
X182.538 Z-13.699
X-247.5
G3 X-247.64 Z-13.667 I0. K0.318
G2 X-247.779 Z-13.635 I-0.14 K-0.285
G1 X-247.839 Y-75.992 Z-13.634
X-247.899 Y-75.986
X-247.958 Y-75.977 Z-13.633
X-248.016 Y-75.964 Z-13.631
X-248.074 Y-75.947 Z-13.629
X-248.13 Y-75.927 Z-13.627
X-248.185 Y-75.903 Z-13.624
X-248.238 Y-75.876 Z-13.62
X-248.29 Y-75.846 Z-13.617
X-248.339 Y-75.813 Z-13.613
X-248.387 Y-75.776 Z-13.608
X-248.431 Y-75.737 Z-13.603
X-248.474 Y-75.695 Z-13.598
X-248.513 Y-75.651 Z-13.593
X-248.55 Y-75.604 Z-13.587
X-248.584 Y-75.555 Z-13.581
X-248.614 Y-75.503 Z-13.575
X-248.641 Y-75.45 Z-13.569
X-248.665 Y-75.396 Z-13.562
X-248.685 Y-75.34 Z-13.555
X-248.702 Y-75.283 Z-13.548
X-248.715 Y-75.225 Z-13.541
X-248.724 Y-75.166 Z-13.534
X-248.73 Y-75.107 Z-13.527
X-248.732 Y-75.048 Z-13.52
Y-74.939 Z-13.507
X-248.73 Y-74.88 Z-13.499
X-248.724 Y-74.821 Z-13.492
X-248.715 Y-74.762 Z-13.485
X-248.702 Y-74.704 Z-13.478
X-248.685 Y-74.647 Z-13.471
X-248.665 Y-74.591 Z-13.464
X-248.641 Y-74.537 Z-13.458
X-248.614 Y-74.484 Z-13.451
X-248.584 Y-74.433 Z-13.445
X-248.55 Y-74.383 Z-13.439
X-248.513 Y-74.337 Z-13.433
X-248.474 Y-74.292 Z-13.428
X-248.431 Y-74.25 Z-13.423
X-248.387 Y-74.211 Z-13.418
X-248.339 Y-74.174 Z-13.414
X-248.29 Y-74.141 Z-13.41
X-248.238 Y-74.111 Z-13.406
X-248.185 Y-74.084 Z-13.403
X-248.13 Y-74.06 Z-13.4
X-248.074 Y-74.04 Z-13.397
X-248.016 Y-74.023 Z-13.395
X-247.958 Y-74.01 Z-13.394
X-247.899 Y-74.001 Z-13.393
X-247.839 Y-73.996 Z-13.392
X-247.779 Y-73.994
G3 X-247.64 Z-13.424 I0. K-0.317
G2 X-247.5 Z-13.457 I0.14 K0.285
G1 X178.036
X184.935 Z-13.464
X188.247 Z-13.487
X191.385 Z-13.525
X195.16 Z-13.592
X198.525 Z-13.671
X201.441 Z-13.753
X204.564 Z-13.856
X207.762 Z-13.977
X210.933 Z-14.112
X213.99 Z-14.256
X217.217 Z-14.424
X220.46 Z-14.607
X223.872 Z-14.818
X226.918 Z-15.021
X230.192 Z-15.254
X233.703 Z-15.522
X236.891 Z-15.782
X240.207 Z-16.068
X243.436 Z-16.363
X246.655 Z-16.673
G2 X246.825 Z-16.642 I0.03 K0.316
G1 X246.844 Z-16.633
G3 X246.984 Z-16.6 I0.14 K-0.285
G1 X247.283
G17 G3 X248.236 Y-73.041 I0. J0.952
G1 Y-72.947
G3 X247.283 Y-71.994 I-0.952 J0.
G18 G2 X247.143 Z-16.633 I0. K-0.318
G3 X246.972 Z-16.663 I-0.14 K0.285
G1 X243.839 Z-16.35
X240.708 Z-16.052
X237.117 Z-15.729
X233.785 Z-15.447
X230.797 Z-15.208
X227.383 Z-14.952
X223.969 Z-14.713
X220.71 Z-14.501
X217.469 Z-14.307
X214.449 Z-14.139
X211.325 Z-13.981
X208.268 Z-13.839
X205.381 Z-13.719
X202.31 Z-13.604
X199.34 Z-13.508
X196.405 Z-13.425
X193.151 Z-13.349
X189.373 Z-13.282
X186.235 Z-13.244
X182.924 Z-13.221
X176.024 Z-13.214
X-247.5
G3 X-247.64 Z-13.181 I0. K0.318
G2 X-247.779 Z-13.149 I-0.14 K-0.285
G1 X-247.839 Y-71.992
X-247.899 Y-71.987 Z-13.148
X-247.958 Y-71.977 Z-13.147
X-248.016 Y-71.964 Z-13.145
X-248.074 Y-71.948 Z-13.143
X-248.13 Y-71.928 Z-13.141
X-248.185 Y-71.904 Z-13.138
X-248.238 Y-71.877 Z-13.135
X-248.29 Y-71.847 Z-13.131
X-248.339 Y-71.813 Z-13.127
X-248.387 Y-71.777 Z-13.123
X-248.431 Y-71.738 Z-13.118
X-248.474 Y-71.696 Z-13.113
X-248.513 Y-71.651 Z-13.107
X-248.55 Y-71.604 Z-13.102
X-248.584 Y-71.555 Z-13.096
X-248.614 Y-71.504 Z-13.089
X-248.641 Y-71.451 Z-13.083
X-248.665 Y-71.397 Z-13.076
X-248.685 Y-71.341 Z-13.07
X-248.702 Y-71.284 Z-13.063
X-248.715 Y-71.226 Z-13.056
X-248.724 Y-71.167 Z-13.049
X-248.73 Y-71.108 Z-13.041
X-248.732 Y-71.048 Z-13.034
Y-70.94 Z-13.021
X-248.73 Y-70.88 Z-13.014
X-248.724 Y-70.821 Z-13.007
X-248.715 Y-70.763 Z-12.999
X-248.702 Y-70.705 Z-12.992
X-248.685 Y-70.648 Z-12.985
X-248.665 Y-70.592 Z-12.979
X-248.641 Y-70.537 Z-12.972
X-248.614 Y-70.484 Z-12.966
X-248.584 Y-70.433 Z-12.959
X-248.55 Y-70.384 Z-12.953
X-248.513 Y-70.337 Z-12.948
X-248.474 Y-70.293 Z-12.942
X-248.431 Y-70.251 Z-12.937
X-248.387 Y-70.211 Z-12.932
X-248.339 Y-70.175 Z-12.928
X-248.29 Y-70.141 Z-12.924
X-248.238 Y-70.111 Z-12.92
X-248.185 Y-70.084 Z-12.917
X-248.13 Y-70.061 Z-12.914
X-248.074 Y-70.041 Z-12.912
X-248.016 Y-70.024 Z-12.91
X-247.958 Y-70.011 Z-12.908
X-247.899 Y-70.002 Z-12.907
X-247.839 Y-69.996 Z-12.906
X-247.779 Y-69.994
G3 X-247.64 Z-12.939 I0. K-0.318
G2 X-247.5 Z-12.971 I0.14 K0.285
G1 X175.649
X181.168 Z-12.979
X184.204 Z-13.001
X187.342 Z-13.039
X191.128 Z-13.106
X194.614 Z-13.188
X197.616 Z-13.273
X200.881 Z-13.382
X204.179 Z-13.508
X207.488 Z-13.651
X210.916 Z-13.817
X214.274 Z-13.996
X217.699 Z-14.196
X221.127 Z-14.414
X224.678 Z-14.659
X227.713 Z-14.883
X230.803 Z-15.124
X234.24 Z-15.41
X237.478 Z-15.697
X240.489 Z-15.977
X243.775 Z-16.299
X247.207 Z-16.654
G2 X247.379 Z-16.623 I0.033 K0.316
G1 X247.399 Z-16.613
G3 X247.539 Z-16.581 I0.14 K-0.285
G1 X247.683
G17 G3 X248.635 Y-69.042 I0. J0.952
G1 Y-68.947
G3 X247.683 Y-67.995 I-0.952 J0.
G18 G2 X247.543 Z-16.613 I0. K-0.317
G3 X247.37 Z-16.644 I-0.14 K0.285
G1 X244.191 Z-16.304
X241.03 Z-15.982
X237.739 Z-15.663
X234.522 Z-15.368
X231.576 Z-15.111
X228.086 Z-14.824
X224.415 Z-14.542
X221.411 Z-14.327
X218.174 Z-14.109
X214.959 Z-13.909
X211.577 Z-13.715
X208.204 Z-13.538
X205.17 Z-13.394
X201.952 Z-13.256
X198.701 Z-13.132
X195.501 Z-13.027
X192.594 Z-12.945
X189.25 Z-12.866
X185.395 Z-12.797
X182.134 Z-12.758
X179.098 Z-12.736
X173.854 Z-12.728
X-247.5
G3 X-247.64 Z-12.696 I0. K0.318
G2 X-247.779 Z-12.663 I-0.14 K-0.285
G1 X-247.839 Y-67.993
X-247.899 Y-67.987 Z-12.662
X-247.958 Y-67.978 Z-12.661
X-248.016 Y-67.965 Z-12.66
X-248.074 Y-67.948 Z-12.658
X-248.13 Y-67.928 Z-12.655
X-248.185 Y-67.905 Z-12.652
X-248.238 Y-67.878 Z-12.649
X-248.29 Y-67.847 Z-12.645
X-248.339 Y-67.814 Z-12.641
X-248.387 Y-67.778 Z-12.637
X-248.431 Y-67.738 Z-12.632
X-248.474 Y-67.696 Z-12.627
X-248.513 Y-67.652 Z-12.622
X-248.55 Y-67.605 Z-12.616
X-248.584 Y-67.556 Z-12.61
X-248.614 Y-67.505 Z-12.604
X-248.641 Y-67.452 Z-12.597
X-248.665 Y-67.397 Z-12.591
X-248.685 Y-67.341 Z-12.584
X-248.702 Y-67.284 Z-12.577
X-248.715 Y-67.226 Z-12.57
X-248.724 Y-67.168 Z-12.563
X-248.73 Y-67.108 Z-12.556
X-248.732 Y-67.049 Z-12.548
Y-66.94 Z-12.535
X-248.73 Y-66.881 Z-12.528
X-248.724 Y-66.822 Z-12.521
X-248.715 Y-66.763 Z-12.514
X-248.702 Y-66.705 Z-12.507
X-248.685 Y-66.648 Z-12.5
X-248.665 Y-66.592 Z-12.493
X-248.641 Y-66.538 Z-12.486
X-248.614 Y-66.485 Z-12.48
X-248.584 Y-66.434 Z-12.474
X-248.55 Y-66.385 Z-12.468
X-248.513 Y-66.338 Z-12.462
X-248.474 Y-66.293 Z-12.457
X-248.431 Y-66.251 Z-12.452
X-248.387 Y-66.212 Z-12.447
X-248.339 Y-66.175 Z-12.442
X-248.29 Y-66.142 Z-12.438
X-248.238 Y-66.112 Z-12.435
X-248.185 Y-66.085 Z-12.431
X-248.13 Y-66.061 Z-12.429
X-248.074 Y-66.041 Z-12.426
X-248.016 Y-66.025 Z-12.424
X-247.958 Y-66.012 Z-12.423
X-247.899 Y-66.002 Z-12.421
X-247.839 Y-65.997
X-247.779 Y-65.995 Z-12.42
G3 X-247.64 Z-12.453 I0. K-0.318
G2 X-247.5 Z-12.485 I0.14 K0.285
G1 X171.467
X176.987 Z-12.493
X180.022 Z-12.514
X183.325 Z-12.553
X187.195 Z-12.622
X190.663 Z-12.704
X193.659 Z-12.789
X197.003 Z-12.9
X200.573 Z-13.038
X204.047 Z-13.191
X207.457 Z-13.359
X210.834 Z-13.542
X214.151 Z-13.738
X217.369 Z-13.944
X221.234 Z-14.213
X224.692 Z-14.472
X227.616 Z-14.705
X231.06 Z-14.995
X234.75 Z-15.327
X237.938 Z-15.631
X240.98 Z-15.936
X244.299 Z-16.285
X247.462 Z-16.633
G2 X247.637 Z-16.603 I0.035 K0.316
G1 X247.657 Z-16.593
G3 X247.797 Z-16.561 I0.14 K-0.285
G1 X247.814
G17 G3 X248.766 Y-65.042 I0. J0.952
G1 Y-64.948
G3 X247.814 Y-63.995 I-0.953 J0.
G18 G2 X247.674 Z-16.593 I0. K-0.317
G3 X247.498 Z-16.623 I-0.14 K0.285
G1 X244.503 Z-16.283
X241.324 Z-15.937
X237.838 Z-15.577
X234.555 Z-15.255
X231.613 Z-14.98
X228.417 Z-14.697
X224.919 Z-14.405
X221.872 Z-14.166
X218.85 Z-13.942
X215.134 Z-13.686
X211.706 Z-13.468
X208.177 Z-13.262
X204.808 Z-13.083
X201.519 Z-12.924
X198.19 Z-12.78
X194.893 Z-12.654
X191.628 Z-12.545
X188.743 Z-12.463
X185.146 Z-12.378
X181.361 Z-12.311
X177.92 Z-12.27
X174.884 Z-12.25
X168.537 Z-12.242
X-247.5
G3 X-247.64 Z-12.21 I0. K0.318
G2 X-247.779 Z-12.178 I-0.14 K-0.285
G1 X-247.839 Y-63.993 Z-12.177
X-247.899 Y-63.988
X-247.958 Y-63.978 Z-12.176
X-248.016 Y-63.965 Z-12.174
X-248.074 Y-63.949 Z-12.172
X-248.13 Y-63.929 Z-12.17
X-248.185 Y-63.905 Z-12.167
X-248.238 Y-63.878 Z-12.163
X-248.29 Y-63.848 Z-12.16
X-248.339 Y-63.815 Z-12.156
X-248.387 Y-63.778 Z-12.151
X-248.431 Y-63.739 Z-12.147
X-248.474 Y-63.697 Z-12.141
X-248.513 Y-63.652 Z-12.136
X-248.55 Y-63.605 Z-12.13
X-248.584 Y-63.556 Z-12.124
X-248.614 Y-63.505 Z-12.118
X-248.641 Y-63.452 Z-12.112
X-248.665 Y-63.398 Z-12.105
X-248.685 Y-63.342 Z-12.098
X-248.702 Y-63.285 Z-12.091
X-248.715 Y-63.227 Z-12.084
X-248.724 Y-63.168 Z-12.077
X-248.73 Y-63.109 Z-12.07
X-248.732 Y-63.05 Z-12.063
Y-62.941 Z-12.05
X-248.73 Y-62.882 Z-12.042
X-248.724 Y-62.822 Z-12.035
X-248.715 Y-62.764 Z-12.028
X-248.702 Y-62.706 Z-12.021
X-248.685 Y-62.649 Z-12.014
X-248.665 Y-62.593 Z-12.007
X-248.641 Y-62.538 Z-12.001
X-248.614 Y-62.485 Z-11.994
X-248.584 Y-62.434 Z-11.988
X-248.55 Y-62.385 Z-11.982
X-248.513 Y-62.338 Z-11.976
X-248.474 Y-62.294 Z-11.971
X-248.431 Y-62.252 Z-11.966
X-248.387 Y-62.212 Z-11.961
X-248.339 Y-62.176 Z-11.957
X-248.29 Y-62.143 Z-11.953
X-248.238 Y-62.112 Z-11.949
X-248.185 Y-62.085 Z-11.946
X-248.13 Y-62.062 Z-11.943
X-248.074 Y-62.042 Z-11.94
X-248.016 Y-62.025 Z-11.938
X-247.958 Y-62.012 Z-11.937
X-247.899 Y-62.003 Z-11.936
X-247.839 Y-61.997 Z-11.935
X-247.779 Y-61.995
G3 X-247.64 Z-11.967 I0. K-0.318
G2 X-247.5 Z-12. I0.14 K0.285
G1 X159.52
X172.491 Z-12.005
X175.802 Z-12.026
X179.267 Z-12.067
X183.228 Z-12.137
X186.689 Z-12.219
X189.582 Z-12.301
X192.688 Z-12.404
X195.942 Z-12.527
X199.094 Z-12.662
X202.077 Z-12.803
X205.298 Z-12.971
X208.509 Z-13.153
X211.896 Z-13.362
X214.893 Z-13.563
X218.011 Z-13.784
X221.685 Z-14.064
X224.8 Z-14.317
X227.755 Z-14.571
X231.138 Z-14.878
X234.52 Z-15.203
X237.559 Z-15.51
X240.661 Z-15.838
X244.15 Z-16.225
X247.5 Z-16.616
G2 X247.676 Z-16.586 I0.037 K0.315
G3 X247.816 Z-16.553 I0.14 K-0.285
G1 X247.831
G17 G3 X248.784 Y-61.043 I0. J0.952
G1 Y-60.948
G3 X247.831 Y-59.996 I-0.952 J0.
G18 G2 X247.692 Z-16.586 I0. K-0.317
G1 X247.691
G3 X247.514 Z-16.616 I-0.14 K0.285
G1 X247.5 Z-16.614
X244.235 Z-16.224
X241.022 Z-15.855
X237.822 Z-15.505
X234.509 Z-15.159
X231.444 Z-14.855
X228.484 Z-14.574
X224.931 Z-14.256
X221.498 Z-13.967
X218.642 Z-13.74
X215.202 Z-13.482
X211.18 Z-13.203
X207.803 Z-12.988
X204.336 Z-12.785
X200.926 Z-12.603
X197.52 Z-12.438
X194.192 Z-12.294
X190.811 Z-12.165
X187.629 Z-12.059
X184.744 Z-11.977
X181.152 Z-11.892
X177.164 Z-11.822
X173.65 Z-11.782
X169.786 Z-11.76
X-247.5 Z-11.757
G3 X-247.64 Z-11.724 I0. K0.317
G2 X-247.779 Z-11.692 I-0.14 K-0.285
G1 X-247.839 Y-59.994
X-247.899 Y-59.988 Z-11.691
X-247.958 Y-59.979 Z-11.69
X-248.016 Y-59.966 Z-11.688
X-248.074 Y-59.949 Z-11.686
X-248.13 Y-59.929 Z-11.684
X-248.185 Y-59.906 Z-11.681
X-248.238 Y-59.879 Z-11.678
X-248.29 Y-59.849 Z-11.674
X-248.339 Y-59.815 Z-11.67
X-248.387 Y-59.779 Z-11.666
X-248.431 Y-59.739 Z-11.661
X-248.474 Y-59.697 Z-11.656
X-248.513 Y-59.653 Z-11.65
X-248.55 Y-59.606 Z-11.645
X-248.584 Y-59.557 Z-11.639
X-248.614 Y-59.506 Z-11.633
X-248.641 Y-59.453 Z-11.626
X-248.665 Y-59.398 Z-11.619
X-248.685 Y-59.342 Z-11.613
X-248.702 Y-59.285 Z-11.606
X-248.715 Y-59.227 Z-11.599
X-248.724 Y-59.169 Z-11.592
X-248.73 Y-59.11 Z-11.584
X-248.732 Y-59.05 Z-11.577
Y-58.942 Z-11.564
X-248.73 Y-58.882 Z-11.557
X-248.724 Y-58.823 Z-11.55
X-248.715 Y-58.764 Z-11.542
X-248.702 Y-58.706 Z-11.535
X-248.685 Y-58.649 Z-11.529
X-248.665 Y-58.593 Z-11.522
X-248.641 Y-58.539 Z-11.515
X-248.614 Y-58.486 Z-11.509
X-248.584 Y-58.435 Z-11.502
X-248.55 Y-58.386 Z-11.497
X-248.513 Y-58.339 Z-11.491
X-248.474 Y-58.294 Z-11.485
X-248.431 Y-58.252 Z-11.48
X-248.387 Y-58.213 Z-11.476
X-248.339 Y-58.177 Z-11.471
X-248.29 Y-58.143 Z-11.467
X-248.238 Y-58.113 Z-11.463
X-248.185 Y-58.086 Z-11.46
X-248.13 Y-58.062 Z-11.457
X-248.074 Y-58.042 Z-11.455
X-248.016 Y-58.026 Z-11.453
X-247.958 Y-58.013 Z-11.451
X-247.899 Y-58.003 Z-11.45
X-247.839 Y-57.998 Z-11.449
X-247.779 Y-57.996
G3 X-247.64 Z-11.482 I0. K-0.318
G2 X-247.5 Z-11.514 I0.14 K0.285
G1 X167.773 Z-11.517
X171.637 Z-11.539
X175.152 Z-11.579
X179.147 Z-11.649
X182.742 Z-11.734
X185.627 Z-11.816
X188.81 Z-11.922
X192.191 Z-12.051
X195.568 Z-12.198
X199.043 Z-12.366
X202.547 Z-12.554
X205.946 Z-12.754
X209.247 Z-12.965
X213.283 Z-13.245
X216.757 Z-13.506
X219.569 Z-13.73
X223. Z-14.019
X226.837 Z-14.364
X230.14 Z-14.68
X232.999 Z-14.966
X236.374 Z-15.321
X239.822 Z-15.703
X242.837 Z-16.052
X247.5 Z-16.614
G2 X247.678 Z-16.584 I0.038 K0.315
G3 X247.817 Z-16.552 I0.14 K-0.285
G1 X247.818
G17 G3 X248.77 Y-57.043 I0. J0.953
G1 Y-56.949
G3 X247.818 Y-55.996 I-0.952 J0.
G18 G2 X247.678 Z-16.584 I0. K-0.317
G3 X247.5 Z-16.614 I-0.14 K0.285
G1 X241.136 Z-15.845
X238.032 Z-15.483
X234.429 Z-15.084
X231.056 Z-14.73
X228.231 Z-14.446
X224.853 Z-14.123
X220.983 Z-13.774
X217.533 Z-13.484
X214.756 Z-13.263
X211.278 Z-13.002
X207.18 Z-12.718
X203.803 Z-12.503
X200.284 Z-12.297
X196.809 Z-12.111
X193.518 Z-11.953
X190.191 Z-11.809
X186.81 Z-11.679
X183.627 Z-11.574
X180.741 Z-11.492
X177.152 Z-11.407
X173.154 Z-11.336
X169.363 Z-11.293
X164.948 Z-11.272
X-247.5 Z-11.271
G3 X-247.64 Z-11.239 I0. K0.318
G2 X-247.779 Z-11.206 I-0.14 K-0.285
G1 X-247.839 Y-55.994
X-247.899 Y-55.989 Z-11.205
X-247.958 Y-55.98 Z-11.204
X-248.016 Y-55.967 Z-11.203
X-248.074 Y-55.95 Z-11.201
X-248.13 Y-55.93 Z-11.198
X-248.185 Y-55.906 Z-11.195
X-248.238 Y-55.879 Z-11.192
X-248.29 Y-55.849 Z-11.188
X-248.339 Y-55.816 Z-11.184
X-248.387 Y-55.779 Z-11.18
X-248.431 Y-55.74 Z-11.175
X-248.474 Y-55.698 Z-11.17
X-248.513 Y-55.653 Z-11.165
X-248.55 Y-55.607 Z-11.159
X-248.584 Y-55.557 Z-11.153
X-248.614 Y-55.506 Z-11.147
X-248.641 Y-55.453 Z-11.14
X-248.665 Y-55.399 Z-11.134
X-248.685 Y-55.343 Z-11.127
X-248.702 Y-55.286 Z-11.12
X-248.715 Y-55.228 Z-11.113
X-248.724 Y-55.169 Z-11.106
X-248.73 Y-55.11 Z-11.099
X-248.732 Y-55.051 Z-11.092
Y-54.942 Z-11.078
X-248.73 Y-54.883 Z-11.071
X-248.724 Y-54.824 Z-11.064
X-248.715 Y-54.765 Z-11.057
X-248.702 Y-54.707 Z-11.05
X-248.685 Y-54.65 Z-11.043
X-248.665 Y-54.594 Z-11.036
X-248.641 Y-54.54 Z-11.029
X-248.614 Y-54.487 Z-11.023
X-248.584 Y-54.435 Z-11.017
X-248.55 Y-54.386 Z-11.011
X-248.513 Y-54.339 Z-11.005
X-248.474 Y-54.295 Z-11.
X-248.431 Y-54.253 Z-10.995
X-248.387 Y-54.214 Z-10.99
X-248.339 Y-54.177 Z-10.985
X-248.29 Y-54.144 Z-10.981
X-248.238 Y-54.114 Z-10.978
X-248.185 Y-54.087 Z-10.974
X-248.13 Y-54.063 Z-10.972
X-248.074 Y-54.043 Z-10.969
X-248.016 Y-54.026 Z-10.967
X-247.958 Y-54.013 Z-10.966
X-247.899 Y-54.004 Z-10.964
X-247.839 Y-53.998
X-247.779 Y-53.997
G3 X-247.64 Z-10.996 I0. K-0.318
G2 X-247.5 Z-11.028 I0.14 K0.285
G1 X162.949 Z-11.029
X167.365 Z-11.051
X171.151 Z-11.094
X175.15 Z-11.164
X178.739 Z-11.249
X181.626 Z-11.331
X184.81 Z-11.436
X188.191 Z-11.566
X191.451 Z-11.707
X194.633 Z-11.86
X198.02 Z-12.039
X201.707 Z-12.254
X205.135 Z-12.472
X209.243 Z-12.756
X212.717 Z-13.017
X215.496 Z-13.238
X218.966 Z-13.53
X222.853 Z-13.88
X226.23 Z-14.203
X229.027 Z-14.484
X232.402 Z-14.838
X236.058 Z-15.244
X239.236 Z-15.614
X247.5 Z-16.614
G2 X247.678 Z-16.584 I0.038 K0.315
G3 X247.818 Z-16.552 I0.14 K-0.285
G17 G3 X248.77 Y-53.044 I0. J0.952
G1 Y-52.949
G3 X247.818 Y-51.997 I-0.952 J0.
G18 G2 X247.678 Z-16.584 I0. K-0.318
G3 X247.5 Z-16.614 I-0.14 K0.285
G1 X237.311 Z-15.38
X234.084 Z-15.004
X230.402 Z-14.596
X226.998 Z-14.238
X224.23 Z-13.96
X220.869 Z-13.638
X216.966 Z-13.287
X213.496 Z-12.995
X210.755 Z-12.777
X207.263 Z-12.515
X203.113 Z-12.228
X199.707 Z-12.011
X195.968 Z-11.793
X192.574 Z-11.614
X189.45 Z-11.464
X186.19 Z-11.323
X182.809 Z-11.194
X179.623 Z-11.088
X176.738 Z-11.006
X173.146 Z-10.921
X169.142 Z-10.851
X165.353 Z-10.808
X160.937 Z-10.786
X-247.5
G3 X-247.64 Z-10.753 I0. K0.318
G2 X-247.779 Z-10.721 I-0.14 K-0.285
G1 X-247.839 Y-51.995 Z-10.72
X-247.899 Y-51.989
X-247.958 Y-51.98 Z-10.719
X-248.016 Y-51.967 Z-10.717
X-248.074 Y-51.951 Z-10.715
X-248.13 Y-51.93 Z-10.713
X-248.185 Y-51.907 Z-10.71
X-248.238 Y-51.88 Z-10.707
X-248.29 Y-51.85 Z-10.703
X-248.339 Y-51.816 Z-10.699
X-248.387 Y-51.78 Z-10.694
X-248.431 Y-51.741 Z-10.69
X-248.474 Y-51.699 Z-10.684
X-248.513 Y-51.654 Z-10.679
X-248.55 Y-51.607 Z-10.673
X-248.584 Y-51.558 Z-10.667
X-248.614 Y-51.507 Z-10.661
X-248.641 Y-51.454 Z-10.655
X-248.665 Y-51.399 Z-10.648
X-248.685 Y-51.343 Z-10.641
X-248.702 Y-51.286 Z-10.634
X-248.715 Y-51.228 Z-10.627
X-248.724 Y-51.17 Z-10.62
X-248.73 Y-51.111 Z-10.613
X-248.732 Y-51.051 Z-10.606
Y-50.943 Z-10.593
X-248.73 Y-50.883 Z-10.586
X-248.724 Y-50.824 Z-10.578
X-248.715 Y-50.766 Z-10.571
X-248.702 Y-50.708 Z-10.564
X-248.685 Y-50.651 Z-10.557
X-248.665 Y-50.595 Z-10.55
X-248.641 Y-50.54 Z-10.544
X-248.614 Y-50.487 Z-10.537
X-248.584 Y-50.436 Z-10.531
X-248.55 Y-50.387 Z-10.525
X-248.513 Y-50.34 Z-10.52
X-248.474 Y-50.295 Z-10.514
X-248.431 Y-50.253 Z-10.509
X-248.387 Y-50.214 Z-10.504
X-248.339 Y-50.178 Z-10.5
X-248.29 Y-50.144 Z-10.496
X-248.238 Y-50.114 Z-10.492
X-248.185 Y-50.087 Z-10.489
X-248.13 Y-50.064 Z-10.486
X-248.074 Y-50.043 Z-10.484
X-248.016 Y-50.027 Z-10.481
X-247.958 Y-50.014 Z-10.48
X-247.899 Y-50.005 Z-10.479
X-247.839 Y-49.999 Z-10.478
X-247.779 Y-49.997
G3 X-247.64 Z-10.51 I0. K-0.318
G2 X-247.5 Z-10.543 I0.14 K0.285
G1 X158.94
X163.355 Z-10.565
X167.154 Z-10.608
X171.145 Z-10.678
X174.851 Z-10.766
X177.622 Z-10.845
X180.809 Z-10.951
X184.19 Z-11.08
X187.45 Z-11.221
X190.515 Z-11.368
X193.915 Z-11.548
X197.707 Z-11.768
X201.09 Z-11.983
X205.243 Z-12.27
X208.716 Z-12.531
X211.424 Z-12.746
X214.931 Z-13.041
X218.869 Z-13.396
X222.199 Z-13.714
X224.97 Z-13.992
X228.374 Z-14.35
X232.084 Z-14.761
X235.335 Z-15.14
X247.5 Z-16.614
G2 X247.678 Z-16.584 I0.038 K0.315
G3 X247.818 Z-16.552 I0.14 K-0.285
G17 G3 X248.77 Y-49.045 I0. J0.952
G1 Y-48.95
G3 X247.818 Y-47.997 I-0.952 J0.
G18 G2 X247.678 Z-16.584 I0. K-0.318
G3 X247.5 Z-16.614 I-0.14 K0.285
G1 X233.385 Z-14.903
X230.11 Z-14.521
X226.347 Z-14.104
X222.941 Z-13.746
X220.199 Z-13.472
X216.869 Z-13.153
X212.931 Z-12.799
X209.388 Z-12.501
X206.677 Z-12.285
X203.222 Z-12.026
X199.09 Z-11.74
X195.707 Z-11.525
X191.915 Z-11.305
X188.515 Z-11.125
X185.449 Z-10.978
X182.19 Z-10.837
X178.809 Z-10.708
X175.622 Z-10.602
X172.85 Z-10.523
X169.145 Z-10.435
X164.953 Z-10.362
X160.788 Z-10.317
X155.82 Z-10.3
X-247.5
G3 X-247.64 Z-10.267 I0. K0.318
G2 X-247.779 Z-10.235 I-0.14 K-0.285
G1 X-247.839 Y-47.996
X-247.899 Y-47.99 Z-10.234
X-247.958 Y-47.981 Z-10.233
X-248.016 Y-47.968 Z-10.231
X-248.074 Y-47.951 Z-10.229
X-248.13 Y-47.931 Z-10.227
X-248.185 Y-47.907 Z-10.224
X-248.238 Y-47.88 Z-10.221
X-248.29 Y-47.85 Z-10.217
X-248.339 Y-47.817 Z-10.213
X-248.387 Y-47.78 Z-10.209
X-248.431 Y-47.741 Z-10.204
X-248.474 Y-47.699 Z-10.199
X-248.513 Y-47.655 Z-10.193
X-248.55 Y-47.608 Z-10.188
X-248.584 Y-47.559 Z-10.182
X-248.614 Y-47.507 Z-10.176
X-248.641 Y-47.454 Z-10.169
X-248.665 Y-47.4 Z-10.163
X-248.685 Y-47.344 Z-10.156
X-248.702 Y-47.287 Z-10.149
X-248.715 Y-47.229 Z-10.142
X-248.724 Y-47.17 Z-10.135
X-248.73 Y-47.111 Z-10.127
X-248.732 Y-47.052 Z-10.12
Y-46.943 Z-10.107
X-248.73 Y-46.884 Z-10.1
X-248.724 Y-46.825 Z-10.093
X-248.715 Y-46.766 Z-10.086
X-248.702 Y-46.708 Z-10.079
X-248.685 Y-46.651 Z-10.072
X-248.665 Y-46.595 Z-10.065
X-248.641 Y-46.541 Z-10.058
X-248.614 Y-46.488 Z-10.052
X-248.584 Y-46.437 Z-10.046
X-248.55 Y-46.387 Z-10.04
X-248.513 Y-46.341 Z-10.034
X-248.474 Y-46.296 Z-10.028
X-248.431 Y-46.254 Z-10.023
X-248.387 Y-46.215 Z-10.019
X-248.339 Y-46.178 Z-10.014
X-248.29 Y-46.145 Z-10.01
X-248.238 Y-46.115 Z-10.006
X-248.185 Y-46.088 Z-10.003
X-248.13 Y-46.064 Z-10.
X-248.074 Y-46.044 Z-9.998
X-248.016 Y-46.027 Z-9.996
X-247.958 Y-46.014 Z-9.994
X-247.899 Y-46.005 Z-9.993
X-247.839 Y-46. Z-9.992
X-247.779 Y-45.998
G3 X-247.64 Z-10.025 I0. K-0.318
G2 X-247.5 Z-10.057 I0.14 K0.285
G1 X153.806
X158.774 Z-10.074
X162.949 Z-10.119
X167.141 Z-10.192
X170.848 Z-10.28
X173.62 Z-10.359
X176.724 Z-10.462
X180.125 Z-10.592
X183.382 Z-10.733
X186.369 Z-10.875
X189.756 Z-11.053
X193.659 Z-11.28
X197.045 Z-11.495
X201.171 Z-11.78
X204.6 Z-12.037
X207.316 Z-12.252
X210.897 Z-12.553
X214.869 Z-12.91
X218.199 Z-13.229
X220.912 Z-13.501
X224.347 Z-13.861
X228.11 Z-14.278
X231.41 Z-14.663
X247.5 Z-16.614
G2 X247.678 Z-16.584 I0.038 K0.315
G3 X247.818 Z-16.552 I0.14 K-0.285
G17 G3 X248.77 Y-45.045 I0. J0.952
G1 Y-44.951
G3 X247.818 Y-43.998 I-0.952 J0.
G18 G2 X247.678 Z-16.584 I0. K-0.317
G3 X247.5 Z-16.614 I-0.14 K0.285
G1 X229.434 Z-14.423
X226.11 Z-14.035
X222.319 Z-13.615
X218.854 Z-13.252
X216.138 Z-12.98
X212.836 Z-12.664
X208.863 Z-12.307
X205.208 Z-12.
X202.446 Z-11.782
X199.139 Z-11.535
X195.045 Z-11.252
X191.658 Z-11.037
X187.756 Z-10.81
X184.342 Z-10.631
X181.381 Z-10.49
X178.117 Z-10.349
X174.722 Z-10.219
X171.617 Z-10.117
X168.845 Z-10.037
X165.138 Z-9.949
X160.936 Z-9.876
X156.751 Z-9.831
X151.784 Z-9.814
X-247.5
G3 X-247.64 Z-9.782 I0. K0.318
G2 X-247.779 Z-9.749 I-0.14 K-0.285
G1 X-247.839 Y-43.996
X-247.899 Y-43.991
X-247.958 Y-43.981 Z-9.747
X-248.016 Y-43.968 Z-9.746
X-248.074 Y-43.952 Z-9.744
X-248.13 Y-43.932 Z-9.741
X-248.185 Y-43.908 Z-9.738
X-248.238 Y-43.881 Z-9.735
X-248.29 Y-43.851 Z-9.732
X-248.339 Y-43.817 Z-9.727
X-248.387 Y-43.781 Z-9.723
X-248.431 Y-43.742 Z-9.718
X-248.474 Y-43.7 Z-9.713
X-248.513 Y-43.655 Z-9.708
X-248.55 Y-43.608 Z-9.702
X-248.584 Y-43.559 Z-9.696
X-248.614 Y-43.508 Z-9.69
X-248.641 Y-43.455 Z-9.683
X-248.665 Y-43.401 Z-9.677
X-248.685 Y-43.345 Z-9.67
X-248.702 Y-43.288 Z-9.663
X-248.715 Y-43.23 Z-9.656
X-248.724 Y-43.171 Z-9.649
X-248.73 Y-43.112 Z-9.642
X-248.732 Y-43.052 Z-9.635
Y-42.944 Z-9.621
X-248.73 Y-42.884 Z-9.614
X-248.724 Y-42.825 Z-9.607
X-248.715 Y-42.767 Z-9.6
X-248.702 Y-42.709 Z-9.593
X-248.685 Y-42.652 Z-9.586
X-248.665 Y-42.596 Z-9.579
X-248.641 Y-42.541 Z-9.573
X-248.614 Y-42.488 Z-9.566
X-248.584 Y-42.437 Z-9.56
X-248.55 Y-42.388 Z-9.554
X-248.513 Y-42.341 Z-9.548
X-248.474 Y-42.297 Z-9.543
X-248.431 Y-42.255 Z-9.538
X-248.387 Y-42.215 Z-9.533
X-248.339 Y-42.179 Z-9.529
X-248.29 Y-42.145 Z-9.524
X-248.238 Y-42.115 Z-9.521
X-248.185 Y-42.088 Z-9.518
X-248.13 Y-42.065 Z-9.515
X-248.074 Y-42.045 Z-9.512
X-248.016 Y-42.028 Z-9.51
X-247.958 Y-42.015 Z-9.509
X-247.899 Y-42.006 Z-9.508
X-247.839 Y-42. Z-9.507
X-247.779 Y-41.998
G3 X-247.64 Z-9.539 I0. K-0.318
G2 X-247.5 Z-9.571 I0.14 K0.285
G1 X149.79
X154.758 Z-9.589
X158.944 Z-9.634
X163.143 Z-9.707
X166.845 Z-9.795
X169.617 Z-9.874
X172.722 Z-9.976
X176.153 Z-10.107
X179.38 Z-10.247
X182.338 Z-10.388
X185.702 Z-10.564
X189.61 Z-10.791
X193. Z-11.006
X197.098 Z-11.289
X200.252 Z-11.525
X203.065 Z-11.746
X206.829 Z-12.061
X210.804 Z-12.418
X213.986 Z-12.722
X216.768 Z-13.
X220.292 Z-13.37
X224.136 Z-13.795
X227.459 Z-14.183
X247.5 Z-16.614
G2 X247.678 Z-16.584 I0.038 K0.315
G3 X247.818 Z-16.552 I0.14 K-0.285
G17 G3 X248.77 Y-41.046 I0. J0.952
G1 Y-40.951
G3 X247.818 Y-39.999 I-0.952 J0.
G18 G2 X247.678 Z-16.584 I0. K-0.318
G3 X247.5 Z-16.614 I-0.14 K0.285
G1 X225.459 Z-13.94
X222.136 Z-13.553
X218.292 Z-13.127
X214.739 Z-12.754
X211.955 Z-12.477
X208.804 Z-12.175
X204.829 Z-11.818
X201.028 Z-11.5
X198.212 Z-11.279
X195.098 Z-11.046
X191. Z-10.763
X187.61 Z-10.548
X183.701 Z-10.322
X180.337 Z-10.145
X177.38 Z-10.004
X174.153 Z-9.864
X170.723 Z-9.734
X167.714 Z-9.634
X164.843 Z-9.552
X161.14 Z-9.464
X156.842 Z-9.389
X152.755 Z-9.346
X147.788 Z-9.329
X-247.5
G3 X-247.64 Z-9.296 I0. K0.318
G2 X-247.779 Z-9.264 I-0.14 K-0.285
G1 X-247.839 Y-39.997
X-247.899 Y-39.991 Z-9.263
X-247.958 Y-39.982 Z-9.262
X-248.016 Y-39.969 Z-9.26
X-248.074 Y-39.952 Z-9.258
X-248.13 Y-39.932 Z-9.256
X-248.185 Y-39.909 Z-9.253
X-248.238 Y-39.882 Z-9.25
X-248.29 Y-39.851 Z-9.246
X-248.339 Y-39.818 Z-9.242
X-248.387 Y-39.782 Z-9.237
X-248.431 Y-39.742 Z-9.233
X-248.474 Y-39.7 Z-9.228
X-248.513 Y-39.656 Z-9.222
X-248.55 Y-39.609 Z-9.216
X-248.584 Y-39.56 Z-9.21
X-248.614 Y-39.509 Z-9.204
X-248.641 Y-39.456 Z-9.198
X-248.665 Y-39.401 Z-9.191
X-248.685 Y-39.345 Z-9.184
X-248.702 Y-39.288 Z-9.178
X-248.715 Y-39.23 Z-9.17
X-248.724 Y-39.172 Z-9.163
X-248.73 Y-39.112 Z-9.156
X-248.732 Y-39.053 Z-9.149
Y-38.944 Z-9.136
X-248.73 Y-38.885 Z-9.129
X-248.724 Y-38.826 Z-9.121
X-248.715 Y-38.767 Z-9.114
X-248.702 Y-38.709 Z-9.107
X-248.685 Y-38.652 Z-9.1
X-248.665 Y-38.596 Z-9.094
X-248.641 Y-38.542 Z-9.087
X-248.614 Y-38.489 Z-9.08
X-248.584 Y-38.438 Z-9.074
X-248.55 Y-38.389 Z-9.068
X-248.513 Y-38.342 Z-9.063
X-248.474 Y-38.297 Z-9.057
X-248.431 Y-38.255 Z-9.052
X-248.387 Y-38.216 Z-9.047
X-248.339 Y-38.179 Z-9.043
X-248.29 Y-38.146 Z-9.039
X-248.238 Y-38.116 Z-9.035
X-248.185 Y-38.089 Z-9.032
X-248.13 Y-38.065 Z-9.029
X-248.074 Y-38.045 Z-9.027
X-248.016 Y-38.029 Z-9.025
X-247.958 Y-38.016 Z-9.023
X-247.899 Y-38.006 Z-9.022
X-247.839 Y-38.001 Z-9.021
X-247.779 Y-37.999
G3 X-247.64 Z-9.053 I0. K-0.318
G2 X-247.5 Z-9.086 I0.14 K0.285
G1 X145.781
X150.748 Z-9.103
X154.813 Z-9.146
X159.134 Z-9.221
X162.84 Z-9.309
X165.711 Z-9.391
X168.805 Z-9.494
X172.152 Z-9.621
X175.379 Z-9.761
X178.336 Z-9.902
X181.647 Z-10.076
X185.55 Z-10.302
X188.955 Z-10.517
X193.098 Z-10.803
X196.134 Z-11.03
X198.938 Z-11.25
X202.795 Z-11.573
X206.772 Z-11.93
X209.863 Z-12.225
X212.653 Z-12.503
X216.264 Z-12.881
X220.136 Z-13.31
X223.483 Z-13.7
X247.5 Z-16.614
G2 X247.678 Z-16.584 I0.038 K0.315
G3 X247.818 Z-16.552 I0.14 K-0.285
G17 G3 X248.77 Y-37.046 I0. J0.953
G1 Y-36.952
G3 X247.818 Y-35.999 I-0.952 J0.
G18 G2 X247.678 Z-16.584 I0. K-0.317
G3 X247.5 Z-16.614 I-0.14 K0.285
G1 X221.508 Z-13.46
X218.163 Z-13.07
X214.237 Z-12.635
X210.524 Z-12.246
X207.741 Z-11.97
X204.772 Z-11.687
X200.795 Z-11.33
X196.892 Z-11.003
X194.133 Z-10.787
X191.097 Z-10.56
X186.955 Z-10.274
X183.562 Z-10.059
X179.646 Z-9.833
X176.336 Z-9.659
X173.378 Z-9.518
X170.151 Z-9.379
X166.72 Z-9.248
X163.71 Z-9.148
X160.955 Z-9.069
X157.138 Z-8.978
X152.807 Z-8.903
X148.744 Z-8.86
X143.776 Z-8.843
X-247.5
G3 X-247.64 Z-8.811 I0. K0.318
G2 X-247.779 Z-8.778 I-0.14 K-0.285
G1 X-247.839 Y-35.997
X-247.899 Y-35.992 Z-8.777
X-247.958 Y-35.982 Z-8.776
X-248.016 Y-35.969 Z-8.775
X-248.074 Y-35.953 Z-8.773
X-248.13 Y-35.933 Z-8.77
X-248.185 Y-35.909 Z-8.767
X-248.238 Y-35.882 Z-8.764
X-248.29 Y-35.852 Z-8.76
X-248.339 Y-35.819 Z-8.756
X-248.387 Y-35.782 Z-8.752
X-248.431 Y-35.743 Z-8.747
X-248.474 Y-35.701 Z-8.742
X-248.513 Y-35.656 Z-8.737
X-248.55 Y-35.609 Z-8.731
X-248.584 Y-35.56 Z-8.725
X-248.614 Y-35.509 Z-8.719
X-248.641 Y-35.456 Z-8.712
X-248.665 Y-35.402 Z-8.706
X-248.685 Y-35.346 Z-8.699
X-248.702 Y-35.289 Z-8.692
X-248.715 Y-35.231 Z-8.685
X-248.724 Y-35.172 Z-8.678
X-248.73 Y-35.113 Z-8.671
X-248.732 Y-35.054 Z-8.663
Y-34.945 Z-8.65
X-248.73 Y-34.886 Z-8.643
X-248.724 Y-34.826 Z-8.636
X-248.715 Y-34.768 Z-8.629
X-248.702 Y-34.71 Z-8.622
X-248.685 Y-34.653 Z-8.615
X-248.665 Y-34.597 Z-8.608
X-248.641 Y-34.542 Z-8.601
X-248.614 Y-34.489 Z-8.595
X-248.584 Y-34.438 Z-8.589
X-248.55 Y-34.389 Z-8.583
X-248.513 Y-34.342 Z-8.577
X-248.474 Y-34.298 Z-8.572
X-248.431 Y-34.256 Z-8.566
X-248.387 Y-34.216 Z-8.562
X-248.339 Y-34.18 Z-8.557
X-248.29 Y-34.147 Z-8.553
X-248.238 Y-34.116 Z-8.55
X-248.185 Y-34.089 Z-8.546
X-248.13 Y-34.066 Z-8.543
X-248.074 Y-34.046 Z-8.541
X-248.016 Y-34.029 Z-8.539
X-247.958 Y-34.016 Z-8.537
X-247.899 Y-34.007 Z-8.536
X-247.839 Y-34.001
X-247.779 Y-33.999 Z-8.535
G3 X-247.64 Z-8.568 I0. K-0.318
G2 X-247.5 Z-8.6 I0.14 K0.285
G1 X141.752
X146.719 Z-8.617
X150.948 Z-8.662
X155.137 Z-8.735
X158.854 Z-8.824
X161.71 Z-8.905
X164.804 Z-9.008
X168.188 Z-9.137
X171.443 Z-9.278
X174.335 Z-9.417
X177.646 Z-9.59
X181.514 Z-9.814
X184.91 Z-10.029
X189.056 Z-10.314
X192.016 Z-10.535
X194.81 Z-10.754
X198.761 Z-11.084
X202.74 Z-11.441
X205.679 Z-11.721
X208.451 Z-11.996
X212.209 Z-12.389
X216.163 Z-12.827
X219.533 Z-13.221
X247.5 Z-16.614
G2 X247.678 Z-16.584 I0.038 K0.315
G3 X247.818 Z-16.552 I0.14 K-0.285
G17 G3 X248.77 Y-33.047 I0. J0.952
G1 Y-32.952
G3 X247.818 Y-32. I-0.952 J0.
G18 G2 X247.678 Z-16.584 I0. K-0.317
G3 X247.5 Z-16.614 I-0.14 K0.285
G1 X217.532 Z-12.978
X214.162 Z-12.584
X210.21 Z-12.146
X206.422 Z-11.75
X203.679 Z-11.479
X200.74 Z-11.198
X196.726 Z-10.838
X192.7 Z-10.502
X189.861 Z-10.281
X187.014 Z-10.069
X182.909 Z-9.786
X179.514 Z-9.571
X175.645 Z-9.347
X172.394 Z-9.177
X169.442 Z-9.035
X166.187 Z-8.894
X162.72 Z-8.762
X159.708 Z-8.662
X156.866 Z-8.581
X153.132 Z-8.492
X148.94 Z-8.419
X144.71 Z-8.374
X139.742 Z-8.357
X-247.5
G3 X-247.64 Z-8.325 I0. K0.317
G2 X-247.779 Z-8.292 I-0.14 K-0.285
G1 X-247.839 Y-31.998
X-247.899 Y-31.992
X-247.958 Y-31.983 Z-8.29
X-248.016 Y-31.97 Z-8.289
X-248.074 Y-31.953 Z-8.287
X-248.13 Y-31.933 Z-8.284
X-248.185 Y-31.91 Z-8.282
X-248.238 Y-31.883 Z-8.278
X-248.29 Y-31.853 Z-8.275
X-248.339 Y-31.819 Z-8.271
X-248.387 Y-31.783 Z-8.266
X-248.431 Y-31.743 Z-8.261
X-248.474 Y-31.701 Z-8.256
X-248.513 Y-31.657 Z-8.251
X-248.55 Y-31.61 Z-8.245
X-248.584 Y-31.561 Z-8.239
X-248.614 Y-31.51 Z-8.233
X-248.641 Y-31.457 Z-8.227
X-248.665 Y-31.402 Z-8.22
X-248.685 Y-31.346 Z-8.213
X-248.702 Y-31.289 Z-8.206
X-248.715 Y-31.231 Z-8.199
X-248.724 Y-31.173 Z-8.192
X-248.73 Y-31.114 Z-8.185
X-248.732 Y-31.054 Z-8.178
Y-30.946 Z-8.164
X-248.73 Y-30.886 Z-8.157
X-248.724 Y-30.827 Z-8.15
X-248.715 Y-30.768 Z-8.143
X-248.702 Y-30.71 Z-8.136
X-248.685 Y-30.653 Z-8.129
X-248.665 Y-30.597 Z-8.122
X-248.641 Y-30.543 Z-8.116
X-248.614 Y-30.49 Z-8.109
X-248.584 Y-30.439 Z-8.103
X-248.55 Y-30.39 Z-8.097
X-248.513 Y-30.343 Z-8.091
X-248.474 Y-30.298 Z-8.086
X-248.431 Y-30.256 Z-8.081
X-248.387 Y-30.217 Z-8.076
X-248.339 Y-30.181 Z-8.072
X-248.29 Y-30.147 Z-8.068
X-248.238 Y-30.117 Z-8.064
X-248.185 Y-30.09 Z-8.061
X-248.13 Y-30.066 Z-8.058
X-248.074 Y-30.046 Z-8.055
X-248.016 Y-30.03 Z-8.053
X-247.958 Y-30.017 Z-8.052
X-247.899 Y-30.007 Z-8.051
X-247.839 Y-30.002 Z-8.05
X-247.779 Y-30.
G3 X-247.64 Z-8.082 I0. K-0.318
G2 X-247.5 Z-8.114 I0.14 K0.285
G1 X137.455
X142.561 Z-8.13
X146.929 Z-8.176
X151.13 Z-8.249
X154.948 Z-8.34
X157.706 Z-8.42
X160.698 Z-8.519
X164.186 Z-8.652
X167.441 Z-8.793
X170.334 Z-8.931
X173.591 Z-9.101
X177.465 Z-9.325
X180.864 Z-9.54
X184.972 Z-9.823
X187.705 Z-10.026
X190.627 Z-10.253
X194.726 Z-10.595
X198.739 Z-10.955
X201.587 Z-11.227
X204.335 Z-11.499
X208.182 Z-11.901
X212.189 Z-12.344
X215.557 Z-12.738
X247.5 Z-16.614
G2 X247.678 Z-16.584 I0.038 K0.315
G3 X247.818 Z-16.552 I0.14 K-0.285
G17 G3 X248.77 Y-29.048 I0. J0.952
G1 Y-28.953
G3 X247.818 Y-28. I-0.952 J0.
G18 G2 X247.678 Z-16.584 I0. K-0.318
G3 X247.5 Z-16.614 I-0.14 K0.285
G1 X213.582 Z-12.498
X210.189 Z-12.101
X206.154 Z-11.655
X202.247 Z-11.247
X199.434 Z-10.969
X196.675 Z-10.707
X192.692 Z-10.349
X188.48 Z-9.998
X185.124 Z-9.739
X182.578 Z-9.552
X178.729 Z-9.288
X175.416 Z-9.079
X171.59 Z-8.859
X168.333 Z-8.688
X165.44 Z-8.55
X162.167 Z-8.408
X158.719 Z-8.276
X155.705 Z-8.177
X152.949 Z-8.098
X149.135 Z-8.007
X144.937 Z-7.934
X140.5 Z-7.887
X135.463 Z-7.872
X-247.5
G3 X-247.64 Z-7.839 I0. K0.318
G2 X-247.779 Z-7.807 I-0.14 K-0.285
G1 X-247.839 Y-27.998
X-247.899 Y-27.993 Z-7.806
X-247.958 Y-27.984 Z-7.805
X-248.016 Y-27.971 Z-7.803
X-248.074 Y-27.954 Z-7.801
X-248.13 Y-27.934 Z-7.799
X-248.185 Y-27.91 Z-7.796
X-248.238 Y-27.883 Z-7.793
X-248.29 Y-27.853 Z-7.789
X-248.339 Y-27.82 Z-7.785
X-248.387 Y-27.783 Z-7.78
X-248.431 Y-27.744 Z-7.776
X-248.474 Y-27.702 Z-7.771
X-248.513 Y-27.657 Z-7.765
X-248.55 Y-27.611 Z-7.76
X-248.584 Y-27.561 Z-7.754
X-248.614 Y-27.51 Z-7.747
X-248.641 Y-27.457 Z-7.741
X-248.665 Y-27.403 Z-7.734
X-248.685 Y-27.347 Z-7.728
X-248.702 Y-27.29 Z-7.721
X-248.715 Y-27.232 Z-7.714
X-248.724 Y-27.173 Z-7.706
X-248.73 Y-27.114 Z-7.699
X-248.732 Y-27.055 Z-7.692
Y-26.946 Z-7.679
X-248.73 Y-26.887 Z-7.672
X-248.724 Y-26.828 Z-7.664
X-248.715 Y-26.769 Z-7.657
X-248.702 Y-26.711 Z-7.65
X-248.685 Y-26.654 Z-7.643
X-248.665 Y-26.598 Z-7.637
X-248.641 Y-26.544 Z-7.63
X-248.614 Y-26.491 Z-7.624
X-248.584 Y-26.439 Z-7.617
X-248.55 Y-26.39 Z-7.611
X-248.513 Y-26.343 Z-7.606
X-248.474 Y-26.299 Z-7.6
X-248.431 Y-26.257 Z-7.595
X-248.387 Y-26.218 Z-7.59
X-248.339 Y-26.181 Z-7.586
X-248.29 Y-26.148 Z-7.582
X-248.238 Y-26.118 Z-7.578
X-248.185 Y-26.091 Z-7.575
X-248.13 Y-26.067 Z-7.572
X-248.074 Y-26.047 Z-7.57
X-248.016 Y-26.03 Z-7.568
X-247.958 Y-26.017 Z-7.566
X-247.899 Y-26.008 Z-7.565
X-247.839 Y-26.002 Z-7.564
X-247.779 Y-26.001
G3 X-247.64 Z-7.596 I0. K-0.318
G2 X-247.5 Z-7.629 I0.14 K0.285
G1 X133.465
X138.467 Z-7.644
X142.733 Z-7.688
X147.135 Z-7.764
X150.905 Z-7.854
X153.706 Z-7.934
X156.718 Z-8.034
X160.185 Z-8.166
X163.44 Z-8.307
X166.332 Z-8.445
X169.536 Z-8.613
X173.219 Z-8.825
X176.414 Z-9.025
X179.28 Z-9.219
X182.083 Z-9.418
X186.298 Z-9.741
X190.658 Z-10.104
X194.675 Z-10.464
X197.342 Z-10.718
X200.189 Z-10.998
X204.155 Z-11.412
X208.189 Z-11.858
X211.581 Z-12.255
X247.5 Z-16.614
G2 X247.678 Z-16.584 I0.038 K0.315
G3 X247.818 Z-16.552 I0.14 K-0.285
G17 G3 X248.77 Y-25.048 I0. J0.952
G1 Y-24.953
G3 X247.818 Y-24.001 I-0.952 J0.
G18 G2 X247.678 Z-16.584 I0. K-0.318
G3 X247.5 Z-16.614 I-0.14 K0.285
G1 X209.606 Z-12.015
X206.189 Z-11.616
X202.127 Z-11.166
X198.044 Z-10.741
X194.702 Z-10.413
X192.191 Z-10.177
X188.521 Z-9.849
X184.151 Z-9.486
X179.666 Z-9.144
X175.527 Z-8.856
X172.422 Z-8.655
X169.405 Z-8.476
X166.822 Z-8.332
X164.092 Z-8.191
X161.373 Z-8.061
X158.184 Z-7.923
X154.718 Z-7.791
X151.704 Z-7.691
X148.946 Z-7.612
X145.13 Z-7.521
X140.729 Z-7.445
X136.429 Z-7.401
X131.461 Z-7.386
X-247.5
G3 X-247.64 Z-7.354 I0. K0.317
G2 X-247.779 Z-7.321 I-0.14 K-0.285
G1 X-247.839 Y-23.999
X-247.899 Y-23.993 Z-7.32
X-247.958 Y-23.984 Z-7.319
X-248.016 Y-23.971 Z-7.318
X-248.074 Y-23.955 Z-7.316
X-248.13 Y-23.934 Z-7.313
X-248.185 Y-23.911 Z-7.31
X-248.238 Y-23.884 Z-7.307
X-248.29 Y-23.854 Z-7.303
X-248.339 Y-23.82 Z-7.299
X-248.387 Y-23.784 Z-7.295
X-248.431 Y-23.745 Z-7.29
X-248.474 Y-23.703 Z-7.285
X-248.513 Y-23.658 Z-7.28
X-248.55 Y-23.611 Z-7.274
X-248.584 Y-23.562 Z-7.268
X-248.614 Y-23.511 Z-7.262
X-248.641 Y-23.458 Z-7.255
X-248.665 Y-23.403 Z-7.249
X-248.685 Y-23.347 Z-7.242
X-248.702 Y-23.29 Z-7.235
X-248.715 Y-23.232 Z-7.228
X-248.724 Y-23.174 Z-7.221
X-248.73 Y-23.115 Z-7.214
X-248.732 Y-23.055 Z-7.206
Y-22.947 Z-7.193
X-248.73 Y-22.887 Z-7.186
X-248.724 Y-22.828 Z-7.179
X-248.715 Y-22.77 Z-7.172
X-248.702 Y-22.712 Z-7.165
X-248.685 Y-22.655 Z-7.158
X-248.665 Y-22.599 Z-7.151
X-248.641 Y-22.544 Z-7.144
X-248.614 Y-22.491 Z-7.138
X-248.584 Y-22.44 Z-7.132
X-248.55 Y-22.391 Z-7.126
X-248.513 Y-22.344 Z-7.12
X-248.474 Y-22.299 Z-7.115
X-248.431 Y-22.257 Z-7.109
X-248.387 Y-22.218 Z-7.105
X-248.339 Y-22.182 Z-7.1
X-248.29 Y-22.148 Z-7.096
X-248.238 Y-22.118 Z-7.093
X-248.185 Y-22.091 Z-7.089
X-248.13 Y-22.068 Z-7.086
X-248.074 Y-22.047 Z-7.084
X-248.016 Y-22.031 Z-7.082
X-247.958 Y-22.018 Z-7.08
X-247.899 Y-22.009 Z-7.079
X-247.839 Y-22.003
X-247.779 Y-22.001 Z-7.078
G3 X-247.64 Z-7.111 I0. K-0.318
G2 X-247.5 Z-7.143 I0.14 K0.285
G1 X129.457
X134.7 Z-7.16
X138.726 Z-7.202
X143.131 Z-7.278
X146.943 Z-7.369
X149.701 Z-7.448
X152.717 Z-7.548
X156.22 Z-7.682
X159.504 Z-7.824
X162.391 Z-7.962
X165.644 Z-8.133
X169.657 Z-8.365
X173.066 Z-8.582
X177.586 Z-8.896
X182.039 Z-9.235
X186.282 Z-9.585
X189.207 Z-9.845
X191.873 Z-10.09
X195.898 Z-10.483
X200.099 Z-10.92
X204.188 Z-11.373
X207.631 Z-11.775
X247.5 Z-16.614
G2 X247.678 Z-16.584 I0.038 K0.315
G3 X247.818 Z-16.552 I0.14 K-0.285
G17 G3 X248.77 Y-21.049 I0. J0.953
G1 Y-20.954
G3 X247.818 Y-20.001 I-0.952 J0.
G18 G2 X247.678 Z-16.584 I0. K-0.318
G3 X247.5 Z-16.614 I-0.14 K0.285
G1 X205.63 Z-11.532
X202.188 Z-11.13
X198.1 Z-10.677
X193.781 Z-10.228
X189.5 Z-9.812
X185.765 Z-9.472
X183.334 Z-9.263
X179.851 Z-8.977
X175.505 Z-8.647
X170.909 Z-8.329
X167.489 Z-8.112
X163.589 Z-7.887
X160.39 Z-7.72
X157.503 Z-7.581
X154.219 Z-7.439
X150.717 Z-7.305
X147.7 Z-7.205
X145. Z-7.128
X140.984 Z-7.032
X136.726 Z-6.96
X132.681 Z-6.917
X127.438 Z-6.9
X-247.5
G3 X-247.64 Z-6.868 I0. K0.317
