%
(CARPET RAMP RIGHT SMOOTH)
(T3  D=6.35 CR=0. - ZMIN=0. - FLAT END MILL)
G90 G94 G17 G91.1
G64 P0.1
G21
G53 G0 Z0.
(POCKET1)
M9
T3 M6
(ENDMILL 14IN 6.35MM CARBIDE ROUGHING)
S20602 M3
G54
M9
G0 X-70.455 Y67.043
G43 Z27. H0



G0 Z22.
X-118.881 Y23.573
Z11.297
G3 X-118.878 Y23.558 Z11.159 I2.978 J0.476 F1333.33
X-118.87 Y23.514 Z11.027 I2.976 J0.491
X-118.857 Y23.443 Z10.909 I2.968 J0.535
X-118.836 Y23.349 Z10.809 I2.955 J0.606
X-118.807 Y23.236 Z10.732 I2.934 J0.701
X-118.769 Y23.112 Z10.683 I2.905 J0.813
X-118.723 Y22.982 Z10.663 I2.867 J0.937
X-113.081 Y25.116 Z10.332 I2.821 J1.067
X-118.723 Y22.982 Z10.001 I-2.821 J-1.067
X-113.081 Y25.116 Z9.67 I2.821 J1.067
X-118.723 Y22.982 Z9.339 I-2.821 J-1.067
X-113.081 Y25.116 Z9.008 I2.821 J1.067
X-118.723 Y22.982 Z8.677 I-2.821 J-1.067
X-113.081 Y25.116 Z8.346 I2.821 J1.067
X-118.723 Y22.982 Z8.015 I-2.821 J-1.067
X-113.081 Y25.116 Z7.684 I2.821 J1.067
X-118.723 Y22.982 Z7.353 I-2.821 J-1.067
X-113.081 Y25.116 Z7.023 I2.821 J1.067
X-118.723 Y22.982 Z6.692 I-2.821 J-1.067
X-113.081 Y25.116 Z6.361 I2.821 J1.067
X-118.723 Y22.982 Z6.03 I-2.821 J-1.067
X-113.081 Y25.116 Z5.699 I2.821 J1.067
X-118.723 Y22.982 Z5.368 I-2.821 J-1.067
X-113.081 Y25.116 Z5.037 I2.821 J1.067
X-118.723 Y22.982 Z4.706 I-2.821 J-1.067
X-113.081 Y25.116 Z4.375 I2.821 J1.067
X-118.723 Y22.982 Z4.044 I-2.821 J-1.067
X-118.039 Y21.921 Z4. I2.821 J1.067
X-116.995 Y21.045 I5.392 J5.372 F5000.
X-116.332 Y21.877 I0.305 J0.438
G2 X-118.156 Y23.711 I17.394 J19.131
G3 X-118.986 Y23.051 I-0.395 J-0.355
X-118.079 Y21.961 I7.095 J4.982
X-118.039 Y21.921 I5.432 J5.332
G2 X-117.523 Y19.875 I-1.462 J-1.456
G3 X-116.705 Y17.93 I1.592 J-0.475
X-111.653 Y16.149 I8.601 J16.347
X-104.766 Y15.423 I7.546 J38.542
X-104.421 Y16.775 I0.012 J0.717
G2 X-114.882 Y24.238 I21.905 J41.767
X-122.672 Y34.458 I27.149 J28.775
X-122.949 Y35.02 I8.866 J4.708
G3 X-123.226 Y35.583 I-9.143 J-4.145
X-124.578 Y35.236 I-0.634 J-0.337
X-123.404 Y26.166 I40.284 J0.604
X-118.08 Y18.73 I12. J2.968
X-116.705 Y17.93 I9.976 J15.547
G2 X-115.358 Y15.639 I-1.174 J-2.232
G3 X-113.747 Y13.526 I2.126 J-0.05
X-112.012 Y13.166 I5.356 J21.475
X-105.367 Y12.529 I7.94 J47.885
G1 X-13.384 Y12.234
G3 Y13.385 I0. J0.576
G1 X-80.915 Y13.354
G2 X-96.592 Y16.401 I4.87 J66.913
X-110.473 Y24.297 I11.961 J37.181
X-125.522 Y50.861 I30.961 J35.085
X-126.344 Y56.022 I95.707 J17.876
X-126.77 Y61.23 I52.47 J6.912
G1 X-126.615 Y481.618
G3 X-127.762 I-0.573 J0.
G1 X-127.191 Y30.554
G3 X-124.706 Y21.782 I28.298 J3.28
X-118.357 Y15.239 I12.62 J5.892
X-113.747 Y13.526 I9.966 J19.762
G2 X-112.062 Y11.739 I-0.55 J-2.207
G3 X-110.276 Y10.052 I2.054 J0.386
X-107.681 Y9.794 I5.589 J43.113
G1 X-11.322 Y9.392
G3 X-9.395 Y11.319 I0. J1.927
G1 Y14.3
G3 X-11.321 Y16.226 I-1.926 J0.
G1 X-80.709 Y16.188
G2 X-102.418 Y22.511 I3.923 J53.898
X-118.317 Y38.589 I18.336 J34.033
X-122.729 Y51.383 I39.851 J20.901
X-123.519 Y56.329 I93.438 J17.453
X-123.929 Y61.322 I49.798 J6.609
G1 X-123.774 Y483.677
G3 X-125.701 Y485.604 I-1.927 J0.
G1 X-128.677 Y485.605
G3 X-130.603 Y483.679 I0. J-1.926
G1 X-130.213 Y32.409
G3 X-127.897 Y21.773 I37.072 J2.501
X-120.926 Y13.414 I15.541 J5.874
X-114.519 Y10.817 I11.41 J18.951
X-110.276 Y10.052 I9.832 J42.348
G2 X-107.152 Y7.48 I-0.49 J-3.779
G3 X-103.873 Y5.107 I3.293 J1.099
G1 X-6.642 Y4.711
G3 X-4.715 Y6.638 I0. J1.927
G1 X-4.713 Y18.981
G3 X-6.639 Y20.907 I-1.926 J0.
G1 X-80.369 Y20.857
G2 X-99.852 Y26.426 I3.599 J49.454
X-114.172 Y40.763 I15.868 J30.169
X-118.128 Y52.242 I35.706 J18.727
X-118.865 Y56.836 I89.858 J16.784
X-119.251 Y61.472 I45.42 J6.112
G1 X-119.093 Y488.357
G3 X-121.02 Y490.284 I-1.927 J0.
G1 X-133.358 Y490.287
G3 X-135.284 Y488.361 I0. J-1.926
G1 X-134.883 Y32.094
G3 X-131.893 Y19.334 I40.327 J2.721
X-123.341 Y9.403 I19.366 J8.029
X-115.926 Y6.352 I13.69 J22.738
X-108.004 Y5.124 I11.179 J45.938
G1 X-103.873 Y5.107
G2 X-100.057 Y2.554 I-0.017 J-4.154
G3 X-96.24 Y0. I3.816 J1.575
G1 X-0.217
X-0.01 Y0.003
X-0.005 Y0.004
X-0.001 Y25.629
G2 X-0.203 Y25.618 I-0.202 J1.826
G1 X-75.107 Y25.622
G2 X-75.167 I0. J1.837
G1 X-77.89 Y25.711
G2 X-77.913 Y25.712 I0.06 J1.837
G1 X-78.594 Y25.742
G2 X-78.622 Y25.744 I0.082 J1.836
G1 X-79.984 Y25.825
G2 X-80.007 Y25.827 I0.11 J1.834
G1 X-80.688 Y25.876
G2 X-80.745 Y25.881 I0.133 J1.833
G1 X-83.468 Y26.164
G2 X-83.573 Y26.178 I0.19 J1.828
G1 X-84.254 Y26.289
G2 X-84.299 Y26.297 I0.294 J1.814
G1 X-87.023 Y26.81
G2 X-87.056 Y26.816 I0.34 J1.806
G1 X-88.443 Y27.103
G2 X-88.561 Y27.132 I0.372 J1.799
G1 X-90.579 Y27.691
X-90.585 Y27.693
X-91.266 Y27.884
G2 X-91.394 Y27.925 I0.497 J1.769
G1 X-92.075 Y28.171
G2 X-92.124 Y28.19 I0.625 J1.728
G1 X-94.848 Y29.264
G2 X-94.857 Y29.268 I0.674 J1.709
G1 X-95.538 Y29.541
G2 X-95.683 Y29.606 I0.684 J1.706
G1 X-96.452 Y29.995
G2 X-96.477 Y30.008 I0.829 J1.64
G1 X-97.78 Y30.691
G2 X-97.833 Y30.72 I0.853 J1.627
G1 X-98.486 Y31.09
G2 X-98.608 Y31.167 I0.907 J1.598
G1 X-100.651 Y32.549
G2 X-100.659 Y32.555 I1.03 J1.522
G1 X-101.34 Y33.021
G2 X-101.409 Y33.07 I1.038 J1.516
G1 X-102.09 Y33.584
G2 X-102.199 Y33.673 I1.107 J1.467
G1 X-103.747 Y35.039
G2 X-103.767 Y35.057 I1.216 J1.378
G1 X-104.262 Y35.507
G2 X-104.371 Y35.616 I1.236 J1.36
G1 X-104.588 Y35.848
G2 X-104.62 Y35.884 I1.345 J1.251
G1 X-105.826 Y37.25
G2 X-105.866 Y37.297 I1.378 J1.216
G1 X-106.429 Y37.98
G2 X-106.498 Y38.07 I1.418 J1.169
G1 X-107.49 Y39.436
G2 X-107.519 Y39.477 I1.487 J1.079
G1 X-108.922 Y41.527
G2 X-109.029 Y41.703 I1.516 J1.038
G1 X-109.755 Y43.069
X-109.759 Y43.078
X-110.117 Y43.761
G2 X-110.15 Y43.826 I1.627 J0.853
G1 X-110.474 Y44.509
G2 X-110.523 Y44.621 I1.66 J0.788
G1 X-111.605 Y47.353
X-111.607 Y47.359
X-111.875 Y48.042
G2 X-111.906 Y48.128 I1.711 J0.671
G1 X-112.136 Y48.811
G2 X-112.163 Y48.899 I1.742 J0.585
G1 X-112.738 Y50.949
G2 X-112.752 Y51.002 I1.769 J0.497
G1 X-112.922 Y51.685
G2 X-112.938 Y51.753 I1.783 J0.443
G1 X-113.222 Y53.12
G2 X-113.23 Y53.157 I1.799 J0.375
G1 X-113.74 Y55.89
G2 X-113.755 Y55.979 I1.806 J0.337
G1 X-113.847 Y56.663
G2 X-113.854 Y56.721 I1.821 J0.248
G1 X-114.137 Y59.454
G2 X-114.143 Y59.531 I1.828 J0.189
G1 X-114.268 Y61.58
G2 X-114.271 Y61.633 I1.834 J0.112
G1 X-114.381 Y65.048
G2 X-114.382 Y65.108 I1.837 J0.059
G1 Y494.789
G2 X-114.37 Y494.994 I1.837 J0.
G1 X-139.784 Y495.
X-139.99 Y494.997
X-139.995 Y494.996
Y35.747
X-139.975 Y34.413
X-139.929 Y33.084
X-139.855 Y31.759
X-139.751 Y30.435
X-139.614 Y29.114
X-139.445 Y27.794
X-139.241 Y26.478
X-138.998 Y25.167
X-138.689 Y23.75
X-138.387 Y22.55
X-138.009 Y21.236
X-137.808 Y20.599
X-137.356 Y19.295
X-136.841 Y17.993
X-136.567 Y17.361
X-136.095 Y16.351
X-135.957 Y16.066
X-135.462 Y15.123
X-134.896 Y14.137
X-134.498 Y13.502
X-134.073 Y12.859
X-133.542 Y12.102
X-133.154 Y11.581
X-132.638 Y10.937
X-132.275 Y10.5
X-131.638 Y9.782
X-130.911 Y9.026
X-130.25 Y8.392
X-129.533 Y7.754
X-128.747 Y7.104
X-128.462 Y6.879
X-127.828 Y6.405
X-127.005 Y5.833
X-126.548 Y5.533
X-125.911 Y5.134
X-124.907 Y4.554
X-123.989 Y4.071
X-123.348 Y3.762
X-122.701 Y3.461
X-122.067 Y3.186
X-120.768 Y2.667
X-119.47 Y2.214
X-118.7 Y1.971
X-117.528 Y1.634
X-116.223 Y1.304
X-114.918 Y1.019
X-113.609 Y0.774
X-112.298 Y0.567
X-110.983 Y0.396
X-109.667 Y0.259
X-108.347 Y0.153
X-107.025 Y0.077
X-105.701 Y0.028
X-104.371 Y0.006
X-99.62 Y0.
X-96.24
G3 X-96.072 Y0.587 I0. J0.317
G1 X-119.942 Y15.538
G2 X-120.089 Y15.836 I0.169 J0.269
G3 X-126.097 Y16.383 Z3.669 I-3.004 J0.274 F1333.33
X-120.089 Y15.836 Z3.338 I3.004 J-0.274
X-126.097 Y16.383 Z3.007 I-3.004 J0.274
X-120.089 Y15.836 Z2.676 I3.004 J-0.274
X-126.097 Y16.383 Z2.345 I-3.004 J0.274
X-125.16 Y13.913 Z2.25 I3.004 J-0.274
X-119.657 Y10.239 I13.687 J14.542 F5000.
X-118.223 Y9.6 I115.797 J257.781
X-116.754 Y9.045 I5.737 J12.963
X-116.281 Y10.153 I0.182 J0.577
G2 X-124.01 Y15.985 I16.034 J29.291
X-129.841 Y23.714 I26.044 J25.71
G3 X-130.951 Y23.233 I-0.53 J-0.299
X-126.694 Y15.527 I21.191 J6.678
X-125.16 Y13.913 I15.221 J12.928
G2 X-124.621 Y11.801 I-1.393 J-1.48
G3 X-123.901 Y9.744 I1.706 J-0.557
X-113.003 Y5.772 I13.846 J21.052
X-99.617 Y4.983 I13.455 J114.238
G1 X-6.112 Y4.711
G3 Y6.495 I0. J0.892
G1 X-94.862 Y6.439
G2 X-109.782 Y9.762 I6.555 J64.577
X-122.636 Y18.034 I10.876 J31.023
X-130.56 Y30.826 I26.083 J25.007
X-133.592 Y45.565 I50.038 J17.974
G1 X-133.505 Y488.892
G3 X-135.284 I-0.89 J0.
G1 X-134.884 Y32.094
G3 X-132.441 Y20.443 I42.759 J2.885
X-125.423 Y10.828 I19.954 J7.194
X-123.901 Y9.744 I15.367 J19.968
G2 X-122.14 Y5.936 I-2.185 J-3.322
G3 X-119.925 Y2.373 I3.316 J-0.409
G1 X-119.47 Y2.214
X-118.7 Y1.971
X-117.528 Y1.634
X-116.223 Y1.304
X-114.918 Y1.019
X-113.609 Y0.774
X-112.298 Y0.567
X-110.983 Y0.396
X-109.667 Y0.259
X-108.347 Y0.153
X-107.025 Y0.077
X-105.701 Y0.028
X-104.371 Y0.006
X-99.62 Y0.
X-0.217
X-0.01 Y0.003
X-0.005 Y0.004
X-0.004 Y11.217
G2 X-0.203 Y11.207 I-0.198 J1.827
G1 X-89.407
G2 X-89.466 Y11.208 I0. J1.837
G1 X-92.871 Y11.318
G2 X-92.896 Y11.319 I0.059 J1.837
G1 X-93.696 Y11.355
G2 X-93.722 Y11.356 I0.084 J1.836
G1 X-94.283 Y11.39
G2 X-94.359 Y11.396 I0.11 J1.834
G1 X-97.083 Y11.673
X-97.768 Y11.744
G2 X-97.83 Y11.751 I0.19 J1.828
G1 X-98.511 Y11.846
G2 X-98.595 Y11.859 I0.252 J1.82
G1 X-101.319 Y12.366
G2 X-101.335 Y12.369 I0.336 J1.807
G1 X-102.016 Y12.502
G2 X-102.046 Y12.508 I0.352 J1.803
G1 X-102.727 Y12.653
G2 X-102.842 Y12.681 I0.382 J1.797
G1 X-105.656 Y13.471
G2 X-105.73 Y13.493 I0.497 J1.769
G1 X-106.32 Y13.686
G2 X-106.423 Y13.724 I0.571 J1.747
G1 X-109.828 Y15.065
G2 X-110.005 Y15.146 I0.674 J1.71
G1 X-112.728 Y16.567
G2 X-112.881 Y16.656 I0.85 J1.629
G1 X-113.587 Y17.116
G2 X-113.622 Y17.139 I1.003 J1.54
G1 X-115.64 Y18.521
G2 X-115.705 Y18.567 I1.038 J1.516
G1 X-116.386 Y19.078
G2 X-116.499 Y19.17 I1.103 J1.47
G1 X-118.542 Y20.973
G2 X-118.652 Y21.079 I1.216 J1.378
G1 X-119.039 Y21.483
G2 X-119.091 Y21.538 I1.326 J1.272
G1 X-120.747 Y23.415
G2 X-120.778 Y23.452 I1.378 J1.216
G1 X-120.923 Y23.625
G2 X-121. Y23.723 I1.409 J1.179
G1 X-121.536 Y24.461
G2 X-121.565 Y24.503 I1.486 J1.08
G1 X-122.933 Y26.497
G2 X-122.964 Y26.544 I1.516 J1.039
G1 X-123.402 Y27.227
G2 X-123.483 Y27.366 I1.547 J0.992
G1 X-124.557 Y29.415
G2 X-124.577 Y29.454 I1.627 J0.853
G1 X-124.915 Y30.137
G2 X-124.978 Y30.279 I1.647 J0.815
G1 X-126.322 Y33.694
G2 X-126.372 Y33.837 I1.71 J0.673
G1 X-126.578 Y34.52
G2 X-126.589 Y34.557 I1.759 J0.531
G1 X-127.35 Y37.29
G2 X-127.379 Y37.408 I1.77 J0.493
G1 X-127.522 Y38.091
G2 X-127.529 Y38.128 I1.799 J0.375
G1 X-128.167 Y41.544
G2 X-128.186 Y41.664 I1.806 J0.338
G1 X-128.267 Y42.347
G2 X-128.271 Y42.375 I1.825 J0.218
G1 X-128.555 Y45.107
G2 X-128.558 Y45.144 I1.828 J0.19
G1 X-128.615 Y45.827
G2 X-128.618 Y45.869 I1.831 J0.153
G1 X-128.66 Y46.552
G2 X-128.662 Y46.602 I1.834 J0.112
G1 X-128.776 Y50.018
G2 X-128.777 Y50.035 I1.836 J0.061
G1 X-128.793 Y50.718
G2 Y50.762 I1.837 J0.044
G1 Y494.789
G2 X-128.782 Y494.997 I1.838 J0.
G1 X-139.784 Y495.
X-139.99 Y494.997
X-139.995 Y494.996
Y35.747
X-139.975 Y34.413
X-139.929 Y33.084
X-139.855 Y31.759
X-139.751 Y30.435
X-139.614 Y29.114
X-139.445 Y27.794
X-139.241 Y26.478
X-138.998 Y25.167
X-138.689 Y23.75
X-138.387 Y22.55
X-138.009 Y21.236
X-137.808 Y20.599
X-137.356 Y19.295
X-136.841 Y17.993
X-136.567 Y17.361
X-136.095 Y16.351
X-135.957 Y16.066
X-135.462 Y15.123
X-134.896 Y14.137
X-134.498 Y13.502
X-134.073 Y12.859
X-133.542 Y12.102
X-133.154 Y11.581
X-132.638 Y10.937
X-132.275 Y10.5
X-131.638 Y9.782
X-130.911 Y9.026
X-130.25 Y8.392
X-129.533 Y7.754
X-128.747 Y7.104
X-128.462 Y6.879
X-127.828 Y6.405
X-127.005 Y5.833
X-126.548 Y5.533
X-125.911 Y5.134
X-124.907 Y4.554
X-123.989 Y4.071
X-123.348 Y3.762
X-122.701 Y3.461
X-122.067 Y3.186
X-120.768 Y2.667
X-119.925 Y2.373
G3 X-119.788 Y2.341 Z2.266 I0.209 J0.6 F1000.
X-119.654 Y2.34 Z2.313 I0.072 J0.631
X-119.536 Y2.363 Z2.389 I-0.062 J0.632
X-119.442 Y2.399 Z2.489 I-0.18 J0.609
X-119.376 Y2.436 Z2.609 I-0.274 J0.573
X-119.337 Y2.463 Z2.744 I-0.34 J0.536
X-119.324 Y2.472 Z2.885 I-0.379 J0.51
G0 Z27.
(PARALLEL1)
M9
G0 Z32.
X0.635 Y0.01
Z2.394
G1 Z1.022 F1000.
G18 G3 X0. Z0.387 I-0.635 K0.
G1 X-102.94 Z0.382 F5000.
X-104.781 Z0.373
X-118.824 Z0.299
X-118.884 Y0.012
X-118.943 Y0.018 Z0.298
X-119.002 Y0.027
X-119.061 Y0.04
X-119.118 Y0.057
X-119.174 Y0.077 Z0.297
X-119.229 Y0.101
X-119.283 Y0.128
X-119.334 Y0.158
X-119.384 Y0.192
X-119.431 Y0.229 Z0.296
X-119.476 Y0.268
X-119.518 Y0.31
X-119.558 Y0.355
X-119.594 Y0.403
X-119.628 Y0.452
X-119.658 Y0.504
X-119.686 Y0.557
X-119.709 Y0.612
X-119.73 Y0.668
X-119.746 Y0.726
X-119.759 Y0.784
X-119.769 Y0.843 Z0.297
X-119.774 Y0.903
X-119.776 Y0.962
Y1.057
X-119.774 Y1.117
X-119.769 Y1.177 Z0.298
X-119.759 Y1.236
X-119.746 Y1.294
X-119.73 Y1.352
X-119.709 Y1.408 Z0.299
X-119.686 Y1.463
X-119.658 Y1.516
X-119.628 Y1.568 Z0.3
X-119.594 Y1.617
X-119.558 Y1.665
X-119.518 Y1.709 Z0.301
X-119.476 Y1.752
X-119.431 Y1.791
X-119.384 Y1.828 Z0.302
X-119.334 Y1.862
X-119.283 Y1.892
X-119.229 Y1.919 Z0.303
X-119.174 Y1.943
X-119.118 Y1.963
X-119.061 Y1.98 Z0.304
X-119.002 Y1.993
X-118.943 Y2.002
X-118.884 Y2.008 Z0.305
X-118.824 Y2.01
X-117.159 Z0.356
X-114.058 Z0.439
X-110.895 Z0.509
X-107.688 Z0.564
X-104.596 Z0.601
X-101.008 Z0.625
X0. Z0.63
G2 X0.14 Z0.662 I0. K0.318
G3 X0.279 Z0.694 I0.14 K-0.285
G1 X0.339 Y2.012 Z0.695
X0.399 Y2.017
X0.458 Y2.027 Z0.696
X0.516 Y2.04 Z0.698
X0.574 Y2.056 Z0.7
X0.63 Y2.076 Z0.702
X0.685 Y2.1 Z0.705
X0.738 Y2.127 Z0.709
X0.79 Y2.157 Z0.712
X0.839 Y2.191 Z0.716
X0.887 Y2.227 Z0.721
X0.931 Y2.266 Z0.726
X0.974 Y2.308 Z0.731
X1.013 Y2.353 Z0.736
X1.05 Y2.4 Z0.742
X1.084 Y2.449 Z0.748
X1.114 Y2.5 Z0.754
X1.141 Y2.553 Z0.76
X1.165 Y2.607 Z0.767
X1.185 Y2.663 Z0.774
X1.202 Y2.72 Z0.781
X1.215 Y2.778 Z0.788
X1.224 Y2.837 Z0.795
X1.23 Y2.896 Z0.802
X1.232 Y2.955 Z0.809
Y3.064 Z0.822
X1.23 Y3.124 Z0.83
X1.224 Y3.183 Z0.837
X1.215 Y3.241 Z0.844
X1.202 Y3.299 Z0.851
X1.185 Y3.356 Z0.858
X1.165 Y3.412 Z0.865
X1.141 Y3.467 Z0.871
X1.114 Y3.52 Z0.878
X1.084 Y3.571 Z0.884
X1.05 Y3.62 Z0.89
X1.013 Y3.667 Z0.896
X0.974 Y3.712 Z0.901
X0.931 Y3.754 Z0.906
X0.887 Y3.793 Z0.911
X0.839 Y3.829 Z0.915
X0.79 Y3.863 Z0.919
X0.738 Y3.893 Z0.923
X0.685 Y3.92 Z0.926
X0.63 Y3.943 Z0.929
X0.574 Y3.964 Z0.932
X0.516 Y3.98 Z0.934
X0.458 Y3.993 Z0.935
X0.399 Y4.002 Z0.936
X0.339 Y4.008 Z0.937
X0.279 Y4.01
G2 X0.14 Z0.905 I0. K-0.317
G3 X0. Z0.872 I-0.14 K0.285
G1 X-98.8 Z0.868
X-102.388 Z0.846
X-105.55 Z0.808
X-108.803 Z0.754
X-111.977 Z0.684
X-115.093 Z0.601
X-118.427 Z0.495
X-121.758 Z0.372
X-123.869 Z0.286
G3 X-124.022 Z0.318 I-0.013 K0.317
G2 X-124.162 Z0.35 I-0.14 K-0.285
G1 X-127.586
G17 G2 X-128.539 Y4.962 I0. J0.952
G1 Y5.057
G2 X-127.586 Y6.01 I0.952 J0.
G18 G3 X-127.446 Z0.318 I0. K-0.317
G1 X-127.427 Z0.309
G2 X-127.272 Z0.277 I0.14 K0.285
G1 X-126.707 Z0.305
X-123.549 Z0.455
X-120.214 Z0.597
X-116.982 Z0.718
X-113.72 Z0.825
X-110.413 Z0.916
X-107.28 Z0.987
X-103.987 Z1.045
X-100.725 Z1.085
X-96.868 Z1.111
X0. Z1.115
G2 X0.14 Z1.148 I0. K0.317
G3 X0.279 Z1.18 I0.14 K-0.285
G1 X0.339 Y6.012
X0.399 Y6.017 Z1.181
X0.458 Y6.027 Z1.182
X0.516 Y6.039 Z1.184
X0.574 Y6.056 Z1.186
X0.63 Y6.076 Z1.188
X0.685 Y6.1 Z1.191
X0.738 Y6.127 Z1.194
X0.79 Y6.157 Z1.198
X0.839 Y6.19 Z1.202
X0.887 Y6.227 Z1.206
X0.931 Y6.266 Z1.211
X0.974 Y6.308 Z1.216
X1.013 Y6.353 Z1.222
X1.05 Y6.4 Z1.227
X1.084 Y6.449 Z1.233
X1.114 Y6.5 Z1.24
X1.141 Y6.553 Z1.246
X1.165 Y6.607 Z1.253
X1.185 Y6.663 Z1.259
X1.202 Y6.72 Z1.266
X1.215 Y6.778 Z1.273
X1.224 Y6.837 Z1.281
X1.23 Y6.896 Z1.288
X1.232 Y6.955 Z1.295
Y7.064 Z1.308
X1.23 Y7.123 Z1.315
X1.224 Y7.183 Z1.323
X1.215 Y7.241 Z1.33
X1.202 Y7.299 Z1.337
X1.185 Y7.356 Z1.344
X1.165 Y7.412 Z1.35
X1.141 Y7.467 Z1.357
X1.114 Y7.52 Z1.363
X1.084 Y7.571 Z1.37
X1.05 Y7.62 Z1.376
X1.013 Y7.667 Z1.381
X0.974 Y7.711 Z1.387
X0.931 Y7.753 Z1.392
X0.887 Y7.793 Z1.397
X0.839 Y7.829 Z1.401
X0.79 Y7.862 Z1.405
X0.738 Y7.893 Z1.409
X0.685 Y7.92 Z1.412
X0.63 Y7.943 Z1.415
X0.574 Y7.963 Z1.417
X0.516 Y7.98 Z1.419
X0.458 Y7.993 Z1.421
X0.399 Y8.002 Z1.422
X0.339 Y8.008 Z1.423
X0.279 Y8.01
G2 X0.14 Z1.391 I0. K-0.317
G3 X0. Z1.358 I-0.14 K0.285
G1 X-94.937 Z1.354
X-98.524 Z1.33
X-101.655 Z1.293
X-104.893 Z1.238
X-108.065 Z1.168
X-111.088 Z1.087
X-114.451 Z0.98
X-117.836 Z0.855
X-120.88 Z0.728
X-124.28 Z0.569
X-127.598 Z0.397
X-129.83 Z0.273
G3 X-129.987 Z0.305 I-0.018 K0.317
G2 X-130.127 Z0.337 I-0.14 K-0.285
G1 X-132.145
G17 G2 X-133.098 Y8.962 I0. J0.952
G1 Y9.057
G2 X-132.145 Y10.01 I0.952 J0.
G18 G3 X-132.005 Z0.305 I0. K-0.318
G2 X-131.846 Z0.273 I0.14 K0.285
G1 X-129. Z0.447
X-125.802 Z0.629
X-122.344 Z0.809
X-118.994 Z0.965
X-115.899 Z1.095
X-112.45 Z1.223
X-109.063 Z1.33
X-106.044 Z1.411
X-103.016 Z1.478
X-99.686 Z1.535
X-96.592 Z1.572
X-93.005 Z1.596
X0. Z1.601
G2 X0.14 Z1.633 I0. K0.317
G3 X0.279 Z1.666 I0.14 K-0.285
G1 X0.339 Y10.011
X0.399 Y10.017 Z1.667
X0.458 Y10.026 Z1.668
X0.516 Y10.039 Z1.669
X0.574 Y10.056 Z1.671
X0.63 Y10.076 Z1.674
X0.685 Y10.1 Z1.677
X0.738 Y10.127 Z1.68
X0.79 Y10.157 Z1.684
X0.839 Y10.19 Z1.688
X0.887 Y10.227 Z1.692
X0.931 Y10.266 Z1.697
X0.974 Y10.308 Z1.702
X1.013 Y10.352 Z1.707
X1.05 Y10.399 Z1.713
X1.084 Y10.448 Z1.719
X1.114 Y10.5 Z1.725
X1.141 Y10.553 Z1.732
X1.165 Y10.607 Z1.738
X1.185 Y10.663 Z1.745
X1.202 Y10.72 Z1.752
X1.215 Y10.778 Z1.759
X1.224 Y10.837 Z1.766
X1.23 Y10.896 Z1.773
X1.232 Y10.955 Z1.781
Y11.064 Z1.794
X1.23 Y11.123 Z1.801
X1.224 Y11.182 Z1.808
X1.215 Y11.241 Z1.815
X1.202 Y11.299 Z1.822
X1.185 Y11.356 Z1.829
X1.165 Y11.412 Z1.836
X1.141 Y11.467 Z1.843
X1.114 Y11.519 Z1.849
X1.084 Y11.571 Z1.855
X1.05 Y11.62 Z1.861
X1.013 Y11.667 Z1.867
X0.974 Y11.711 Z1.872
X0.931 Y11.753 Z1.878
X0.887 Y11.793 Z1.882
X0.839 Y11.829 Z1.887
X0.79 Y11.862 Z1.891
X0.738 Y11.893 Z1.894
X0.685 Y11.92 Z1.898
X0.63 Y11.943 Z1.901
X0.574 Y11.963 Z1.903
X0.516 Y11.98 Z1.905
X0.458 Y11.993 Z1.907
X0.399 Y12.002 Z1.908
X0.339 Y12.008
X0.279 Y12.01 Z1.909
G2 X0.14 Z1.876 I0. K-0.317
G3 X0. Z1.844 I-0.14 K0.285
G1 X-90.797 Z1.84
X-94.449 Z1.816
X-97.723 Z1.777
X-101.097 Z1.719
X-104.091 Z1.653
X-107.113 Z1.572
X-110.493 Z1.464
X-113.854 Z1.34
X-116.889 Z1.213
X-120.293 Z1.054
X-123.758 Z0.874
X-126.906 Z0.696
X-130.299 Z0.487
X-133.478 Z0.275
G3 X-133.639 Z0.307 I-0.021 K0.317
G1 X-133.648 Z0.311
G2 X-133.788 Z0.344 I-0.14 K-0.285
G1 X-135.121
G17 G2 X-136.073 Y12.962 I0. J0.953
G1 Y13.057
G2 X-135.121 Y14.009 I0.952 J0.
G18 G3 X-134.981 Z0.311 I0. K-0.318
G2 X-134.819 Z0.28 I0.14 K0.285
G1 X-131.615 Z0.509
X-128.414 Z0.722
X-125.079 Z0.928
X-121.9 Z1.11
X-118.332 Z1.295
X-114.967 Z1.452
X-111.943 Z1.579
X-108.509 Z1.707
X-105.032 Z1.817
X-102.003 Z1.898
X-98.974 Z1.965
X-95.589 Z2.022
X-92.453 Z2.059
X-88.865 Z2.082
X0. Z2.087
G2 X0.14 Z2.119 I0. K0.318
G3 X0.279 Z2.151 I0.14 K-0.285
G1 X0.339 Y14.011 Z2.152
X0.399 Y14.017
X0.458 Y14.026 Z2.154
X0.516 Y14.039 Z2.155
X0.574 Y14.056 Z2.157
X0.63 Y14.076 Z2.16
X0.685 Y14.099 Z2.162
X0.738 Y14.126 Z2.166
X0.79 Y14.157 Z2.169
X0.839 Y14.19 Z2.173
X0.887 Y14.226 Z2.178
X0.931 Y14.266 Z2.183
X0.974 Y14.308 Z2.188
X1.013 Y14.352 Z2.193
X1.05 Y14.399 Z2.199
X1.084 Y14.448 Z2.205
X1.114 Y14.499 Z2.211
X1.141 Y14.552 Z2.217
X1.165 Y14.607 Z2.224
X1.185 Y14.663 Z2.231
X1.202 Y14.72 Z2.238
X1.215 Y14.778 Z2.245
X1.224 Y14.836 Z2.252
X1.23 Y14.896 Z2.259
X1.232 Y14.955 Z2.266
Y15.064 Z2.28
X1.23 Y15.123 Z2.287
X1.224 Y15.182 Z2.294
X1.215 Y15.241 Z2.301
X1.202 Y15.299 Z2.308
X1.185 Y15.356 Z2.315
X1.165 Y15.412 Z2.322
X1.141 Y15.466 Z2.328
X1.114 Y15.519 Z2.335
X1.084 Y15.57 Z2.341
X1.05 Y15.62 Z2.347
X1.013 Y15.667 Z2.353
X0.974 Y15.711 Z2.358
X0.931 Y15.753 Z2.363
X0.887 Y15.792 Z2.368
X0.839 Y15.829 Z2.372
X0.79 Y15.862 Z2.376
X0.738 Y15.892 Z2.38
X0.685 Y15.919 Z2.383
X0.63 Y15.943 Z2.386
X0.574 Y15.963 Z2.389
X0.516 Y15.98 Z2.391
X0.458 Y15.993 Z2.392
X0.399 Y16.002 Z2.393
X0.339 Y16.007 Z2.394
X0.279 Y16.009
G2 X0.14 Z2.362 I0. K-0.318
G3 X0. Z2.33 I-0.14 K0.285
G1 X-86.933 Z2.325
X-90.245 Z2.304
X-93.632 Z2.264
X-96.998 Z2.207
X-100.01 Z2.14
X-103.03 Z2.06
X-106.49 Z1.95
X-109.932 Z1.822
X-112.964 Z1.695
X-116.325 Z1.538
X-119.942 Z1.35
X-123.117 Z1.169
X-126.45 Z0.963
X-129.695 Z0.746
X-132.954 Z0.513
X-135.928 Z0.285
G3 X-136.092 Z0.317 I-0.024 K0.317
G1 X-136.106 Z0.324
G2 X-136.246 Z0.356 I-0.14 K-0.285
G1 X-137.154
G17 G2 X-138.107 Y16.962 I0. J0.952
G1 Y17.057
G2 X-137.154 Y18.009 I0.952 J0.
G18 G3 X-137.015 Z0.324 I0. K-0.318
G2 X-136.849 Z0.292 I0.14 K0.285
G1 X-134.342 Z0.496
X-130.905 Z0.759
X-127.587 Z0.996
X-124.378 Z1.21
X-121.085 Z1.414
X-117.907 Z1.595
X-114.286 Z1.783
X-110.855 Z1.943
X-107.891 Z2.067
X-104.499 Z2.193
X-100.877 Z2.307
X-97.931 Z2.385
X-94.927 Z2.451
X-91.514 Z2.509
X-88.313 Z2.546
X-84.725 Z2.568
X0. Z2.572
G2 X0.14 Z2.605 I0. K0.317
G3 X0.279 Z2.637 I0.14 K-0.285
G1 X0.339 Y18.011
X0.399 Y18.017 Z2.638
X0.458 Y18.026 Z2.639
X0.516 Y18.039 Z2.641
X0.574 Y18.056 Z2.643
X0.63 Y18.076 Z2.645
X0.685 Y18.099 Z2.648
X0.738 Y18.126 Z2.651
X0.79 Y18.156 Z2.655
X0.839 Y18.19 Z2.659
X0.887 Y18.226 Z2.664
X0.931 Y18.266 Z2.668
X0.974 Y18.308 Z2.673
X1.013 Y18.352 Z2.679
X1.05 Y18.399 Z2.685
X1.084 Y18.448 Z2.69
X1.114 Y18.499 Z2.697
X1.141 Y18.552 Z2.703
X1.165 Y18.607 Z2.71
X1.185 Y18.663 Z2.717
X1.202 Y18.72 Z2.723
X1.215 Y18.778 Z2.73
X1.224 Y18.836 Z2.738
X1.23 Y18.895 Z2.745
X1.232 Y18.955 Z2.752
Y19.064 Z2.765
X1.23 Y19.123 Z2.772
X1.224 Y19.182 Z2.78
X1.215 Y19.241 Z2.787
X1.202 Y19.299 Z2.794
X1.185 Y19.356 Z2.801
X1.165 Y19.412 Z2.807
X1.141 Y19.466 Z2.814
X1.114 Y19.519 Z2.821
X1.084 Y19.57 Z2.827
X1.05 Y19.619 Z2.833
X1.013 Y19.666 Z2.838
X0.974 Y19.711 Z2.844
X0.931 Y19.753 Z2.849
X0.887 Y19.792 Z2.854
X0.839 Y19.829 Z2.858
X0.79 Y19.862 Z2.862
X0.738 Y19.892 Z2.866
X0.685 Y19.919 Z2.869
X0.63 Y19.943 Z2.872
X0.574 Y19.963 Z2.874
X0.516 Y19.979 Z2.876
X0.458 Y19.992 Z2.878
X0.399 Y20.002 Z2.879
X0.339 Y20.007 Z2.88
X0.279 Y20.009
G2 X0.14 Z2.848 I0. K-0.318
G3 X0. Z2.815 I-0.14 K0.285
G1 X-82.793 Z2.811
X-86.381 Z2.788
X-89.582 Z2.751
X-93.127 Z2.69
X-96.096 Z2.624
X-99.014 Z2.546
X-102.494 Z2.436
X-105.935 Z2.308
X-108.894 Z2.184
X-112.295 Z2.026
X-115.994 Z1.833
X-119.169 Z1.652
X-122.452 Z1.448
X-125.65 Z1.235
X-128.952 Z0.998
X-132.461 Z0.729
X-135.693 Z0.464
X-137.612 Z0.3
G3 X-137.779 Z0.331 I-0.027 K0.316
G1 X-137.796 Z0.34
G2 X-137.936 Z0.372 I-0.14 K-0.285
G1 X-138.543
G17 G2 X-139.496 Y20.962 I0. J0.953
G1 Y21.057
G2 X-138.543 Y22.009 I0.952 J0.
G18 G3 X-138.404 Z0.34 I0. K-0.317
G2 X-138.235 Z0.309 I0.14 K0.285
G1 X-137.34 Z0.39
X-134.179 Z0.666
X-130.703 Z0.953
X-127.28 Z1.217
X-124.033 Z1.451
X-120.622 Z1.68
X-117.311 Z1.886
X-114.085 Z2.071
X-110.302 Z2.268
X-106.871 Z2.428
X-103.969 Z2.549
X-100.534 Z2.677
X-96.861 Z2.793
X-93.897 Z2.871
X-91.002 Z2.935
X-87.414 Z2.996
X-84.173 Z3.033
X-80.862 Z3.053
X0. Z3.058
G2 X0.14 Z3.09 I0. K0.317
G3 X0.279 Z3.123 I0.14 K-0.285
G1 X0.339 Y22.011
X0.399 Y22.017 Z3.124
X0.458 Y22.026 Z3.125
X0.516 Y22.039 Z3.126
X0.574 Y22.055 Z3.128
X0.63 Y22.076 Z3.131
X0.685 Y22.099 Z3.134
X0.738 Y22.126 Z3.137
X0.79 Y22.156 Z3.141
X0.839 Y22.19 Z3.145
X0.887 Y22.226 Z3.149
X0.931 Y22.265 Z3.154
X0.974 Y22.307 Z3.159
X1.013 Y22.352 Z3.164
X1.05 Y22.399 Z3.17
X1.084 Y22.448 Z3.176
X1.114 Y22.499 Z3.182
X1.141 Y22.552 Z3.189
X1.165 Y22.607 Z3.195
X1.185 Y22.662 Z3.202
X1.202 Y22.72 Z3.209
X1.215 Y22.777 Z3.216
X1.224 Y22.836 Z3.223
X1.23 Y22.895 Z3.23
X1.232 Y22.955 Z3.238
Y23.063 Z3.251
X1.23 Y23.123 Z3.258
X1.224 Y23.182 Z3.265
X1.215 Y23.241 Z3.272
X1.202 Y23.299 Z3.279
X1.185 Y23.356 Z3.286
X1.165 Y23.412 Z3.293
X1.141 Y23.466 Z3.3
X1.114 Y23.519 Z3.306
X1.084 Y23.57 Z3.312
X1.05 Y23.619 Z3.318
X1.013 Y23.666 Z3.324
X0.974 Y23.711 Z3.329
X0.931 Y23.753 Z3.335
X0.887 Y23.792 Z3.339
X0.839 Y23.828 Z3.344
X0.79 Y23.862 Z3.348
X0.738 Y23.892 Z3.352
X0.685 Y23.919 Z3.355
X0.63 Y23.943 Z3.358
X0.574 Y23.963 Z3.36
X0.516 Y23.979 Z3.362
X0.458 Y23.992 Z3.364
X0.399 Y24.002 Z3.365
X0.339 Y24.007
X0.279 Y24.009 Z3.366
G2 X0.14 Z3.333 I0. K-0.317
G3 X0. Z3.301 I-0.14 K0.285
G1 X-78.654 Z3.297
X-82.242 Z3.275
X-85.636 Z3.236
X-89.173 Z3.175
X-92.131 Z3.108
X-94.947 Z3.034
X-98.522 Z2.92
X-101.95 Z2.793
X-104.834 Z2.672
X-108.275 Z2.512
X-112.06 Z2.315
X-115.279 Z2.131
X-118.582 Z1.926
X-121.924 Z1.702
X-125.18 Z1.467
X-128.673 Z1.198
X-132.191 Z0.908
X-135.377 Z0.629
X-138.597 Z0.332
X-138.75 Z0.317
G3 X-138.92 Z0.348 I-0.03 K0.316
G1 X-138.939 Z0.358
G2 X-139.079 Z0.39 I-0.14 K-0.285
G1 X-139.465
G17 G2 X-140.418 Y24.962 I0. J0.953
G1 Y25.056
G2 X-139.465 Y26.009 I0.952 J0.
G18 G3 X-139.326 Z0.358 I0. K-0.318
G2 X-139.155 Z0.327 I0.14 K0.285
G1 X-136.483 Z0.586
X-133.083 Z0.899
X-129.905 Z1.175
X-126.541 Z1.451
X-122.976 Z1.725
X-119.695 Z1.96
X-116.489 Z2.174
X-113.215 Z2.377
X-110.039 Z2.559
X-106.252 Z2.756
X-102.808 Z2.916
X-99.98 Z3.035
X-96.547 Z3.162
X-92.796 Z3.281
X-89.717 Z3.361
X-86.811 Z3.425
X-83.305 Z3.483
X-80.034 Z3.52
X-76.722 Z3.539
X0. Z3.544
G2 X0.14 Z3.576 I0. K0.318
G3 X0.279 Z3.609 I0.14 K-0.285
G1 X0.339 Y26.011
X0.399 Y26.016
X0.458 Y26.026 Z3.611
X0.516 Y26.039 Z3.612
X0.574 Y26.055 Z3.614
X0.63 Y26.075 Z3.617
X0.685 Y26.099 Z3.619
X0.738 Y26.126 Z3.623
X0.79 Y26.156 Z3.626
X0.839 Y26.19 Z3.63
X0.887 Y26.226 Z3.635
X0.931 Y26.265 Z3.64
X0.974 Y26.307 Z3.645
X1.013 Y26.352 Z3.65
X1.05 Y26.399 Z3.656
X1.084 Y26.448 Z3.662
X1.114 Y26.499 Z3.668
X1.141 Y26.552 Z3.674
X1.165 Y26.606 Z3.681
X1.185 Y26.662 Z3.688
X1.202 Y26.719 Z3.695
X1.215 Y26.777 Z3.702
X1.224 Y26.836 Z3.709
X1.23 Y26.895 Z3.716
X1.232 Y26.955 Z3.723
Y27.063 Z3.737
X1.23 Y27.123 Z3.744
X1.224 Y27.182 Z3.751
X1.215 Y27.24 Z3.758
X1.202 Y27.298 Z3.765
X1.185 Y27.356 Z3.772
X1.165 Y27.411 Z3.779
X1.141 Y27.466 Z3.785
X1.114 Y27.519 Z3.792
X1.084 Y27.57 Z3.798
X1.05 Y27.619 Z3.804
X1.013 Y27.666 Z3.81
X0.974 Y27.711 Z3.815
X0.931 Y27.753 Z3.82
X0.887 Y27.792 Z3.825
X0.839 Y27.828 Z3.829
X0.79 Y27.862 Z3.834
X0.738 Y27.892 Z3.837
X0.685 Y27.919 Z3.84
X0.63 Y27.942 Z3.843
X0.574 Y27.963 Z3.846
X0.516 Y27.979 Z3.848
X0.458 Y27.992 Z3.849
X0.399 Y28.001 Z3.851
X0.339 Y28.007
X0.279 Y28.009
G2 X0.14 Z3.819 I0. K-0.318
G3 X0. Z3.787 I-0.14 K0.285
G1 X-74.79 Z3.782
X-78.102 Z3.762
X-81.579 Z3.722
X-85.266 Z3.659
X-88.226 Z3.592
X-91.029 Z3.517
X-94.583 Z3.404
X-98.094 Z3.273
X-100.967 Z3.152
X-104.331 Z2.995
X-108.249 Z2.791
X-111.62 Z2.596
X-114.941 Z2.388
X-118.376 Z2.156
X-121.807 Z1.906
X-125.046 Z1.654
X-128.437 Z1.373
X-131.798 Z1.077
X-134.9 Z0.789
X-138.218 Z0.464
X-139.473 Z0.337
G3 X-139.644 Z0.367 I-0.032 K0.316
G1 X-139.664 Z0.377
G2 X-139.804 Z0.41 I-0.14 K-0.285
G1 X-140.02
G17 G2 X-140.972 Y28.961 I0. J0.952
G1 Y29.056
G2 X-140.02 Y30.009 I0.952 J0.
G18 G3 X-139.88 Z0.377 I0. K-0.318
G2 X-139.707 Z0.347 I0.14 K0.285
G1 X-139.613 Z0.356
X-136.212 Z0.708
X-132.835 Z1.038
X-129.735 Z1.326
X-126.374 Z1.621
X-122.826 Z1.914
X-119.452 Z2.175
X-116.133 Z2.416
X-112.667 Z2.649
X-109.334 Z2.856
X-106.115 Z3.041
X-102.225 Z3.243
X-98.774 Z3.403
X-95.949 Z3.521
X-92.515 Z3.649
X-88.748 Z3.768
X-85.884 Z3.843
X-83.045 Z3.906
X-79.441 Z3.967
X-75.894 Z4.007
X-72.582 Z4.025
X0. Z4.029
G2 X0.14 Z4.062 I0. K0.318
G3 X0.279 Z4.094 I0.14 K-0.285
G1 X0.339 Y30.011
X0.399 Y30.016 Z4.095
X0.458 Y30.026 Z4.096
X0.516 Y30.038 Z4.098
X0.574 Y30.055 Z4.1
X0.63 Y30.075 Z4.102
X0.685 Y30.099 Z4.105
X0.738 Y30.126 Z4.108
X0.79 Y30.156 Z4.112
X0.839 Y30.189 Z4.116
X0.887 Y30.226 Z4.121
X0.931 Y30.265 Z4.125
X0.974 Y30.307 Z4.13
X1.013 Y30.352 Z4.136
X1.05 Y30.399 Z4.142
X1.084 Y30.448 Z4.148
X1.114 Y30.499 Z4.154
X1.141 Y30.552 Z4.16
X1.165 Y30.606 Z4.167
X1.185 Y30.662 Z4.174
X1.202 Y30.719 Z4.181
X1.215 Y30.777 Z4.188
X1.224 Y30.836 Z4.195
X1.23 Y30.895 Z4.202
X1.232 Y30.954 Z4.209
Y31.063 Z4.222
X1.23 Y31.123 Z4.229
X1.224 Y31.182 Z4.237
X1.215 Y31.24 Z4.244
X1.202 Y31.298 Z4.251
X1.185 Y31.355 Z4.258
X1.165 Y31.411 Z4.265
X1.141 Y31.466 Z4.271
X1.114 Y31.519 Z4.278
X1.084 Y31.57 Z4.284
X1.05 Y31.619 Z4.29
X1.013 Y31.666 Z4.295
X0.974 Y31.71 Z4.301
X0.931 Y31.752 Z4.306
X0.887 Y31.792 Z4.311
X0.839 Y31.828 Z4.315
X0.79 Y31.862 Z4.319
X0.738 Y31.892 Z4.323
X0.685 Y31.919 Z4.326
X0.63 Y31.942 Z4.329
X0.574 Y31.962 Z4.331
X0.516 Y31.979 Z4.333
X0.458 Y31.992 Z4.335
X0.399 Y32.001 Z4.336
X0.339 Y32.007 Z4.337
X0.279 Y32.009
G2 X0.14 Z4.305 I0. K-0.318
G3 X0. Z4.272 I-0.14 K0.285
G1 X-70.65 Z4.268
X-73.962 Z4.249
X-77.466 Z4.21
X-81.176 Z4.146
X-84.108 Z4.08
X-86.946 Z4.005
X-90.589 Z3.889
X-94.091 Z3.759
X-96.905 Z3.64
X-100.303 Z3.482
X-104.272 Z3.275
X-107.625 Z3.082
X-110.986 Z2.871
X-114.417 Z2.639
X-117.893 Z2.385
X-121.159 Z2.13
X-124.493 Z1.854
X-127.876 Z1.556
X-130.971 Z1.268
X-134.276 Z0.944
X-137.742 Z0.586
X-139.87 Z0.356
G3 X-140.044 Z0.387 I-0.034 K0.316
G1 X-140.064 Z0.397
G2 X-140.204 Z0.429 I-0.14 K-0.285
G1 X-140.277
G17 G2 X-141.23 Y32.961 I0. J0.953
G1 Y33.056
G2 X-140.277 Y34.009 I0.952 J0.
G18 G3 X-140.138 Z0.397 I0. K-0.317
G2 X-139.962 Z0.367 I0.14 K0.285
G1 X-139.034 Z0.471
X-135.808 Z0.822
X-132.315 Z1.183
X-129.104 Z1.498
X-125.968 Z1.79
X-122.607 Z2.087
X-119.322 Z2.36
X-115.998 Z2.62
X-112.555 Z2.872
X-109.195 Z3.1
X-105.75 Z3.317
X-102.343 Z3.514
X-98.584 Z3.711
X-95.654 Z3.849
X-92.699 Z3.977
X-88.97 Z4.119
X-85.573 Z4.229
X-82.758 Z4.307
X-79.405 Z4.385
X-75.546 Z4.451
X-72.168 Z4.49
X-68.719 Z4.51
X0. Z4.515
G2 X0.14 Z4.548 I0. K0.318
G3 X0.279 Z4.58 I0.14 K-0.285
G1 X0.339 Y34.01
X0.399 Y34.016 Z4.581
X0.458 Y34.025 Z4.582
X0.516 Y34.038 Z4.584
X0.574 Y34.055 Z4.586
X0.63 Y34.075 Z4.588
X0.685 Y34.099 Z4.591
X0.738 Y34.126 Z4.594
X0.79 Y34.156 Z4.598
X0.839 Y34.189 Z4.602
X0.887 Y34.226 Z4.606
X0.931 Y34.265 Z4.611
X0.974 Y34.307 Z4.616
X1.013 Y34.351 Z4.622
X1.05 Y34.398 Z4.627
X1.084 Y34.448 Z4.633
X1.114 Y34.499 Z4.639
X1.141 Y34.552 Z4.646
X1.165 Y34.606 Z4.653
X1.185 Y34.662 Z4.659
X1.202 Y34.719 Z4.666
X1.215 Y34.777 Z4.673
X1.224 Y34.836 Z4.68
X1.23 Y34.895 Z4.688
X1.232 Y34.954 Z4.695
Y35.063 Z4.708
X1.23 Y35.122 Z4.715
X1.224 Y35.181 Z4.722
X1.215 Y35.24 Z4.729
X1.202 Y35.298 Z4.737
X1.185 Y35.355 Z4.743
X1.165 Y35.411 Z4.75
X1.141 Y35.466 Z4.757
X1.114 Y35.519 Z4.763
X1.084 Y35.57 Z4.77
X1.05 Y35.619 Z4.775
X1.013 Y35.666 Z4.781
X0.974 Y35.71 Z4.787
X0.931 Y35.752 Z4.792
X0.887 Y35.792 Z4.796
X0.839 Y35.828 Z4.801
X0.79 Y35.861 Z4.805
X0.738 Y35.892 Z4.809
X0.685 Y35.919 Z4.812
X0.63 Y35.942 Z4.815
X0.574 Y35.962 Z4.817
X0.516 Y35.979 Z4.819
X0.458 Y35.992 Z4.821
X0.399 Y36.001 Z4.822
X0.339 Y36.007 Z4.823
X0.279 Y36.009
G2 X0.14 Z4.79 I0. K-0.318
G3 X0. Z4.758 I-0.14 K0.285
G1 X-66.511 Z4.754
X-70.098 Z4.734
X-73.587 Z4.694
X-77.42 Z4.627
X-80.797 Z4.549
X-83.592 Z4.471
X-86.988 Z4.361
X-90.787 Z4.217
X-93.79 Z4.086
X-96.655 Z3.95
X-100.402 Z3.754
X-103.81 Z3.556
X-107.385 Z3.33
X-110.697 Z3.104
X-114.037 Z2.86
X-117.333 Z2.602
X-120.618 Z2.329
X-123.975 Z2.033
X-127.077 Z1.743
X-130.321 Z1.425
X-133.839 Z1.061
X-137.116 Z0.704
X-139.998 Z0.377
G3 X-140.174 Z0.407 I-0.036 K0.315
G1 X-140.189 Z0.414
G2 X-140.328 Z0.447 I-0.14 K-0.285
G17 G2 X-141.281 Y36.961 I0. J0.952
G1 Y37.056
G2 X-140.328 Y38.008 I0.952 J0.
G1 X-140.317
G18 G3 X-140.177 Z0.414 I0. K-0.318
G2 X-140. Z0.384 I0.14 K0.285
G1 X-138.195 Z0.596
X-135.21 Z0.937
X-131.885 Z1.299
X-128.33 Z1.667
X-125.058 Z1.988
X-121.963 Z2.277
X-118.625 Z2.571
X-115.348 Z2.844
X-112.07 Z3.1
X-108.796 Z3.34
X-105.462 Z3.568
X-101.835 Z3.798
X-98.439 Z3.994
X-94.644 Z4.194
X-91.776 Z4.329
X-88.773 Z4.46
X-84.955 Z4.605
X-81.543 Z4.716
X-78.883 Z4.79
X-75.476 Z4.869
X-71.63 Z4.936
X-67.891 Z4.978
X-64.579 Z4.996
X0. Z5.001
G2 X0.14 Z5.033 I0. K0.318
G3 X0.279 Z5.066 I0.14 K-0.285
G1 X0.339 Y38.01
X0.399 Y38.016 Z5.067
X0.458 Y38.025 Z5.068
X0.516 Y38.038 Z5.069
X0.574 Y38.055 Z5.071
X0.63 Y38.075 Z5.074
X0.685 Y38.098 Z5.077
X0.738 Y38.125 Z5.08
X0.79 Y38.156 Z5.084
X0.839 Y38.189 Z5.088
X0.887 Y38.225 Z5.092
X0.931 Y38.265 Z5.097
X0.974 Y38.307 Z5.102
X1.013 Y38.351 Z5.107
X1.05 Y38.398 Z5.113
X1.084 Y38.447 Z5.119
X1.114 Y38.498 Z5.125
X1.141 Y38.551 Z5.132
X1.165 Y38.606 Z5.138
X1.185 Y38.662 Z5.145
X1.202 Y38.719 Z5.152
X1.215 Y38.777 Z5.159
X1.224 Y38.836 Z5.166
X1.23 Y38.895 Z5.173
X1.232 Y38.954 Z5.18
Y39.063 Z5.194
X1.23 Y39.122 Z5.201
X1.224 Y39.181 Z5.208
X1.215 Y39.24 Z5.215
X1.202 Y39.298 Z5.222
X1.185 Y39.355 Z5.229
X1.165 Y39.411 Z5.236
X1.141 Y39.465 Z5.243
X1.114 Y39.518 Z5.249
X1.084 Y39.569 Z5.255
X1.05 Y39.619 Z5.261
X1.013 Y39.666 Z5.267
X0.974 Y39.71 Z5.272
X0.931 Y39.752 Z5.277
X0.887 Y39.791 Z5.282
X0.839 Y39.828 Z5.287
X0.79 Y39.861 Z5.291
X0.738 Y39.891 Z5.294
X0.685 Y39.918 Z5.298
X0.63 Y39.942 Z5.3
X0.574 Y39.962 Z5.303
X0.516 Y39.979 Z5.305
X0.458 Y39.992 Z5.306
X0.399 Y40.001 Z5.308
X0.339 Y40.007
X0.279 Y40.008
G2 X0.14 Z5.276 I0. K-0.318
G3 X0. Z5.244 I-0.14 K0.285
G1 X-62.647 Z5.239
X-66.028 Z5.22
X-69.476 Z5.181
X-73.491 Z5.111
X-76.96 Z5.03
X-79.635 Z4.955
X-82.954 Z4.848
X-86.829 Z4.7
X-89.819 Z4.57
X-92.677 Z4.435
X-96.469 Z4.235
X-99.818 Z4.041
X-103.447 Z3.812
X-106.791 Z3.583
X-110.038 Z3.346
X-113.318 Z3.089
X-116.6 Z2.816
X-119.943 Z2.521
X-123.008 Z2.235
X-126.313 Z1.912
X-129.896 Z1.541
X-133.211 Z1.179
X-136.149 Z0.845
X-139.365 Z0.463
X-140. Z0.386
G3 X-140.356 Z0.701 I-0.038 K0.315 F1000.
G19 G2 Y40.961 Z1.653 J0.952 K0. F5000.
G1 Y41.056
G2 Y42.008 Z0.701 J0. K-0.952
G18 G2 X-140. Z0.386 I0.318 K0. F1000.
G1 X-137.358 Z0.706 F5000.
X-134.139 Z1.089
X-131.23 Z1.42
X-127.941 Z1.779
X-124.334 Z2.152
X-121.027 Z2.476
X-117.989 Z2.76
X-114.755 Z3.046
X-111.513 Z3.316
X-108.284 Z3.569
X-105.19 Z3.798
X-101.809 Z4.031
X-98.067 Z4.269
X-94.76 Z4.462
X-91.272 Z4.648
X-88.366 Z4.788
X-85.003 Z4.936
X-80.99 Z5.09
X-77.672 Z5.197
X-75.122 Z5.269
X-71.54 Z5.353
X-67.542 Z5.423
X-64.027 Z5.463
X-60.715 Z5.482
X0. Z5.487
G2 X0.14 Z5.519 I0. K0.318
G3 X0.279 Z5.551 I0.14 K-0.285
G1 X0.339 Y42.01 Z5.552
X0.399 Y42.016
X0.458 Y42.025 Z5.553
X0.516 Y42.038 Z5.555
X0.574 Y42.055 Z5.557
X0.63 Y42.075 Z5.559
X0.685 Y42.098 Z5.562
X0.738 Y42.125 Z5.566
X0.79 Y42.155 Z5.569
X0.839 Y42.189 Z5.573
X0.887 Y42.225 Z5.578
X0.931 Y42.265 Z5.582
X0.974 Y42.307 Z5.588
X1.013 Y42.351 Z5.593
X1.05 Y42.398 Z5.599
X1.084 Y42.447 Z5.605
X1.114 Y42.498 Z5.611
X1.141 Y42.551 Z5.617
X1.165 Y42.606 Z5.624
X1.185 Y42.662 Z5.631
X1.202 Y42.719 Z5.638
X1.215 Y42.777 Z5.645
X1.224 Y42.835 Z5.652
X1.23 Y42.894 Z5.659
X1.232 Y42.954 Z5.666
Y43.063 Z5.679
X1.23 Y43.122 Z5.687
X1.224 Y43.181 Z5.694
X1.215 Y43.24 Z5.701
X1.202 Y43.298 Z5.708
X1.185 Y43.355 Z5.715
X1.165 Y43.411 Z5.722
X1.141 Y43.465 Z5.728
X1.114 Y43.518 Z5.735
X1.084 Y43.569 Z5.741
X1.05 Y43.618 Z5.747
X1.013 Y43.665 Z5.753
X0.974 Y43.71 Z5.758
X0.931 Y43.752 Z5.763
X0.887 Y43.791 Z5.768
X0.839 Y43.828 Z5.772
X0.79 Y43.861 Z5.776
X0.738 Y43.891 Z5.78
X0.685 Y43.918 Z5.783
X0.63 Y43.942 Z5.786
X0.574 Y43.962 Z5.789
X0.516 Y43.979 Z5.791
X0.458 Y43.991 Z5.792
X0.399 Y44.001 Z5.793
X0.339 Y44.006 Z5.794
X0.279 Y44.008
G2 X0.14 Z5.762 I0. K-0.318
G3 X0. Z5.729 I-0.14 K0.285
G1 X-58.507 Z5.725
X-61.819 Z5.707
X-65.405 Z5.668
X-69.433 Z5.598
X-72.876 Z5.518
X-75.502 Z5.445
X-78.924 Z5.335
X-82.875 Z5.184
X-85.923 Z5.051
X-88.714 Z4.919
X-92.514 Z4.719
X-95.914 Z4.521
X-99.725 Z4.28
X-103.116 Z4.046
X-106.212 Z3.818
X-109.448 Z3.564
X-112.725 Z3.291
X-115.986 Z3.003
X-119.021 Z2.72
X-122.328 Z2.396
X-125.954 Z2.02
X-129.236 Z1.662
X-132.119 Z1.334
X-135.363 Z0.949
X-140. Z0.386
G3 X-140.356 Z0.701 I-0.038 K0.315 F1000.
G19 G2 Y44.961 Z1.653 J0.953 K0. F5000.
G1 Y45.056
G2 Y46.008 Z0.701 J0. K-0.952
G18 G2 X-140. Z0.386 I0.318 K0. F1000.
G1 X-133.353 Z1.193 F5000.
X-130.11 Z1.578
X-127.256 Z1.903
X-123.978 Z2.261
X-120.327 Z2.639
X-116.99 Z2.966
X-113.985 Z3.246
X-110.755 Z3.531
X-107.491 Z3.804
X-104.295 Z4.054
X-101.223 Z4.281
X-97.832 Z4.515
X-94.193 Z4.747
X-90.997 Z4.935
X-87.914 Z5.1
X-85.14 Z5.238
X-81.241 Z5.412
X-77.182 Z5.569
X-74.175 Z5.667
X-71.51 Z5.745
X-67.629 Z5.837
X-63.473 Z5.909
X-59.956 Z5.949
X-56.576 Z5.968
X0. Z5.972
G2 X0.14 Z6.005 I0. K0.317
G3 X0.279 Z6.037 I0.14 K-0.285
G1 X0.339 Y46.01
X0.399 Y46.016 Z6.038
X0.458 Y46.025 Z6.039
X0.516 Y46.038 Z6.041
X0.574 Y46.054 Z6.043
X0.63 Y46.075 Z6.045
X0.685 Y46.098 Z6.048
X0.738 Y46.125 Z6.051
X0.79 Y46.155 Z6.055
X0.839 Y46.189 Z6.059
X0.887 Y46.225 Z6.063
X0.931 Y46.264 Z6.068
X0.974 Y46.306 Z6.073
X1.013 Y46.351 Z6.079
X1.05 Y46.398 Z6.084
X1.084 Y46.447 Z6.09
X1.114 Y46.498 Z6.097
X1.141 Y46.551 Z6.103
X1.165 Y46.606 Z6.11
X1.185 Y46.662 Z6.116
X1.202 Y46.719 Z6.123
X1.215 Y46.777 Z6.13
X1.224 Y46.835 Z6.137
X1.23 Y46.894 Z6.145
X1.232 Y46.954 Z6.152
Y47.063 Z6.165
X1.23 Y47.122 Z6.172
X1.224 Y47.181 Z6.179
X1.215 Y47.24 Z6.187
X1.202 Y47.298 Z6.194
X1.185 Y47.355 Z6.201
X1.165 Y47.411 Z6.207
X1.141 Y47.465 Z6.214
X1.114 Y47.518 Z6.22
X1.084 Y47.569 Z6.227
X1.05 Y47.618 Z6.233
X1.013 Y47.665 Z6.238
X0.974 Y47.71 Z6.244
X0.931 Y47.752 Z6.249
X0.887 Y47.791 Z6.254
X0.839 Y47.827 Z6.258
X0.79 Y47.861 Z6.262
X0.738 Y47.891 Z6.266
X0.685 Y47.918 Z6.269
X0.63 Y47.942 Z6.272
X0.574 Y47.962 Z6.274
X0.516 Y47.978 Z6.276
X0.458 Y47.991 Z6.278
X0.399 Y48.001 Z6.279
X0.339 Y48.006 Z6.28
X0.279 Y48.008
G2 X0.14 Z6.247 I0. K-0.318
G3 X0. Z6.215 I-0.14 K0.285
G1 X-54.644 Z6.21
X-57.955 Z6.192
X-61.507 Z6.152
X-65.713 Z6.078
X-69.872 Z5.978
X-72.956 Z5.885
X-75.516 Z5.799
X-79.399 Z5.649
X-83.467 Z5.466
X-86.552 Z5.309
X-89.432 Z5.153
X-92.69 Z4.959
X-96.025 Z4.745
X-99.334 Z4.516
X-102.318 Z4.295
X-105.517 Z4.044
X-108.79 Z3.771
X-111.985 Z3.489
X-114.993 Z3.208
X-118.331 Z2.881
X-122.004 Z2.501
X-125.256 Z2.146
X-128.083 Z1.824
X-131.348 Z1.436
X-140. Z0.386
G3 X-140.356 Z0.701 I-0.038 K0.315 F1000.
G19 G2 Y48.961 Z1.653 J0.952 K0. F5000.
G1 Y49.055
G2 Y50.008 Z0.701 J0. K-0.952
G18 G2 X-140. Z0.386 I0.318 K0. F1000.
G1 X-129.366 Z1.677 F5000.
X-126.101 Z2.064
X-123.294 Z2.384
X-120.043 Z2.739
X-116.337 Z3.123
X-112.972 Z3.453
X-109.998 Z3.73
X-106.872 Z4.007
X-103.662 Z4.275
X-100.53 Z4.522
X-97.644 Z4.737
X-94.616 Z4.948
X-91.64 Z5.142
X-88.619 Z5.327
X-85.406 Z5.507
X-81.753 Z5.695
X-77.668 Z5.88
X-74.434 Z6.008
X-71.859 Z6.1
X-68.074 Z6.215
X-63.869 Z6.318
X-59.774 Z6.391
X-55.748 Z6.437
X-52.436 Z6.454
X0. Z6.458
G2 X0.14 Z6.49 I0. K0.317
G3 X0.279 Z6.523 I0.14 K-0.285
G1 X0.339 Y50.01
X0.399 Y50.015 Z6.524
X0.458 Y50.025 Z6.525
X0.516 Y50.038 Z6.526
X0.574 Y50.054 Z6.528
X0.63 Y50.074 Z6.531
X0.685 Y50.098 Z6.534
X0.738 Y50.125 Z6.537
X0.79 Y50.155 Z6.541
X0.839 Y50.189 Z6.545
X0.887 Y50.225 Z6.549
X0.931 Y50.264 Z6.554
X0.974 Y50.306 Z6.559
X1.013 Y50.351 Z6.564
X1.05 Y50.398 Z6.57
X1.084 Y50.447 Z6.576
X1.114 Y50.498 Z6.582
X1.141 Y50.551 Z6.589
X1.165 Y50.605 Z6.595
X1.185 Y50.661 Z6.602
X1.202 Y50.718 Z6.609
X1.215 Y50.776 Z6.616
X1.224 Y50.835 Z6.623
X1.23 Y50.894 Z6.63
X1.232 Y50.954 Z6.638
Y51.062 Z6.651
X1.23 Y51.122 Z6.658
X1.224 Y51.181 Z6.665
X1.215 Y51.24 Z6.672
X1.202 Y51.297 Z6.679
X1.185 Y51.355 Z6.686
X1.165 Y51.41 Z6.693
X1.141 Y51.465 Z6.7
X1.114 Y51.518 Z6.706
X1.084 Y51.569 Z6.712
X1.05 Y51.618 Z6.718
X1.013 Y51.665 Z6.724
X0.974 Y51.71 Z6.729
X0.931 Y51.752 Z6.734
X0.887 Y51.791 Z6.739
X0.839 Y51.827 Z6.744
X0.79 Y51.861 Z6.748
X0.738 Y51.891 Z6.751
X0.685 Y51.918 Z6.755
X0.63 Y51.941 Z6.758
X0.574 Y51.962 Z6.76
X0.516 Y51.978 Z6.762
X0.458 Y51.991 Z6.764
X0.399 Y52. Z6.765
X0.339 Y52.006
X0.279 Y52.008 Z6.766
G2 X0.14 Z6.733 I0. K-0.317
G3 X0. Z6.701 I-0.14 K0.285
G1 X-50.504 Z6.696
X-53.883 Z6.678
X-57.811 Z6.633
X-61.841 Z6.561
X-66.11 Z6.457
X-70.074 Z6.335
X-72.781 Z6.237
X-75.767 Z6.118
X-79.779 Z5.936
X-83.534 Z5.743
X-86.782 Z5.56
X-89.887 Z5.37
X-92.79 Z5.179
X-95.763 Z4.971
X-98.645 Z4.756
X-101.659 Z4.518
X-104.869 Z4.25
X-107.992 Z3.974
X-110.938 Z3.699
X-114.338 Z3.366
X-118.093 Z2.977
X-121.344 Z2.621
X-124.121 Z2.305
X-127.361 Z1.92
X-140. Z0.386
G3 X-140.356 Z0.701 I-0.038 K0.315 F1000.
G19 G2 Y52.96 Z1.653 J0.952 K0. F5000.
G1 Y53.055
G2 Y54.008 Z0.701 J0. K-0.952
G18 G2 X-140. Z0.386 I0.318 K0. F1000.
G1 X-125.391 Z2.16 F5000.
X-122.177 Z2.541
X-119.405 Z2.857
X-116.134 Z3.215
X-112.355 Z3.607
X-108.926 Z3.943
X-105.979 Z4.218
X-102.849 Z4.495
X-99.641 Z4.763
X-96.545 Z5.006
X-93.706 Z5.218
X-90.768 Z5.423
X-87.911 Z5.611
X-84.803 Z5.802
X-81.581 Z5.984
X-77.804 Z6.178
X-73.78 Z6.361
X-70.948 Z6.474
X-68.17 Z6.575
X-64.153 Z6.699
X-59.843 Z6.804
X-55.727 Z6.877
X-51.884 Z6.921
X-48.572 Z6.939
X0. Z6.944
G2 X0.14 Z6.976 I0. K0.318
G3 X0.279 Z7.008 I0.14 K-0.285
G1 X0.339 Y54.01 Z7.009
X0.399 Y54.015
X0.458 Y54.025 Z7.01
X0.516 Y54.038 Z7.012
X0.574 Y54.054 Z7.014
X0.63 Y54.074 Z7.016
X0.685 Y54.098 Z7.019
X0.738 Y54.125 Z7.023
X0.79 Y54.155 Z7.026
X0.839 Y54.188 Z7.03
X0.887 Y54.225 Z7.035
X0.931 Y54.264 Z7.04
X0.974 Y54.306 Z7.045
X1.013 Y54.351 Z7.05
X1.05 Y54.398 Z7.056
X1.084 Y54.447 Z7.062
X1.114 Y54.498 Z7.068
X1.141 Y54.551 Z7.074
X1.165 Y54.605 Z7.081
X1.185 Y54.661 Z7.088
X1.202 Y54.718 Z7.095
X1.215 Y54.776 Z7.102
X1.224 Y54.835 Z7.109
X1.23 Y54.894 Z7.116
X1.232 Y54.953 Z7.123
Y55.062 Z7.136
X1.23 Y55.122 Z7.144
X1.224 Y55.181 Z7.151
X1.215 Y55.239 Z7.158
X1.202 Y55.297 Z7.165
X1.185 Y55.354 Z7.172
X1.165 Y55.41 Z7.179
X1.141 Y55.465 Z7.185
X1.114 Y55.518 Z7.192
X1.084 Y55.569 Z7.198
X1.05 Y55.618 Z7.204
X1.013 Y55.665 Z7.21
X0.974 Y55.709 Z7.215
X0.931 Y55.751 Z7.22
X0.887 Y55.791 Z7.225
X0.839 Y55.827 Z7.229
X0.79 Y55.861 Z7.233
X0.738 Y55.891 Z7.237
X0.685 Y55.918 Z7.24
X0.63 Y55.941 Z7.243
X0.574 Y55.961 Z7.246
X0.516 Y55.978 Z7.248
X0.458 Y55.991 Z7.249
X0.399 Y56. Z7.25
X0.339 Y56.006 Z7.251
X0.279 Y56.008
G2 X0.14 Z7.219 I0. K-0.318
G3 X0. Z7.186 I-0.14 K0.285
G1 X-46.364 Z7.182
X-49.676 Z7.166
X-53.73 Z7.12
X-57.82 Z7.048
X-62.094 Z6.943
X-66.05 Z6.822
X-68.665 Z6.727
X-71.673 Z6.608
X-75.825 Z6.42
X-79.654 Z6.223
X-82.852 Z6.042
X-85.982 Z5.849
X-88.8 Z5.664
X-91.74 Z5.458
X-94.585 Z5.246
X-97.638 Z5.006
X-100.851 Z4.737
X-103.971 Z4.461
X-106.918 Z4.187
X-110.348 Z3.851
X-114.161 Z3.455
X-117.46 Z3.094
X-120.231 Z2.778
X-123.421 Z2.399
X-140. Z0.386
G3 X-140.356 Z0.701 I-0.038 K0.315 F1000.
G19 G2 Y56.96 Z1.653 J0.952 K0. F5000.
G1 Y57.055
G2 Y58.008 Z0.701 J0. K-0.952
G18 G2 X-140. Z0.386 I0.318 K0. F1000.
G1 X-121.553 Z2.626 F5000.
X-118.466 Z2.993
X-115.576 Z3.324
X-112.224 Z3.691
X-108.359 Z4.093
X-104.902 Z4.431
X-101.993 Z4.702
X-98.871 Z4.978
X-95.731 Z5.241
X-92.948 Z5.461
X-90.049 Z5.679
X-87.08 Z5.888
X-84.273 Z6.074
X-81.134 Z6.268
X-78.007 Z6.446
X-73.922 Z6.658
X-69.844 Z6.844
X-67.086 Z6.954
X-64.243 Z7.058
X-60.114 Z7.186
X-55.84 Z7.29
X-51.798 Z7.362
X-48.003 Z7.405
X-44.432 Z7.425
X0. Z7.429
G2 X0.14 Z7.462 I0. K0.318
G3 X0.279 Z7.494 I0.14 K-0.285
G1 X0.339 Y58.01
X0.399 Y58.015 Z7.495
X0.458 Y58.024 Z7.496
X0.516 Y58.037 Z7.498
X0.574 Y58.054 Z7.5
X0.63 Y58.074 Z7.502
X0.685 Y58.098 Z7.505
X0.738 Y58.125 Z7.508
X0.79 Y58.155 Z7.512
X0.839 Y58.188 Z7.516
X0.887 Y58.225 Z7.52
X0.931 Y58.264 Z7.525
X0.974 Y58.306 Z7.53
X1.013 Y58.35 Z7.536
X1.05 Y58.397 Z7.541
X1.084 Y58.447 Z7.547
X1.114 Y58.498 Z7.554
X1.141 Y58.551 Z7.56
X1.165 Y58.605 Z7.567
X1.185 Y58.661 Z7.573
X1.202 Y58.718 Z7.58
X1.215 Y58.776 Z7.587
X1.224 Y58.835 Z7.595
X1.23 Y58.894 Z7.602
X1.232 Y58.953 Z7.609
Y59.062 Z7.622
X1.23 Y59.121 Z7.629
X1.224 Y59.181 Z7.637
X1.215 Y59.239 Z7.644
X1.202 Y59.297 Z7.651
X1.185 Y59.354 Z7.658
X1.165 Y59.41 Z7.664
X1.141 Y59.465 Z7.671
X1.114 Y59.518 Z7.677
X1.084 Y59.569 Z7.684
X1.05 Y59.618 Z7.69
X1.013 Y59.665 Z7.695
X0.974 Y59.709 Z7.701
X0.931 Y59.751 Z7.706
X0.887 Y59.791 Z7.711
X0.839 Y59.827 Z7.715
X0.79 Y59.86 Z7.719
X0.738 Y59.891 Z7.723
X0.685 Y59.918 Z7.726
X0.63 Y59.941 Z7.729
X0.574 Y59.961 Z7.731
X0.516 Y59.978 Z7.733
X0.458 Y59.991 Z7.735
X0.399 Y60. Z7.736
X0.339 Y60.006 Z7.737
X0.279 Y60.008
G2 X0.14 Z7.705 I0. K-0.318
G3 X0. Z7.672 I-0.14 K0.285
G1 X-42.225 Z7.668
X-45.536 Z7.653
X-49.642 Z7.607
X-53.886 Z7.532
X-58.254 Z7.425
X-62.689 Z7.286
X-66.887 Z7.127
X-69.859 Z6.996
X-72.547 Z6.87
X-76.57 Z6.658
X-79.972 Z6.461
X-83.822 Z6.216
X-87.189 Z5.984
X-90.177 Z5.763
X-93.385 Z5.512
X-96.731 Z5.233
X-99.928 Z4.951
X-102.847 Z4.679
X-106.369 Z4.334
X-110.263 Z3.93
X-113.727 Z3.55
X-116.643 Z3.215
X-119.655 Z2.856
X-140. Z0.386
G3 X-140.356 Z0.701 I-0.038 K0.315 F1000.
G19 G2 Y60.96 Z1.653 J0.952 K0. F5000.
G1 Y61.055
G2 Y62.007 Z0.701 J0. K-0.952
G18 G2 X-140. Z0.386 I0.318 K0. F1000.
G1 X-117.649 Z3.1 F5000.
X-114.641 Z3.458
X-111.773 Z3.788
X-108.284 Z4.171
X-104.367 Z4.577
X-100.814 Z4.925
X-97.898 Z5.197
X-94.733 Z5.476
X-91.41 Z5.753
X-88.183 Z6.005
X-85.195 Z6.226
X-81.877 Z6.455
X-78.066 Z6.698
X-74.758 Z6.891
X-70.932 Z7.093
X-68.344 Z7.217
X-64.986 Z7.365
X-60.71 Z7.528
X-56.281 Z7.667
X-51.917 Z7.774
X-47.698 Z7.849
X-43.605 Z7.895
X-40.293 Z7.911
X0. Z7.915
G2 X0.14 Z7.947 I0. K0.317
G3 X0.279 Z7.98 I0.14 K-0.285
G1 X0.339 Y62.009
X0.399 Y62.015 Z7.981
X0.458 Y62.024 Z7.982
X0.516 Y62.037 Z7.983
X0.574 Y62.054 Z7.985
X0.63 Y62.074 Z7.988
X0.685 Y62.097 Z7.991
X0.738 Y62.124 Z7.994
X0.79 Y62.155 Z7.998
X0.839 Y62.188 Z8.002
X0.887 Y62.224 Z8.006
X0.931 Y62.264 Z8.011
X0.974 Y62.306 Z8.016
X1.013 Y62.35 Z8.021
X1.05 Y62.397 Z8.027
X1.084 Y62.446 Z8.033
X1.114 Y62.498 Z8.039
X1.141 Y62.55 Z8.046
X1.165 Y62.605 Z8.052
X1.185 Y62.661 Z8.059
X1.202 Y62.718 Z8.066
X1.215 Y62.776 Z8.073
X1.224 Y62.835 Z8.08
X1.23 Y62.894 Z8.087
X1.232 Y62.953 Z8.095
Y63.062 Z8.108
X1.23 Y63.121 Z8.115
X1.224 Y63.18 Z8.122
X1.215 Y63.239 Z8.129
X1.202 Y63.297 Z8.136
X1.185 Y63.354 Z8.143
X1.165 Y63.41 Z8.15
X1.141 Y63.464 Z8.157
X1.114 Y63.517 Z8.163
X1.084 Y63.569 Z8.169
X1.05 Y63.618 Z8.175
X1.013 Y63.665 Z8.181
X0.974 Y63.709 Z8.186
X0.931 Y63.751 Z8.192
X0.887 Y63.79 Z8.196
X0.839 Y63.827 Z8.201
X0.79 Y63.86 Z8.205
X0.738 Y63.89 Z8.208
X0.685 Y63.917 Z8.212
X0.63 Y63.941 Z8.215
X0.574 Y63.961 Z8.217
X0.516 Y63.978 Z8.219
X0.458 Y63.991 Z8.221
X0.399 Y64. Z8.222
X0.339 Y64.006
X0.279 Y64.007 Z8.223
G2 X0.14 Z8.19 I0. K-0.318
G3 X0. Z8.158 I-0.14 K0.285
G1 X-38.361 Z8.153
X-41.673 Z8.137
X-45.684 Z8.092
X-49.909 Z8.017
X-54.285 Z7.91
X-58.713 Z7.771
X-63.068 Z7.605
X-66.851 Z7.437
X-69.351 Z7.314
X-72.797 Z7.131
X-76.063 Z6.941
X-79.879 Z6.698
X-83.196 Z6.469
X-86.146 Z6.251
X-89.398 Z5.997
X-92.738 Z5.718
X-95.902 Z5.439
X-98.822 Z5.167
X-102.374 Z4.82
X-106.321 Z4.41
X-109.847 Z4.022
X-112.677 Z3.697
X-115.66 Z3.341
X-140. Z0.386
G3 X-140.356 Z0.701 I-0.038 K0.315 F1000.
G19 G2 Y64.96 Z1.653 J0.952 K0. F5000.
G1 Y65.055
G2 Y66.007 Z0.701 J0. K-0.952
G18 G2 X-140. Z0.386 I0.318 K0. F1000.
G1 X-113.683 Z3.581 F5000.
X-110.725 Z3.934
X-107.923 Z4.257
X-104.349 Z4.65
X-100.375 Z5.062
X-96.794 Z5.413
X-93.909 Z5.681
X-90.783 Z5.957
X-87.469 Z6.234
X-84.362 Z6.477
X-81.584 Z6.684
X-78.76 Z6.881
X-76.036 Z7.06
X-72.978 Z7.249
X-69.834 Z7.427
X-65.79 Z7.636
X-61.315 Z7.838
X-56.833 Z8.009
X-52.369 Z8.15
X-47.983 Z8.258
X-43.671 Z8.335
X-39.741 Z8.379
X-36.429 Z8.396
X0. Z8.401
G2 X0.14 Z8.433 I0. K0.318
G3 X0.279 Z8.466 I0.14 K-0.285
G1 X0.339 Y66.009
X0.399 Y66.015
X0.458 Y66.024 Z8.468
X0.516 Y66.037 Z8.469
X0.574 Y66.054 Z8.471
X0.63 Y66.074 Z8.474
X0.685 Y66.097 Z8.476
X0.738 Y66.124 Z8.48
X0.79 Y66.155 Z8.483
X0.839 Y66.188 Z8.487
X0.887 Y66.224 Z8.492
X0.931 Y66.264 Z8.497
X0.974 Y66.306 Z8.502
X1.013 Y66.35 Z8.507
X1.05 Y66.397 Z8.513
X1.084 Y66.446 Z8.519
X1.114 Y66.497 Z8.525
X1.141 Y66.55 Z8.531
X1.165 Y66.605 Z8.538
X1.185 Y66.661 Z8.545
X1.202 Y66.718 Z8.552
X1.215 Y66.776 Z8.559
X1.224 Y66.834 Z8.566
X1.23 Y66.894 Z8.573
X1.232 Y66.953 Z8.58
Y67.062 Z8.594
X1.23 Y67.121 Z8.601
X1.224 Y67.18 Z8.608
X1.215 Y67.239 Z8.615
X1.202 Y67.297 Z8.622
X1.185 Y67.354 Z8.629
X1.165 Y67.41 Z8.636
X1.141 Y67.464 Z8.642
X1.114 Y67.517 Z8.649
X1.084 Y67.568 Z8.655
X1.05 Y67.617 Z8.661
X1.013 Y67.664 Z8.667
X0.974 Y67.709 Z8.672
X0.931 Y67.751 Z8.677
X0.887 Y67.79 Z8.682
X0.839 Y67.827 Z8.686
X0.79 Y67.86 Z8.69
X0.738 Y67.89 Z8.694
X0.685 Y67.917 Z8.697
X0.63 Y67.941 Z8.7
X0.574 Y67.961 Z8.703
X0.516 Y67.978 Z8.705
X0.458 Y67.991 Z8.706
X0.399 Y68. Z8.707
X0.339 Y68.005 Z8.708
X0.279 Y68.007
G2 X0.14 Z8.676 I0. K-0.318
G3 X0. Z8.644 I-0.14 K0.285
G1 X-34.221 Z8.639
X-37.533 Z8.624
X-41.639 Z8.579
X-45.9 Z8.503
X-50.268 Z8.396
X-54.766 Z8.255
X-59.329 Z8.08
X-63.815 Z7.877
X-67.965 Z7.663
X-71.053 Z7.487
X-74.106 Z7.298
X-76.787 Z7.122
X-79.605 Z6.925
X-82.343 Z6.722
X-85.443 Z6.479
X-88.78 Z6.2
X-91.903 Z5.925
X-94.789 Z5.656
X-98.373 Z5.305
X-102.375 Z4.89
X-106.026 Z4.488
X-108.846 Z4.162
X-111.776 Z3.813
X-140. Z0.386
G3 X-140.356 Z0.701 I-0.038 K0.315 F1000.
G19 G2 Y68.96 Z1.653 J0.952 K0. F5000.
G1 Y69.055
G2 Y70.007 Z0.701 J0. K-0.952
G18 G2 X-140. Z0.386 I0.318 K0. F1000.
G1 X-109.804 Z4.052 F5000.
X-106.925 Z4.396
X-104.1 Z4.722
X-100.401 Z5.13
X-96.368 Z5.549
X-92.753 Z5.902
X-89.891 Z6.168
X-86.764 Z6.445
X-83.368 Z6.728
X-80.106 Z6.983
X-77.099 Z7.204
X-73.657 Z7.441
X-69.695 Z7.692
X-66.335 Z7.886
X-61.891 Z8.117
X-57.34 Z8.322
X-52.805 Z8.496
X-48.389 Z8.635
X-43.939 Z8.745
X-39.707 Z8.82
X-35.601 Z8.866
X-32.289 Z8.882
X0. Z8.886
G2 X0.14 Z8.919 I0. K0.318
G3 X0.279 Z8.951 I0.14 K-0.285
G1 X0.339 Y70.009
X0.399 Y70.015 Z8.952
X0.458 Y70.024 Z8.953
X0.516 Y70.037 Z8.955
X0.574 Y70.053 Z8.957
X0.63 Y70.074 Z8.959
X0.685 Y70.097 Z8.962
X0.738 Y70.124 Z8.965
X0.79 Y70.154 Z8.969
X0.839 Y70.188 Z8.973
X0.887 Y70.224 Z8.978
X0.931 Y70.263 Z8.982
X0.974 Y70.305 Z8.987
X1.013 Y70.35 Z8.993
X1.05 Y70.397 Z8.999
X1.084 Y70.446 Z9.005
X1.114 Y70.497 Z9.011
X1.141 Y70.55 Z9.017
X1.165 Y70.605 Z9.024
X1.185 Y70.661 Z9.031
X1.202 Y70.718 Z9.037
X1.215 Y70.776 Z9.045
X1.224 Y70.834 Z9.052
X1.23 Y70.893 Z9.059
X1.232 Y70.953 Z9.066
Y71.062 Z9.079
X1.23 Y71.121 Z9.086
X1.224 Y71.18 Z9.094
X1.215 Y71.239 Z9.101
X1.202 Y71.297 Z9.108
X1.185 Y71.354 Z9.115
X1.165 Y71.41 Z9.122
X1.141 Y71.464 Z9.128
X1.114 Y71.517 Z9.135
X1.084 Y71.568 Z9.141
X1.05 Y71.617 Z9.147
X1.013 Y71.664 Z9.152
X0.974 Y71.709 Z9.158
X0.931 Y71.751 Z9.163
X0.887 Y71.79 Z9.168
X0.839 Y71.827 Z9.172
X0.79 Y71.86 Z9.176
X0.738 Y71.89 Z9.18
X0.685 Y71.917 Z9.183
X0.63 Y71.941 Z9.186
X0.574 Y71.961 Z9.188
X0.516 Y71.977 Z9.19
X0.458 Y71.99 Z9.192
X0.399 Y72. Z9.193
X0.339 Y72.005 Z9.194
X0.279 Y72.007
G2 X0.14 Z9.162 I0. K-0.318
G3 X0. Z9.129 I-0.14 K0.285
G1 X-30.358 Z9.124
X-33.669 Z9.108
X-37.724 Z9.063
X-41.972 Z8.987
X-46.405 Z8.878
X-50.82 Z8.738
X-55.393 Z8.563
X-59.896 Z8.359
X-64.406 Z8.125
X-67.793 Z7.929
X-71.803 Z7.674
X-75.12 Z7.446
X-78.075 Z7.228
X-81.354 Z6.972
X-84.743 Z6.689
X-87.871 Z6.413
X-90.727 Z6.148
X-94.374 Z5.791
X-98.409 Z5.372
X-102.192 Z4.955
X-105.182 Z4.609
X-108.196 Z4.247
X-140. Z0.386
G3 X-140.356 Z0.701 I-0.038 K0.315 F1000.
G19 G2 Y72.96 Z1.653 J0.952 K0. F5000.
G1 Y73.055
G2 Y74.007 Z0.701 J0. K-0.952
G18 G2 X-140. Z0.386 I0.318 K0. F1000.
G1 X-109.247 Z4.12 F5000.
X-103.66 Z4.795
X-100.32 Z5.183
X-96.439 Z5.611
X-92.382 Z6.033
X-88.736 Z6.39
X-85.877 Z6.655
X-82.743 Z6.932
X-79.358 Z7.214
X-76.082 Z7.47
X-73.169 Z7.685
X-69.856 Z7.914
X-65.941 Z8.163
X-62.522 Z8.361
X-57.914 Z8.601
X-53.397 Z8.806
X-48.845 Z8.98
X-44.437 Z9.12
X-40. Z9.229
X-35.703 Z9.306
X-31.462 Z9.353
X-28.15 Z9.368
X0. Z9.372
G2 X0.14 Z9.405 I0. K0.318
G3 X0.279 Z9.437 I0.14 K-0.285
G1 X0.339 Y74.009
X0.399 Y74.014 Z9.438
X0.458 Y74.024 Z9.439
X0.516 Y74.037 Z9.441
X0.574 Y74.053 Z9.443
X0.63 Y74.073 Z9.445
X0.685 Y74.097 Z9.448
X0.738 Y74.124 Z9.451
X0.79 Y74.154 Z9.455
X0.839 Y74.188 Z9.459
X0.887 Y74.224 Z9.463
X0.931 Y74.263 Z9.468
X0.974 Y74.305 Z9.473
X1.013 Y74.35 Z9.479
X1.05 Y74.397 Z9.484
X1.084 Y74.446 Z9.49
X1.114 Y74.497 Z9.496
X1.141 Y74.55 Z9.503
X1.165 Y74.604 Z9.509
X1.185 Y74.66 Z9.516
X1.202 Y74.717 Z9.523
X1.215 Y74.775 Z9.53
X1.224 Y74.834 Z9.537
X1.23 Y74.893 Z9.545
X1.232 Y74.953 Z9.552
Y75.061 Z9.565
X1.23 Y75.121 Z9.572
X1.224 Y75.18 Z9.579
X1.215 Y75.239 Z9.586
X1.202 Y75.297 Z9.593
X1.185 Y75.354 Z9.6
X1.165 Y75.409 Z9.607
X1.141 Y75.464 Z9.614
X1.114 Y75.517 Z9.62
X1.084 Y75.568 Z9.626
X1.05 Y75.617 Z9.632
X1.013 Y75.664 Z9.638
X0.974 Y75.709 Z9.644
X0.931 Y75.751 Z9.649
X0.887 Y75.79 Z9.653
X0.839 Y75.826 Z9.658
X0.79 Y75.86 Z9.662
X0.738 Y75.89 Z9.666
X0.685 Y75.917 Z9.669
X0.63 Y75.941 Z9.672
X0.574 Y75.961 Z9.674
X0.516 Y75.977 Z9.676
X0.458 Y75.99 Z9.678
X0.399 Y75.999 Z9.679
X0.339 Y76.005 Z9.68
X0.279 Y76.007
G2 X0.14 Z9.647 I0. K-0.318
G3 X0. Z9.615 I-0.14 K0.285
G1 X-26.218 Z9.611
X-29.53 Z9.595
X-33.716 Z9.549
X-38.002 Z9.472
X-42.458 Z9.362
X-46.946 Z9.22
X-51.403 Z9.048
X-55.94 Z8.843
X-60.549 Z8.602
X-63.963 Z8.404
X-67.883 Z8.155
X-71.153 Z7.929
X-74.071 Z7.714
X-77.351 Z7.458
X-80.741 Z7.175
X-83.872 Z6.899
X-86.7 Z6.636
X-90.403 Z6.274
X-94.492 Z5.848
X-98.599 Z5.395
X-102.57 Z4.93
X-140. Z0.386
G3 X-140.178 Z0.416 I-0.038 K0.315
G2 X-140.318 Z0.448 I-0.14 K-0.285
G17 G2 X-141.27 Y76.959 I0. J0.952
G1 Y77.054
G2 X-140.318 Y78.007 I0.952 J0.
G18 G3 X-140.178 Z0.416 I0. K-0.317
G2 X-140. Z0.386 I0.14 K0.285
G1 X-100.749 Z5.151
X-96.687 Z5.628
X-92.503 Z6.09
X-88.389 Z6.518
X-84.681 Z6.881
X-81.855 Z7.143
X-78.761 Z7.416
X-75.337 Z7.702
X-72.059 Z7.958
X-69.149 Z8.172
X-65.913 Z8.395
X-62.027 Z8.643
X-58.623 Z8.841
X-53.983 Z9.084
X-49.452 Z9.289
X-44.94 Z9.463
X-40.475 Z9.604
X-36.031 Z9.714
X-31.692 Z9.792
X-27.598 Z9.837
X-24.286 Z9.853
X0. Z9.858
G2 X0.14 Z9.89 I0. K0.318
G3 X0.279 Z9.923 I0.14 K-0.285
G1 X0.339 Y78.009
X0.399 Y78.014 Z9.924
X0.458 Y78.024 Z9.925
X0.516 Y78.037 Z9.926
X0.574 Y78.053 Z9.928
X0.63 Y78.073 Z9.931
X0.685 Y78.097 Z9.934
X0.738 Y78.124 Z9.937
X0.79 Y78.154 Z9.94
X0.839 Y78.187 Z9.945
X0.887 Y78.224 Z9.949
X0.931 Y78.263 Z9.954
X0.974 Y78.305 Z9.959
X1.013 Y78.35 Z9.964
X1.05 Y78.397 Z9.97
X1.084 Y78.446 Z9.976
X1.114 Y78.497 Z9.982
X1.141 Y78.55 Z9.989
X1.165 Y78.604 Z9.995
X1.185 Y78.66 Z10.002
X1.202 Y78.717 Z10.009
X1.215 Y78.775 Z10.016
X1.224 Y78.834 Z10.023
X1.23 Y78.893 Z10.03
X1.232 Y78.952 Z10.037
Y79.061 Z10.051
X1.23 Y79.121 Z10.058
X1.224 Y79.18 Z10.065
X1.215 Y79.238 Z10.072
X1.202 Y79.296 Z10.079
X1.185 Y79.353 Z10.086
X1.165 Y79.409 Z10.093
X1.141 Y79.464 Z10.1
X1.114 Y79.517 Z10.106
X1.084 Y79.568 Z10.112
X1.05 Y79.617 Z10.118
X1.013 Y79.664 Z10.124
X0.974 Y79.708 Z10.129
X0.931 Y79.75 Z10.134
X0.887 Y79.79 Z10.139
X0.839 Y79.826 Z10.144
X0.79 Y79.86 Z10.148
X0.738 Y79.89 Z10.151
X0.685 Y79.917 Z10.155
X0.63 Y79.94 Z10.157
X0.574 Y79.96 Z10.16
X0.516 Y79.977 Z10.162
X0.458 Y79.99 Z10.163
X0.399 Y79.999 Z10.165
X0.339 Y80.005
X0.279 Y80.007
G2 X0.14 Z10.133 I0. K-0.318
G3 X0. Z10.101 I-0.14 K0.285
G1 X-22.078 Z10.097
X-25.666 Z10.079
X-29.669 Z10.035
X-33.978 Z9.958
X-38.446 Z9.848
X-42.932 Z9.706
X-47.438 Z9.532
X-52.038 Z9.324
X-56.629 Z9.084
X-60.022 Z8.886
X-63.9 Z8.639
X-67.137 Z8.416
X-70.048 Z8.201
X-73.326 Z7.945
X-76.747 Z7.66
X-79.849 Z7.387
X-82.675 Z7.124
X-86.409 Z6.759
X-90.523 Z6.331
X-94.708 Z5.868
X-98.818 Z5.386
X-140. Z0.386
G3 X-140.178 Z0.416 I-0.038 K0.315
G2 X-140.318 Z0.448 I-0.14 K-0.285
G17 G2 X-141.27 Y80.959 I0. J0.952
G1 Y81.054
G2 X-140.318 Y82.007 I0.952 J0.
G18 G3 X-140.178 Z0.416 I0. K-0.318
G2 X-140. Z0.386 I0.14 K0.285
G1 X-96.855 Z5.624
X-92.772 Z6.104
X-88.563 Z6.569
X-84.426 Z7.
X-80.659 Z7.368
X-77.864 Z7.628
X-74.767 Z7.902
X-71.323 Z8.188
X-68.027 Z8.446
X-65.152 Z8.657
X-61.916 Z8.881
X-58.04 Z9.128
X-54.637 Z9.326
X-50.071 Z9.565
X-45.45 Z9.775
X-40.987 Z9.947
X-36.461 Z10.09
X-32.077 Z10.199
X-27.634 Z10.278
X-23.458 Z10.324
X-20.146 Z10.339
X0. Z10.343
G2 X0.14 Z10.376 I0. K0.318
G3 X0.279 Z10.408 I0.14 K-0.285
G1 X0.339 Y82.009 Z10.409
X0.399 Y82.014
X0.458 Y82.023 Z10.41
X0.516 Y82.036 Z10.412
X0.574 Y82.053 Z10.414
X0.63 Y82.073 Z10.416
X0.685 Y82.097 Z10.419
X0.738 Y82.124 Z10.422
X0.79 Y82.154 Z10.426
X0.839 Y82.187 Z10.43
X0.887 Y82.224 Z10.435
X0.931 Y82.263 Z10.439
X0.974 Y82.305 Z10.445
X1.013 Y82.35 Z10.45
X1.05 Y82.396 Z10.456
X1.084 Y82.446 Z10.462
X1.114 Y82.497 Z10.468
X1.141 Y82.55 Z10.474
X1.165 Y82.604 Z10.481
X1.185 Y82.66 Z10.488
X1.202 Y82.717 Z10.495
X1.215 Y82.775 Z10.502
X1.224 Y82.834 Z10.509
X1.23 Y82.893 Z10.516
X1.232 Y82.952 Z10.523
Y83.061 Z10.536
X1.23 Y83.12 Z10.544
X1.224 Y83.18 Z10.551
X1.215 Y83.238 Z10.558
X1.202 Y83.296 Z10.565
X1.185 Y83.353 Z10.572
X1.165 Y83.409 Z10.579
X1.141 Y83.464 Z10.585
X1.114 Y83.517 Z10.592
X1.084 Y83.568 Z10.598
X1.05 Y83.617 Z10.604
X1.013 Y83.664 Z10.61
X0.974 Y83.708 Z10.615
X0.931 Y83.75 Z10.62
X0.887 Y83.79 Z10.625
X0.839 Y83.826 Z10.629
X0.79 Y83.859 Z10.633
X0.738 Y83.89 Z10.637
X0.685 Y83.917 Z10.64
X0.63 Y83.94 Z10.643
X0.574 Y83.96 Z10.646
X0.516 Y83.977 Z10.648
X0.458 Y83.99 Z10.649
X0.399 Y83.999 Z10.65
X0.339 Y84.005 Z10.651
X0.279 Y84.007
G2 X0.14 Z10.619 I0. K-0.317
G3 X0. Z10.586 I-0.14 K0.285
G1 X-18.215 Z10.582
X-21.526 Z10.566
X-25.653 Z10.521
X-30.101 Z10.441
X-34.469 Z10.333
X-39.019 Z10.189
X-43.51 Z10.015
X-48.077 Z9.807
X-52.684 Z9.566
X-56.064 Z9.369
X-59.911 Z9.124
X-63.147 Z8.901
X-66.057 Z8.686
X-69.33 Z8.431
X-72.767 Z8.144
X-75.86 Z7.871
X-78.658 Z7.611
X-82.426 Z7.243
X-86.591 Z6.809
X-90.797 Z6.343
X-94.904 Z5.861
X-140. Z0.386
G3 X-140.178 Z0.416 I-0.038 K0.315
G2 X-140.318 Z0.448 I-0.14 K-0.285
G17 G2 X-141.27 Y84.959 I0. J0.952
G1 Y85.054
G2 X-140.318 Y86.007 I0.952 J0.
G18 G3 X-140.178 Z0.416 I0. K-0.317
G2 X-140. Z0.386 I0.14 K0.285
G1 X-92.941 Z6.1
X-88.837 Z6.582
X-84.631 Z7.048
X-80.441 Z7.484
X-76.644 Z7.856
X-73.845 Z8.115
X-70.747 Z8.389
X-67.31 Z8.675
X-64.035 Z8.931
X-61.16 Z9.143
X-57.939 Z9.365
X-54.072 Z9.612
X-50.702 Z9.808
X-46.116 Z10.048
X-41.533 Z10.257
X-37.006 Z10.432
X-32.503 Z10.575
X-28.088 Z10.684
X-23.624 Z10.764
X-19.594 Z10.808
X-16.007 Z10.825
X0. Z10.829
G2 X0.14 Z10.862 I0. K0.318
G3 X0.279 Z10.894 I0.14 K-0.285
G1 X0.339 Y86.008
X0.399 Y86.014 Z10.895
X0.458 Y86.023 Z10.896
X0.516 Y86.036 Z10.898
X0.574 Y86.053 Z10.9
X0.63 Y86.073 Z10.902
X0.685 Y86.097 Z10.905
X0.738 Y86.123 Z10.908
X0.79 Y86.154 Z10.912
X0.839 Y86.187 Z10.916
X0.887 Y86.224 Z10.92
X0.931 Y86.263 Z10.925
X0.974 Y86.305 Z10.93
X1.013 Y86.349 Z10.936
X1.05 Y86.396 Z10.941
X1.084 Y86.445 Z10.947
X1.114 Y86.497 Z10.953
X1.141 Y86.549 Z10.96
X1.165 Y86.604 Z10.967
X1.185 Y86.66 Z10.973
X1.202 Y86.717 Z10.98
X1.215 Y86.775 Z10.987
X1.224 Y86.834 Z10.994
X1.23 Y86.893 Z11.002
X1.232 Y86.952 Z11.009
Y87.061 Z11.022
X1.23 Y87.12 Z11.029
X1.224 Y87.179 Z11.036
X1.215 Y87.238 Z11.044
X1.202 Y87.296 Z11.051
X1.185 Y87.353 Z11.057
X1.165 Y87.409 Z11.064
X1.141 Y87.463 Z11.071
X1.114 Y87.516 Z11.077
X1.084 Y87.568 Z11.084
X1.05 Y87.617 Z11.09
X1.013 Y87.664 Z11.095
X0.974 Y87.708 Z11.101
X0.931 Y87.75 Z11.106
X0.887 Y87.789 Z11.11
X0.839 Y87.826 Z11.115
X0.79 Y87.859 Z11.119
X0.738 Y87.889 Z11.123
X0.685 Y87.916 Z11.126
X0.63 Y87.94 Z11.129
X0.574 Y87.96 Z11.131
X0.516 Y87.977 Z11.133
X0.458 Y87.99 Z11.135
X0.399 Y87.999 Z11.136
X0.339 Y88.005 Z11.137
X0.279 Y88.006
G2 X0.14 Z11.104 I0. K-0.318
G3 X0. Z11.072 I-0.14 K0.285
G1 X-14.075 Z11.068
X-17.387 Z11.053
X-21.601 Z11.007
X-26.093 Z10.927
X-30.457 Z10.819
X-35.026 Z10.674
X-39.57 Z10.498
X-44.127 Z10.291
X-48.741 Z10.049
X-52.081 Z9.854
X-55.958 Z9.607
X-59.149 Z9.386
X-62.025 Z9.174
X-65.304 Z8.918
X-68.766 Z8.63
X-71.826 Z8.36
X-74.623 Z8.1
X-78.451 Z7.726
X-82.643 Z7.29
X-86.863 Z6.822
X-90.989 Z6.337
X-140. Z0.386
G3 X-140.178 Z0.416 I-0.038 K0.315
G2 X-140.318 Z0.448 I-0.14 K-0.285
G17 G2 X-141.27 Y88.959 I0. J0.952
G1 Y89.054
G2 X-140.318 Y90.006 I0.952 J0.
G18 G3 X-140.178 Z0.416 I0. K-0.317
G2 X-140. Z0.386 I0.14 K0.285
G1 X-89.01 Z6.577
X-84.883 Z7.062
X-80.683 Z7.528
X-76.461 Z7.968
X-72.637 Z8.342
X-69.844 Z8.601
X-66.781 Z8.872
X-63.277 Z9.164
X-60. Z9.419
X-57.122 Z9.631
X-53.934 Z9.851
X-50.077 Z10.097
X-46.718 Z10.293
X-42.14 Z10.533
X-37.561 Z10.741
X-33.035 Z10.917
X-28.533 Z11.06
X-24.125 Z11.169
X-19.723 Z11.248
X-15.455 Z11.295
X-12.143 Z11.31
X0. Z11.315
G2 X0.14 Z11.347 I0. K0.318
G3 X0.279 Z11.38 I0.14 K-0.285
G1 X0.339 Y90.008
X0.399 Y90.014 Z11.381
X0.458 Y90.023 Z11.382
X0.516 Y90.036 Z11.383
X0.574 Y90.053 Z11.385
X0.63 Y90.073 Z11.388
X0.685 Y90.096 Z11.391
X0.738 Y90.123 Z11.394
X0.79 Y90.154 Z11.398
X0.839 Y90.187 Z11.402
X0.886 Y90.223 Z11.406
X0.931 Y90.263 Z11.411
X0.974 Y90.305 Z11.416
X1.013 Y90.349 Z11.421
X1.05 Y90.396 Z11.427
X1.084 Y90.445 Z11.433
X1.114 Y90.496 Z11.439
X1.141 Y90.549 Z11.446
X1.165 Y90.604 Z11.452
X1.185 Y90.66 Z11.459
X1.202 Y90.717 Z11.466
X1.215 Y90.775 Z11.473
X1.224 Y90.833 Z11.48
X1.23 Y90.893 Z11.487
X1.232 Y90.952 Z11.494
Y91.061 Z11.508
X1.23 Y91.12 Z11.515
X1.224 Y91.179 Z11.522
X1.215 Y91.238 Z11.529
X1.202 Y91.296 Z11.536
X1.185 Y91.353 Z11.543
X1.165 Y91.409 Z11.55
X1.141 Y91.463 Z11.557
X1.114 Y91.516 Z11.563
X1.084 Y91.567 Z11.569
X1.05 Y91.617 Z11.575
X1.013 Y91.663 Z11.581
X0.974 Y91.708 Z11.586
X0.931 Y91.75 Z11.591
X0.886 Y91.789 Z11.596
X0.839 Y91.826 Z11.601
X0.79 Y91.859 Z11.605
X0.738 Y91.889 Z11.608
X0.685 Y91.916 Z11.612
X0.63 Y91.94 Z11.614
X0.574 Y91.96 Z11.617
X0.516 Y91.977 Z11.619
X0.458 Y91.99 Z11.62
X0.399 Y91.999 Z11.622
X0.339 Y92.004
X0.279 Y92.006 Z11.623
G2 X0.14 Z11.59 I0. K-0.318
G3 X0. Z11.558 I-0.14 K0.285
G1 X-10.211 Z11.553
X-13.776 Z11.535
X-17.674 Z11.492
X-22.118 Z11.412
X-26.483 Z11.304
X-31.04 Z11.159
X-35.534 Z10.985
X-40.168 Z10.774
X-44.766 Z10.533
X-48.082 Z10.34
X-51.979 Z10.091
X-55.159 Z9.871
X-57.996 Z9.662
X-61.274 Z9.407
X-64.761 Z9.116
X-67.812 Z8.847
X-70.623 Z8.586
X-74.468 Z8.21
X-78.703 Z7.769
X-82.914 Z7.301
X-87.061 Z6.814
X-140. Z0.386
G3 X-140.178 Z0.416 I-0.038 K0.315
G2 X-140.318 Z0.448 I-0.14 K-0.285
G17 G2 X-141.27 Y92.959 I0. J0.953
G1 Y93.054
G2 X-140.318 Y94.006 I0.952 J0.
G18 G3 X-140.178 Z0.416 I0. K-0.317
G2 X-140. Z0.386 I0.14 K0.285
G1 X-85.082 Z7.054
X-80.935 Z7.542
X-76.726 Z8.009
X-72.465 Z8.453
X-68.589 Z8.832
X-65.805 Z9.09
X-62.763 Z9.359
X-59.273 Z9.649
X-55.996 Z9.905
X-53.119 Z10.117
X-49.974 Z10.334
X-46.068 Z10.583
X-42.761 Z10.776
X-38.176 Z11.017
X-33.61 Z11.225
X-29.075 Z11.401
X-24.503 Z11.546
X-20.115 Z11.655
X-15.744 Z11.734
X-11.568 Z11.78
X-8.279 Z11.795
X0. Z11.801
G2 X0.14 Z11.833 I0. K0.318
G3 X0.279 Z11.865 I0.14 K-0.285
G1 X0.339 Y94.008 Z11.866
X0.399 Y94.014
X0.458 Y94.023 Z11.867
X0.516 Y94.036 Z11.869
X0.574 Y94.052 Z11.871
X0.63 Y94.073 Z11.873
X0.685 Y94.096 Z11.876
X0.738 Y94.123 Z11.88
X0.79 Y94.153 Z11.883
X0.839 Y94.187 Z11.887
X0.886 Y94.223 Z11.892
X0.931 Y94.262 Z11.896
X0.974 Y94.304 Z11.902
X1.013 Y94.349 Z11.907
X1.05 Y94.396 Z11.913
X1.083 Y94.445 Z11.919
X1.114 Y94.496 Z11.925
X1.141 Y94.549 Z11.931
X1.165 Y94.604 Z11.938
X1.185 Y94.66 Z11.945
X1.202 Y94.717 Z11.952
X1.215 Y94.775 Z11.959
X1.224 Y94.833 Z11.966
X1.23 Y94.892 Z11.973
X1.232 Y94.952 Z11.98
Y95.061 Z11.993
X1.23 Y95.12 Z12.001
X1.224 Y95.179 Z12.008
X1.215 Y95.238 Z12.015
X1.202 Y95.296 Z12.022
X1.185 Y95.353 Z12.029
X1.165 Y95.409 Z12.036
X1.141 Y95.463 Z12.042
X1.114 Y95.516 Z12.049
X1.083 Y95.567 Z12.055
X1.05 Y95.616 Z12.061
X1.013 Y95.663 Z12.067
X0.974 Y95.708 Z12.072
X0.931 Y95.75 Z12.077
X0.886 Y95.789 Z12.082
X0.839 Y95.826 Z12.086
X0.79 Y95.859 Z12.09
X0.738 Y95.889 Z12.094
X0.685 Y95.916 Z12.097
X0.63 Y95.94 Z12.1
X0.574 Y95.96 Z12.103
X0.516 Y95.976 Z12.105
X0.458 Y95.989 Z12.106
X0.399 Y95.999 Z12.107
X0.339 Y96.004 Z12.108
X0.279 Y96.006
G2 X0.139 Z12.076 I0. K-0.318
G3 X0. Z12.043 I-0.14 K0.285
G1 X-6.347 Z12.038
X-9.383 Z12.025
X-13.598 Z11.979
X-18.112 Z11.898
X-22.536 Z11.788
X-27.074 Z11.644
X-31.626 Z11.467
X-36.189 Z11.259
X-40.82 Z11.016
X-44.112 Z10.823
X-47.966 Z10.577
X-51.107 Z10.361
X-53.981 Z10.149
X-57.256 Z9.894
X-60.77 Z9.601
X-63.786 Z9.335
X-66.571 Z9.077
X-70.477 Z8.695
X-74.732 Z8.251
X-78.946 Z7.784
X-83.114 Z7.293
X-140. Z0.386
G3 X-140.178 Z0.416 I-0.038 K0.315
G2 X-140.318 Z0.448 I-0.14 K-0.285
G17 G2 X-141.27 Y96.959 I0. J0.952
G1 Y97.054
G2 X-140.318 Y98.006 I0.952 J0.
G18 G3 X-140.178 Z0.416 I0. K-0.318
G2 X-140. Z0.386 I0.14 K0.285
G1 X-81.126 Z7.534
X-76.956 Z8.025
X-72.742 Z8.493
X-68.459 Z8.94
X-64.565 Z9.32
X-61.802 Z9.576
X-58.761 Z9.845
X-55.258 Z10.136
X-51.945 Z10.395
X-49.142 Z10.601
X-46. Z10.818
X-42.144 Z11.064
X-38.831 Z11.258
X-34.157 Z11.503
X-29.575 Z11.712
X-25.078 Z11.886
X-20.575 Z12.03
X-16.131 Z12.14
X-11.728 Z12.219
X-7.972 Z12.261
X-5.244 Z12.278
X0. Z12.286
G2 X0.139 Z12.319 I-0.001 K0.317
G3 X0.279 Z12.351 I0.14 K-0.285
G1 X0.339 Y98.008
X0.398 Y98.013 Z12.352
X0.457 Y98.023 Z12.353
X0.516 Y98.036 Z12.355
X0.573 Y98.052 Z12.357
X0.63 Y98.072 Z12.359
X0.684 Y98.096 Z12.362
X0.738 Y98.123 Z12.365
X0.789 Y98.153 Z12.369
X0.839 Y98.187 Z12.373
X0.886 Y98.223 Z12.377
X0.931 Y98.262 Z12.382
X0.973 Y98.304 Z12.387
X1.013 Y98.349 Z12.393
X1.05 Y98.396 Z12.398
X1.083 Y98.445 Z12.404
X1.114 Y98.496 Z12.411
X1.141 Y98.549 Z12.417
X1.165 Y98.604 Z12.424
X1.185 Y98.659 Z12.43
X1.201 Y98.716 Z12.437
X1.215 Y98.774 Z12.444
X1.224 Y98.833 Z12.451
X1.23 Y98.892 Z12.459
X1.231 Y98.952 Z12.466
Y99.06 Z12.479
X1.23 Y99.12 Z12.486
X1.224 Y99.179 Z12.493
X1.215 Y99.238 Z12.501
X1.201 Y99.296 Z12.508
X1.185 Y99.353 Z12.515
X1.165 Y99.408 Z12.521
X1.141 Y99.463 Z12.528
X1.114 Y99.516 Z12.534
X1.083 Y99.567 Z12.541
X1.05 Y99.616 Z12.547
X1.013 Y99.663 Z12.552
X0.973 Y99.708 Z12.558
X0.931 Y99.75 Z12.563
X0.886 Y99.789 Z12.568
X0.839 Y99.825 Z12.572
X0.789 Y99.859 Z12.576
X0.738 Y99.889 Z12.58
X0.684 Y99.916 Z12.583
X0.63 Y99.94 Z12.586
X0.573 Y99.96 Z12.588
X0.516 Y99.976 Z12.59
X0.457 Y99.989 Z12.592
X0.398 Y99.999 Z12.593
X0.339 Y100.004 Z12.594
X0.279 Y100.006
X0.278
G2 X0.139 Z12.562 I0. K-0.318
G3 X0. Z12.529 I-0.14 K0.285
G1 X-5.244 Z12.512
X-9.686 Z12.463
X-14.138 Z12.383
X-18.58 Z12.272
X-23.109 Z12.128
X-27.636 Z11.952
X-32.227 Z11.743
X-36.813 Z11.502
X-40.125 Z11.308
X-44.005 Z11.061
X-47.117 Z10.845
X-49.952 Z10.637
X-53.233 Z10.381
X-56.737 Z10.09
X-59.772 Z9.822
X-62.534 Z9.566
X-66.491 Z9.179
X-70.757 Z8.734
X-74.984 Z8.265
X-79.153 Z7.774
X-140. Z0.386
G3 X-140.178 Z0.416 I-0.038 K0.315
G2 X-140.318 Z0.448 I-0.14 K-0.285
G17 G2 X-141.27 Y100.958 I0. J0.952
G1 Y101.053
G2 X-140.318 Y102.006 I0.952 J0.
G18 G3 X-140.178 Z0.416 I0. K-0.317
G2 X-140. Z0.386 I0.14 K0.285
G1 X-77.168 Z8.015
X-72.977 Z8.509
X-68.752 Z8.978
X-64.495 Z9.422
X-60.507 Z9.811
X-57.773 Z10.065
X-54.737 Z10.333
X-51.237 Z10.624
X-47.919 Z10.882
X-45.118 Z11.088
X-42.018 Z11.302
X-38.164 Z11.549
X-34.867 Z11.742
X-30.235 Z11.985
X-25.649 Z12.195
X-21.056 Z12.373
X-16.569 Z12.516
X-12.094 Z12.627
X-7.741 Z12.705
X-3.565 Z12.751
X0. Z12.767
G2 X0.138 Z12.8 I-0.001 K0.317
G3 X0.278 Z12.832 I0.14 K-0.285
G1 X0.338 Y102.008
X0.397 Y102.013 Z12.833
X0.456 Y102.023 Z12.834
X0.515 Y102.036 Z12.836
X0.572 Y102.052 Z12.838
X0.629 Y102.072 Z12.84
X0.684 Y102.096 Z12.843
X0.737 Y102.123 Z12.846
X0.788 Y102.153 Z12.849
X0.838 Y102.187 Z12.853
X0.885 Y102.223 Z12.858
X0.93 Y102.262 Z12.862
X0.972 Y102.304 Z12.867
X1.012 Y102.349 Z12.873
X1.049 Y102.396 Z12.878
X1.082 Y102.445 Z12.884
X1.113 Y102.496 Z12.89
X1.14 Y102.549 Z12.896
X1.164 Y102.604 Z12.903
X1.184 Y102.66 Z12.909
X1.201 Y102.717 Z12.916
X1.214 Y102.775 Z12.923
X1.223 Y102.833 Z12.93
X1.229 Y102.892 Z12.937
X1.231 Y102.952 Z12.944
Y103.06 Z12.956
X1.229 Y103.119 Z12.963
X1.223 Y103.178 Z12.97
X1.214 Y103.237 Z12.977
X1.201 Y103.295 Z12.984
X1.184 Y103.352 Z12.991
X1.164 Y103.408 Z12.997
X1.14 Y103.463 Z13.004
X1.113 Y103.516 Z13.01
X1.082 Y103.567 Z13.016
X1.049 Y103.616 Z13.022
X1.012 Y103.663 Z13.027
X0.972 Y103.707 Z13.033
X0.93 Y103.749 Z13.038
X0.885 Y103.789 Z13.042
X0.838 Y103.825 Z13.047
X0.788 Y103.859 Z13.051
X0.737 Y103.889 Z13.054
X0.684 Y103.916 Z13.057
X0.629 Y103.939 Z13.06
X0.572 Y103.96 Z13.062
X0.515 Y103.976 Z13.064
X0.456 Y103.989 Z13.066
X0.397 Y103.998 Z13.067
X0.338 Y104.004 Z13.068
X0.278 Y104.006
X0.277
G2 X0.138 Z13.036 I0. K-0.318
G3 X0. Z13.003 I-0.14 K0.285
G1 X-1.891 Z12.99
X-5.609 Z12.95
X-10.121 Z12.869
X-14.592 Z12.758
X-19.09 Z12.614
X-23.655 Z12.437
X-28.207 Z12.23
X-32.842 Z11.986
X-36.146 Z11.793
X-40.017 Z11.545
X-43.103 Z11.332
X-45.942 Z11.123
X-49.227 Z10.867
X-52.728 Z10.576
X-55.771 Z10.308
X-58.501 Z10.055
X-62.493 Z9.665
X-66.783 Z9.217
X-71.012 Z8.747
X-75.198 Z8.254
X-140. Z0.386
G3 X-140.178 Z0.416 I-0.038 K0.315
G2 X-140.318 Z0.448 I-0.14 K-0.285
G17 G2 X-141.27 Y104.958 I0. J0.952
G1 Y105.053
G2 X-140.318 Y106.006 I0.952 J0.
G18 G3 X-140.178 Z0.416 I0. K-0.318
G2 X-140. Z0.386 I0.14 K0.285
G1 X-73.223 Z8.494
X-69.03 Z8.988
X-64.797 Z9.459
X-60.508 Z9.906
X-56.485 Z10.299
X-53.754 Z10.552
X-50.748 Z10.817
X-47.248 Z11.109
X-43.896 Z11.37
X-41.103 Z11.575
X-37.994 Z11.79
X-34.142 Z12.036
X-30.89 Z12.226
X-26.208 Z12.472
X-21.655 Z12.68
X-17.135 Z12.856
X-12.577 Z13.001
X-8.101 Z13.112
X-3.661 Z13.192
X0. Z13.231
G2 X0.136 Z13.263 I-0.003 K0.317
G3 X0.276 Z13.295 I0.14 K-0.285
G1 X0.336 Y106.008 Z13.296
X0.395 Y106.013
X0.455 Y106.022 Z13.297
X0.513 Y106.035 Z13.299
X0.57 Y106.052 Z13.3
X0.627 Y106.072 Z13.303
X0.682 Y106.096 Z13.305
X0.735 Y106.123 Z13.308
X0.786 Y106.153 Z13.312
X0.836 Y106.187 Z13.315
X0.883 Y106.223 Z13.319
X0.928 Y106.262 Z13.324
X0.97 Y106.304 Z13.328
X1.01 Y106.349 Z13.333
X1.047 Y106.396 Z13.339
X1.08 Y106.445 Z13.344
X1.111 Y106.496 Z13.35
X1.138 Y106.549 Z13.356
X1.162 Y106.604 Z13.362
X1.182 Y106.66 Z13.368
X1.199 Y106.717 Z13.374
X1.212 Y106.775 Z13.381
X1.221 Y106.834 Z13.387
X1.227 Y106.893 Z13.394
X1.229 Y106.952 Z13.4
Y107.059 Z13.412
X1.227 Y107.118 Z13.419
X1.221 Y107.178 Z13.425
X1.212 Y107.236 Z13.432
X1.199 Y107.294 Z13.438
X1.182 Y107.351 Z13.445
X1.162 Y107.407 Z13.451
X1.138 Y107.462 Z13.457
X1.111 Y107.515 Z13.463
X1.08 Y107.566 Z13.468
X1.047 Y107.615 Z13.474
X1.01 Y107.662 Z13.479
X0.97 Y107.707 Z13.484
X0.928 Y107.749 Z13.489
X0.883 Y107.788 Z13.493
X0.836 Y107.825 Z13.497
X0.786 Y107.858 Z13.501
X0.735 Y107.889 Z13.504
X0.682 Y107.916 Z13.507
X0.627 Y107.939 Z13.51
X0.57 Y107.959 Z13.512
X0.513 Y107.976 Z13.514
X0.455 Y107.989 Z13.515
X0.395 Y107.998 Z13.516
X0.336 Y108.004 Z13.517
X0.276 Y108.006
G2 X0.136 Z13.485 I0. K-0.318
G3 X0. Z13.452 I-0.14 K0.285
G1 X-1.696 Z13.434
X-6.092 Z13.355
X-10.568 Z13.244
X-15.112 Z13.099
X-19.681 Z12.922
X-24.247 Z12.713
X-28.878 Z12.47
X-32.127 Z12.28
X-35.984 Z12.033
X-39.094 Z11.818
X-41.895 Z11.613
X-45.212 Z11.354
X-48.744 Z11.061
X-51.747 Z10.796
X-54.478 Z10.542
X-58.514 Z10.148
X-62.788 Z9.702
X-67.042 Z9.23
X-71.259 Z8.733
X-140. Z0.386
G3 X-140.178 Z0.416 I-0.038 K0.315
G2 X-140.318 Z0.448 I-0.14 K-0.285
G17 G2 X-141.27 Y108.958 I0. J0.952
G1 Y109.053
G2 X-140.318 Y110.006 I0.952 J0.
G18 G3 X-140.178 Z0.416 I0. K-0.317
G2 X-140. Z0.386 I0.14 K0.285
G1 X-69.272 Z8.974
X-65.05 Z9.472
X-60.793 Z9.945
X-56.507 Z10.392
X-52.456 Z10.787
X-49.724 Z11.04
X-46.717 Z11.306
X-43.211 Z11.597
X-39.891 Z11.856
X-37.089 Z12.062
X-34.018 Z12.274
X-30.174 Z12.52
X-26.924 Z12.71
X-22.253 Z12.956
X-17.662 Z13.166
X-13.079 Z13.343
X-8.533 Z13.488
X-4.088 Z13.598
X-1.042 Z13.653
X0. Z13.667
G2 X0.136 Z13.699 I-0.004 K0.317
G3 X0.275 Z13.732 I0.14 K-0.285
G1 X0.335 Y110.007
X0.395 Y110.013
X0.454 Y110.022 Z13.733
X0.512 Y110.035 Z13.735
X0.57 Y110.052 Z13.736
X0.626 Y110.072 Z13.739
X0.681 Y110.096 Z13.741
X0.734 Y110.123 Z13.744
X0.786 Y110.153 Z13.747
X0.835 Y110.186 Z13.75
X0.882 Y110.223 Z13.754
X0.927 Y110.262 Z13.758
X0.97 Y110.304 Z13.763
X1.009 Y110.349 Z13.767
X1.046 Y110.396 Z13.772
X1.08 Y110.445 Z13.777
X1.11 Y110.497 Z13.783
X1.137 Y110.55 Z13.788
X1.161 Y110.604 Z13.794
X1.181 Y110.66 Z13.8
X1.198 Y110.717 Z13.806
X1.211 Y110.775 Z13.812
X1.22 Y110.834 Z13.818
X1.226 Y110.893 Z13.824
X1.228 Y110.953 Z13.83
Y111.058 Z13.841
X1.226 Y111.118 Z13.847
X1.22 Y111.177 Z13.853
X1.211 Y111.236 Z13.86
X1.198 Y111.294 Z13.866
X1.181 Y111.351 Z13.872
X1.161 Y111.407 Z13.877
X1.137 Y111.461 Z13.883
X1.11 Y111.514 Z13.889
X1.08 Y111.566 Z13.894
X1.046 Y111.615 Z13.899
X1.009 Y111.662 Z13.904
X0.97 Y111.707 Z13.909
X0.927 Y111.749 Z13.913
X0.882 Y111.788 Z13.917
X0.835 Y111.825 Z13.921
X0.786 Y111.858 Z13.924
X0.734 Y111.888 Z13.927
X0.681 Y111.915 Z13.93
X0.626 Y111.939 Z13.933
X0.57 Y111.959 Z13.935
X0.512 Y111.976 Z13.937
X0.454 Y111.989 Z13.938
X0.395 Y111.998 Z13.939
X0.335 Y112.004
X0.275 Y112.005 Z13.94
G2 X0.136 Z13.907 I0. K-0.318
G3 X0. Z13.875 I-0.14 K0.285
G1 X-1.042 Z13.861
X-2.681 Z13.827
X-6.533 Z13.731
X-11.115 Z13.585
X-15.663 Z13.408
X-20.277 Z13.197
X-24.936 Z12.952
X-28.19 Z12.761
X-32.027 Z12.516
X-35.057 Z12.307
X-37.861 Z12.101
X-41.219 Z11.839
X-44.724 Z11.548
X-47.734 Z11.282
X-50.435 Z11.032
X-54.513 Z10.634
X-58.804 Z10.186
X-63.052 Z9.714
X-67.294 Z9.214
X-140. Z0.386
G3 X-140.178 Z0.416 I-0.038 K0.315
G2 X-140.318 Z0.448 I-0.14 K-0.285
G17 G2 X-141.27 Y112.958 I0. J0.952
G1 Y113.053
G2 X-140.318 Y114.005 I0.952 J0.
G18 G3 X-140.178 Z0.416 I0. K-0.317
G2 X-140. Z0.386 I0.14 K0.285
G1 X-65.292 Z9.457
X-61.047 Z9.958
X-56.826 Z10.427
X-52.517 Z10.876
X-48.426 Z11.276
X-45.696 Z11.529
X-42.717 Z11.791
X-39.219 Z12.082
X-35.861 Z12.344
X-33.057 Z12.55
X-30.027 Z12.759
X-26.191 Z13.004
X-22.931 Z13.195
X-18.286 Z13.44
X-13.647 Z13.652
X-9.089 Z13.829
X-4.542 Z13.973
X-0.934 Z14.063
X0. Z14.076
G2 X0.135 Z14.109 I-0.004 K0.317
G3 X0.275 Z14.141 I0.14 K-0.285
G1 X0.335 Y114.007
X0.394 Y114.013 Z14.142
X0.453 Y114.022 Z14.143
X0.512 Y114.035 Z14.144
X0.569 Y114.052 Z14.146
X0.626 Y114.072 Z14.148
X0.681 Y114.096 Z14.15
X0.734 Y114.123 Z14.152
X0.785 Y114.153 Z14.155
X0.835 Y114.186 Z14.159
X0.882 Y114.223 Z14.162
X0.927 Y114.262 Z14.166
X0.969 Y114.304 Z14.17
X1.009 Y114.349 Z14.174
X1.046 Y114.396 Z14.179
X1.079 Y114.445 Z14.184
X1.11 Y114.497 Z14.189
X1.137 Y114.55 Z14.194
X1.161 Y114.604 Z14.199
X1.181 Y114.66 Z14.205
X1.198 Y114.718 Z14.21
X1.211 Y114.776 Z14.216
X1.22 Y114.835 Z14.222
X1.226 Y114.894 Z14.227
X1.227 Y114.953 Z14.233
Y115.057 Z14.243
X1.226 Y115.117 Z14.249
X1.22 Y115.176 Z14.255
X1.211 Y115.235 Z14.26
X1.198 Y115.293 Z14.266
X1.181 Y115.35 Z14.272
X1.161 Y115.406 Z14.277
X1.137 Y115.461 Z14.282
X1.11 Y115.514 Z14.288
X1.079 Y115.565 Z14.292
X1.046 Y115.615 Z14.297
X1.009 Y115.662 Z14.302
X0.969 Y115.706 Z14.306
X0.927 Y115.748 Z14.31
X0.882 Y115.788 Z14.314
X0.835 Y115.824 Z14.318
X0.785 Y115.858 Z14.321
X0.734 Y115.888 Z14.324
X0.681 Y115.915 Z14.326
X0.626 Y115.939 Z14.329
X0.569 Y115.959 Z14.331
X0.512 Y115.976 Z14.332
X0.453 Y115.989 Z14.334
X0.394 Y115.998
X0.335 Y116.003 Z14.335
X0.275 Y116.005
G2 X0.135 Z14.303 I0. K-0.318
G3 X0. Z14.27 I-0.14 K0.285
G1 X-0.934 Z14.257
X-2.691 Z14.211
X-7.064 Z14.072
X-11.632 Z13.895
X-16.266 Z13.684
X-20.942 Z13.437
X-24.157 Z13.249
X-27.993 Z13.004
X-31.061 Z12.792
X-33.857 Z12.587
X-37.211 Z12.326
X-40.717 Z12.034
X-43.689 Z11.772
X-46.392 Z11.522
X-50.499 Z11.121
X-54.824 Z10.67
X-59.039 Z10.201
X-63.311 Z9.698
X-140. Z0.386
X-140.059 Y116.007 Z0.378
X-140.119 Y116.013 Z0.371
X-140.177 Y116.022 Z0.364
X-140.235 Y116.035 Z0.357
X-140.292 Y116.052 Z0.35
X-140.348 Y116.072 Z0.343
X-140.403 Y116.096 Z0.337
X-140.456 Y116.123 Z0.33
X-140.507 Y116.154 Z0.324
X-140.556 Y116.187 Z0.318
X-140.603 Y116.224 Z0.312
X-140.647 Y116.263 Z0.307
X-140.689 Y116.306 Z0.302
X-140.729 Y116.351 Z0.297
X-140.765 Y116.398 Z0.293
X-140.798 Y116.447 Z0.289
X-140.829 Y116.499 Z0.285
X-140.856 Y116.552 Z0.282
X-140.879 Y116.607 Z0.279
X-140.899 Y116.663 Z0.276
X-140.916 Y116.721 Z0.274
X-140.929 Y116.779 Z0.273
X-140.938 Y116.838 Z0.272
X-140.944 Y116.898 Z0.271
X-140.946 Y116.958
Y117.053
X-140.944 Y117.113
X-140.938 Y117.172 Z0.272
X-140.929 Y117.231 Z0.273
X-140.916 Y117.29 Z0.274
X-140.899 Y117.347 Z0.276
X-140.879 Y117.403 Z0.279
X-140.856 Y117.458 Z0.282
X-140.829 Y117.512 Z0.285
X-140.798 Y117.563 Z0.289
X-140.765 Y117.613 Z0.293
X-140.729 Y117.66 Z0.297
X-140.689 Y117.705 Z0.302
X-140.647 Y117.747 Z0.307
X-140.603 Y117.787 Z0.312
X-140.556 Y117.823 Z0.318
X-140.507 Y117.857 Z0.324
X-140.456 Y117.887 Z0.33
X-140.403 Y117.915 Z0.337
X-140.348 Y117.938 Z0.343
X-140.292 Y117.959 Z0.35
X-140.235 Y117.975 Z0.357
X-140.177 Y117.988 Z0.364
X-140.119 Y117.998 Z0.371
X-140.059 Y118.003 Z0.378
X-140. Y118.005 Z0.386
X-61.333 Z9.938
X-57.059 Z10.442
X-52.845 Z10.91
X-48.492 Z11.365
X-44.385 Z11.766
X-41.682 Z12.016
X-38.703 Z12.278
X-35.203 Z12.569
X-31.841 Z12.831
X-29.036 Z13.037
X-26.009 Z13.246
X-22.195 Z13.49
X-18.92 Z13.681
X-14.268 Z13.926
X-9.663 Z14.137
X-5.046 Z14.316
X-0.951 Z14.446
X0. Z14.459
G2 X0.135 Z14.491 I-0.004 K0.317
G3 X0.275 Z14.524 I0.14 K-0.285
G1 X0.335 Y118.007
X0.394 Y118.013
X0.454 Y118.022 Z14.525
X0.512 Y118.035 Z14.526
X0.569 Y118.052 Z14.528
X0.626 Y118.072 Z14.53
X0.681 Y118.096 Z14.532
X0.734 Y118.123 Z14.534
X0.785 Y118.153 Z14.537
X0.835 Y118.186 Z14.54
X0.882 Y118.223 Z14.543
X0.927 Y118.262 Z14.547
X0.969 Y118.304 Z14.551
X1.009 Y118.349 Z14.555
X1.046 Y118.396 Z14.559
X1.079 Y118.446 Z14.563
X1.11 Y118.497 Z14.568
X1.137 Y118.55 Z14.573
X1.161 Y118.605 Z14.578
X1.181 Y118.661 Z14.583
X1.198 Y118.718 Z14.588
X1.211 Y118.776 Z14.593
X1.22 Y118.835 Z14.598
X1.226 Y118.894 Z14.604
X1.228 Y118.954 Z14.609
Y119.056 Z14.618
X1.226 Y119.116 Z14.624
X1.22 Y119.175 Z14.629
X1.211 Y119.234 Z14.634
X1.198 Y119.292 Z14.64
X1.181 Y119.35 Z14.645
X1.161 Y119.406 Z14.65
X1.137 Y119.46 Z14.655
X1.11 Y119.514 Z14.66
X1.079 Y119.565 Z14.664
X1.046 Y119.614 Z14.669
X1.009 Y119.661 Z14.673
X0.969 Y119.706 Z14.677
X0.927 Y119.748 Z14.681
X0.882 Y119.787 Z14.684
X0.835 Y119.824 Z14.688
X0.785 Y119.857 Z14.691
X0.734 Y119.888 Z14.693
X0.681 Y119.915 Z14.696
X0.626 Y119.939 Z14.698
X0.569 Y119.959 Z14.7
X0.512 Y119.975 Z14.701
X0.454 Y119.988 Z14.702
X0.394 Y119.998 Z14.703
X0.335 Y120.003 Z14.704
X0.275 Y120.005
G2 X0.135 Z14.671 I0. K-0.318
G3 X0. Z14.639 I-0.14 K0.285
G1 X-0.951 Z14.626
X-3.145 Z14.555
X-7.667 Z14.379
X-12.271 Z14.169
X-16.958 Z13.922
X-20.205 Z13.732
X-24.001 Z13.489
X-27.024 Z13.28
X-29.826 Z13.075
X-33.186 Z12.813
X-36.693 Z12.522
X-39.673 Z12.259
X-42.373 Z12.009
X-46.481 Z11.609
X-50.847 Z11.153
X-55.049 Z10.686
X-59.346 Z10.179
X-140. Z0.386
G3 X-140.356 Z0.701 I-0.038 K0.315 F1000.
G19 G2 Y120.958 Z1.653 J0.952 K0. F5000.
G1 Y121.053
G2 Y122.005 Z0.701 J0. K-0.952
G18 G2 X-140. Z0.386 I0.318 K0. F1000.
G1 X-57.358 Z10.421 F5000.
X-53.064 Z10.927
X-48.847 Z11.396
X-44.497 Z11.85
X-40.362 Z12.253
X-37.662 Z12.503
X-34.723 Z12.762
X-31.181 Z13.057
X-27.821 Z13.318
X-25.023 Z13.523
X-22.039 Z13.729
X-18.226 Z13.973
X-14.999 Z14.163
X-10.283 Z14.411
X-5.583 Z14.626
X-0.978 Z14.802
X0. Z14.815
G2 X0.136 Z14.847 I-0.004 K0.317
G3 X0.275 Z14.88 I0.14 K-0.285
G1 X0.335 Y122.007
X0.395 Y122.013
X0.454 Y122.022 Z14.881
X0.512 Y122.035 Z14.882
X0.57 Y122.052 Z14.883
X0.626 Y122.072 Z14.885
X0.681 Y122.095 Z14.887
X0.734 Y122.122 Z14.889
X0.786 Y122.153 Z14.892
X0.835 Y122.186 Z14.895
X0.882 Y122.223 Z14.898
X0.927 Y122.262 Z14.901
X0.97 Y122.305 Z14.904
X1.009 Y122.349 Z14.908
X1.046 Y122.396 Z14.912
X1.08 Y122.446 Z14.916
X1.11 Y122.497 Z14.92
X1.137 Y122.55 Z14.925
X1.161 Y122.605 Z14.929
X1.181 Y122.661 Z14.934
X1.198 Y122.718 Z14.939
X1.211 Y122.776 Z14.944
X1.22 Y122.835 Z14.949
X1.226 Y122.895 Z14.953
X1.228 Y122.954 Z14.958
Y123.056 Z14.967
X1.226 Y123.115 Z14.972
X1.22 Y123.175 Z14.977
X1.211 Y123.234 Z14.982
X1.198 Y123.292 Z14.987
X1.181 Y123.349 Z14.991
X1.161 Y123.405 Z14.996
X1.137 Y123.46 Z15.
X1.11 Y123.513 Z15.005
X1.08 Y123.564 Z15.009
X1.046 Y123.614 Z15.013
X1.009 Y123.661 Z15.017
X0.97 Y123.706 Z15.021
X0.927 Y123.748 Z15.024
X0.882 Y123.787 Z15.028
X0.835 Y123.824 Z15.031
X0.786 Y123.857 Z15.034
X0.734 Y123.888 Z15.036
X0.681 Y123.915 Z15.038
X0.626 Y123.938 Z15.04
X0.57 Y123.959 Z15.042
X0.512 Y123.975 Z15.043
X0.454 Y123.988 Z15.044
X0.395 Y123.998 Z15.045
X0.335 Y124.003 Z15.046
X0.275 Y124.005
G2 X0.136 Z15.013 I0. K-0.318
G3 X0. Z14.981 I-0.14 K0.285
G1 X-0.978 Z14.968
X-3.591 Z14.868
X-8.276 Z14.654
X-12.969 Z14.407
X-16.211 Z14.217
X-20.005 Z13.975
X-23.028 Z13.766
X-25.829 Z13.56
X-29.193 Z13.298
X-32.697 Z13.007
X-35.673 Z12.745
X-38.341 Z12.498
X-42.478 Z12.095
X-46.841 Z11.639
X-51.052 Z11.171
X-55.366 Z10.663
X-140. Z0.386
G3 X-140.356 Z0.701 I-0.038 K0.315 F1000.
G19 G2 Y124.957 Z1.653 J0.952 K0. F5000.
G1 Y125.052
G2 Y126.005 Z0.701 J0. K-0.952
G18 G2 X-140. Z0.386 I0.318 K0. F1000.
G1 X-53.382 Z10.903 F5000.
X-49.053 Z11.414
X-44.844 Z11.882
X-40.499 Z12.335
X-36.337 Z12.741
X-33.64 Z12.991
X-30.696 Z13.25
X-27.192 Z13.541
X-23.832 Z13.803
X-21.031 Z14.008
X-18.004 Z14.217
X-14.183 Z14.462
X-10.957 Z14.651
X-6.262 Z14.898
X-2.083 Z15.089
X-1.061 Z15.13
X0. Z15.144
G2 X0.136 Z15.176 I-0.004 K0.317
G3 X0.275 Z15.209 I0.14 K-0.285
G1 X0.335 Y126.007
X0.395 Y126.012
X0.454 Y126.022 Z15.21
X0.512 Y126.035 Z15.211
X0.57 Y126.051 Z15.212
X0.626 Y126.072 Z15.214
X0.681 Y126.095 Z15.215
X0.734 Y126.122 Z15.217
X0.786 Y126.153 Z15.22
X0.835 Y126.186 Z15.222
X0.882 Y126.223 Z15.225
X0.927 Y126.262 Z15.228
X0.97 Y126.305 Z15.231
X1.009 Y126.349 Z15.235
X1.046 Y126.396 Z15.238
X1.08 Y126.446 Z15.242
X1.11 Y126.497 Z15.246
X1.137 Y126.55 Z15.25
X1.161 Y126.605 Z15.254
X1.181 Y126.661 Z15.259
X1.198 Y126.718 Z15.263
X1.211 Y126.777 Z15.267
X1.22 Y126.836 Z15.272
X1.226 Y126.895 Z15.276
X1.228 Y126.955 Z15.281
Y127.055 Z15.289
X1.226 Y127.115 Z15.293
X1.22 Y127.174 Z15.298
X1.211 Y127.233 Z15.302
X1.198 Y127.291 Z15.307
X1.181 Y127.349 Z15.311
X1.161 Y127.405 Z15.315
X1.137 Y127.459 Z15.319
X1.11 Y127.513 Z15.323
X1.08 Y127.564 Z15.327
X1.046 Y127.613 Z15.331
X1.009 Y127.66 Z15.335
X0.97 Y127.705 Z15.338
X0.927 Y127.747 Z15.341
X0.882 Y127.787 Z15.344
X0.835 Y127.823 Z15.347
X0.786 Y127.857 Z15.35
X0.734 Y127.887 Z15.352
X0.681 Y127.914 Z15.354
X0.626 Y127.938 Z15.356
X0.57 Y127.958 Z15.357
X0.512 Y127.975 Z15.359
X0.454 Y127.988 Z15.36
X0.395 Y127.997
X0.335 Y128.003 Z15.361
X0.275 Y128.005
G2 X0.136 Z15.329 I0. K-0.318
G3 X0. Z15.296 I-0.14 K0.285
G1 X-1.061 Z15.282
X-2.083 Z15.241
X-4.359 Z15.136
X-9.001 Z14.891
X-12.201 Z14.704
X-16.031 Z14.458
X-19.02 Z14.252
X-21.821 Z14.047
X-25.182 Z13.785
X-28.724 Z13.491
X-31.638 Z13.234
X-34.307 Z12.987
X-38.475 Z12.581
X-42.823 Z12.127
X-47.049 Z11.657
X-51.393 Z11.145
X-140. Z0.386
G3 X-140.356 Z0.701 I-0.038 K0.315 F1000.
G19 G2 Y128.957 Z1.653 J0.952 K0. F5000.
G1 Y129.052
G2 Y130.005 Z0.701 J0. K-0.952
G18 G2 X-140. Z0.386 I0.318 K0. F1000.
G1 X-49.406 Z11.386 F5000.
X-45.031 Z11.902
X-40.836 Z12.368
X-36.489 Z12.822
X-32.328 Z13.228
X-29.625 Z13.478
X-26.71 Z13.735
X-23.171 Z14.029
X-19.806 Z14.291
X-17.049 Z14.493
X-14.023 Z14.702
X-10.204 Z14.946
X-6.991 Z15.135
X-1.919 Z15.401
X-1.101 Z15.432
X0. Z15.446
G2 X0.136 Z15.478 I-0.004 K0.317
G3 X0.276 Z15.511 I0.14 K-0.285
G1 X0.335 Y130.007
X0.395 Y130.012
X0.454 Y130.022 Z15.512
X0.512 Y130.035 Z15.513
X0.57 Y130.051 Z15.514
X0.626 Y130.071 Z15.515
X0.681 Y130.095 Z15.517
X0.734 Y130.122 Z15.519
X0.786 Y130.153 Z15.521
X0.835 Y130.186 Z15.523
X0.883 Y130.223 Z15.526
X0.928 Y130.262 Z15.529
X0.97 Y130.305 Z15.532
X1.009 Y130.349 Z15.535
X1.046 Y130.396 Z15.538
X1.08 Y130.446 Z15.541
X1.11 Y130.497 Z15.545
X1.137 Y130.55 Z15.549
X1.161 Y130.605 Z15.552
X1.181 Y130.661 Z15.556
X1.198 Y130.719 Z15.56
X1.211 Y130.777 Z15.564
X1.221 Y130.836 Z15.568
X1.226 Y130.895 Z15.573
X1.228 Y130.955 Z15.577
Y131.054 Z15.584
X1.226 Y131.114 Z15.588
X1.221 Y131.174 Z15.592
X1.211 Y131.232 Z15.596
X1.198 Y131.291 Z15.6
X1.181 Y131.348 Z15.604
X1.161 Y131.404 Z15.608
X1.137 Y131.459 Z15.612
X1.11 Y131.512 Z15.615
X1.08 Y131.564 Z15.619
X1.046 Y131.613 Z15.622
X1.009 Y131.66 Z15.625
X0.97 Y131.705 Z15.629
X0.928 Y131.747 Z15.632
X0.883 Y131.787 Z15.634
X0.835 Y131.823 Z15.637
X0.786 Y131.857 Z15.639
X0.734 Y131.887 Z15.641
X0.681 Y131.914 Z15.643
X0.626 Y131.938 Z15.645
X0.57 Y131.958 Z15.646
X0.512 Y131.975 Z15.647
X0.454 Y131.988 Z15.648
X0.395 Y131.997 Z15.649
X0.335 Y132.003
X0.276 Y132.005
G2 X0.136 Z15.617 I0. K-0.318
G3 X0. Z15.585 I-0.14 K0.285
G1 X-1.101 Z15.571
X-2.033 Z15.534
X-5.093 Z15.372
X-8.232 Z15.187
X-12. Z14.946
X-15.027 Z14.737
X-17.785 Z14.535
X-21.148 Z14.273
X-24.685 Z13.98
X-27.633 Z13.72
X-30.302 Z13.473
X-34.464 Z13.067
X-38.816 Z12.613
X-43.034 Z12.144
X-47.412 Z11.628
X-140. Z0.386
G3 X-140.356 Z0.701 I-0.038 K0.315 F1000.
G19 G2 Y132.957 Z1.653 J0.952 K0. F5000.
G1 Y133.052
G2 Y134.005 Z0.701 J0. K-0.952
G18 G2 X-140. Z0.386 I0.318 K0. F1000.
G1 X-45.408 Z11.872 F5000.
X-41.035 Z12.387
X-36.814 Z12.856
X-32.488 Z13.308
X-28.294 Z13.717
X-25.654 Z13.961
X-22.71 Z14.22
X-19.171 Z14.514
X-15.767 Z14.779
X-12.996 Z14.982
X-10.087 Z15.183
X-7.48 Z15.351
X-4.831 Z15.514
X-1.998 Z15.674
X-0.894 Z15.718
X0. Z15.732
G2 X0.135 Z15.764 I-0.005 K0.317
G3 X0.275 Z15.796 I0.14 K-0.285
G1 X0.334 Y134.006 Z15.797
X0.394 Y134.012 Z15.799
X0.453 Y134.021 Z15.802
X0.511 Y134.033 Z15.806
X0.569 Y134.049 Z15.811
X0.625 Y134.068 Z15.818
X0.68 Y134.091 Z15.825
X0.733 Y134.116 Z15.834
X0.785 Y134.145 Z15.843
X0.834 Y134.177 Z15.854
X0.882 Y134.212 Z15.866
X0.927 Y134.249 Z15.878
X0.969 Y134.29 Z15.891
X1.008 Y134.332 Z15.906
X1.045 Y134.377 Z15.921
X1.079 Y134.424 Z15.936
X1.109 Y134.473 Z15.953
X1.136 Y134.523 Z15.969
X1.16 Y134.576 Z15.987
X1.18 Y134.629 Z16.005
X1.197 Y134.683 Z16.023
X1.21 Y134.739 Z16.041
X1.22 Y134.795 Z16.06
X1.225 Y134.851 Z16.079
X1.227 Y134.908 Z16.098
Y135.101 Z16.162
X1.225 Y135.158 Z16.181
X1.22 Y135.214 Z16.2
X1.21 Y135.27 Z16.218
X1.197 Y135.326 Z16.237
X1.18 Y135.38 Z16.255
X1.16 Y135.434 Z16.273
X1.136 Y135.486 Z16.29
X1.109 Y135.536 Z16.307
X1.079 Y135.585 Z16.323
X1.045 Y135.632 Z16.339
X1.008 Y135.677 Z16.354
X0.969 Y135.719 Z16.368
X0.927 Y135.76 Z16.382
X0.882 Y135.797 Z16.394
X0.834 Y135.832 Z16.406
X0.785 Y135.864 Z16.416
X0.733 Y135.893 Z16.426
X0.68 Y135.919 Z16.434
X0.625 Y135.941 Z16.442
X0.569 Y135.96 Z16.448
X0.511 Y135.976 Z16.454
X0.453 Y135.988 Z16.458
X0.394 Y135.997 Z16.461
X0.334 Y136.003 Z16.463
X0.275 Y136.005
X0.268
G2 X0.128 Z16.431 I0. K-0.317
G3 X0. Z16.399 I-0.14 K0.285
G1 X-0.391 Z16.384
X-8.939 Z15.549
X-16.239 Z14.832
X-20.246 Z14.504
X-23.592 Z14.209
X-26.266 Z13.962
X-30.459 Z13.553
X-34.811 Z13.099
X-39.04 Z12.629
X-43.441 Z12.111
X-140. Z0.386
G3 X-140.356 Z0.701 I-0.038 K0.315 F1000.
G19 G2 Y136.957 Z1.653 J0.952 K0. F5000.
G1 Y137.052
G2 Y138.004 Z0.701 J0. K-0.952
G18 G2 X-140. Z0.386 I0.318 K0. F1000.
G1 X-41.435 Z12.354 F5000.
X-37.034 Z12.873
X-33.024 Z13.319
X-31.413 Z13.49
X-13.654 Z15.642
X-13.653
X-2.5 Z16.996
X0. Z17.
G2 X0.139 Z17.032 I0. K0.317
G3 X0.279 Z17.065 I0.14 K-0.285
G17 G3 X1.232 Y138.957 I0. J0.952
G1 Y139.052
G3 X0.279 Y140.004 I-0.953 J0.
G18 G2 X0.14 Z17.032 I0. K-0.318
G3 X0. Z17. I-0.14 K0.285
G1 X-3.192 Z16.998
X-140. Z0.386
G3 X-140.178 Z0.416 I-0.038 K0.315
G2 X-140.318 Z0.448 I-0.14 K-0.285
G17 G2 X-141.27 Y140.957 I0. J0.952
G1 Y141.052
G2 X-140.318 Y142.004 I0.952 J0.
G18 G3 X-140.178 Z0.416 I0. K-0.317
G2 X-140. Z0.386 I0.14 K0.285
G1 X-3.192 Z16.998
X0. Z17.
G2 X0.14 Z17.032 I0. K0.317
G3 X0.279 Z17.065 I0.14 K-0.285
G17 G3 X1.232 Y142.957 I0. J0.952
G1 Y143.052
G3 X0.279 Y144.004 I-0.953 J0.
G18 G2 X0.14 Z17.032 I0. K-0.318
G3 X0. Z17. I-0.14 K0.285
G1 X-3.192 Z16.998
X-140. Z0.386
G3 X-140.178 Z0.416 I-0.038 K0.315
G2 X-140.318 Z0.448 I-0.14 K-0.285
G17 G2 X-141.27 Y144.957 I0. J0.952
G1 Y145.052
G2 X-140.318 Y146.004 I0.952 J0.
G18 G3 X-140.178 Z0.416 I0. K-0.317
G2 X-140. Z0.386 I0.14 K0.285
G1 X-3.192 Z16.998
X0. Z17.
G2 X0.14 Z17.032 I0. K0.317
G3 X0.279 Z17.065 I0.14 K-0.285
G17 G3 X1.232 Y146.957 I0. J0.952
G1 Y147.052
G3 X0.279 Y148.004 I-0.953 J0.
G18 G2 X0.14 Z17.032 I0. K-0.318
G3 X0. Z17. I-0.14 K0.285
G1 X-3.192 Z16.998
X-140. Z0.386
G3 X-140.178 Z0.416 I-0.038 K0.315
G2 X-140.318 Z0.448 I-0.14 K-0.285
G17 G2 X-141.27 Y148.957 I0. J0.953
G1 Y149.051
G2 X-140.318 Y150.004 I0.952 J0.
G18 G3 X-140.178 Z0.416 I0. K-0.317
G2 X-140. Z0.386 I0.14 K0.285
G1 X-3.192 Z16.998
X0. Z17.
G2 X0.14 Z17.032 I0. K0.317
G3 X0.279 Z17.065 I0.14 K-0.285
G17 G3 X1.232 Y150.956 I0. J0.952
G1 Y151.051
G3 X0.279 Y152.004 I-0.953 J0.
G18 G2 X0.14 Z17.032 I0. K-0.318
G3 X0. Z17. I-0.14 K0.285
G1 X-3.192 Z16.998
X-140. Z0.386
G3 X-140.178 Z0.416 I-0.038 K0.315
G2 X-140.318 Z0.448 I-0.14 K-0.285
G17 G2 X-141.27 Y152.956 I0. J0.952
G1 Y153.051
G2 X-140.318 Y154.004 I0.952 J0.
G18 G3 X-140.178 Z0.416 I0. K-0.317
G2 X-140. Z0.386 I0.14 K0.285
G1 X-3.192 Z16.998
X0. Z17.
G2 X0.14 Z17.032 I0. K0.317
G3 X0.279 Z17.065 I0.14 K-0.285
G17 G3 X1.232 Y154.956 I0. J0.952
G1 Y155.051
G3 X0.279 Y156.004 I-0.953 J0.
G18 G2 X0.14 Z17.032 I0. K-0.318
G3 X0. Z17. I-0.14 K0.285
G1 X-3.192 Z16.998
X-140. Z0.386
G3 X-140.178 Z0.416 I-0.038 K0.315
G2 X-140.318 Z0.448 I-0.14 K-0.285
G17 G2 X-141.27 Y156.956 I0. J0.952
G1 Y157.051
G2 X-140.318 Y158.004 I0.952 J0.
G18 G3 X-140.178 Z0.416 I0. K-0.317
G2 X-140. Z0.386 I0.14 K0.285
G1 X-3.192 Z16.998
X0. Z17.
G2 X0.14 Z17.032 I0. K0.317
G3 X0.279 Z17.065 I0.14 K-0.285
G17 G3 X1.232 Y158.956 I0. J0.952
G1 Y159.051
G3 X0.279 Y160.004 I-0.953 J0.
G18 G2 X0.14 Z17.032 I0. K-0.318
G3 X0. Z17. I-0.14 K0.285
G1 X-3.192 Z16.998
X-140. Z0.386
G3 X-140.178 Z0.416 I-0.038 K0.315
G2 X-140.318 Z0.448 I-0.14 K-0.285
G17 G2 X-141.27 Y160.956 I0. J0.952
G1 Y161.051
G2 X-140.318 Y162.003 I0.952 J0.
G18 G3 X-140.178 Z0.416 I0. K-0.317
G2 X-140. Z0.386 I0.14 K0.285
G1 X-3.192 Z16.998
X0. Z17.
G2 X0.14 Z17.032 I0. K0.317
G3 X0.279 Z17.065 I0.14 K-0.285
G17 G3 X1.232 Y162.956 I0. J0.952
G1 Y163.051
G3 X0.279 Y164.003 I-0.953 J0.
G18 G2 X0.14 Z17.032 I0. K-0.318
G3 X0. Z17. I-0.14 K0.285
G1 X-3.192 Z16.998
X-140. Z0.386
G3 X-140.178 Z0.416 I-0.038 K0.315
G2 X-140.318 Z0.448 I-0.14 K-0.285
G17 G2 X-141.27 Y164.956 I0. J0.952
G1 Y165.051
G2 X-140.318 Y166.003 I0.952 J0.
G18 G3 X-140.178 Z0.416 I0. K-0.317
G2 X-140. Z0.386 I0.14 K0.285
G1 X-3.192 Z16.998
X0. Z17.
G2 X0.14 Z17.032 I0. K0.317
G3 X0.279 Z17.065 I0.14 K-0.285
G17 G3 X1.232 Y166.956 I0. J0.952
G1 Y167.051
G3 X0.279 Y168.003 I-0.953 J0.
G18 G2 X0.14 Z17.032 I0. K-0.318
G3 X0. Z17. I-0.14 K0.285
G1 X-3.192 Z16.998
X-140. Z0.386
G3 X-140.178 Z0.416 I-0.038 K0.315
G2 X-140.318 Z0.448 I-0.14 K-0.285
G17 G2 X-141.27 Y168.956 I0. J0.952
G1 Y169.051
G2 X-140.318 Y170.003 I0.952 J0.
G18 G3 X-140.178 Z0.416 I0. K-0.317
G2 X-140. Z0.386 I0.14 K0.285
G1 X-3.192 Z16.998
X0. Z17.
G2 X0.14 Z17.032 I0. K0.317
G3 X0.279 Z17.065 I0.14 K-0.285
G17 G3 X1.232 Y170.956 I0. J0.952
G1 Y171.051
G3 X0.279 Y172.003 I-0.953 J0.
G18 G2 X0.14 Z17.032 I0. K-0.318
G3 X0. Z17. I-0.14 K0.285
G1 X-3.192 Z16.998
X-140. Z0.386
G3 X-140.178 Z0.416 I-0.038 K0.315
G2 X-140.318 Z0.448 I-0.14 K-0.285
G17 G2 X-141.27 Y172.956 I0. J0.952
G1 Y173.05
G2 X-140.318 Y174.003 I0.952 J0.
G18 G3 X-140.178 Z0.416 I0. K-0.317
G2 X-140. Z0.386 I0.14 K0.285
G1 X-3.192 Z16.998
X0. Z17.
G2 X0.14 Z17.032 I0. K0.317
G3 X0.279 Z17.065 I0.14 K-0.285
G17 G3 X1.232 Y174.955 I0. J0.952
G1 Y175.05
G3 X0.279 Y176.003 I-0.953 J0.
G18 G2 X0.14 Z17.032 I0. K-0.318
G3 X0. Z17. I-0.14 K0.285
G1 X-3.192 Z16.998
X-140. Z0.386
G3 X-140.178 Z0.416 I-0.038 K0.315
G2 X-140.318 Z0.448 I-0.14 K-0.285
G17 G2 X-141.27 Y176.955 I0. J0.952
G1 Y177.05
G2 X-140.318 Y178.003 I0.952 J0.
G18 G3 X-140.178 Z0.416 I0. K-0.317
G2 X-140. Z0.386 I0.14 K0.285
G1 X-3.192 Z16.998
X0. Z17.
G2 X0.14 Z17.032 I0. K0.317
G3 X0.279 Z17.065 I0.14 K-0.285
G17 G3 X1.232 Y178.955 I0. J0.952
G1 Y179.05
G3 X0.279 Y180.003 I-0.953 J0.
G18 G2 X0.14 Z17.032 I0. K-0.318
G3 X0. Z17. I-0.14 K0.285
G1 X-3.192 Z16.998
X-140. Z0.386
G3 X-140.178 Z0.416 I-0.038 K0.315
G2 X-140.318 Z0.448 I-0.14 K-0.285
G17 G2 X-141.27 Y180.955 I0. J0.952
G1 Y181.05
G2 X-140.318 Y182.003 I0.952 J0.
G18 G3 X-140.178 Z0.416 I0. K-0.317
G2 X-140. Z0.386 I0.14 K0.285
G1 X-3.192 Z16.998
X0. Z17.
G2 X0.14 Z17.032 I0. K0.317
G3 X0.279 Z17.065 I0.14 K-0.285
G17 G3 X1.232 Y182.955 I0. J0.952
G1 Y183.05
G3 X0.279 Y184.003 I-0.953 J0.
G18 G2 X0.14 Z17.032 I0. K-0.318
G3 X0. Z17. I-0.14 K0.285
G1 X-3.192 Z16.998
X-140. Z0.386
G3 X-140.178 Z0.416 I-0.038 K0.315
G2 X-140.318 Z0.448 I-0.14 K-0.285
G17 G2 X-141.27 Y184.955 I0. J0.952
G1 Y185.05
G2 X-140.318 Y186.002 I0.952 J0.
G18 G3 X-140.178 Z0.416 I0. K-0.317
G2 X-140. Z0.386 I0.14 K0.285
G1 X-3.192 Z16.998
X0. Z17.
G2 X0.14 Z17.032 I0. K0.317
G3 X0.279 Z17.065 I0.14 K-0.285
G17 G3 X1.232 Y186.955 I0. J0.952
G1 Y187.05
G3 X0.279 Y188.002 I-0.953 J0.
G18 G2 X0.14 Z17.032 I0. K-0.318
G3 X0. Z17. I-0.14 K0.285
G1 X-3.192 Z16.998
X-140. Z0.386
G3 X-140.178 Z0.416 I-0.038 K0.315
G2 X-140.318 Z0.448 I-0.14 K-0.285
G17 G2 X-141.27 Y188.955 I0. J0.952
G1 Y189.05
G2 X-140.318 Y190.002 I0.952 J0.
G18 G3 X-140.178 Z0.416 I0. K-0.317
G2 X-140. Z0.386 I0.14 K0.285
G1 X-3.192 Z16.998
X0. Z17.
G2 X0.14 Z17.032 I0. K0.317
G3 X0.279 Z17.065 I0.14 K-0.285
G17 G3 X1.232 Y190.955 I0. J0.952
G1 Y191.05
G3 X0.279 Y192.002 I-0.953 J0.
G18 G2 X0.14 Z17.032 I0. K-0.318
G3 X0. Z17. I-0.14 K0.285
G1 X-3.192 Z16.998
X-140. Z0.386
G3 X-140.178 Z0.416 I-0.038 K0.315
G2 X-140.318 Z0.448 I-0.14 K-0.285
G17 G2 X-141.27 Y192.955 I0. J0.952
G1 Y193.05
G2 X-140.318 Y194.002 I0.952 J0.
G18 G3 X-140.178 Z0.416 I0. K-0.317
G2 X-140. Z0.386 I0.14 K0.285
G1 X-3.192 Z16.998
X0. Z17.
G2 X0.14 Z17.032 I0. K0.317
G3 X0.279 Z17.065 I0.14 K-0.285
G17 G3 X1.232 Y194.955 I0. J0.952
G1 Y195.05
G3 X0.279 Y196.002 I-0.953 J0.
G18 G2 X0.14 Z17.032 I0. K-0.318
G3 X0. Z17. I-0.14 K0.285
G1 X-3.192 Z16.998
X-140. Z0.386
G3 X-140.178 Z0.416 I-0.038 K0.315
G2 X-140.318 Z0.448 I-0.14 K-0.285
G17 G2 X-141.27 Y196.955 I0. J0.952
G1 Y197.049
G2 X-140.318 Y198.002 I0.952 J0.
G18 G3 X-140.178 Z0.416 I0. K-0.317
G2 X-140. Z0.386 I0.14 K0.285
G1 X-3.192 Z16.998
X0. Z17.
G2 X0.14 Z17.032 I0. K0.317
G3 X0.279 Z17.065 I0.14 K-0.285
G17 G3 X1.232 Y198.954 I0. J0.952
G1 Y199.049
G3 X0.279 Y200.002 I-0.953 J0.
G18 G2 X0.14 Z17.032 I0. K-0.318
G3 X0. Z17. I-0.14 K0.285
G1 X-3.192 Z16.998
X-140. Z0.386
G3 X-140.178 Z0.416 I-0.038 K0.315
G2 X-140.318 Z0.448 I-0.14 K-0.285
G17 G2 X-141.27 Y200.954 I0. J0.952
G1 Y201.049
G2 X-140.318 Y202.002 I0.952 J0.
G18 G3 X-140.178 Z0.416 I0. K-0.317
G2 X-140. Z0.386 I0.14 K0.285
G1 X-3.192 Z16.998
X0. Z17.
G2 X0.14 Z17.032 I0. K0.317
G3 X0.279 Z17.065 I0.14 K-0.285
G17 G3 X1.232 Y202.954 I0. J0.953
G1 Y203.049
G3 X0.279 Y204.002 I-0.953 J0.
G18 G2 X0.14 Z17.032 I0. K-0.318
G3 X0. Z17. I-0.14 K0.285
G1 X-3.192 Z16.998
X-140. Z0.386
G3 X-140.178 Z0.416 I-0.038 K0.315
G2 X-140.318 Z0.448 I-0.14 K-0.285
G17 G2 X-141.27 Y204.954 I0. J0.952
G1 Y205.049
G2 X-140.318 Y206.002 I0.952 J0.
G18 G3 X-140.178 Z0.416 I0. K-0.317
G2 X-140. Z0.386 I0.14 K0.285
G1 X-3.192 Z16.998
X0. Z17.
G2 X0.14 Z17.032 I0. K0.317
G3 X0.279 Z17.065 I0.14 K-0.285
G17 G3 X1.232 Y206.954 I0. J0.952
G1 Y207.049
G3 X0.279 Y208.002 I-0.953 J0.
G18 G2 X0.14 Z17.032 I0. K-0.318
G3 X0. Z17. I-0.14 K0.285
G1 X-3.192 Z16.998
X-140. Z0.386
G3 X-140.178 Z0.416 I-0.038 K0.315
G2 X-140.318 Z0.448 I-0.14 K-0.285
G17 G2 X-141.27 Y208.954 I0. J0.952
G1 Y209.049
G2 X-140.318 Y210.002 I0.952 J0.
G18 G3 X-140.178 Z0.416 I0. K-0.317
G2 X-140. Z0.386 I0.14 K0.285
G1 X-3.192 Z16.998
X0. Z17.
G2 X0.14 Z17.032 I0. K0.317
G3 X0.279 Z17.065 I0.14 K-0.285
G17 G3 X1.232 Y210.954 I0. J0.952
G1 Y211.049
G3 X0.279 Y212.001 I-0.953 J0.
G18 G2 X0.14 Z17.032 I0. K-0.318
G3 X0. Z17. I-0.14 K0.285
G1 X-3.192 Z16.998
X-140. Z0.386
G3 X-140.178 Z0.416 I-0.038 K0.315
G2 X-140.318 Z0.448 I-0.14 K-0.285
G17 G2 X-141.27 Y212.954 I0. J0.952
G1 Y213.049
G2 X-140.318 Y214.001 I0.952 J0.
G18 G3 X-140.178 Z0.416 I0. K-0.317
G2 X-140. Z0.386 I0.14 K0.285
G1 X-3.192 Z16.998
X0. Z17.
G2 X0.14 Z17.032 I0. K0.317
G3 X0.279 Z17.065 I0.14 K-0.285
G17 G3 X1.232 Y214.954 I0. J0.952
G1 Y215.049
G3 X0.279 Y216.001 I-0.953 J0.
G18 G2 X0.14 Z17.032 I0. K-0.318
G3 X0. Z17. I-0.14 K0.285
G1 X-3.192 Z16.998
X-140. Z0.386
G3 X-140.178 Z0.416 I-0.038 K0.315
G2 X-140.318 Z0.448 I-0.14 K-0.285
G17 G2 X-141.27 Y216.954 I0. J0.952
G1 Y217.049
G2 X-140.318 Y218.001 I0.952 J0.
G18 G3 X-140.178 Z0.416 I0. K-0.317
G2 X-140. Z0.386 I0.14 K0.285
G1 X-3.192 Z16.998
X0. Z17.
G2 X0.14 Z17.032 I0. K0.317
G3 X0.279 Z17.065 I0.14 K-0.285
G17 G3 X1.232 Y218.954 I0. J0.952
G1 Y219.049
G3 X0.279 Y220.001 I-0.953 J0.
G18 G2 X0.14 Z17.032 I0. K-0.318
G3 X0. Z17. I-0.14 K0.285
G1 X-3.192 Z16.998
X-140. Z0.386
G3 X-140.178 Z0.416 I-0.038 K0.315
G2 X-140.318 Z0.448 I-0.14 K-0.285
G17 G2 X-141.27 Y220.954 I0. J0.952
G1 Y221.049
G2 X-140.318 Y222.001 I0.952 J0.
G18 G3 X-140.178 Z0.416 I0. K-0.317
G2 X-140. Z0.386 I0.14 K0.285
G1 X-3.192 Z16.998
X0. Z17.
G2 X0.14 Z17.032 I0. K0.317
G3 X0.279 Z17.065 I0.14 K-0.285
G17 G3 X1.232 Y222.954 I0. J0.952
G1 Y223.048
G3 X0.279 Y224.001 I-0.953 J0.
G18 G2 X0.14 Z17.032 I0. K-0.318
G3 X0. Z17. I-0.14 K0.285
G1 X-3.192 Z16.998
X-140. Z0.386
