%
(CARPET RAMP LEFT)
(T3  D=6.35 CR=0. - ZMIN=0. - FLAT END MILL)
G90 G94 G17 G91.1
G21
G53 G0 Z0.
(ROUGH)
M9
T3 M6
(ENDMILL 14IN 6.35MM CARBIDE ROUGHING)
S20602 M3
G54
M9
G0 X82.425 Y439.707
G43 Z27. H0
G0 Z21.175
G1 Z20.968 F333.33
G3 X82.415 Y439.696 Z20.83 I2.235 J-2.025 F1333.33
X82.385 Y439.662 Z20.699 I2.245 J-2.014
X82.338 Y439.607 Z20.58 I2.275 J-1.98
X82.277 Y439.531 Z20.48 I2.322 J-1.925
X82.208 Y439.438 Z20.403 I2.383 J-1.85
X82.135 Y439.331 Z20.354 I2.452 J-1.757
X82.062 Y439.214 Z20.334 I2.525 J-1.649
X87.258 Y436.149 Z20.003 I2.598 J-1.533
X82.062 Y439.214 Z19.672 I-2.598 J1.533
X87.258 Y436.149 Z19.341 I2.598 J-1.533
X82.062 Y439.214 Z19.01 I-2.598 J1.533
X87.258 Y436.149 Z18.679 I2.598 J-1.533
X82.062 Y439.214 Z18.348 I-2.598 J1.533
X87.258 Y436.149 Z18.017 I2.598 J-1.533
X82.062 Y439.214 Z17.687 I-2.598 J1.533
X87.258 Y436.149 Z17.356 I2.598 J-1.533
X82.062 Y439.214 Z17.025 I-2.598 J1.533
X87.258 Y436.149 Z16.694 I2.598 J-1.533
X82.062 Y439.214 Z16.363 I-2.598 J1.533
X87.258 Y436.149 Z16.032 I2.598 J-1.533
X82.062 Y439.214 Z15.701 I-2.598 J1.533
X87.258 Y436.149 Z15.37 I2.598 J-1.533
X82.062 Y439.214 Z15.039 I-2.598 J1.533
X87.258 Y436.149 Z14.708 I2.598 J-1.533
X82.062 Y439.214 Z14.377 I-2.598 J1.533
X87.258 Y436.149 Z14.047 I2.598 J-1.533
X84.66 Y440.698 Z13.825 I-2.598 J1.533
G1 X84.408 F5000.
G3 X83.623 Y439.913 I0. J-0.785
G1 Y55.791
G3 X85.697 I1.037 J0.
G1 Y439.913
G3 X84.912 Y440.698 I-0.785 J0.
G1 X84.66
G2 X81.844 Y441.988 I0. J3.719
G3 X78.942 Y440.908 I-1.251 J-1.079
G1 Y51.547
G3 X80.868 Y49.621 I1.926 J0.
G1 X88.452
G3 X90.378 Y51.548 I0. J1.927
G1 Y443.453
G3 X88.452 Y445.379 I-1.927 J0.
G1 X80.868
G3 X78.942 Y443.453 I0. J-1.926
G1 Y440.908
G2 X76.601 Y437.397 I-3.804 J0.
G3 X74.26 Y433.886 I1.463 J-3.511
G1 Y46.866
G3 X76.187 Y44.94 I1.926 J0.
G1 X93.133
G3 X95.06 Y46.866 I0. J1.927
G1 Y448.134
G3 X93.133 Y450.06 I-1.927 J0.
G1 X76.187 Y450.061
G3 X74.26 Y448.134 I0. J-1.926
G1 Y433.886
G2 X71.92 Y430.375 I-3.804 J0.
G3 X69.579 Y426.865 I1.463 J-3.511
G1 Y42.185
G3 X71.506 Y40.258 I1.926 J0.
G1 X97.814 Y40.259
G3 X99.741 Y42.185 I0. J1.927
G1 Y452.815
G3 X97.814 Y454.742 I-1.927 J0.
G1 X71.506
G3 X69.579 Y452.816 I0. J-1.926
G1 Y426.865
G2 X67.238 Y423.354 I-3.804 J0.
G3 X64.898 Y419.843 I1.463 J-3.511
G1 Y37.503
G3 X66.824 Y35.577 I1.926 J0.
G1 X102.496
G3 X104.422 Y37.504 I0. J1.927
G1 Y457.496
G3 X102.496 Y459.423 I-1.927 J0.
G1 X66.824
G3 X64.898 Y457.497 I0. J-1.926
G1 Y419.843
G2 X62.557 Y416.332 I-3.804 J0.
G3 X60.216 Y412.821 I1.463 J-3.511
G1 Y32.782
G3 X62.103 Y30.895 I1.886 J0.
G1 X107.177 Y30.896
G3 X109.104 Y32.823 I0. J1.927
G1 Y462.177
G3 X107.177 Y464.104 I-1.927 J0.
G1 X62.143 Y464.105
G3 X60.216 Y462.178 I0. J-1.926
G1 Y412.821
G2 X57.926 Y409.383 I-3.725 J0.
G3 X55.635 Y405.945 I1.432 J-3.436
G1 X55.758 Y32.682
G2 X55.606 Y30.533 I-15.231 J0.
G1 X55.261 Y28.114
G3 X56.84 Y26.294 I1.579 J-0.225
G1 X111.778 Y26.295
G3 X113.705 Y28.221 I0. J1.927
G1 Y466.779
G3 X111.778 Y468.705 I-1.927 J0.
G1 X57.542 Y468.706
G3 X55.615 Y466.78 I0. J-1.926
G1 X55.635 Y405.945
G2 X53.418 Y402.619 I-3.602 J-0.001
G3 X51.202 Y399.293 I1.387 J-3.326
G1 X51.235 Y29.901
G2 X50.588 Y26.695 I-19.988 J2.365
X49.545 Y23.596 I-35.69 J10.28
G3 X50.726 Y21.874 I1.181 J-0.456
G1 X116.198 Y21.875
G3 X118.125 Y23.802 I0. J1.927
G1 Y471.198
G3 X116.198 Y473.125 I-1.927 J0.
G1 X53.122 Y473.126
G3 X51.195 Y471.2 I0. J-1.926
G1 X51.202 Y399.293
G2 X49.139 Y396.197 I-3.353 J0.
G3 X47.076 Y393.102 I1.29 J-3.095
G1 X47.125 Y29.744
G2 X45.642 Y24.592 I-16.46 J1.948
X42.9 Y19.986 I-25.697 J12.181
X42.626 Y19.643 I-4.16 J3.042
G3 X42.345 Y19.307 I8.311 J-7.238
X43.095 Y17.743 I0.75 J-0.602
G1 X120.329 Y17.744
G3 X122.256 Y19.671 I0. J1.927
G1 Y475.329
G3 X120.329 Y477.256 I-1.927 J0.
G1 X48.991 Y477.257
G3 X47.064 Y475.331 I0. J-1.926
G1 X47.076 Y393.102
G2 X45.245 Y390.354 I-2.976 J0.
G3 X43.414 Y387.607 I1.145 J-2.747
G1 X43.482 Y30.175
G2 X38.366 Y19.951 I-16.731 J1.98
X28.008 Y15.112 I-12.389 J13.017
G1 X15.249 Y15.281
G3 Y14.074 I0. J-0.603
G1 X123.997 Y14.076
G3 X125.924 Y16.003 I0. J1.927
G1 Y478.998
G3 X123.997 Y480.924 I-1.927 J0.
G1 X45.323 Y480.926
G3 X43.396 Y478.999 I0. J-1.926
G1 X43.414 Y387.607
G2 X41.078 Y384.101 I-3.798 J-0.001
G3 X38.742 Y380.595 I1.461 J-3.505
G1 X38.833 Y30.725
G2 X35.064 Y23.268 I-12.089 J1.431
X27.479 Y19.763 I-9.088 J9.707
G1 X11.32 Y19.962
G3 X9.394 Y18.036 I0. J-1.926
G1 Y11.319
G3 X11.321 Y9.393 I1.927 J0.
G1 X128.679 Y9.395
G3 X130.605 Y11.321 I0. J1.927
G1 Y483.679
G3 X128.679 Y485.605 I-1.927 J0.
G1 X40.641 Y485.607
G3 X38.715 Y483.681 I0. J-1.926
G1 X38.742 Y380.595
G2 X36.407 Y377.09 I-3.797 J-0.001
G3 X34.071 Y373.585 I1.461 J-3.504
G1 X34.184 Y31.275
G2 X31.761 Y26.586 I-7.455 J0.882
X26.95 Y24.415 I-5.787 J6.408
G1 X6.638 Y24.643
G3 X4.712 Y22.717 I0. J-1.926
G1 X4.713 Y6.638
G3 X6.64 Y4.712 I1.927 J0.
G1 X133.36 Y4.714
G3 X135.286 Y6.64 I0. J1.927
G1 Y488.36
G3 X133.36 Y490.286 I-1.927 J0.
G1 X35.96 Y490.288
G3 X34.034 Y488.362 I0. J-1.926
G1 X34.071 Y373.585
G2 X31.697 Y370.022 I-3.858 J-0.001
G3 X29.322 Y366.46 I1.485 J-3.563
G1 Y32.682
G2 X29.311 Y32.495 I-1.588 J0.
G1 X29.236 Y31.86
G2 X29.124 Y31.435 I-1.577 J0.187
G1 X29.018 Y31.181
G2 X28.835 Y30.856 I-1.465 J0.612
G1 X28.556 Y30.475
G2 X28.235 Y30.148 I-1.281 J0.937
G1 X27.88 Y29.878
G2 X27.538 Y29.681 I-0.96 J1.264
G1 X27.221 Y29.547
G2 X26.981 Y29.467 I-0.618 J1.462
G1 X26.822 Y29.428
G2 X26.624 Y29.393 I-0.377 J1.542
G1 X26.387 Y29.366
G2 X26.207 Y29.356 I-0.179 J1.577
G1 X0.312 Y29.354
G2 X0.229 Y29.357 I0. J1.587
G1 X0. Y29.368
X0.002 Y0.02
X0.004 Y0.004
X0.057 Y0.
X139.982 Y0.002
X139.996 Y0.004
X139.998 Y0.02
Y494.98
X139.996 Y494.996
X139.982 Y494.998
X29.308 Y495.
X29.32 Y494.765
G2 X29.322 Y494.684 I-1.585 J-0.081
G1 Y366.46
G3 X29.338 Y366.32 Z13.841 I0.635 J0. F1000.
X29.381 Y366.193 Z13.888 I0.619 J0.14
X29.442 Y366.089 Z13.964 I0.576 J0.267
X29.506 Y366.012 Z14.064 I0.516 J0.371
X29.563 Y365.962 Z14.184 I0.451 J0.447
X29.601 Y365.934 Z14.319 I0.394 J0.498
X29.614 Y365.925 Z14.46 I0.356 J0.526
G0 Z22.
X96.83 Y40.031
Z17.793
G3 X96.841 Y40.021 Z17.655 I2.025 J2.235 F1333.33
X96.875 Y39.991 Z17.524 I2.014 J2.245
X96.93 Y39.944 Z17.405 I1.98 J2.275
X97.005 Y39.883 Z17.305 I1.925 J2.322
X97.098 Y39.814 Z17.228 I1.85 J2.383
X97.206 Y39.741 Z17.179 I1.757 J2.452
X97.323 Y39.668 Z17.159 I1.649 J2.525
X100.388 Y44.864 Z16.828 I1.533 J2.598
X97.323 Y39.668 Z16.497 I-1.533 J-2.598
X100.388 Y44.864 Z16.166 I1.533 J2.598
X97.323 Y39.668 Z15.835 I-1.533 J-2.598
X100.388 Y44.864 Z15.504 I1.533 J2.598
X97.323 Y39.668 Z15.173 I-1.533 J-2.598
X100.388 Y44.864 Z14.842 I1.533 J2.598
X97.323 Y39.668 Z14.512 I-1.533 J-2.598
X100.388 Y44.864 Z14.181 I1.533 J2.598
X97.323 Y39.668 Z13.85 I-1.533 J-2.598
X100.388 Y44.864 Z13.519 I1.533 J2.598
X97.323 Y39.668 Z13.188 I-1.533 J-2.598
X100.388 Y44.864 Z12.857 I1.533 J2.598
X97.323 Y39.668 Z12.526 I-1.533 J-2.598
X100.388 Y44.864 Z12.195 I1.533 J2.598
X97.323 Y39.668 Z11.864 I-1.533 J-2.598
X100.388 Y44.864 Z11.533 I1.533 J2.598
X97.323 Y39.668 Z11.202 I-1.533 J-2.598
X100.388 Y44.864 Z10.872 I1.533 J2.598
X95.839 Y42.266 Z10.65 I-1.533 J-2.598
G1 Y41.791 F5000.
G3 X97.258 Y40.371 I1.419 J0.
G1 X98.209
G3 X99.628 Y41.791 I0. J1.419
G1 Y452.716
G3 X95.839 I-1.895 J0.
G1 Y42.266
G2 X93.943 Y39.199 I-3.428 J0.
G3 X94.771 Y35.69 I0.828 J-1.657
G1 X102.383
G3 X104.31 Y37.617 I0. J1.927
G1 Y457.384
G3 X102.383 Y459.31 I-1.927 J0.
G1 X93.084 Y459.311
G3 X91.158 Y457.384 I0. J-1.926
G1 Y37.616
G3 X93.084 Y35.69 I1.926 J0.
G1 X94.771
G2 X98.282 Y33.349 I0. J-3.804
G3 X101.793 Y31.009 I3.511 J1.463
G1 X107.064
G3 X108.991 Y32.935 I0. J1.927
G1 Y462.065
G3 X107.064 Y463.991 I-1.927 J0.
G1 X88.403 Y463.992
G3 X86.476 Y462.066 I0. J-1.926
G1 Y32.935
G3 X88.403 Y31.009 I1.926 J0.
G1 X101.793
G2 X105.304 Y28.668 I0. J-3.804
G3 X108.815 Y26.328 I3.511 J1.463
G1 X111.746
G3 X113.672 Y28.254 I0. J1.927
G1 Y466.746
G3 X111.746 Y468.673 I-1.927 J0.
G1 X83.721
G3 X81.795 Y466.747 I0. J-1.926
G1 Y28.254
G3 X83.721 Y26.327 I1.926 J0.
G1 X108.815 Y26.328
G2 X112.325 Y23.988 I0. J-3.803
G3 X115.835 Y21.648 I3.51 J1.463
G1 X116.426
G3 X118.352 Y23.574 I0. J1.927
G1 Y471.426
G3 X116.426 Y473.353 I-1.927 J0.
G1 X79.041 Y473.354
G3 X77.115 Y471.427 I0. J-1.926
G1 X77.164 Y25.066
G2 X77.126 Y24.275 I-8.218 J0.
G3 X77.061 Y23.486 I27.821 J-2.69
X78.779 Y21.647 I1.718 J-0.117
G1 X115.835 Y21.648
G2 X119.221 Y19.913 I0. J-4.17
G3 X122.841 Y21.08 I1.622 J1.167
G1 Y475.915
G3 X120.915 Y477.841 I-1.927 J0.
G1 X74.552 Y477.843
G3 X72.626 Y475.916 I0. J-1.926
G1 X72.821 Y25.066
G2 X72.473 Y21.937 I-14.212 J0.
X71.661 Y18.896 I-39.465 J8.907
G3 X72.942 Y17.158 I1.282 J-0.396
G1 X120.915 Y17.159
G3 X122.841 Y19.085 I0. J1.927
G1 Y21.08
G2 X124.927 Y24.209 I3.39 J0.
G3 X127.014 Y27.338 I-1.304 J3.129
G1 Y480.087
G3 X125.087 Y482.014 I-1.927 J0.
G1 X70.38 Y482.015
G3 X68.454 Y480.089 I0. J-1.926
G1 X68.725 Y25.066
G2 X67.586 Y19.418 I-14.571 J0.
X64.545 Y14.523 I-16.908 J7.11
G3 X65.248 Y12.985 I0.702 J-0.608
G1 X125.087 Y12.986
G3 X127.014 Y14.913 I0. J1.927
G1 Y27.338
G2 X128.809 Y30.032 I2.918 J0.
G3 X130.605 Y32.726 I-1.122 J2.694
G1 Y483.679
G3 X128.679 Y485.605 I-1.927 J0.
G1 X66.788 Y485.607
G3 X64.862 Y483.68 I0. J-1.926
G1 X65.133 Y25.066
G2 X61.904 Y16.571 I-12.789 J0.
X53.872 Y12.319 I-9.709 J8.627
G1 X11.154 Y12.492
G3 Y9.393 I0. J-1.55
G1 X128.679 Y9.395
G3 X130.605 Y11.321 I0. J1.927
G1 Y32.726
G2 X132.946 Y36.237 I3.804 J0.
G3 X135.286 Y39.748 I-1.463 J3.511
G1 Y488.36
G3 X133.36 Y490.286 I-1.927 J0.
G1 X62.107 Y490.288
G3 X60.181 Y488.362 I0. J-1.926
G1 X60.452 Y25.066
G2 X58.387 Y19.66 I-8.109 J0.
X53.267 Y16.961 I-6.191 J5.539
G1 X6.639 Y17.173
G3 X4.712 Y15.246 I0. J-1.927
G1 X4.713 Y6.638
G3 X6.64 Y4.712 I1.927 J0.
G1 X133.36 Y4.714
G3 X135.286 Y6.64 I0. J1.927
G1 Y39.748
G2 X137.642 Y43.281 I3.828 J0.
G3 X139.998 Y46.815 I-1.472 J3.534
G1 Y494.98
X139.996 Y494.996
X139.982 Y494.998
X55.455 Y495.
X55.467 Y494.765
G2 X55.469 Y494.684 I-1.585 J-0.081
G1 Y25.066
G2 X55.437 Y24.749 I-1.587 J0.
G1 X55.308 Y24.115
G2 X55.111 Y23.611 I-1.556 J0.317
G1 X54.887 Y23.24
G2 X54.635 Y22.922 I-1.359 J0.821
G1 X54.364 Y22.659
G2 X54.046 Y22.419 I-1.106 J1.138
G1 X53.683 Y22.212
G2 X53.339 Y22.065 I-0.789 J1.378
G1 X53.022 Y21.973
G2 X52.783 Y21.923 I-0.445 J1.524
G1 X52.624 Y21.902
G2 X52.42 Y21.889 I-0.205 J1.574
G1 X0.312 Y21.884
G2 X0.229 Y21.886 I0. J1.587
G1 X0. Y21.898
X0.002 Y0.02
X0.004 Y0.004
X0.057 Y0.
X139.982 Y0.002
X139.996 Y0.004
X139.998 Y0.02
Y46.815
G3 X139.982 Y46.955 Z10.666 I-0.635 J0. F1000.
X139.939 Y47.082 Z10.713 I-0.619 J-0.14
X139.878 Y47.186 Z10.789 I-0.576 J-0.267
X139.814 Y47.262 Z10.889 I-0.516 J-0.371
X139.757 Y47.313 Z11.009 I-0.451 J-0.447
X139.719 Y47.341 Z11.144 I-0.394 J-0.498
X139.706 Y47.349 Z11.285 I-0.356 J-0.526
G0 Z22.
X108.946 Y26.957
Z21.175
G1 Z14.618 F333.33
G3 X108.957 Y26.947 Z14.48 I2.025 J2.235 F1333.33
X108.991 Y26.917 Z14.349 I2.014 J2.245
X109.046 Y26.871 Z14.23 I1.98 J2.275
X109.121 Y26.81 Z14.13 I1.925 J2.322
X109.214 Y26.741 Z14.053 I1.85 J2.383
X109.322 Y26.667 Z14.004 I1.757 J2.452
X109.438 Y26.595 Z13.984 I1.649 J2.525
X112.504 Y31.791 Z13.653 I1.533 J2.598
X109.438 Y26.595 Z13.322 I-1.533 J-2.598
X112.504 Y31.791 Z12.991 I1.533 J2.598
X109.438 Y26.595 Z12.66 I-1.533 J-2.598
X112.504 Y31.791 Z12.329 I1.533 J2.598
X109.438 Y26.595 Z11.998 I-1.533 J-2.598
X112.504 Y31.791 Z11.667 I1.533 J2.598
X109.438 Y26.595 Z11.337 I-1.533 J-2.598
X112.504 Y31.791 Z11.006 I1.533 J2.598
X109.438 Y26.595 Z10.675 I-1.533 J-2.598
X112.504 Y31.791 Z10.344 I1.533 J2.598
X109.438 Y26.595 Z10.013 I-1.533 J-2.598
X112.504 Y31.791 Z9.682 I1.533 J2.598
X109.438 Y26.595 Z9.351 I-1.533 J-2.598
X112.504 Y31.791 Z9.02 I1.533 J2.598
X109.438 Y26.595 Z8.689 I-1.533 J-2.598
X112.504 Y31.791 Z8.358 I1.533 J2.598
X109.438 Y26.595 Z8.027 I-1.533 J-2.598
X112.504 Y31.791 Z7.697 I1.533 J2.598
X107.955 Y29.193 Z7.475 I-1.533 J-2.598
G1 Y28.267 F5000.
G3 X109.881 Y26.34 I1.926 J0.
G1 X111.733
G3 X113.659 Y28.267 I0. J1.927
G1 Y466.734
G3 X111.733 Y468.66 I-1.927 J0.
G1 X109.881
G3 X107.955 Y466.734 I0. J-1.926
G1 Y29.193
G2 X105.967 Y25.603 I-4.235 J0.
G3 X107.1 Y21.659 I1.133 J-1.809
G1 X116.414
G3 X118.341 Y23.586 I0. J1.927
G1 Y471.415
G3 X116.414 Y473.341 I-1.927 J0.
G1 X105.2 Y473.342
G3 X103.273 Y471.415 I0. J-1.926
G1 Y23.585
G3 X105.2 Y21.659 I1.926 J0.
G1 X107.1
G2 X110.611 Y19.318 I0. J-3.804
G3 X114.121 Y16.978 I3.511 J1.463
G1 X121.095
G3 X123.022 Y18.904 I0. J1.927
G1 Y476.096
G3 X121.095 Y478.022 I-1.927 J0.
G1 X100.519 Y478.023
G3 X98.592 Y476.097 I0. J-1.926
G1 Y18.896
G3 X100.511 Y16.978 I1.919 J0.
G1 X114.121
G2 X117.586 Y14.668 I0. J-3.753
G3 X121.05 Y12.359 I3.464 J1.443
G1 X125.714
G3 X127.641 Y14.286 I0. J1.927
G1 Y480.715
G3 X125.714 Y482.641 I-1.927 J0.
G1 X95.9 Y482.642
G3 X93.973 Y480.716 I0. J-1.926
G1 X94.068 Y17.319
G2 X93.908 Y15.699 I-9.151 J0.086
X93.561 Y14.109 I-29.331 J5.564
G3 X94.932 Y12.359 I1.371 J-0.338
G1 X121.05
G2 X124.237 Y10.234 I0. J-3.453
G3 X127.424 Y8.11 I3.187 J1.328
G1 X129.964
G3 X131.89 Y10.036 I0. J1.927
G1 Y484.964
G3 X129.964 Y486.891 I-1.927 J0.
G1 X91.65 Y486.892
G3 X89.724 Y484.966 I0. J-1.926
G1 X89.986 Y17.357
G2 X88.95 Y13.129 I-9.514 J0.089
X86.405 Y9.599 I-12.655 J6.443
G3 X87.028 Y8.109 I0.623 J-0.615
G1 X127.424 Y8.11
G2 X129.972 Y6.411 I0. J-2.76
G3 X132.519 Y4.713 I2.547 J1.061
G1 X133.36
G3 X135.287 Y6.64 I0. J1.927
G1 Y488.36
G3 X133.36 Y490.287 I-1.927 J0.
G1 X88.254 Y490.288
G3 X86.327 Y488.362 I0. J-1.926
G1 X86.593 Y17.389
G2 X84.457 Y12.07 I-7.874 J0.074
X79.343 Y9.482 I-6.125 J5.756
G1 X6.642 Y9.702
G3 X4.715 Y7.776 I0. J-1.927
G1 Y6.638
G3 X6.641 Y4.711 I1.926 J0.
G1 X132.519 Y4.713
G2 X136.052 Y2.358 I0. J-3.828
G3 X139.586 Y0.002 I3.533 J1.472
G1 X139.982
X139.996 Y0.004
X139.998 Y0.02
Y494.98
X139.996 Y494.996
X139.982 Y494.998
X81.602 Y495.
X81.614 Y494.765
G2 X81.616 Y494.684 I-1.585 J-0.081
G1 Y18.085
G2 Y18.07 I-1.587 J0.
G1 X81.61 Y17.436
G2 X81.541 Y16.986 I-1.587 J0.015
G1 X81.346 Y16.351
G2 X81.07 Y15.826 I-1.518 J0.465
G1 X80.744 Y15.418
G2 X80.409 Y15.104 I-1.241 J0.99
G1 X80.083 Y14.878
G2 X79.762 Y14.706 I-0.906 J1.304
G1 X79.455 Y14.584
G2 X79.219 Y14.511 I-0.585 J1.476
G1 X79.061 Y14.475
G2 X78.902 Y14.448 I-0.35 J1.549
G1 X78.744 Y14.429
G2 X78.553 Y14.417 I-0.191 J1.576
G1 X0.312 Y14.413
G2 X0.229 Y14.415 I0. J1.588
G1 X0.005 Y14.427
X0.002 Y0.02
X0.004 Y0.004
X0.057 Y0.
X139.586 Y0.002
G3 X139.782 Y0.57 I0. J0.318
G1 X124.332 Y12.683
G2 X124.622 Y13.236 I0.196 J0.25
G3 X126.394 Y19.002 Z7.144 I0.886 J2.883 F1333.33
X124.622 Y13.236 Z6.813 I-0.886 J-2.883
X126.394 Y19.002 Z6.482 I0.886 J2.883
X124.622 Y13.236 Z6.151 I-0.886 J-2.883
X126.394 Y19.002 Z5.82 I0.886 J2.883
X124.622 Y13.236 Z5.49 I-0.886 J-2.883
X126.394 Y19.002 Z5.159 I0.886 J2.883
X124.622 Y13.236 Z4.828 I-0.886 J-2.883
X126.394 Y19.002 Z4.497 I0.886 J2.883
X122.492 Y16.119 Z4.3 I-0.886 J-2.883
G1 Y15.787 F5000.
G3 X123.549 Y14.73 I1.057 J0.
G1 X124.213
G3 X125.269 Y15.787 I0. J1.057
G1 Y479.213
G3 X124.213 Y480.27 I-1.057 J0.
G1 X123.549
G3 X122.492 Y479.213 I0. J-1.057
G1 Y16.119
G2 X120.992 Y14.38 I-1.759 J0.
G3 X120.54 Y12.127 I0.18 J-1.207
X121.537 Y11.849 I0.997 J1.648
G1 X126.224
G3 X128.15 Y13.776 I0. J1.927
G1 Y481.225
G3 X126.224 Y483.151 I-1.927 J0.
G1 X121.537
G3 X119.611 Y481.225 I0. J-1.926
G1 Y13.776
G3 X120.54 Y12.127 I1.926 J0.
G2 X123.047 Y9.259 I-3.247 J-5.368
G3 X126.233 Y7.169 I3.186 J1.384
G1 X130.904
G3 X132.831 Y9.096 I0. J1.927
G1 Y485.904
G3 X130.904 Y487.831 I-1.927 J0.
G1 X116.857 Y487.832
G3 X114.931 Y485.906 I0. J-1.926
G1 X114.916 Y9.486
G2 X114.891 Y9.204 I-2.984 J0.119
G3 X114.858 Y8.924 I9.271 J-1.254
X116.439 Y7.169 I1.581 J-0.165
G1 X126.233
G2 X129.435 Y5.035 I0. J-3.469
G3 X132.637 Y2.9 I3.202 J1.334
G1 X135.173
G3 X137.1 Y4.827 I0. J1.927
G1 Y490.173
G3 X135.173 Y492.1 I-1.927 J0.
G1 X112.588 Y492.101
G3 X110.661 Y490.175 I0. J-1.926
G1 X110.904 Y9.646
G2 X109.178 Y5.722 I-5.854 J0.234
X105.337 Y3.821 I-4.767 J4.8
G1 X4.045 Y4.044
G3 Y2.898 I0. J-0.573
G1 X132.637 Y2.9
G2 X134.811 Y1.451 I0. J-2.355
G3 X136.984 Y0.002 I2.174 J0.906
G1 X139.982
X139.996 Y0.004
X139.998 Y0.02
Y494.98
X139.996 Y494.996
X139.982 Y494.998
X107.749 Y495.
X107.761 Y494.765
G2 X107.763 Y494.684 I-1.585 J-0.081
G1 Y10.47
G2 X107.762 Y10.407 I-1.588 J0.
G1 X107.737 Y9.772
G2 X107.695 Y9.47 I-1.586 J0.063
G1 X107.656 Y9.304
G2 X107.54 Y8.978 I-1.545 J0.366
G1 X107.313 Y8.509
G2 X106.995 Y8.066 I-1.429 J0.692
G1 X106.588 Y7.668
G2 X106.232 Y7.406 I-1.111 J1.134
G1 X105.956 Y7.256
G2 X105.677 Y7.139 I-0.755 J1.397
G1 X105.4 Y7.052
G2 X105.141 Y6.993 I-0.476 J1.514
G1 X104.903 Y6.961
G2 X104.686 Y6.946 I-0.217 J1.573
G1 X0.312 Y6.943
G2 X0.224 Y6.945 I0. J1.587
G1 X0.001 Y6.957
X0.002 Y0.02
X0.004 Y0.004
X0.057 Y0.
X136.984 Y0.002
G3 X137.301 Y0.332 I0. J0.318
G1 X137.202 Y2.94
G2 X137.219 Y3.057 I0.317 J0.012
G1 X138.075 Y5.521
G3 X137.868 Y5.929 I-0.3 J0.104
X136.095 Y0.163 Z3.969 I-0.886 J-2.883 F1333.33
X137.868 Y5.929 Z3.638 I0.886 J2.883
X136.095 Y0.163 Z3.307 I-0.886 J-2.883
X137.868 Y5.929 Z2.976 I0.886 J2.883
X136.095 Y0.163 Z2.645 I-0.886 J-2.883
X137.868 Y5.929 Z2.315 I0.886 J2.883
X136.095 Y0.163 Z1.984 I-0.886 J-2.883
X137.868 Y5.929 Z1.653 I0.886 J2.883
X136.095 Y0.163 Z1.322 I-0.886 J-2.883
X139.998 Y3.046 Z1.125 I0.886 J2.883
G1 Y494.98 F5000.
X139.996 Y494.996
X139.982 Y494.998
X133.896
X133.908 Y494.765
G2 X133.91 Y494.684 I-1.585 J-0.081
G1 Y2.854
G2 X133.904 Y2.709 I-1.587 J0.
G1 X133.845 Y2.074
G2 X133.718 Y1.583 I-1.581 J0.146
G1 X133.54 Y1.176
G2 X133.357 Y0.861 I-1.454 J0.637
G1 X133.186 Y0.633
G2 X132.88 Y0.325 I-1.271 J0.952
G1 X132.459 Y0.002
X139.982
X139.996 Y0.004
X139.998 Y0.02
Y3.046
G3 X139.982 Y3.186 Z1.141 I-0.635 J0. F1000.
X139.939 Y3.313 Z1.188 I-0.619 J-0.14
X139.878 Y3.417 Z1.264 I-0.576 J-0.267
X139.814 Y3.493 Z1.364 I-0.516 J-0.371
X139.757 Y3.544 Z1.484 I-0.451 J-0.447
X139.719 Y3.572 Z1.619 I-0.394 J-0.498
X139.706 Y3.58 Z1.76 I-0.356 J-0.526
G0 Z27.
(PARALLEL1)
M9
G0 Z32.
X139.534 Y0.005
Z2.437
G1 Z1.132 F1000.
G18 G3 X138.832 Z0.5 I-0.635 K0.
G1 X135.774 Z0.82 F5000.
X133.171 Z1.066
X131.171 Z1.231
X129.828 Z1.319
X129.031 Z1.35
X0. Z1.352
G3 X-0.14 Z1.384 I0. K0.317
G2 X-0.279 Z1.416 I-0.14 K-0.285
G1 X-0.324 Y0.007 Z1.417
X-0.369 Y0.012 Z1.419
X-0.413 Y0.02 Z1.423
X-0.456 Y0.032 Z1.428
X-0.498 Y0.047 Z1.434
X-0.538 Y0.065 Z1.442
X-0.577 Y0.086 Z1.451
X-0.613 Y0.11 Z1.461
X-0.647 Y0.137 Z1.472
X-0.679 Y0.166 Z1.485
X-0.708 Y0.198 Z1.498
X-0.734 Y0.232 Z1.513
X-0.757 Y0.267 Z1.528
X-0.777 Y0.304 Z1.543
X-0.793 Y0.343 Z1.56
X-0.806 Y0.382 Z1.577
X-0.815 Y0.423 Z1.594
X-0.821 Y0.464 Z1.611
X-0.823 Y0.505 Z1.629
X-0.821 Y0.546 Z1.646
X-0.815 Y0.587 Z1.664
X-0.806 Y0.628 Z1.681
X-0.793 Y0.667 Z1.698
X-0.777 Y0.706 Z1.714
X-0.757 Y0.743 Z1.73
X-0.734 Y0.778 Z1.745
X-0.708 Y0.812 Z1.759
X-0.679 Y0.844 Z1.773
X-0.647 Y0.873 Z1.785
X-0.613 Y0.9 Z1.796
X-0.577 Y0.924 Z1.807
X-0.538 Y0.945 Z1.816
X-0.498 Y0.963 Z1.823
X-0.456 Y0.978 Z1.83
X-0.413 Y0.99 Z1.835
X-0.369 Y0.998 Z1.838
X-0.324 Y1.003 Z1.841
X-0.279 Y1.005
G3 X-0.14 Z1.809 I0. K-0.317
G2 X0. Z1.776 I0.14 K0.285
G1 X92.561
X125.665 Z1.772
X126.522 Z1.733
X127.969 Z1.634
X130.071 Z1.455
X132.779 Z1.194
X135.884 Z0.865
X139.052 Z0.5
G2 X139.228 Z0.53 I0.036 K0.315
G3 X139.368 Z0.563 I0.14 K-0.285
G1 X139.375
G17 G3 Y2.005 I0. J0.5
G18 G2 X139.235 Z0.53 I0. K-0.318
G3 X139.057 Z0.5 I-0.14 K0.285
G1 X134.728 Z1.023
X131.539 Z1.382
X128.519 Z1.695
X125.951 Z1.936
X124.028 Z2.092
X122.739 Z2.174
X122.012 Z2.2
X0. Z2.201
G3 X-0.14 Z2.234 I0. K0.318
G2 X-0.279 Z2.266 I-0.14 K-0.285
G1 X-0.324 Y2.007 Z2.267
X-0.369 Y2.012 Z2.269
X-0.413 Y2.02 Z2.273
X-0.456 Y2.032 Z2.278
X-0.498 Y2.047 Z2.284
X-0.538 Y2.065 Z2.292
X-0.577 Y2.086 Z2.301
X-0.613 Y2.11 Z2.311
X-0.647 Y2.137 Z2.322
X-0.679 Y2.166 Z2.335
X-0.708 Y2.198 Z2.348
X-0.734 Y2.231 Z2.363
X-0.757 Y2.267 Z2.378
X-0.777 Y2.304 Z2.393
X-0.793 Y2.343 Z2.41
X-0.806 Y2.382 Z2.427
X-0.815 Y2.423 Z2.444
X-0.821 Y2.464 Z2.461
X-0.823 Y2.505 Z2.479
X-0.821 Y2.546 Z2.496
X-0.815 Y2.587 Z2.514
X-0.806 Y2.628 Z2.531
X-0.793 Y2.667 Z2.548
X-0.777 Y2.706 Z2.564
X-0.757 Y2.743 Z2.58
X-0.734 Y2.778 Z2.595
X-0.708 Y2.812 Z2.609
X-0.679 Y2.844 Z2.623
X-0.647 Y2.873 Z2.635
X-0.613 Y2.9 Z2.646
X-0.577 Y2.924 Z2.657
X-0.538 Y2.945 Z2.666
X-0.498 Y2.963 Z2.673
X-0.456 Y2.978 Z2.68
X-0.413 Y2.99 Z2.685
X-0.369 Y2.998 Z2.688
X-0.324 Y3.003 Z2.691
X-0.279 Y3.005
G3 X-0.14 Z2.659 I0. K-0.317
G2 X0. Z2.626 I0.14 K0.285
G1 X118.519 Z2.625
X119.296 Z2.596
X120.608 Z2.511
X122.569 Z2.35
X125.153 Z2.107
X128.189 Z1.791
X131.379 Z1.43
X139.057 Z0.5
G2 X139.235 Z0.53 I0.038 K0.315
G3 X139.374 Z0.563 I0.14 K-0.285
G17 G3 Y4.005 I0. J0.5
G18 G2 X139.235 Z0.53 I0. K-0.318
G3 X139.057 Z0.5 I-0.14 K0.285
G1 X127.917 Z1.85
X124.73 Z2.211
X121.683 Z2.529
X119.085 Z2.774
X117.128 Z2.934
X115.796 Z3.021
X115.012 Z3.05
X0. Z3.051
G3 X-0.14 Z3.084 I0. K0.317
G2 X-0.279 Z3.116 I-0.14 K-0.285
G1 X-0.324 Y4.007 Z3.117
X-0.369 Y4.012 Z3.119
X-0.413 Y4.02 Z3.123
X-0.456 Y4.032 Z3.128
X-0.498 Y4.047 Z3.134
X-0.538 Y4.065 Z3.142
X-0.577 Y4.086 Z3.151
X-0.613 Y4.11 Z3.161
X-0.647 Y4.137 Z3.172
X-0.679 Y4.166 Z3.185
X-0.708 Y4.198 Z3.198
X-0.734 Y4.231 Z3.213
X-0.757 Y4.267 Z3.228
X-0.777 Y4.304 Z3.243
X-0.793 Y4.343 Z3.26
X-0.806 Y4.382 Z3.277
X-0.815 Y4.423 Z3.294
X-0.821 Y4.464 Z3.311
X-0.823 Y4.505 Z3.329
X-0.821 Y4.546 Z3.346
X-0.815 Y4.587 Z3.364
X-0.806 Y4.628 Z3.381
X-0.793 Y4.667 Z3.398
X-0.777 Y4.706 Z3.414
X-0.757 Y4.743 Z3.43
X-0.734 Y4.778 Z3.445
X-0.708 Y4.812 Z3.459
X-0.679 Y4.844 Z3.473
X-0.647 Y4.873 Z3.485
X-0.613 Y4.899 Z3.496
X-0.577 Y4.923 Z3.507
X-0.538 Y4.945 Z3.516
X-0.498 Y4.963 Z3.523
X-0.456 Y4.978 Z3.53
X-0.413 Y4.99 Z3.535
X-0.369 Y4.998 Z3.538
X-0.324 Y5.003 Z3.541
X-0.279 Y5.005
G3 X-0.14 Z3.509 I0. K-0.318
G2 X0. Z3.476 I0.14 K0.285
G1 X111.519 Z3.475
X112.324 Z3.444
X113.648 Z3.358
X115.619 Z3.196
X118.212 Z2.951
X121.257 Z2.633
X124.442 Z2.272
X139.057 Z0.5
G2 X139.235 Z0.53 I0.038 K0.315
G3 X139.374 Z0.563 I0.14 K-0.285
G17 G3 Y6.005 I0. J0.5
G18 G2 X139.235 Z0.53 I0. K-0.318
G3 X139.057 Z0.5 I-0.14 K0.285
G1 X120.955 Z2.696
X117.77 Z3.057
X114.727 Z3.374
X112.119 Z3.621
X110.148 Z3.783
X108.823 Z3.869
X108.082 Z3.899
X0. Z3.901
G3 X-0.14 Z3.934 I0. K0.317
G2 X-0.279 Z3.966 I-0.14 K-0.285
G1 X-0.324 Y6.007 Z3.967
X-0.369 Y6.012 Z3.969
X-0.413 Y6.02 Z3.973
X-0.456 Y6.032 Z3.978
X-0.498 Y6.047 Z3.984
X-0.538 Y6.065 Z3.992
X-0.577 Y6.086 Z4.001
X-0.613 Y6.11 Z4.011
X-0.647 Y6.137 Z4.022
X-0.679 Y6.166 Z4.035
X-0.708 Y6.198 Z4.048
X-0.734 Y6.231 Z4.063
X-0.757 Y6.267 Z4.078
X-0.777 Y6.304 Z4.093
X-0.793 Y6.343 Z4.11
X-0.806 Y6.382 Z4.127
X-0.815 Y6.423 Z4.144
X-0.821 Y6.464 Z4.161
X-0.823 Y6.505 Z4.179
X-0.821 Y6.546 Z4.196
X-0.815 Y6.587 Z4.214
X-0.806 Y6.628 Z4.231
X-0.793 Y6.667 Z4.248
X-0.777 Y6.706 Z4.264
X-0.757 Y6.743 Z4.28
X-0.734 Y6.778 Z4.295
X-0.708 Y6.812 Z4.309
X-0.679 Y6.844 Z4.323
X-0.647 Y6.873 Z4.335
X-0.613 Y6.899 Z4.346
X-0.577 Y6.923 Z4.357
X-0.538 Y6.945 Z4.366
X-0.498 Y6.963 Z4.373
X-0.456 Y6.978 Z4.38
X-0.413 Y6.99 Z4.385
X-0.369 Y6.998 Z4.388
X-0.324 Y7.003 Z4.391
X-0.279 Y7.005
G3 X-0.14 Z4.359 I0. K-0.318
G2 X0. Z4.326 I0.14 K0.285
G1 X104.52 Z4.325
X105.324 Z4.294
X106.648 Z4.208
X108.619 Z4.046
X111.227 Z3.799
X114.271 Z3.482
X117.455 Z3.121
X139.057 Z0.5
G2 X139.235 Z0.53 I0.038 K0.315
G3 X139.374 Z0.563 I0.14 K-0.285
G17 G3 Y8.005 I0. J0.5
G18 G2 X139.235 Z0.53 I0. K-0.318
G3 X139.057 Z0.5 I-0.14 K0.285
G1 X113.967 Z3.544
X110.784 Z3.905
X107.742 Z4.223
X105.136 Z4.469
X103.148 Z4.633
X101.824 Z4.719
X101.082 Z4.749
X0. Z4.751
G3 X-0.14 Z4.784 I0. K0.317
G2 X-0.279 Z4.816 I-0.14 K-0.285
G1 X-0.324 Y8.007 Z4.817
X-0.369 Y8.012 Z4.819
X-0.413 Y8.02 Z4.823
X-0.456 Y8.032 Z4.828
X-0.498 Y8.047 Z4.834
X-0.538 Y8.065 Z4.842
X-0.577 Y8.086 Z4.851
X-0.613 Y8.11 Z4.861
X-0.647 Y8.137 Z4.872
X-0.679 Y8.166 Z4.885
X-0.708 Y8.198 Z4.898
X-0.734 Y8.231 Z4.912
X-0.757 Y8.267 Z4.928
X-0.777 Y8.304 Z4.943
X-0.793 Y8.342 Z4.96
X-0.806 Y8.382 Z4.977
X-0.815 Y8.423 Z4.994
X-0.821 Y8.464 Z5.011
X-0.823 Y8.505 Z5.029
X-0.821 Y8.546 Z5.046
X-0.815 Y8.587 Z5.064
X-0.806 Y8.628 Z5.081
X-0.793 Y8.667 Z5.098
X-0.777 Y8.706 Z5.114
X-0.757 Y8.743 Z5.13
X-0.734 Y8.778 Z5.145
X-0.708 Y8.812 Z5.159
X-0.679 Y8.843 Z5.173
X-0.647 Y8.873 Z5.185
X-0.613 Y8.899 Z5.196
X-0.577 Y8.923 Z5.207
X-0.538 Y8.945 Z5.216
X-0.498 Y8.963 Z5.223
X-0.456 Y8.978 Z5.23
X-0.413 Y8.99 Z5.235
X-0.369 Y8.998 Z5.238
X-0.324 Y9.003 Z5.24
X-0.279 Y9.005 Z5.241
G3 X-0.14 Z5.209 I0. K-0.318
G2 X0. Z5.176 I0.14 K0.285
G1 X97.52 Z5.175
X98.324 Z5.144
X99.648 Z5.058
X101.636 Z4.894
X104.242 Z4.648
X107.284 Z4.33
X110.468 Z3.969
X139.057 Z0.5
G2 X139.235 Z0.53 I0.038 K0.315
G3 X139.374 Z0.563 I0.14 K-0.285
G17 G3 Y10.005 I0. J0.5
G18 G2 X139.235 Z0.53 I0. K-0.317
G3 X139.057 Z0.5 I-0.14 K0.285
G1 X106.968 Z4.394
X103.784 Z4.755
X100.743 Z5.073
X98.136 Z5.319
X96.149 Z5.483
X94.824 Z5.569
X94.083 Z5.599
X0. Z5.601
G3 X-0.14 Z5.634 I0. K0.318
G2 X-0.279 Z5.666 I-0.14 K-0.285
G1 X-0.324 Y10.007 Z5.667
X-0.369 Y10.012 Z5.669
X-0.413 Y10.02 Z5.673
X-0.456 Y10.032 Z5.678
X-0.498 Y10.047 Z5.684
X-0.538 Y10.065 Z5.692
X-0.577 Y10.086 Z5.701
X-0.613 Y10.11 Z5.711
X-0.647 Y10.137 Z5.722
X-0.679 Y10.166 Z5.735
X-0.708 Y10.198 Z5.748
X-0.734 Y10.231 Z5.762
X-0.757 Y10.267 Z5.778
X-0.777 Y10.304 Z5.793
X-0.793 Y10.342 Z5.81
X-0.806 Y10.382 Z5.827
X-0.815 Y10.422 Z5.844
X-0.821 Y10.463 Z5.861
X-0.823 Y10.505 Z5.879
X-0.821 Y10.546 Z5.896
X-0.815 Y10.587 Z5.914
X-0.806 Y10.628 Z5.931
X-0.793 Y10.667 Z5.948
X-0.777 Y10.706 Z5.964
X-0.757 Y10.743 Z5.98
X-0.734 Y10.778 Z5.995
X-0.708 Y10.812 Z6.009
X-0.679 Y10.843 Z6.023
X-0.647 Y10.873 Z6.035
X-0.613 Y10.899 Z6.046
X-0.577 Y10.923 Z6.057
X-0.538 Y10.945 Z6.066
X-0.498 Y10.963 Z6.073
X-0.456 Y10.978 Z6.08
X-0.413 Y10.989 Z6.085
X-0.369 Y10.998 Z6.088
X-0.324 Y11.003 Z6.09
X-0.279 Y11.005 Z6.091
G3 X-0.14 Z6.059 I0. K-0.317
G2 X0. Z6.026 I0.14 K0.285
G1 X90.52 Z6.025
X91.324 Z5.994
X92.649 Z5.908
X94.636 Z5.744
X97.243 Z5.498
X100.298 Z5.179
X103.48 Z4.818
X139.057 Z0.5
G2 X139.235 Z0.53 I0.038 K0.315
G3 X139.374 Z0.563 I0.14 K-0.285
G17 G3 Y12.005 I0. J0.5
G18 G2 X139.235 Z0.53 I0. K-0.318
G3 X139.057 Z0.5 I-0.14 K0.285
G1 X99.98 Z5.243
X96.798 Z5.604
X93.743 Z5.923
X91.136 Z6.169
X89.149 Z6.333
X87.824 Z6.419
X87.083 Z6.449
X0. Z6.451
G3 X-0.14 Z6.484 I0. K0.318
G2 X-0.279 Z6.516 I-0.14 K-0.285
G1 X-0.324 Y12.006 Z6.517
X-0.369 Y12.012 Z6.519
X-0.413 Y12.02 Z6.523
X-0.456 Y12.032 Z6.528
X-0.498 Y12.047 Z6.534
X-0.538 Y12.065 Z6.542
X-0.577 Y12.086 Z6.551
X-0.613 Y12.11 Z6.561
X-0.647 Y12.137 Z6.572
X-0.679 Y12.166 Z6.585
X-0.708 Y12.198 Z6.598
X-0.734 Y12.231 Z6.612
X-0.757 Y12.267 Z6.628
X-0.777 Y12.304 Z6.643
X-0.793 Y12.342 Z6.66
X-0.806 Y12.382 Z6.677
X-0.815 Y12.422 Z6.694
X-0.821 Y12.463 Z6.711
X-0.823 Y12.505 Z6.729
X-0.821 Y12.546 Z6.746
X-0.815 Y12.587 Z6.764
X-0.806 Y12.627 Z6.781
X-0.793 Y12.667 Z6.798
X-0.777 Y12.706 Z6.814
X-0.757 Y12.743 Z6.83
X-0.734 Y12.778 Z6.845
X-0.708 Y12.812 Z6.859
X-0.679 Y12.843 Z6.873
X-0.647 Y12.873 Z6.885
X-0.613 Y12.899 Z6.896
X-0.577 Y12.923 Z6.907
X-0.538 Y12.944 Z6.916
X-0.498 Y12.963 Z6.923
X-0.456 Y12.978 Z6.93
X-0.413 Y12.989 Z6.935
X-0.369 Y12.998 Z6.938
X-0.324 Y13.003 Z6.94
X-0.279 Y13.005 Z6.941
G3 X-0.14 Z6.909 I0. K-0.318
G2 X0. Z6.876 I0.14 K0.285
G1 X83.521 Z6.875
X84.324 Z6.844
X85.649 Z6.758
X87.636 Z6.594
X90.243 Z6.348
X93.298 Z6.029
X96.48 Z5.668
X139.057 Z0.5
G2 X139.235 Z0.53 I0.038 K0.315
G3 X139.374 Z0.563 I0.14 K-0.285
G17 G3 Y14.005 I0. J0.5
G18 G2 X139.235 Z0.53 I0. K-0.318
G3 X139.057 Z0.5 I-0.14 K0.285
G1 X92.981 Z6.093
X89.798 Z6.454
X86.743 Z6.773
X84.136 Z7.019
X82.149 Z7.183
X80.824 Z7.269
X80.083 Z7.299
X0. Z7.301
G3 X-0.14 Z7.334 I0. K0.318
G2 X-0.279 Z7.366 I-0.14 K-0.285
G1 X-0.324 Y14.006 Z7.367
X-0.369 Y14.012 Z7.369
X-0.413 Y14.02 Z7.373
X-0.456 Y14.032 Z7.378
X-0.498 Y14.047 Z7.384
X-0.538 Y14.065 Z7.392
X-0.577 Y14.086 Z7.401
X-0.613 Y14.11 Z7.411
X-0.647 Y14.137 Z7.422
X-0.679 Y14.166 Z7.435
X-0.708 Y14.198 Z7.448
X-0.734 Y14.231 Z7.462
X-0.757 Y14.267 Z7.478
X-0.777 Y14.304 Z7.493
X-0.793 Y14.342 Z7.51
X-0.806 Y14.382 Z7.527
X-0.815 Y14.422 Z7.544
X-0.821 Y14.463 Z7.561
X-0.823 Y14.505 Z7.579
X-0.821 Y14.546 Z7.596
X-0.815 Y14.587 Z7.614
X-0.806 Y14.627 Z7.631
X-0.793 Y14.667 Z7.648
X-0.777 Y14.706 Z7.664
X-0.757 Y14.743 Z7.68
X-0.734 Y14.778 Z7.695
X-0.708 Y14.812 Z7.709
X-0.679 Y14.843 Z7.723
X-0.647 Y14.873 Z7.735
X-0.613 Y14.899 Z7.746
X-0.577 Y14.923 Z7.757
X-0.538 Y14.944 Z7.766
X-0.498 Y14.963 Z7.773
X-0.456 Y14.978 Z7.78
X-0.413 Y14.989 Z7.785
X-0.369 Y14.998 Z7.788
X-0.324 Y15.003 Z7.79
X-0.279 Y15.005 Z7.791
G3 X-0.14 Z7.759 I0. K-0.318
G2 X0. Z7.726 I0.14 K0.285
G1 X76.521 Z7.725
X77.325 Z7.694
X78.649 Z7.608
X80.636 Z7.444
X83.243 Z7.198
X86.298 Z6.879
X89.481 Z6.518
X139.057 Z0.5
G2 X139.235 Z0.53 I0.038 K0.315
G3 X139.374 Z0.563 I0.14 K-0.285
G17 G3 Y16.005 I0. J0.5
G18 G2 X139.235 Z0.53 I0. K-0.318
G3 X139.057 Z0.5 I-0.14 K0.285
G1 X85.981 Z6.943
X82.799 Z7.304
X79.743 Z7.623
X77.136 Z7.869
X75.149 Z8.033
X73.825 Z8.119
X73.084 Z8.149
X0. Z8.151
G3 X-0.14 Z8.184 I0. K0.318
G2 X-0.279 Z8.216 I-0.14 K-0.285
G1 X-0.324 Y16.006 Z8.217
X-0.369 Y16.011 Z8.219
X-0.413 Y16.02 Z8.223
X-0.456 Y16.032 Z8.228
X-0.498 Y16.047 Z8.234
X-0.538 Y16.065 Z8.242
X-0.577 Y16.086 Z8.251
X-0.613 Y16.11 Z8.261
X-0.647 Y16.137 Z8.272
X-0.679 Y16.166 Z8.285
X-0.708 Y16.198 Z8.298
X-0.734 Y16.231 Z8.312
X-0.757 Y16.267 Z8.328
X-0.777 Y16.304 Z8.343
X-0.793 Y16.342 Z8.36
X-0.806 Y16.382 Z8.376
X-0.815 Y16.422 Z8.394
X-0.821 Y16.463 Z8.411
X-0.823 Y16.505 Z8.429
X-0.821 Y16.546 Z8.446
X-0.815 Y16.587 Z8.464
X-0.806 Y16.627 Z8.481
X-0.793 Y16.667 Z8.498
X-0.777 Y16.706 Z8.514
X-0.757 Y16.743 Z8.53
X-0.734 Y16.778 Z8.545
X-0.708 Y16.812 Z8.559
X-0.679 Y16.843 Z8.573
X-0.647 Y16.873 Z8.585
X-0.613 Y16.899 Z8.596
X-0.577 Y16.923 Z8.607
X-0.538 Y16.944 Z8.616
X-0.498 Y16.963 Z8.623
X-0.456 Y16.978 Z8.63
X-0.413 Y16.989 Z8.635
X-0.369 Y16.998 Z8.638
X-0.324 Y17.003 Z8.64
X-0.279 Y17.005 Z8.641
G3 X-0.14 Z8.609 I0. K-0.317
G2 X0. Z8.576 I0.14 K0.285
G1 X69.521 Z8.575
X70.325 Z8.544
X71.649 Z8.458
X73.637 Z8.294
X76.243 Z8.048
X79.299 Z7.729
X82.481 Z7.368
X139.057 Z0.5
G2 X139.235 Z0.53 I0.038 K0.315
G3 X139.374 Z0.563 I0.14 K-0.285
G17 G3 Y18.005 I0. J0.5
G18 G2 X139.235 Z0.53 I0. K-0.318
G3 X139.057 Z0.5 I-0.14 K0.285
G1 X78.981 Z7.793
X75.799 Z8.154
X72.743 Z8.473
X70.137 Z8.719
X68.149 Z8.883
X66.825 Z8.969
X66.084 Z8.999
X0. Z9.001
G3 X-0.14 Z9.034 I0. K0.318
G2 X-0.279 Z9.066 I-0.14 K-0.285
G1 X-0.324 Y18.006 Z9.067
X-0.369 Y18.011 Z9.069
X-0.413 Y18.02 Z9.073
X-0.456 Y18.032 Z9.078
X-0.498 Y18.047 Z9.084
X-0.538 Y18.065 Z9.092
X-0.577 Y18.086 Z9.101
X-0.613 Y18.11 Z9.111
X-0.647 Y18.137 Z9.122
X-0.679 Y18.166 Z9.135
X-0.708 Y18.198 Z9.148
X-0.734 Y18.231 Z9.162
X-0.757 Y18.267 Z9.178
X-0.777 Y18.304 Z9.193
X-0.793 Y18.342 Z9.21
X-0.806 Y18.382 Z9.226
X-0.815 Y18.422 Z9.244
X-0.821 Y18.463 Z9.261
X-0.823 Y18.505 Z9.279
X-0.821 Y18.546 Z9.296
X-0.815 Y18.587 Z9.314
X-0.806 Y18.627 Z9.331
X-0.793 Y18.667 Z9.348
X-0.777 Y18.705 Z9.364
X-0.757 Y18.743 Z9.38
X-0.734 Y18.778 Z9.395
X-0.708 Y18.812 Z9.409
X-0.679 Y18.843 Z9.423
X-0.647 Y18.872 Z9.435
X-0.613 Y18.899 Z9.446
X-0.577 Y18.923 Z9.457
X-0.538 Y18.944 Z9.466
X-0.498 Y18.963 Z9.473
X-0.456 Y18.978 Z9.48
X-0.413 Y18.989 Z9.485
X-0.369 Y18.998 Z9.488
X-0.324 Y19.003 Z9.49
X-0.279 Y19.005 Z9.491
G3 X-0.14 Z9.459 I0. K-0.318
G2 X0. Z9.426 I0.14 K0.285
G1 X62.522 Z9.425
X63.325 Z9.394
X64.65 Z9.308
X66.637 Z9.144
X69.243 Z8.898
X72.299 Z8.579
X75.481 Z8.218
X139.057 Z0.5
G2 X139.235 Z0.53 I0.038 K0.315
G3 X139.374 Z0.563 I0.14 K-0.285
G17 G3 Y20.005 I0. J0.5
G18 G2 X139.235 Z0.53 I0. K-0.317
G3 X139.057 Z0.5 I-0.14 K0.285
G1 X71.981 Z8.643
X68.799 Z9.004
X65.743 Z9.323
X63.137 Z9.569
X61.15 Z9.733
X59.825 Z9.819
X59.084 Z9.849
X0. Z9.851
G3 X-0.14 Z9.884 I0. K0.318
G2 X-0.279 Z9.916 I-0.14 K-0.285
G1 X-0.324 Y20.006 Z9.917
X-0.369 Y20.011 Z9.919
X-0.413 Y20.02 Z9.923
X-0.456 Y20.032 Z9.928
X-0.498 Y20.047 Z9.934
X-0.538 Y20.065 Z9.942
X-0.577 Y20.086 Z9.951
X-0.613 Y20.11 Z9.961
X-0.647 Y20.137 Z9.972
X-0.679 Y20.166 Z9.985
X-0.708 Y20.197 Z9.998
X-0.734 Y20.231 Z10.012
X-0.757 Y20.267 Z10.027
X-0.777 Y20.304 Z10.043
X-0.793 Y20.342 Z10.06
X-0.806 Y20.382 Z10.076
X-0.815 Y20.422 Z10.094
X-0.821 Y20.463 Z10.111
X-0.823 Y20.505 Z10.129
X-0.821 Y20.546 Z10.146
X-0.815 Y20.587 Z10.164
X-0.806 Y20.627 Z10.181
X-0.793 Y20.667 Z10.198
X-0.777 Y20.705 Z10.214
X-0.757 Y20.743 Z10.23
X-0.734 Y20.778 Z10.245
X-0.708 Y20.812 Z10.259
X-0.679 Y20.843 Z10.273
X-0.647 Y20.872 Z10.285
X-0.613 Y20.899 Z10.296
X-0.577 Y20.923 Z10.307
X-0.538 Y20.944 Z10.316
X-0.498 Y20.962 Z10.323
X-0.456 Y20.977 Z10.33
X-0.413 Y20.989 Z10.335
X-0.369 Y20.998 Z10.338
X-0.324 Y21.003 Z10.34
X-0.279 Y21.005 Z10.341
G3 X-0.14 Z10.309 I0. K-0.318
G2 X0. Z10.276 I0.14 K0.285
G1 X55.522 Z10.275
X56.325 Z10.244
X57.65 Z10.158
X59.637 Z9.994
X62.244 Z9.748
X65.299 Z9.429
X68.481 Z9.068
X139.057 Z0.5
G2 X139.235 Z0.53 I0.038 K0.315
G3 X139.374 Z0.563 I0.14 K-0.285
G17 G3 Y22.005 I0. J0.5
G18 G2 X139.235 Z0.53 I0. K-0.318
G3 X139.057 Z0.5 I-0.14 K0.285
G1 X64.981 Z9.493
X61.799 Z9.854
X58.744 Z10.173
X56.137 Z10.419
X54.15 Z10.583
X52.825 Z10.669
X52.085 Z10.699
X0. Z10.701
G3 X-0.14 Z10.734 I0. K0.318
G2 X-0.279 Z10.766 I-0.14 K-0.285
G1 X-0.324 Y22.006 Z10.767
X-0.369 Y22.011 Z10.769
X-0.413 Y22.02 Z10.773
X-0.456 Y22.032 Z10.778
X-0.498 Y22.047 Z10.784
X-0.538 Y22.065 Z10.792
X-0.577 Y22.086 Z10.801
X-0.613 Y22.11 Z10.811
X-0.647 Y22.137 Z10.822
X-0.679 Y22.166 Z10.835
X-0.708 Y22.197 Z10.848
X-0.734 Y22.231 Z10.862
X-0.757 Y22.267 Z10.877
X-0.777 Y22.304 Z10.893
X-0.793 Y22.342 Z10.91
X-0.806 Y22.382 Z10.926
X-0.815 Y22.422 Z10.944
X-0.821 Y22.463 Z10.961
X-0.823 Y22.505 Z10.979
X-0.821 Y22.546 Z10.996
X-0.815 Y22.587 Z11.014
X-0.806 Y22.627 Z11.031
X-0.793 Y22.667 Z11.048
X-0.777 Y22.705 Z11.064
X-0.757 Y22.743 Z11.08
X-0.734 Y22.778 Z11.095
X-0.708 Y22.812 Z11.109
X-0.679 Y22.843 Z11.123
X-0.647 Y22.872 Z11.135
X-0.613 Y22.899 Z11.146
X-0.577 Y22.923 Z11.156
X-0.538 Y22.944 Z11.165
X-0.498 Y22.962 Z11.173
X-0.456 Y22.977 Z11.18
X-0.413 Y22.989 Z11.185
X-0.369 Y22.998 Z11.188
X-0.324 Y23.003 Z11.19
X-0.279 Y23.005 Z11.191
G3 X-0.14 Z11.159 I0. K-0.318
G2 X0. Z11.126 I0.14 K0.285
G1 X48.522 Z11.125
X49.326 Z11.094
X50.65 Z11.008
X52.637 Z10.844
X55.244 Z10.598
X58.299 Z10.279
X61.481 Z9.918
X139.057 Z0.5
G2 X139.235 Z0.53 I0.038 K0.315
G3 X139.374 Z0.563 I0.14 K-0.285
G17 G3 Y24.005 I0. J0.5
G18 G2 X139.235 Z0.53 I0. K-0.318
G3 X139.057 Z0.5 I-0.14 K0.285
G1 X57.994 Z10.341
X54.813 Z10.702
X51.759 Z11.021
X49.154 Z11.268
X47.17 Z11.431
X45.826 Z11.519
X45.085 Z11.549
X0. Z11.551
G3 X-0.14 Z11.584 I0. K0.317
G2 X-0.279 Z11.616 I-0.14 K-0.285
G1 X-0.324 Y24.006 Z11.617
X-0.369 Y24.011 Z11.619
X-0.413 Y24.02 Z11.623
X-0.456 Y24.032 Z11.628
X-0.498 Y24.047 Z11.634
X-0.538 Y24.065 Z11.642
X-0.577 Y24.086 Z11.651
X-0.613 Y24.11 Z11.661
X-0.647 Y24.137 Z11.672
X-0.679 Y24.166 Z11.685
X-0.708 Y24.197 Z11.698
X-0.734 Y24.231 Z11.712
X-0.757 Y24.267 Z11.727
X-0.777 Y24.304 Z11.743
X-0.793 Y24.342 Z11.76
X-0.806 Y24.382 Z11.776
X-0.815 Y24.422 Z11.794
X-0.821 Y24.463 Z11.811
X-0.823 Y24.505 Z11.829
X-0.821 Y24.546 Z11.846
X-0.815 Y24.587 Z11.864
X-0.806 Y24.627 Z11.881
X-0.793 Y24.667 Z11.898
X-0.777 Y24.705 Z11.914
X-0.757 Y24.742 Z11.93
X-0.734 Y24.778 Z11.945
X-0.708 Y24.812 Z11.959
X-0.679 Y24.843 Z11.973
X-0.647 Y24.872 Z11.985
X-0.613 Y24.899 Z11.996
X-0.577 Y24.923 Z12.006
X-0.538 Y24.944 Z12.015
X-0.498 Y24.962 Z12.023
X-0.456 Y24.977 Z12.03
X-0.413 Y24.989 Z12.035
X-0.369 Y24.998 Z12.038
X-0.324 Y25.003 Z12.04
X-0.279 Y25.004 Z12.041
G3 X-0.14 Z12.009 I0. K-0.318
G2 X0. Z11.976 I0.14 K0.285
G1 X41.523 Z11.975
X42.326 Z11.944
X43.67 Z11.856
X45.654 Z11.693
X48.259 Z11.446
X51.313 Z11.127
X54.494 Z10.766
X139.057 Z0.5
G2 X139.235 Z0.53 I0.038 K0.315
G3 X139.374 Z0.563 I0.14 K-0.285
G17 G3 Y26.004 I0. J0.5
G18 G2 X139.235 Z0.53 I0. K-0.317
G3 X139.057 Z0.5 I-0.14 K0.285
G1 X50.994 Z11.191
X47.813 Z11.552
X44.759 Z11.871
X42.154 Z12.118
X40.17 Z12.281
X38.826 Z12.369
X38.085 Z12.399
X0. Z12.401
G3 X-0.14 Z12.434 I0. K0.318
G2 X-0.279 Z12.466 I-0.14 K-0.285
G1 X-0.324 Y26.006 Z12.467
X-0.369 Y26.011 Z12.469
X-0.413 Y26.02 Z12.473
X-0.456 Y26.032 Z12.478
X-0.498 Y26.047 Z12.484
X-0.538 Y26.065 Z12.492
X-0.577 Y26.086 Z12.501
X-0.613 Y26.11 Z12.511
X-0.647 Y26.137 Z12.522
X-0.679 Y26.166 Z12.535
X-0.708 Y26.197 Z12.548
X-0.734 Y26.231 Z12.562
X-0.757 Y26.266 Z12.577
X-0.777 Y26.304 Z12.593
X-0.793 Y26.342 Z12.61
X-0.806 Y26.382 Z12.626
X-0.815 Y26.422 Z12.644
X-0.821 Y26.463 Z12.661
X-0.823 Y26.504 Z12.679
X-0.821 Y26.546 Z12.696
X-0.815 Y26.587 Z12.714
X-0.806 Y26.627 Z12.731
X-0.793 Y26.667 Z12.748
X-0.777 Y26.705 Z12.764
X-0.757 Y26.742 Z12.78
X-0.734 Y26.778 Z12.795
X-0.708 Y26.812 Z12.809
X-0.679 Y26.843 Z12.822
X-0.647 Y26.872 Z12.835
X-0.613 Y26.899 Z12.846
X-0.577 Y26.923 Z12.856
X-0.538 Y26.944 Z12.865
X-0.498 Y26.962 Z12.873
X-0.456 Y26.977 Z12.88
X-0.413 Y26.989 Z12.885
X-0.369 Y26.998 Z12.888
X-0.324 Y27.003 Z12.89
X-0.279 Y27.004 Z12.891
G3 X-0.14 Z12.859 I0. K-0.317
G2 X0. Z12.826 I0.14 K0.285
G1 X34.523 Z12.825
X35.326 Z12.794
X36.67 Z12.706
X38.654 Z12.543
X41.259 Z12.296
X44.313 Z11.977
X47.494 Z11.616
X139.057 Z0.5
G2 X139.235 Z0.53 I0.038 K0.315
G3 X139.374 Z0.563 I0.14 K-0.285
G17 G3 Y28.004 I0. J0.5
G18 G2 X139.235 Z0.53 I0. K-0.317
G3 X139.057 Z0.5 I-0.14 K0.285
G1 X43.994 Z12.041
X40.813 Z12.402
X37.759 Z12.721
X35.154 Z12.968
X33.17 Z13.131
X31.826 Z13.219
X31.086 Z13.249
X0. Z13.251
G3 X-0.14 Z13.284 I0. K0.318
G2 X-0.279 Z13.316 I-0.14 K-0.285
G1 X-0.324 Y28.006 Z13.317
X-0.369 Y28.011 Z13.319
X-0.413 Y28.02 Z13.323
X-0.456 Y28.032 Z13.328
X-0.498 Y28.047 Z13.334
X-0.538 Y28.065 Z13.342
X-0.577 Y28.086 Z13.351
X-0.613 Y28.11 Z13.361
X-0.647 Y28.137 Z13.372
X-0.679 Y28.166 Z13.385
X-0.708 Y28.197 Z13.398
X-0.734 Y28.231 Z13.412
X-0.757 Y28.266 Z13.427
X-0.777 Y28.304 Z13.443
X-0.793 Y28.342 Z13.46
X-0.806 Y28.382 Z13.476
X-0.815 Y28.422 Z13.494
X-0.821 Y28.463 Z13.511
X-0.823 Y28.504 Z13.529
X-0.821 Y28.546 Z13.546
X-0.815 Y28.587 Z13.564
X-0.806 Y28.627 Z13.581
X-0.793 Y28.667 Z13.598
X-0.777 Y28.705 Z13.614
X-0.757 Y28.742 Z13.63
X-0.734 Y28.778 Z13.645
X-0.708 Y28.812 Z13.659
X-0.679 Y28.843 Z13.672
X-0.647 Y28.872 Z13.685
X-0.613 Y28.899 Z13.696
X-0.577 Y28.923 Z13.706
X-0.538 Y28.944 Z13.715
X-0.498 Y28.962 Z13.723
X-0.456 Y28.977 Z13.73
X-0.413 Y28.989 Z13.735
X-0.369 Y28.998 Z13.738
X-0.324 Y29.003 Z13.74
X-0.279 Y29.004 Z13.741
G3 X-0.14 Z13.709 I0. K-0.318
G2 X0. Z13.676 I0.14 K0.285
G1 X27.524 Z13.675
X28.326 Z13.644
X29.67 Z13.556
X31.654 Z13.393
X34.259 Z13.146
X37.313 Z12.827
X40.494 Z12.466
X139.057 Z0.5
G2 X139.235 Z0.53 I0.038 K0.315
G3 X139.374 Z0.563 I0.14 K-0.285
G17 G3 Y30.004 I0. J0.5
G18 G2 X139.235 Z0.53 I0. K-0.317
G3 X139.057 Z0.5 I-0.14 K0.285
G1 X36.995 Z12.891
X33.813 Z13.252
X30.759 Z13.571
X28.155 Z13.818
X26.17 Z13.981
X24.826 Z14.069
X24.086 Z14.099
X0. Z14.101
G3 X-0.14 Z14.134 I0. K0.318
G2 X-0.279 Z14.166 I-0.14 K-0.285
G1 X-0.324 Y30.006 Z14.167
X-0.369 Y30.011 Z14.169
X-0.413 Y30.02 Z14.173
X-0.456 Y30.031 Z14.178
X-0.498 Y30.047 Z14.184
X-0.538 Y30.065 Z14.192
X-0.577 Y30.086 Z14.201
X-0.613 Y30.11 Z14.211
X-0.647 Y30.137 Z14.222
X-0.679 Y30.166 Z14.235
X-0.708 Y30.197 Z14.248
X-0.734 Y30.231 Z14.262
X-0.757 Y30.266 Z14.277
X-0.777 Y30.304 Z14.293
X-0.793 Y30.342 Z14.31
X-0.806 Y30.382 Z14.326
X-0.815 Y30.422 Z14.344
X-0.821 Y30.463 Z14.361
X-0.823 Y30.504 Z14.379
X-0.821 Y30.546 Z14.396
X-0.815 Y30.587 Z14.414
X-0.806 Y30.627 Z14.431
X-0.793 Y30.667 Z14.448
X-0.777 Y30.705 Z14.464
X-0.757 Y30.742 Z14.48
X-0.734 Y30.778 Z14.495
X-0.708 Y30.811 Z14.509
X-0.679 Y30.843 Z14.522
X-0.647 Y30.872 Z14.535
X-0.613 Y30.899 Z14.546
X-0.577 Y30.923 Z14.556
X-0.538 Y30.944 Z14.565
X-0.498 Y30.962 Z14.573
X-0.456 Y30.977 Z14.58
X-0.413 Y30.989 Z14.585
X-0.369 Y30.998 Z14.588
X-0.324 Y31.003 Z14.59
X-0.279 Y31.004 Z14.591
G3 X-0.14 Z14.559 I0. K-0.318
G2 X0. Z14.526 I0.14 K0.285
G1 X20.524 Z14.525
X21.327 Z14.494
X22.671 Z14.406
X24.655 Z14.243
X27.259 Z13.996
X30.314 Z13.677
X33.495 Z13.316
X139.057 Z0.5
G2 X139.235 Z0.53 I0.038 K0.315
G3 X139.374 Z0.563 I0.14 K-0.285
G17 G3 Y32.004 I0. J0.5
G18 G2 X139.235 Z0.53 I0. K-0.318
G3 X139.057 Z0.5 I-0.14 K0.285
G1 X29.995 Z13.741
X26.814 Z14.102
X23.759 Z14.421
X21.155 Z14.668
X19.171 Z14.831
X17.827 Z14.919
X17.086 Z14.949
X0. Z14.951
G3 X-0.14 Z14.984 I0. K0.318
G2 X-0.279 Z15.016 I-0.14 K-0.285
G1 X-0.324 Y32.006 Z15.017
X-0.369 Y32.011 Z15.019
X-0.413 Y32.02 Z15.023
X-0.456 Y32.031 Z15.028
X-0.498 Y32.046 Z15.034
X-0.538 Y32.065 Z15.042
X-0.577 Y32.086 Z15.051
X-0.613 Y32.11 Z15.061
X-0.647 Y32.136 Z15.072
X-0.679 Y32.166 Z15.085
X-0.708 Y32.197 Z15.098
X-0.734 Y32.231 Z15.112
X-0.757 Y32.266 Z15.127
X-0.777 Y32.304 Z15.143
X-0.793 Y32.342 Z15.16
X-0.806 Y32.382 Z15.176
X-0.815 Y32.422 Z15.194
X-0.821 Y32.463 Z15.211
X-0.823 Y32.504 Z15.229
X-0.821 Y32.546 Z15.246
X-0.815 Y32.587 Z15.263
X-0.806 Y32.627 Z15.281
X-0.793 Y32.667 Z15.298
X-0.777 Y32.705 Z15.314
X-0.757 Y32.742 Z15.33
X-0.734 Y32.778 Z15.345
X-0.708 Y32.811 Z15.359
X-0.679 Y32.843 Z15.372
X-0.647 Y32.872 Z15.385
X-0.613 Y32.899 Z15.396
X-0.577 Y32.923 Z15.406
X-0.538 Y32.944 Z15.415
X-0.498 Y32.962 Z15.423
X-0.456 Y32.977 Z15.429
X-0.413 Y32.989 Z15.435
X-0.369 Y32.998 Z15.438
X-0.324 Y33.003 Z15.44
X-0.279 Y33.004 Z15.441
G3 X-0.14 Z15.409 I0. K-0.318
G2 X0. Z15.376 I0.14 K0.285
G1 X13.524 Z15.375
X14.327 Z15.344
X15.671 Z15.256
X17.655 Z15.093
X20.26 Z14.846
X23.314 Z14.527
X26.495 Z14.166
X139.057 Z0.5
G2 X139.235 Z0.53 I0.038 K0.315
G3 X139.374 Z0.563 I0.14 K-0.285
G17 G3 Y34.004 I0. J0.5
G18 G2 X139.235 Z0.53 I0. K-0.318
G3 X139.057 Z0.5 I-0.14 K0.285
G1 X22.995 Z14.591
X19.814 Z14.952
X16.76 Z15.271
X14.155 Z15.518
X12.171 Z15.681
X10.827 Z15.769
X10.087 Z15.799
X0. Z15.801
G3 X-0.14 Z15.834 I0. K0.317
G2 X-0.279 Z15.866 I-0.14 K-0.285
G1 X-0.324 Y34.006 Z15.867
X-0.369 Y34.011 Z15.869
X-0.413 Y34.02 Z15.873
X-0.456 Y34.031 Z15.878
X-0.498 Y34.046 Z15.884
X-0.538 Y34.065 Z15.892
X-0.577 Y34.086 Z15.901
X-0.613 Y34.11 Z15.911
X-0.647 Y34.136 Z15.922
X-0.679 Y34.166 Z15.935
X-0.708 Y34.197 Z15.948
X-0.734 Y34.231 Z15.962
X-0.757 Y34.266 Z15.977
X-0.777 Y34.303 Z15.993
X-0.793 Y34.342 Z16.01
X-0.806 Y34.382 Z16.026
X-0.815 Y34.422 Z16.044
X-0.821 Y34.463 Z16.061
X-0.823 Y34.504 Z16.078
X-0.821 Y34.546 Z16.096
X-0.815 Y34.587 Z16.113
X-0.806 Y34.627 Z16.131
X-0.793 Y34.667 Z16.147
X-0.777 Y34.705 Z16.164
X-0.757 Y34.742 Z16.18
X-0.734 Y34.778 Z16.195
X-0.708 Y34.811 Z16.209
X-0.679 Y34.843 Z16.222
X-0.647 Y34.872 Z16.235
X-0.613 Y34.899 Z16.246
X-0.577 Y34.923 Z16.256
X-0.538 Y34.944 Z16.265
X-0.498 Y34.962 Z16.273
X-0.456 Y34.977 Z16.279
X-0.413 Y34.989 Z16.284
X-0.369 Y34.997 Z16.288
X-0.324 Y35.003 Z16.29
X-0.279 Y35.004 Z16.291
G3 X-0.14 Z16.259 I0. K-0.317
G2 X0. Z16.226 I0.14 K0.285
G1 X6.525 Z16.225
X7.327 Z16.194
X8.671 Z16.106
X10.655 Z15.943
X13.26 Z15.696
X16.314 Z15.377
X19.495 Z15.016
X139.057 Z0.5
G2 X139.235 Z0.53 I0.038 K0.315
G3 X139.374 Z0.563 I0.14 K-0.285
G17 G3 Y36.004 I0. J0.5
G18 G2 X139.235 Z0.53 I0. K-0.317
G3 X139.057 Z0.5 I-0.14 K0.285
G1 X15.995 Z15.441
X12.814 Z15.802
X9.76 Z16.121
X7.155 Z16.368
X5.171 Z16.531
X3.827 Z16.619
X3.087 Z16.649
X0. Z16.651
G3 X-0.139 Z16.684 I0. K0.317
G2 X-0.279 Z16.716 I-0.14 K-0.285
G1 X-0.323 Y36.006 Z16.717
X-0.367 Y36.011 Z16.718
X-0.409 Y36.02 Z16.721
X-0.451 Y36.031 Z16.725
X-0.492 Y36.046 Z16.731
X-0.531 Y36.065 Z16.737
X-0.569 Y36.086 Z16.744
X-0.605 Y36.11 Z16.753
X-0.638 Y36.136 Z16.762
X-0.669 Y36.166 Z16.772
X-0.697 Y36.197 Z16.783
X-0.723 Y36.231 Z16.795
X-0.745 Y36.266 Z16.807
X-0.764 Y36.303 Z16.82
X-0.78 Y36.342 Z16.834
X-0.793 Y36.382 Z16.848
X-0.802 Y36.422 Z16.862
X-0.807 Y36.463 Z16.876
X-0.809 Y36.504 Z16.89
X-0.807 Y36.546 Z16.905
X-0.802 Y36.587 Z16.919
X-0.793 Y36.627 Z16.933
X-0.78 Y36.667 Z16.947
X-0.764 Y36.705 Z16.96
X-0.745 Y36.742 Z16.973
X-0.723 Y36.778 Z16.986
X-0.697 Y36.811 Z16.998
X-0.669 Y36.843 Z17.009
X-0.638 Y36.872 Z17.019
X-0.605 Y36.899 Z17.028
X-0.569 Y36.923 Z17.036
X-0.531 Y36.944 Z17.044
X-0.492 Y36.962 Z17.05
X-0.451 Y36.977 Z17.055
X-0.409 Y36.989 Z17.059
X-0.367 Y36.997 Z17.062
X-0.323 Y37.003 Z17.064
X-0.279 Y37.004 Z17.065
G3 X-0.14 Z17.032 I0. K-0.318
G2 X0. Z17. I0.14 K0.285
G1 X1.05
X1.671 Z16.956
X3.655 Z16.793
X6.26 Z16.546
X9.314 Z16.227
X12.495 Z15.866
X139.057 Z0.5
G2 X139.235 Z0.53 I0.038 K0.315
G3 X139.374 Z0.563 I0.14 K-0.285
G17 G3 Y38.004 I0. J0.5
G18 G2 X139.235 Z0.53 I0. K-0.318
G3 X139.057 Z0.5 I-0.14 K0.285
G1 X8.995 Z16.291
X5.814 Z16.652
X2.76 Z16.971
X2.447 Z17.
X0.
G3 X-0.14 Z17.032 I0. K0.317
G2 X-0.279 Z17.065 I-0.14 K-0.285
G17 G2 Y39.004 I0. J0.5
G18 G3 X-0.14 Z17.032 I0. K-0.318
G2 X0. Z17. I0.14 K0.285
G1 X3.013
X5.495 Z16.716
X139.057 Z0.5
G2 X139.235 Z0.53 I0.038 K0.315
G3 X139.374 Z0.563 I0.14 K-0.285
G17 G3 Y40.004 I0. J0.5
G18 G2 X139.235 Z0.53 I0. K-0.317
G3 X139.057 Z0.5 I-0.14 K0.285
G1 X3.17 Z17.
X0.
G3 X-0.14 Z17.032 I0. K0.317
G2 X-0.279 Z17.065 I-0.14 K-0.285
G17 G2 Y41.004 I0. J0.5
G18 G3 X-0.14 Z17.032 I0. K-0.318
G2 X0. Z17. I0.14 K0.285
G1 X3.17
X139.057 Z0.5
G2 X139.235 Z0.53 I0.038 K0.315
G3 X139.374 Z0.563 I0.14 K-0.285
G17 G3 Y42.004 I0. J0.5
G18 G2 X139.235 Z0.53 I0. K-0.317
G3 X139.057 Z0.5 I-0.14 K0.285
G1 X3.17 Z17.
X0.
G3 X-0.14 Z17.032 I0. K0.317
G2 X-0.279 Z17.065 I-0.14 K-0.285
G17 G2 Y43.004 I0. J0.5
G18 G3 X-0.14 Z17.032 I0. K-0.318
G2 X0. Z17. I0.14 K0.285
G1 X3.17
X139.057 Z0.5
G2 X139.235 Z0.53 I0.038 K0.315
G3 X139.374 Z0.563 I0.14 K-0.285
G17 G3 Y44.004 I0. J0.5
G18 G2 X139.235 Z0.53 I0. K-0.317
G3 X139.057 Z0.5 I-0.14 K0.285
G1 X3.17 Z17.
X0.
G3 X-0.14 Z17.032 I0. K0.317
G2 X-0.279 Z17.065 I-0.14 K-0.285
G17 G2 Y45.004 I0. J0.5
G18 G3 X-0.14 Z17.032 I0. K-0.318
G2 X0. Z17. I0.14 K0.285
G1 X3.17
X139.057 Z0.5
G2 X139.235 Z0.53 I0.038 K0.315
G3 X139.374 Z0.563 I0.14 K-0.285
G17 G3 Y46.004 I0. J0.5
G18 G2 X139.235 Z0.53 I0. K-0.317
G3 X139.057 Z0.5 I-0.14 K0.285
G1 X3.17 Z17.
X0.
G3 X-0.14 Z17.032 I0. K0.317
G2 X-0.279 Z17.065 I-0.14 K-0.285
G17 G2 Y47.004 I0. J0.5
G18 G3 X-0.14 Z17.032 I0. K-0.318
G2 X0. Z17. I0.14 K0.285
G1 X3.17
X139.057 Z0.5
G2 X139.235 Z0.53 I0.038 K0.315
G3 X139.374 Z0.563 I0.14 K-0.285
G17 G3 Y48.004 I0. J0.5
G18 G2 X139.235 Z0.53 I0. K-0.317
G3 X139.057 Z0.5 I-0.14 K0.285
G1 X3.17 Z17.
X0.
G3 X-0.14 Z17.032 I0. K0.317
G2 X-0.279 Z17.065 I-0.14 K-0.285
G17 G2 Y49.004 I0. J0.5
G18 G3 X-0.14 Z17.032 I0. K-0.318
G2 X0. Z17. I0.14 K0.285
G1 X3.17
X139.057 Z0.5
G2 X139.235 Z0.53 I0.038 K0.315
G3 X139.374 Z0.563 I0.14 K-0.285
G17 G3 Y50.004 I0. J0.5
G18 G2 X139.235 Z0.53 I0. K-0.317
G3 X139.057 Z0.5 I-0.14 K0.285
G1 X3.17 Z17.
X0.
G3 X-0.14 Z17.032 I0. K0.317
G2 X-0.279 Z17.065 I-0.14 K-0.285
G17 G2 Y51.004 I0. J0.5
G18 G3 X-0.14 Z17.032 I0. K-0.318
G2 X0. Z17. I0.14 K0.285
G1 X3.17
X139.057 Z0.5
G2 X139.235 Z0.53 I0.038 K0.315
G3 X139.374 Z0.563 I0.14 K-0.285
G17 G3 Y52.004 I0. J0.5
G18 G2 X139.235 Z0.53 I0. K-0.317
G3 X139.057 Z0.5 I-0.14 K0.285
G1 X3.17 Z17.
X0.
G3 X-0.14 Z17.032 I0. K0.317
G2 X-0.279 Z17.065 I-0.14 K-0.285
G17 G2 Y53.004 I0. J0.5
G18 G3 X-0.14 Z17.032 I0. K-0.318
G2 X0. Z17. I0.14 K0.285
G1 X3.17
X139.057 Z0.5
G2 X139.235 Z0.53 I0.038 K0.315
G3 X139.374 Z0.563 I0.14 K-0.285
G17 G3 Y54.004 I0. J0.5
G18 G2 X139.235 Z0.53 I0. K-0.317
G3 X139.057 Z0.5 I-0.14 K0.285
G1 X3.17 Z17.
X0.
G3 X-0.14 Z17.032 I0. K0.317
G2 X-0.279 Z17.065 I-0.14 K-0.285
G17 G2 Y55.004 I0. J0.5
G18 G3 X-0.14 Z17.032 I0. K-0.318
G2 X0. Z17. I0.14 K0.285
G1 X3.17
X139.057 Z0.5
G2 X139.235 Z0.53 I0.038 K0.315
G3 X139.374 Z0.563 I0.14 K-0.285
G17 G3 Y56.004 I0. J0.5
G18 G2 X139.235 Z0.53 I0. K-0.317
G3 X139.057 Z0.5 I-0.14 K0.285
G1 X3.17 Z17.
X0.
G3 X-0.14 Z17.032 I0. K0.317
G2 X-0.279 Z17.065 I-0.14 K-0.285
G17 G2 Y57.004 I0. J0.5
G18 G3 X-0.14 Z17.032 I0. K-0.318
G2 X0. Z17. I0.14 K0.285
G1 X3.17
X139.057 Z0.5
G2 X139.235 Z0.53 I0.038 K0.315
G3 X139.374 Z0.563 I0.14 K-0.285
G17 G3 Y58.004 I0. J0.5
G18 G2 X139.235 Z0.53 I0. K-0.317
G3 X139.057 Z0.5 I-0.14 K0.285
G1 X3.17 Z17.
X0.
G3 X-0.14 Z17.032 I0. K0.317
G2 X-0.279 Z17.065 I-0.14 K-0.285
G17 G2 Y59.004 I0. J0.5
G18 G3 X-0.14 Z17.032 I0. K-0.318
G2 X0. Z17. I0.14 K0.285
G1 X3.17
X139.057 Z0.5
G2 X139.235 Z0.53 I0.038 K0.315
G3 X139.374 Z0.563 I0.14 K-0.285
G17 G3 Y60.004 I0. J0.5
G18 G2 X139.235 Z0.53 I0. K-0.317
G3 X139.057 Z0.5 I-0.14 K0.285
G1 X3.17 Z17.
X0.
G3 X-0.14 Z17.032 I0. K0.317
G2 X-0.279 Z17.065 I-0.14 K-0.285
G17 G2 Y61.004 I0. J0.5
G18 G3 X-0.14 Z17.032 I0. K-0.318
G2 X0. Z17. I0.14 K0.285
G1 X3.17
X139.057 Z0.5
G2 X139.235 Z0.53 I0.038 K0.315
G3 X139.374 Z0.563 I0.14 K-0.285
G17 G3 Y62.004 I0. J0.5
G18 G2 X139.235 Z0.53 I0. K-0.317
G3 X139.057 Z0.5 I-0.14 K0.285
G1 X3.17 Z17.
X0.
G3 X-0.14 Z17.032 I0. K0.317
G2 X-0.279 Z17.065 I-0.14 K-0.285
G17 G2 Y63.004 I0. J0.5
G18 G3 X-0.14 Z17.032 I0. K-0.318
G2 X0. Z17. I0.14 K0.285
G1 X3.17
X139.057 Z0.5
G2 X139.235 Z0.53 I0.038 K0.315
G3 X139.374 Z0.563 I0.14 K-0.285
G17 G3 Y64.004 I0. J0.5
G18 G2 X139.235 Z0.53 I0. K-0.317
G3 X139.057 Z0.5 I-0.14 K0.285
G1 X3.17 Z17.
X0.
G3 X-0.14 Z17.032 I0. K0.317
G2 X-0.279 Z17.065 I-0.14 K-0.285
G17 G2 Y65.004 I0. J0.5
G18 G3 X-0.14 Z17.032 I0. K-0.318
G2 X0. Z17. I0.14 K0.285
G1 X3.17
X139.057 Z0.5
G2 X139.235 Z0.53 I0.038 K0.315
G3 X139.374 Z0.563 I0.14 K-0.285
G17 G3 Y66.004 I0. J0.5
G18 G2 X139.235 Z0.53 I0. K-0.317
G3 X139.057 Z0.5 I-0.14 K0.285
G1 X3.17 Z17.
X0.
G3 X-0.14 Z17.032 I0. K0.317
G2 X-0.279 Z17.065 I-0.14 K-0.285
G17 G2 Y67.004 I0. J0.5
G18 G3 X-0.14 Z17.032 I0. K-0.318
G2 X0. Z17. I0.14 K0.285
G1 X3.17
X139.057 Z0.5
G2 X139.235 Z0.53 I0.038 K0.315
G3 X139.374 Z0.563 I0.14 K-0.285
G17 G3 Y68.004 I0. J0.5
G18 G2 X139.235 Z0.53 I0. K-0.317
G3 X139.057 Z0.5 I-0.14 K0.285
G1 X3.17 Z17.
X0.
G3 X-0.14 Z17.032 I0. K0.317
G2 X-0.279 Z17.065 I-0.14 K-0.285
G17 G2 Y69.004 I0. J0.5
G18 G3 X-0.14 Z17.032 I0. K-0.318
G2 X0. Z17. I0.14 K0.285
G1 X3.17
X139.057 Z0.5
G2 X139.235 Z0.53 I0.038 K0.315
G3 X139.374 Z0.563 I0.14 K-0.285
G17 G3 Y70.004 I0. J0.5
G18 G2 X139.235 Z0.53 I0. K-0.317
G3 X139.057 Z0.5 I-0.14 K0.285
G1 X3.17 Z17.
X0.
G3 X-0.14 Z17.032 I0. K0.317
G2 X-0.279 Z17.065 I-0.14 K-0.285
G17 G2 Y71.004 I0. J0.5
G18 G3 X-0.14 Z17.032 I0. K-0.318
G2 X0. Z17. I0.14 K0.285
G1 X3.17
X139.057 Z0.5
G2 X139.235 Z0.53 I0.038 K0.315
G3 X139.374 Z0.563 I0.14 K-0.285
G17 G3 Y72.004 I0. J0.5
G18 G2 X139.235 Z0.53 I0. K-0.317
G3 X139.057 Z0.5 I-0.14 K0.285
G1 X3.17 Z17.
X0.
G3 X-0.14 Z17.032 I0. K0.317
G2 X-0.279 Z17.065 I-0.14 K-0.285
G17 G2 Y73.004 I0. J0.5
G18 G3 X-0.14 Z17.032 I0. K-0.318
G2 X0. Z17. I0.14 K0.285
G1 X3.17
X139.057 Z0.5
G2 X139.235 Z0.53 I0.038 K0.315
G3 X139.374 Z0.563 I0.14 K-0.285
G17 G3 Y74.004 I0. J0.5
G18 G2 X139.235 Z0.53 I0. K-0.317
G3 X139.057 Z0.5 I-0.14 K0.285
G1 X3.17 Z17.
X0.
G3 X-0.14 Z17.032 I0. K0.317
G2 X-0.279 Z17.065 I-0.14 K-0.285
G17 G2 Y75.003 I0. J0.5
G18 G3 X-0.14 Z17.032 I0. K-0.318
G2 X0. Z17. I0.14 K0.285
G1 X3.17
X139.057 Z0.5
G2 X139.235 Z0.53 I0.038 K0.315
G3 X139.374 Z0.563 I0.14 K-0.285
G17 G3 Y76.003 I0. J0.5
G18 G2 X139.235 Z0.53 I0. K-0.317
G3 X139.057 Z0.5 I-0.14 K0.285
G1 X3.17 Z17.
X0.
G3 X-0.14 Z17.032 I0. K0.317
G2 X-0.279 Z17.065 I-0.14 K-0.285
G17 G2 Y77.003 I0. J0.5
G18 G3 X-0.14 Z17.032 I0. K-0.318
G2 X0. Z17. I0.14 K0.285
G1 X3.17
X139.057 Z0.5
G2 X139.235 Z0.53 I0.038 K0.315
G3 X139.374 Z0.563 I0.14 K-0.285
G17 G3 Y78.003 I0. J0.5
G18 G2 X139.235 Z0.53 I0. K-0.317
G3 X139.057 Z0.5 I-0.14 K0.285
G1 X3.17 Z17.
X0.
G3 X-0.14 Z17.032 I0. K0.317
G2 X-0.279 Z17.065 I-0.14 K-0.285
G17 G2 Y79.003 I0. J0.5
G18 G3 X-0.14 Z17.032 I0. K-0.318
G2 X0. Z17. I0.14 K0.285
G1 X3.17
X139.057 Z0.5
G2 X139.235 Z0.53 I0.038 K0.315
G3 X139.374 Z0.563 I0.14 K-0.285
G17 G3 Y80.003 I0. J0.5
G18 G2 X139.235 Z0.53 I0. K-0.317
G3 X139.057 Z0.5 I-0.14 K0.285
G1 X3.17 Z17.
X0.
G3 X-0.14 Z17.032 I0. K0.317
G2 X-0.279 Z17.065 I-0.14 K-0.285
G17 G2 Y81.003 I0. J0.5
G18 G3 X-0.14 Z17.032 I0. K-0.318
G2 X0. Z17. I0.14 K0.285
G1 X3.17
X139.057 Z0.5
G2 X139.235 Z0.53 I0.038 K0.315
G3 X139.374 Z0.563 I0.14 K-0.285
G17 G3 Y82.003 I0. J0.5
G18 G2 X139.235 Z0.53 I0. K-0.317
G3 X139.057 Z0.5 I-0.14 K0.285
G1 X3.17 Z17.
X0.
G3 X-0.14 Z17.032 I0. K0.317
G2 X-0.279 Z17.065 I-0.14 K-0.285
G17 G2 Y83.003 I0. J0.5
G18 G3 X-0.14 Z17.032 I0. K-0.318
G2 X0. Z17. I0.14 K0.285
G1 X3.17
X139.057 Z0.5
G2 X139.235 Z0.53 I0.038 K0.315
G3 X139.374 Z0.563 I0.14 K-0.285
G17 G3 Y84.003 I0. J0.5
G18 G2 X139.235 Z0.53 I0. K-0.317
G3 X139.057 Z0.5 I-0.14 K0.285
G1 X3.17 Z17.
X0.
G3 X-0.14 Z17.032 I0. K0.317
G2 X-0.279 Z17.065 I-0.14 K-0.285
G17 G2 Y85.003 I0. J0.5
G18 G3 X-0.14 Z17.032 I0. K-0.318
G2 X0. Z17. I0.14 K0.285
G1 X3.17
X139.057 Z0.5
G2 X139.235 Z0.53 I0.038 K0.315
G3 X139.374 Z0.563 I0.14 K-0.285
G17 G3 Y86.003 I0. J0.5
G18 G2 X139.235 Z0.53 I0. K-0.317
G3 X139.057 Z0.5 I-0.14 K0.285
G1 X3.17 Z17.
X0.
G3 X-0.14 Z17.032 I0. K0.317
G2 X-0.279 Z17.065 I-0.14 K-0.285
G17 G2 Y87.003 I0. J0.5
G18 G3 X-0.14 Z17.032 I0. K-0.318
G2 X0. Z17. I0.14 K0.285
G1 X3.17
X139.057 Z0.5
G2 X139.235 Z0.53 I0.038 K0.315
G3 X139.374 Z0.563 I0.14 K-0.285
G17 G3 Y88.003 I0. J0.5
G18 G2 X139.235 Z0.53 I0. K-0.317
G3 X139.057 Z0.5 I-0.14 K0.285
G1 X3.17 Z17.
X0.
G3 X-0.14 Z17.032 I0. K0.317
G2 X-0.279 Z17.065 I-0.14 K-0.285
G17 G2 Y89.003 I0. J0.5
G18 G3 X-0.14 Z17.032 I0. K-0.318
G2 X0. Z17. I0.14 K0.285
G1 X3.17
X139.057 Z0.5
G2 X139.235 Z0.53 I0.038 K0.315
G3 X139.374 Z0.563 I0.14 K-0.285
G17 G3 Y90.003 I0. J0.5
G18 G2 X139.235 Z0.53 I0. K-0.317
G3 X139.057 Z0.5 I-0.14 K0.285
G1 X3.17 Z17.
X0.
G3 X-0.14 Z17.032 I0. K0.317
G2 X-0.279 Z17.065 I-0.14 K-0.285
G17 G2 Y91.003 I0. J0.5
G18 G3 X-0.14 Z17.032 I0. K-0.318
G2 X0. Z17. I0.14 K0.285
G1 X3.17
X139.057 Z0.5
G2 X139.235 Z0.53 I0.038 K0.315
G3 X139.374 Z0.563 I0.14 K-0.285
G17 G3 Y92.003 I0. J0.5
G18 G2 X139.235 Z0.53 I0. K-0.317
G3 X139.057 Z0.5 I-0.14 K0.285
G1 X3.17 Z17.
X0.
G3 X-0.14 Z17.032 I0. K0.317
G2 X-0.279 Z17.065 I-0.14 K-0.285
G17 G2 Y93.003 I0. J0.5
G18 G3 X-0.14 Z17.032 I0. K-0.318
G2 X0. Z17. I0.14 K0.285
G1 X3.17
X139.057 Z0.5
G2 X139.235 Z0.53 I0.038 K0.315
G3 X139.374 Z0.563 I0.14 K-0.285
G17 G3 Y94.003 I0. J0.5
G18 G2 X139.235 Z0.53 I0. K-0.317
G3 X139.057 Z0.5 I-0.14 K0.285
G1 X3.17 Z17.
X0.
G3 X-0.14 Z17.032 I0. K0.317
G2 X-0.279 Z17.065 I-0.14 K-0.285
G17 G2 Y95.003 I0. J0.5
G18 G3 X-0.14 Z17.032 I0. K-0.318
G2 X0. Z17. I0.14 K0.285
G1 X3.17
X139.057 Z0.5
G2 X139.235 Z0.53 I0.038 K0.315
G3 X139.374 Z0.563 I0.14 K-0.285
G17 G3 Y96.003 I0. J0.5
G18 G2 X139.235 Z0.53 I0. K-0.317
G3 X139.057 Z0.5 I-0.14 K0.285
G1 X3.17 Z17.
X0.
G3 X-0.14 Z17.032 I0. K0.317
G2 X-0.279 Z17.065 I-0.14 K-0.285
G17 G2 Y97.003 I0. J0.5
G18 G3 X-0.14 Z17.032 I0. K-0.318
G2 X0. Z17. I0.14 K0.285
G1 X3.17
X139.057 Z0.5
G2 X139.235 Z0.53 I0.038 K0.315
G3 X139.374 Z0.563 I0.14 K-0.285
G17 G3 Y98.003 I0. J0.5
G18 G2 X139.235 Z0.53 I0. K-0.317
G3 X139.057 Z0.5 I-0.14 K0.285
G1 X3.17 Z17.
X0.
G3 X-0.14 Z17.032 I0. K0.317
G2 X-0.279 Z17.065 I-0.14 K-0.285
G17 G2 Y99.003 I0. J0.5
G18 G3 X-0.14 Z17.032 I0. K-0.318
G2 X0. Z17. I0.14 K0.285
G1 X3.17
X139.057 Z0.5
G2 X139.235 Z0.53 I0.038 K0.315
G3 X139.374 Z0.563 I0.14 K-0.285
G17 G3 Y100.003 I0. J0.5
G18 G2 X139.235 Z0.53 I0. K-0.317
G3 X139.057 Z0.5 I-0.14 K0.285
G1 X3.17 Z17.
X0.
G3 X-0.14 Z17.032 I0. K0.317
G2 X-0.279 Z17.065 I-0.14 K-0.285
G17 G2 Y101.003 I0. J0.5
G18 G3 X-0.14 Z17.032 I0. K-0.318
G2 X0. Z17. I0.14 K0.285
G1 X3.17
X139.057 Z0.5
G2 X139.235 Z0.53 I0.038 K0.315
G3 X139.374 Z0.563 I0.14 K-0.285
G17 G3 Y102.003 I0. J0.5
G18 G2 X139.235 Z0.53 I0. K-0.317
G3 X139.057 Z0.5 I-0.14 K0.285
G1 X3.17 Z17.
X0.
G3 X-0.14 Z17.032 I0. K0.317
G2 X-0.279 Z17.065 I-0.14 K-0.285
G17 G2 Y103.003 I0. J0.5
G18 G3 X-0.14 Z17.032 I0. K-0.318
G2 X0. Z17. I0.14 K0.285
G1 X3.17
X139.057 Z0.5
G2 X139.235 Z0.53 I0.038 K0.315
G3 X139.374 Z0.563 I0.14 K-0.285
G17 G3 Y104.003 I0. J0.5
G18 G2 X139.235 Z0.53 I0. K-0.317
G3 X139.057 Z0.5 I-0.14 K0.285
G1 X3.17 Z17.
X0.
G3 X-0.14 Z17.032 I0. K0.317
G2 X-0.279 Z17.065 I-0.14 K-0.285
G17 G2 Y105.003 I0. J0.5
G18 G3 X-0.14 Z17.032 I0. K-0.318
G2 X0. Z17. I0.14 K0.285
G1 X3.17
X139.057 Z0.5
G2 X139.235 Z0.53 I0.038 K0.315
G3 X139.374 Z0.563 I0.14 K-0.285
G17 G3 Y106.003 I0. J0.5
G18 G2 X139.235 Z0.53 I0. K-0.317
G3 X139.057 Z0.5 I-0.14 K0.285
G1 X3.17 Z17.
X0.
G3 X-0.14 Z17.032 I0. K0.317
G2 X-0.279 Z17.065 I-0.14 K-0.285
G17 G2 Y107.003 I0. J0.5
G18 G3 X-0.14 Z17.032 I0. K-0.318
G2 X0. Z17. I0.14 K0.285
G1 X3.17
X139.057 Z0.5
G2 X139.235 Z0.53 I0.038 K0.315
G3 X139.374 Z0.563 I0.14 K-0.285
G17 G3 Y108.003 I0. J0.5
G18 G2 X139.235 Z0.53 I0. K-0.317
G3 X139.057 Z0.5 I-0.14 K0.285
G1 X3.17 Z17.
X0.
G3 X-0.14 Z17.032 I0. K0.317
G2 X-0.279 Z17.065 I-0.14 K-0.285
G17 G2 Y109.003 I0. J0.5
G18 G3 X-0.14 Z17.032 I0. K-0.318
G2 X0. Z17. I0.14 K0.285
G1 X3.17
X139.057 Z0.5
G2 X139.235 Z0.53 I0.038 K0.315
G3 X139.374 Z0.563 I0.14 K-0.285
G17 G3 Y110.003 I0. J0.5
G18 G2 X139.235 Z0.53 I0. K-0.317
G3 X139.057 Z0.5 I-0.14 K0.285
G1 X3.17 Z17.
X0.
G3 X-0.14 Z17.032 I0. K0.317
G2 X-0.279 Z17.065 I-0.14 K-0.285
G17 G2 Y111.003 I0. J0.5
G18 G3 X-0.14 Z17.032 I0. K-0.318
G2 X0. Z17. I0.14 K0.285
G1 X3.17
X139.057 Z0.5
G2 X139.235 Z0.53 I0.038 K0.315
G3 X139.374 Z0.563 I0.14 K-0.285
G17 G3 Y112.003 I0. J0.5
G18 G2 X139.235 Z0.53 I0. K-0.317
G3 X139.057 Z0.5 I-0.14 K0.285
G1 X3.17 Z17.
X0.
G3 X-0.14 Z17.032 I0. K0.317
G2 X-0.279 Z17.065 I-0.14 K-0.285
G17 G2 Y113.003 I0. J0.5
G18 G3 X-0.14 Z17.032 I0. K-0.318
G2 X0. Z17. I0.14 K0.285
G1 X3.17
X139.057 Z0.5
G2 X139.235 Z0.53 I0.038 K0.315
G3 X139.374 Z0.563 I0.14 K-0.285
G17 G3 Y114.003 I0. J0.5
G18 G2 X139.235 Z0.53 I0. K-0.317
G3 X139.057 Z0.5 I-0.14 K0.285
G1 X3.17 Z17.
X0.
G3 X-0.14 Z17.032 I0. K0.317
G2 X-0.279 Z17.065 I-0.14 K-0.285
G17 G2 Y115.003 I0. J0.5
G18 G3 X-0.14 Z17.032 I0. K-0.318
G2 X0. Z17. I0.14 K0.285
G1 X3.17
X139.057 Z0.5
G2 X139.235 Z0.53 I0.038 K0.315
G3 X139.374 Z0.563 I0.14 K-0.285
G17 G3 Y116.003 I0. J0.5
G18 G2 X139.235 Z0.53 I0. K-0.317
G3 X139.057 Z0.5 I-0.14 K0.285
G1 X3.17 Z17.
X0.
G3 X-0.14 Z17.032 I0. K0.317
G2 X-0.279 Z17.065 I-0.14 K-0.285
G17 G2 Y117.003 I0. J0.5
G18 G3 X-0.14 Z17.032 I0. K-0.318
G2 X0. Z17. I0.14 K0.285
G1 X3.17
X139.057 Z0.5
G2 X139.235 Z0.53 I0.038 K0.315
G3 X139.374 Z0.563 I0.14 K-0.285
G17 G3 Y118.003 I0. J0.5
G18 G2 X139.235 Z0.53 I0. K-0.317
G3 X139.057 Z0.5 I-0.14 K0.285
G1 X3.17 Z17.
X0.
G3 X-0.14 Z17.032 I0. K0.317
G2 X-0.279 Z17.065 I-0.14 K-0.285
G17 G2 Y119.003 I0. J0.5
G18 G3 X-0.14 Z17.032 I0. K-0.318
G2 X0. Z17. I0.14 K0.285
G1 X3.17
X139.057 Z0.5
G2 X139.235 Z0.53 I0.038 K0.315
G3 X139.374 Z0.563 I0.14 K-0.285
G17 G3 Y120.003 I0. J0.5
G18 G2 X139.235 Z0.53 I0. K-0.317
G3 X139.057 Z0.5 I-0.14 K0.285
G1 X3.17 Z17.
X0.
G3 X-0.14 Z17.032 I0. K0.317
G2 X-0.279 Z17.065 I-0.14 K-0.285
G17 G2 Y121.003 I0. J0.5
G18 G3 X-0.14 Z17.032 I0. K-0.318
G2 X0. Z17. I0.14 K0.285
G1 X3.17
X139.057 Z0.5
G2 X139.235 Z0.53 I0.038 K0.315
G3 X139.374 Z0.563 I0.14 K-0.285
G17 G3 Y122.003 I0. J0.5
G18 G2 X139.235 Z0.53 I0. K-0.317
G3 X139.057 Z0.5 I-0.14 K0.285
G1 X3.17 Z17.
X0.
G3 X-0.14 Z17.032 I0. K0.317
G2 X-0.279 Z17.065 I-0.14 K-0.285
G17 G2 Y123.003 I0. J0.5
G18 G3 X-0.14 Z17.032 I0. K-0.318
G2 X0. Z17. I0.14 K0.285
G1 X3.17
X139.057 Z0.5
G2 X139.235 Z0.53 I0.038 K0.315
G3 X139.374 Z0.563 I0.14 K-0.285
G17 G3 Y124.002 I0. J0.5
G18 G2 X139.235 Z0.53 I0. K-0.317
G3 X139.057 Z0.5 I-0.14 K0.285
G1 X3.17 Z17.
X0.
G3 X-0.14 Z17.032 I0. K0.317
G2 X-0.279 Z17.065 I-0.14 K-0.285
G17 G2 Y125.002 I0. J0.5
G18 G3 X-0.14 Z17.032 I0. K-0.318
G2 X0. Z17. I0.14 K0.285
G1 X3.17
X139.057 Z0.5
G2 X139.235 Z0.53 I0.038 K0.315
G3 X139.374 Z0.563 I0.14 K-0.285
G17 G3 Y126.002 I0. J0.5
G18 G2 X139.235 Z0.53 I0. K-0.317
G3 X139.057 Z0.5 I-0.14 K0.285
G1 X3.17 Z17.
X0.
G3 X-0.14 Z17.032 I0. K0.317
G2 X-0.279 Z17.065 I-0.14 K-0.285
G17 G2 Y127.002 I0. J0.5
G18 G3 X-0.14 Z17.032 I0. K-0.318
G2 X0. Z17. I0.14 K0.285
G1 X3.17
X139.057 Z0.5
G2 X139.235 Z0.53 I0.038 K0.315
G3 X139.374 Z0.563 I0.14 K-0.285
G17 G3 Y128.002 I0. J0.5
G18 G2 X139.235 Z0.53 I0. K-0.317
G3 X139.057 Z0.5 I-0.14 K0.285
G1 X3.17 Z17.
X0.
G3 X-0.14 Z17.032 I0. K0.317
G2 X-0.279 Z17.065 I-0.14 K-0.285
G17 G2 Y129.002 I0. J0.5
G18 G3 X-0.14 Z17.032 I0. K-0.318
G2 X0. Z17. I0.14 K0.285
G1 X3.17
X139.057 Z0.5
G2 X139.235 Z0.53 I0.038 K0.315
G3 X139.374 Z0.563 I0.14 K-0.285
G17 G3 Y130.002 I0. J0.5
G18 G2 X139.235 Z0.53 I0. K-0.317
G3 X139.057 Z0.5 I-0.14 K0.285
G1 X3.17 Z17.
X0.
G3 X-0.14 Z17.032 I0. K0.317
G2 X-0.279 Z17.065 I-0.14 K-0.285
G17 G2 Y131.002 I0. J0.5
G18 G3 X-0.14 Z17.032 I0. K-0.318
G2 X0. Z17. I0.14 K0.285
G1 X3.17
X139.057 Z0.5
G2 X139.235 Z0.53 I0.038 K0.315
G3 X139.374 Z0.563 I0.14 K-0.285
G17 G3 Y132.002 I0. J0.5
G18 G2 X139.235 Z0.53 I0. K-0.317
G3 X139.057 Z0.5 I-0.14 K0.285
G1 X3.17 Z17.
X0.
G3 X-0.14 Z17.032 I0. K0.317
G2 X-0.279 Z17.065 I-0.14 K-0.285
G17 G2 Y133.002 I0. J0.5
G18 G3 X-0.14 Z17.032 I0. K-0.318
G2 X0. Z17. I0.14 K0.285
G1 X3.17
X139.057 Z0.5
G2 X139.235 Z0.53 I0.038 K0.315
G3 X139.374 Z0.563 I0.14 K-0.285
G17 G3 Y134.002 I0. J0.5
G18 G2 X139.235 Z0.53 I0. K-0.317
G3 X139.057 Z0.5 I-0.14 K0.285
G1 X3.17 Z17.
X0.
G3 X-0.14 Z17.032 I0. K0.317
G2 X-0.279 Z17.065 I-0.14 K-0.285
G17 G2 Y135.002 I0. J0.5
G18 G3 X-0.14 Z17.032 I0. K-0.318
G2 X0. Z17. I0.14 K0.285
G1 X3.17
X139.057 Z0.5
G2 X139.235 Z0.53 I0.038 K0.315
G3 X139.374 Z0.563 I0.14 K-0.285
G17 G3 Y136.002 I0. J0.5
G18 G2 X139.235 Z0.53 I0. K-0.317
G3 X139.057 Z0.5 I-0.14 K0.285
G1 X3.17 Z17.
X0.
G3 X-0.14 Z17.032 I0. K0.317
G2 X-0.279 Z17.065 I-0.14 K-0.285
G17 G2 Y137.002 I0. J0.5
G18 G3 X-0.14 Z17.032 I0. K-0.318
G2 X0. Z17. I0.14 K0.285
G1 X3.17
X139.057 Z0.5
G2 X139.235 Z0.53 I0.038 K0.315
G3 X139.374 Z0.563 I0.14 K-0.285
G17 G3 Y138.002 I0. J0.5
G18 G2 X139.235 Z0.53 I0. K-0.317
G3 X139.057 Z0.5 I-0.14 K0.285
G1 X3.17 Z17.
X0.
G3 X-0.14 Z17.032 I0. K0.317
G2 X-0.279 Z17.065 I-0.14 K-0.285
G17 G2 Y139.002 I0. J0.5
G18 G3 X-0.14 Z17.032 I0. K-0.318
G2 X0. Z17. I0.14 K0.285
G1 X3.17
X139.057 Z0.5
G2 X139.235 Z0.53 I0.038 K0.315
G3 X139.374 Z0.563 I0.14 K-0.285
G17 G3 Y140.002 I0. J0.5
G18 G2 X139.235 Z0.53 I0. K-0.317
G3 X139.057 Z0.5 I-0.14 K0.285
G1 X3.17 Z17.
X0.
G3 X-0.14 Z17.032 I0. K0.317
G2 X-0.279 Z17.065 I-0.14 K-0.285
G17 G2 Y141.002 I0. J0.5
G18 G3 X-0.14 Z17.032 I0. K-0.318
G2 X0. Z17. I0.14 K0.285
G1 X3.17
X139.057 Z0.5
G2 X139.235 Z0.53 I0.038 K0.315
G3 X139.374 Z0.563 I0.14 K-0.285
G17 G3 Y142.002 I0. J0.5
G18 G2 X139.235 Z0.53 I0. K-0.317
G3 X139.057 Z0.5 I-0.14 K0.285
G1 X3.17 Z17.
X0.
G3 X-0.14 Z17.032 I0. K0.317
G2 X-0.279 Z17.065 I-0.14 K-0.285
G17 G2 Y143.002 I0. J0.5
G18 G3 X-0.14 Z17.032 I0. K-0.318
G2 X0. Z17. I0.14 K0.285
G1 X3.17
X139.057 Z0.5
G2 X139.235 Z0.53 I0.038 K0.315
G3 X139.374 Z0.563 I0.14 K-0.285
G17 G3 Y144.002 I0. J0.5
G18 G2 X139.235 Z0.53 I0. K-0.317
G3 X139.057 Z0.5 I-0.14 K0.285
G1 X3.17 Z17.
X0.
G3 X-0.14 Z17.032 I0. K0.317
G2 X-0.279 Z17.065 I-0.14 K-0.285
G17 G2 Y145.002 I0. J0.5
G18 G3 X-0.14 Z17.032 I0. K-0.318
G2 X0. Z17. I0.14 K0.285
G1 X3.17
X139.057 Z0.5
G2 X139.235 Z0.53 I0.038 K0.315
G3 X139.374 Z0.563 I0.14 K-0.285
G17 G3 Y146.002 I0. J0.5
G18 G2 X139.235 Z0.53 I0. K-0.317
G3 X139.057 Z0.5 I-0.14 K0.285
G1 X3.17 Z17.
X0.
G3 X-0.14 Z17.032 I0. K0.317
G2 X-0.279 Z17.065 I-0.14 K-0.285
G17 G2 Y147.002 I0. J0.5
G18 G3 X-0.14 Z17.032 I0. K-0.318
G2 X0. Z17. I0.14 K0.285
G1 X3.17
X139.057 Z0.5
G2 X139.235 Z0.53 I0.038 K0.315
G3 X139.374 Z0.563 I0.14 K-0.285
G17 G3 Y148.002 I0. J0.5
G18 G2 X139.235 Z0.53 I0. K-0.317
G3 X139.057 Z0.5 I-0.14 K0.285
G1 X3.17 Z17.
X0.
G3 X-0.14 Z17.032 I0. K0.317
G2 X-0.279 Z17.065 I-0.14 K-0.285
G17 G2 Y149.002 I0. J0.5
G18 G3 X-0.14 Z17.032 I0. K-0.318
G2 X0. Z17. I0.14 K0.285
G1 X3.17
X139.057 Z0.5
G2 X139.235 Z0.53 I0.038 K0.315
G3 X139.374 Z0.563 I0.14 K-0.285
G17 G3 Y150.002 I0. J0.5
G18 G2 X139.235 Z0.53 I0. K-0.317
G3 X139.057 Z0.5 I-0.14 K0.285
G1 X3.17 Z17.
X0.
G3 X-0.14 Z17.032 I0. K0.317
G2 X-0.279 Z17.065 I-0.14 K-0.285
G17 G2 Y151.002 I0. J0.5
G18 G3 X-0.14 Z17.032 I0. K-0.318
G2 X0. Z17. I0.14 K0.285
G1 X3.17
X139.057 Z0.5
G2 X139.235 Z0.53 I0.038 K0.315
G3 X139.374 Z0.563 I0.14 K-0.285
G17 G3 Y152.002 I0. J0.5
G18 G2 X139.235 Z0.53 I0. K-0.317
G3 X139.057 Z0.5 I-0.14 K0.285
G1 X3.17 Z17.
X0.
G3 X-0.14 Z17.032 I0. K0.317
G2 X-0.279 Z17.065 I-0.14 K-0.285
G17 G2 Y153.002 I0. J0.5
G18 G3 X-0.14 Z17.032 I0. K-0.318
G2 X0. Z17. I0.14 K0.285
G1 X3.17
X139.057 Z0.5
G2 X139.235 Z0.53 I0.038 K0.315
G3 X139.374 Z0.563 I0.14 K-0.285
G17 G3 Y154.002 I0. J0.5
G18 G2 X139.235 Z0.53 I0. K-0.317
G3 X139.057 Z0.5 I-0.14 K0.285
G1 X3.17 Z17.
X0.
G3 X-0.14 Z17.032 I0. K0.317
G2 X-0.279 Z17.065 I-0.14 K-0.285
G17 G2 Y155.002 I0. J0.5
G18 G3 X-0.14 Z17.032 I0. K-0.318
G2 X0. Z17. I0.14 K0.285
G1 X3.17
X139.057 Z0.5
G2 X139.235 Z0.53 I0.038 K0.315
G3 X139.374 Z0.563 I0.14 K-0.285
G17 G3 Y156.002 I0. J0.5
G18 G2 X139.235 Z0.53 I0. K-0.317
G3 X139.057 Z0.5 I-0.14 K0.285
G1 X3.17 Z17.
X0.
G3 X-0.14 Z17.032 I0. K0.317
G2 X-0.279 Z17.065 I-0.14 K-0.285
G17 G2 Y157.002 I0. J0.5
G18 G3 X-0.14 Z17.032 I0. K-0.318
G2 X0. Z17. I0.14 K0.285
G1 X3.17
X139.057 Z0.5
G2 X139.235 Z0.53 I0.038 K0.315
G3 X139.374 Z0.563 I0.14 K-0.285
G17 G3 Y158.002 I0. J0.5
G18 G2 X139.235 Z0.53 I0. K-0.317
G3 X139.057 Z0.5 I-0.14 K0.285
G1 X3.17 Z17.
X0.
G3 X-0.14 Z17.032 I0. K0.317
G2 X-0.279 Z17.065 I-0.14 K-0.285
G17 G2 Y159.002 I0. J0.5
G18 G3 X-0.14 Z17.032 I0. K-0.318
G2 X0. Z17. I0.14 K0.285
G1 X3.17
X139.057 Z0.5
G2 X139.235 Z0.53 I0.038 K0.315
G3 X139.374 Z0.563 I0.14 K-0.285
G17 G3 Y160.002 I0. J0.5
G18 G2 X139.235 Z0.53 I0. K-0.317
G3 X139.057 Z0.5 I-0.14 K0.285
G1 X3.17 Z17.
X0.
G3 X-0.14 Z17.032 I0. K0.317
G2 X-0.279 Z17.065 I-0.14 K-0.285
G17 G2 Y161.002 I0. J0.5
G18 G3 X-0.14 Z17.032 I0. K-0.318
G2 X0. Z17. I0.14 K0.285
G1 X3.17
X139.057 Z0.5
G2 X139.235 Z0.53 I0.038 K0.315
G3 X139.374 Z0.563 I0.14 K-0.285
G17 G3 Y162.002 I0. J0.5
G18 G2 X139.235 Z0.53 I0. K-0.317
G3 X139.057 Z0.5 I-0.14 K0.285
G1 X3.17 Z17.
X0.
G3 X-0.14 Z17.032 I0. K0.317
G2 X-0.279 Z17.065 I-0.14 K-0.285
G17 G2 Y163.002 I0. J0.5
G18 G3 X-0.14 Z17.032 I0. K-0.318
G2 X0. Z17. I0.14 K0.285
G1 X3.17
X139.057 Z0.5
G2 X139.235 Z0.53 I0.038 K0.315
G3 X139.374 Z0.563 I0.14 K-0.285
G17 G3 Y164.002 I0. J0.5
G18 G2 X139.235 Z0.53 I0. K-0.317
G3 X139.057 Z0.5 I-0.14 K0.285
G1 X3.17 Z17.
X0.
G3 X-0.14 Z17.032 I0. K0.317
G2 X-0.279 Z17.065 I-0.14 K-0.285
G17 G2 Y165.002 I0. J0.5
G18 G3 X-0.14 Z17.032 I0. K-0.318
G2 X0. Z17. I0.14 K0.285
G1 X3.17
X139.057 Z0.5
G2 X139.235 Z0.53 I0.038 K0.315
G3 X139.374 Z0.563 I0.14 K-0.285
G17 G3 Y166.002 I0. J0.5
G18 G2 X139.235 Z0.53 I0. K-0.317
G3 X139.057 Z0.5 I-0.14 K0.285
G1 X3.17 Z17.
X0.
G3 X-0.14 Z17.032 I0. K0.317
G2 X-0.279 Z17.065 I-0.14 K-0.285
G17 G2 Y167.002 I0. J0.5
G18 G3 X-0.14 Z17.032 I0. K-0.318
G2 X0. Z17. I0.14 K0.285
G1 X3.17
X139.057 Z0.5
G2 X139.235 Z0.53 I0.038 K0.315
G3 X139.374 Z0.563 I0.14 K-0.285
G17 G3 Y168.002 I0. J0.5
G18 G2 X139.235 Z0.53 I0. K-0.317
G3 X139.057 Z0.5 I-0.14 K0.285
G1 X3.17 Z17.
X0.
G3 X-0.14 Z17.032 I0. K0.317
G2 X-0.279 Z17.065 I-0.14 K-0.285
G17 G2 Y169.002 I0. J0.5
G18 G3 X-0.14 Z17.032 I0. K-0.318
G2 X0. Z17. I0.14 K0.285
G1 X3.17
X139.057 Z0.5
G2 X139.235 Z0.53 I0.038 K0.315
G3 X139.374 Z0.563 I0.14 K-0.285
G17 G3 Y170.002 I0. J0.5
G18 G2 X139.235 Z0.53 I0. K-0.317
G3 X139.057 Z0.5 I-0.14 K0.285
G1 X3.17 Z17.
X0.
G3 X-0.14 Z17.032 I0. K0.317
G2 X-0.279 Z17.065 I-0.14 K-0.285
G17 G2 Y171.002 I0. J0.5
G18 G3 X-0.14 Z17.032 I0. K-0.318
G2 X0. Z17. I0.14 K0.285
G1 X3.17
X139.057 Z0.5
G2 X139.235 Z0.53 I0.038 K0.315
G3 X139.374 Z0.563 I0.14 K-0.285
G17 G3 Y172.002 I0. J0.5
G18 G2 X139.235 Z0.53 I0. K-0.317
G3 X139.057 Z0.5 I-0.14 K0.285
G1 X3.17 Z17.
X0.
G3 X-0.14 Z17.032 I0. K0.317
G2 X-0.279 Z17.065 I-0.14 K-0.285
G17 G2 Y173.002 I0. J0.5
G18 G3 X-0.14 Z17.032 I0. K-0.318
G2 X0. Z17. I0.14 K0.285
G1 X3.17
X139.057 Z0.5
G2 X139.235 Z0.53 I0.038 K0.315
G3 X139.374 Z0.563 I0.14 K-0.285
G17 G3 Y174.001 I0. J0.5
G18 G2 X139.235 Z0.53 I0. K-0.317
G3 X139.057 Z0.5 I-0.14 K0.285
G1 X3.17 Z17.
X0.
G3 X-0.14 Z17.032 I0. K0.317
G2 X-0.279 Z17.065 I-0.14 K-0.285
G17 G2 Y175.001 I0. J0.5
G18 G3 X-0.14 Z17.032 I0. K-0.318
G2 X0. Z17. I0.14 K0.285
G1 X3.17
X139.057 Z0.5
G2 X139.235 Z0.53 I0.038 K0.315
G3 X139.374 Z0.563 I0.14 K-0.285
G17 G3 Y176.001 I0. J0.5
G18 G2 X139.235 Z0.53 I0. K-0.317
G3 X139.057 Z0.5 I-0.14 K0.285
G1 X3.17 Z17.
X0.
G3 X-0.14 Z17.032 I0. K0.317
G2 X-0.279 Z17.065 I-0.14 K-0.285
G17 G2 Y177.001 I0. J0.5
G18 G3 X-0.14 Z17.032 I0. K-0.318
G2 X0. Z17. I0.14 K0.285
G1 X3.17
X139.057 Z0.5
G2 X139.235 Z0.53 I0.038 K0.315
G3 X139.374 Z0.563 I0.14 K-0.285
G17 G3 Y178.001 I0. J0.5
G18 G2 X139.235 Z0.53 I0. K-0.317
G3 X139.057 Z0.5 I-0.14 K0.285
G1 X3.17 Z17.
X0.
G3 X-0.14 Z17.032 I0. K0.317
G2 X-0.279 Z17.065 I-0.14 K-0.285
G17 G2 Y179.001 I0. J0.5
G18 G3 X-0.14 Z17.032 I0. K-0.318
G2 X0. Z17. I0.14 K0.285
G1 X3.17
X139.057 Z0.5
G2 X139.235 Z0.53 I0.038 K0.315
G3 X139.374 Z0.563 I0.14 K-0.285
G17 G3 Y180.001 I0. J0.5
G18 G2 X139.235 Z0.53 I0. K-0.317
G3 X139.057 Z0.5 I-0.14 K0.285
G1 X3.17 Z17.
X0.
G3 X-0.14 Z17.032 I0. K0.317
G2 X-0.279 Z17.065 I-0.14 K-0.285
G17 G2 Y181.001 I0. J0.5
G18 G3 X-0.14 Z17.032 I0. K-0.318
G2 X0. Z17. I0.14 K0.285
G1 X3.17
X139.057 Z0.5
G2 X139.235 Z0.53 I0.038 K0.315
G3 X139.374 Z0.563 I0.14 K-0.285
G17 G3 Y182.001 I0. J0.5
G18 G2 X139.235 Z0.53 I0. K-0.317
G3 X139.057 Z0.5 I-0.14 K0.285
G1 X3.17 Z17.
X0.
G3 X-0.14 Z17.032 I0. K0.317
G2 X-0.279 Z17.065 I-0.14 K-0.285
G17 G2 Y183.001 I0. J0.5
G18 G3 X-0.14 Z17.032 I0. K-0.318
G2 X0. Z17. I0.14 K0.285
G1 X3.17
X139.057 Z0.5
G2 X139.235 Z0.53 I0.038 K0.315
G3 X139.374 Z0.563 I0.14 K-0.285
G17 G3 Y184.001 I0. J0.5
G18 G2 X139.235 Z0.53 I0. K-0.317
G3 X139.057 Z0.5 I-0.14 K0.285
G1 X3.17 Z17.
X0.
G3 X-0.14 Z17.032 I0. K0.317
G2 X-0.279 Z17.065 I-0.14 K-0.285
G17 G2 Y185.001 I0. J0.5
G18 G3 X-0.14 Z17.032 I0. K-0.318
G2 X0. Z17. I0.14 K0.285
G1 X3.17
X139.057 Z0.5
G2 X139.235 Z0.53 I0.038 K0.315
G3 X139.374 Z0.563 I0.14 K-0.285
G17 G3 Y186.001 I0. J0.5
G18 G2 X139.235 Z0.53 I0. K-0.317
G3 X139.057 Z0.5 I-0.14 K0.285
G1 X3.17 Z17.
X0.
G3 X-0.14 Z17.032 I0. K0.317
G2 X-0.279 Z17.065 I-0.14 K-0.285
G17 G2 Y187.001 I0. J0.5
G18 G3 X-0.14 Z17.032 I0. K-0.318
G2 X0. Z17. I0.14 K0.285
G1 X3.17
X139.057 Z0.5
G2 X139.235 Z0.53 I0.038 K0.315
G3 X139.374 Z0.563 I0.14 K-0.285
G17 G3 Y188.001 I0. J0.5
G18 G2 X139.235 Z0.53 I0. K-0.317
G3 X139.057 Z0.5 I-0.14 K0.285
G1 X3.17 Z17.
X0.
G3 X-0.14 Z17.032 I0. K0.317
G2 X-0.279 Z17.065 I-0.14 K-0.285
G17 G2 Y189.001 I0. J0.5
G18 G3 X-0.14 Z17.032 I0. K-0.318
G2 X0. Z17. I0.14 K0.285
G1 X3.17
X139.057 Z0.5
G2 X139.235 Z0.53 I0.038 K0.315
G3 X139.374 Z0.563 I0.14 K-0.285
G17 G3 Y190.001 I0. J0.5
G18 G2 X139.235 Z0.53 I0. K-0.317
G3 X139.057 Z0.5 I-0.14 K0.285
G1 X3.17 Z17.
X0.
G3 X-0.14 Z17.032 I0. K0.317
G2 X-0.279 Z17.065 I-0.14 K-0.285
G17 G2 Y191.001 I0. J0.5
G18 G3 X-0.14 Z17.032 I0. K-0.318
G2 X0. Z17. I0.14 K0.285
G1 X3.17
X139.057 Z0.5
G2 X139.235 Z0.53 I0.038 K0.315
G3 X139.374 Z0.563 I0.14 K-0.285
G17 G3 Y192.001 I0. J0.5
G18 G2 X139.235 Z0.53 I0. K-0.317
G3 X139.057 Z0.5 I-0.14 K0.285
G1 X3.17 Z17.
X0.
G3 X-0.14 Z17.032 I0. K0.317
G2 X-0.279 Z17.065 I-0.14 K-0.285
G17 G2 Y193.001 I0. J0.5
G18 G3 X-0.14 Z17.032 I0. K-0.318
G2 X0. Z17. I0.14 K0.285
G1 X3.17
X139.057 Z0.5
G2 X139.235 Z0.53 I0.038 K0.315
G3 X139.374 Z0.563 I0.14 K-0.285
G17 G3 Y194.001 I0. J0.5
G18 G2 X139.235 Z0.53 I0. K-0.317
G3 X139.057 Z0.5 I-0.14 K0.285
G1 X3.17 Z17.
X0.
G3 X-0.14 Z17.032 I0. K0.317
G2 X-0.279 Z17.065 I-0.14 K-0.285
G17 G2 Y195.001 I0. J0.5
G18 G3 X-0.14 Z17.032 I0. K-0.318
G2 X0. Z17. I0.14 K0.285
G1 X3.17
X139.057 Z0.5
G2 X139.235 Z0.53 I0.038 K0.315
G3 X139.374 Z0.563 I0.14 K-0.285
G17 G3 Y196.001 I0. J0.5
G18 G2 X139.235 Z0.53 I0. K-0.317
G3 X139.057 Z0.5 I-0.14 K0.285
G1 X3.17 Z17.
X0.
G3 X-0.14 Z17.032 I0. K0.317
G2 X-0.279 Z17.065 I-0.14 K-0.285
G17 G2 Y197.001 I0. J0.5
G18 G3 X-0.14 Z17.032 I0. K-0.318
G2 X0. Z17. I0.14 K0.285
G1 X3.17
X139.057 Z0.5
G2 X139.235 Z0.53 I0.038 K0.315
G3 X139.374 Z0.563 I0.14 K-0.285
G17 G3 Y198.001 I0. J0.5
G18 G2 X139.235 Z0.53 I0. K-0.317
G3 X139.057 Z0.5 I-0.14 K0.285
G1 X3.17 Z17.
X0.
G3 X-0.14 Z17.032 I0. K0.317
G2 X-0.279 Z17.065 I-0.14 K-0.285
G17 G2 Y199.001 I0. J0.5
G18 G3 X-0.14 Z17.032 I0. K-0.318
G2 X0. Z17. I0.14 K0.285
G1 X3.17
X139.057 Z0.5
G2 X139.235 Z0.53 I0.038 K0.315
G3 X139.374 Z0.563 I0.14 K-0.285
G17 G3 Y200.001 I0. J0.5
G18 G2 X139.235 Z0.53 I0. K-0.317
G3 X139.057 Z0.5 I-0.14 K0.285
G1 X3.17 Z17.
X0.
G3 X-0.14 Z17.032 I0. K0.317
G2 X-0.279 Z17.065 I-0.14 K-0.285
G17 G2 Y201.001 I0. J0.5
G18 G3 X-0.14 Z17.032 I0. K-0.318
G2 X0. Z17. I0.14 K0.285
G1 X3.17
X139.057 Z0.5
G2 X139.235 Z0.53 I0.038 K0.315
G3 X139.374 Z0.563 I0.14 K-0.285
G17 G3 Y202.001 I0. J0.5
G18 G2 X139.235 Z0.53 I0. K-0.317
G3 X139.057 Z0.5 I-0.14 K0.285
G1 X3.17 Z17.
X0.
G3 X-0.14 Z17.032 I0. K0.317
G2 X-0.279 Z17.065 I-0.14 K-0.285
G17 G2 Y203.001 I0. J0.5
G18 G3 X-0.14 Z17.032 I0. K-0.318
G2 X0. Z17. I0.14 K0.285
G1 X3.17
X139.057 Z0.5
G2 X139.235 Z0.53 I0.038 K0.315
G3 X139.374 Z0.563 I0.14 K-0.285
G17 G3 Y204.001 I0. J0.5
G18 G2 X139.235 Z0.53 I0. K-0.317
G3 X139.057 Z0.5 I-0.14 K0.285
G1 X3.17 Z17.
X0.
G3 X-0.14 Z17.032 I0. K0.317
G2 X-0.279 Z17.065 I-0.14 K-0.285
G17 G2 Y205.001 I0. J0.5
G18 G3 X-0.14 Z17.032 I0. K-0.318
G2 X0. Z17. I0.14 K0.285
G1 X3.17
X139.057 Z0.5
G2 X139.235 Z0.53 I0.038 K0.315
G3 X139.374 Z0.563 I0.14 K-0.285
G17 G3 Y206.001 I0. J0.5
G18 G2 X139.235 Z0.53 I0. K-0.317
G3 X139.057 Z0.5 I-0.14 K0.285
G1 X3.17 Z17.
X0.
G3 X-0.14 Z17.032 I0. K0.317
G2 X-0.279 Z17.065 I-0.14 K-0.285
G17 G2 Y207.001 I0. J0.5
G18 G3 X-0.14 Z17.032 I0. K-0.318
G2 X0. Z17. I0.14 K0.285
G1 X3.17
X139.057 Z0.5
G2 X139.235 Z0.53 I0.038 K0.315
G3 X139.374 Z0.563 I0.14 K-0.285
G17 G3 Y208.001 I0. J0.5
G18 G2 X139.235 Z0.53 I0. K-0.317
G3 X139.057 Z0.5 I-0.14 K0.285
G1 X3.17 Z17.
X0.
G3 X-0.14 Z17.032 I0. K0.317
G2 X-0.279 Z17.065 I-0.14 K-0.285
G17 G2 Y209.001 I0. J0.5
G18 G3 X-0.14 Z17.032 I0. K-0.318
G2 X0. Z17. I0.14 K0.285
G1 X3.17
X139.057 Z0.5
G2 X139.235 Z0.53 I0.038 K0.315
G3 X139.374 Z0.563 I0.14 K-0.285
G17 G3 Y210.001 I0. J0.5
G18 G2 X139.235 Z0.53 I0. K-0.317
G3 X139.057 Z0.5 I-0.14 K0.285
G1 X3.17 Z17.
X0.
G3 X-0.14 Z17.032 I0. K0.317
G2 X-0.279 Z17.065 I-0.14 K-0.285
G17 G2 Y211.001 I0. J0.5
G18 G3 X-0.14 Z17.032 I0. K-0.318
G2 X0. Z17. I0.14 K0.285
G1 X3.17
X139.057 Z0.5
G2 X139.235 Z0.53 I0.038 K0.315
G3 X139.374 Z0.563 I0.14 K-0.285
G17 G3 Y212.001 I0. J0.5
G18 G2 X139.235 Z0.53 I0. K-0.317
G3 X139.057 Z0.5 I-0.14 K0.285
G1 X3.17 Z17.
X0.
G3 X-0.14 Z17.032 I0. K0.317
G2 X-0.279 Z17.065 I-0.14 K-0.285
G17 G2 Y213.001 I0. J0.5
G18 G3 X-0.14 Z17.032 I0. K-0.318
G2 X0. Z17. I0.14 K0.285
G1 X3.17
X139.057 Z0.5
G2 X139.235 Z0.53 I0.038 K0.315
G3 X139.374 Z0.563 I0.14 K-0.285
G17 G3 Y214.001 I0. J0.5
G18 G2 X139.235 Z0.53 I0. K-0.317
G3 X139.057 Z0.5 I-0.14 K0.285
G1 X3.17 Z17.
X0.
G3 X-0.14 Z17.032 I0. K0.317
G2 X-0.279 Z17.065 I-0.14 K-0.285
G17 G2 Y215.001 I0. J0.5
G18 G3 X-0.14 Z17.032 I0. K-0.318
G2 X0. Z17. I0.14 K0.285
G1 X3.17
X139.057 Z0.5
G2 X139.235 Z0.53 I0.038 K0.315
G3 X139.374 Z0.563 I0.14 K-0.285
G17 G3 Y216.001 I0. J0.5
G18 G2 X139.235 Z0.53 I0. K-0.317
G3 X139.057 Z0.5 I-0.14 K0.285
G1 X3.17 Z17.
X0.
G3 X-0.14 Z17.032 I0. K0.317
G2 X-0.279 Z17.065 I-0.14 K-0.285
G17 G2 Y217.001 I0. J0.5
G18 G3 X-0.14 Z17.032 I0. K-0.318
G2 X0. Z17. I0.14 K0.285
G1 X3.17
X139.057 Z0.5
G2 X139.235 Z0.53 I0.038 K0.315
G3 X139.374 Z0.563 I0.14 K-0.285
G17 G3 Y218.001 I0. J0.5
G18 G2 X139.235 Z0.53 I0. K-0.317
G3 X139.057 Z0.5 I-0.14 K0.285
G1 X3.17 Z17.
X0.
G3 X-0.14 Z17.032 I0. K0.317
G2 X-0.279 Z17.065 I-0.14 K-0.285
G17 G2 Y219.001 I0. J0.5
G18 G3 X-0.14 Z17.032 I0. K-0.318
G2 X0. Z17. I0.14 K0.285
G1 X3.17
X139.057 Z0.5
G2 X139.235 Z0.53 I0.038 K0.315
G3 X139.374 Z0.563 I0.14 K-0.285
G17 G3 Y220.001 I0. J0.5
G18 G2 X139.235 Z0.53 I0. K-0.317
G3 X139.057 Z0.5 I-0.14 K0.285
G1 X3.17 Z17.
X0.
G3 X-0.14 Z17.032 I0. K0.317
G2 X-0.279 Z17.065 I-0.14 K-0.285
G17 G2 Y221.001 I0. J0.5
G18 G3 X-0.14 Z17.032 I0. K-0.318
G2 X0. Z17. I0.14 K0.285
G1 X3.17
X139.057 Z0.5
G2 X139.235 Z0.53 I0.038 K0.315
G3 X139.374 Z0.563 I0.14 K-0.285
G17 G3 Y222.001 I0. J0.5
G18 G2 X139.235 Z0.53 I0. K-0.317
G3 X139.057 Z0.5 I-0.14 K0.285
G1 X3.17 Z17.
X0.
G3 X-0.14 Z17.032 I0. K0.317
G2 X-0.279 Z17.065 I-0.14 K-0.285
G17 G2 Y223. I0. J0.5
G18 G3 X-0.14 Z17.032 I0. K-0.318
G2 X0. Z17. I0.14 K0.285
G1 X3.17
X139.057 Z0.5
G2 X139.235 Z0.53 I0.038 K0.315
G3 X139.374 Z0.563 I0.14 K-0.285
G17 G3 Y224. I0. J0.5
G18 G2 X139.235 Z0.53 I0. K-0.317
G3 X139.057 Z0.5 I-0.14 K0.285
G1 X3.17 Z17.
X0.
G3 X-0.14 Z17.032 I0. K0.317
G2 X-0.279 Z17.065 I-0.14 K-0.285
G17 G2 Y225. I0. J0.5
G18 G3 X-0.14 Z17.032 I0. K-0.318
G2 X0. Z17. I0.14 K0.285
G1 X3.17
X139.057 Z0.5
G2 X139.235 Z0.53 I0.038 K0.315
G3 X139.374 Z0.563 I0.14 K-0.285
G17 G3 Y226. I0. J0.5
G18 G2 X139.235 Z0.53 I0. K-0.317
G3 X139.057 Z0.5 I-0.14 K0.285
G1 X3.17 Z17.
X0.
G3 X-0.14 Z17.032 I0. K0.317
G2 X-0.279 Z17.065 I-0.14 K-0.285
G17 G2 Y227. I0. J0.5
G18 G3 X-0.14 Z17.032 I0. K-0.318
G2 X0. Z17. I0.14 K0.285
G1 X3.17
X139.057 Z0.5
G2 X139.235 Z0.53 I0.038 K0.315
G3 X139.374 Z0.563 I0.14 K-0.285
G17 G3 Y228. I0. J0.5
G18 G2 X139.235 Z0.53 I0. K-0.317
G3 X139.057 Z0.5 I-0.14 K0.285
G1 X3.17 Z17.
X0.
G3 X-0.14 Z17.032 I0. K0.317
G2 X-0.279 Z17.065 I-0.14 K-0.285
G17 G2 Y229. I0. J0.5
G18 G3 X-0.14 Z17.032 I0. K-0.318
G2 X0. Z17. I0.14 K0.285
G1 X3.17
X139.057 Z0.5
G2 X139.235 Z0.53 I0.038 K0.315
G3 X139.374 Z0.563 I0.14 K-0.285
G17 G3 Y230. I0. J0.5
G18 G2 X139.235 Z0.53 I0. K-0.317
G3 X139.057 Z0.5 I-0.14 K0.285
G1 X3.17 Z17.
X0.
G3 X-0.14 Z17.032 I0. K0.317
G2 X-0.279 Z17.065 I-0.14 K-0.285
G17 G2 Y231. I0. J0.5
G18 G3 X-0.14 Z17.032 I0. K-0.318
G2 X0. Z17. I0.14 K0.285
G1 X3.17
X139.057 Z0.5
G2 X139.235 Z0.53 I0.038 K0.315
G3 X139.374 Z0.563 I0.14 K-0.285
G17 G3 Y232. I0. J0.5
G18 G2 X139.235 Z0.53 I0. K-0.317
G3 X139.057 Z0.5 I-0.14 K0.285
G1 X3.17 Z17.
X0.
G3 X-0.14 Z17.032 I0. K0.317
G2 X-0.279 Z17.065 I-0.14 K-0.285
G17 G2 Y233. I0. J0.5
G18 G3 X-0.14 Z17.032 I0. K-0.318
G2 X0. Z17. I0.14 K0.285
G1 X3.17
X139.057 Z0.5
G2 X139.235 Z0.53 I0.038 K0.315
G3 X139.374 Z0.563 I0.14 K-0.285
G17 G3 Y234. I0. J0.5
G18 G2 X139.235 Z0.53 I0. K-0.317
G3 X139.057 Z0.5 I-0.14 K0.285
G1 X3.17 Z17.
X0.
G3 X-0.14 Z17.032 I0. K0.317
G2 X-0.279 Z17.065 I-0.14 K-0.285
G17 G2 Y235. I0. J0.5
G18 G3 X-0.14 Z17.032 I0. K-0.318
G2 X0. Z17. I0.14 K0.285
G1 X3.17
X139.057 Z0.5
G2 X139.235 Z0.53 I0.038 K0.315
G3 X139.374 Z0.563 I0.14 K-0.285
G17 G3 Y236. I0. J0.5
G18 G2 X139.235 Z0.53 I0. K-0.317
G3 X139.057 Z0.5 I-0.14 K0.285
G1 X3.17 Z17.
X0.
G3 X-0.14 Z17.032 I0. K0.317
G2 X-0.279 Z17.065 I-0.14 K-0.285
G17 G2 Y237. I0. J0.5
G18 G3 X-0.14 Z17.032 I0. K-0.318
G2 X0. Z17. I0.14 K0.285
G1 X3.17
X139.057 Z0.5
G2 X139.235 Z0.53 I0.038 K0.315
G3 X139.374 Z0.563 I0.14 K-0.285
G17 G3 Y238. I0. J0.5
G18 G2 X139.235 Z0.53 I0. K-0.317
G3 X139.057 Z0.5 I-0.14 K0.285
G1 X3.17 Z17.
X0.
G3 X-0.14 Z17.032 I0. K0.317
G2 X-0.279 Z17.065 I-0.14 K-0.285
G17 G2 Y239. I0. J0.5
G18 G3 X-0.14 Z17.032 I0. K-0.318
G2 X0. Z17. I0.14 K0.285
G1 X3.17
X139.057 Z0.5
G2 X139.235 Z0.53 I0.038 K0.315
G3 X139.374 Z0.563 I0.14 K-0.285
G17 G3 Y240. I0. J0.5
G18 G2 X139.235 Z0.53 I0. K-0.317
G3 X139.057 Z0.5 I-0.14 K0.285
G1 X3.17 Z17.
X0.
G3 X-0.14 Z17.032 I0. K0.317
G2 X-0.279 Z17.065 I-0.14 K-0.285
G17 G2 Y241. I0. J0.5
G18 G3 X-0.14 Z17.032 I0. K-0.318
G2 X0. Z17. I0.14 K0.285
G1 X3.17
X139.057 Z0.5
G2 X139.235 Z0.53 I0.038 K0.315
G3 X139.374 Z0.563 I0.14 K-0.285
G17 G3 Y242. I0. J0.5
G18 G2 X139.235 Z0.53 I0. K-0.317
G3 X139.057 Z0.5 I-0.14 K0.285
G1 X3.17 Z17.
X0.
G3 X-0.14 Z17.032 I0. K0.317
G2 X-0.279 Z17.065 I-0.14 K-0.285
G17 G2 Y243. I0. J0.5
G18 G3 X-0.14 Z17.032 I0. K-0.318
G2 X0. Z17. I0.14 K0.285
G1 X3.17
X139.057 Z0.5
G2 X139.235 Z0.53 I0.038 K0.315
G3 X139.374 Z0.563 I0.14 K-0.285
G17 G3 Y244. I0. J0.5
G18 G2 X139.235 Z0.53 I0. K-0.317
G3 X139.057 Z0.5 I-0.14 K0.285
G1 X3.17 Z17.
X0.
G3 X-0.14 Z17.032 I0. K0.317
G2 X-0.279 Z17.065 I-0.14 K-0.285
G17 G2 Y245. I0. J0.5
G18 G3 X-0.14 Z17.032 I0. K-0.318
G2 X0. Z17. I0.14 K0.285
G1 X3.17
X139.057 Z0.5
G2 X139.235 Z0.53 I0.038 K0.315
G3 X139.374 Z0.563 I0.14 K-0.285
G17 G3 Y246. I0. J0.5
G18 G2 X139.235 Z0.53 I0. K-0.317
G3 X139.057 Z0.5 I-0.14 K0.285
G1 X3.17 Z17.
X0.
G3 X-0.14 Z17.032 I0. K0.317
G2 X-0.279 Z17.065 I-0.14 K-0.285
G17 G2 Y247. I0. J0.5
G18 G3 X-0.14 Z17.032 I0. K-0.318
G2 X0. Z17. I0.14 K0.285
G1 X3.17
X139.057 Z0.5
G2 X139.235 Z0.53 I0.038 K0.315
G3 X139.374 Z0.563 I0.14 K-0.285
G17 G3 Y248. I0. J0.5
G18 G2 X139.235 Z0.53 I0. K-0.317
G3 X139.057 Z0.5 I-0.14 K0.285
G1 X3.17 Z17.
X0.
G3 X-0.14 Z17.032 I0. K0.317
G2 X-0.279 Z17.065 I-0.14 K-0.285
G17 G2 Y249. I0. J0.5
G18 G3 X-0.14 Z17.032 I0. K-0.318
G2 X0. Z17. I0.14 K0.285
G1 X3.17
X139.057 Z0.5
G2 X139.235 Z0.53 I0.038 K0.315
G3 X139.374 Z0.563 I0.14 K-0.285
G17 G3 Y250. I0. J0.5
G18 G2 X139.235 Z0.53 I0. K-0.317
G3 X139.057 Z0.5 I-0.14 K0.285
G1 X3.17 Z17.
X0.
G3 X-0.14 Z17.032 I0. K0.317
G2 X-0.279 Z17.065 I-0.14 K-0.285
G17 G2 Y251. I0. J0.5
G18 G3 X-0.14 Z17.032 I0. K-0.318
G2 X0. Z17. I0.14 K0.285
G1 X3.17
X139.057 Z0.5
G2 X139.235 Z0.53 I0.038 K0.315
G3 X139.374 Z0.563 I0.14 K-0.285
G17 G3 Y252. I0. J0.5
G18 G2 X139.235 Z0.53 I0. K-0.317
G3 X139.057 Z0.5 I-0.14 K0.285
G1 X3.17 Z17.
X0.
G3 X-0.14 Z17.032 I0. K0.317
G2 X-0.279 Z17.065 I-0.14 K-0.285
G17 G2 Y253. I0. J0.5
G18 G3 X-0.14 Z17.032 I0. K-0.318
G2 X0. Z17. I0.14 K0.285
G1 X3.17
X139.057 Z0.5
G2 X139.235 Z0.53 I0.038 K0.315
G3 X139.374 Z0.563 I0.14 K-0.285
G17 G3 Y254. I0. J0.5
G18 G2 X139.235 Z0.53 I0. K-0.317
G3 X139.057 Z0.5 I-0.14 K0.285
G1 X3.17 Z17.
X0.
G3 X-0.14 Z17.032 I0. K0.317
G2 X-0.279 Z17.065 I-0.14 K-0.285
G17 G2 Y255. I0. J0.5
G18 G3 X-0.14 Z17.032 I0. K-0.318
G2 X0. Z17. I0.14 K0.285
G1 X3.17
X139.057 Z0.5
G2 X139.235 Z0.53 I0.038 K0.315
G3 X139.374 Z0.563 I0.14 K-0.285
G17 G3 Y256. I0. J0.5
G18 G2 X139.235 Z0.53 I0. K-0.317
G3 X139.057 Z0.5 I-0.14 K0.285
G1 X3.17 Z17.
X0.
G3 X-0.14 Z17.032 I0. K0.317
G2 X-0.279 Z17.065 I-0.14 K-0.285
G17 G2 Y257. I0. J0.5
G18 G3 X-0.14 Z17.032 I0. K-0.318
G2 X0. Z17. I0.14 K0.285
G1 X3.17
X139.057 Z0.5
G2 X139.235 Z0.53 I0.038 K0.315
G3 X139.374 Z0.563 I0.14 K-0.285
G17 G3 Y258. I0. J0.5
G18 G2 X139.235 Z0.53 I0. K-0.317
G3 X139.057 Z0.5 I-0.14 K0.285
G1 X3.17 Z17.
X0.
G3 X-0.14 Z17.032 I0. K0.317
G2 X-0.279 Z17.065 I-0.14 K-0.285
G17 G2 Y259. I0. J0.5
G18 G3 X-0.14 Z17.032 I0. K-0.318
G2 X0. Z17. I0.14 K0.285
G1 X3.17
X139.057 Z0.5
G2 X139.235 Z0.53 I0.038 K0.315
G3 X139.374 Z0.563 I0.14 K-0.285
G17 G3 Y260. I0. J0.5
G18 G2 X139.235 Z0.53 I0. K-0.317
G3 X139.057 Z0.5 I-0.14 K0.285
G1 X3.17 Z17.
X0.
G3 X-0.14 Z17.032 I0. K0.317
G2 X-0.279 Z17.065 I-0.14 K-0.285
G17 G2 Y261. I0. J0.5
G18 G3 X-0.14 Z17.032 I0. K-0.318
G2 X0. Z17. I0.14 K0.285
G1 X3.17
X139.057 Z0.5
G2 X139.235 Z0.53 I0.038 K0.315
G3 X139.374 Z0.563 I0.14 K-0.285
G17 G3 Y262. I0. J0.5
G18 G2 X139.235 Z0.53 I0. K-0.317
G3 X139.057 Z0.5 I-0.14 K0.285
G1 X3.17 Z17.
X0.
G3 X-0.14 Z17.032 I0. K0.317
G2 X-0.279 Z17.065 I-0.14 K-0.285
G17 G2 Y263. I0. J0.5
G18 G3 X-0.14 Z17.032 I0. K-0.318
G2 X0. Z17. I0.14 K0.285
G1 X3.17
X139.057 Z0.5
G2 X139.235 Z0.53 I0.038 K0.315
G3 X139.374 Z0.563 I0.14 K-0.285
G17 G3 Y264. I0. J0.5
G18 G2 X139.235 Z0.53 I0. K-0.317
G3 X139.057 Z0.5 I-0.14 K0.285
G1 X3.17 Z17.
X0.
G3 X-0.14 Z17.032 I0. K0.317
G2 X-0.279 Z17.065 I-0.14 K-0.285
G17 G2 Y265. I0. J0.5
G18 G3 X-0.14 Z17.032 I0. K-0.318
G2 X0. Z17. I0.14 K0.285
G1 X3.17
X139.057 Z0.5
G2 X139.235 Z0.53 I0.038 K0.315
G3 X139.374 Z0.563 I0.14 K-0.285
G17 G3 Y266. I0. J0.5
G18 G2 X139.235 Z0.53 I0. K-0.317
G3 X139.057 Z0.5 I-0.14 K0.285
G1 X3.17 Z17.
X0.
G3 X-0.14 Z17.032 I0. K0.317
G2 X-0.279 Z17.065 I-0.14 K-0.285
G17 G2 Y267. I0. J0.5
G18 G3 X-0.14 Z17.032 I0. K-0.318
G2 X0. Z17. I0.14 K0.285
G1 X3.17
X139.057 Z0.5
G2 X139.235 Z0.53 I0.038 K0.315
G3 X139.374 Z0.563 I0.14 K-0.285
G17 G3 Y268. I0. J0.5
G18 G2 X139.235 Z0.53 I0. K-0.317
G3 X139.057 Z0.5 I-0.14 K0.285
G1 X3.17 Z17.
X0.
G3 X-0.14 Z17.032 I0. K0.317
G2 X-0.279 Z17.065 I-0.14 K-0.285
G17 G2 Y269. I0. J0.5
G18 G3 X-0.14 Z17.032 I0. K-0.318
G2 X0. Z17. I0.14 K0.285
G1 X3.17
X139.057 Z0.5
G2 X139.235 Z0.53 I0.038 K0.315
G3 X139.374 Z0.563 I0.14 K-0.285
G17 G3 Y270. I0. J0.5
G18 G2 X139.235 Z0.53 I0. K-0.317
G3 X139.057 Z0.5 I-0.14 K0.285
G1 X3.17 Z17.
X0.
G3 X-0.14 Z17.032 I0. K0.317
G2 X-0.279 Z17.065 I-0.14 K-0.285
G17 G2 Y271. I0. J0.5
G18 G3 X-0.14 Z17.032 I0. K-0.318
G2 X0. Z17. I0.14 K0.285
G1 X3.17
X139.057 Z0.5
G2 X139.235 Z0.53 I0.038 K0.315
G3 X139.374 Z0.563 I0.14 K-0.285
G17 G3 Y272. I0. J0.5
G18 G2 X139.235 Z0.53 I0. K-0.317
G3 X139.057 Z0.5 I-0.14 K0.285
G1 X3.17 Z17.
X0.
G3 X-0.14 Z17.032 I0. K0.317
G2 X-0.279 Z17.065 I-0.14 K-0.285
G17 G2 Y272.999 I0. J0.5
G18 G3 X-0.14 Z17.032 I0. K-0.318
G2 X0. Z17. I0.14 K0.285
G1 X3.17
X139.057 Z0.5
G2 X139.235 Z0.53 I0.038 K0.315
G3 X139.374 Z0.563 I0.14 K-0.285
G17 G3 Y273.999 I0. J0.5
G18 G2 X139.235 Z0.53 I0. K-0.317
G3 X139.057 Z0.5 I-0.14 K0.285
G1 X3.17 Z17.
X0.
G3 X-0.14 Z17.032 I0. K0.317
G2 X-0.279 Z17.065 I-0.14 K-0.285
G17 G2 Y274.999 I0. J0.5
G18 G3 X-0.14 Z17.032 I0. K-0.318
G2 X0. Z17. I0.14 K0.285
G1 X3.17
X139.057 Z0.5
G2 X139.235 Z0.53 I0.038 K0.315
G3 X139.374 Z0.563 I0.14 K-0.285
G17 G3 Y275.999 I0. J0.5
G18 G2 X139.235 Z0.53 I0. K-0.317
G3 X139.057 Z0.5 I-0.14 K0.285
G1 X3.17 Z17.
X0.
G3 X-0.14 Z17.032 I0. K0.317
G2 X-0.279 Z17.065 I-0.14 K-0.285
G17 G2 Y276.999 I0. J0.5
G18 G3 X-0.14 Z17.032 I0. K-0.318
G2 X0. Z17. I0.14 K0.285
G1 X3.17
X139.057 Z0.5
G2 X139.235 Z0.53 I0.038 K0.315
G3 X139.374 Z0.563 I0.14 K-0.285
G17 G3 Y277.999 I0. J0.5
G18 G2 X139.235 Z0.53 I0. K-0.317
G3 X139.057 Z0.5 I-0.14 K0.285
G1 X3.17 Z17.
X0.
G3 X-0.14 Z17.032 I0. K0.317
G2 X-0.279 Z17.065 I-0.14 K-0.285
G17 G2 Y278.999 I0. J0.5
G18 G3 X-0.14 Z17.032 I0. K-0.318
G2 X0. Z17. I0.14 K0.285
G1 X3.17
X139.057 Z0.5
G2 X139.235 Z0.53 I0.038 K0.315
G3 X139.374 Z0.563 I0.14 K-0.285
G17 G3 Y279.999 I0. J0.5
G18 G2 X139.235 Z0.53 I0. K-0.317
G3 X139.057 Z0.5 I-0.14 K0.285
G1 X3.17 Z17.
X0.
G3 X-0.14 Z17.032 I0. K0.317
G2 X-0.279 Z17.065 I-0.14 K-0.285
G17 G2 Y280.999 I0. J0.5
G18 G3 X-0.14 Z17.032 I0. K-0.318
G2 X0. Z17. I0.14 K0.285
G1 X3.17
X139.057 Z0.5
G2 X139.235 Z0.53 I0.038 K0.315
G3 X139.374 Z0.563 I0.14 K-0.285
G17 G3 Y281.999 I0. J0.5
G18 G2 X139.235 Z0.53 I0. K-0.317
G3 X139.057 Z0.5 I-0.14 K0.285
G1 X3.17 Z17.
X0.
G3 X-0.14 Z17.032 I0. K0.317
G2 X-0.279 Z17.065 I-0.14 K-0.285
G17 G2 Y282.999 I0. J0.5
G18 G3 X-0.14 Z17.032 I0. K-0.318
G2 X0. Z17. I0.14 K0.285
G1 X3.17
X139.057 Z0.5
G2 X139.235 Z0.53 I0.038 K0.315
G3 X139.374 Z0.563 I0.14 K-0.285
G17 G3 Y283.999 I0. J0.5
G18 G2 X139.235 Z0.53 I0. K-0.317
G3 X139.057 Z0.5 I-0.14 K0.285
G1 X3.17 Z17.
X0.
G3 X-0.14 Z17.032 I0. K0.317
G2 X-0.279 Z17.065 I-0.14 K-0.285
G17 G2 Y284.999 I0. J0.5
G18 G3 X-0.14 Z17.032 I0. K-0.318
G2 X0. Z17. I0.14 K0.285
G1 X3.17
X139.057 Z0.5
G2 X139.235 Z0.53 I0.038 K0.315
G3 X139.374 Z0.563 I0.14 K-0.285
G17 G3 Y285.999 I0. J0.5
G18 G2 X139.235 Z0.53 I0. K-0.317
G3 X139.057 Z0.5 I-0.14 K0.285
G1 X3.17 Z17.
X0.
G3 X-0.14 Z17.032 I0. K0.317
G2 X-0.279 Z17.065 I-0.14 K-0.285
G17 G2 Y286.999 I0. J0.5
G18 G3 X-0.14 Z17.032 I0. K-0.318
G2 X0. Z17. I0.14 K0.285
G1 X3.17
X139.057 Z0.5
G2 X139.235 Z0.53 I0.038 K0.315
G3 X139.374 Z0.563 I0.14 K-0.285
G17 G3 Y287.999 I0. J0.5
G18 G2 X139.235 Z0.53 I0. K-0.317
G3 X139.057 Z0.5 I-0.14 K0.285
G1 X3.17 Z17.
X0.
G3 X-0.14 Z17.032 I0. K0.317
G2 X-0.279 Z17.065 I-0.14 K-0.285
G17 G2 Y288.999 I0. J0.5
G18 G3 X-0.14 Z17.032 I0. K-0.318
G2 X0. Z17. I0.14 K0.285
G1 X3.17
X139.057 Z0.5
G2 X139.235 Z0.53 I0.038 K0.315
G3 X139.374 Z0.563 I0.14 K-0.285
G17 G3 Y289.999 I0. J0.5
G18 G2 X139.235 Z0.53 I0. K-0.317
G3 X139.057 Z0.5 I-0.14 K0.285
G1 X3.17 Z17.
X0.
G3 X-0.14 Z17.032 I0. K0.317
G2 X-0.279 Z17.065 I-0.14 K-0.285
G17 G2 Y290.999 I0. J0.5
G18 G3 X-0.14 Z17.032 I0. K-0.318
G2 X0. Z17. I0.14 K0.285
G1 X3.17
X139.057 Z0.5
G2 X139.235 Z0.53 I0.038 K0.315
G3 X139.374 Z0.563 I0.14 K-0.285
G17 G3 Y291.999 I0. J0.5
G18 G2 X139.235 Z0.53 I0. K-0.317
G3 X139.057 Z0.5 I-0.14 K0.285
G1 X3.17 Z17.
X0.
G3 X-0.14 Z17.032 I0. K0.317
G2 X-0.279 Z17.065 I-0.14 K-0.285
G17 G2 Y292.999 I0. J0.5
G18 G3 X-0.14 Z17.032 I0. K-0.318
G2 X0. Z17. I0.14 K0.285
G1 X3.17
X139.057 Z0.5
G2 X139.235 Z0.53 I0.038 K0.315
G3 X139.374 Z0.563 I0.14 K-0.285
G17 G3 Y293.999 I0. J0.5
G18 G2 X139.235 Z0.53 I0. K-0.317
G3 X139.057 Z0.5 I-0.14 K0.285
G1 X3.17 Z17.
X0.
G3 X-0.14 Z17.032 I0. K0.317
G2 X-0.279 Z17.065 I-0.14 K-0.285
G17 G2 Y294.999 I0. J0.5
G18 G3 X-0.14 Z17.032 I0. K-0.318
G2 X0. Z17. I0.14 K0.285
G1 X3.17
X139.057 Z0.5
G2 X139.235 Z0.53 I0.038 K0.315
G3 X139.374 Z0.563 I0.14 K-0.285
G17 G3 Y295.999 I0. J0.5
G18 G2 X139.235 Z0.53 I0. K-0.317
G3 X139.057 Z0.5 I-0.14 K0.285
G1 X3.17 Z17.
X0.
G3 X-0.14 Z17.032 I0. K0.317
G2 X-0.279 Z17.065 I-0.14 K-0.285
G17 G2 Y296.999 I0. J0.5
G18 G3 X-0.14 Z17.032 I0. K-0.318
G2 X0. Z17. I0.14 K0.285
G1 X3.17
X139.057 Z0.5
G2 X139.235 Z0.53 I0.038 K0.315
G3 X139.374 Z0.563 I0.14 K-0.285
G17 G3 Y297.999 I0. J0.5
G18 G2 X139.235 Z0.53 I0. K-0.317
G3 X139.057 Z0.5 I-0.14 K0.285
G1 X3.17 Z17.
X0.
G3 X-0.14 Z17.032 I0. K0.317
G2 X-0.279 Z17.065 I-0.14 K-0.285
G17 G2 Y298.999 I0. J0.5
G18 G3 X-0.14 Z17.032 I0. K-0.318
G2 X0. Z17. I0.14 K0.285
G1 X3.17
X139.057 Z0.5
G2 X139.235 Z0.53 I0.038 K0.315
G3 X139.374 Z0.563 I0.14 K-0.285
G17 G3 Y299.999 I0. J0.5
G18 G2 X139.235 Z0.53 I0. K-0.317
G3 X139.057 Z0.5 I-0.14 K0.285
G1 X3.17 Z17.
X0.
G3 X-0.14 Z17.032 I0. K0.317
G2 X-0.279 Z17.065 I-0.14 K-0.285
G17 G2 Y300.999 I0. J0.5
G18 G3 X-0.14 Z17.032 I0. K-0.318
G2 X0. Z17. I0.14 K0.285
G1 X3.17
X139.057 Z0.5
G2 X139.235 Z0.53 I0.038 K0.315
G3 X139.374 Z0.563 I0.14 K-0.285
G17 G3 Y301.999 I0. J0.5
G18 G2 X139.235 Z0.53 I0. K-0.317
G3 X139.057 Z0.5 I-0.14 K0.285
G1 X3.17 Z17.
X0.
G3 X-0.14 Z17.032 I0. K0.317
G2 X-0.279 Z17.065 I-0.14 K-0.285
G17 G2 Y302.999 I0. J0.5
G18 G3 X-0.14 Z17.032 I0. K-0.318
G2 X0. Z17. I0.14 K0.285
G1 X3.17
X139.057 Z0.5
G2 X139.235 Z0.53 I0.038 K0.315
G3 X139.374 Z0.563 I0.14 K-0.285
G17 G3 Y303.999 I0. J0.5
G18 G2 X139.235 Z0.53 I0. K-0.317
G3 X139.057 Z0.5 I-0.14 K0.285
G1 X3.17 Z17.
X0.
G3 X-0.14 Z17.032 I0. K0.317
G2 X-0.279 Z17.065 I-0.14 K-0.285
G17 G2 Y304.999 I0. J0.5
G18 G3 X-0.14 Z17.032 I0. K-0.318
G2 X0. Z17. I0.14 K0.285
G1 X3.17
X139.057 Z0.5
G2 X139.235 Z0.53 I0.038 K0.315
G3 X139.374 Z0.563 I0.14 K-0.285
G17 G3 Y305.999 I0. J0.5
G18 G2 X139.235 Z0.53 I0. K-0.317
G3 X139.057 Z0.5 I-0.14 K0.285
G1 X3.17 Z17.
X0.
G3 X-0.14 Z17.032 I0. K0.317
G2 X-0.279 Z17.065 I-0.14 K-0.285
G17 G2 Y306.999 I0. J0.5
G18 G3 X-0.14 Z17.032 I0. K-0.318
G2 X0. Z17. I0.14 K0.285
G1 X3.17
X139.057 Z0.5
G2 X139.235 Z0.53 I0.038 K0.315
G3 X139.374 Z0.563 I0.14 K-0.285
G17 G3 Y307.999 I0. J0.5
G18 G2 X139.235 Z0.53 I0. K-0.317
G3 X139.057 Z0.5 I-0.14 K0.285
G1 X3.17 Z17.
X0.
G3 X-0.14 Z17.032 I0. K0.317
G2 X-0.279 Z17.065 I-0.14 K-0.285
G17 G2 Y308.999 I0. J0.5
G18 G3 X-0.14 Z17.032 I0. K-0.318
G2 X0. Z17. I0.14 K0.285
G1 X3.17
X139.057 Z0.5
G2 X139.235 Z0.53 I0.038 K0.315
G3 X139.374 Z0.563 I0.14 K-0.285
G17 G3 Y309.999 I0. J0.5
G18 G2 X139.235 Z0.53 I0. K-0.317
G3 X139.057 Z0.5 I-0.14 K0.285
G1 X3.17 Z17.
X0.
G3 X-0.14 Z17.032 I0. K0.317
G2 X-0.279 Z17.065 I-0.14 K-0.285
G17 G2 Y310.999 I0. J0.5
G18 G3 X-0.14 Z17.032 I0. K-0.318
G2 X0. Z17. I0.14 K0.285
G1 X3.17
X139.057 Z0.5
G2 X139.235 Z0.53 I0.038 K0.315
G3 X139.374 Z0.563 I0.14 K-0.285
G17 G3 Y311.999 I0. J0.5
G18 G2 X139.235 Z0.53 I0. K-0.317
G3 X139.057 Z0.5 I-0.14 K0.285
G1 X3.17 Z17.
X0.
G3 X-0.14 Z17.032 I0. K0.317
G2 X-0.279 Z17.065 I-0.14 K-0.285
G17 G2 Y312.999 I0. J0.5
G18 G3 X-0.14 Z17.032 I0. K-0.318
G2 X0. Z17. I0.14 K0.285
G1 X3.17
X139.057 Z0.5
G2 X139.235 Z0.53 I0.038 K0.315
G3 X139.374 Z0.563 I0.14 K-0.285
G17 G3 Y313.999 I0. J0.5
G18 G2 X139.235 Z0.53 I0. K-0.317
G3 X139.057 Z0.5 I-0.14 K0.285
G1 X3.17 Z17.
X0.
G3 X-0.14 Z17.032 I0. K0.317
G2 X-0.279 Z17.065 I-0.14 K-0.285
G17 G2 Y314.999 I0. J0.5
G18 G3 X-0.14 Z17.032 I0. K-0.318
G2 X0. Z17. I0.14 K0.285
G1 X3.17
X139.057 Z0.5
G2 X139.235 Z0.53 I0.038 K0.315
G3 X139.374 Z0.563 I0.14 K-0.285
G17 G3 Y315.999 I0. J0.5
G18 G2 X139.235 Z0.53 I0. K-0.317
G3 X139.057 Z0.5 I-0.14 K0.285
G1 X3.17 Z17.
X0.
G3 X-0.14 Z17.032 I0. K0.317
G2 X-0.279 Z17.065 I-0.14 K-0.285
G17 G2 Y316.999 I0. J0.5
G18 G3 X-0.14 Z17.032 I0. K-0.318
G2 X0. Z17. I0.14 K0.285
G1 X3.17
X139.057 Z0.5
G2 X139.235 Z0.53 I0.038 K0.315
G3 X139.374 Z0.563 I0.14 K-0.285
G17 G3 Y317.999 I0. J0.5
G18 G2 X139.235 Z0.53 I0. K-0.317
G3 X139.057 Z0.5 I-0.14 K0.285
G1 X3.17 Z17.
X0.
G3 X-0.14 Z17.032 I0. K0.317
G2 X-0.279 Z17.065 I-0.14 K-0.285
G17 G2 Y318.999 I0. J0.5
G18 G3 X-0.14 Z17.032 I0. K-0.318
G2 X0. Z17. I0.14 K0.285
G1 X3.17
X139.057 Z0.5
G2 X139.235 Z0.53 I0.038 K0.315
G3 X139.374 Z0.563 I0.14 K-0.285
G17 G3 Y319.999 I0. J0.5
G18 G2 X139.235 Z0.53 I0. K-0.317
G3 X139.057 Z0.5 I-0.14 K0.285
G1 X3.17 Z17.
X0.
G3 X-0.14 Z17.032 I0. K0.317
G2 X-0.279 Z17.065 I-0.14 K-0.285
G17 G2 Y320.999 I0. J0.5
G18 G3 X-0.14 Z17.032 I0. K-0.318
G2 X0. Z17. I0.14 K0.285
G1 X3.17
X139.057 Z0.5
G2 X139.235 Z0.53 I0.038 K0.315
G3 X139.374 Z0.563 I0.14 K-0.285
G17 G3 Y321.999 I0. J0.5
G18 G2 X139.235 Z0.53 I0. K-0.317
G3 X139.057 Z0.5 I-0.14 K0.285
G1 X3.17 Z17.
X0.
G3 X-0.14 Z17.032 I0. K0.317
G2 X-0.279 Z17.065 I-0.14 K-0.285
G17 G2 Y322.998 I0. J0.5
G18 G3 X-0.14 Z17.032 I0. K-0.318
G2 X0. Z17. I0.14 K0.285
G1 X3.17
X139.057 Z0.5
G2 X139.235 Z0.53 I0.038 K0.315
G3 X139.374 Z0.563 I0.14 K-0.285
G17 G3 Y323.998 I0. J0.5
G18 G2 X139.235 Z0.53 I0. K-0.317
G3 X139.057 Z0.5 I-0.14 K0.285
G1 X3.17 Z17.
X0.
G3 X-0.14 Z17.032 I0. K0.317
G2 X-0.279 Z17.065 I-0.14 K-0.285
G17 G2 Y324.998 I0. J0.5
G18 G3 X-0.14 Z17.032 I0. K-0.318
G2 X0. Z17. I0.14 K0.285
G1 X3.17
X139.057 Z0.5
G2 X139.235 Z0.53 I0.038 K0.315
G3 X139.374 Z0.563 I0.14 K-0.285
G17 G3 Y325.998 I0. J0.5
G18 G2 X139.235 Z0.53 I0. K-0.317
G3 X139.057 Z0.5 I-0.14 K0.285
G1 X3.17 Z17.
X0.
G3 X-0.14 Z17.032 I0. K0.317
G2 X-0.279 Z17.065 I-0.14 K-0.285
G17 G2 Y326.998 I0. J0.5
G18 G3 X-0.14 Z17.032 I0. K-0.318
G2 X0. Z17. I0.14 K0.285
G1 X3.17
X139.057 Z0.5
G2 X139.235 Z0.53 I0.038 K0.315
G3 X139.374 Z0.563 I0.14 K-0.285
G17 G3 Y327.998 I0. J0.5
G18 G2 X139.235 Z0.53 I0. K-0.317
G3 X139.057 Z0.5 I-0.14 K0.285
G1 X3.17 Z17.
X0.
G3 X-0.14 Z17.032 I0. K0.317
G2 X-0.279 Z17.065 I-0.14 K-0.285
G17 G2 Y328.998 I0. J0.5
G18 G3 X-0.14 Z17.032 I0. K-0.318
G2 X0. Z17. I0.14 K0.285
G1 X3.17
X139.057 Z0.5
G2 X139.235 Z0.53 I0.038 K0.315
G3 X139.374 Z0.563 I0.14 K-0.285
G17 G3 Y329.998 I0. J0.5
G18 G2 X139.235 Z0.53 I0. K-0.317
G3 X139.057 Z0.5 I-0.14 K0.285
G1 X3.17 Z17.
X0.
G3 X-0.14 Z17.032 I0. K0.317
G2 X-0.279 Z17.065 I-0.14 K-0.285
G17 G2 Y330.998 I0. J0.5
G18 G3 X-0.14 Z17.032 I0. K-0.318
G2 X0. Z17. I0.14 K0.285
G1 X3.17
X139.057 Z0.5
G2 X139.235 Z0.53 I0.038 K0.315
G3 X139.374 Z0.563 I0.14 K-0.285
G17 G3 Y331.998 I0. J0.5
G18 G2 X139.235 Z0.53 I0. K-0.317
G3 X139.057 Z0.5 I-0.14 K0.285
G1 X3.17 Z17.
X0.
G3 X-0.14 Z17.032 I0. K0.317
G2 X-0.279 Z17.065 I-0.14 K-0.285
G17 G2 Y332.998 I0. J0.5
G18 G3 X-0.14 Z17.032 I0. K-0.318
G2 X0. Z17. I0.14 K0.285
G1 X3.17
X139.057 Z0.5
G2 X139.235 Z0.53 I0.038 K0.315
G3 X139.374 Z0.563 I0.14 K-0.285
G17 G3 Y333.998 I0. J0.5
G18 G2 X139.235 Z0.53 I0. K-0.317
G3 X139.057 Z0.5 I-0.14 K0.285
G1 X3.17 Z17.
X0.
G3 X-0.14 Z17.032 I0. K0.317
G2 X-0.279 Z17.065 I-0.14 K-0.285
G17 G2 Y334.998 I0. J0.5
G18 G3 X-0.14 Z17.032 I0. K-0.318
G2 X0. Z17. I0.14 K0.285
G1 X3.17
X139.057 Z0.5
G2 X139.235 Z0.53 I0.038 K0.315
G3 X139.374 Z0.563 I0.14 K-0.285
G17 G3 Y335.998 I0. J0.5
G18 G2 X139.235 Z0.53 I0. K-0.317
G3 X139.057 Z0.5 I-0.14 K0.285
G1 X3.17 Z17.
X0.
G3 X-0.14 Z17.032 I0. K0.317
G2 X-0.279 Z17.065 I-0.14 K-0.285
G17 G2 Y336.998 I0. J0.5
G18 G3 X-0.14 Z17.032 I0. K-0.318
G2 X0. Z17. I0.14 K0.285
G1 X3.17
X139.057 Z0.5
G2 X139.235 Z0.53 I0.038 K0.315
G3 X139.374 Z0.563 I0.14 K-0.285
G17 G3 Y337.998 I0. J0.5
G18 G2 X139.235 Z0.53 I0. K-0.317
G3 X139.057 Z0.5 I-0.14 K0.285
G1 X3.17 Z17.
X0.
G3 X-0.14 Z17.032 I0. K0.317
G2 X-0.279 Z17.065 I-0.14 K-0.285
G17 G2 Y338.998 I0. J0.5
G18 G3 X-0.14 Z17.032 I0. K-0.318
