G00 G49 G40.1 G17 G80 G50 G90
G21
(2 1/2 Axis Pocketing)
(SlotDrill 1/8in 3.175mm Carbide Aluminium Cut)
M6 T6
M03 S12000
G00 Z0.3875
X19.2737 Y-7.1751
G01 Z0.8667  F125.0
Z0.2667  F2000.0
X19.3966 Y-6.8524 Z0.2058  F125.0
X19.6058 Y-6.2469 Z0.0928
X19.7962 Y-5.6350 Z-0.0202
X19.9675 Y-5.0175 Z-0.1332
X20.1195 Y-4.3948 Z-0.2462
X20.2217 Y-3.9113 Z-0.3333
G17
G02X-11.9832Y16.2259I-20.0041J3.8289 F250.0
X-2.1798Y-19.4530I11.9100J-15.9138
X14.6568Y12.3592I2.0509J19.2761
X-18.6098Y1.2642I-14.4086J-12.2180
X12.7277Y-12.8866I18.3688J-1.0961
X-0.8799Y17.7028I-12.6262J12.7046
X-10.9706Y-13.1626I0.9555J-17.3945
X16.5298Y2.3051I10.7366J13.0918
X-13.1700Y9.4849I-16.2764J-2.3110
X3.0252Y-15.3488I13.0227J-9.2049
X7.9092Y13.0475I-3.0767J15.1474
X-14.0313Y-4.4161I-7.7098J-12.8280
X13.0438Y-5.6353I13.7671J4.4878
X-5.5001Y12.6547I-12.8622J5.5049
X-4.0037Y-12.5814I5.4819J-12.3374
X10.9709Y6.5819I3.8374J12.4337
X-11.9908Y2.7044I-10.7137J-6.4814
X6.9636Y-9.4507I11.7697J-2.5027
X1.1465Y11.2967I-6.8986J9.2550
X-8.0008Y-7.2146I-1.0347J-11.0044
X10.3148Y0.0574I7.7511J7.1791
X-7.3620Y6.5760I-10.0752J-0.0947
X1.0570Y-9.2231I7.2388J-6.2853
X5.1009Y7.2892I-1.1259J9.0270
X-8.1326Y-1.9146I-4.8919J-7.0819
X7.0964Y-3.3620I7.8735J2.0007
X-3.0457Y6.7986I-6.9204J3.2343
X-2.2410Y-6.4738I3.0271J-6.4770
X5.5389Y3.2901I2.0719J6.3306
X-5.8520Y1.0510I-5.2892J-3.1858
X3.3896Y-4.1980I5.6232J-0.8597
X0.3661Y4.9950I-3.3169J4.0028
X-3.0855Y-3.1777I-0.2700J-4.7012
X3.9478Y0.5722I2.8523J3.1210
X-2.8892Y2.0316I-3.6976J-0.5776
X0.6979Y-2.8659I2.7393J-1.7560
X1.1402Y2.3028I-0.7363J2.6663
X-1.8715Y-0.7538I-0.9625J-2.0637
X1.5161Y-0.2896I1.6157J0.8023
X-0.7757Y0.8291I-1.3118J0.2193
X0.0923Y-0.5502I0.6629J-0.5456
G01 X-0.3702 Y-0.4348
X-0.4116 Y0.0401
X0.0240 Y0.2338
X0.0451 Y0.2083
X0.0591 Y0.1811
X0.0661 Y0.1537
X0.0662 Y0.1275
X0.0603 Y0.1040
X0.0491 Y0.0844
X0.0338 Y0.0696
X0.0157 Y0.0605
G00 Z0.3875
X20.2217 Y-3.9113
G01 Z-0.6667  F125.0
G02X-11.9832Y16.2259I-20.0041J3.8289 F250.0
X-2.1798Y-19.4530I11.9100J-15.9138
X14.6568Y12.3592I2.0509J19.2761
X-18.6098Y1.2642I-14.4086J-12.2180
X12.7277Y-12.8866I18.3688J-1.0961
X-0.8799Y17.7028I-12.6262J12.7046
X-10.9706Y-13.1626I0.9555J-17.3945
X16.5298Y2.3051I10.7366J13.0918
X-13.1700Y9.4849I-16.2764J-2.3110
X3.0252Y-15.3488I13.0227J-9.2049
X7.9092Y13.0475I-3.0767J15.1474
X-14.0313Y-4.4161I-7.7098J-12.8280
X13.0438Y-5.6353I13.7671J4.4878
X-5.5001Y12.6547I-12.8622J5.5049
X-4.0037Y-12.5814I5.4819J-12.3374
X10.9709Y6.5819I3.8374J12.4337
X-11.9908Y2.7044I-10.7137J-6.4814
X6.9636Y-9.4507I11.7697J-2.5027
X1.1465Y11.2967I-6.8986J9.2550
X-8.0008Y-7.2146I-1.0347J-11.0044
X10.3148Y0.0574I7.7511J7.1791
X-7.3620Y6.5760I-10.0752J-0.0947
X1.0570Y-9.2231I7.2388J-6.2853
X5.1009Y7.2892I-1.1259J9.0270
X-8.1326Y-1.9146I-4.8919J-7.0819
X7.0964Y-3.3620I7.8735J2.0007
X-3.0457Y6.7986I-6.9204J3.2343
X-2.2410Y-6.4738I3.0271J-6.4770
X5.5389Y3.2901I2.0719J6.3306
X-5.8520Y1.0510I-5.2892J-3.1858
X3.3896Y-4.1980I5.6232J-0.8597
X0.3661Y4.9950I-3.3169J4.0028
X-3.0855Y-3.1777I-0.2700J-4.7012
X3.9478Y0.5722I2.8523J3.1210
X-2.8892Y2.0316I-3.6976J-0.5776
X0.6979Y-2.8659I2.7393J-1.7560
X1.1402Y2.3028I-0.7363J2.6663
X-1.8715Y-0.7538I-0.9625J-2.0637
X1.5161Y-0.2896I1.6157J0.8023
X-0.7757Y0.8291I-1.3118J0.2193
X0.0923Y-0.5502I0.6629J-0.5456
G01 X-0.3702 Y-0.4348
X-0.4116 Y0.0401
X0.0240 Y0.2338
X0.0451 Y0.2083
X0.0591 Y0.1811
X0.0661 Y0.1537
X0.0662 Y0.1275
X0.0603 Y0.1040
X0.0491 Y0.0844
X0.0338 Y0.0696
X0.0157 Y0.0605
G00 Z0.3875
X20.2217 Y-3.9113
G01 Z-1.0000  F125.0
G02X-11.9832Y16.2259I-20.0041J3.8289 F250.0
X-2.1798Y-19.4530I11.9100J-15.9138
X14.6568Y12.3592I2.0509J19.2761
X-18.6098Y1.2642I-14.4086J-12.2180
X12.7277Y-12.8866I18.3688J-1.0961
X-0.8799Y17.7028I-12.6262J12.7046
X-10.9706Y-13.1626I0.9555J-17.3945
X16.5298Y2.3051I10.7366J13.0918
X-13.1700Y9.4849I-16.2764J-2.3110
X3.0252Y-15.3488I13.0227J-9.2049
X7.9092Y13.0475I-3.0767J15.1474
X-14.0313Y-4.4161I-7.7098J-12.8280
X13.0438Y-5.6353I13.7671J4.4878
X-5.5001Y12.6547I-12.8622J5.5049
X-4.0037Y-12.5814I5.4819J-12.3374
X10.9709Y6.5819I3.8374J12.4337
X-11.9908Y2.7044I-10.7137J-6.4814
X6.9636Y-9.4507I11.7697J-2.5027
X1.1465Y11.2967I-6.8986J9.2550
X-8.0008Y-7.2146I-1.0347J-11.0044
X10.3148Y0.0574I7.7511J7.1791
X-7.3620Y6.5760I-10.0752J-0.0947
X1.0570Y-9.2231I7.2388J-6.2853
X5.1009Y7.2892I-1.1259J9.0270
X-8.1326Y-1.9146I-4.8919J-7.0819
X7.0964Y-3.3620I7.8735J2.0007
X-3.0457Y6.7986I-6.9204J3.2343
X-2.2410Y-6.4738I3.0271J-6.4770
X5.5389Y3.2901I2.0719J6.3306
X-5.8520Y1.0510I-5.2892J-3.1858
X3.3896Y-4.1980I5.6232J-0.8597
X0.3661Y4.9950I-3.3169J4.0028
X-3.0855Y-3.1777I-0.2700J-4.7012
X3.9478Y0.5722I2.8523J3.1210
X-2.8892Y2.0316I-3.6976J-0.5776
X0.6979Y-2.8659I2.7393J-1.7560
X1.1402Y2.3028I-0.7363J2.6663
X-1.8715Y-0.7538I-0.9625J-2.0637
X1.5161Y-0.2896I1.6157J0.8023
X-0.7757Y0.8291I-1.3118J0.2193
X0.0923Y-0.5502I0.6629J-0.5456
G01 X-0.3702 Y-0.4348
X-0.4116 Y0.0401
X0.0240 Y0.2338
X0.0451 Y0.2083
X0.0591 Y0.1811
X0.0661 Y0.1537
X0.0662 Y0.1275
X0.0603 Y0.1040
X0.0491 Y0.0844
X0.0338 Y0.0696
X0.0157 Y0.0605
G00 Z0.3875
X20.2217 Y-3.9113
G01 Z-1.2000  F125.0
G02X-11.9832Y16.2259I-20.0041J3.8289 F250.0
X-2.1798Y-19.4530I11.9100J-15.9138
X14.6568Y12.3592I2.0509J19.2761
X-18.6098Y1.2642I-14.4086J-12.2180
X12.7277Y-12.8866I18.3688J-1.0961
X-0.8799Y17.7028I-12.6262J12.7046
X-10.9706Y-13.1626I0.9555J-17.3945
X16.5298Y2.3051I10.7366J13.0918
X-13.1700Y9.4849I-16.2764J-2.3110
X3.0252Y-15.3488I13.0227J-9.2049
X7.9092Y13.0475I-3.0767J15.1474
X-14.0313Y-4.4161I-7.7098J-12.8280
X13.0438Y-5.6353I13.7671J4.4878
X-5.5001Y12.6547I-12.8622J5.5049
X-4.0037Y-12.5814I5.4819J-12.3374
X10.9709Y6.5819I3.8374J12.4337
X-11.9908Y2.7044I-10.7137J-6.4814
X6.9636Y-9.4507I11.7697J-2.5027
X1.1465Y11.2967I-6.8986J9.2550
X-8.0008Y-7.2146I-1.0347J-11.0044
X10.3148Y0.0574I7.7511J7.1791
X-7.3620Y6.5760I-10.0752J-0.0947
X1.0570Y-9.2231I7.2388J-6.2853
X5.1009Y7.2892I-1.1259J9.0270
X-8.1326Y-1.9146I-4.8919J-7.0819
X7.0964Y-3.3620I7.8735J2.0007
X-3.0457Y6.7986I-6.9204J3.2343
X-2.2410Y-6.4738I3.0271J-6.4770
X5.5389Y3.2901I2.0719J6.3306
X-5.8520Y1.0510I-5.2892J-3.1858
X3.3896Y-4.1980I5.6232J-0.8597
X0.3661Y4.9950I-3.3169J4.0028
X-3.0855Y-3.1777I-0.2700J-4.7012
X3.9478Y0.5722I2.8523J3.1210
X-2.8892Y2.0316I-3.6976J-0.5776
X0.6979Y-2.8659I2.7393J-1.7560
X1.1402Y2.3028I-0.7363J2.6663
X-1.8715Y-0.7538I-0.9625J-2.0637
X1.5161Y-0.2896I1.6157J0.8023
X-0.7757Y0.8291I-1.3118J0.2193
X0.0923Y-0.5502I0.6629J-0.5456
G01 X-0.3702 Y-0.4348
X-0.4116 Y0.0401
X0.0240 Y0.2338
X0.0451 Y0.2083
X0.0591 Y0.1811
X0.0661 Y0.1537
X0.0662 Y0.1275
X0.0603 Y0.1040
X0.0491 Y0.0844
X0.0338 Y0.0696
X0.0157 Y0.0605
X-1.0321 Y-0.1042 Z-0.1393  F2000.0
Z0.4607
G00 Z0.3875
(Hole Pocketing)
(SlotDrill 1/8in 3.175mm Carbide Aluminium Cut)
X-9.8171 Y10.1322
G01 Z-0.5650  F125.0
X-9.8160 Y10.1250 Z-0.5698  F250.0
X-9.8297 Y10.0339 Z-0.6308
X-9.8697 Y9.9509 Z-0.6917
X-9.9323 Y9.8834 Z-0.7527
X-10.0121 Y9.8374 Z-0.8136
X-10.1019 Y9.8169 Z-0.8746
X-10.1938 Y9.8238 Z-0.9356
X-10.2795 Y9.8574 Z-0.9965
X-10.3515 Y9.9148 Z-1.0575
X-10.4034 Y9.9909 Z-1.1185
X-10.4305 Y10.0789 Z-1.1794
Y10.1711 Z-1.2404
X-10.4034 Y10.2591 Z-1.3013
X-10.3515 Y10.3352 Z-1.3623
X-10.2795 Y10.3926 Z-1.4233
X-10.1938 Y10.4262 Z-1.4842
X-10.1019 Y10.4331 Z-1.5452
X-10.0121 Y10.4126 Z-1.6061
X-9.9323 Y10.3666 Z-1.6671
X-9.8697 Y10.2991 Z-1.7281
X-9.8297 Y10.2161 Z-1.7890
X-9.8171 Y10.1322 Z-1.8500
X-9.8602 Y9.9634
G02X-10.3898Y10.2866I-0.2648J0.1616
X-9.8602Y9.9634I0.2648J-0.1616
G01 X-9.8171 Y10.1322
X-9.8160 Y10.1250 Z-1.8524
X-9.8297 Y10.0339 Z-1.8833
X-9.8697 Y9.9509 Z-1.9141
X-9.9323 Y9.8834 Z-1.9449
X-10.0121 Y9.8374 Z-1.9758
X-10.1019 Y9.8169 Z-2.0066
X-10.1938 Y9.8238 Z-2.0374
X-10.2795 Y9.8574 Z-2.0683
X-10.3515 Y9.9148 Z-2.0991
X-10.4034 Y9.9909 Z-2.1300
X-10.4305 Y10.0789 Z-2.1608
Y10.1711 Z-2.1916
X-10.4034 Y10.2591 Z-2.2225
X-10.3515 Y10.3352 Z-2.2533
X-10.2795 Y10.3926 Z-2.2841
X-10.1938 Y10.4262 Z-2.3150
X-10.1019 Y10.4331 Z-2.3458
X-10.0121 Y10.4126 Z-2.3767
X-9.9323 Y10.3666 Z-2.4075
X-9.8697 Y10.2991 Z-2.4383
X-9.8297 Y10.2161 Z-2.4692
X-9.8171 Y10.1322 Z-2.5000
X-9.8602 Y9.9634
G02X-10.3898Y10.2866I-0.2648J0.1616
X-9.8602Y9.9634I0.2648J-0.1616
G01 X-9.8171 Y10.1322
X-10.1250 Y10.1250
G00 Z0.3875
X-9.8171 Y-10.1178
G01 Z-0.5650  F125.0
X-9.8160 Y-10.1250 Z-0.5698  F250.0
X-9.8297 Y-10.2161 Z-0.6308
X-9.8697 Y-10.2991 Z-0.6917
X-9.9323 Y-10.3666 Z-0.7527
X-10.0121 Y-10.4126 Z-0.8136
X-10.1019 Y-10.4331 Z-0.8746
X-10.1938 Y-10.4262 Z-0.9356
X-10.2795 Y-10.3926 Z-0.9965
X-10.3515 Y-10.3352 Z-1.0575
X-10.4034 Y-10.2591 Z-1.1185
X-10.4305 Y-10.1711 Z-1.1794
Y-10.0789 Z-1.2404
X-10.4034 Y-9.9909 Z-1.3013
X-10.3515 Y-9.9148 Z-1.3623
X-10.2795 Y-9.8574 Z-1.4233
X-10.1938 Y-9.8238 Z-1.4842
X-10.1019 Y-9.8169 Z-1.5452
X-10.0121 Y-9.8374 Z-1.6061
X-9.9323 Y-9.8834 Z-1.6671
X-9.8697 Y-9.9509 Z-1.7281
X-9.8297 Y-10.0339 Z-1.7890
X-9.8171 Y-10.1178 Z-1.8500
X-9.8602 Y-10.2866
G02X-10.3898Y-9.9634I-0.2648J0.1616
X-9.8602Y-10.2866I0.2648J-0.1616
G01 X-9.8171 Y-10.1178
X-9.8160 Y-10.1250 Z-1.8524
X-9.8297 Y-10.2161 Z-1.8833
X-9.8697 Y-10.2991 Z-1.9141
X-9.9323 Y-10.3666 Z-1.9449
X-10.0121 Y-10.4126 Z-1.9758
X-10.1019 Y-10.4331 Z-2.0066
X-10.1938 Y-10.4262 Z-2.0374
X-10.2795 Y-10.3926 Z-2.0683
X-10.3515 Y-10.3352 Z-2.0991
X-10.4034 Y-10.2591 Z-2.1300
X-10.4305 Y-10.1711 Z-2.1608
Y-10.0789 Z-2.1916
X-10.4034 Y-9.9909 Z-2.2225
X-10.3515 Y-9.9148 Z-2.2533
X-10.2795 Y-9.8574 Z-2.2841
X-10.1938 Y-9.8238 Z-2.3150
X-10.1019 Y-9.8169 Z-2.3458
X-10.0121 Y-9.8374 Z-2.3767
X-9.9323 Y-9.8834 Z-2.4075
X-9.8697 Y-9.9509 Z-2.4383
X-9.8297 Y-10.0339 Z-2.4692
X-9.8171 Y-10.1178 Z-2.5000
X-9.8602 Y-10.2866
G02X-10.3898Y-9.9634I-0.2648J0.1616
X-9.8602Y-10.2866I0.2648J-0.1616
G01 X-9.8171 Y-10.1178
X-10.1250 Y-10.1250
G00 Z0.3875
X10.4306 Y-10.1183
G01 Z-0.5650  F125.0
X10.4317 Y-10.1254 Z-0.5698  F250.0
X10.4179 Y-10.2165 Z-0.6308
X10.3780 Y-10.2995 Z-0.6917
X10.3153 Y-10.3670 Z-0.7527
X10.2355 Y-10.4131 Z-0.8136
X10.1457 Y-10.4336 Z-0.8746
X10.0539 Y-10.4267 Z-0.9356
X9.9682 Y-10.3930 Z-0.9965
X9.8961 Y-10.3356 Z-1.0575
X9.8443 Y-10.2595 Z-1.1185
X9.8171 Y-10.1715 Z-1.1794
Y-10.0794 Z-1.2404
X9.8443 Y-9.9914 Z-1.3013
X9.8961 Y-9.9153 Z-1.3623
X9.9682 Y-9.8578 Z-1.4233
X10.0539 Y-9.8242 Z-1.4842
X10.1457 Y-9.8173 Z-1.5452
X10.2355 Y-9.8378 Z-1.6061
X10.3153 Y-9.8839 Z-1.6671
X10.3780 Y-9.9514 Z-1.7281
X10.4179 Y-10.0344 Z-1.7890
X10.4306 Y-10.1183 Z-1.8500
X10.3864 Y-10.2864
G02X9.8589Y-9.9645I-0.2637J0.1610
X10.3864Y-10.2864I0.2638J-0.1609
G01 X10.4306 Y-10.1183
X10.4317 Y-10.1254 Z-1.8524
X10.4179 Y-10.2165 Z-1.8833
X10.3780 Y-10.2995 Z-1.9141
X10.3153 Y-10.3670 Z-1.9449
X10.2355 Y-10.4131 Z-1.9758
X10.1457 Y-10.4336 Z-2.0066
X10.0539 Y-10.4267 Z-2.0374
X9.9682 Y-10.3930 Z-2.0683
X9.8961 Y-10.3356 Z-2.0991
X9.8443 Y-10.2595 Z-2.1300
X9.8171 Y-10.1715 Z-2.1608
Y-10.0794 Z-2.1916
X9.8443 Y-9.9914 Z-2.2225
X9.8961 Y-9.9153 Z-2.2533
X9.9682 Y-9.8578 Z-2.2841
X10.0539 Y-9.8242 Z-2.3150
X10.1457 Y-9.8173 Z-2.3458
X10.2355 Y-9.8378 Z-2.3767
X10.3153 Y-9.8839 Z-2.4075
X10.3780 Y-9.9514 Z-2.4383
X10.4179 Y-10.0344 Z-2.4692
X10.4306 Y-10.1183 Z-2.5000
X10.3864 Y-10.2864
G02X9.8589Y-9.9645I-0.2637J0.1610
X10.3864Y-10.2864I0.2638J-0.1609
G01 X10.4306 Y-10.1183
X10.1227 Y-10.1254
G00 Z0.3875
X10.4334 Y10.1298
G01 Z-0.5650  F125.0
X10.4344 Y10.1227 Z-0.5698  F250.0
X10.4207 Y10.0316 Z-0.6308
X10.3808 Y9.9486 Z-0.6917
X10.3181 Y9.8811 Z-0.7527
X10.2383 Y9.8350 Z-0.8136
X10.1485 Y9.8145 Z-0.8746
X10.0567 Y9.8214 Z-0.9356
X9.9709 Y9.8551 Z-0.9965
X9.8989 Y9.9125 Z-1.0575
X9.8471 Y9.9886 Z-1.1185
X9.8199 Y10.0766 Z-1.1794
Y10.1687 Z-1.2404
X9.8471 Y10.2567 Z-1.3013
X9.8989 Y10.3328 Z-1.3623
X9.9709 Y10.3903 Z-1.4233
X10.0567 Y10.4239 Z-1.4842
X10.1485 Y10.4308 Z-1.5452
X10.2383 Y10.4103 Z-1.6061
X10.3181 Y10.3642 Z-1.6671
X10.3808 Y10.2967 Z-1.7281
X10.4207 Y10.2137 Z-1.7890
X10.4334 Y10.1298 Z-1.8500
X10.3892 Y9.9617
G02X9.8617Y10.2836I-0.2638J0.1610
X10.3892Y9.9617I0.2637J-0.1609
G01 X10.4334 Y10.1298
X10.4344 Y10.1227 Z-1.8524
X10.4207 Y10.0316 Z-1.8833
X10.3808 Y9.9486 Z-1.9141
X10.3181 Y9.8811 Z-1.9449
X10.2383 Y9.8350 Z-1.9758
X10.1485 Y9.8145 Z-2.0066
X10.0567 Y9.8214 Z-2.0374
X9.9709 Y9.8551 Z-2.0683
X9.8989 Y9.9125 Z-2.0991
X9.8471 Y9.9886 Z-2.1300
X9.8199 Y10.0766 Z-2.1608
Y10.1687 Z-2.1916
X9.8471 Y10.2567 Z-2.2225
X9.8989 Y10.3328 Z-2.2533
X9.9709 Y10.3903 Z-2.2841
X10.0567 Y10.4239 Z-2.3150
X10.1485 Y10.4308 Z-2.3458
X10.2383 Y10.4103 Z-2.3767
X10.3181 Y10.3642 Z-2.4075
X10.3808 Y10.2967 Z-2.4383
X10.4207 Y10.2137 Z-2.4692
X10.4334 Y10.1298 Z-2.5000
X10.3892 Y9.9617
G02X9.8617Y10.2836I-0.2638J0.1610
X10.3892Y9.9617I0.2637J-0.1609
G01 X10.4334 Y10.1298
X10.1254 Y10.1227
G00 Z0.3875
(Standard Drill )
(2mm Carbide Drill)
M6 T16
M03 S12000
Z2.3000
X-10.1250 Y10.1250
G73 X-10.1250 Y10.1250 Z-4.7773 R1.3 Q0.45 F25.4
G80
G00 Z2.3000
X10.1250 Y10.1250
G73 X10.1250 Y10.1250 Z-4.7773 R1.3 Q0.45 F25.4
G80
G00 Z2.3000
X10.1250 Y-10.1250
G73 X10.1250 Y-10.1250 Z-4.7773 R1.3 Q0.45 F25.4
G80
G00 Z2.3000
X-10.1250 Y-10.1250
G73 X-10.1250 Y-10.1250 Z-4.7773 R1.3 Q0.45 F25.4
G80
G00 Z2.3000
(Standard Drill )
(2mm Carbide Drill)
M6 T30
M03 S12000
Z2.0500
X-7.5000 Y7.5000
G73 X-7.5000 Y7.5000 Z-4.633 R1.3 Q0.45 F25.4
G80
G00 Z2.0500
X7.5000 Y7.5000
G73 X7.5000 Y7.5000 Z-4.633 R1.3 Q0.45 F25.4
G80
G00 Z2.0500
X7.5000 Y-7.5000
G73 X7.5000 Y-7.5000 Z-4.633 R1.3 Q0.45 F25.4
G80
G00 Z2.0500
X-7.5000 Y-7.5000
G73 X-7.5000 Y-7.5000 Z-4.633 R1.3 Q0.45 F25.4
G80
G00 Z2.0500
(2 1/2 Axis Profiling)
(SlotDrill 1/8in 3.175mm Carbide Aluminium Cut)
M6 T6
M03 S12000
Z0.3875
X-14.0269 Y-12.4282
G01 Z-0.4300  F125.0
X-14.3205 Y-12.1027 Z-0.5073  F125.0
X-15.0242 Y-11.2219 Z-0.7061
X-15.6738 Y-10.3005 Z-0.9049
X-16.2669 Y-9.3418 Z-1.1036
X-16.8015 Y-8.3492 Z-1.3024
X-17.2755 Y-7.3264 Z-1.5012
X-17.6873 Y-6.2769 Z-1.7000
G02X-18.7875Y0.0004I16.9923J6.2131 F250.0
X-17.6873Y-6.2769I18.7849J0.0572
G01 Z-2.2000
G02X-18.7875Y0.0004I16.9923J6.2131
X-17.6873Y-6.2769I18.7849J0.0572
G01 Z-2.7000
G02X-18.7875Y0.0004I16.9923J6.2131
X-17.6873Y-6.2769I18.7849J0.0572
G01 Z-3.2000
G02X-18.7875Y0.0004I16.9923J6.2131
X-17.6873Y-6.2769I18.7849J0.0572
G01 Z-3.7000
G02X-18.7875Y0.0004I16.9923J6.2131
X-17.6873Y-6.2769I18.7849J0.0572
G00 Z0.3875
M5 M9
M30
