G00 G49 G40.1 G17 G80 G50 G61 G90
G21
(2 1/2 Axis Facing)
(2 1/2 Axis Pocketing)
(Endmill 1/4in 6.35mm Carbide Roughing)
Z30.1750
X28.3915 Y34.6093
G01 Z26.2000  F1000.0
Z25.6000
X28.3600 Y34.6523 Z25.5906
X28.2825 Y34.7711 Z25.5656
X28.2115 Y34.8940 Z25.5406
X28.1474 Y35.0206 Z25.5155
X28.0902 Y35.1505 Z25.4905
X28.0402 Y35.2834 Z25.4655
X27.9975 Y35.4187 Z25.4405
X27.9623 Y35.5562 Z25.4154
X27.9346 Y35.6954 Z25.3904
X27.9146 Y35.8359 Z25.3654
X27.9748 Y35.7116 Z25.3410
X28.0364 Y35.5879 Z25.3167
X28.0992 Y35.4648 Z25.2923
X28.1633 Y35.3424 Z25.2680
X28.2286 Y35.2207 Z25.2436
X28.2952 Y35.0997 Z25.2192
X28.3630 Y34.9793 Z25.1949
X28.4321 Y34.8597 Z25.1705
X28.5024 Y34.7408 Z25.1462
X28.5740 Y34.6226 Z25.1218
X28.6467 Y34.5051 Z25.0974
X28.7206 Y34.3884 Z25.0731
X28.7958 Y34.2725 Z25.0487
X28.8721 Y34.1574 Z25.0244
X28.9497 Y34.0430 Z25.0000
G17
G02X27.9146Y35.8359I1.5503J2.0903
G03X28.9497Y34.0430I12.0854J5.7823
G00 Z30.1750
X21.8752 Y103.2537
G01 Z26.2000  F1000.0
Z25.6000
X22.4954 Y103.2525 Z25.4906
X23.0450 Y103.2753 Z25.3936
X24.4911 Y103.4463 Z25.1369
X24.9856 Y103.5324 Z25.0484
X25.2525 Y103.5961 Z25.0000
Y101.4074
G03X22.8493Y101.7347I-2.9360J-12.5684
G01 X16.0046 Y101.7475
X15.4550 Y101.7247
X14.7475 Y101.6435
Y103.3503
X14.9487 Y103.3225
X15.6507 Y103.2653
X22.4954 Y103.2525
G03X25.2525Y103.5961I-0.3776J14.2636
G01 X26.8400
Y105.8362
G02X22.4973Y104.8400I-4.4069J9.2478
G01 X15.7732 Y104.8480
G02X13.1600Y105.2595I0.3387J10.6542
G01 Y99.7427
G02X16.0027Y100.1600I3.1298J-11.4301
G01 X22.7268 Y100.1520
G02X26.8400Y99.1608I-0.2359J-10.0091
G01 Y103.5961
X28.4275
Y97.7637
G03X27.2500Y97.1168I2.2036J-5.4056
X22.7249Y98.5645I-4.8248J-7.2848
G01 X16.0008 Y98.5725
G03X12.0000Y97.5690I0.0733J-8.7687
G01 X11.8222 Y97.6567
X11.5725 Y97.7637
Y107.2363
X11.7275 Y107.3005
X12.0000 Y107.4310
X12.1778 Y107.3433
G03X15.7751Y106.4355I3.8573J7.7034
G01 X22.4992 Y106.4275
G03X27.2500Y107.8833I-0.0480J8.6365
X28.4275Y107.2362I3.4826J4.9427
G01 Y103.5961
X30.0150
Y108.3145
G02X27.2500Y109.8950I1.9688J6.6535
X22.5000Y108.0150I-4.8075J5.2061
G01 X15.8962 Y108.0184
G02X12.0000Y109.3060I0.1421J6.9688
X9.9850Y108.3145I-3.7080J4.9926
G01 Y96.6855
G02X12.0000Y95.6940I-1.6930J-5.9841
X16.0000Y96.9850I4.0481J-5.7002
G01 X22.6038 Y96.9816
G02X27.2500Y95.1050I-0.1649J-7.0982
X30.0150Y96.6855I4.7313J-5.0684
G01 Y103.5961
X31.6025
Y95.3589
G03X27.2500Y92.5406I0.3515J-5.3130
X22.5000Y95.3975I-4.7735J-2.5594
G01 X16.0000
G03X12.0000Y93.5999I0.0192J-5.3919
X8.3975Y95.3589I-3.9307J-3.4818
G01 Y109.6411
G03X12.0000Y111.4001I-0.3277J5.2398
X16.0000Y109.6025I4.0192J3.5943
G01 X22.5000
G03X27.2500Y112.4594I-0.0266J5.4215
X31.6025Y109.6411I4.7041J2.4948
G01 Y103.5961
X33.1900
Y111.1900
G02X28.3200Y114.0132I-0.9281J4.0110
G01 X28.1900 Y114.9992
X28.1751 Y183.0988
X26.3100
Y115.0000
G02X22.5000Y111.1900I-3.8100J0.0000
G01 X16.0000
G02X12.1900Y115.0000I0.0000J3.8100
G01 Y183.0988
X11.8100
Y115.0000
G02X8.0000Y111.1900I-3.8100J0.0000
G01 X6.8100
Y93.8100
G02X11.6802Y90.9861I0.9281J-4.0110
G01 X11.8100 Y90.0000
Y21.9012
X12.1900
Y90.0000
G02X16.0000Y93.8100I3.8100J0.0000
G01 X22.5000
G02X26.3100Y90.0000I0.0000J-3.8100
G01 Y36.1333
G03X28.3244Y32.5524I4.1900J0.0000
G01 X44.3555 Y23.2957
X45.2954 Y24.9238
X34.0950 Y31.3904
G02X28.1915Y41.4269I5.9050J10.2278
G01 X28.1900 Y89.9999
G02X32.0000Y93.8100I3.8100J0.0001
G01 X33.1900
Y103.5961
G00 Z30.1750
X28.9497 Y34.0430
G01 Z23.0000  F1000.0
G02X27.9146Y35.8359I1.5503J2.0903
G03X28.9497Y34.0430I12.0854J5.7823
G00 Z30.1750
X25.2525 Y103.5961
G01 Z23.0000  F1000.0
Y101.4074
G03X22.8493Y101.7347I-2.9360J-12.5684
G01 X16.0046 Y101.7475
X15.4550 Y101.7247
X14.7475 Y101.6435
Y103.3503
X14.9487 Y103.3225
X15.6507 Y103.2653
X22.4954 Y103.2525
G03X25.2525Y103.5961I-0.3776J14.2636
G01 X26.8400
Y105.8362
G02X22.4973Y104.8400I-4.4069J9.2478
G01 X15.7732 Y104.8480
G02X13.1600Y105.2595I0.3387J10.6542
G01 Y99.7427
G02X16.0027Y100.1600I3.1298J-11.4301
G01 X22.7268 Y100.1520
G02X26.8400Y99.1608I-0.2359J-10.0091
G01 Y103.5961
X28.4275
Y97.7637
G03X27.2500Y97.1168I2.2036J-5.4056
X22.7249Y98.5645I-4.8248J-7.2848
G01 X16.0008 Y98.5725
G03X12.0000Y97.5690I0.0733J-8.7687
G01 X11.8222 Y97.6567
X11.5725 Y97.7637
Y107.2363
X11.7275 Y107.3005
X12.0000 Y107.4310
X12.1778 Y107.3433
G03X15.7751Y106.4355I3.8573J7.7034
G01 X22.4992 Y106.4275
G03X27.2500Y107.8833I-0.0480J8.6365
X28.4275Y107.2362I3.4826J4.9427
G01 Y103.5961
X30.0150
Y108.3145
G02X27.2500Y109.8950I1.9688J6.6535
X22.5000Y108.0150I-4.8075J5.2061
G01 X15.8962 Y108.0184
G02X12.0000Y109.3060I0.1421J6.9688
X9.9850Y108.3145I-3.7080J4.9926
G01 Y96.6855
G02X12.0000Y95.6940I-1.6930J-5.9841
X16.0000Y96.9850I4.0481J-5.7002
G01 X22.6038 Y96.9816
G02X27.2500Y95.1050I-0.1649J-7.0982
X30.0150Y96.6855I4.7313J-5.0684
G01 Y103.5961
X31.6025
Y95.3589
G03X27.2500Y92.5406I0.3515J-5.3130
X22.5000Y95.3975I-4.7735J-2.5594
G01 X16.0000
G03X12.0000Y93.5999I0.0192J-5.3919
X8.3975Y95.3589I-3.9307J-3.4818
G01 Y109.6411
G03X12.0000Y111.4001I-0.3277J5.2398
X16.0000Y109.6025I4.0192J3.5943
G01 X22.5000
G03X27.2500Y112.4594I-0.0266J5.4215
X31.6025Y109.6411I4.7041J2.4948
G01 Y103.5961
X33.1900
Y111.1900
G02X28.3200Y114.0132I-0.9281J4.0110
G01 X28.1900 Y114.9992
X28.1751 Y183.0988
X26.3100
Y115.0000
G02X22.5000Y111.1900I-3.8100J0.0000
G01 X16.0000
G02X12.1900Y115.0000I0.0000J3.8100
G01 Y183.0988
X11.8100
Y115.0000
G02X8.0000Y111.1900I-3.8100J0.0000
G01 X6.8100
Y93.8100
G02X11.6802Y90.9861I0.9281J-4.0110
G01 X11.8100 Y90.0000
Y21.9012
X12.1900
Y90.0000
G02X16.0000Y93.8100I3.8100J0.0000
G01 X22.5000
G02X26.3100Y90.0000I0.0000J-3.8100
G01 Y36.1333
G03X28.3244Y32.5524I4.1900J0.0000
G01 X44.3555 Y23.2957
X45.2954 Y24.9238
X34.0950 Y31.3904
G02X28.1915Y41.4269I5.9050J10.2278
G01 X28.1900 Y89.9999
G02X32.0000Y93.8100I3.8100J0.0001
G01 X33.1900
Y103.5961
G00 Z30.1750
X28.9497 Y34.0430
G01 Z21.0000  F1000.0
G02X27.9146Y35.8359I1.5503J2.0903
G03X28.9497Y34.0430I12.0854J5.7823
G01 X29.5815 Y34.8949 Z22.0607
Z22.6607
G00 Z30.1750
X25.2525 Y103.5961
G01 Z21.0000  F1000.0
Y101.4074
G03X22.8493Y101.7347I-2.9360J-12.5684
G01 X16.0046 Y101.7475
X15.4550 Y101.7247
X14.7475 Y101.6435
Y103.3503
X14.9487 Y103.3225
X15.6507 Y103.2653
X22.4954 Y103.2525
G03X25.2525Y103.5961I-0.3776J14.2636
G01 X26.8400
Y105.8362
G02X22.4973Y104.8400I-4.4069J9.2478
G01 X15.7732 Y104.8480
G02X13.1600Y105.2595I0.3387J10.6542
G01 Y99.7427
G02X16.0027Y100.1600I3.1298J-11.4301
G01 X22.7268 Y100.1520
G02X26.8400Y99.1608I-0.2359J-10.0091
G01 Y103.5961
X28.4275
Y97.7637
G03X27.2500Y97.1168I2.2036J-5.4056
X22.7249Y98.5645I-4.8248J-7.2848
G01 X16.0008 Y98.5725
G03X12.0000Y97.5690I0.0733J-8.7687
G01 X11.8222 Y97.6567
X11.5725 Y97.7637
Y107.2363
X11.7275 Y107.3005
X12.0000 Y107.4310
X12.1778 Y107.3433
G03X15.7751Y106.4355I3.8573J7.7034
G01 X22.4992 Y106.4275
G03X27.2500Y107.8833I-0.0480J8.6365
X28.4275Y107.2362I3.4826J4.9427
G01 Y103.5961
X30.0150
Y108.3145
G02X27.2500Y109.8950I1.9688J6.6535
X22.5000Y108.0150I-4.8075J5.2061
G01 X15.8962 Y108.0184
G02X12.0000Y109.3060I0.1421J6.9688
X9.9850Y108.3145I-3.7080J4.9926
G01 Y96.6855
G02X12.0000Y95.6940I-1.6930J-5.9841
X16.0000Y96.9850I4.0481J-5.7002
G01 X22.6038 Y96.9816
G02X27.2500Y95.1050I-0.1649J-7.0982
X30.0150Y96.6855I4.7313J-5.0684
G01 Y103.5961
X31.6025
Y95.3589
G03X27.2500Y92.5406I0.3515J-5.3130
X22.5000Y95.3975I-4.7735J-2.5594
G01 X16.0000
G03X12.0000Y93.5999I0.0192J-5.3919
X8.3975Y95.3589I-3.9307J-3.4818
G01 Y109.6411
G03X12.0000Y111.4001I-0.3277J5.2398
X16.0000Y109.6025I4.0192J3.5943
G01 X22.5000
G03X27.2500Y112.4594I-0.0266J5.4215
X31.6025Y109.6411I4.7041J2.4948
G01 Y103.5961
X33.1900
Y111.1900
G02X28.3200Y114.0132I-0.9281J4.0110
G01 X28.1900 Y114.9992
X28.1751 Y183.0988
X26.3100
Y115.0000
G02X22.5000Y111.1900I-3.8100J0.0000
G01 X16.0000
G02X12.1900Y115.0000I0.0000J3.8100
G01 Y183.0988
X11.8100
Y115.0000
G02X8.0000Y111.1900I-3.8100J0.0000
G01 X6.8100
Y93.8100
G02X11.6802Y90.9861I0.9281J-4.0110
G01 X11.8100 Y90.0000
Y21.9012
X12.1900
Y90.0000
G02X16.0000Y93.8100I3.8100J0.0000
G01 X22.5000
G02X26.3100Y90.0000I0.0000J-3.8100
G01 Y36.1333
G03X28.3244Y32.5524I4.1900J0.0000
G01 X44.3555 Y23.2957
X45.2954 Y24.9238
X34.0950 Y31.3904
G02X28.1915Y41.4269I5.9050J10.2278
G01 X28.1900 Y89.9999
G02X32.0000Y93.8100I3.8100J0.0001
G01 X33.1900
Y103.5961
X32.1293 Z22.0607
Z22.6607
G00 Z30.1750
X76.9552 Y153.8488
G01 Z26.2000  F1000.0
Z25.6000
X76.9254 Y153.8635 Z25.5941
X76.9627 Y153.8818 Z25.5868
X77.0000 Y153.9002 Z25.5795
X77.0746 Y153.8635 Z25.5648
X77.0000 Y153.8267 Z25.5501
X76.9254 Y153.8635 Z25.5355
X76.9627 Y153.8818 Z25.5281
X77.0000 Y153.9002 Z25.5208
X77.0746 Y153.8635 Z25.5061
X77.0000 Y153.8267 Z25.4914
X76.9254 Y153.8635 Z25.4768
X76.9627 Y153.8818 Z25.4694
X77.0000 Y153.9002 Z25.4621
X77.0746 Y153.8635 Z25.4474
X77.0000 Y153.8267 Z25.4328
X76.9254 Y153.8635 Z25.4181
X76.9627 Y153.8818 Z25.4108
X77.0000 Y153.9002 Z25.4034
X77.0746 Y153.8635 Z25.3888
X77.0000 Y153.8267 Z25.3741
X76.9254 Y153.8635 Z25.3594
X76.9627 Y153.8818 Z25.3521
X77.0000 Y153.9002 Z25.3448
X77.0746 Y153.8635 Z25.3301
X77.0000 Y153.8267 Z25.3154
X76.9254 Y153.8635 Z25.3007
X76.9627 Y153.8818 Z25.2934
X77.0000 Y153.9002 Z25.2861
X77.0746 Y153.8635 Z25.2714
X77.0000 Y153.8267 Z25.2567
X76.9254 Y153.8635 Z25.2421
X76.9627 Y153.8818 Z25.2347
X77.0000 Y153.9002 Z25.2274
X77.0746 Y153.8635 Z25.2127
X77.0000 Y153.8267 Z25.1981
X76.9254 Y153.8635 Z25.1834
X76.9627 Y153.8818 Z25.1760
X77.0000 Y153.9002 Z25.1687
X77.0746 Y153.8635 Z25.1540
X77.0000 Y153.8267 Z25.1394
X76.9254 Y153.8635 Z25.1247
X76.9627 Y153.8818 Z25.1174
X77.0000 Y153.9002 Z25.1100
X77.0746 Y153.8635 Z25.0954
X77.0000 Y153.8267 Z25.0807
X76.9254 Y153.8635 Z25.0660
X76.9627 Y153.8818 Z25.0587
X77.0000 Y153.9002 Z25.0514
X77.0746 Y153.8635 Z25.0367
X77.0000 Y153.8267 Z25.0220
X76.9254 Y153.8635 Z25.0073
X76.9627 Y153.8818 Z25.0000
X77.0000 Y153.9002
X77.0746 Y153.8635
X77.0000 Y153.8267
X76.9254 Y153.8635
X76.9627 Y153.8818
X76.3025 Y155.2206
G02X74.9850Y154.6780I-4.0980J8.0799
G01 Y153.0489
G02X77.0000Y152.0575I-1.6930J-5.9841
X79.0150Y153.0489I3.7080J-4.9927
G01 Y154.6780
G02X77.0000Y155.6694I1.6930J5.9841
G01 X76.8378 Y155.5450
X76.6652 Y155.4296
X76.3063 Y155.2224
X76.3025 Y155.2206
X75.5125 Y156.5972
G03X77.0000Y157.7635I-2.2934J4.4568
X80.6025Y156.0046I3.9307J3.4818
G01 Y151.7223
G03X77.0000Y149.9634I0.3277J-5.2398
X73.3975Y151.7223I-3.9307J-3.4818
G01 Y156.0046
G03X75.5125Y156.5972I-0.2472J4.9525
G01 X74.9050 Y158.0639
G02X71.8100Y157.5535I-2.2851J4.2173
G01 Y150.1735
G02X76.6802Y147.3496I0.9281J-4.0110
G01 X76.8100 Y146.3635
Y124.6281
X77.1900
Y146.3635
G02X81.0000Y150.1735I3.8100J0.0000
G01 X82.1900
Y157.5535
G02X77.3198Y160.3774I-0.9281J4.0109
G01 X77.1900 Y161.3635
Y183.0988
X76.8100
Y161.3635
G02X74.9050Y158.0639I-3.8100J0.0000
G00 Z30.1750
X76.9627 Y153.8818
G01 Z23.0000  F1000.0
X77.0000 Y153.9002
X77.0746 Y153.8635
X77.0000 Y153.8267
X76.9254 Y153.8635
X76.9627 Y153.8818
X76.3025 Y155.2206
G02X74.9850Y154.6780I-4.0980J8.0799
G01 Y153.0489
G02X77.0000Y152.0575I-1.6930J-5.9841
X79.0150Y153.0489I3.7080J-4.9927
G01 Y154.6780
G02X77.0000Y155.6694I1.6930J5.9841
G01 X76.8378 Y155.5450
X76.6652 Y155.4296
X76.3063 Y155.2224
X76.3025 Y155.2206
X75.5125 Y156.5972
G03X77.0000Y157.7635I-2.2934J4.4568
X80.6025Y156.0046I3.9307J3.4818
G01 Y151.7223
G03X77.0000Y149.9634I0.3277J-5.2398
X73.3975Y151.7223I-3.9307J-3.4818
G01 Y156.0046
G03X75.5125Y156.5972I-0.2472J4.9525
G01 X74.9050 Y158.0639
G02X71.8100Y157.5535I-2.2851J4.2173
G01 Y150.1735
G02X76.6802Y147.3496I0.9281J-4.0110
G01 X76.8100 Y146.3635
Y124.6281
X77.1900
Y146.3635
G02X81.0000Y150.1735I3.8100J0.0000
G01 X82.1900
Y157.5535
G02X77.3198Y160.3774I-0.9281J4.0109
G01 X77.1900 Y161.3635
Y183.0988
X76.8100
Y161.3635
G02X74.9050Y158.0639I-3.8100J0.0000
G00 Z30.1750
X76.9627 Y153.8818
G01 Z21.0000  F1000.0
X77.0000 Y153.9002
X77.0746 Y153.8635
X77.0000 Y153.8267
X76.9254 Y153.8635
X76.9627 Y153.8818
X76.3025 Y155.2206
G02X74.9850Y154.6780I-4.0980J8.0799
G01 Y153.0489
G02X77.0000Y152.0575I-1.6930J-5.9841
X79.0150Y153.0489I3.7080J-4.9927
G01 Y154.6780
G02X77.0000Y155.6694I1.6930J5.9841
G01 X76.8378 Y155.5450
X76.6652 Y155.4296
X76.3063 Y155.2224
X76.3025 Y155.2206
X75.5125 Y156.5972
G03X77.0000Y157.7635I-2.2934J4.4568
X80.6025Y156.0046I3.9307J3.4818
G01 Y151.7223
G03X77.0000Y149.9634I0.3277J-5.2398
X73.3975Y151.7223I-3.9307J-3.4818
G01 Y156.0046
G03X75.5125Y156.5972I-0.2472J4.9525
G01 X74.9050 Y158.0639
G02X71.8100Y157.5535I-2.2851J4.2173
G01 Y150.1735
G02X76.6802Y147.3496I0.9281J-4.0110
G01 X76.8100 Y146.3635
Y124.6281
X77.1900
Y146.3635
G02X81.0000Y150.1735I3.8100J0.0000
G01 X82.1900
Y157.5535
G02X77.3198Y160.3774I-0.9281J4.0109
G01 X77.1900 Y161.3635
Y183.0988
X76.8100
Y161.3635
G02X74.9050Y158.0639I-3.8100J0.0000
G01 X75.5507 Y157.2224 Z22.0607
Z22.6607
G00 Z30.1750
(2 1/2 Axis Pocketing-Finish)
(Endmill 1/4in 6.35mm Carbide Roughing)
X19.3621 Y107.0625
G01 Z21.7000  F1000.0
Z21.1000
X16.0000 Z20.5072
X15.9593 Y107.0628 Z20.5000
G02X11.9138Y108.0945I0.2525J9.4374
X10.9375Y107.6261I-3.9135J6.9048
G01 Y97.3739
G02X12.0392Y96.8783I-21.6715J-49.6523
X16.0000Y97.9375I3.9605J-6.8750
X23.1227Y97.9128I3.3482J-61.3658
X27.2691Y96.3733I-0.6906J-8.2138
X29.0625Y97.3739I4.7245J-6.3598
G01 Y107.6261
G02X27.2309Y108.6268I3.6432J8.8449
X22.5000Y107.0625I-4.7322J6.3757
G01 X16.0000
X15.9593 Y107.0628
X16.0000 Y111.8250
G02X12.8250Y115.0000I0.0000J3.1750
G01 Y183.6588
X12.8150 Y183.6963
X12.7875 Y183.7238
X12.7500 Y183.7338
X11.2500
X11.2125 Y183.7238
X11.1850 Y183.6963
X11.1750 Y183.6588
Y115.0000
G02X8.0000Y111.8250I-3.1750J0.0000
G01 X6.1750
Y93.1750
G02X9.2649Y92.9121I1.0714J-5.6979
X11.1750Y90.0000I-1.2649J-2.9121
G01 Y21.3412
X11.1850 Y21.3037
X11.2125 Y21.2762
X11.2500 Y21.2662
X12.7500
X12.7875 Y21.2762
X12.8150 Y21.3037
X12.8250 Y21.3412
Y90.0000
G02X16.0000Y93.1750I3.1750J0.0000
X22.7167Y93.1676I3.2500J-98.3127
X25.6750Y90.0000I-0.2167J-3.1676
G01 Y36.1333
G03X28.0013Y32.0058I4.8250J0.0000
X44.5224Y22.4661I19022.2836J32924.3389
G01 X44.5229 Y22.4658
X44.5604 Y22.4557
X44.5979 Y22.4658
X44.6254 Y22.4932
X46.1254 Y25.0913
X46.1354 Y25.1288
X46.1254 Y25.1663
X46.0979 Y25.1938
X34.4125 Y31.9403
G02X28.8265Y41.4372I5.5875J9.6779
X28.8269Y90.1085I2988.3298J24.3118
X32.0000Y93.1750I3.1731J-0.1085
G01 X33.8250
Y111.8250
G02X30.7351Y112.0879I-1.0714J5.6979
X28.8250Y115.0000I1.2649J2.9121
G01 Y183.6207
X28.8240 Y183.6621
X28.8230 Y183.6761
X28.8084 Y183.7059
X28.7824 Y183.7265
X28.7500 Y183.7338
X25.7500
X25.7125 Y183.7238
X25.6850 Y183.6963
X25.6750 Y183.6588
Y115.0000
G02X22.5000Y111.8250I-3.1750J0.0000
G01 X16.0000
Y110.7643 Z21.5607
Z22.1607
G00 Z30.1750
X75.9391 Y153.7367
G01 Z21.7000  F1000.0
Z21.1000
X75.9873 Y153.7171 Z21.0908
X76.0875 Y153.6756 Z21.0717
X76.1374 Y153.6545 Z21.0622
X76.1871 Y153.6329 Z21.0526
X76.2366 Y153.6108 Z21.0430
X76.3353 Y153.5659 Z21.0239
X76.3845 Y153.5432 Z21.0144
X76.4335 Y153.5199 Z21.0048
X76.4822 Y153.4961 Z20.9952
X76.5793 Y153.4478 Z20.9761
X76.6277 Y153.4234 Z20.9666
X76.6758 Y153.3985 Z20.9570
X76.7236 Y153.3730 Z20.9474
X76.8190 Y153.3215 Z20.9283
X76.8666 Y153.2955 Z20.9188
X76.9138 Y153.2689 Z20.9092
X76.9608 Y153.2418 Z20.8997
X77.0000 Y153.2189 Z20.8916
X77.0392 Y153.2418 Z20.8836
X77.0862 Y153.2689 Z20.8741
X77.1334 Y153.2955 Z20.8645
X77.1810 Y153.3215 Z20.8550
X77.2764 Y153.3730 Z20.8358
X77.3242 Y153.3985 Z20.8263
X77.3723 Y153.4234 Z20.8167
X77.4207 Y153.4478 Z20.8072
X77.5178 Y153.4961 Z20.7881
X77.5665 Y153.5199 Z20.7785
X77.6155 Y153.5432 Z20.7689
X77.6647 Y153.5659 Z20.7594
X77.7634 Y153.6108 Z20.7403
X77.8129 Y153.6329 Z20.7307
X77.8626 Y153.6545 Z20.7211
X77.9125 Y153.6756 Z20.7116
X78.0127 Y153.7171 Z20.6925
X78.0625 Y153.7374 Z20.6830
Y153.9895 Z20.6385
X78.0127 Y154.0098 Z20.6290
X77.9125 Y154.0513 Z20.6099
X77.8626 Y154.0724 Z20.6004
X77.8129 Y154.0940 Z20.5908
X77.7634 Y154.1161 Z20.5812
X77.6647 Y154.1610 Z20.5621
X77.6155 Y154.1837 Z20.5526
X77.5665 Y154.2070 Z20.5430
X77.5178 Y154.2308 Z20.5335
X77.4207 Y154.2791 Z20.5143
X77.3723 Y154.3035 Z20.5048
X77.3483 Y154.3159 Z20.5000
X77.3242 Y154.3284
X77.2764 Y154.3539
X77.1810 Y154.4054
X77.1334 Y154.4314
X77.0862 Y154.4580
X77.0392 Y154.4851
X77.0000 Y154.5080
G02X75.9375Y153.9895I-4.0073J6.8639
G01 Y153.7374
X75.9873 Y153.7171
X76.0875 Y153.6756
X76.1374 Y153.6545
X76.1871 Y153.6329
X76.2366 Y153.6108
X76.3353 Y153.5659
X76.3845 Y153.5432
X76.4335 Y153.5199
X76.4822 Y153.4961
X76.5793 Y153.4478
X76.6277 Y153.4234
X76.6758 Y153.3985
X76.7236 Y153.3730
X76.8190 Y153.3215
X76.8666 Y153.2955
X76.9138 Y153.2689
X76.9608 Y153.2418
X77.0000 Y153.2189
G02X78.0625Y153.7374I4.0073J-6.8639
G01 Y153.9895
X78.0127 Y154.0098
X77.9125 Y154.0513
X77.8626 Y154.0724
X77.8129 Y154.0940
X77.7634 Y154.1161
X77.6647 Y154.1610
X77.6155 Y154.1837
X77.5665 Y154.2070
X77.5178 Y154.2308
X77.4207 Y154.2791
X77.3723 Y154.3035
X77.3483 Y154.3159
X79.5393 Y158.5444
G02X77.8250Y161.3634I1.4607J2.8190
G01 Y183.6588
X77.8150 Y183.6963
X77.7875 Y183.7238
X77.7500 Y183.7338
X76.2500
X76.2125 Y183.7238
X76.1850 Y183.6963
X76.1750 Y183.6588
Y161.3634
G02X73.0000Y158.1884I-3.1750J0.0000
G01 X71.1750
Y149.5384
Y149.5385
Y149.5384
G02X74.2649Y149.2756I1.0714J-5.6978
X76.1750Y146.3634I-1.2649J-2.9122
G01 Y124.0681
X76.1850 Y124.0306
X76.2125 Y124.0031
X76.2500 Y123.9931
X77.7500
X77.7875 Y124.0031
X77.8150 Y124.0306
X77.8250 Y124.0681
Y146.3634
G02X81.0000Y149.5384I3.1750J0.0000
G01 X82.8250
Y149.5385
Y158.1884
G02X79.7351Y158.4513I-1.0714J5.6979
G01 X79.6364 Y158.4962
X79.5393 Y158.5444
X79.0675 Y157.5945 Z21.5607
Z22.1607
G00 Z30.1750
(2 1/2 Axis Pocketing)
(Endmill 1/4in 6.35mm Carbide Roughing)
X21.8497 Y103.2525
G01 Z19.2000  F1000.0
Z18.6000
X25.2525 Z18.0000
Y101.7475
X14.7475
Y103.2525
X25.2525
X26.8400
Y104.8400
X13.1600
Y100.1600
X26.8400
Y103.2525
X28.4275
Y98.5725
X11.5725
Y106.4275
X28.4275
Y103.2525
X30.0150
Y108.0150
X9.9850
Y96.9850
X30.0150
Y103.2525
X31.6025
Y95.3975
X8.3975
Y109.6025
X31.6025
Y103.2525
X33.1900
Y111.1900
X6.8100
Y93.8100
X33.1900
Y103.2525
G00 Z30.1750
X25.2525
G01 Z15.5000  F1000.0
Y101.7475
X14.7475
Y103.2525
X25.2525
X26.8400
Y104.8400
X13.1600
Y100.1600
X26.8400
Y103.2525
X28.4275
Y98.5725
X11.5725
Y106.4275
X28.4275
Y103.2525
X30.0150
Y108.0150
X9.9850
Y96.9850
X30.0150
Y103.2525
X31.6025
Y95.3975
X8.3975
Y109.6025
X31.6025
Y103.2525
X33.1900
Y111.1900
X6.8100
Y93.8100
X33.1900
Y103.2525
X32.1293 Z16.5607
Z17.1607
G00 Z30.1750
X76.6422 Y153.3485
G01 Z19.2000  F1000.0
Z18.6000
X79.0150 Z18.1816
Y154.3785 Z18.0000
X74.9850
Y153.3485
X79.0150
Y154.3785
X80.6025
Y151.7610
X73.3975
Y155.9660
X80.6025
Y154.3785
X82.1900
Y157.5535
X71.8100
Y150.1735
X82.1900
Y154.3785
G00 Z30.1750
X79.0150
G01 Z15.5000  F1000.0
X74.9850
Y153.3485
X79.0150
Y154.3785
X80.6025
Y151.7610
X73.3975
Y155.9660
X80.6025
Y154.3785
X82.1900
Y157.5535
X71.8100
Y150.1735
X82.1900
Y154.3785
X81.1293 Z16.5607
Z17.1607
G00 Z30.1750
(2 1/2 Axis Pocketing-Finish)
(Endmill 1/4in 6.35mm Carbide Roughing)
X14.3403 Y107.0625
G01 Z16.2000  F1000.0
Z15.6000
X10.9375 Z15.0000
Y97.9375
X14.1125
Y101.1125
X25.8875
Y103.8875
X14.1125
Y101.1125
Y97.9375
X29.0625
Y107.0625
X10.9375
X6.1750
Y93.1750
X33.8250
Y106.6700
Y111.8250
X6.1750
Y107.0625
X7.2357 Z16.0607
Z16.6607
G00 Z30.1750
X82.8250 Y152.9640
G01 Z16.2000  F1000.0
Z15.6000
Y156.3668 Z15.0000
Y158.1885
X71.1750
Y155.0135
X74.3500
Y152.7135
X79.6500
Y155.0135
X74.3500
X71.1750
Y149.5385
X82.8250
Y156.3668
X81.7643 Z16.0607
Z16.6607
G00 Z30.1750
(2 1/2 Axis Pocketing)
(Endmill 1/4in 6.35mm Carbide Roughing)
X77.6025 Y25.6864
G01 Z25.2000  F1000.0
Z24.6000
Y23.4887 Z24.2125
X76.3975 Z24.0000
Y78.7844
X77.6025
Y23.4887
X76.3975
Y21.9012
X79.1900
Y80.3719
X74.8100
Y21.9012
X76.3975
G00 Z30.1750
Y23.4887
G01 Z21.0000  F1000.0
Y78.7844
X77.6025
Y23.4887
X76.3975
Y21.9012
X79.1900
Y80.3719
X74.8100
Y21.9012
X76.3975
G00 Z30.1750
Y23.4887
G01 Z18.0000  F1000.0
Y78.7844
X77.6025
Y23.4887
X76.3975
Y21.9012
X79.1900
Y80.3719
X74.8100
Y21.9012
X76.3975
Y22.9618 Z19.0607
Z19.6607
G00 Z30.1750
(2 1/2 Axis Pocketing-Finish)
(Endmill 1/4in 6.35mm Carbide Roughing)
X77.6528 Y81.0069
G01 Z18.7000  F1000.0
Z18.1000
X74.2500 Z17.5000
X74.2248 Y81.0026
X74.2025 Y80.9900
X74.1857 Y80.9706
X74.1798 Y80.9584
X74.1762 Y80.9454
X74.1750 Y80.9319
Y21.3412
X74.1850 Y21.3037
X74.2125 Y21.2762
X74.2500 Y21.2662
X79.7500
X79.7875 Y21.2762
X79.8150 Y21.3037
X79.8250 Y21.3412
Y80.9319
X79.8150 Y80.9694
X79.7875 Y80.9969
X79.7500 Y81.0069
X74.2500
X74.5199 Y79.9812 Z18.5607
Z19.1607
G00 Z30.1750
(2 1/2 Axis Pocketing)
(Endmill 1/4in 6.35mm Carbide Roughing)
X51.4850 Y51.2823
G01 Z25.3667  F1000.0
Z24.7667
Y49.4947 Z24.4515
X51.4940 Y49.3991 Z24.4345
X51.5205 Y49.3069 Z24.4176
X51.5637 Y49.2212 Z24.4007
X51.6221 Y49.1449 Z24.3838
X51.6937 Y49.0809 Z24.3668
X51.7758 Y49.0313 Z24.3499
X51.8658 Y48.9978 Z24.3330
X51.9604 Y48.9816 Z24.3160
X52.0564 Y48.9832 Z24.2991
X52.1505 Y49.0026 Z24.2822
X52.2392 Y49.0392 Z24.2653
X52.3197 Y49.0916 Z24.2483
X52.3890 Y49.1581 Z24.2314
X52.4447 Y49.2362 Z24.2145
X52.4850 Y49.3234 Z24.1975
X52.4867 Y49.3284 Z24.1966
X52.4903 Y49.3390 Z24.1946
X52.4937 Y49.3497 Z24.1927
X52.4969 Y49.3605 Z24.1907
X52.4998 Y49.3713 Z24.1887
X52.5024 Y49.3822 Z24.1867
X52.5048 Y49.3932 Z24.1847
X52.5069 Y49.4042 Z24.1828
X52.5088 Y49.4153 Z24.1808
X52.5105 Y49.4264 Z24.1788
X52.5119 Y49.4375 Z24.1768
X52.5130 Y49.4487 Z24.1748
X52.5139 Y49.4599 Z24.1729
X52.5145 Y49.4711 Z24.1709
X52.5149 Y49.4823 Z24.1689
X52.5150 Y49.4935 Z24.1669
Y49.4950 Z24.1667
Y52.5100
X51.4850
Y49.4947
G03X52.4850Y49.3234I0.5147J0.0000
G01 X52.4867 Y49.3284
X52.5024 Y49.3822
X52.5119 Y49.4375
X52.5150 Y49.4935
Y49.4950
X54.1025
G02X53.9833Y48.7988I-2.0812J-0.0020
G01 X53.9819 Y48.7950
G02X49.8975Y49.4948I-1.9822J0.6997
G01 Y54.0975
X54.1025
Y49.4950
X55.6900
Y55.6850
X48.3100
Y49.4949
G03X55.4789Y48.2666I3.6897J-0.0002
G01 X55.4799 Y48.2693
G03X55.6900Y49.4950I-3.4585J1.2237
G00 Z30.1750
X52.5150
G01 Z21.3333  F1000.0
Y52.5100
X51.4850
Y49.4947
G03X52.4850Y49.3234I0.5147J0.0000
G01 X52.4867 Y49.3284
X52.5024 Y49.3822
X52.5119 Y49.4375
X52.5150 Y49.4935
Y49.4950
X54.1025
G02X53.9833Y48.7988I-2.0812J-0.0020
G01 X53.9819 Y48.7950
G02X49.8975Y49.4948I-1.9822J0.6997
G01 Y54.0975
X54.1025
Y49.4950
X55.6900
Y55.6850
X48.3100
Y49.4949
G03X55.4789Y48.2666I3.6897J-0.0002
G01 X55.4799 Y48.2693
G03X55.6900Y49.4950I-3.4585J1.2237
G00 Z30.1750
X52.5150
G01 Z18.5000  F1000.0
Y52.5100
X51.4850
Y49.4947
G03X52.4850Y49.3234I0.5147J0.0000
G01 X52.4867 Y49.3284
X52.5024 Y49.3822
X52.5119 Y49.4375
X52.5150 Y49.4935
Y49.4950
X54.1025
G02X53.9833Y48.7988I-2.0812J-0.0020
G01 X53.9819 Y48.7950
G02X49.8975Y49.4948I-1.9822J0.6997
G01 Y54.0975
X54.1025
Y49.4950
X55.6900
Y55.6850
X48.3100
Y49.4949
G03X55.4789Y48.2666I3.6897J-0.0002
G01 X55.4799 Y48.2693
G03X55.6900Y49.4950I-3.4585J1.2237
G00 Z30.1750
X52.5150
G01 Z15.6667  F1000.0
Y52.5100
X51.4850
Y49.4947
G03X52.4850Y49.3234I0.5147J0.0000
G01 X52.4867 Y49.3284
X52.5024 Y49.3822
X52.5119 Y49.4375
X52.5150 Y49.4935
Y49.4950
X54.1025
G02X53.9833Y48.7988I-2.0812J-0.0020
G01 X53.9819 Y48.7950
G02X49.8975Y49.4948I-1.9822J0.6997
G01 Y54.0975
X54.1025
Y49.4950
X55.6900
Y55.6850
X48.3100
Y49.4949
G03X55.4789Y48.2666I3.6897J-0.0002
G01 X55.4799 Y48.2693
G03X55.6900Y49.4950I-3.4585J1.2237
G00 Z30.1750
X52.5150
G01 Z12.8333  F1000.0
Y52.5100
X51.4850
Y49.4947
G03X52.4850Y49.3234I0.5147J0.0000
G01 X52.4867 Y49.3284
X52.5024 Y49.3822
X52.5119 Y49.4375
X52.5150 Y49.4935
Y49.4950
X54.1025
G02X53.9833Y48.7988I-2.0812J-0.0020
G01 X53.9819 Y48.7950
G02X49.8975Y49.4948I-1.9822J0.6997
G01 Y54.0975
X54.1025
Y49.4950
X55.6900
Y55.6850
X48.3100
Y49.4949
G03X55.4789Y48.2666I3.6897J-0.0002
G01 X55.4799 Y48.2693
G03X55.6900Y49.4950I-3.4585J1.2237
G00 Z30.1750
X52.5150
G01 Z10.0000  F1000.0
Y52.5100
X51.4850
Y49.4947
G03X52.4850Y49.3234I0.5147J0.0000
G01 X52.4867 Y49.3284
X52.5024 Y49.3822
X52.5119 Y49.4375
X52.5150 Y49.4935
Y49.4950
X54.1025
G02X53.9833Y48.7988I-2.0812J-0.0020
G01 X53.9819 Y48.7950
G02X49.8975Y49.4948I-1.9822J0.6997
G01 Y54.0975
X54.1025
Y49.4950
X55.6900
Y55.6850
X48.3100
Y49.4949
G03X55.4789Y48.2666I3.6897J-0.0002
G01 X55.4799 Y48.2693
G03X55.6900Y49.4950I-3.4585J1.2237
G01 X54.6293 Z11.0607
Z11.6607
G00 Z30.1750
X51.4859 Y152.2318
G01 Z25.3667  F1000.0
Z24.7667
X51.4904 Y149.4647 Z24.2788
X52.1259 Y149.4783 Z24.1667
X52.2893 Y149.4818
X52.5096 Y149.4752
X52.5144 Y152.4761
G03X52.3910Y152.8348I-0.5129J0.0241
G01 X52.3904 Y152.8355
G03X51.4856Y152.4761I-0.3906J-0.3354
G01 X51.4904 Y149.4647
X52.1259 Y149.4783
X52.1645 Y147.8932
X49.9046 Y147.8382
X49.8998 Y152.4018
G02X53.5947Y153.8699I2.1000J0.0983
G01 X53.5950 Y153.8695
G02X54.1002Y152.4019I-1.5935J-1.3693
G01 X54.0954 Y147.8392
X52.2415 Y147.8951
X52.1645 Y147.8932
X52.1938 Y146.3083
X55.6818 Y146.2032
X55.6860 Y152.3277
G03X54.7990Y154.9042I-3.6845J0.1725
X48.3140Y152.3276I-2.7992J-2.4041
G01 X48.3182 Y146.2099
X52.1938 Y146.3083
G00 Z30.1750
X52.1259 Y149.4783
G01 Z21.3333  F1000.0
X52.2893 Y149.4818
X52.5096 Y149.4752
X52.5144 Y152.4761
G03X52.3910Y152.8348I-0.5129J0.0241
G01 X52.3904 Y152.8355
G03X51.4856Y152.4761I-0.3906J-0.3354
G01 X51.4904 Y149.4647
X52.1259 Y149.4783
X52.1645 Y147.8932
X49.9046 Y147.8382
X49.8998 Y152.4018
G02X53.5947Y153.8699I2.1000J0.0983
G01 X53.5950 Y153.8695
G02X54.1002Y152.4019I-1.5935J-1.3693
G01 X54.0954 Y147.8392
X52.2415 Y147.8951
X52.1645 Y147.8932
X52.1938 Y146.3083
X55.6818 Y146.2032
X55.6860 Y152.3277
G03X54.7990Y154.9042I-3.6845J0.1725
X48.3140Y152.3276I-2.7992J-2.4041
G01 X48.3182 Y146.2099
X52.1938 Y146.3083
G00 Z30.1750
X52.1259 Y149.4783
G01 Z18.5000  F1000.0
X52.2893 Y149.4818
X52.5096 Y149.4752
X52.5144 Y152.4761
G03X52.3910Y152.8348I-0.5129J0.0241
G01 X52.3904 Y152.8355
G03X51.4856Y152.4761I-0.3906J-0.3354
G01 X51.4904 Y149.4647
X52.1259 Y149.4783
X52.1645 Y147.8932
X49.9046 Y147.8382
X49.8998 Y152.4018
G02X53.5947Y153.8699I2.1000J0.0983
G01 X53.5950 Y153.8695
G02X54.1002Y152.4019I-1.5935J-1.3693
G01 X54.0954 Y147.8392
X52.2415 Y147.8951
X52.1645 Y147.8932
X52.1938 Y146.3083
X55.6818 Y146.2032
X55.6860 Y152.3277
G03X54.7990Y154.9042I-3.6845J0.1725
X48.3140Y152.3276I-2.7992J-2.4041
G01 X48.3182 Y146.2099
X52.1938 Y146.3083
G00 Z30.1750
X52.1259 Y149.4783
G01 Z15.6667  F1000.0
X52.2893 Y149.4818
X52.5096 Y149.4752
X52.5144 Y152.4761
G03X52.3910Y152.8348I-0.5129J0.0241
G01 X52.3904 Y152.8355
G03X51.4856Y152.4761I-0.3906J-0.3354
G01 X51.4904 Y149.4647
X52.1259 Y149.4783
X52.1645 Y147.8932
X49.9046 Y147.8382
X49.8998 Y152.4018
G02X53.5947Y153.8699I2.1000J0.0983
G01 X53.5950 Y153.8695
G02X54.1002Y152.4019I-1.5935J-1.3693
G01 X54.0954 Y147.8392
X52.2415 Y147.8951
X52.1645 Y147.8932
X52.1938 Y146.3083
X55.6818 Y146.2032
X55.6860 Y152.3277
G03X54.7990Y154.9042I-3.6845J0.1725
X48.3140Y152.3276I-2.7992J-2.4041
G01 X48.3182 Y146.2099
X52.1938 Y146.3083
G00 Z30.1750
X52.1259 Y149.4783
G01 Z12.8333  F1000.0
X52.2893 Y149.4818
X52.5096 Y149.4752
X52.5144 Y152.4761
G03X52.3910Y152.8348I-0.5129J0.0241
G01 X52.3904 Y152.8355
G03X51.4856Y152.4761I-0.3906J-0.3354
G01 X51.4904 Y149.4647
X52.1259 Y149.4783
X52.1645 Y147.8932
X49.9046 Y147.8382
X49.8998 Y152.4018
G02X53.5947Y153.8699I2.1000J0.0983
G01 X53.5950 Y153.8695
G02X54.1002Y152.4019I-1.5935J-1.3693
G01 X54.0954 Y147.8392
X52.2415 Y147.8951
X52.1645 Y147.8932
X52.1938 Y146.3083
X55.6818 Y146.2032
X55.6860 Y152.3277
G03X54.7990Y154.9042I-3.6845J0.1725
X48.3140Y152.3276I-2.7992J-2.4041
G01 X48.3182 Y146.2099
X52.1938 Y146.3083
G00 Z30.1750
X52.1259 Y149.4783
G01 Z10.0000  F1000.0
X52.2893 Y149.4818
X52.5096 Y149.4752
X52.5144 Y152.4761
G03X52.3910Y152.8348I-0.5129J0.0241
G01 X52.3904 Y152.8355
G03X51.4856Y152.4761I-0.3906J-0.3354
G01 X51.4904 Y149.4647
X52.1259 Y149.4783
X52.1645 Y147.8932
X49.9046 Y147.8382
X49.8998 Y152.4018
G02X53.5947Y153.8699I2.1000J0.0983
G01 X53.5950 Y153.8695
G02X54.1002Y152.4019I-1.5935J-1.3693
G01 X54.0954 Y147.8392
X52.2415 Y147.8951
X52.1645 Y147.8932
X52.1938 Y146.3083
X55.6818 Y146.2032
X55.6860 Y152.3277
G03X54.7990Y154.9042I-3.6845J0.1725
X48.3140Y152.3276I-2.7992J-2.4041
G01 X48.3182 Y146.2099
X52.1938 Y146.3083
X52.1668 Y147.3686 Z11.0607
Z11.6607
G00 Z30.1750
(2 1/2 Axis Pocketing-Finish)
(Endmill 1/4in 6.35mm Carbide Roughing)
X55.0528 Y46.4332
G01 Z10.5500  F1000.0
Z9.9500
X55.1557 Y46.5380 Z9.9241
X55.2882 Y46.6861 Z9.8891
X55.4137 Y46.8401 Z9.8540
X55.5320 Y46.9997 Z9.8190
X55.6428 Y47.1645 Z9.7840
X55.7460 Y47.3343 Z9.7490
X55.8413 Y47.5086 Z9.7139
X55.9284 Y47.6871 Z9.6789
X56.0073 Y47.8694 Z9.6439
X56.0777 Y48.0552 Z9.6088
X56.0785 Y48.0574 Z9.6084
X56.1100 Y48.1499 Z9.5912
X56.1395 Y48.2431 Z9.5740
X56.1668 Y48.3369 Z9.5567
X56.1920 Y48.4313 Z9.5395
X56.2150 Y48.5262 Z9.5223
X56.2359 Y48.6217 Z9.5051
X56.2546 Y48.7176 Z9.4878
X56.2711 Y48.8139 Z9.4706
X56.2854 Y48.9105 Z9.4534
X56.2975 Y49.0075 Z9.4361
X56.3074 Y49.1047 Z9.4189
X56.3152 Y49.2021 Z9.4017
X56.3207 Y49.2996 Z9.3845
X56.3239 Y49.3973 Z9.3672
X56.3250 Y49.4950 Z9.3500
Y56.3200
X47.6750
Y49.4949
G03X56.0777Y48.0552I4.3247J-0.0002
G01 X56.0785 Y48.0574
G03X56.3250Y49.4950I-4.0571J1.4356
G01 X55.2643 Z10.4107
Z11.0107
G00 Z30.1750
X47.6814 Y148.9418
G01 Z10.5500  F1000.0
Z9.9500
X47.6832 Y145.5390 Z9.3500
X48.0182 Y145.5579
G02X52.0733Y145.6750I4.1915J-74.8598
G01 X52.0929
G02X55.9816Y145.5579I-0.3302J-75.5995
G01 X56.3168 Y145.5390
X56.3203 Y152.2980
G03X55.2807Y155.3179I-4.3188J0.2022
X47.6797Y152.2979I-3.2809J-2.8178
G01 X47.6832 Y145.5390
X47.7427 Y144.4801 Z10.4107
Z11.0107
G00 Z30.1750
(Horizontal Roughing)
(Endmill 1/4in 6.35mm Carbide Roughing)
Z30.8100
X52.0783 Y94.9899
G01 Z30.1750  F1000.0
X52.0000 Y91.9362 Z29.6364
X50.7395 Y141.0764
X53.2600 Y141.0572
X52.0000 Y91.9362
X50.4130 Y91.8955
X51.2563 Y59.0200
X52.7437
X54.8884 Y142.6323
X49.1104 Y142.6764
X50.4130 Y91.8955
X48.8260 Y91.8548
X47.4814 Y144.2764
X56.5168 Y144.2073
X54.2910 Y57.4325
X49.7090
X48.8260 Y91.8548
X47.2391 Y91.8141
X48.1617 Y55.8450
X55.8383
X58.1453 Y145.7824
X45.8523 Y145.8764
X47.2391 Y91.8141
X45.6521 Y91.7734
X44.2233 Y147.4764
X59.7737 Y147.3575
X57.3856 Y54.2575
X46.6144
X45.6521 Y91.7734
X44.0651 Y91.7327
X45.0671 Y52.6700
X58.9329
X61.4020 Y148.9278
X44.6373 Y149.1062
X42.5980 Y148.9278
X44.0651 Y91.7327
X42.4781 Y91.6919
X40.9728 Y150.3792
X44.5702 Y150.6939
X59.9318 Y150.6500
X63.0272 Y150.3792
X60.4802 Y51.0825
X43.5198
X42.4781 Y91.6919
X40.8912 Y91.6512
X41.9725 Y49.4950
X44.5000
X62.0275
X64.6525 Y151.8305
X60.0033 Y152.2373
X44.5032 Y152.2816
X39.3475 Y151.8305
X40.8912 Y91.6512
Z30.2714
G00 Z30.6364
X51.4507 Y137.1210
G01 Z28.5777  F1000.0
Z27.9427
X51.2924 Y143.0432 Z26.8981
X52.0150 Y143.6183 Z26.7353
X52.2947 Y143.4002 Z26.6727
X52.6802 Y143.0996
X51.9924 Y116.8681
X51.2924 Y143.0432
X52.0150 Y143.6183
X52.2947 Y143.4002
X53.2709 Y144.6521
X52.0050 Y145.6392
X49.6843 Y143.7923
X52.0080 Y56.9014
X54.2882 Y143.8589
X53.2709 Y144.6521
X54.2384 Y145.9038
X55.8962 Y144.6224
X53.5598 Y55.5189
X52.5844 Y54.2575
X51.5137
X50.4610 Y55.3640
X48.0746 Y144.5984
X50.5496 Y146.3483
X51.3474 Y147.3960
X52.6831 Y147.3868
X53.0227 Y146.8434
X54.2384 Y145.9038
X55.1387 Y147.1102
X54.3690 Y147.6847
X53.5668 Y148.9683
X50.4914 Y148.9894
X49.5968 Y147.6182
X47.5687 Y146.0964
X46.4557 Y145.7513
X48.8904 Y54.7118
X50.3648 Y53.1620
X50.5993 Y52.6700
X53.4627
X54.3737 Y54.1227
X55.1284 Y54.7795
X57.5130 Y145.7197
X56.5828 Y146.0324
X55.1387 Y147.1102
X55.9726 Y148.3533
X57.4672 Y147.3508
X59.1348 Y147.0035
X56.6971 Y54.0402
X55.4159 Y52.9252
X54.4005 Y51.0825
X49.5974
X48.9318 Y52.4789
X47.3210 Y54.0147
X44.8367 Y146.9113
X47.0985 Y147.6127
X48.5854 Y148.8417
X49.5678 Y150.5832
X54.4505 Y150.5498
X55.7152 Y148.5260
X55.9726 Y148.3533
X57.0090 Y149.4460
G02X55.7378Y152.2495I3.4165J3.2390
G01 X48.2760 Y152.2708
X48.2590 Y151.9148
X48.1388 Y151.7590
X48.1971 Y151.5090
G02X45.2590Y148.5866I-3.7125J0.7944
G01 X43.2590 Y148.3823
X43.2095 Y148.3773
X43.2125 Y148.2590
X45.6501 Y53.2590
X45.7590 Y53.0412
G02X48.2623Y49.4950I-1.2046J-3.5070
G01 X55.7329
G02X58.2590Y53.0413I3.7154J0.0262
G01 X58.3522 Y53.2590
X60.5710 Y140.0090
X60.7590 Y148.3822
G02X57.0090Y149.4460I-0.3502J5.9069
G01 Z27.3077
G00 Z28.0571
X51.4894 Y135.7888
G01 Z25.6141  F1000.0
Z24.9791
X51.2971 Y142.9887 Z23.7091
X52.0042 Y143.4870
X52.6745 Y142.8696
X51.9936 Y116.9097
X51.2971 Y142.9887
X50.3827 Y144.2865
X49.6875 Y143.7966
X52.0081 Y56.9100
X54.2852 Y143.7324
X53.5523 Y144.1860
X52.0438 Y145.6873
X51.4654 Y145.0493
X50.3827 Y144.2865
X49.4684 Y145.5842
X50.5510 Y146.3470
X51.3716 Y147.4260
X52.5230 Y147.4501
X54.6722 Y145.3112
X55.8988 Y144.7078
X53.5558 Y55.3743
X52.5221 Y54.2575
X51.5111
X50.4584 Y55.4731
X48.0778 Y144.6044
X49.4684 Y145.5842
X48.5404 Y146.8269
X47.5510 Y146.0881
X46.4587 Y145.7660
X48.8899 Y54.7401
X49.8897 Y53.8574
X50.6301 Y52.6700
X53.4363
X53.8845 Y53.4477
X55.1263 Y54.7055
X57.5149 Y145.7783
X55.7590 Y146.4684
X53.9253 Y148.1907
X53.4741 Y149.0579
X50.5009 Y148.9956
X49.6012 Y147.6191
X48.5404 Y146.8269
X47.5703 Y147.9986
X48.5889 Y148.8419
X49.5651 Y150.5639
X54.4271 Y150.6657
X55.3336 Y148.9235
X56.7919 Y147.6739
X59.1332 Y146.9298
X56.6968 Y54.0367
X55.0142 Y52.3324
X54.4988 Y51.0825
X49.4938
G03X47.3235Y53.9293I-3.8238J-0.6645
G01 X44.8392 Y146.9434
X47.1019 Y147.6108
X47.5703 Y147.9986
X46.5420 Y149.1139
X46.5090 Y149.0834
X45.5090 Y148.6808
X43.2590 Y148.3689
X43.2160 Y148.2590
X45.6536 Y53.2590
X45.6579 Y53.0908
G02X48.2872Y49.4950I-1.1454J-3.5967
G01 X55.7285
G02X58.2590Y53.0479I3.8247J-0.0465
G01 X58.3487 Y53.2590
X60.0519 Y120.0090
X60.7590 Y148.3685
G02X56.6834Y149.7590I-0.3381J5.6774
X55.7342Y152.2495I2.8280J2.5039
G01 X48.2899 Y152.2708
X48.2590 Y151.9113
X48.1600 Y151.7590
X48.2026 Y151.5090
G02X46.5420Y149.1139I-3.6935J0.7875
G01 Z24.3441
G00 Z28.0967
X51.5283 Y135.8109
G01 Z22.6505  F1000.0
Z22.0155
X51.3394 Y143.0109 Z20.7455
X52.0013 Y143.4806
X52.6790 Y142.8561
X52.0171 Y117.1772
X51.3394 Y143.0109
X50.4207 Y144.3056
X49.7302 Y143.8156
X52.0310 Y56.1088
X54.2893 Y143.7222
X53.5376 Y144.1876
X52.0434 Y145.6884
X51.4741 Y145.0531
X50.4207 Y144.3056
X49.5019 Y145.6002
X50.5553 Y146.3477
X51.4122 Y147.4993
X52.4836 Y147.4963
X54.6626 Y145.3076
X55.9021 Y144.6984
X53.6410 Y55.6178
X52.6390 Y54.2575
X51.5230
X50.4622 Y55.3742
X48.1211 Y144.6203
X49.5019 Y145.6002
X48.5704 Y146.8452
X47.5556 Y146.0859
X46.5029 Y145.7694
X48.8914 Y54.7185
X50.3496 Y53.1982
X50.6078 Y52.6700
X53.4861
X54.6539 Y54.4125
X55.2089 Y54.8260
X57.5173 Y145.7700
X55.7514 Y146.4629
X53.9066 Y148.2014
X53.4415 Y149.0810
X50.5446 Y149.0893
X49.6043 Y147.6188
X48.5704 Y146.8452
X47.5986 Y148.0199
X48.5923 Y148.8420
X49.6110 Y150.6795
X54.3994 Y150.6658
X55.3100 Y148.9433
X56.7897 Y147.6637
X59.1346 Y146.9247
X56.7763 Y54.0140
X55.6023 Y53.1395
X54.3952 Y51.0825
X49.6166
X48.9233 Y52.5012
X47.3217 Y54.0189
X44.8841 Y146.9405
X47.0986 Y147.6062
X47.5986 Y148.0199
X46.5694 Y149.1358
X46.5090 Y149.0801
X45.2590 Y148.5801
X43.2590 Y148.3554
X45.6571 Y53.2590
X45.6609 Y53.1067
G02X48.2839Y49.4950I-1.2567J-3.6710
G01 X55.7651
G02X58.3409Y53.0923I3.6906J0.0783
G01 X58.3452 Y53.2590
X60.7590 Y148.3548
G02X56.6720Y149.7590I-0.2931J5.7972
X55.7726Y152.2494I2.3489J2.2559
G01 X48.2408 Y152.2709
G02X46.5694Y149.1358I-3.3387J-0.2331
G01 Z21.3805
G00 Z28.1162
X51.5102 Y136.4889
G01 Z19.6868  F1000.0
Z19.0518
X51.3370 Y143.0903 Z17.8874
X51.8083 Y143.4597 Z17.7818
X51.9215 Y143.5485
X52.6788 Y142.8446
X52.0169 Y117.1771
X51.3370 Y143.0903
X51.8083 Y143.4597
X50.8289 Y144.7091
X49.7291 Y143.8470
X52.0306 Y56.1299
X54.2892 Y143.7118
X53.5344 Y144.1784
X52.0520 Y145.6679
X50.8289 Y144.7091
X49.8808 Y145.9564
X50.8679 Y146.7068
X51.4614 Y147.4992
X52.4720 Y147.4963
X54.6596 Y145.2982
X55.9021 Y144.6891
X53.6383 Y55.6480
X52.6419 Y54.2575
X51.5087
X50.4610 Y55.4254
X48.1208 Y144.6185
X49.8808 Y145.9564
X48.9073 Y147.1679
X47.5573 Y146.0831
X46.5027 Y145.7648
X48.8914 Y54.7235
X50.0356 Y53.6445
X50.5614 Y52.6700
X53.4908
X54.7080 Y54.4933
X55.2071 Y54.8930
X57.5174 Y145.7621
X55.7482 Y146.4537
X53.8971 Y148.1976
X53.4266 Y149.0811
X50.5714 Y149.0892
X49.8736 Y147.9443
X48.9073 Y147.1679
X47.8937 Y148.3091
X48.8194 Y149.1312
X49.5893 Y150.6796
X54.3813 Y150.6659
X55.2983 Y148.9438
X56.7876 Y147.6536
X59.1348 Y146.9197
X56.7754 Y54.1150
X55.7003 Y53.2541
X54.3854 Y51.0825
X49.6141
X48.6385 Y52.8907
X47.3238 Y53.9462
X44.8839 Y146.9344
X47.0986 Y147.6029
X47.8937 Y148.3091
X47.0021 Y149.4592
X46.5090 Y149.0769
X45.2590 Y148.5768
X43.2590 Y148.3419
X45.6606 Y53.2590
X45.6646 Y53.0991
G02X48.2620Y49.4950I-1.0893J-3.5230
G01 X55.7544
G02X58.3377Y53.1055I3.7179J0.0693
G01 X58.3416 Y53.2590
X60.7590 Y148.3411
G02X56.6605Y149.7590I-0.2463J5.9207
X55.7269Y152.2495I2.5569J2.3788
G01 X48.2611 Y152.2709
G02X47.0021Y149.4592I-3.5551J-0.0959
G01 Z18.4168
G00 Z28.0794
X51.5107 Y136.4568
G01 Z16.7232  F1000.0
Z16.0882
X51.3370 Y143.0786 Z14.9202
X51.7936 Y143.4336 Z14.8182
X51.9214 Y143.5330
X52.6787 Y142.8329
X52.0169 Y117.1686
X51.3370 Y143.0786
X51.7936 Y143.4336
X50.8191 Y144.6869
X49.7290 Y143.8392
X52.0309 Y56.1233
X54.2891 Y143.7020
X53.5331 Y144.1672
X52.0524 Y145.6458
X50.8191 Y144.6869
X49.8748 Y145.9381
X50.8695 Y146.6889
X51.4579 Y147.4508
X52.4775 Y147.4647
X54.6548 Y145.2905
X55.9020 Y144.6797
X53.6345 Y55.6306
X52.6393 Y54.2575
X51.5148
X50.4609 Y55.4371
X48.1206 Y144.6142
X49.8748 Y145.9381
X48.9058 Y147.1538
X47.5591 Y146.0804
X46.5024 Y145.7601
X48.8913 Y54.7339
X50.0327 Y53.6606
X50.5692 Y52.6700
X53.4749
X54.7650 Y54.5486
X55.2031 Y54.8687
X57.5174 Y145.7543
X55.7450 Y146.4445
X53.8819 Y148.2047
X53.4288 Y149.0653
X50.5813 Y149.0266
X49.8801 Y147.9303
X48.9058 Y147.1538
X47.8974 Y148.3015
X48.8323 Y149.1229
X49.6235 Y150.6012
X54.3801 Y150.6659
X55.2866 Y148.9443
X56.7855 Y147.6434
X59.1350 Y146.9146
X56.7702 Y54.0476
X55.7016 Y53.2668
X54.3644 Y51.0825
X49.6236
X48.6368 Y52.9046
X47.3237 Y53.9549
X44.8837 Y146.9282
X47.0986 Y147.5996
X47.8974 Y148.3015
X47.0012 Y149.4558
X46.5090 Y149.0736
X45.2590 Y148.5736
X43.2590 Y148.3284
X45.6641 Y53.2590
X45.6680 Y53.1034
G02X48.2655Y49.4950I-1.0809J-3.5172
G01 X55.7039
G02X58.3340Y53.0974I3.7345J0.0348
G01 X58.3381 Y53.2590
X60.7590 Y148.3275
X59.0090 Y148.5267
G02X55.7625Y152.2494I0.3845J3.6123
G01 X48.2561 Y152.2709
G02X47.0012Y149.4558I-3.3740J-0.1832
G01 Z15.4532
G00 Z28.0634
X51.7547 Y136.6173
G01 Z13.7595  F1000.0
Z13.1245
X51.5828 Y143.2113 Z11.9614
X52.0544 Y143.5923 Z11.8545
X52.3871 Y143.2980
X51.9867 Y127.7195
X51.5828 Y143.2113
X52.0544 Y143.5923
X53.1063 Y144.7813
X52.1009 Y145.6708
X49.9754 Y143.9535
X51.9981 Y66.3749
X53.9931 Y143.9968
X53.1063 Y144.7813
X54.1581 Y145.9703
X55.5991 Y144.6956
X53.2965 Y55.1059
X52.5987 Y54.2575
X51.5210
X50.6999 Y55.2592
X48.3677 Y144.7099
X50.9041 Y146.7002
X51.4840 Y147.4590
X52.4633 Y147.4697
X54.1581 Y145.9703
X55.1410 Y147.0897
X53.8696 Y148.2061
X53.4167 Y149.0678
X50.6037 Y149.0369
X49.9067 Y147.9352
X47.5896 Y146.0639
X46.7514 Y145.7910
X49.1292 Y54.5921
X50.0298 Y53.6766
X50.5771 Y52.6700
X53.3484
X54.8691 Y54.5187
X57.2648 Y145.7387
X56.1891 Y146.1694
X55.1410 Y147.0897
X56.1001 Y148.2798
X57.1851 Y147.4055
X58.8845 Y146.9436
X56.4401 Y53.8690
X56.0047 Y53.5761
X54.8709 Y52.2115
X54.4599 Y51.0825
X49.6332
X48.6351 Y52.9184
X47.5605 Y53.8522
X45.1336 Y146.9339
X47.0982 Y147.5734
X48.8561 Y149.1253
X49.6400 Y150.6139
X54.3701 Y150.6659
X55.2748 Y148.9448
X56.1001 Y148.2798
X57.0201 Y149.4611
X56.6376 Y149.7590
X55.8909 Y151.0090
X55.7555 Y152.2494
X48.2638 Y152.2709
G02X45.2590Y148.5478I-3.6444J-0.1328
G01 X43.5090 Y148.3380
X45.9944 Y53.0090
G02X48.2698Y49.4950I-1.4151J-3.4100
G01 X55.6985
G02X58.0056Y53.0090I3.8862J-0.0372
G01 X60.5090 Y148.3292
X58.5090 Y148.5949
X57.7590 Y148.8857
X57.0201 Y149.4611
Z12.4895
G00 Z28.1588
X52.7020 Y135.0042
G01 Z10.7959  F1000.0
Z10.1609
X52.9262 Y142.2033 Z8.8909
X51.0665 Y142.1908
X51.9777 Y111.7531
X52.9262 Y142.2033
X54.5130 Y142.1538
X51.9461 Y59.7545
X49.4311 Y143.7674
X54.5643 Y143.8018
X54.5130 Y142.1538
X56.0997 Y142.1044
X56.1989 Y145.2875
X52.9693 Y145.4950
X47.7972 Y145.2920
X50.4568 Y56.4476
X53.4313 Y56.4477
X56.0997 Y142.1044
X57.6864 Y142.0550
X54.9701 Y54.8602
X48.9162 Y54.8601
X46.1634 Y146.8166
X52.9891 Y147.0845
X57.8334 Y146.7732
X57.6864 Y142.0550
X59.2808 Y142.0073
X59.4680 Y148.2590
X59.2590 Y148.3482
G03X44.5320Y148.2590I-6.9370J-70.4384
G01 X46.0956 Y93.7590
X47.3684 Y53.5090
X47.3759 Y53.2725
X47.5090
X56.5090 Y53.2727
X56.6318 Y53.5090
X59.2808 Y142.0073
Z9.5259
G00 Z9.8707
X51.8896 Y137.0922
G01 Z7.8323  F1000.0
Z7.1973
X51.6345 Y143.5516 Z6.0574
X52.3726 Y143.5457 Z5.9273
X52.0103 Y134.0352
X51.6345 Y143.5516
X52.3726 Y143.5457
X53.9589 Y143.4853
X54.0212 Y145.1202
X49.9825 Y145.1522
X52.0392 Y93.0819
X53.9589 Y143.4853
X55.5455 Y143.4251
X53.6531 Y93.5781
X52.0054 Y60.0987
X50.4502 Y93.0777
X48.3305 Y146.7529
X55.6696 Y146.6947
X55.5455 Y143.4251
X57.1318 Y143.3648
X57.3176 Y148.2590
G03X46.6823I-5.3176J-85.5525
X50.7590Y53.2746I5806.6807J201.6363
G01 X53.2590
G03X57.1318Y143.3648I-6437.7574J321.8803
G01 Z6.5623
G00 Z6.9154
X52.3753 Y147.0434
G01 Z4.8686  F1000.0
Z4.2336
X52.4601 Y148.0090 Z4.0627
X52.4719 Y148.1429 Z4.0390
X52.2590 Y148.1432 Z4.0015
X51.7590 Y148.1439 Z3.9133
X51.5280 Y148.1442 Z3.8726
X51.5399 Y148.0090 Z3.8487
X51.9784 Y143.0090 Z2.9636
X52.0090 Y142.8725
X52.4601 Y148.0090
X52.4719 Y148.1429
X52.2590 Y148.1432
X51.7590 Y148.1439
X51.5280 Y148.1442
X51.5399 Y148.0090
X51.9784 Y143.0090
Z3.5986
G00 Z30.1750
(Horizontal Finishing)
(Ballnose 1/4in 6.35mm cabide)
M6 T28
M03 S20000
X56.8022 Y49.4950
G01 Z25.5000  F1000.0
X56.8054 Y49.6108
X56.8283 Y49.8648
X56.9096 Y50.2458
X57.0518 Y50.6268
X57.2433 Y50.9723
X57.3587 Y51.1348
X57.5796 Y51.3888
X57.8686 Y51.6428
X58.0510 Y51.7698
X58.2593 Y51.8898
X58.5621 Y52.0238
X58.8943 Y52.1233
X59.2753 Y52.1828
X59.3974 Y52.2019
X59.3993 Y52.2778
X60.3359 Y89.6158
X61.8887 Y149.3058
X61.8902 Y149.3647
X61.8153 Y149.3713
X59.2753 Y149.5935
X59.0213 Y149.6267
X58.7673 Y149.6850
X58.4083 Y149.8138
X58.2593 Y149.8851
X57.9561 Y150.0678
X57.7880 Y150.1948
X57.5181 Y150.4488
X57.3703 Y150.6225
X57.1474 Y150.9568
X56.9893 Y151.2880
X56.9262 Y151.4648
X56.8351 Y151.8458
X56.8002 Y152.2268
X56.8007 Y152.2816
G00 Z26.5018
X47.1995
G01 Z25.5000  F1000.0
X47.1997 Y152.2268
X47.1826 Y151.9728
X47.1409 Y151.7188
X47.0833 Y151.4957
X46.9563 Y151.1606
X46.8293 Y150.9165
X46.7023 Y150.7201
X46.4820 Y150.4488
X46.2119 Y150.1948
X45.9403 Y149.9993
X45.5918 Y149.8138
X45.2394 Y149.6868
X44.9243 Y149.6176
X42.1303 Y149.3665
X42.1097 Y149.3647
X42.1113 Y149.3058
X43.5082 Y95.7118
X44.6007 Y52.2778
X44.6028 Y52.1927
X44.6703 Y52.1868
X44.7973 Y52.1757
X45.1783 Y52.1054
X45.4323 Y52.0259
X45.7271 Y51.8968
X45.9403 Y51.7753
X46.1315 Y51.6428
X46.4204 Y51.3888
X46.5753 Y51.2176
X46.7023 Y51.0520
X46.8853 Y50.7538
X47.0029 Y50.4998
X47.1239 Y50.1188
X47.1861 Y49.7378
X47.1961 Y49.4950
G00 Z26.5021
X56.3281
G01 Z24.0000  F1000.0
X56.3321 Y49.6108
X56.3515 Y49.8648
X56.4200 Y50.2458
X56.5388 Y50.6268
X56.6083 Y50.7942
X56.7353 Y51.0461
X56.9577 Y51.3888
X57.2433 Y51.7215
X57.4310 Y51.8968
X57.5884 Y52.0238
X57.8783 Y52.2190
X58.2419 Y52.4048
X58.5133 Y52.5077
X58.8943 Y52.6067
X58.9347 Y52.6172
X58.9357 Y52.6588
X59.8595 Y89.4888
X61.4056 Y148.9248
X59.0213 Y149.1473
X58.7673 Y149.1965
X58.5133 Y149.2679
X58.2593 Y149.3630
X57.8783 Y149.5557
X57.6756 Y149.6868
X57.3703 Y149.9306
X57.1163 Y150.1880
X56.8623 Y150.5183
X56.7353 Y150.7247
X56.6168 Y150.9568
X56.5130 Y151.2108
X56.4338 Y151.4648
X56.3771 Y151.7188
X56.3418 Y151.9728
X56.3272 Y152.2268
X56.3276 Y152.2816
G00 Z25.0172
X47.6725
G01 Z24.0000  F1000.0
X47.6728 Y152.2268
X47.6432 Y151.8458
X47.5974 Y151.5918
X47.5296 Y151.3378
X47.4383 Y151.0838
X47.3373 Y150.8613
X47.2103 Y150.6322
X46.9949 Y150.3218
X46.7023 Y149.9983
X46.4931 Y149.8138
X46.3244 Y149.6868
X46.1285 Y149.5598
X45.9403 Y149.4560
X45.5593 Y149.2926
X45.3053 Y149.2146
X45.0513 Y149.1592
X44.7973 Y149.1251
X42.5944 Y148.9248
X43.9781 Y95.8388
X45.0643 Y52.6588
X45.0651 Y52.6240
X45.1783 Y52.5917
X45.5593 Y52.4829
X45.7581 Y52.4048
X46.0183 Y52.2778
X46.1943 Y52.1744
X46.4117 Y52.0238
X46.5690 Y51.8968
X46.8293 Y51.6453
X47.0422 Y51.3888
X47.2859 Y51.0078
X47.4612 Y50.6268
X47.5800 Y50.2458
X47.6310 Y49.9918
X47.6609 Y49.7378
X47.6707 Y49.4950
G00 Z25.0031
X56.3298
G01 Z22.5000  F1000.0
X56.3543 Y49.9212
X56.4488 Y50.3728
X56.6083 Y50.8022
X56.7353 Y51.0562
X56.8621 Y51.2618
X56.9893 Y51.4372
X57.1632 Y51.6428
X57.3703 Y51.8499
X57.5839 Y52.0238
X57.7513 Y52.1433
X57.9729 Y52.2778
X58.2348 Y52.4048
X58.5761 Y52.5318
X58.8943 Y52.6120
X58.9309 Y52.6212
X58.9318 Y52.6588
X59.8804 Y90.5048
X61.4024 Y148.9248
X59.1483 Y149.1270
X58.8943 Y149.1647
X58.6403 Y149.2243
X58.3901 Y149.3058
X58.1323 Y149.4148
X57.8783 Y149.5517
X57.6678 Y149.6868
X57.3703 Y149.9248
X57.1163 Y150.1826
X56.8623 Y150.5096
X56.7431 Y150.7028
X56.5565 Y151.0838
X56.4291 Y151.4648
X56.3543 Y151.8282
X56.3218 Y152.2268
X56.3235 Y152.2816
G00 Z24.9594
X47.6753
G01 Z22.5000  F1000.0
X47.6760 Y152.2268
X47.6635 Y151.9728
X47.6015 Y151.5918
X47.5340 Y151.3378
X47.4643 Y151.1372
X47.3373 Y150.8515
X47.2103 Y150.6241
X47.0002 Y150.3218
X46.7023 Y149.9920
X46.5001 Y149.8138
X46.3315 Y149.6868
X45.9403 Y149.4505
X45.6863 Y149.3354
X45.4323 Y149.2461
X45.1783 Y149.1806
X44.7973 Y149.1211
X42.5989 Y148.9248
X44.0316 Y93.9338
X45.0674 Y52.6588
X45.0683 Y52.6249
X45.1783 Y52.5961
X45.4248 Y52.5318
X45.7664 Y52.4048
X46.0283 Y52.2778
X46.3213 Y52.0960
X46.5753 Y51.8974
X46.8293 Y51.6515
X46.9488 Y51.5158
X47.2190 Y51.1348
X47.2905 Y51.0078
X47.4643 Y50.6312
X47.5838 Y50.2458
X47.6318 Y49.9918
X47.6636 Y49.7378
X47.6687 Y49.4950
G00 Z25.0287
X56.3292
G01 Z21.0000  F1000.0
X56.3543 Y49.9220
X56.4480 Y50.3728
X56.6083 Y50.8030
X56.7353 Y51.0570
X56.8620 Y51.2618
X56.9893 Y51.4380
X57.1625 Y51.6428
X57.3703 Y51.8507
X57.6243 Y52.0570
X57.8783 Y52.2237
X58.2341 Y52.4048
X58.5753 Y52.5318
X58.8943 Y52.6129
X58.9307 Y52.6222
X58.9316 Y52.6588
X59.8801 Y90.5048
X61.4021 Y148.9248
X59.1483 Y149.1268
X58.8943 Y149.1645
X58.6403 Y149.2241
X58.3899 Y149.3058
X58.1323 Y149.4146
X57.8783 Y149.5515
X57.6676 Y149.6868
X57.3703 Y149.9245
X57.1163 Y150.1823
X56.8623 Y150.5093
X56.7428 Y150.7028
X56.5563 Y151.0838
X56.4289 Y151.4648
X56.3726 Y151.7188
X56.3369 Y151.9728
X56.3210 Y152.2268
X56.3227 Y152.2816
G00 Z24.9501
X47.6757
G01 Z21.0000  F1000.0
X47.6763 Y152.2268
X47.6643 Y151.9728
X47.6017 Y151.5918
X47.5342 Y151.3378
X47.4643 Y151.1369
X47.3373 Y150.8512
X47.2103 Y150.6238
X47.0004 Y150.3218
X46.7023 Y149.9918
X46.5004 Y149.8138
X46.3317 Y149.6868
X45.9403 Y149.4503
X45.6863 Y149.3352
X45.4323 Y149.2459
X45.1783 Y149.1804
X44.7973 Y149.1209
X42.5991 Y148.9248
X44.0318 Y93.9338
X45.0677 Y52.6588
X45.0685 Y52.6260
X45.1783 Y52.5970
X45.4323 Y52.5300
X45.7672 Y52.4048
X46.0291 Y52.2778
X46.3213 Y52.0967
X46.5765 Y51.8968
X46.8293 Y51.6523
X46.9492 Y51.5158
X47.2198 Y51.1348
X47.2913 Y51.0078
X47.4643 Y50.6316
X47.5842 Y50.2458
X47.6327 Y49.9918
X47.6644 Y49.7378
X47.6695 Y49.4950
G00 Z25.0156
X56.3245
G01 Z19.5000  F1000.0
X56.3281 Y49.6108
X56.3543 Y49.9228
X56.4472 Y50.3728
X56.6083 Y50.8038
X56.7353 Y51.0578
X56.8620 Y51.2618
X56.9893 Y51.4388
X57.1617 Y51.6428
X57.3703 Y51.8514
X57.6243 Y52.0578
X57.8783 Y52.2245
X58.2333 Y52.4048
X58.5745 Y52.5318
X58.8943 Y52.6138
X58.9305 Y52.6231
X58.9314 Y52.6588
X59.8799 Y90.5048
X61.4019 Y148.9248
X59.1483 Y149.1266
X58.8943 Y149.1643
X58.6403 Y149.2238
X58.3896 Y149.3058
X58.1323 Y149.4143
X57.8783 Y149.5512
X57.6673 Y149.6868
X57.3703 Y149.9243
X57.1163 Y150.1819
X56.9040 Y150.4488
X56.7426 Y150.7028
X56.5561 Y151.0838
X56.4287 Y151.4648
X56.3723 Y151.7188
X56.3361 Y151.9728
X56.3202 Y152.2268
X56.3219 Y152.2816
G00 Z24.9401
X47.6761
G01 Z19.5000  F1000.0
X47.6766 Y152.2268
X47.6652 Y151.9728
X47.6019 Y151.5918
X47.5344 Y151.3378
X47.4643 Y151.1366
X47.3373 Y150.8510
X47.2103 Y150.6235
X47.0007 Y150.3218
X46.7023 Y149.9916
X46.5006 Y149.8138
X46.3319 Y149.6868
X45.9403 Y149.4500
X45.6863 Y149.3350
X45.3053 Y149.2099
X45.0513 Y149.1544
X44.7973 Y149.1206
X42.5993 Y148.9248
X44.0320 Y93.9338
X45.0679 Y52.6588
X45.0687 Y52.6271
X45.1783 Y52.5979
X45.4256 Y52.5318
X45.7679 Y52.4048
X46.0298 Y52.2778
X46.3213 Y52.0975
X46.4188 Y52.0238
X46.7023 Y51.7801
X46.9495 Y51.5158
X47.2206 Y51.1348
X47.2921 Y51.0078
X47.4643 Y50.6320
X47.5846 Y50.2458
X47.6335 Y49.9918
X47.6652 Y49.7378
X47.6703 Y49.4950
G00 Z25.0016
X56.3237
G01 Z18.0000  F1000.0
X56.3273 Y49.6108
X56.3543 Y49.9236
X56.4464 Y50.3728
X56.6083 Y50.8046
X56.7353 Y51.0586
X56.8620 Y51.2618
X57.0498 Y51.5158
X57.3703 Y51.8522
X57.6243 Y52.0585
X57.8783 Y52.2252
X58.2325 Y52.4048
X58.5737 Y52.5318
X58.8943 Y52.6147
X58.9303 Y52.6240
X58.9311 Y52.6588
X59.8797 Y90.5048
X61.4017 Y148.9248
X59.1483 Y149.1263
X58.8943 Y149.1641
X58.6403 Y149.2236
X58.3894 Y149.3058
X58.1323 Y149.4141
X57.8783 Y149.5510
X57.6671 Y149.6868
X57.3703 Y149.9241
X57.1163 Y150.1816
X56.9037 Y150.4488
X56.7424 Y150.7028
X56.5559 Y151.0838
X56.4285 Y151.4648
X56.3719 Y151.7188
X56.3352 Y151.9728
X56.3194 Y152.2268
X56.3211 Y152.2816
G00 Z24.9291
X47.6765
G01 Z18.0000  F1000.0
X47.6769 Y152.2268
X47.6660 Y151.9728
X47.6021 Y151.5918
X47.4930 Y151.2108
X47.3373 Y150.8508
X47.2103 Y150.6231
X47.0009 Y150.3218
X46.7023 Y149.9914
X46.5008 Y149.8138
X46.1943 Y149.5947
X45.9403 Y149.4498
X45.6863 Y149.3347
X45.3053 Y149.2097
X45.0513 Y149.1541
X44.7973 Y149.1204
X42.5996 Y148.9248
X44.0322 Y93.9338
X45.0681 Y52.6588
X45.0689 Y52.6283
X45.1783 Y52.5987
X45.4260 Y52.5318
X45.7687 Y52.4048
X46.0305 Y52.2778
X46.3213 Y52.0982
X46.4196 Y52.0238
X46.7023 Y51.7808
X46.9499 Y51.5158
X47.2214 Y51.1348
X47.2929 Y51.0078
X47.4643 Y50.6324
X47.5850 Y50.2458
X47.6343 Y49.9918
X47.6660 Y49.7378
X47.6711 Y49.4950
G00 Z24.9864
X56.3228
G01 Z16.5000  F1000.0
X56.3265 Y49.6108
X56.3543 Y49.9244
X56.4456 Y50.3728
X56.5329 Y50.6268
X56.7353 Y51.0594
X56.8620 Y51.2618
X57.0490 Y51.5158
X57.3703 Y51.8530
X57.6243 Y52.0593
X57.8783 Y52.2259
X58.2318 Y52.4048
X58.5729 Y52.5318
X58.8943 Y52.6156
X58.9300 Y52.6249
X58.9309 Y52.6588
X59.8794 Y90.5048
X61.4015 Y148.9248
X59.1483 Y149.1261
X58.8943 Y149.1638
X58.6403 Y149.2234
X58.3892 Y149.3058
X58.1323 Y149.4139
X57.8783 Y149.5508
X57.6669 Y149.6868
X57.3703 Y149.9239
X57.1163 Y150.1813
X56.9034 Y150.4488
X56.7422 Y150.7028
X56.5557 Y151.0838
X56.4283 Y151.4648
X56.3716 Y151.7188
X56.3344 Y151.9728
X56.3186 Y152.2268
X56.3203 Y152.2816
G00 Z24.9169
X47.6769
G01 Z16.5000  F1000.0
X47.6772 Y152.2268
X47.6509 Y151.8458
X47.5711 Y151.4648
X47.4932 Y151.2108
X47.3373 Y150.8506
X47.2103 Y150.6228
X47.0011 Y150.3218
X46.7023 Y149.9912
X46.5010 Y149.8138
X46.1943 Y149.5945
X45.9403 Y149.4496
X45.6863 Y149.3345
X45.3053 Y149.2095
X45.0513 Y149.1539
X44.7973 Y149.1202
X42.5998 Y148.9248
X44.0324 Y93.9338
X45.0684 Y52.6588
X45.0691 Y52.6315
X45.1783 Y52.5996
X45.5593 Y52.4881
X45.7695 Y52.4048
X46.0313 Y52.2778
X46.3213 Y52.0990
X46.4203 Y52.0238
X46.7023 Y51.7816
X46.9503 Y51.5158
X47.2103 Y51.1467
X47.2937 Y51.0078
X47.4643 Y50.6328
X47.5854 Y50.2458
X47.6351 Y49.9918
X47.6668 Y49.7378
X47.6719 Y49.4950
G00 Z24.9695
X56.3220
G01 Z15.0000  F1000.0
X56.3257 Y49.6108
X56.3543 Y49.9252
X56.4448 Y50.3728
X56.5321 Y50.6268
X56.6083 Y50.8062
X56.7783 Y51.1348
X57.0482 Y51.5158
X57.3703 Y51.8537
X57.6243 Y52.0600
X57.8783 Y52.2267
X58.1323 Y52.3617
X58.5721 Y52.5318
X58.8943 Y52.6165
X58.9298 Y52.6258
X58.9307 Y52.6588
X59.8792 Y90.5048
X61.4012 Y148.9248
X59.1483 Y149.1259
X58.8943 Y149.1636
X58.6403 Y149.2232
X58.3890 Y149.3058
X58.1323 Y149.4137
X57.8783 Y149.5505
X57.6667 Y149.6868
X57.3703 Y149.9236
X57.1163 Y150.1809
X56.9030 Y150.4488
X56.7419 Y150.7028
X56.5554 Y151.0838
X56.4281 Y151.4648
X56.3713 Y151.7188
X56.3336 Y151.9728
X56.3177 Y152.2268
X56.3194 Y152.2816
G00 Z24.9533
X47.6756
G01 Z15.0000  F1000.0
Y152.0998
X47.6517 Y151.8458
X47.5715 Y151.4648
X47.4934 Y151.2108
X47.3373 Y150.8503
X47.2103 Y150.6225
X47.0013 Y150.3218
X46.7023 Y149.9910
X46.5013 Y149.8138
X46.1943 Y149.5942
X45.9403 Y149.4494
X45.6863 Y149.3343
X45.4323 Y149.2450
X45.1783 Y149.1795
X44.9243 Y149.1339
X42.6000 Y148.9248
X44.0327 Y93.9338
X45.0686 Y52.6588
X45.0693 Y52.6323
X45.1783 Y52.6004
X45.5593 Y52.4889
X45.7702 Y52.4048
X46.0320 Y52.2778
X46.3213 Y52.0997
X46.7023 Y51.7823
X46.9507 Y51.5158
X47.2103 Y51.1475
X47.2945 Y51.0078
X47.4643 Y50.6332
X47.5858 Y50.2458
X47.6359 Y49.9918
X47.6676 Y49.7378
X47.6727 Y49.4950
G00 Z24.9504
X56.3212
G01 Z13.5000  F1000.0
X56.3248 Y49.6108
X56.3543 Y49.9261
X56.4440 Y50.3728
X56.5313 Y50.6268
X56.6083 Y50.8070
X56.7775 Y51.1348
X57.0474 Y51.5158
X57.3703 Y51.8545
X57.6243 Y52.0608
X57.8783 Y52.2274
X58.1323 Y52.3624
X58.5133 Y52.5135
X58.8943 Y52.6174
X58.9296 Y52.6270
X58.9304 Y52.6588
X59.8790 Y90.5048
X61.4010 Y148.9248
X59.1483 Y149.1257
X58.8943 Y149.1634
X58.6403 Y149.2229
X58.3887 Y149.3058
X58.1323 Y149.4134
X57.8783 Y149.5503
X57.6664 Y149.6868
X57.3703 Y149.9234
X57.1163 Y150.1806
X56.9027 Y150.4488
X56.7417 Y150.7028
X56.5552 Y151.0838
X56.4279 Y151.4648
X56.3710 Y151.7188
X56.3328 Y151.9728
X56.3169 Y152.2268
X56.3186 Y152.2816
G00 Z24.9313
X47.6764
G01 Z13.5000  F1000.0
Y152.0998
X47.6526 Y151.8458
X47.5718 Y151.4648
X47.4936 Y151.2108
X47.3373 Y150.8501
X47.2103 Y150.6221
X47.0968 Y150.4488
X46.8293 Y150.1201
X46.7023 Y149.9908
X46.5015 Y149.8138
X46.1943 Y149.5940
X45.9403 Y149.4491
X45.6863 Y149.3341
X45.4323 Y149.2448
X45.1783 Y149.1792
X44.9243 Y149.1336
X42.6002 Y148.9248
X44.0329 Y93.9338
X45.0688 Y52.6588
X45.0695 Y52.6332
X45.1783 Y52.6013
X45.5593 Y52.4896
X45.7710 Y52.4048
X46.0327 Y52.2778
X46.3213 Y52.1005
X46.7023 Y51.7831
X46.9511 Y51.5158
X47.2103 Y51.1483
X47.2952 Y51.0078
X47.4677 Y50.6268
X47.5862 Y50.2458
X47.6367 Y49.9918
X47.6685 Y49.7378
X47.6735 Y49.4950
G00 Z24.9279
X56.3204
G01 Z12.0000  F1000.0
X56.3240 Y49.6108
X56.3543 Y49.9269
X56.4432 Y50.3728
X56.5305 Y50.6268
X56.6083 Y50.8078
X56.7767 Y51.1348
X57.0467 Y51.5158
X57.3703 Y51.8553
X57.6243 Y52.0615
X57.8783 Y52.2281
X58.1323 Y52.3632
X58.5133 Y52.5143
X58.8943 Y52.6183
X58.9294 Y52.6278
X58.9302 Y52.6588
X59.8787 Y90.5048
X61.4008 Y148.9248
X59.1483 Y149.1254
X58.8943 Y149.1632
X58.6403 Y149.2227
X58.3885 Y149.3058
X58.1323 Y149.4132
X57.8783 Y149.5501
X57.6662 Y149.6868
X57.3703 Y149.9232
X57.1163 Y150.1803
X56.9024 Y150.4488
X56.7415 Y150.7028
X56.5550 Y151.0838
X56.4277 Y151.4648
X56.3706 Y151.7188
X56.3320 Y151.9728
X56.3161 Y152.2268
X56.3178 Y152.2816
G00 Z24.9034
X47.6772
G01 Z12.0000  F1000.0
Y152.0998
X47.6534 Y151.8458
X47.5721 Y151.4648
X47.4939 Y151.2108
X47.3373 Y150.8499
X47.2103 Y150.6218
X47.0970 Y150.4488
X46.8293 Y150.1197
X46.7023 Y149.9906
X46.5017 Y149.8138
X46.1943 Y149.5938
X45.9403 Y149.4489
X45.6863 Y149.3338
X45.4323 Y149.2445
X45.1783 Y149.1790
X44.9243 Y149.1334
X42.6005 Y148.9248
X44.0331 Y93.9338
X45.0691 Y52.6588
X45.0698 Y52.6295
X45.1783 Y52.6021
X45.3053 Y52.5701
X45.6863 Y52.4427
X46.0335 Y52.2778
X46.3213 Y52.1012
X46.4483 Y52.0060
X46.7023 Y51.7839
X46.9515 Y51.5158
X47.2103 Y51.1491
X47.2960 Y51.0078
X47.4679 Y50.6268
X47.5866 Y50.2458
X47.6375 Y49.9918
X47.6693 Y49.7378
X47.6743 Y49.4950
G00 Z24.8987
X56.3196
G01 Z10.5000  F1000.0
X56.3232 Y49.6108
X56.3543 Y49.9277
X56.4423 Y50.3728
X56.5297 Y50.6268
X56.6083 Y50.8086
X56.7759 Y51.1348
X57.0459 Y51.5158
X57.3703 Y51.8560
X57.6243 Y52.0623
X57.8783 Y52.2289
X58.1323 Y52.3639
X58.5133 Y52.5151
X58.8943 Y52.6191
X59.9125 Y92.7908
X59.9427 Y93.0448
X60.7180 Y122.7628
X61.3788 Y148.9248
X59.0213 Y149.1398
X58.7673 Y149.1894
X58.5133 Y149.2595
X58.2593 Y149.3545
X57.8783 Y149.5470
X57.6630 Y149.6868
X57.3703 Y149.9218
X57.1163 Y150.1783
X56.8623 Y150.5063
X56.7404 Y150.7028
X56.5548 Y151.0838
X56.4275 Y151.4648
X56.3703 Y151.7188
X56.3312 Y151.9728
X56.3153 Y152.2268
X56.3170 Y152.2816
G00 Z24.8562
X47.6780
G01 Z10.5000  F1000.0
Y152.0998
X47.6542 Y151.8458
X47.5725 Y151.4648
X47.4941 Y151.2108
X47.3373 Y150.8486
X47.2103 Y150.6201
X47.0981 Y150.4488
X46.8293 Y150.1179
X46.5048 Y149.8138
X46.3213 Y149.6759
X46.0673 Y149.5154
X45.6863 Y149.3325
X45.4323 Y149.2431
X45.1892 Y149.1788
X44.7973 Y149.1175
X42.6212 Y148.9248
X43.1420 Y128.2238
X44.0573 Y93.0448
X44.0948 Y92.6638
X45.1027 Y52.6588
X45.1036 Y52.6218
X45.1783 Y52.6030
X45.3053 Y52.5709
X45.6863 Y52.4434
X46.0342 Y52.2778
X46.3213 Y52.1020
X46.4483 Y52.0068
X46.7023 Y51.7846
X46.9519 Y51.5158
X47.2103 Y51.1499
X47.2968 Y51.0078
X47.4643 Y50.6344
X47.5870 Y50.2458
X47.6383 Y49.9918
X47.6701 Y49.7378
X47.6752 Y49.4950
G00 Z24.8415
X57.2511 Y150.0135
G01 Z9.0000  F1000.0
X57.1163 Y150.1496
X56.8824 Y150.4488
X56.6564 Y150.8298
X56.6083 Y150.8905
X54.7033 Y150.9892
X53.4333 Y151.0327
X52.2903 Y151.0494
X51.2743 Y151.0459
X50.2583 Y151.0236
X48.9883 Y150.9757
X47.4643 Y150.8947
X47.3444 Y150.8298
X47.2781 Y150.7028
X47.1177 Y150.4488
X46.9563 Y150.2349
X46.7023 Y149.9606
X46.3758 Y149.6868
X46.0673 Y149.4879
X45.6893 Y149.3058
X45.4323 Y149.2150
X45.1783 Y149.1487
X44.7973 Y149.0908
X42.8519 Y148.9248
X44.2930 Y93.2988
X44.3493 Y92.9178
X44.3698 Y92.6638
X45.4284 Y52.5318
X45.6863 Y52.4442
X46.0350 Y52.2778
X46.3213 Y52.1027
X46.4483 Y52.0075
X46.7023 Y51.7854
X46.8293 Y51.6585
X47.0514 Y51.3888
X47.2103 Y51.1507
X47.2976 Y51.0078
X47.3373 Y50.9441
X56.6083
X56.7036 Y51.0078
X56.7751 Y51.1348
X57.0451 Y51.5158
X57.3703 Y51.8568
X57.6243 Y52.0631
X57.8783 Y52.2296
X58.1323 Y52.3646
X58.5689 Y52.5318
X58.5800 Y52.6588
X59.6300 Y92.6638
X59.6505 Y92.9178
X59.7071 Y93.2988
X61.1481 Y148.9248
X59.0213 Y149.1128
X58.7673 Y149.1610
X58.5133 Y149.2322
X58.2593 Y149.3270
X58.0342 Y149.4328
X57.8118 Y149.5598
X57.6243 Y149.6867
X57.3703 Y149.8930
X57.2511 Y150.0135
G00 Z24.9066
X46.9134 Y51.5565
G01 Z23.9066  F1000.0
X46.9255 Y51.5665 Z8.5812
X47.3021 Y51.8767 Z8.2746
X47.6175 Y51.4477 Z8.6785
X56.3796
X56.6933 Y51.8767 Z8.2746
X47.3021
G00 Z10.2658
X57.2511 Y150.0135
G01 Z9.2658  F1000.0
X57.2317 Y150.0116 Z8.3771
X56.6314 Y149.9523 Z8.2714
X56.3563 Y150.3487 Z8.6373
X56.3253 Y150.4009 Z8.6775
X53.4211 Y150.5293 Z8.6786
X51.0289 Y150.5368 Z8.6776
X48.0156 Y150.4197 Z8.6770
X47.6837 Y150.4020 Z8.6779
X47.3744 Y149.9528 Z8.2716
X50.5036 Y150.0978 Z8.2745
X52.9977 Y150.1057 Z8.2714
X55.7766 Y150.0016 Z8.2721
X56.6314 Y149.9523 Z8.2714
G00 Z9.2714
X56.6766 Y149.4449
G01 Z7.5000  F1000.0
X56.1003 Y149.4810
X54.7033 Y149.5519
X53.5603 Y149.5921
X52.4173 Y149.6123
X51.5283 Y149.6119
X50.5123 Y149.5943
X49.2423 Y149.5498
X47.8453 Y149.4779
X45.9403 Y149.3580
X45.5593 Y149.2089
X45.3053 Y149.1311
X44.8873 Y149.0518
X43.3448 Y148.9248
X44.8847 Y93.2988
X44.9462 Y92.9178
X44.9686 Y92.6638
X46.1320 Y52.4048
X46.1327 Y52.3802
X46.1943
X57.7513
X57.8673
X57.8680 Y52.4048
X59.0397 Y92.7908
X59.1154 Y93.2988
X60.6554 Y148.9248
X59.1483 Y149.0477
X58.8943 Y149.0860
X58.6403 Y149.1458
X58.3863 Y149.2284
X58.1323 Y149.3340
X58.0053 Y149.3618
X56.6766 Y149.4449
G00 Z8.5054
X44.9588 Y92.7744
G01 Z7.5054  F1000.0
X45.4605 Y92.8186 Z6.6653
X46.6219 Y52.8838 Z6.7948
X46.8782 Z6.4982
X45.8651 Y81.4409 Z6.6018
X45.4605 Y92.8186 Z6.6653
G00 Z8.5001
X57.1200 Y52.3802
G01 Z7.5001  F1000.0
Y52.5691 Z6.9691
Y52.6635 Z6.5044
Y52.8838 Z6.4963
X57.3781 Z6.7949
X58.5362 Y92.7996 Z6.6631
X57.1676 Y54.1707 Z6.5001
X57.1200 Y52.8838 Z6.4963
G00 Z7.4963
X56.6576 Y149.1401
G01 Z6.0000  F1000.0
X55.2113 Y149.2175
X53.8143 Y149.2706
X52.6713 Y149.2938
X51.5283 Y149.2957
X50.3853 Y149.2761
X49.1153 Y149.2320
X47.5913 Y149.1556
X45.6863 Y149.0361
X44.1487 Y148.9248
X45.2704 Y112.4758
X45.8885 Y93.2988
X45.9763 Y92.7908
X46.4442 Y79.0748
X46.9473 Y64.7238
X47.3858 Y52.7858
X47.3899 Y52.6734
X47.4643
X56.6083 Y52.6747
X57.0162 Y63.7078
X57.4863 Y77.0428
X58.0236 Y92.7908
X58.1115 Y93.2988
X59.1232 Y125.0488
X59.8513 Y148.9248
X56.8623 Y149.1291
X56.6576 Y149.1401
G00 Z6.9821
X54.8807 Y58.8415
G01 Z4.7019  F1000.0
X54.4161 Y53.1780 Z4.6655
X55.1629 Y53.1781 Z4.9939
X55.9097 Y53.1782 Z5.4372
X56.1230 Z5.5885
X57.3094 Y86.5797 Z5.4871
X57.5453 Y92.9803 Z5.4625
X57.5990 Y93.2909 Z5.4496
X58.9070 Y134.5451 Z5.3386
X59.3332 Y148.4555 Z5.3076
X59.1107 Y148.4707 Z5.0393
X57.9106 Y116.6987 Z4.9347
X56.9682 Y94.3162 Z4.8617
X56.9155 Y93.1697 Z4.8714
X56.7970 Y92.6644 Z4.8557
X55.8459 Y74.1131 Z4.7733
X55.2161 Y63.7085 Z4.7252
X54.8807 Y58.8415 Z4.7019
X55.3512 Y58.8062 Z4.9335
X54.9667 Y53.6816 Z4.8837
X55.6369 Y53.6817 Z5.2455
X56.3674 Y74.3296 Z5.1102
X55.7898 Y64.6516 Z5.0164
X55.3512 Y58.8062 Z4.9335
G00 Z5.9335
X48.2043 Y73.0783
G01 Z4.7734  F1000.0
X47.3775 Y89.0479 Z4.8386
X47.1871 Y92.7707 Z4.8604
X47.0817 Y93.1799 Z4.8710
X46.2672 Y112.0749 Z4.9275
X45.1909 Y140.1415 Z5.0134
X44.8891 Y148.4735 Z5.0393
X44.6669 Y148.4574 Z5.3074
X46.2340 Y98.2116 Z5.4414
X46.4009 Y93.2909 Z5.4497
X46.4796 Y92.8080 Z5.4648
X47.7419 Y56.8098 Z5.5759
X47.8753 Y53.1770 Z5.5898
X48.3027 Y53.1771 Z5.2982
X48.7300 Z5.0502
X49.1574 Y53.1772 Z4.8403
X49.5847 Y53.1773 Z4.6652
X49.1667 Y58.2114 Z4.6983
X48.5721 Y66.9143 Z4.7439
X48.2043 Y73.0783 Z4.7734
X47.7215 Y73.0517 Z5.0864
X47.6045 Y75.1738 Z5.1042
X48.3615 Y53.6807 Z5.2465
X49.0376 Y53.6808 Z4.8817
X48.6105 Y58.9692 Z4.9493
X47.9726 Y68.4928 Z5.0535
X47.7215 Y73.0517 Z5.0864
G00 Z6.0864
X56.6521 Y149.0373
G01 Z4.5000  F1000.0
X55.2113 Y149.1023
X53.8143 Y149.1451
X52.5443 Y149.1644
X51.2743 Y149.1629
X49.8773 Y149.1375
X48.3533 Y149.0849
X46.7023 Y149.0048
X45.3767 Y148.9248
X45.8090 Y136.9868
X46.3173 Y123.5248
X46.7704 Y112.0948
X47.1892 Y102.0618
X47.5756 Y93.2988
X47.5784 Y93.2366
X47.5913 Y93.1978
X47.6426 Y93.0448
X47.6983 Y92.7908
X48.1465 Y83.6468
X48.4423 Y77.9318
X48.7072 Y73.1058
X49.0140 Y67.8988
X49.2567 Y64.0888
X49.6690 Y58.2468
X49.8773 Y55.6127
X50.1245 Y52.7858
X50.1313 Y52.7137
X50.2583 Y52.6746
X53.8143 Y52.6747
X53.8755 Y52.7858
X54.0116 Y54.3098
X54.3787 Y58.8818
X54.7853 Y64.7238
X55.0843 Y69.5220
X55.3355 Y73.8678
X55.6050 Y78.8208
X55.9604 Y85.8058
X56.2881 Y92.6638
X56.3249 Y92.9178
X56.3990 Y93.1718
X56.4223 Y93.2515
X56.4244 Y93.2988
X56.7288 Y100.1568
X57.1622 Y110.4438
X57.6185 Y121.8738
X58.1014 Y134.5738
X58.6233 Y148.9248
X56.8623 Y149.0279
X56.6521 Y149.0373
G00 Z5.4834
X51.9941 Y99.4486
G01 Z3.0126  F1000.0
X51.7809 Y99.4922 Z3.0147
X51.5395 Y99.6288 Z3.0213
X51.3856 Y99.7715 Z3.0281
X51.1989 Y100.0301 Z3.0378
X50.9340 Y100.6490 Z3.0523
X50.6970 Y101.4583 Z3.0662
X50.3911 Y102.8670 Z3.0859
X50.0223 Y105.1961 Z3.1079
X49.5964 Y108.6425 Z3.1342
X49.1076 Y113.5758 Z3.1649
X48.5407 Y120.6303 Z3.1998
X48.0085 Y128.4959 Z3.2302
X47.3832 Y138.8651 Z3.2738
X46.8708 Y148.5088 Z3.3060
X46.1057 Y148.4643 Z3.8631
X45.8978 Y148.4518 Z4.0360
X47.0092 Y118.7856 Z4.1131
X47.9721 Y95.7396 Z4.1827
X48.0888 Y93.2983 Z4.1869
X48.2013 Y92.8155 Z4.1990
X49.0445 Y76.1496 Z4.2605
X49.6985 Y65.0743 Z4.3087
X50.3272 Y56.3120 Z4.3554
X50.5957 Y53.1782 Z4.3751
X51.2980 Z4.2674
X52.0003 Z4.2313
X52.7027 Z4.2674
X53.4050 Z4.3752
X53.9781 Y60.3789 Z4.3311
X54.5256 Y68.6531 Z4.2920
X55.1828 Y80.4328 Z4.2439
X55.8081 Y92.8630 Z4.1990
X55.9018 Y93.2655 Z4.1826
X55.9219 Y93.3344 Z4.1918
X56.8807 Y116.0163 Z4.1207
X57.9443 Y144.1113 Z4.0451
X58.1021 Y148.4509 Z4.0359
X57.3726 Y148.4936 Z3.4708
X57.1294 Y148.5078 Z3.3062
X56.3683 Y134.5677 Z3.2566
X55.6372 Y123.0919 Z3.2110
X55.0033 Y114.8441 Z3.1719
X54.4895 Y109.4383 Z3.1390
X54.0403 Y105.6477 Z3.1117
X53.6808 Y103.2923 Z3.0892
X53.3691 Y101.7278 Z3.0706
X53.1221 Y100.8282 Z3.0551
X52.9150 Y100.2687 Z3.0434
X52.7355 Y99.9322 Z3.0336
X52.5315 Y99.6875 Z3.0240
X52.3432 Y99.5516 Z3.0174
X52.0490 Y99.4483 Z3.0131
X51.9941 Y99.4486 Z3.0126
X51.9908 Y98.9504 Z3.0251
X51.7334 Y98.9817 Z3.0289
X51.2459 Y99.2238 Z3.0533
X50.8066 Y99.7116 Z3.0941
X50.4957 Y100.3704 Z3.1290
X50.1077 Y101.7420 Z3.1760
X49.6752 Y104.0847 Z3.2299
X49.0406 Y109.0757 Z3.3100
X48.3873 Y116.0820 Z3.3938
X47.6444 Y126.2869 Z3.4874
X46.7671 Y140.9686 Z3.6033
X46.4814 Y146.3467 Z3.6412
X47.7062 Y113.9985 Z3.8074
X48.5794 Y93.3994 Z3.9315
X48.7042 Y92.8413 Z3.9450
X49.8093 Y71.5781 Z4.1015
X50.3217 Y63.3648 Z4.1745
X51.0572 Y53.6818 Z4.2829
X51.5281 Z4.2348
X51.9991 Z4.2187
X52.4701 Z4.2346
X52.9411 Z4.2827
X53.4269 Y59.7488 Z4.2115
X54.0790 Y69.5824 Z4.1203
X55.0989 Y88.6051 Z3.9823
X55.3231 Y92.7872 Z3.9629
X55.3612 Y93.1966 Z3.9163
X55.4211 Y93.4131 Z3.9313
X56.5734 Y120.9864 Z3.7708
X57.5330 Y146.6950 Z3.6410
X56.5773 Y129.7634 Z3.5156
X55.8743 Y119.4788 Z3.4245
X55.2884 Y112.3740 Z3.3518
X54.6757 Y106.6212 Z3.2735
X54.0714 Y102.6306 Z3.1974
X53.6680 Y100.8972 Z3.1479
X53.2402 Y99.7864 Z3.0992
X52.8497 Y99.3010 Z3.0611
X52.4784 Y99.0646 Z3.0367
X51.9908 Y98.9504 Z3.0251
X51.9932 Y98.4623 Z3.0374
X51.8249 Y98.4706 Z3.0390
X51.4696 Y98.5529 Z3.0523
X50.8717 Y98.8868 Z3.1054
X50.3299 Y99.5427 Z3.1829
X50.0111 Y100.2333 Z3.2387
X49.5852 Y101.7987 Z3.3164
X49.1458 Y104.2560 Z3.3992
X48.5102 Y109.3395 Z3.5228
X48.3075 Y111.5138 Z3.5579
X49.0806 Y93.4656 Z3.7134
X49.1439 Y93.1663 Z3.7099
X49.2071 Y92.8670 Z3.7339
X50.3121 Y71.6063 Z3.9641
X50.8242 Y63.3992 Z4.0720
X51.5240 Y54.1854 Z4.2224
X52.2388 Z4.2106
X52.4771 Z4.2225
X52.9246 Y59.7860 Z4.1263
X53.5763 Y69.6125 Z3.9905
X54.5199 Y87.0495 Z3.8006
X54.8362 Y92.8954 Z3.7472
X54.8639 Y93.2880 Z3.6967
X54.9204 Y93.4919 Z3.7132
X55.6544 Y111.0554 Z3.5526
X55.1738 Y106.5468 Z3.4627
X54.5876 Y102.6303 Z3.3501
X54.1665 Y100.7903 Z3.2710
X53.6326 Y99.4707 Z3.1773
X53.0873 Y98.8574 Z3.1005
X52.5932 Y98.5743 Z3.0561
X51.9932 Y98.4623 Z3.0374
X52.0810 Y97.9915 Z3.0500
X51.8357 Y97.9558 Z3.0518
X51.2639 Y98.0910 Z3.0801
X50.4886 Y98.5599 Z3.1767
X49.8940 Y99.2856 Z3.2937
X49.5263 Y100.0970 Z3.3797
X49.2600 Y101.0438 Z3.4443
X49.5980 Y93.4494 Z3.5315
X49.6780 Y93.0518 Z3.5484
X49.7100 Y92.8928 Z3.5613
X50.8149 Y71.6345 Z3.8639
X51.3284 Y63.4337 Z4.0057
X52.0132 Y54.6890 Z4.1936
X52.3699 Y59.0313 Z4.0946
X53.0736 Y69.6428 Z3.8976
X54.0258 Y87.0793 Z3.6494
X54.3280 Y92.6140 Z3.5919
X54.3706 Y93.3933 Z3.5233
X54.4197 Y93.5706 Z3.5339
X54.7299 Y100.9950 Z3.4421
X54.6333 Y100.6014 Z3.4185
X54.0140 Y99.1419 Z3.2733
X53.3706 Y98.4393 Z3.1546
X52.6856 Y98.0792 Z3.0762
X52.0810 Y97.9915 Z3.0500
X52.1504 Y97.5135 Z3.0627
X51.7198 Y97.4658 Z3.0674
X51.0033 Y97.6601 Z3.1192
X50.0708 Y98.2753 Z3.2746
X49.8723 Y98.5175 Z3.3194
X50.0834 Y93.5898 Z3.3925
X50.1644 Y93.1703 Z3.3945
X50.2130 Y92.9186 Z3.4245
X51.3177 Y71.6627 Z3.7994
X51.8438 Y63.3026 Z3.9791
X52.0088 Y61.1963 Z4.0303
X52.5709 Y69.6732 Z3.8403
X53.5316 Y87.1092 Z3.5328
X53.8394 Y92.6961 Z3.4558
X53.8738 Y93.3198 Z3.3888
X54.1222 Y98.5144 Z3.3180
X53.6049 Y97.9936 Z3.2096
X52.7579 Y97.5809 Z3.0949
X52.1504 Y97.5135 Z3.0627
X52.2040 Y97.0303 Z3.0758
X51.5880 Y96.9797 Z3.0852
X50.6926 Y97.2611 Z3.1738
X50.4227 Y97.4344 Z3.2185
X50.5849 Y93.6486 Z3.2841
X50.6831 Y93.1204 Z3.3001
X50.7159 Y92.9444 Z3.3222
X51.1425 Y84.6209 Z3.4905
X51.8283 Y71.5629 Z3.7723
X52.0023 Y68.7087 Z3.8418
X52.9520 Y86.1454 Z3.4635
X53.3190 Y92.8822 Z3.3356
X53.3405 Y93.2785 Z3.2807
X53.5658 Y97.4143 Z3.2167
X52.8134 Y97.0803 Z3.1130
X52.2040 Y97.0303 Z3.0758
X52.2442 Y96.5408 Z3.0895
X51.6292 Y96.4778 Z3.0957
X50.9607 Y96.6419 Z3.1500
X51.1031 Y93.6138 Z3.2091
X51.1857 Y93.1540 Z3.2261
X51.2290 Y92.7720 Z3.2728
X51.9948 Y77.8302 Z3.6130
X52.8146 Y92.8891 Z3.2666
X52.8362 Y93.2854 Z3.2109
X53.0178 Y96.6201 Z3.1479
X52.2442 Y96.5408 Z3.0895
X52.2948 Y96.0465 Z3.1036
X51.4926 Y95.9928 Z3.1153
X51.5882 Y93.7613 Z3.1657
X51.6884 Y93.1873 Z3.1837
X51.7217 Y92.9959 Z3.2161
X51.7578 Y92.2930 Z3.2544
X52.0100 Y87.3726 Z3.3738
X52.3120 Y92.9206 Z3.2271
X52.3336 Y93.3169 Z3.1734
X52.4829 Y96.0591 Z3.1123
X52.2948 Y96.0465 Z3.1036
G00 Z4.1036
X56.6470 Y148.9248
G01 Z3.0000  F1000.0
X54.3223 Y149.0068
X52.7983 Y149.0317
X51.4013 Y149.0332
X49.8773 Y149.0114
X48.3533 Y148.9672
X47.3530 Y148.9248
X47.8860 Y138.8918
X48.1946 Y133.5578
X48.6979 Y125.5568
X48.9259 Y122.2548
X49.1599 Y119.0798
X49.3915 Y116.1588
X49.6094 Y113.6188
X49.8345 Y111.2058
X50.0430 Y109.1738
X50.2583 Y107.2757
X50.4698 Y105.6178
X50.6731 Y104.2208
X50.8876 Y102.9508
X51.0962 Y101.9348
X51.2743 Y101.2280
X51.4586 Y100.6648
X51.6553 Y100.2429
X51.8232 Y100.0298
X51.9093 Y99.9888
X51.9974 Y99.9469
X52.0363 Y99.9648
X52.1778 Y100.0298
X52.3701 Y100.2838
X52.5406 Y100.6648
X52.7447 Y101.2998
X52.9253 Y102.0315
X53.1113 Y102.9508
X53.3063 Y104.0883
X53.4952 Y105.3638
X53.6783 Y106.7608
X53.8877 Y108.5388
X54.0897 Y110.4438
X54.2864 Y112.4758
X54.5017 Y114.8888
X54.7112 Y117.4288
X54.9356 Y120.3498
X55.1634 Y123.5248
X55.6521 Y131.0178
X55.9626 Y136.2248
X56.2881 Y142.0668
X56.6470 Y148.9248
G00 Z4.0000
X56.0298 Y137.4319
G01 Z2.9991  F1000.0
X55.5270 Y137.4599 Z2.7696
X56.1173 Y148.4396 Z2.7344
X55.2133 Y148.4715 Z2.3501
X54.3094 Y148.5034 Z2.0710
X53.5517 Y148.5158 Z1.9114
X52.4466 Y148.5285 Z1.7924
X51.4047 Y148.5296 Z1.8007
X50.6465 Y148.5188 Z1.8804
X49.8882 Y148.5079 Z2.0229
X49.1298 Y148.4859 Z2.2326
X48.1271 Y148.4536 Z2.6194
X47.8829 Y148.4432 Z2.7342
X48.6587 Y134.2546 Z2.7803
X49.3998 Y122.7031 Z2.8249
X49.9478 Y115.5661 Z2.8584
X50.4917 Y109.7347 Z2.8910
X50.9162 Y106.0985 Z2.9170
X51.3032 Y103.5143 Z2.9403
X51.6407 Y101.8349 Z2.9606
X51.8431 Y101.1091 Z2.9726
X52.0013 Y100.6926 Z2.9814
X52.2600 Y101.4374 Z2.9672
X52.5650 Y102.7898 Z2.9480
X52.9262 Y104.9588 Z2.9263
X53.3351 Y108.1519 Z2.9013
X53.7849 Y112.5225 Z2.8748
X54.3773 Y119.6576 Z2.8381
X54.8676 Y126.7275 Z2.8063
X55.4934 Y136.8569 Z2.7722
X55.5270 Y137.4599 Z2.7696
X55.0221 Y137.4880 Z2.5747
X55.5864 Y147.9461 Z2.5097
X55.0638 Y147.9561 Z2.3110
X54.5413 Y147.9660 Z2.1469
X53.4962 Y147.9860 Z1.9153
X52.4511 Y148.0059 Z1.8058
X51.4060 Y148.0259 Z1.8133
X50.2841 Y147.9984 Z1.9532
X49.5361 Y147.9800 Z2.1254
X48.7881 Y147.9617 Z2.3632
X48.4142 Y147.9525 Z2.5093
X49.3025 Y132.0340 Z2.6102
X50.0166 Y121.2388 Z2.6950
X50.6529 Y113.3148 Z2.7721
X51.2970 Y107.1314 Z2.8499
X51.9088 Y102.9990 Z2.9245
X52.0002 Y102.5914 Z2.9337
X52.1556 Y103.3695 Z2.9159
X52.6789 Y106.8867 Z2.8541
X53.2836 Y112.5698 Z2.7815
X53.9920 Y121.3647 Z2.6937
X55.0221 Y137.4880 Z2.5747
X54.5193 Y137.5152 Z2.4129
X55.0554 Y147.4525 Z2.3214
X54.1434 Y147.4700 Z2.0567
X53.2314 Y147.4874 Z1.8893
X52.3194 Y147.5048 Z1.8132
X51.4074 Y147.5222 Z1.8259
X50.7919 Y147.5071 Z1.8859
X49.8687 Y147.4845 Z2.0535
X48.9454 Y147.4618 Z2.3208
X49.8052 Y132.0641 Z2.4674
X50.4328 Y122.3629 Z2.5798
X51.1141 Y113.7547 Z2.7004
X51.8118 Y107.0903 Z2.8230
X52.0038 Y105.7709 Z2.8540
X52.2169 Y107.3046 Z2.8186
X52.7822 Y112.6172 Z2.7186
X53.4289 Y120.4610 Z2.6043
X54.5112 Y137.3650 Z2.4144
X54.5193 Y137.5152 Z2.4129
X54.0164 Y137.5423 Z2.2834
X54.5245 Y146.9590 Z2.1685
X53.7456 Y146.9739 Z1.9853
X52.9666 Y146.9887 Z1.8708
X52.1877 Y147.0036 Z1.8218
X51.4088 Y147.0185 Z1.8384
X50.4427 Y146.9948 Z1.9511
X49.4767 Y146.9711 Z2.1679
X50.3079 Y132.0941 Z2.3551
X51.0212 Y121.3111 Z2.5194
X51.6638 Y113.3295 Z2.6714
X52.0009 Y110.0342 Z2.7470
X52.3460 Y113.4556 Z2.6686
X52.9843 Y121.3891 Z2.5180
X54.0164 Y137.5423 Z2.2834
X53.5136 Y137.5694 Z2.1835
X53.9935 Y146.4655 Z2.0491
X53.0248 Y146.4840 Z1.8895
X52.0560 Y146.5025 Z1.8330
X51.4101 Y146.5148 Z1.8510
X50.3585 Y146.4890 Z1.9786
X50.0079 Y146.4804 Z2.0484
X50.8106 Y132.1242 Z2.2724
X51.4375 Y122.4352 Z2.4544
X51.9975 Y115.3577 Z2.6135
X52.4244 Y120.5349 Z2.4944
X53.4813 Y136.9713 Z2.1931
X53.5136 Y137.5694 Z2.1835
X53.0107 Y137.5966 Z2.1121
X53.4626 Y145.9719 Z1.9612
X52.3663 Y145.9786 Z1.8531
X51.2700 Y145.9852 Z1.8745
X50.5391 Y145.9897 Z1.9605
X51.2108 Y133.7384 Z2.1873
X51.9977 Y121.7394 Z2.4535
X53.0107 Y137.5966 Z2.1121
X52.5078 Y137.6237 Z2.0698
X52.9313 Y145.4715 Z1.9055
X52.0013 Y145.4772 Z1.8581
X51.0713 Y145.4829 Z1.9049
X51.8012 Y132.4307 Z2.1875
X51.9943 Y129.4871 Z2.2592
X52.5078 Y137.6237 Z2.0698
X52.0050 Y137.6508 Z2.0544
X52.4000 Y144.9712 Z1.8795
X51.6034 Y144.9760 Z1.8793
X52.0050 Y137.6508 Z2.0544
G00 Z30.1750
(Engraving)
(Endmill 1/4in 6.35mm Carbide Roughing)
M6 T3
M03 S20000
X-3.1750 Y209.4098
G01 Z24.0000  F1000.0
Y-4.0949
Z21.0000
Y209.4098
Z18.0000
Y-4.0949
Z15.0000
Y209.4098
Z12.0000
Y-4.0949
Z9.0000
Y209.4098
Z6.0000
Y-4.0949
Z3.0000
Y209.4098
Z0.0000
Y-4.0949
G00 Z30.1750
X93.1750
G01 Z24.0000  F1000.0
Y209.4098
Z21.0000
Y-4.0949
Z18.0000
Y209.4098
Z15.0000
Y-4.0949
Z12.0000
Y209.4098
Z9.0000
Y-4.0949
Z6.0000
Y209.4098
Z3.0000
Y-4.0949
Z0.0000
Y209.4098
G00 Z30.1750
(Engraving)
(Endmill 1/4in 6.35mm Carbide Roughing)
X93.9741 Y208.1750
G01 Z24.2222  F1000.0
X-4.2997
Z21.4444
X93.9741
Z18.6667
X-4.2997
Z15.8889
X93.9741
Z13.1111
X-4.2997
Z10.3333
X93.9741
Z7.5556
X-4.2997
Z4.7778
X93.9741
Z2.0000
X-4.2997
G00 Z30.1750
Y-3.1750
G01 Z24.2222  F1000.0
X93.9741
Z21.4444
X-4.2997
Z18.6667
X93.9741
Z15.8889
X-4.2997
Z13.1111
X93.9741
Z10.3333
X-4.2997
Z7.5556
X93.9741
Z4.7778
X-4.2997
Z2.0000
X93.9741
G00 Z30.1750
(Engraving-2)
(Endmill 1/4in 6.35mm Carbide Roughing)
Y208.1750
G01 Z0.0000  F1000.0
X-4.2997
G00 Z30.1750
Y-3.1750
G01 Z0.0000  F1000.0
X93.9741
G00 Z30.1750
M5 M9
M30
