G00 G49 G40.1 G17 G80 G50 G90
G21
(2 1/2 Axis Facing)
(Endmill 1/4in 6.35mm Carbide Roughing)
M6 T3
M03 S20000
G00 Z23.1750
X-6.3500 Y12.7000
G01 Z17.5000  F1000.0
Y6.3500
G17
G03X0.0000Y0.0000I6.3500J0.0000
G01 X90.0000
Y3.1750
X0.0000
Y6.3500
X90.0000
Y9.5250
X0.0000
Y12.7000
X90.0000
Y15.8750
X0.0000
Y19.0500
X90.0000
Y22.2250
X0.0000
Y25.4000
X90.0000
Y28.5750
X0.0000
Y31.7500
X90.0000
Y34.9250
X0.0000
Y38.1000
X90.0000
Y41.2750
X0.0000
Y44.4500
X90.0000
Y47.6250
X0.0000
Y50.8000
X90.0000
Y53.9750
X0.0000
Y57.1500
X90.0000
Y60.3250
X0.0000
Y63.5000
X90.0000
Y66.6750
X0.0000
Y69.8500
X90.0000
Y73.0250
X0.0000
Y76.2000
X90.0000
Y79.3750
X0.0000
Y82.5500
X90.0000
Y85.7250
X0.0000
Y88.9000
X90.0000
Y92.0750
X0.0000
Y95.2500
X90.0000
Y98.4250
X0.0000
Y101.6000
X90.0000
Y104.7750
X0.0000
Y107.9500
X90.0000
Y111.1250
X0.0000
Y114.3000
X90.0000
Y117.4750
X0.0000
Y120.6500
X90.0000
Y123.8250
X0.0000
Y127.0000
X90.0000
Y130.1750
X0.0000
Y133.3500
X90.0000
Y136.5250
X0.0000
Y139.7000
X90.0000
Y142.8750
X0.0000
Y146.0500
X90.0000
Y149.2250
X0.0000
Y152.4000
X90.0000
Y155.5750
X0.0000
Y158.7500
X90.0000
Y161.9250
X0.0000
Y165.1000
X90.0000
Y168.2750
X0.0000
Y171.4500
X90.0000
Y174.6250
X0.0000
Y177.8000
X90.0000
Y180.9750
X0.0000
Y184.1500
X90.0000
Y187.3250
X0.0000
Y190.5000
X90.0000
Y193.6750
X0.0000
Y196.8500
X90.0000
Y200.0250
X0.0000
Y203.2000
X90.0000
Y205.0000
X0.0000
G00 Z23.1750
Y0.0000
G01 Z15.0000  F1000.0
X90.0000
Y3.1750
X0.0000
Y6.3500
X90.0000
Y9.5250
X0.0000
Y12.7000
X90.0000
Y15.8750
X0.0000
Y19.0500
X90.0000
Y22.2250
X0.0000
Y25.4000
X90.0000
Y28.5750
X0.0000
Y31.7500
X90.0000
Y34.9250
X0.0000
Y38.1000
X90.0000
Y41.2750
X0.0000
Y44.4500
X90.0000
Y47.6250
X0.0000
Y50.8000
X90.0000
Y53.9750
X0.0000
Y57.1500
X90.0000
Y60.3250
X0.0000
Y63.5000
X90.0000
Y66.6750
X0.0000
Y69.8500
X90.0000
Y73.0250
X0.0000
Y76.2000
X90.0000
Y79.3750
X0.0000
Y82.5500
X90.0000
Y85.7250
X0.0000
Y88.9000
X90.0000
Y92.0750
X0.0000
Y95.2500
X90.0000
Y98.4250
X0.0000
Y101.6000
X90.0000
Y104.7750
X0.0000
Y107.9500
X90.0000
Y111.1250
X0.0000
Y114.3000
X90.0000
Y117.4750
X0.0000
Y120.6500
X90.0000
Y123.8250
X0.0000
Y127.0000
X90.0000
Y130.1750
X0.0000
Y133.3500
X90.0000
Y136.5250
X0.0000
Y139.7000
X90.0000
Y142.8750
X0.0000
Y146.0500
X90.0000
Y149.2250
X0.0000
Y152.4000
X90.0000
Y155.5750
X0.0000
Y158.7500
X90.0000
Y161.9250
X0.0000
Y165.1000
X90.0000
Y168.2750
X0.0000
Y171.4500
X90.0000
Y174.6250
X0.0000
Y177.8000
X90.0000
Y180.9750
X0.0000
Y184.1500
X90.0000
Y187.3250
X0.0000
Y190.5000
X90.0000
Y193.6750
X0.0000
Y196.8500
X90.0000
Y200.0250
X0.0000
Y203.2000
X90.0000
Y205.0000
X0.0000
G00 Z23.1750
(2 1/2 Axis Pocketing)
(Endmill 1/4in 6.35mm Carbide Roughing)
Z18.1750
X26.3875 Y103.2024
G01 Z14.0333  F1000.0
Z13.4333
Y100.5833 Z12.9715
X26.3212 Y100.6044 Z12.9593
X26.2556 Y100.6246 Z12.9471
X26.1288 Y100.6626 Z12.9238
X26.1034 Y100.6701 Z12.9191
X26.0467 Y100.6865 Z12.9087
X25.9572 Y100.7116 Z12.8923
X25.8910 Y100.7296 Z12.8802
X25.7629 Y100.7632 Z12.8569
X25.7373 Y100.7698 Z12.8522
X25.6800 Y100.7843 Z12.8418
X25.6333 Y100.7957 Z12.8333
G03X23.0234Y101.1124I-2.6359J-10.8084
X16.1125Y101.1055I-3.2973J-157.2122
G01 Y103.8945
G03X24.0861Y103.9409I3.6103J64.7561
X26.3875Y104.4167I-1.0855J11.0548
G01 Y100.5833
X26.3212 Y100.6044
X26.2556 Y100.6246
X26.1288 Y100.6626
X26.1034 Y100.6701
X26.0467 Y100.6865
X25.9572 Y100.7116
X25.8910 Y100.7296
X25.7629 Y100.7632
X25.7373 Y100.7698
X25.6800 Y100.7843
X25.6333 Y100.7957
X25.2578 Y99.2533
G02X27.7952Y98.2817I-3.1122J-11.9278
G01 X27.8653 Y98.3211
X27.9088 Y98.3452
X27.9267 Y98.3549
X27.9750 Y98.3810
Y106.6190
X27.9167 Y106.6505
X27.8685 Y106.6771
X27.7984 Y106.7165
X27.7500 Y106.7442
G02X23.0000Y105.4750I-4.7513J8.2586
X15.7419Y105.5055I-3.3670J62.3229
X14.5250Y105.6822I0.7568J9.4914
G01 Y99.3178
G02X16.5000Y99.5250I1.9777J-9.3340
X23.7581Y99.4945I3.3670J-62.3229
X25.2578Y99.2533I-0.7571J-9.4896
G01 X24.8832 Y97.7106
G03X23.0113Y97.9375I-1.8864J-7.7290
X15.8773Y97.9128I-3.3398J-65.6339
X13.1249Y97.2963I1.6116J-13.6481
G01 X13.0875 Y97.3121
X12.9873 Y97.3536
X12.9747 Y97.3587
X12.9375 Y97.3737
Y107.6263
X12.9496 Y107.6311
X12.9873 Y107.6464
X13.0875 Y107.6879
X13.1249 Y107.7037
X13.1871 Y107.7306
X13.2243 Y107.7471
X13.2500 Y107.7588
G03X16.4887Y107.0625I3.2511J7.2424
X23.6227Y107.0872I3.3398J65.6339
X27.7691Y108.6268I-0.6905J8.2130
X29.5625Y107.6263I4.7286J6.3683
G01 Y97.3737
G03X27.7309Y96.3732I3.6011J-8.7690
X24.8832Y97.7106I-4.7293J-6.3696
G01 X24.5074 Y96.1683
G02X27.7500Y94.2139I-1.5074J-6.1683
X31.1500Y96.2046I4.7497J-4.2136
G01 Y108.7954
G02X27.7500Y110.7861I1.3497J6.2042
X23.0000Y108.6500I-4.7508J4.2150
X16.0126Y108.6690I-3.3153J65.7419
X13.1592Y109.4919I0.9298J8.5818
G01 X13.1357 Y109.4784
G02X11.3500Y108.7954I-3.1339J5.5178
G01 Y96.2046
G02X13.3408Y95.5081I-3.4152J-12.9552
G01 X13.3643 Y95.5216
G02X16.5000Y96.3500I3.1371J-5.5257
X23.4874Y96.3310I3.3153J-65.7419
X24.5074Y96.1683I-0.4874J-6.3312
G01 X24.1315 Y94.6259
G03X23.0000Y94.7625I-1.1329J-4.6298
X16.0400Y94.7401I-3.3002J-55.8066
X13.2307Y93.4989I0.5330J-5.0064
X9.7625Y94.7625I-3.2508J-3.5311
G01 Y110.2375
G03X13.2693Y111.5011I0.1872J4.9785
X16.5000Y110.2375I3.2313J3.4999
X23.4600Y110.2599I3.3002J55.8066
X27.7500Y114.6580I-0.4600J4.7400
X32.7375Y110.2375I4.7601J0.3468
G01 Y94.7625
G03X27.7500Y90.3420I-0.2274J-4.7673
X24.1315Y94.6259I-4.7497J-0.3418
G01 X24.3853 Y95.6557 Z13.8940
Z14.4940
G00 Z18.1750
X32.3281 Y35.9468
G01 Z14.0333  F1000.0
Z13.4333
X29.3812 Y37.6482 Z12.8333
G02X27.7625Y40.4520I1.6188J2.8038
G01 Y45.1384
G03X33.4398Y35.3050I12.7375J0.7984
G01 X29.3812 Y37.6482
X28.5875 Y36.2734
X45.7923 Y26.3402
X45.8298 Y26.3301
X45.8673 Y26.3402
X45.8948 Y26.3676
X47.3948 Y28.9657
X47.4048 Y29.0032
X47.3948 Y29.0407
X47.3673 Y29.0682
X34.9125 Y36.2590
G02X29.3250Y45.9368I5.5875J9.6778
G01 Y90.0000
G02X32.5000Y93.1750I3.1750J0.0000
G01 X34.3250
Y111.8250
G02X31.2351Y112.0879I-1.0714J5.6979
X29.3250Y115.0000I1.2649J2.9121
G01 Y179.7844
X29.3150 Y179.8219
X29.2875 Y179.8494
X29.2500 Y179.8594
X26.2500
X26.2125 Y179.8494
X26.1850 Y179.8219
X26.1750 Y179.7844
Y115.0000
G02X23.0000Y111.8250I-3.1750J0.0000
X16.2833Y111.8324I-3.2500J98.3127
X13.3250Y115.0000I0.2167J3.1676
G01 Y179.7844
X13.2920 Y179.8465
X13.2221 Y179.8541
X13.1767 Y179.8004
X13.1750 Y179.7844
Y115.0000
G02X10.0000Y111.8250I-3.1750J0.0000
G01 X8.1750
Y93.1750
G02X11.2649Y92.9121I1.0714J-5.6979
X13.1750Y90.0000I-1.2649J-2.9121
G01 Y25.2156
X13.2125 Y25.1506
X13.2875
X13.3250 Y25.2156
Y90.0000
G02X16.5000Y93.1750I3.1750J0.0000
X23.2167Y93.1676I3.2500J-98.3127
X26.1750Y90.0000I-0.2167J-3.1676
G01 Y40.4520
G03X28.5875Y36.2734I4.8250J0.0000
G01 X29.6120 Y36.5479 Z13.8940
Z14.4940
G00 Z18.1750
X26.3875 Y103.2024
G01 Z11.8667  F1000.0
Z11.2667
Y100.5833 Z10.8049
X26.3212 Y100.6044 Z10.7926
X26.2556 Y100.6246 Z10.7805
X26.1288 Y100.6626 Z10.7571
X26.1034 Y100.6701 Z10.7525
X26.0467 Y100.6865 Z10.7421
X25.9572 Y100.7116 Z10.7257
X25.8910 Y100.7296 Z10.7136
X25.7629 Y100.7632 Z10.6902
X25.7373 Y100.7698 Z10.6856
X25.6800 Y100.7843 Z10.6752
X25.6333 Y100.7957 Z10.6667
G03X23.0234Y101.1124I-2.6359J-10.8084
X16.1125Y101.1055I-3.2973J-157.2122
G01 Y103.8945
G03X24.0861Y103.9409I3.6103J64.7561
X26.3875Y104.4167I-1.0855J11.0548
G01 Y100.5833
X26.3212 Y100.6044
X26.2556 Y100.6246
X26.1288 Y100.6626
X26.1034 Y100.6701
X26.0467 Y100.6865
X25.9572 Y100.7116
X25.8910 Y100.7296
X25.7629 Y100.7632
X25.7373 Y100.7698
X25.6800 Y100.7843
X25.6333 Y100.7957
X25.2578 Y99.2533
G02X27.7952Y98.2817I-3.1122J-11.9278
G01 X27.8653 Y98.3211
X27.9088 Y98.3452
X27.9267 Y98.3549
X27.9750 Y98.3810
Y106.6190
X27.9167 Y106.6505
X27.8685 Y106.6771
X27.7984 Y106.7165
X27.7500 Y106.7442
G02X23.0000Y105.4750I-4.7513J8.2586
X15.7419Y105.5055I-3.3670J62.3229
X14.5250Y105.6822I0.7568J9.4914
G01 Y99.3178
G02X16.5000Y99.5250I1.9777J-9.3340
X23.7581Y99.4945I3.3670J-62.3229
X25.2578Y99.2533I-0.7571J-9.4896
G01 X24.8832 Y97.7106
G03X23.0113Y97.9375I-1.8864J-7.7290
X15.8773Y97.9128I-3.3398J-65.6339
X13.1249Y97.2963I1.6116J-13.6481
G01 X13.0875 Y97.3121
X12.9873 Y97.3536
X12.9747 Y97.3587
X12.9375 Y97.3737
Y107.6263
X12.9496 Y107.6311
X12.9873 Y107.6464
X13.0875 Y107.6879
X13.1249 Y107.7037
X13.1871 Y107.7306
X13.2243 Y107.7471
X13.2500 Y107.7588
G03X16.4887Y107.0625I3.2511J7.2424
X23.6227Y107.0872I3.3398J65.6339
X27.7691Y108.6268I-0.6905J8.2130
X29.5625Y107.6263I4.7286J6.3683
G01 Y97.3737
G03X27.7309Y96.3732I3.6011J-8.7690
X24.8832Y97.7106I-4.7293J-6.3696
G01 X24.5074 Y96.1683
G02X27.7500Y94.2139I-1.5074J-6.1683
X31.1500Y96.2046I4.7497J-4.2136
G01 Y108.7954
G02X27.7500Y110.7861I1.3497J6.2042
X23.0000Y108.6500I-4.7508J4.2150
X16.0126Y108.6690I-3.3153J65.7419
X13.1592Y109.4919I0.9298J8.5818
G01 X13.1357 Y109.4784
G02X11.3500Y108.7954I-3.1339J5.5178
G01 Y96.2046
G02X13.3408Y95.5081I-3.4152J-12.9552
G01 X13.3643 Y95.5216
G02X16.5000Y96.3500I3.1371J-5.5257
X23.4874Y96.3310I3.3153J-65.7419
X24.5074Y96.1683I-0.4874J-6.3312
G01 X24.1315 Y94.6259
G03X23.0000Y94.7625I-1.1329J-4.6298
X16.0400Y94.7401I-3.3002J-55.8066
X13.2307Y93.4989I0.5330J-5.0064
X9.7625Y94.7625I-3.2508J-3.5311
G01 Y110.2375
G03X13.2693Y111.5011I0.1872J4.9785
X16.5000Y110.2375I3.2313J3.4999
X23.4600Y110.2599I3.3002J55.8066
X27.7500Y114.6580I-0.4600J4.7400
X32.7375Y110.2375I4.7601J0.3468
G01 Y94.7625
G03X27.7500Y90.3420I-0.2274J-4.7673
X24.1315Y94.6259I-4.7497J-0.3418
G01 X24.3853 Y95.6557 Z11.7273
Z12.3273
G00 Z18.1750
X32.3281 Y35.9468
G01 Z11.8667  F1000.0
Z11.2667
X29.3812 Y37.6482 Z10.6667
G02X27.7625Y40.4520I1.6188J2.8038
G01 Y45.1384
G03X33.4398Y35.3050I12.7375J0.7984
G01 X29.3812 Y37.6482
X28.5875 Y36.2734
X45.7923 Y26.3402
X45.8298 Y26.3301
X45.8673 Y26.3402
X45.8948 Y26.3676
X47.3948 Y28.9657
X47.4048 Y29.0032
X47.3948 Y29.0407
X47.3673 Y29.0682
X34.9125 Y36.2590
G02X29.3250Y45.9368I5.5875J9.6778
G01 Y90.0000
G02X32.5000Y93.1750I3.1750J0.0000
G01 X34.3250
Y111.8250
G02X31.2351Y112.0879I-1.0714J5.6979
X29.3250Y115.0000I1.2649J2.9121
G01 Y179.7844
X29.3150 Y179.8219
X29.2875 Y179.8494
X29.2500 Y179.8594
X26.2500
X26.2125 Y179.8494
X26.1850 Y179.8219
X26.1750 Y179.7844
Y115.0000
G02X23.0000Y111.8250I-3.1750J0.0000
X16.2833Y111.8324I-3.2500J98.3127
X13.3250Y115.0000I0.2167J3.1676
G01 Y179.7844
X13.2920 Y179.8465
X13.2221 Y179.8541
X13.1767 Y179.8004
X13.1750 Y179.7844
Y115.0000
G02X10.0000Y111.8250I-3.1750J0.0000
G01 X8.1750
Y93.1750
G02X11.2649Y92.9121I1.0714J-5.6979
X13.1750Y90.0000I-1.2649J-2.9121
G01 Y25.2156
X13.2125 Y25.1506
X13.2875
X13.3250 Y25.2156
Y90.0000
G02X16.5000Y93.1750I3.1750J0.0000
X23.2167Y93.1676I3.2500J-98.3127
X26.1750Y90.0000I-0.2167J-3.1676
G01 Y40.4520
G03X28.5875Y36.2734I4.8250J0.0000
G01 X29.6120 Y36.5479 Z11.7273
Z12.3273
G00 Z18.1750
X26.3875 Y103.2024
G01 Z9.7000  F1000.0
Z9.1000
Y100.5833 Z8.6382
X26.3212 Y100.6044 Z8.6259
X26.2556 Y100.6246 Z8.6138
X26.1288 Y100.6626 Z8.5905
X26.1034 Y100.6701 Z8.5858
X26.0467 Y100.6865 Z8.5754
X25.9572 Y100.7116 Z8.5590
X25.8910 Y100.7296 Z8.5469
X25.7629 Y100.7632 Z8.5236
X25.7373 Y100.7698 Z8.5189
X25.6800 Y100.7843 Z8.5085
X25.6333 Y100.7957 Z8.5000
G03X23.0234Y101.1124I-2.6359J-10.8084
X16.1125Y101.1055I-3.2973J-157.2122
G01 Y103.8945
G03X24.0861Y103.9409I3.6103J64.7561
X26.3875Y104.4167I-1.0855J11.0548
G01 Y100.5833
X26.3212 Y100.6044
X26.2556 Y100.6246
X26.1288 Y100.6626
X26.1034 Y100.6701
X26.0467 Y100.6865
X25.9572 Y100.7116
X25.8910 Y100.7296
X25.7629 Y100.7632
X25.7373 Y100.7698
X25.6800 Y100.7843
X25.6333 Y100.7957
X25.2578 Y99.2533
G02X27.7952Y98.2817I-3.1122J-11.9278
G01 X27.8653 Y98.3211
X27.9088 Y98.3452
X27.9267 Y98.3549
X27.9750 Y98.3810
Y106.6190
X27.9167 Y106.6505
X27.8685 Y106.6771
X27.7984 Y106.7165
X27.7500 Y106.7442
G02X23.0000Y105.4750I-4.7513J8.2586
X15.7419Y105.5055I-3.3670J62.3229
X14.5250Y105.6822I0.7568J9.4914
G01 Y99.3178
G02X16.5000Y99.5250I1.9777J-9.3340
X23.7581Y99.4945I3.3670J-62.3229
X25.2578Y99.2533I-0.7571J-9.4896
G01 X24.8832 Y97.7106
G03X23.0113Y97.9375I-1.8864J-7.7290
X15.8773Y97.9128I-3.3398J-65.6339
X13.1249Y97.2963I1.6116J-13.6481
G01 X13.0875 Y97.3121
X12.9873 Y97.3536
X12.9747 Y97.3587
X12.9375 Y97.3737
Y107.6263
X12.9496 Y107.6311
X12.9873 Y107.6464
X13.0875 Y107.6879
X13.1249 Y107.7037
X13.1871 Y107.7306
X13.2243 Y107.7471
X13.2500 Y107.7588
G03X16.4887Y107.0625I3.2511J7.2424
X23.6227Y107.0872I3.3398J65.6339
X27.7691Y108.6268I-0.6905J8.2130
X29.5625Y107.6263I4.7286J6.3683
G01 Y97.3737
G03X27.7309Y96.3732I3.6011J-8.7690
X24.8832Y97.7106I-4.7293J-6.3696
G01 X24.5074 Y96.1683
G02X27.7500Y94.2139I-1.5074J-6.1683
X31.1500Y96.2046I4.7497J-4.2136
G01 Y108.7954
G02X27.7500Y110.7861I1.3497J6.2042
X23.0000Y108.6500I-4.7508J4.2150
X16.0126Y108.6690I-3.3153J65.7419
X13.1592Y109.4919I0.9298J8.5818
G01 X13.1357 Y109.4784
G02X11.3500Y108.7954I-3.1339J5.5178
G01 Y96.2046
G02X13.3408Y95.5081I-3.4152J-12.9552
G01 X13.3643 Y95.5216
G02X16.5000Y96.3500I3.1371J-5.5257
X23.4874Y96.3310I3.3153J-65.7419
X24.5074Y96.1683I-0.4874J-6.3312
G01 X24.1315 Y94.6259
G03X23.0000Y94.7625I-1.1329J-4.6298
X16.0400Y94.7401I-3.3002J-55.8066
X13.2307Y93.4989I0.5330J-5.0064
X9.7625Y94.7625I-3.2508J-3.5311
G01 Y110.2375
G03X13.2693Y111.5011I0.1872J4.9785
X16.5000Y110.2375I3.2313J3.4999
X23.4600Y110.2599I3.3002J55.8066
X27.7500Y114.6580I-0.4600J4.7400
X32.7375Y110.2375I4.7601J0.3468
G01 Y94.7625
G03X27.7500Y90.3420I-0.2274J-4.7673
X24.1315Y94.6259I-4.7497J-0.3418
G01 X24.3853 Y95.6557 Z9.5607
Z10.1607
G00 Z18.1750
X32.3281 Y35.9468
G01 Z9.7000  F1000.0
Z9.1000
X29.3812 Y37.6482 Z8.5000
G02X27.7625Y40.4520I1.6188J2.8038
G01 Y45.1384
G03X33.4398Y35.3050I12.7375J0.7984
G01 X29.3812 Y37.6482
X28.5875 Y36.2734
X45.7923 Y26.3402
X45.8298 Y26.3301
X45.8673 Y26.3402
X45.8948 Y26.3676
X47.3948 Y28.9657
X47.4048 Y29.0032
X47.3948 Y29.0407
X47.3673 Y29.0682
X34.9125 Y36.2590
G02X29.3250Y45.9368I5.5875J9.6778
G01 Y90.0000
G02X32.5000Y93.1750I3.1750J0.0000
G01 X34.3250
Y111.8250
G02X31.2351Y112.0879I-1.0714J5.6979
X29.3250Y115.0000I1.2649J2.9121
G01 Y179.7844
X29.3150 Y179.8219
X29.2875 Y179.8494
X29.2500 Y179.8594
X26.2500
X26.2125 Y179.8494
X26.1850 Y179.8219
X26.1750 Y179.7844
Y115.0000
G02X23.0000Y111.8250I-3.1750J0.0000
X16.2833Y111.8324I-3.2500J98.3127
X13.3250Y115.0000I0.2167J3.1676
G01 Y179.7844
X13.2920 Y179.8465
X13.2221 Y179.8541
X13.1767 Y179.8004
X13.1750 Y179.7844
Y115.0000
G02X10.0000Y111.8250I-3.1750J0.0000
G01 X8.1750
Y93.1750
G02X11.2649Y92.9121I1.0714J-5.6979
X13.1750Y90.0000I-1.2649J-2.9121
G01 Y25.2156
X13.2125 Y25.1506
X13.2875
X13.3250 Y25.2156
Y90.0000
G02X16.5000Y93.1750I3.1750J0.0000
X23.2167Y93.1676I3.2500J-98.3127
X26.1750Y90.0000I-0.2167J-3.1676
G01 Y40.4520
G03X28.5875Y36.2734I4.8250J0.0000
G01 X29.6120 Y36.5479 Z9.5607
Z10.1607
G00 Z18.1750
X71.9546 Y152.0967
G01 Z14.0333  F1000.0
Z13.4333
X72.0127 Y152.0726 Z13.4222
X72.0253 Y152.0675 Z13.4199
X72.0625 Y152.0525 Z13.4128
Y151.8000 Z13.3682
X72.0504 Y151.7952 Z13.3659
X72.0127 Y151.7799 Z13.3588
X71.9125 Y151.7384 Z13.3397
X71.8751 Y151.7225 Z13.3325
X71.8129 Y151.6956 Z13.3205
X71.7757 Y151.6791 Z13.3134
X71.7500 Y151.6675 Z13.3084
X71.7243 Y151.6791 Z13.3034
X71.6871 Y151.6956 Z13.2962
X71.6249 Y151.7225 Z13.2843
X71.5875 Y151.7384 Z13.2771
X71.4873 Y151.7799 Z13.2580
X71.4747 Y151.7850 Z13.2556
X71.4375 Y151.8000 Z13.2485
Y152.0525 Z13.2040
X71.4496 Y152.0574 Z13.2017
X71.4873 Y152.0726 Z13.1945
X71.5875 Y152.1141 Z13.1754
X71.6249 Y152.1300 Z13.1683
X71.6585 Y152.1445 Z13.1618
X71.6871 Y152.1569 Z13.1563
X71.7243 Y152.1734 Z13.1491
X71.7500 Y152.1850 Z13.1442
X71.7757 Y152.1734 Z13.1392
X71.8129 Y152.1569 Z13.1320
X71.8751 Y152.1300 Z13.1201
X71.9125 Y152.1141 Z13.1129
X72.0127 Y152.0726 Z13.0938
X72.0253 Y152.0675 Z13.0914
X72.0625 Y152.0525 Z13.0843
Y151.8000 Z13.0398
X72.0504 Y151.7952 Z13.0375
X72.0127 Y151.7799 Z13.0303
X71.9125 Y151.7384 Z13.0112
X71.8751 Y151.7225 Z13.0040
X71.8129 Y151.6956 Z12.9921
X71.7757 Y151.6791 Z12.9849
X71.7500 Y151.6675 Z12.9799
X71.7243 Y151.6791 Z12.9749
X71.6871 Y151.6956 Z12.9678
X71.6249 Y151.7225 Z12.9558
X71.5875 Y151.7384 Z12.9487
X71.4873 Y151.7799 Z12.9295
X71.4747 Y151.7850 Z12.9271
X71.4375 Y151.8000 Z12.9201
Y152.0525 Z12.8755
X71.4496 Y152.0574 Z12.8732
X71.4873 Y152.0726 Z12.8661
X71.5875 Y152.1141 Z12.8470
X71.6249 Y152.1300 Z12.8398
X71.6585 Y152.1445 Z12.8333
X71.6871 Y152.1569
X71.7243 Y152.1734
X71.7500 Y152.1850
X71.7757 Y152.1734
X71.8129 Y152.1569
X71.8751 Y152.1300
X71.9125 Y152.1141
X72.0127 Y152.0726
X72.0253 Y152.0675
X72.0625 Y152.0525
X71.9381 Y151.7255
X71.5885 Y151.7378
X71.4873 Y152.0726
X71.5875 Y152.1141
X71.6249 Y152.1300
X71.6585 Y152.1445
X71.0260 Y153.6006
G02X69.8500Y153.2217I-2.5245J5.8218
G01 Y150.6308
G02X71.8408Y149.9343I-3.4152J-12.9552
G01 X71.8643 Y149.9478
G02X73.6500Y150.6308I3.1339J-5.5177
G01 Y153.2217
G02X71.6592Y153.9182I3.4152J12.9552
G01 X71.6357 Y153.9047
X71.5885 Y153.8781
X71.5647 Y153.8650
X71.4693 Y153.8135
X71.4454 Y153.8009
X71.3972 Y153.7759
X71.3731 Y153.7637
X71.2760 Y153.7154
X71.2516 Y153.7036
X71.2026 Y153.6803
X71.1781 Y153.6689
X71.0794 Y153.6240
X71.0546 Y153.6130
X71.0260 Y153.6006
X70.3936 Y155.0566
G03X71.7693Y155.9273I-2.4430J5.3823
X75.2375Y154.6638I3.2508J3.5311
G01 Y149.1888
G03X71.7307Y147.9252I-0.1872J-4.9786
X68.2625Y149.1888I-3.2508J-3.5311
G01 Y154.6638
G03X70.3936Y155.0566I0.2047J4.8657
G01 X69.7649 Y156.5141
G02X68.5000Y156.2513I-1.2649J2.9122
G01 X66.6750
Y147.6367
X66.6758 Y147.6013
G02X69.7649Y147.3384I1.0710J-5.6966
X71.6750Y144.4263I-1.2649J-2.9121
G01 Y124.0681
X71.7125 Y124.0031
X71.7875
X71.8250 Y124.0681
Y144.4263
G02X75.0000Y147.6013I3.1750J0.0000
G01 X76.8250
Y156.2513
G02X73.7351Y156.5141I-1.0714J5.6978
X71.8250Y159.4263I1.2649J2.9122
G01 Y179.7844
X71.7875 Y179.8494
X71.7125
X71.6750 Y179.7844
Y159.4263
G02X69.7649Y156.5141I-3.1750J0.0000
G01 X70.2040 Y155.5486 Z13.8940
Z14.4940
G00 Z18.1750
X71.9546 Y152.0967
G01 Z11.8667  F1000.0
Z11.2667
X72.0127 Y152.0726 Z11.2556
X72.0253 Y152.0675 Z11.2532
X72.0625 Y152.0525 Z11.2461
Y151.8000 Z11.2016
X72.0504 Y151.7952 Z11.1993
X72.0127 Y151.7799 Z11.1921
X71.9125 Y151.7384 Z11.1730
X71.8751 Y151.7225 Z11.1658
X71.8129 Y151.6956 Z11.1539
X71.7757 Y151.6791 Z11.1467
X71.7500 Y151.6675 Z11.1417
X71.7243 Y151.6791 Z11.1367
X71.6871 Y151.6956 Z11.1296
X71.6249 Y151.7225 Z11.1176
X71.5875 Y151.7384 Z11.1105
X71.4873 Y151.7799 Z11.0913
X71.4747 Y151.7850 Z11.0890
X71.4375 Y151.8000 Z11.0819
Y152.0525 Z11.0373
X71.4496 Y152.0574 Z11.0350
X71.4873 Y152.0726 Z11.0279
X71.5875 Y152.1141 Z11.0088
X71.6249 Y152.1300 Z11.0016
X71.6585 Y152.1445 Z10.9951
X71.6871 Y152.1569 Z10.9896
X71.7243 Y152.1734 Z10.9825
X71.7500 Y152.1850 Z10.9775
X71.7757 Y152.1734 Z10.9725
X71.8129 Y152.1569 Z10.9653
X71.8751 Y152.1300 Z10.9534
X71.9125 Y152.1141 Z10.9462
X72.0127 Y152.0726 Z10.9271
X72.0253 Y152.0675 Z10.9247
X72.0625 Y152.0525 Z10.9176
Y151.8000 Z10.8731
X72.0504 Y151.7952 Z10.8708
X72.0127 Y151.7799 Z10.8636
X71.9125 Y151.7384 Z10.8445
X71.8751 Y151.7225 Z10.8374
X71.8129 Y151.6956 Z10.8254
X71.7757 Y151.6791 Z10.8182
X71.7500 Y151.6675 Z10.8133
X71.7243 Y151.6791 Z10.8083
X71.6871 Y151.6956 Z10.8011
X71.6249 Y151.7225 Z10.7892
X71.5875 Y151.7384 Z10.7820
X71.4873 Y151.7799 Z10.7629
X71.4747 Y151.7850 Z10.7605
X71.4375 Y151.8000 Z10.7534
Y152.0525 Z10.7089
X71.4496 Y152.0574 Z10.7066
X71.4873 Y152.0726 Z10.6994
X71.5875 Y152.1141 Z10.6803
X71.6249 Y152.1300 Z10.6731
X71.6585 Y152.1445 Z10.6667
X71.6871 Y152.1569
X71.7243 Y152.1734
X71.7500 Y152.1850
X71.7757 Y152.1734
X71.8129 Y152.1569
X71.8751 Y152.1300
X71.9125 Y152.1141
X72.0127 Y152.0726
X72.0253 Y152.0675
X72.0625 Y152.0525
X71.9381 Y151.7255
X71.5885 Y151.7378
X71.4873 Y152.0726
X71.5875 Y152.1141
X71.6249 Y152.1300
X71.6585 Y152.1445
X71.0260 Y153.6006
G02X69.8500Y153.2217I-2.5245J5.8218
G01 Y150.6308
G02X71.8408Y149.9343I-3.4152J-12.9552
G01 X71.8643 Y149.9478
G02X73.6500Y150.6308I3.1339J-5.5177
G01 Y153.2217
G02X71.6592Y153.9182I3.4152J12.9552
G01 X71.6357 Y153.9047
X71.5885 Y153.8781
X71.5647 Y153.8650
X71.4693 Y153.8135
X71.4454 Y153.8009
X71.3972 Y153.7759
X71.3731 Y153.7637
X71.2760 Y153.7154
X71.2516 Y153.7036
X71.2026 Y153.6803
X71.1781 Y153.6689
X71.0794 Y153.6240
X71.0546 Y153.6130
X71.0260 Y153.6006
X70.3936 Y155.0566
G03X71.7693Y155.9273I-2.4430J5.3823
X75.2375Y154.6638I3.2508J3.5311
G01 Y149.1888
G03X71.7307Y147.9252I-0.1872J-4.9786
X68.2625Y149.1888I-3.2508J-3.5311
G01 Y154.6638
G03X70.3936Y155.0566I0.2047J4.8657
G01 X69.7649 Y156.5141
G02X68.5000Y156.2513I-1.2649J2.9122
G01 X66.6750
Y147.6367
X66.6758 Y147.6013
G02X69.7649Y147.3384I1.0710J-5.6966
X71.6750Y144.4263I-1.2649J-2.9121
G01 Y124.0681
X71.7125 Y124.0031
X71.7875
X71.8250 Y124.0681
Y144.4263
G02X75.0000Y147.6013I3.1750J0.0000
G01 X76.8250
Y156.2513
G02X73.7351Y156.5141I-1.0714J5.6978
X71.8250Y159.4263I1.2649J2.9122
G01 Y179.7844
X71.7875 Y179.8494
X71.7125
X71.6750 Y179.7844
Y159.4263
G02X69.7649Y156.5141I-3.1750J0.0000
G01 X70.2040 Y155.5486 Z11.7273
Z12.3273
G00 Z18.1750
X71.9546 Y152.0967
G01 Z9.7000  F1000.0
Z9.1000
X72.0127 Y152.0726 Z9.0889
X72.0253 Y152.0675 Z9.0865
X72.0625 Y152.0525 Z9.0794
Y151.8000 Z9.0349
X72.0504 Y151.7952 Z9.0326
X72.0127 Y151.7799 Z9.0254
X71.9125 Y151.7384 Z9.0063
X71.8751 Y151.7225 Z8.9992
X71.8129 Y151.6956 Z8.9872
X71.7757 Y151.6791 Z8.9800
X71.7500 Y151.6675 Z8.9751
X71.7243 Y151.6791 Z8.9701
X71.6871 Y151.6956 Z8.9629
X71.6249 Y151.7225 Z8.9510
X71.5875 Y151.7384 Z8.9438
X71.4873 Y151.7799 Z8.9247
X71.4747 Y151.7850 Z8.9223
X71.4375 Y151.8000 Z8.9152
Y152.0525 Z8.8707
X71.4496 Y152.0574 Z8.8684
X71.4873 Y152.0726 Z8.8612
X71.5875 Y152.1141 Z8.8421
X71.6249 Y152.1300 Z8.8349
X71.6585 Y152.1445 Z8.8285
X71.6871 Y152.1569 Z8.8230
X71.7243 Y152.1734 Z8.8158
X71.7500 Y152.1850 Z8.8108
X71.7757 Y152.1734 Z8.8058
X71.8129 Y152.1569 Z8.7987
X71.8751 Y152.1300 Z8.7867
X71.9125 Y152.1141 Z8.7796
X72.0127 Y152.0726 Z8.7604
X72.0253 Y152.0675 Z8.7580
X72.0625 Y152.0525 Z8.7510
Y151.8000 Z8.7064
X72.0504 Y151.7952 Z8.7041
X72.0127 Y151.7799 Z8.6970
X71.9125 Y151.7384 Z8.6779
X71.8751 Y151.7225 Z8.6707
X71.8129 Y151.6956 Z8.6587
X71.7757 Y151.6791 Z8.6516
X71.7500 Y151.6675 Z8.6466
X71.7243 Y151.6791 Z8.6416
X71.6871 Y151.6956 Z8.6344
X71.6249 Y151.7225 Z8.6225
X71.5875 Y151.7384 Z8.6153
X71.4873 Y151.7799 Z8.5962
X71.4747 Y151.7850 Z8.5938
X71.4375 Y151.8000 Z8.5867
Y152.0525 Z8.5422
X71.4496 Y152.0574 Z8.5399
X71.4873 Y152.0726 Z8.5327
X71.5875 Y152.1141 Z8.5136
X71.6249 Y152.1300 Z8.5065
X71.6585 Y152.1445 Z8.5000
X71.6871 Y152.1569
X71.7243 Y152.1734
X71.7500 Y152.1850
X71.7757 Y152.1734
X71.8129 Y152.1569
X71.8751 Y152.1300
X71.9125 Y152.1141
X72.0127 Y152.0726
X72.0253 Y152.0675
X72.0625 Y152.0525
X71.9381 Y151.7255
X71.5885 Y151.7378
X71.4873 Y152.0726
X71.5875 Y152.1141
X71.6249 Y152.1300
X71.6585 Y152.1445
X71.0260 Y153.6006
G02X69.8500Y153.2217I-2.5245J5.8218
G01 Y150.6308
G02X71.8408Y149.9343I-3.4152J-12.9552
G01 X71.8643 Y149.9478
G02X73.6500Y150.6308I3.1339J-5.5177
G01 Y153.2217
G02X71.6592Y153.9182I3.4152J12.9552
G01 X71.6357 Y153.9047
X71.5885 Y153.8781
X71.5647 Y153.8650
X71.4693 Y153.8135
X71.4454 Y153.8009
X71.3972 Y153.7759
X71.3731 Y153.7637
X71.2760 Y153.7154
X71.2516 Y153.7036
X71.2026 Y153.6803
X71.1781 Y153.6689
X71.0794 Y153.6240
X71.0546 Y153.6130
X71.0260 Y153.6006
X70.3936 Y155.0566
G03X71.7693Y155.9273I-2.4430J5.3823
X75.2375Y154.6638I3.2508J3.5311
G01 Y149.1888
G03X71.7307Y147.9252I-0.1872J-4.9786
X68.2625Y149.1888I-3.2508J-3.5311
G01 Y154.6638
G03X70.3936Y155.0566I0.2047J4.8657
G01 X69.7649 Y156.5141
G02X68.5000Y156.2513I-1.2649J2.9122
G01 X66.6750
Y147.6367
X66.6758 Y147.6013
G02X69.7649Y147.3384I1.0710J-5.6966
X71.6750Y144.4263I-1.2649J-2.9121
G01 Y124.0681
X71.7125 Y124.0031
X71.7875
X71.8250 Y124.0681
Y144.4263
G02X75.0000Y147.6013I3.1750J0.0000
G01 X76.8250
Y156.2513
G02X73.7351Y156.5141I-1.0714J5.6978
X71.8250Y159.4263I1.2649J2.9122
G01 Y179.7844
X71.7875 Y179.8494
X71.7125
X71.6750 Y179.7844
Y159.4263
G02X69.7649Y156.5141I-3.1750J0.0000
G01 X70.2040 Y155.5486 Z9.5607
Z10.1607
G00 Z18.1750
(2 1/2 Axis Pocketing-1)
(Endmill 1/4in 6.35mm Carbide Roughing)
X72.9875 Y30.1308
G01 Z13.8250  F1000.0
Z13.2250
Y26.7281 Z12.6250
X70.5125
Y79.4194
X72.9875
Y26.7281
Y25.1406
X74.5000
X74.5375 Y25.1506
X74.5650 Y25.1781
X74.5750 Y25.2156
Y80.9319
X74.5650 Y80.9694
X74.5375 Y80.9969
X74.5000 Y81.0069
X69.0000
X68.9713 Y81.0012
X68.9470 Y80.9850
X68.9307 Y80.9606
X68.9276 Y80.9513
X68.9256 Y80.9417
X68.9250 Y80.9319
Y25.2156
X68.9350 Y25.1781
X68.9625 Y25.1506
X69.0000 Y25.1406
X72.9875
Y26.2012 Z13.6857
Z14.2857
G00 Z18.1750
Y30.1308
G01 Z11.4500  F1000.0
Z10.8500
Y26.7281 Z10.2500
X70.5125
Y79.4194
X72.9875
Y26.7281
Y25.1406
X74.5000
X74.5375 Y25.1506
X74.5650 Y25.1781
X74.5750 Y25.2156
Y80.9319
X74.5650 Y80.9694
X74.5375 Y80.9969
X74.5000 Y81.0069
X69.0000
X68.9713 Y81.0012
X68.9470 Y80.9850
X68.9307 Y80.9606
X68.9276 Y80.9513
X68.9256 Y80.9417
X68.9250 Y80.9319
Y25.2156
X68.9350 Y25.1781
X68.9625 Y25.1506
X69.0000 Y25.1406
X72.9875
Y26.2012 Z11.3107
Z11.9107
G00 Z18.1750
Y30.1308
G01 Z9.0750  F1000.0
Z8.4750
Y26.7281 Z7.8750
X70.5125
Y79.4194
X72.9875
Y26.7281
Y25.1406
X74.5000
X74.5375 Y25.1506
X74.5650 Y25.1781
X74.5750 Y25.2156
Y80.9319
X74.5650 Y80.9694
X74.5375 Y80.9969
X74.5000 Y81.0069
X69.0000
X68.9713 Y81.0012
X68.9470 Y80.9850
X68.9307 Y80.9606
X68.9276 Y80.9513
X68.9256 Y80.9417
X68.9250 Y80.9319
Y25.2156
X68.9350 Y25.1781
X68.9625 Y25.1506
X69.0000 Y25.1406
X72.9875
Y26.2012 Z8.9357
Z9.5357
G00 Z18.1750
Y30.1308
G01 Z6.7000  F1000.0
Z6.1000
Y26.7281 Z5.5000
X70.5125
Y79.4194
X72.9875
Y26.7281
Y25.1406
X74.5000
X74.5375 Y25.1506
X74.5650 Y25.1781
X74.5750 Y25.2156
Y80.9319
X74.5650 Y80.9694
X74.5375 Y80.9969
X74.5000 Y81.0069
X69.0000
X68.9713 Y81.0012
X68.9470 Y80.9850
X68.9307 Y80.9606
X68.9276 Y80.9513
X68.9256 Y80.9417
X68.9250 Y80.9319
Y25.2156
X68.9350 Y25.1781
X68.9625 Y25.1506
X69.0000 Y25.1406
X72.9875
Y26.2012 Z6.5607
Z7.1607
G00 Z18.1750
(2 1/2 Axis Pocketing-2)
(Endmill 1/4in 6.35mm Carbide Roughing)
X22.9847 Y103.8875
G01 Z7.8667  F1000.0
Z7.2667
X26.3875 Z6.6667
Y101.1125
X16.1125
Y103.8875
X26.3875
X27.9750
Y105.4750
X14.5250
Y99.5250
X27.9750
Y103.8875
X29.5625
Y97.9375
X12.9375
Y107.0625
X29.5625
Y103.8875
X31.1500
Y108.6500
X11.3500
Y96.3500
X31.1500
Y103.8875
X32.7375
Y94.7625
X9.7625
Y110.2375
X32.7375
Y103.8875
X34.3250
Y111.8250
X15.8300
X8.1750
Y93.1750
X34.3250
Y103.8875
X33.2643 Z7.7273
Z8.3273
G00 Z18.1750
X22.9847
G01 Z6.0333  F1000.0
Z5.4333
X26.3875 Z4.8333
Y101.1125
X16.1125
Y103.8875
X26.3875
X27.9750
Y105.4750
X14.5250
Y99.5250
X27.9750
Y103.8875
X29.5625
Y97.9375
X12.9375
Y107.0625
X29.5625
Y103.8875
X31.1500
Y108.6500
X11.3500
Y96.3500
X31.1500
Y103.8875
X32.7375
Y94.7625
X9.7625
Y110.2375
X32.7375
Y103.8875
X34.3250
Y111.8250
X15.8300
X8.1750
Y93.1750
X34.3250
Y103.8875
X33.2643 Z5.8940
Z6.4940
G00 Z18.1750
X22.9847
G01 Z4.2000  F1000.0
Z3.6000
X26.3875 Z3.0000
Y101.1125
X16.1125
Y103.8875
X26.3875
X27.9750
Y105.4750
X14.5250
Y99.5250
X27.9750
Y103.8875
X29.5625
Y97.9375
X12.9375
Y107.0625
X29.5625
Y103.8875
X31.1500
Y108.6500
X11.3500
Y96.3500
X31.1500
Y103.8875
X32.7375
Y94.7625
X9.7625
Y110.2375
X32.7375
Y103.8875
X34.3250
Y111.8250
X15.8300
X8.1750
Y93.1750
X34.3250
Y103.8875
X33.2643 Z4.0607
Z4.6607
G00 Z18.1750
X70.9528 Y153.0763
G01 Z7.8667  F1000.0
Z7.2667
X69.8500 Z7.0722
Y150.7763 Z6.6667
X73.6500
Y153.0763
X69.8500
Y150.7763
X68.2625
Y154.6638
X75.2375
Y149.1888
X68.2625
Y150.7763
X66.6750
Y149.4229
Y147.6013
X76.8250
Y156.2513
X66.6750
Y150.7763
X67.7357 Z7.7273
Z8.3273
G00 Z18.1750
X70.9528 Y153.0763
G01 Z6.0333  F1000.0
Z5.4333
X69.8500 Z5.2389
Y150.7763 Z4.8333
X73.6500
Y153.0763
X69.8500
Y150.7763
X68.2625
Y154.6638
X75.2375
Y149.1888
X68.2625
Y150.7763
X66.6750
Y149.4229
Y147.6013
X76.8250
Y156.2513
X66.6750
Y150.7763
X67.7357 Z5.8940
Z6.4940
G00 Z18.1750
X70.9528 Y153.0763
G01 Z4.2000  F1000.0
Z3.6000
X69.8500 Z3.4056
Y150.7763 Z3.0000
X73.6500
Y153.0763
X69.8500
Y150.7763
X68.2625
Y154.6638
X75.2375
Y149.1888
X68.2625
Y150.7763
X66.6750
Y149.4229
Y147.6013
X76.8250
Y156.2513
X66.6750
Y150.7763
X67.7357 Z4.0607
Z4.6607
G00 Z18.1750
(2 1/2 Axis Profiling)
(Endmill 1/4in 6.35mm Carbide Roughing)
X85.5990 Y-3.1750
G01 Z13.7700  F1000.0
X92.8015 Z12.5000
X-3.7715
G00 Z18.1750
X92.8015
G01 Z10.0000  F1000.0
X-3.7715
G00 Z18.1750
X92.8015
G01 Z7.5000  F1000.0
X-3.7715
G00 Z18.1750
X92.8015
G01 Z5.0000  F1000.0
X-3.7715
G00 Z18.1750
X92.8015
G01 Z2.5000  F1000.0
X-3.7715
G00 Z18.1750
X92.8015
G01 Z0.0000  F1000.0
X-3.7715
G00 Z18.1750
X3.5918 Y208.1750
G01 Z13.7700  F1000.0
X-3.6107 Z12.5000
X92.8015
G00 Z18.1750
X-3.6107
G01 Z10.0000  F1000.0
X92.8015
G00 Z18.1750
X-3.6107
G01 Z7.5000  F1000.0
X92.8015
G00 Z18.1750
X-3.6107
G01 Z5.0000  F1000.0
X92.8015
G00 Z18.1750
X-3.6107
G01 Z2.5000  F1000.0
X92.8015
G00 Z18.1750
X-3.6107
G01 Z0.0000  F1000.0
X92.8015
G00 Z18.1750
(2 1/2 Axis Profiling-1)
(Endmill 1/4in 6.35mm Carbide Roughing)
X93.1750 Y204.1586
G01 Z13.7700  F1000.0
Y211.3611 Z12.5000
Y-3.9833
G00 Z18.1750
Y211.3611
G01 Z10.0000  F1000.0
Y-3.9833
G00 Z18.1750
Y211.3611
G01 Z7.5000  F1000.0
Y-3.9833
G00 Z18.1750
Y211.3611
G01 Z5.0000  F1000.0
Y-3.9833
G00 Z18.1750
Y211.3611
G01 Z2.5000  F1000.0
Y-3.9833
G00 Z18.1750
Y211.3611
G01 Z0.0000  F1000.0
Y-3.9833
G00 Z18.1750
X-3.1750 Y3.4206
G01 Z13.7700  F1000.0
Y-3.7820 Z12.5000
Y211.5611
G00 Z18.1750
Y-3.7820
G01 Z10.0000  F1000.0
Y211.5611
G00 Z18.1750
Y-3.7820
G01 Z7.5000  F1000.0
Y211.5611
G00 Z18.1750
Y-3.7820
G01 Z5.0000  F1000.0
Y211.5611
G00 Z18.1750
Y-3.7820
G01 Z2.5000  F1000.0
Y211.5611
G00 Z18.1750
Y-3.7820
G01 Z0.0000  F1000.0
Y211.5611
G00 Z18.1750
M5 M9
M30
