G00 G49 G40.1 G17 G80 G50 G90
G21
(Standard Drill )
(1/8in Carbide Drill)
M6 T13
M03 S20000
G00 Z15.0000
X-6.3640 Y6.3640
G81 X-6.3640 Y6.3640 Z-9.9165 R0.5 F100.0
G80
G00 Z15.0000
G81 X-6.3640 Y-6.3640 Z-9.9165 R0.5 F100.0
G80
G00 Z15.0000
G81 X6.3640 Y-6.3640 Z-9.9165 R0.5 F100.0
G80
G00 Z15.0000
G81 X6.3640 Y6.3640 Z-9.9165 R0.5 F100.0
G80
G00 Z15.0000
M5 M9
M30
