G00 G49 G40.1 G17 G80 G50 G90
G21
(2 1/2 Axis Facing)
(SlotDrill 1/8in 3.175mm Carbide Aluminium Cut)
M6 T6
M03 S20000
G00 Z1.5875
X-27.5000 Y-20.7937
G01 Z0.0000  F250.0
X27.5000  F500.0
G00 Z1.5875
X-28.2938 Y-20.0000
G01 Z0.0000  F250.0
X28.2937  F500.0
G00 Z1.5875
X-28.2938 Y-19.2062
G01 Z0.0000  F250.0
X28.2937  F500.0
G00 Z1.5875
X-28.2938 Y-18.4125
G01 Z0.0000  F250.0
X28.2937  F500.0
G00 Z1.5875
X-28.2938 Y-17.6187
G01 Z0.0000  F250.0
X28.2937  F500.0
G00 Z1.5875
X-28.2938 Y-16.8250
G01 Z0.0000  F250.0
X28.2937  F500.0
G00 Z1.5875
X-28.2938 Y-16.0312
G01 Z0.0000  F250.0
X28.2937  F500.0
G00 Z1.5875
X-28.2938 Y-15.2375
G01 Z0.0000  F250.0
X28.2937  F500.0
G00 Z1.5875
X-28.2938 Y-14.4437
G01 Z0.0000  F250.0
X28.2937  F500.0
G00 Z1.5875
X-28.2938 Y-13.6500
G01 Z0.0000  F250.0
X28.2937  F500.0
G00 Z1.5875
X-28.2938 Y-12.8562
G01 Z0.0000  F250.0
X28.2937  F500.0
G00 Z1.5875
X-28.2938 Y-12.0625
G01 Z0.0000  F250.0
X28.2937  F500.0
G00 Z1.5875
X-28.2938 Y-11.2687
G01 Z0.0000  F250.0
X28.2937  F500.0
G00 Z1.5875
X-28.2938 Y-10.4750
G01 Z0.0000  F250.0
X28.2937  F500.0
G00 Z1.5875
X-28.2938 Y-9.6812
G01 Z0.0000  F250.0
X28.2937  F500.0
G00 Z1.5875
X-28.2938 Y-8.8875
G01 Z0.0000  F250.0
X28.2937  F500.0
G00 Z1.5875
X-28.2938 Y-8.0937
G01 Z0.0000  F250.0
X28.2937  F500.0
G00 Z1.5875
X-28.2938 Y-7.3000
G01 Z0.0000  F250.0
X28.2937  F500.0
G00 Z1.5875
X-28.2938 Y-6.5062
G01 Z0.0000  F250.0
X28.2937  F500.0
G00 Z1.5875
X-28.2938 Y-5.7125
G01 Z0.0000  F250.0
X28.2937  F500.0
G00 Z1.5875
X-28.2938 Y-4.9187
G01 Z0.0000  F250.0
X28.2937  F500.0
G00 Z1.5875
X-28.2938 Y-4.1250
G01 Z0.0000  F250.0
X28.2937  F500.0
G00 Z1.5875
X-28.2938 Y-3.3312
G01 Z0.0000  F250.0
X28.2937  F500.0
G00 Z1.5875
X-28.2938 Y-2.5375
G01 Z0.0000  F250.0
X28.2937  F500.0
G00 Z1.5875
X-28.2938 Y-1.7437
G01 Z0.0000  F250.0
X28.2937  F500.0
G00 Z1.5875
X-28.2938 Y-0.9500
G01 Z0.0000  F250.0
X28.2937  F500.0
G00 Z1.5875
X-28.2938 Y-0.1562
G01 Z0.0000  F250.0
X28.2937  F500.0
G00 Z1.5875
X-28.2938 Y0.6375
G01 Z0.0000  F250.0
X28.2937  F500.0
G00 Z1.5875
X-28.2938 Y1.4313
G01 Z0.0000  F250.0
X28.2937  F500.0
G00 Z1.5875
X-28.2938 Y2.2250
G01 Z0.0000  F250.0
X28.2937  F500.0
G00 Z1.5875
X-28.2938 Y3.0188
G01 Z0.0000  F250.0
X28.2937  F500.0
G00 Z1.5875
X-28.2938 Y3.8125
G01 Z0.0000  F250.0
X28.2937  F500.0
G00 Z1.5875
X-28.2938 Y4.6063
G01 Z0.0000  F250.0
X28.2937  F500.0
G00 Z1.5875
X-28.2938 Y5.4000
G01 Z0.0000  F250.0
X28.2937  F500.0
G00 Z1.5875
X-28.2938 Y6.1938
G01 Z0.0000  F250.0
X28.2937  F500.0
G00 Z1.5875
X-28.2938 Y6.9875
G01 Z0.0000  F250.0
X28.2937  F500.0
G00 Z1.5875
X-28.2938 Y7.7813
G01 Z0.0000  F250.0
X28.2937  F500.0
G00 Z1.5875
X-28.2938 Y8.5750
G01 Z0.0000  F250.0
X28.2937  F500.0
G00 Z1.5875
X-28.2938 Y9.3688
G01 Z0.0000  F250.0
X28.2937  F500.0
G00 Z1.5875
X-28.2938 Y10.1625
G01 Z0.0000  F250.0
X28.2937  F500.0
G00 Z1.5875
X-28.2938 Y10.9563
G01 Z0.0000  F250.0
X28.2937  F500.0
G00 Z1.5875
X-28.2938 Y11.7500
G01 Z0.0000  F250.0
X28.2937  F500.0
G00 Z1.5875
X-28.2938 Y12.5438
G01 Z0.0000  F250.0
X28.2937  F500.0
G00 Z1.5875
X-28.2938 Y13.3375
G01 Z0.0000  F250.0
X28.2937  F500.0
G00 Z1.5875
X-28.2938 Y14.1313
G01 Z0.0000  F250.0
X28.2937  F500.0
G00 Z1.5875
X-28.2938 Y14.9250
G01 Z0.0000  F250.0
X28.2937  F500.0
G00 Z1.5875
X-28.2938 Y15.7188
G01 Z0.0000  F250.0
X28.2937  F500.0
G00 Z1.5875
X-28.2938 Y16.5125
G01 Z0.0000  F250.0
X28.2937  F500.0
G00 Z1.5875
X-28.2938 Y17.3063
G01 Z0.0000  F250.0
X28.2937  F500.0
G00 Z1.5875
X-28.2938 Y18.1000
G01 Z0.0000  F250.0
X28.2937  F500.0
G00 Z1.5875
X-28.2938 Y18.8938
G01 Z0.0000  F250.0
X28.2937  F500.0
G00 Z1.5875
X-28.2938 Y19.6875
G01 Z0.0000  F250.0
X28.2937  F500.0
G00 Z1.5875
X-28.1311 Y20.4813
G01 Z0.0000  F250.0
X28.1311  F500.0
G00 Z1.5875
X-27.5001 Y20.7937
G01 Z0.0000  F250.0
X27.5001  F500.0
G00 Z1.5875
(Hole Pocketing)
(SlotDrill 1/8in 3.175mm Carbide Aluminium Cut)
X-14.8181 Y-0.1212
G01 Z0.6350  F250.0
X-14.7693 Y-0.1839 Z0.5844  F500.0
X-14.7004 Y-0.2289 Z0.5320
X-14.6206 Y-0.2491 Z0.4796
X-14.5386 Y-0.2424 Z0.4272
X-14.4633 Y-0.2093 Z0.3748
X-14.4027 Y-0.1536 Z0.3225
X-14.3635 Y-0.0812 Z0.2701
X-14.3500 Y0.0000 Z0.2177
X-14.3635 Y0.0812 Z0.1653
X-14.4027 Y0.1536 Z0.1129
X-14.4633 Y0.2093 Z0.0605
X-14.5386 Y0.2423 Z0.0081
X-14.6206 Y0.2491 Z-0.0443
X-14.7004 Y0.2289 Z-0.0967
X-14.7693 Y0.1839 Z-0.1491
X-14.8199 Y0.1190 Z-0.2015
X-14.8466 Y0.0411 Z-0.2539
Y-0.0411 Z-0.3062
X-14.8199 Y-0.1190 Z-0.3586
X-14.7693 Y-0.1839 Z-0.4110
X-14.7004 Y-0.2289 Z-0.4634
X-14.6206 Y-0.2491 Z-0.5158
X-14.5386 Y-0.2424 Z-0.5682
X-14.4633 Y-0.2093 Z-0.6206
X-14.4027 Y-0.1536 Z-0.6730
X-14.3635 Y-0.0812 Z-0.7254
X-14.3500 Y0.0000 Z-0.7778
X-14.3563 Y0.1771
X-14.4911 Y0.3352
X-14.7248 Y0.3840
X-14.9681 Y0.2674
X-15.1063 Y0.0000
X-15.0146 Y-0.3012
G17
G03X-14.1854Y0.3012I0.4146J0.3012
X-15.0146Y-0.3012I-0.4146J-0.3012
G01 X-14.3500 Y0.0000
X-14.5513 Y0.2434
X-14.6206 Y0.2491 Z-0.8221
X-14.7004 Y0.2289 Z-0.8745
X-14.7693 Y0.1839 Z-0.9269
X-14.8199 Y0.1190 Z-0.9792
X-14.8466 Y0.0411 Z-1.0316
Y-0.0411 Z-1.0840
X-14.8199 Y-0.1190 Z-1.1364
X-14.7693 Y-0.1839 Z-1.1888
X-14.7004 Y-0.2289 Z-1.2412
X-14.6206 Y-0.2491 Z-1.2936
X-14.5386 Y-0.2424 Z-1.3460
X-14.4633 Y-0.2093 Z-1.3984
X-14.4027 Y-0.1536 Z-1.4508
X-14.3635 Y-0.0812 Z-1.5032
X-14.3500 Y0.0000 Z-1.5556
X-14.3563 Y0.1771
X-14.4911 Y0.3352
X-14.7248 Y0.3840
X-14.9681 Y0.2674
X-15.1063 Y0.0000
X-15.0146 Y-0.3012
G03X-14.1854Y0.3012I0.4146J0.3012
X-15.0146Y-0.3012I-0.4146J-0.3012
G01 X-14.3500 Y0.0000
X-14.5513 Y0.2434
X-14.6206 Y0.2491 Z-1.5998
X-14.7004 Y0.2289 Z-1.6522
X-14.7693 Y0.1839 Z-1.7046
X-14.8199 Y0.1190 Z-1.7570
X-14.8466 Y0.0411 Z-1.8094
Y-0.0411 Z-1.8618
X-14.8199 Y-0.1190 Z-1.9142
X-14.7693 Y-0.1839 Z-1.9666
X-14.7004 Y-0.2289 Z-2.0190
X-14.6206 Y-0.2491 Z-2.0714
X-14.5386 Y-0.2424 Z-2.1238
X-14.4633 Y-0.2093 Z-2.1762
X-14.4027 Y-0.1536 Z-2.2285
X-14.3635 Y-0.0812 Z-2.2809
X-14.3500 Y0.0000 Z-2.3333
X-14.3563 Y0.1771
X-14.4911 Y0.3352
X-14.7248 Y0.3840
X-14.9681 Y0.2674
X-15.1063 Y0.0000
X-15.0146 Y-0.3012
G03X-14.1854Y0.3012I0.4146J0.3012
X-15.0146Y-0.3012I-0.4146J-0.3012
G01 X-14.3500 Y0.0000
X-14.5513 Y0.2434
X-14.6206 Y0.2491 Z-2.3776
X-14.7004 Y0.2289 Z-2.4300
X-14.7693 Y0.1839 Z-2.4824
X-14.8199 Y0.1190 Z-2.5348
X-14.8466 Y0.0411 Z-2.5872
Y-0.0411 Z-2.6396
X-14.8199 Y-0.1190 Z-2.6920
X-14.7693 Y-0.1839 Z-2.7444
X-14.7004 Y-0.2289 Z-2.7968
X-14.6206 Y-0.2491 Z-2.8492
X-14.5386 Y-0.2424 Z-2.9015
X-14.4633 Y-0.2093 Z-2.9539
X-14.4027 Y-0.1536 Z-3.0063
X-14.3635 Y-0.0812 Z-3.0587
X-14.3500 Y0.0000 Z-3.1111
X-14.3563 Y0.1771
X-14.4911 Y0.3352
X-14.7248 Y0.3840
X-14.9681 Y0.2674
X-15.1063 Y0.0000
X-15.0146 Y-0.3012
G03X-14.1854Y0.3012I0.4146J0.3012
X-15.0146Y-0.3012I-0.4146J-0.3012
G01 X-14.3500 Y0.0000
X-14.5513 Y0.2434
X-14.6206 Y0.2491 Z-3.1554
X-14.7004 Y0.2289 Z-3.2078
X-14.7693 Y0.1839 Z-3.2602
X-14.8199 Y0.1190 Z-3.3126
X-14.8466 Y0.0411 Z-3.3650
Y-0.0411 Z-3.4174
X-14.8199 Y-0.1190 Z-3.4698
X-14.7693 Y-0.1839 Z-3.5221
X-14.7004 Y-0.2289 Z-3.5745
X-14.6206 Y-0.2491 Z-3.6269
X-14.5386 Y-0.2424 Z-3.6793
X-14.4633 Y-0.2093 Z-3.7317
X-14.4027 Y-0.1536 Z-3.7841
X-14.3635 Y-0.0812 Z-3.8365
X-14.3500 Y0.0000 Z-3.8889
X-14.3563 Y0.1771
X-14.4911 Y0.3352
X-14.7248 Y0.3840
X-14.9681 Y0.2674
X-15.1063 Y0.0000
X-15.0146 Y-0.3012
G03X-14.1854Y0.3012I0.4146J0.3012
X-15.0146Y-0.3012I-0.4146J-0.3012
G01 X-14.3500 Y0.0000
X-14.5513 Y0.2434
X-14.6206 Y0.2491 Z-3.9332
X-14.7004 Y0.2289 Z-3.9856
X-14.7693 Y0.1839 Z-4.0380
X-14.8199 Y0.1190 Z-4.0904
X-14.8466 Y0.0411 Z-4.1427
Y-0.0411 Z-4.1951
X-14.8199 Y-0.1190 Z-4.2475
X-14.7693 Y-0.1839 Z-4.2999
X-14.7004 Y-0.2289 Z-4.3523
X-14.6206 Y-0.2491 Z-4.4047
X-14.5386 Y-0.2424 Z-4.4571
X-14.4633 Y-0.2093 Z-4.5095
X-14.4027 Y-0.1536 Z-4.5619
X-14.3635 Y-0.0812 Z-4.6143
X-14.3500 Y0.0000 Z-4.6667
X-14.3563 Y0.1771
X-14.4911 Y0.3352
X-14.7248 Y0.3840
X-14.9681 Y0.2674
X-15.1063 Y0.0000
X-15.0146 Y-0.3012
G03X-14.1854Y0.3012I0.4146J0.3012
X-15.0146Y-0.3012I-0.4146J-0.3012
G01 X-14.3500 Y0.0000
X-14.5513 Y0.2434
X-14.6206 Y0.2491 Z-4.7110
X-14.7004 Y0.2289 Z-4.7633
X-14.7693 Y0.1839 Z-4.8157
X-14.8199 Y0.1190 Z-4.8681
X-14.8466 Y0.0411 Z-4.9205
Y-0.0411 Z-4.9729
X-14.8199 Y-0.1190 Z-5.0253
X-14.7693 Y-0.1839 Z-5.0777
X-14.7004 Y-0.2289 Z-5.1301
X-14.6206 Y-0.2491 Z-5.1825
X-14.5386 Y-0.2424 Z-5.2349
X-14.4633 Y-0.2093 Z-5.2873
X-14.4027 Y-0.1536 Z-5.3397
X-14.3635 Y-0.0812 Z-5.3921
X-14.3500 Y0.0000 Z-5.4444
X-14.3563 Y0.1771
X-14.4911 Y0.3352
X-14.7248 Y0.3840
X-14.9681 Y0.2674
X-15.1063 Y0.0000
X-15.0146 Y-0.3012
G03X-14.1854Y0.3012I0.4146J0.3012
X-15.0146Y-0.3012I-0.4146J-0.3012
G01 X-14.3500 Y0.0000
X-14.5513 Y0.2434
X-14.6206 Y0.2491 Z-5.4887
X-14.7004 Y0.2289 Z-5.5411
X-14.7693 Y0.1839 Z-5.5935
X-14.8199 Y0.1190 Z-5.6459
X-14.8466 Y0.0411 Z-5.6983
Y-0.0411 Z-5.7507
X-14.8199 Y-0.1190 Z-5.8031
X-14.7693 Y-0.1839 Z-5.8555
X-14.7004 Y-0.2289 Z-5.9079
X-14.6206 Y-0.2491 Z-5.9603
X-14.5386 Y-0.2424 Z-6.0127
X-14.4633 Y-0.2093 Z-6.0650
X-14.4027 Y-0.1536 Z-6.1174
X-14.3635 Y-0.0812 Z-6.1698
X-14.3500 Y0.0000 Z-6.2222
X-14.3563 Y0.1771
X-14.4911 Y0.3352
X-14.7248 Y0.3840
X-14.9681 Y0.2674
X-15.1063 Y0.0000
X-15.0146 Y-0.3012
G03X-14.1854Y0.3012I0.4146J0.3012
X-15.0146Y-0.3012I-0.4146J-0.3012
G01 X-14.3500 Y0.0000
X-14.5513 Y0.2434
X-14.6206 Y0.2491 Z-6.2665
X-14.7004 Y0.2289 Z-6.3189
X-14.7693 Y0.1839 Z-6.3713
X-14.8199 Y0.1190 Z-6.4237
X-14.8466 Y0.0411 Z-6.4761
Y-0.0411 Z-6.5285
X-14.8199 Y-0.1190 Z-6.5809
X-14.7693 Y-0.1839 Z-6.6333
X-14.7004 Y-0.2289 Z-6.6856
X-14.6206 Y-0.2491 Z-6.7380
X-14.5386 Y-0.2424 Z-6.7904
X-14.4633 Y-0.2093 Z-6.8428
X-14.4027 Y-0.1536 Z-6.8952
X-14.3635 Y-0.0812 Z-6.9476
X-14.3500 Y0.0000 Z-7.0000
X-14.3563 Y0.1771
X-14.4911 Y0.3352
X-14.7248 Y0.3840
X-14.9681 Y0.2674
X-15.1063 Y0.0000
X-15.0146 Y-0.3012
G03X-14.1854Y0.3012I0.4146J0.3012
X-15.0146Y-0.3012I-0.4146J-0.3012
G01 X-14.3500 Y0.0000
X-14.6000
G00 Z1.5875
X14.3819 Y-0.1212
G01 Z0.6350  F250.0
X14.4307 Y-0.1839 Z0.5844  F500.0
X14.4996 Y-0.2289 Z0.5320
X14.5794 Y-0.2491 Z0.4796
X14.6614 Y-0.2424 Z0.4272
X14.7367 Y-0.2093 Z0.3748
X14.7973 Y-0.1536 Z0.3225
X14.8365 Y-0.0812 Z0.2701
X14.8500 Y0.0000 Z0.2177
X14.8365 Y0.0812 Z0.1653
X14.7973 Y0.1536 Z0.1129
X14.7367 Y0.2093 Z0.0605
X14.6614 Y0.2423 Z0.0081
X14.5794 Y0.2491 Z-0.0443
X14.4996 Y0.2289 Z-0.0967
X14.4307 Y0.1839 Z-0.1491
X14.3801 Y0.1190 Z-0.2015
X14.3534 Y0.0411 Z-0.2539
Y-0.0411 Z-0.3062
X14.3801 Y-0.1190 Z-0.3586
X14.4307 Y-0.1839 Z-0.4110
X14.4996 Y-0.2289 Z-0.4634
X14.5794 Y-0.2491 Z-0.5158
X14.6614 Y-0.2424 Z-0.5682
X14.7367 Y-0.2093 Z-0.6206
X14.7973 Y-0.1536 Z-0.6730
X14.8365 Y-0.0812 Z-0.7254
X14.8500 Y0.0000 Z-0.7778
X14.8437 Y0.1771
X14.7089 Y0.3352
X14.4752 Y0.3840
X14.2319 Y0.2674
X14.0937 Y0.0000
X14.1854 Y-0.3012
G03X15.0146Y0.3012I0.4146J0.3012
X14.1854Y-0.3012I-0.4146J-0.3012
G01 X14.8500 Y0.0000
X14.6487 Y0.2434
X14.5794 Y0.2491 Z-0.8221
X14.4996 Y0.2289 Z-0.8745
X14.4307 Y0.1839 Z-0.9269
X14.3801 Y0.1190 Z-0.9792
X14.3534 Y0.0411 Z-1.0316
Y-0.0411 Z-1.0840
X14.3801 Y-0.1190 Z-1.1364
X14.4307 Y-0.1839 Z-1.1888
X14.4996 Y-0.2289 Z-1.2412
X14.5794 Y-0.2491 Z-1.2936
X14.6614 Y-0.2424 Z-1.3460
X14.7367 Y-0.2093 Z-1.3984
X14.7973 Y-0.1536 Z-1.4508
X14.8365 Y-0.0812 Z-1.5032
X14.8500 Y0.0000 Z-1.5556
X14.8437 Y0.1771
X14.7089 Y0.3352
X14.4752 Y0.3840
X14.2319 Y0.2674
X14.0937 Y0.0000
X14.1854 Y-0.3012
G03X15.0146Y0.3012I0.4146J0.3012
X14.1854Y-0.3012I-0.4146J-0.3012
G01 X14.8500 Y0.0000
X14.6487 Y0.2434
X14.5794 Y0.2491 Z-1.5998
X14.4996 Y0.2289 Z-1.6522
X14.4307 Y0.1839 Z-1.7046
X14.3801 Y0.1190 Z-1.7570
X14.3534 Y0.0411 Z-1.8094
Y-0.0411 Z-1.8618
X14.3801 Y-0.1190 Z-1.9142
X14.4307 Y-0.1839 Z-1.9666
X14.4996 Y-0.2289 Z-2.0190
X14.5794 Y-0.2491 Z-2.0714
X14.6614 Y-0.2424 Z-2.1238
X14.7367 Y-0.2093 Z-2.1762
X14.7973 Y-0.1536 Z-2.2285
X14.8365 Y-0.0812 Z-2.2809
X14.8500 Y0.0000 Z-2.3333
X14.8437 Y0.1771
X14.7089 Y0.3352
X14.4752 Y0.3840
X14.2319 Y0.2674
X14.0937 Y0.0000
X14.1854 Y-0.3012
G03X15.0146Y0.3012I0.4146J0.3012
X14.1854Y-0.3012I-0.4146J-0.3012
G01 X14.8500 Y0.0000
X14.6487 Y0.2434
X14.5794 Y0.2491 Z-2.3776
X14.4996 Y0.2289 Z-2.4300
X14.4307 Y0.1839 Z-2.4824
X14.3801 Y0.1190 Z-2.5348
X14.3534 Y0.0411 Z-2.5872
Y-0.0411 Z-2.6396
X14.3801 Y-0.1190 Z-2.6920
X14.4307 Y-0.1839 Z-2.7444
X14.4996 Y-0.2289 Z-2.7968
X14.5794 Y-0.2491 Z-2.8492
X14.6614 Y-0.2424 Z-2.9015
X14.7367 Y-0.2093 Z-2.9539
X14.7973 Y-0.1536 Z-3.0063
X14.8365 Y-0.0812 Z-3.0587
X14.8500 Y0.0000 Z-3.1111
X14.8437 Y0.1771
X14.7089 Y0.3352
X14.4752 Y0.3840
X14.2319 Y0.2674
X14.0937 Y0.0000
X14.1854 Y-0.3012
G03X15.0146Y0.3012I0.4146J0.3012
X14.1854Y-0.3012I-0.4146J-0.3012
G01 X14.8500 Y0.0000
X14.6487 Y0.2434
X14.5794 Y0.2491 Z-3.1554
X14.4996 Y0.2289 Z-3.2078
X14.4307 Y0.1839 Z-3.2602
X14.3801 Y0.1190 Z-3.3126
X14.3534 Y0.0411 Z-3.3650
Y-0.0411 Z-3.4174
X14.3801 Y-0.1190 Z-3.4698
X14.4307 Y-0.1839 Z-3.5221
X14.4996 Y-0.2289 Z-3.5745
X14.5794 Y-0.2491 Z-3.6269
X14.6614 Y-0.2424 Z-3.6793
X14.7367 Y-0.2093 Z-3.7317
X14.7973 Y-0.1536 Z-3.7841
X14.8365 Y-0.0812 Z-3.8365
X14.8500 Y0.0000 Z-3.8889
X14.8437 Y0.1771
X14.7089 Y0.3352
X14.4752 Y0.3840
X14.2319 Y0.2674
X14.0937 Y0.0000
X14.1854 Y-0.3012
G03X15.0146Y0.3012I0.4146J0.3012
X14.1854Y-0.3012I-0.4146J-0.3012
G01 X14.8500 Y0.0000
X14.6487 Y0.2434
X14.5794 Y0.2491 Z-3.9332
X14.4996 Y0.2289 Z-3.9856
X14.4307 Y0.1839 Z-4.0380
X14.3801 Y0.1190 Z-4.0904
X14.3534 Y0.0411 Z-4.1427
Y-0.0411 Z-4.1951
X14.3801 Y-0.1190 Z-4.2475
X14.4307 Y-0.1839 Z-4.2999
X14.4996 Y-0.2289 Z-4.3523
X14.5794 Y-0.2491 Z-4.4047
X14.6614 Y-0.2424 Z-4.4571
X14.7367 Y-0.2093 Z-4.5095
X14.7973 Y-0.1536 Z-4.5619
X14.8365 Y-0.0812 Z-4.6143
X14.8500 Y0.0000 Z-4.6667
X14.8437 Y0.1771
X14.7089 Y0.3352
X14.4752 Y0.3840
X14.2319 Y0.2674
X14.0937 Y0.0000
X14.1854 Y-0.3012
G03X15.0146Y0.3012I0.4146J0.3012
X14.1854Y-0.3012I-0.4146J-0.3012
G01 X14.8500 Y0.0000
X14.6487 Y0.2434
X14.5794 Y0.2491 Z-4.7110
X14.4996 Y0.2289 Z-4.7633
X14.4307 Y0.1839 Z-4.8157
X14.3801 Y0.1190 Z-4.8681
X14.3534 Y0.0411 Z-4.9205
Y-0.0411 Z-4.9729
X14.3801 Y-0.1190 Z-5.0253
X14.4307 Y-0.1839 Z-5.0777
X14.4996 Y-0.2289 Z-5.1301
X14.5794 Y-0.2491 Z-5.1825
X14.6614 Y-0.2424 Z-5.2349
X14.7367 Y-0.2093 Z-5.2873
X14.7973 Y-0.1536 Z-5.3397
X14.8365 Y-0.0812 Z-5.3921
X14.8500 Y0.0000 Z-5.4444
X14.8437 Y0.1771
X14.7089 Y0.3352
X14.4752 Y0.3840
X14.2319 Y0.2674
X14.0937 Y0.0000
X14.1854 Y-0.3012
G03X15.0146Y0.3012I0.4146J0.3012
X14.1854Y-0.3012I-0.4146J-0.3012
G01 X14.8500 Y0.0000
X14.6487 Y0.2434
X14.5794 Y0.2491 Z-5.4887
X14.4996 Y0.2289 Z-5.5411
X14.4307 Y0.1839 Z-5.5935
X14.3801 Y0.1190 Z-5.6459
X14.3534 Y0.0411 Z-5.6983
Y-0.0411 Z-5.7507
X14.3801 Y-0.1190 Z-5.8031
X14.4307 Y-0.1839 Z-5.8555
X14.4996 Y-0.2289 Z-5.9079
X14.5794 Y-0.2491 Z-5.9603
X14.6614 Y-0.2424 Z-6.0127
X14.7367 Y-0.2093 Z-6.0650
X14.7973 Y-0.1536 Z-6.1174
X14.8365 Y-0.0812 Z-6.1698
X14.8500 Y0.0000 Z-6.2222
X14.8437 Y0.1771
X14.7089 Y0.3352
X14.4752 Y0.3840
X14.2319 Y0.2674
X14.0937 Y0.0000
X14.1854 Y-0.3012
G03X15.0146Y0.3012I0.4146J0.3012
X14.1854Y-0.3012I-0.4146J-0.3012
G01 X14.8500 Y0.0000
X14.6487 Y0.2434
X14.5794 Y0.2491 Z-6.2665
X14.4996 Y0.2289 Z-6.3189
X14.4307 Y0.1839 Z-6.3713
X14.3801 Y0.1190 Z-6.4237
X14.3534 Y0.0411 Z-6.4761
Y-0.0411 Z-6.5285
X14.3801 Y-0.1190 Z-6.5809
X14.4307 Y-0.1839 Z-6.6333
X14.4996 Y-0.2289 Z-6.6856
X14.5794 Y-0.2491 Z-6.7380
X14.6614 Y-0.2424 Z-6.7904
X14.7367 Y-0.2093 Z-6.8428
X14.7973 Y-0.1536 Z-6.8952
X14.8365 Y-0.0812 Z-6.9476
X14.8500 Y0.0000 Z-7.0000
X14.8437 Y0.1771
X14.7089 Y0.3352
X14.4752 Y0.3840
X14.2319 Y0.2674
X14.0937 Y0.0000
X14.1854 Y-0.3012
G03X15.0146Y0.3012I0.4146J0.3012
X14.1854Y-0.3012I-0.4146J-0.3012
G01 X14.8500 Y0.0000
X14.6000
G00 Z1.5875
(Hole Pocketing)
(SlotDrill 1/8in 3.175mm Carbide Aluminium Cut)
X-0.4269 Y-0.2602
G01 Z0.6350  F250.0
X-0.4211 Y-0.2695 Z0.6315  F500.0
X-0.4094 Y-0.2870 Z0.6248
X-0.3969 Y-0.3040 Z0.6181
X-0.3838 Y-0.3205 Z0.6114
X-0.3699 Y-0.3364 Z0.6047
X-0.3554 Y-0.3517 Z0.5980
X-0.3403 Y-0.3664 Z0.5912
X-0.3245 Y-0.3804 Z0.5845
X-0.3082 Y-0.3937 Z0.5778
X-0.2913 Y-0.4064 Z0.5711
X-0.2739 Y-0.4183 Z0.5644
X-0.2561 Y-0.4295 Z0.5577
X-0.2377 Y-0.4399 Z0.5510
X-0.2190 Y-0.4495 Z0.5443
X-0.1998 Y-0.4583 Z0.5376
X-0.1803 Y-0.4663 Z0.5309
X-0.1605 Y-0.4735 Z0.5241
X-0.1404 Y-0.4799 Z0.5174
X-0.1201 Y-0.4854 Z0.5107
X-0.0995 Y-0.4900 Z0.5040
X-0.0787 Y-0.4938 Z0.4973
X-0.0579 Y-0.4966 Z0.4906
X-0.0369 Y-0.4986 Z0.4839
X-0.0158 Y-0.4998 Z0.4772
X0.0053 Y-0.5000 Z0.4705
X0.0263 Y-0.4993 Z0.4637
X0.0474 Y-0.4978 Z0.4570
X0.0683 Y-0.4953 Z0.4503
X0.0891 Y-0.4920 Z0.4436
X0.1098 Y-0.4878 Z0.4369
X0.1303 Y-0.4827 Z0.4302
X0.1505 Y-0.4768 Z0.4235
X0.1705 Y-0.4700 Z0.4168
X0.1901 Y-0.4624 Z0.4101
X0.2094 Y-0.4540 Z0.4033
X0.2284 Y-0.4448 Z0.3966
X0.2470 Y-0.4348 Z0.3899
X0.2651 Y-0.4240 Z0.3832
X0.2827 Y-0.4124 Z0.3765
X0.2998 Y-0.4001 Z0.3698
X0.3164 Y-0.3871 Z0.3631
X0.3325 Y-0.3734 Z0.3564
X0.3479 Y-0.3591 Z0.3497
X0.3627 Y-0.3441 Z0.3429
X0.3769 Y-0.3285 Z0.3362
X0.3904 Y-0.3123 Z0.3295
X0.4033 Y-0.2956 Z0.3228
X0.4154 Y-0.2783 Z0.3161
X0.4267 Y-0.2606 Z0.3094
X0.4373 Y-0.2424 Z0.3027
X0.4472 Y-0.2237 Z0.2960
X0.4562 Y-0.2047 Z0.2893
X0.4644 Y-0.1852 Z0.2825
X0.4718 Y-0.1655 Z0.2758
X0.4784 Y-0.1455 Z0.2691
X0.4841 Y-0.1252 Z0.2624
X0.4889 Y-0.1046 Z0.2557
X0.4929 Y-0.0839 Z0.2490
X0.4960 Y-0.0631 Z0.2423
X0.4982 Y-0.0421 Z0.2356
X0.4996 Y-0.0211 Z0.2289
X0.5000 Y0.0000 Z0.2221
X0.4996 Y0.0211 Z0.2154
X0.4982 Y0.0421 Z0.2087
X0.4960 Y0.0631 Z0.2020
X0.4929 Y0.0839 Z0.1953
X0.4889 Y0.1046 Z0.1886
X0.4841 Y0.1252 Z0.1819
X0.4784 Y0.1455 Z0.1752
X0.4718 Y0.1655 Z0.1685
X0.4644 Y0.1852 Z0.1617
X0.4562 Y0.2047 Z0.1550
X0.4472 Y0.2237 Z0.1483
X0.4373 Y0.2424 Z0.1416
X0.4267 Y0.2606 Z0.1349
X0.4154 Y0.2783 Z0.1282
X0.4033 Y0.2956 Z0.1215
X0.3904 Y0.3123 Z0.1148
X0.3769 Y0.3285 Z0.1081
X0.3627 Y0.3441 Z0.1014
X0.3479 Y0.3591 Z0.0946
X0.3325 Y0.3734 Z0.0879
X0.3164 Y0.3871 Z0.0812
X0.2998 Y0.4001 Z0.0745
X0.2827 Y0.4124 Z0.0678
X0.2651 Y0.4240 Z0.0611
X0.2470 Y0.4348 Z0.0544
X0.2284 Y0.4448 Z0.0477
X0.2094 Y0.4540 Z0.0410
X0.1901 Y0.4624 Z0.0342
X0.1705 Y0.4700 Z0.0275
X0.1505 Y0.4768 Z0.0208
X0.1303 Y0.4827 Z0.0141
X0.1098 Y0.4878 Z0.0074
X0.0891 Y0.4920 Z0.0007
X0.0683 Y0.4953 Z-0.0060
X0.0474 Y0.4978 Z-0.0127
X0.0263 Y0.4993 Z-0.0194
X0.0053 Y0.5000 Z-0.0262
X-0.0158 Y0.4998 Z-0.0329
X-0.0369 Y0.4986 Z-0.0396
X-0.0579 Y0.4966 Z-0.0463
X-0.0787 Y0.4938 Z-0.0530
X-0.0995 Y0.4900 Z-0.0597
X-0.1201 Y0.4854 Z-0.0664
X-0.1404 Y0.4799 Z-0.0731
X-0.1605 Y0.4735 Z-0.0798
X-0.1803 Y0.4663 Z-0.0866
X-0.1998 Y0.4583 Z-0.0933
X-0.2190 Y0.4495 Z-0.1000
X-0.2377 Y0.4399 Z-0.1067
X-0.2561 Y0.4295 Z-0.1134
X-0.2739 Y0.4183 Z-0.1201
X-0.2913 Y0.4064 Z-0.1268
X-0.3082 Y0.3937 Z-0.1335
X-0.3245 Y0.3804 Z-0.1402
X-0.3403 Y0.3664 Z-0.1470
X-0.3554 Y0.3517 Z-0.1537
X-0.3699 Y0.3364 Z-0.1604
X-0.3838 Y0.3205 Z-0.1671
X-0.3969 Y0.3040 Z-0.1738
X-0.4094 Y0.2870 Z-0.1805
X-0.4211 Y0.2695 Z-0.1872
X-0.4321 Y0.2515 Z-0.1939
X-0.4424 Y0.2331 Z-0.2006
X-0.4518 Y0.2142 Z-0.2074
X-0.4604 Y0.1950 Z-0.2141
X-0.4682 Y0.1754 Z-0.2208
X-0.4752 Y0.1555 Z-0.2275
X-0.4813 Y0.1353 Z-0.2342
X-0.4866 Y0.1149 Z-0.2409
X-0.4910 Y0.0943 Z-0.2476
X-0.4946 Y0.0735 Z-0.2543
X-0.4972 Y0.0526 Z-0.2610
X-0.4990 Y0.0316 Z-0.2677
X-0.4999 Y0.0105 Z-0.2745
Y-0.0105 Z-0.2812
X-0.4990 Y-0.0316 Z-0.2879
X-0.4972 Y-0.0526 Z-0.2946
X-0.4946 Y-0.0735 Z-0.3013
X-0.4910 Y-0.0943 Z-0.3080
X-0.4866 Y-0.1149 Z-0.3147
X-0.4813 Y-0.1353 Z-0.3214
X-0.4752 Y-0.1555 Z-0.3281
X-0.4682 Y-0.1754 Z-0.3349
X-0.4604 Y-0.1950 Z-0.3416
X-0.4518 Y-0.2142 Z-0.3483
X-0.4424 Y-0.2331 Z-0.3550
X-0.4321 Y-0.2515 Z-0.3617
X-0.4211 Y-0.2695 Z-0.3684
X-0.4094 Y-0.2870 Z-0.3751
X-0.3969 Y-0.3040 Z-0.3818
X-0.3838 Y-0.3205 Z-0.3885
X-0.3699 Y-0.3364 Z-0.3953
X-0.3554 Y-0.3517 Z-0.4020
X-0.3403 Y-0.3664 Z-0.4087
X-0.3245 Y-0.3804 Z-0.4154
X-0.3082 Y-0.3937 Z-0.4221
X-0.2913 Y-0.4064 Z-0.4288
X-0.2739 Y-0.4183 Z-0.4355
X-0.2561 Y-0.4295 Z-0.4422
X-0.2377 Y-0.4399 Z-0.4489
X-0.2190 Y-0.4495 Z-0.4557
X-0.1998 Y-0.4583 Z-0.4624
X-0.1803 Y-0.4663 Z-0.4691
X-0.1605 Y-0.4735 Z-0.4758
X-0.1404 Y-0.4799 Z-0.4825
X-0.1201 Y-0.4854 Z-0.4892
X-0.0995 Y-0.4900 Z-0.4959
X-0.0787 Y-0.4938 Z-0.5026
X-0.0579 Y-0.4966 Z-0.5093
X-0.0369 Y-0.4986 Z-0.5161
X-0.0158 Y-0.4998 Z-0.5228
X0.0053 Y-0.5000 Z-0.5295
X0.0263 Y-0.4993 Z-0.5362
X0.0474 Y-0.4978 Z-0.5429
X0.0683 Y-0.4953 Z-0.5496
X0.0891 Y-0.4920 Z-0.5563
X0.1098 Y-0.4878 Z-0.5630
X0.1303 Y-0.4827 Z-0.5697
X0.1505 Y-0.4768 Z-0.5764
X0.1705 Y-0.4700 Z-0.5832
X0.1901 Y-0.4624 Z-0.5899
X0.2094 Y-0.4540 Z-0.5966
X0.2284 Y-0.4448 Z-0.6033
X0.2470 Y-0.4348 Z-0.6100
X0.2651 Y-0.4240 Z-0.6167
X0.2827 Y-0.4124 Z-0.6234
X0.2998 Y-0.4001 Z-0.6301
X0.3164 Y-0.3871 Z-0.6368
X0.3325 Y-0.3734 Z-0.6436
X0.3479 Y-0.3591 Z-0.6503
X0.3627 Y-0.3441 Z-0.6570
X0.3769 Y-0.3285 Z-0.6637
X0.3904 Y-0.3123 Z-0.6704
X0.4033 Y-0.2956 Z-0.6771
X0.4154 Y-0.2783 Z-0.6838
X0.4267 Y-0.2606 Z-0.6905
X0.4373 Y-0.2424 Z-0.6972
X0.4472 Y-0.2237 Z-0.7040
X0.4562 Y-0.2047 Z-0.7107
X0.4644 Y-0.1852 Z-0.7174
X0.4718 Y-0.1655 Z-0.7241
X0.4784 Y-0.1455 Z-0.7308
X0.4841 Y-0.1252 Z-0.7375
X0.4889 Y-0.1046 Z-0.7442
X0.4929 Y-0.0839 Z-0.7509
X0.4960 Y-0.0631 Z-0.7576
X0.4982 Y-0.0421 Z-0.7644
X0.4996 Y-0.0211 Z-0.7711
X0.5000 Y0.0000 Z-0.7778
X0.5092 Y0.0452
X0.5142 Y0.0920
X0.5148 Y0.1400
X0.5109 Y0.1888
X0.5024 Y0.2380
X0.4890 Y0.2872
X0.4708 Y0.3357
X0.4478 Y0.3833
X0.4200 Y0.4294
X0.3875 Y0.4735
X0.3504 Y0.5151
X0.3089 Y0.5538
X0.2633 Y0.5892
X0.2139 Y0.6207
X0.1609 Y0.6480
X0.1047 Y0.6707
X0.0458 Y0.6885
X-0.0155 Y0.7011
X-0.0786 Y0.7081
X-0.1431 Y0.7093
X-0.2084 Y0.7046
X-0.2740 Y0.6938
X-0.3392 Y0.6769
X-0.4036 Y0.6538
X-0.4665 Y0.6245
X-0.5273 Y0.5891
X-0.5855 Y0.5479
X-0.6404 Y0.5009
X-0.6916 Y0.4484
X-0.7384 Y0.3907
X-0.7803 Y0.3283
X-0.8169 Y0.2614
X-0.8477 Y0.1907
X-0.8724 Y0.1165
X-0.8904 Y0.0394
X-0.9016 Y-0.0399
X-0.9056 Y-0.1209
X-0.9023 Y-0.2029
X-0.8915 Y-0.2853
X-0.8731 Y-0.3673
X-0.8471 Y-0.4483
X-0.8135 Y-0.5275
X-0.7725 Y-0.6042
X-0.7243 Y-0.6777
X-0.6690 Y-0.7474
X-0.6070 Y-0.8126
X-0.5387 Y-0.8725
X-0.4645 Y-0.9267
X-0.3849 Y-0.9746
X-0.3004 Y-1.0155
X-0.2117 Y-1.0490
X-0.1194 Y-1.0747
X-0.0242 Y-1.0923
X0.0732 Y-1.1013
X0.1720 Y-1.1015
X0.2713 Y-1.0929
X0.3705 Y-1.0752
X0.4687 Y-1.0484
X0.5649 Y-1.0127
X0.6585 Y-0.9680
X0.7486 Y-0.9147
X0.8343 Y-0.8530
X0.9149 Y-0.7832
X0.9896 Y-0.7057
X1.0578 Y-0.6212
X1.1186 Y-0.5300
X1.1716 Y-0.4330
X1.2161 Y-0.3307
X1.2515 Y-0.2239
X1.2776 Y-0.1134
X1.2937 Y0.0000
X1.2988 Y0.0723
X1.2997 Y0.1451
X1.2966 Y0.2183
X1.2893 Y0.2916
X1.2778 Y0.3647
X1.2622 Y0.4375
X1.2425 Y0.5096
X1.2186 Y0.5809
X1.1906 Y0.6511
X1.1585 Y0.7199
X1.1225 Y0.7873
X1.0825 Y0.8528
X1.0387 Y0.9162
X0.9912 Y0.9775
X0.9400 Y1.0363
X0.8854 Y1.0924
X0.8275 Y1.1456
X0.7663 Y1.1957
X0.7021 Y1.2426
X0.6351 Y1.2860
X0.5654 Y1.3257
X0.4932 Y1.3617
X0.4188 Y1.3937
X0.3424 Y1.4217
X0.2641 Y1.4454
X0.1842 Y1.4648
X0.1030 Y1.4798
X0.0207 Y1.4903
X-0.0624 Y1.4962
X-0.1462 Y1.4974
X-0.2302 Y1.4939
X-0.3143 Y1.4856
X-0.3983 Y1.4727
X-0.4817 Y1.4549
X-0.5644 Y1.4324
X-0.6460 Y1.4052
X-0.7264 Y1.3734
X-0.8053 Y1.3369
X-0.8823 Y1.2959
X-0.9572 Y1.2504
X-1.0298 Y1.2006
X-1.0998 Y1.1466
X-1.1669 Y1.0885
X-1.2310 Y1.0265
X-1.2918 Y0.9607
X-1.3490 Y0.8913
X-1.4026 Y0.8185
X-1.4521 Y0.7424
X-1.4976 Y0.6634
X-1.5387 Y0.5817
X-1.5753 Y0.4974
X-1.6074 Y0.4108
X-1.6346 Y0.3222
X-1.6569 Y0.2318
X-1.6742 Y0.1400
X-1.6865 Y0.0469
X-1.6935 Y-0.0471
X-1.6952 Y-0.1417
X-1.6917 Y-0.2367
X-1.6828 Y-0.3317
X-1.6686 Y-0.4264
X-1.6490 Y-0.5206
X-1.6241 Y-0.6140
X-1.5939 Y-0.7061
X-1.5585 Y-0.7968
X-1.5178 Y-0.8857
X-1.4721 Y-0.9726
X-1.4214 Y-1.0571
X-1.3659 Y-1.1389
X-1.3056 Y-1.2179
X-1.2408 Y-1.2936
X-1.1715 Y-1.3659
X-1.0981 Y-1.4345
X-1.0206 Y-1.4991
X-0.9394 Y-1.5595
X-0.8545 Y-1.6155
X-0.7663 Y-1.6669
X-0.6751 Y-1.7135
X-0.5810 Y-1.7550
X-0.4844 Y-1.7913
X-0.3856 Y-1.8224
X-0.2848 Y-1.8479
X-0.1823 Y-1.8679
X-0.0785 Y-1.8822
X0.0263 Y-1.8906
X0.1318 Y-1.8933
X0.2377 Y-1.8900
X0.3436 Y-1.8808
X0.4493 Y-1.8656
X0.5543 Y-1.8445
X0.6583 Y-1.8174
X0.7610 Y-1.7845
X0.8622 Y-1.7457
X0.9613 Y-1.7012
X1.0581 Y-1.6511
X1.1524 Y-1.5954
X1.2437 Y-1.5344
X1.3318 Y-1.4681
X1.4163 Y-1.3967
X1.4970 Y-1.3205
X1.5736 Y-1.2396
X1.6458 Y-1.1543
X1.7134 Y-1.0648
X1.7761 Y-0.9713
X1.8336 Y-0.8741
X1.8859 Y-0.7735
X1.9326 Y-0.6698
X1.9736 Y-0.5633
X2.0087 Y-0.4543
X2.0377 Y-0.3431
X2.0606 Y-0.2301
X2.0773 Y-0.1156
X2.0875 Y0.0000
X2.0910 Y0.0913
X2.0905 Y0.1829
X2.0860 Y0.2746
X2.0775 Y0.3663
X2.0649 Y0.4578
X2.0483 Y0.5488
X2.0277 Y0.6393
X2.0030 Y0.7290
X1.9744 Y0.8178
X1.9419 Y0.9055
X1.9054 Y0.9919
X1.8651 Y1.0768
X1.8210 Y1.1601
X1.7732 Y1.2416
X1.7217 Y1.3211
X1.6667 Y1.3985
X1.6082 Y1.4736
X1.5462 Y1.5462
X1.4810 Y1.6163
X1.4127 Y1.6836
X1.3413 Y1.7480
X1.2669 Y1.8093
X1.1897 Y1.8675
X1.1099 Y1.9224
X1.0275 Y1.9739
X0.9428 Y2.0218
X0.8558 Y2.0661
X0.7668 Y2.1066
X0.6758 Y2.1433
X0.5831 Y2.1761
X0.4888 Y2.2048
X0.3931 Y2.2295
X0.2962 Y2.2500
X0.1983 Y2.2663
X0.0995 Y2.2783
X0.0000 Y2.2859
X-0.1000 Y2.2893
X-0.2002 Y2.2882
X-0.3005 Y2.2828
X-0.4008 Y2.2729
X-0.5007 Y2.2587
X-0.6002 Y2.2400
X-0.6990 Y2.2169
X-0.7969 Y2.1895
X-0.8938 Y2.1578
X-0.9894 Y2.1217
X-1.0835 Y2.0814
X-1.1760 Y2.0370
X-1.2667 Y1.9884
X-1.3554 Y1.9357
X-1.4419 Y1.8792
X-1.5261 Y1.8187
X-1.6077 Y1.7545
X-1.6866 Y1.6866
X-1.7626 Y1.6151
X-1.8356 Y1.5402
X-1.9054 Y1.4621
X-1.9719 Y1.3807
X-2.0349 Y1.2964
X-2.0942 Y1.2091
X-2.1499 Y1.1192
X-2.2017 Y1.0266
X-2.2494 Y0.9317
X-2.2931 Y0.8346
X-2.3326 Y0.7355
X-2.3678 Y0.6344
X-2.3986 Y0.5318
X-2.4249 Y0.4276
X-2.4467 Y0.3221
X-2.4639 Y0.2156
X-2.4765 Y0.1081
X-2.4844 Y0.0000
X-2.4875 Y-0.1086
X-2.4859 Y-0.2175
X-2.4795 Y-0.3264
X-2.4683 Y-0.4352
X-2.4524 Y-0.5437
X-2.4317 Y-0.6516
X-2.4062 Y-0.7587
X-2.3760 Y-0.8648
X-2.3411 Y-0.9697
X-2.3016 Y-1.0732
X-2.2575 Y-1.1752
X-2.2088 Y-1.2753
X-2.1557 Y-1.3734
X-2.0983 Y-1.4692
X-2.0366 Y-1.5627
X-1.9707 Y-1.6536
X-1.9008 Y-1.7417
X-1.8269 Y-1.8269
X-1.7492 Y-1.9089
X-1.6678 Y-1.9876
X-1.5829 Y-2.0628
X-1.4945 Y-2.1344
X-1.4030 Y-2.2022
X-1.3083 Y-2.2661
X-1.2108 Y-2.3259
X-1.1105 Y-2.3815
X-1.0077 Y-2.4328
X-0.9025 Y-2.4796
X-0.7951 Y-2.5218
X-0.6858 Y-2.5595
X-0.5747 Y-2.5923
X-0.4620 Y-2.6203
X-0.3480 Y-2.6435
X-0.2329 Y-2.6616
X-0.1168 Y-2.6748
X0.0000 Y-2.6828
X0.1173 Y-2.6858
X0.2348 Y-2.6836
X0.3523 Y-2.6763
X0.4697 Y-2.6638
X0.5866 Y-2.6461
X0.7029 Y-2.6233
X0.8183 Y-2.5954
X0.9327 Y-2.5625
X1.0457 Y-2.5244
X1.1571 Y-2.4814
X1.2668 Y-2.4335
X1.3745 Y-2.3807
X1.4800 Y-2.3231
X1.5831 Y-2.2608
X1.6835 Y-2.1940
X1.7812 Y-2.1227
X1.8758 Y-2.0471
X1.9672 Y-1.9672
X2.0552 Y-1.8832
X2.1396 Y-1.7953
X2.2203 Y-1.7037
X2.2970 Y-1.6084
X2.3696 Y-1.5096
X2.4380 Y-1.4076
X2.5019 Y-1.3024
X2.5613 Y-1.1944
X2.6161 Y-1.0836
X2.6661 Y-0.9704
X2.7111 Y-0.8548
X2.7511 Y-0.7372
X2.7860 Y-0.6177
X2.8158 Y-0.4965
X2.8402 Y-0.3739
X2.8593 Y-0.2502
X2.8730 Y-0.1254
X2.8812 Y0.0000
X2.8840 Y0.1073
X2.8827 Y0.2147
X2.8774 Y0.3223
X2.8680 Y0.4297
X2.8547 Y0.5369
X2.8373 Y0.6436
X2.8160 Y0.7499
X2.7907 Y0.8554
X2.7614 Y0.9601
X2.7282 Y1.0638
X2.6910 Y1.1663
X2.6501 Y1.2675
X2.6053 Y1.3674
X2.5567 Y1.4656
X2.5045 Y1.5621
X2.4486 Y1.6567
X2.3891 Y1.7494
X2.3261 Y1.8399
X2.2597 Y1.9281
X2.1899 Y2.0140
X2.1169 Y2.0973
X2.0407 Y2.1779
X1.9614 Y2.2558
X1.8791 Y2.3308
X1.7940 Y2.4028
X1.7061 Y2.4717
X1.6156 Y2.5374
X1.5225 Y2.5997
X1.4271 Y2.6587
X1.3293 Y2.7141
X1.2294 Y2.7659
X1.1275 Y2.8141
X1.0237 Y2.8585
X0.9182 Y2.8990
X0.8110 Y2.9357
X0.7024 Y2.9684
X0.5925 Y2.9970
X0.4815 Y3.0216
X0.3694 Y3.0421
X0.2564 Y3.0584
X0.1428 Y3.0705
X0.0286 Y3.0784
X-0.0860 Y3.0820
X-0.2008 Y3.0814
X-0.3156 Y3.0765
X-0.4304 Y3.0672
X-0.5450 Y3.0538
X-0.6591 Y3.0360
X-0.7727 Y3.0139
X-0.8855 Y2.9876
X-0.9974 Y2.9571
X-1.1083 Y2.9224
X-1.2180 Y2.8835
X-1.3263 Y2.8405
X-1.4331 Y2.7934
X-1.5383 Y2.7423
X-1.6416 Y2.6872
X-1.7429 Y2.6283
X-1.8422 Y2.5655
X-1.9391 Y2.4989
X-2.0337 Y2.4287
X-2.1257 Y2.3550
X-2.2150 Y2.2777
X-2.3016 Y2.1970
X-2.3852 Y2.1131
X-2.4657 Y2.0259
X-2.5430 Y1.9357
X-2.6171 Y1.8426
X-2.6877 Y1.7466
X-2.7548 Y1.6479
X-2.8182 Y1.5466
X-2.8780 Y1.4429
X-2.9339 Y1.3369
X-2.9859 Y1.2287
X-3.0339 Y1.1185
X-3.0778 Y1.0064
X-3.1176 Y0.8926
X-3.1532 Y0.7772
X-3.1845 Y0.6604
X-3.2115 Y0.5424
X-3.2341 Y0.4232
X-3.2523 Y0.3032
X-3.2660 Y0.1823
X-3.2752 Y0.0609
X-3.2799 Y-0.0610
X-3.2801 Y-0.1831
X-3.2757 Y-0.3053
X-3.2667 Y-0.4275
X-3.2532 Y-0.5494
X-3.2351 Y-0.6709
X-3.2125 Y-0.7918
X-3.1854 Y-0.9120
X-3.1537 Y-1.0312
X-3.1176 Y-1.1493
X-3.0771 Y-1.2662
X-3.0322 Y-1.3817
X-2.9829 Y-1.4955
X-2.9294 Y-1.6076
X-2.8717 Y-1.7178
X-2.8098 Y-1.8259
X-2.7438 Y-1.9318
X-2.6738 Y-2.0353
X-2.6000 Y-2.1363
X-2.5223 Y-2.2345
X-2.4409 Y-2.3300
X-2.3558 Y-2.4225
X-2.2673 Y-2.5118
X-2.1754 Y-2.5980
X-2.0802 Y-2.6808
X-1.9819 Y-2.7600
X-1.8805 Y-2.8357
X-1.7763 Y-2.9077
X-1.6692 Y-2.9758
X-1.5596 Y-3.0399
X-1.4475 Y-3.1001
X-1.3331 Y-3.1561
X-1.2166 Y-3.2078
X-1.0980 Y-3.2553
X-0.9776 Y-3.2983
X-0.8555 Y-3.3370
X-0.7318 Y-3.3710
X-0.6069 Y-3.4005
X-0.4807 Y-3.4254
X-0.3535 Y-3.4456
X-0.2255 Y-3.4610
X-0.0968 Y-3.4717
X0.0323 Y-3.4776
X0.1618 Y-3.4787
X0.2914 Y-3.4749
X0.4209 Y-3.4664
X0.5502 Y-3.4530
X0.6791 Y-3.4347
X0.8073 Y-3.4117
X0.9349 Y-3.3839
X1.0614 Y-3.3512
X1.1868 Y-3.3139
X1.3109 Y-3.2719
X1.4335 Y-3.2252
X1.5545 Y-3.1739
X1.6736 Y-3.1180
X1.7907 Y-3.0577
X1.9057 Y-2.9930
X2.0183 Y-2.9240
X2.1284 Y-2.8507
X2.2358 Y-2.7733
X2.3404 Y-2.6918
X2.4421 Y-2.6064
X2.5406 Y-2.5171
X2.6359 Y-2.4241
X2.7277 Y-2.3275
X2.8160 Y-2.2274
X2.9007 Y-2.1240
X2.9815 Y-2.0173
X3.0584 Y-1.9076
X3.1313 Y-1.7949
X3.2000 Y-1.6795
X3.2644 Y-1.5614
X3.3245 Y-1.4409
X3.3802 Y-1.3180
X3.4313 Y-1.1930
X3.4777 Y-1.0660
X3.5195 Y-0.9372
X3.5565 Y-0.8068
X3.5886 Y-0.6749
X3.6159 Y-0.5417
X3.6382 Y-0.4075
X3.6555 Y-0.2723
X3.6678 Y-0.1364
X3.6750 Y0.0000
X3.6772 Y0.1210
X3.6753 Y0.2422
X3.6695 Y0.3633
X3.6597 Y0.4844
X3.6459 Y0.6051
X3.6281 Y0.7256
X3.6063 Y0.8454
X3.5806 Y0.9647
X3.5509 Y1.0831
X3.5173 Y1.2007
X3.4798 Y1.3172
X3.4384 Y1.4325
X3.3932 Y1.5466
X3.3442 Y1.6592
X3.2915 Y1.7702
X3.2351 Y1.8796
X3.1750 Y1.9872
X3.1114 Y2.0929
X3.0443 Y2.1965
X2.9737 Y2.2980
X2.8997 Y2.3972
X2.8224 Y2.4940
X2.7418 Y2.5884
X2.6581 Y2.6801
X2.5714 Y2.7691
X2.4816 Y2.8553
X2.3890 Y2.9386
X2.2936 Y3.0189
X2.1954 Y3.0961
X2.0947 Y3.1701
X1.9915 Y3.2408
X1.8859 Y3.3082
X1.7780 Y3.3721
X1.6679 Y3.4325
X1.5558 Y3.4893
X1.4418 Y3.5424
X1.3259 Y3.5918
X1.2084 Y3.6375
X1.0893 Y3.6792
X0.9687 Y3.7171
X0.8469 Y3.7510
X0.7238 Y3.7809
X0.5997 Y3.8067
X0.4747 Y3.8285
X0.3489 Y3.8462
X0.2224 Y3.8598
X0.0955 Y3.8691
X-0.0319 Y3.8743
X-0.1594 Y3.8754
X-0.2871 Y3.8722
X-0.4148 Y3.8647
X-0.5422 Y3.8531
X-0.6694 Y3.8373
X-0.7961 Y3.8173
X-0.9222 Y3.7931
X-1.0476 Y3.7647
X-1.1721 Y3.7322
X-1.2956 Y3.6955
X-1.4179 Y3.6548
X-1.5390 Y3.6100
X-1.6586 Y3.5612
X-1.7767 Y3.5084
X-1.8932 Y3.4517
X-2.0078 Y3.3912
X-2.1205 Y3.3268
X-2.2311 Y3.2587
X-2.3395 Y3.1869
X-2.4456 Y3.1115
X-2.5493 Y3.0325
X-2.6505 Y2.9501
X-2.7489 Y2.8644
X-2.8446 Y2.7753
X-2.9375 Y2.6831
X-3.0273 Y2.5877
X-3.1140 Y2.4893
X-3.1975 Y2.3880
X-3.2777 Y2.2840
X-3.3546 Y2.1772
X-3.4279 Y2.0678
X-3.4977 Y1.9560
X-3.5638 Y1.8418
X-3.6262 Y1.7254
X-3.6848 Y1.6068
X-3.7395 Y1.4863
X-3.7903 Y1.3639
X-3.8371 Y1.2398
X-3.8798 Y1.1140
X-3.9183 Y0.9868
X-3.9527 Y0.8583
X-3.9829 Y0.7286
X-4.0088 Y0.5978
X-4.0305 Y0.4661
X-4.0478 Y0.3336
X-4.0607 Y0.2005
X-4.0692 Y0.0669
X-4.0734 Y-0.0670
X-4.0731 Y-0.2011
X-4.0685 Y-0.3353
X-4.0594 Y-0.4695
X-4.0458 Y-0.6033
X-4.0279 Y-0.7368
X-4.0055 Y-0.8698
X-3.9788 Y-1.0021
X-3.9477 Y-1.1335
X-3.9122 Y-1.2640
X-3.8724 Y-1.3934
X-3.8284 Y-1.5216
X-3.7801 Y-1.6483
X-3.7276 Y-1.7736
X-3.6709 Y-1.8971
X-3.6101 Y-2.0189
X-3.5453 Y-2.1386
X-3.4766 Y-2.2564
X-3.4039 Y-2.3719
X-3.3274 Y-2.4850
X-3.2471 Y-2.5957
X-3.1631 Y-2.7038
X-3.0755 Y-2.8092
X-2.9845 Y-2.9117
X-2.8899 Y-3.0113
X-2.7921 Y-3.1078
X-2.6911 Y-3.2011
X-2.5869 Y-3.2912
X-2.4797 Y-3.3778
X-2.3696 Y-3.4610
X-2.2567 Y-3.5406
X-2.1412 Y-3.6165
X-2.0231 Y-3.6886
X-1.9025 Y-3.7568
X-1.7797 Y-3.8211
X-1.6547 Y-3.8814
X-1.5276 Y-3.9376
X-1.3987 Y-3.9897
X-1.2679 Y-4.0375
X-1.1356 Y-4.0810
X-1.0017 Y-4.1202
X-0.8665 Y-4.1549
X-0.7301 Y-4.1853
X-0.5926 Y-4.2112
X-0.4542 Y-4.2325
X-0.3151 Y-4.2493
X-0.1753 Y-4.2615
X-0.0351 Y-4.2691
X0.1054 Y-4.2721
X0.2461 Y-4.2705
X0.3868 Y-4.2642
X0.5274 Y-4.2533
X0.6676 Y-4.2378
X0.8074 Y-4.2176
X0.9466 Y-4.1928
X1.0851 Y-4.1634
X1.2226 Y-4.1295
X1.3591 Y-4.0910
X1.4943 Y-4.0480
X1.6282 Y-4.0005
X1.7606 Y-3.9486
X1.8913 Y-3.8923
X2.0203 Y-3.8316
X2.1473 Y-3.7667
X2.2722 Y-3.6976
X2.3948 Y-3.6243
X2.5152 Y-3.5470
X2.6330 Y-3.4657
X2.7482 Y-3.3804
X2.8606 Y-3.2913
X2.9701 Y-3.1985
X3.0766 Y-3.1020
X3.1800 Y-3.0020
X3.2801 Y-2.8986
X3.3769 Y-2.7917
X3.4702 Y-2.6817
X3.5599 Y-2.5686
X3.6459 Y-2.4524
X3.7281 Y-2.3334
X3.8064 Y-2.2116
X3.8808 Y-2.0871
X3.9510 Y-1.9602
X4.0151 Y-1.8300
G03X-4.0151Y1.8300I-4.0151J1.8300
X4.0151Y-1.8300I4.0151J-1.8300
G01 X0.5000 Y0.0000
X0.0870 Y0.4923
X0.0683 Y0.4953 Z-0.7838
X0.0474 Y0.4978 Z-0.7905
X0.0263 Y0.4993 Z-0.7972
X0.0053 Y0.5000 Z-0.8039
X-0.0158 Y0.4998 Z-0.8106
X-0.0369 Y0.4986 Z-0.8174
X-0.0579 Y0.4966 Z-0.8241
X-0.0787 Y0.4938 Z-0.8308
X-0.0995 Y0.4900 Z-0.8375
X-0.1201 Y0.4854 Z-0.8442
X-0.1404 Y0.4799 Z-0.8509
X-0.1605 Y0.4735 Z-0.8576
X-0.1803 Y0.4663 Z-0.8643
X-0.1998 Y0.4583 Z-0.8710
X-0.2190 Y0.4495 Z-0.8778
X-0.2377 Y0.4399 Z-0.8845
X-0.2561 Y0.4295 Z-0.8912
X-0.2739 Y0.4183 Z-0.8979
X-0.2913 Y0.4064 Z-0.9046
X-0.3082 Y0.3937 Z-0.9113
X-0.3245 Y0.3804 Z-0.9180
X-0.3403 Y0.3664 Z-0.9247
X-0.3554 Y0.3517 Z-0.9314
X-0.3699 Y0.3364 Z-0.9382
X-0.3838 Y0.3205 Z-0.9449
X-0.3969 Y0.3040 Z-0.9516
X-0.4094 Y0.2870 Z-0.9583
X-0.4211 Y0.2695 Z-0.9650
X-0.4321 Y0.2515 Z-0.9717
X-0.4424 Y0.2331 Z-0.9784
X-0.4518 Y0.2142 Z-0.9851
X-0.4604 Y0.1950 Z-0.9918
X-0.4682 Y0.1754 Z-0.9986
X-0.4752 Y0.1555 Z-1.0053
X-0.4813 Y0.1353 Z-1.0120
X-0.4866 Y0.1149 Z-1.0187
X-0.4910 Y0.0943 Z-1.0254
X-0.4946 Y0.0735 Z-1.0321
X-0.4972 Y0.0526 Z-1.0388
X-0.4990 Y0.0316 Z-1.0455
X-0.4999 Y0.0105 Z-1.0522
Y-0.0105 Z-1.0589
X-0.4990 Y-0.0316 Z-1.0657
X-0.4972 Y-0.0526 Z-1.0724
X-0.4946 Y-0.0735 Z-1.0791
X-0.4910 Y-0.0943 Z-1.0858
X-0.4866 Y-0.1149 Z-1.0925
X-0.4813 Y-0.1353 Z-1.0992
X-0.4752 Y-0.1555 Z-1.1059
X-0.4682 Y-0.1754 Z-1.1126
X-0.4604 Y-0.1950 Z-1.1193
X-0.4518 Y-0.2142 Z-1.1261
X-0.4424 Y-0.2331 Z-1.1328
X-0.4321 Y-0.2515 Z-1.1395
X-0.4211 Y-0.2695 Z-1.1462
X-0.4094 Y-0.2870 Z-1.1529
X-0.3969 Y-0.3040 Z-1.1596
X-0.3838 Y-0.3205 Z-1.1663
X-0.3699 Y-0.3364 Z-1.1730
X-0.3554 Y-0.3517 Z-1.1797
X-0.3403 Y-0.3664 Z-1.1865
X-0.3245 Y-0.3804 Z-1.1932
X-0.3082 Y-0.3937 Z-1.1999
X-0.2913 Y-0.4064 Z-1.2066
X-0.2739 Y-0.4183 Z-1.2133
X-0.2561 Y-0.4295 Z-1.2200
X-0.2377 Y-0.4399 Z-1.2267
X-0.2190 Y-0.4495 Z-1.2334
X-0.1998 Y-0.4583 Z-1.2401
X-0.1803 Y-0.4663 Z-1.2469
X-0.1605 Y-0.4735 Z-1.2536
X-0.1404 Y-0.4799 Z-1.2603
X-0.1201 Y-0.4854 Z-1.2670
X-0.0995 Y-0.4900 Z-1.2737
X-0.0787 Y-0.4938 Z-1.2804
X-0.0579 Y-0.4966 Z-1.2871
X-0.0369 Y-0.4986 Z-1.2938
X-0.0158 Y-0.4998 Z-1.3005
X0.0053 Y-0.5000 Z-1.3073
X0.0263 Y-0.4993 Z-1.3140
X0.0474 Y-0.4978 Z-1.3207
X0.0683 Y-0.4953 Z-1.3274
X0.0891 Y-0.4920 Z-1.3341
X0.1098 Y-0.4878 Z-1.3408
X0.1303 Y-0.4827 Z-1.3475
X0.1505 Y-0.4768 Z-1.3542
X0.1705 Y-0.4700 Z-1.3609
X0.1901 Y-0.4624 Z-1.3677
X0.2094 Y-0.4540 Z-1.3744
X0.2284 Y-0.4448 Z-1.3811
X0.2470 Y-0.4348 Z-1.3878
X0.2651 Y-0.4240 Z-1.3945
X0.2827 Y-0.4124 Z-1.4012
X0.2998 Y-0.4001 Z-1.4079
X0.3164 Y-0.3871 Z-1.4146
X0.3325 Y-0.3734 Z-1.4213
X0.3479 Y-0.3591 Z-1.4280
X0.3627 Y-0.3441 Z-1.4348
X0.3769 Y-0.3285 Z-1.4415
X0.3904 Y-0.3123 Z-1.4482
X0.4033 Y-0.2956 Z-1.4549
X0.4154 Y-0.2783 Z-1.4616
X0.4267 Y-0.2606 Z-1.4683
X0.4373 Y-0.2424 Z-1.4750
X0.4472 Y-0.2237 Z-1.4817
X0.4562 Y-0.2047 Z-1.4884
X0.4644 Y-0.1852 Z-1.4952
X0.4718 Y-0.1655 Z-1.5019
X0.4784 Y-0.1455 Z-1.5086
X0.4841 Y-0.1252 Z-1.5153
X0.4889 Y-0.1046 Z-1.5220
X0.4929 Y-0.0839 Z-1.5287
X0.4960 Y-0.0631 Z-1.5354
X0.4982 Y-0.0421 Z-1.5421
X0.4996 Y-0.0211 Z-1.5488
X0.5000 Y0.0000 Z-1.5556
X0.5092 Y0.0452
X0.5142 Y0.0920
X0.5148 Y0.1400
X0.5109 Y0.1888
X0.5024 Y0.2380
X0.4890 Y0.2872
X0.4708 Y0.3357
X0.4478 Y0.3833
X0.4200 Y0.4294
X0.3875 Y0.4735
X0.3504 Y0.5151
X0.3089 Y0.5538
X0.2633 Y0.5892
X0.2139 Y0.6207
X0.1609 Y0.6480
X0.1047 Y0.6707
X0.0458 Y0.6885
X-0.0155 Y0.7011
X-0.0786 Y0.7081
X-0.1431 Y0.7093
X-0.2084 Y0.7046
X-0.2740 Y0.6938
X-0.3392 Y0.6769
X-0.4036 Y0.6538
X-0.4665 Y0.6245
X-0.5273 Y0.5891
X-0.5855 Y0.5479
X-0.6404 Y0.5009
X-0.6916 Y0.4484
X-0.7384 Y0.3907
X-0.7803 Y0.3283
X-0.8169 Y0.2614
X-0.8477 Y0.1907
X-0.8724 Y0.1165
X-0.8904 Y0.0394
X-0.9016 Y-0.0399
X-0.9056 Y-0.1209
X-0.9023 Y-0.2029
X-0.8915 Y-0.2853
X-0.8731 Y-0.3673
X-0.8471 Y-0.4483
X-0.8135 Y-0.5275
X-0.7725 Y-0.6042
X-0.7243 Y-0.6777
X-0.6690 Y-0.7474
X-0.6070 Y-0.8126
X-0.5387 Y-0.8725
X-0.4645 Y-0.9267
X-0.3849 Y-0.9746
X-0.3004 Y-1.0155
X-0.2117 Y-1.0490
X-0.1194 Y-1.0747
X-0.0242 Y-1.0923
X0.0732 Y-1.1013
X0.1720 Y-1.1015
X0.2713 Y-1.0929
X0.3705 Y-1.0752
X0.4687 Y-1.0484
X0.5649 Y-1.0127
X0.6585 Y-0.9680
X0.7486 Y-0.9147
X0.8343 Y-0.8530
X0.9149 Y-0.7832
X0.9896 Y-0.7057
X1.0578 Y-0.6212
X1.1186 Y-0.5300
X1.1716 Y-0.4330
X1.2161 Y-0.3307
X1.2515 Y-0.2239
X1.2776 Y-0.1134
X1.2937 Y0.0000
X1.2988 Y0.0723
X1.2997 Y0.1451
X1.2966 Y0.2183
X1.2893 Y0.2916
X1.2778 Y0.3647
X1.2622 Y0.4375
X1.2425 Y0.5096
X1.2186 Y0.5809
X1.1906 Y0.6511
X1.1585 Y0.7199
X1.1225 Y0.7873
X1.0825 Y0.8528
X1.0387 Y0.9162
X0.9912 Y0.9775
X0.9400 Y1.0363
X0.8854 Y1.0924
X0.8275 Y1.1456
X0.7663 Y1.1957
X0.7021 Y1.2426
X0.6351 Y1.2860
X0.5654 Y1.3257
X0.4932 Y1.3617
X0.4188 Y1.3937
X0.3424 Y1.4217
X0.2641 Y1.4454
X0.1842 Y1.4648
X0.1030 Y1.4798
X0.0207 Y1.4903
X-0.0624 Y1.4962
X-0.1462 Y1.4974
X-0.2302 Y1.4939
X-0.3143 Y1.4856
X-0.3983 Y1.4727
X-0.4817 Y1.4549
X-0.5644 Y1.4324
X-0.6460 Y1.4052
X-0.7264 Y1.3734
X-0.8053 Y1.3369
X-0.8823 Y1.2959
X-0.9572 Y1.2504
X-1.0298 Y1.2006
X-1.0998 Y1.1466
X-1.1669 Y1.0885
X-1.2310 Y1.0265
X-1.2918 Y0.9607
X-1.3490 Y0.8913
X-1.4026 Y0.8185
X-1.4521 Y0.7424
X-1.4976 Y0.6634
X-1.5387 Y0.5817
X-1.5753 Y0.4974
X-1.6074 Y0.4108
X-1.6346 Y0.3222
X-1.6569 Y0.2318
X-1.6742 Y0.1400
X-1.6865 Y0.0469
X-1.6935 Y-0.0471
X-1.6952 Y-0.1417
X-1.6917 Y-0.2367
X-1.6828 Y-0.3317
X-1.6686 Y-0.4264
X-1.6490 Y-0.5206
X-1.6241 Y-0.6140
X-1.5939 Y-0.7061
X-1.5585 Y-0.7968
X-1.5178 Y-0.8857
X-1.4721 Y-0.9726
X-1.4214 Y-1.0571
X-1.3659 Y-1.1389
X-1.3056 Y-1.2179
X-1.2408 Y-1.2936
X-1.1715 Y-1.3659
X-1.0981 Y-1.4345
X-1.0206 Y-1.4991
X-0.9394 Y-1.5595
X-0.8545 Y-1.6155
X-0.7663 Y-1.6669
X-0.6751 Y-1.7135
X-0.5810 Y-1.7550
X-0.4844 Y-1.7913
X-0.3856 Y-1.8224
X-0.2848 Y-1.8479
X-0.1823 Y-1.8679
X-0.0785 Y-1.8822
X0.0263 Y-1.8906
X0.1318 Y-1.8933
X0.2377 Y-1.8900
X0.3436 Y-1.8808
X0.4493 Y-1.8656
X0.5543 Y-1.8445
X0.6583 Y-1.8174
X0.7610 Y-1.7845
X0.8622 Y-1.7457
X0.9613 Y-1.7012
X1.0581 Y-1.6511
X1.1524 Y-1.5954
X1.2437 Y-1.5344
X1.3318 Y-1.4681
X1.4163 Y-1.3967
X1.4970 Y-1.3205
X1.5736 Y-1.2396
X1.6458 Y-1.1543
X1.7134 Y-1.0648
X1.7761 Y-0.9713
X1.8336 Y-0.8741
X1.8859 Y-0.7735
X1.9326 Y-0.6698
X1.9736 Y-0.5633
X2.0087 Y-0.4543
X2.0377 Y-0.3431
X2.0606 Y-0.2301
X2.0773 Y-0.1156
X2.0875 Y0.0000
X2.0910 Y0.0913
X2.0905 Y0.1829
X2.0860 Y0.2746
X2.0775 Y0.3663
X2.0649 Y0.4578
X2.0483 Y0.5488
X2.0277 Y0.6393
X2.0030 Y0.7290
X1.9744 Y0.8178
X1.9419 Y0.9055
X1.9054 Y0.9919
X1.8651 Y1.0768
X1.8210 Y1.1601
X1.7732 Y1.2416
X1.7217 Y1.3211
X1.6667 Y1.3985
X1.6082 Y1.4736
X1.5462 Y1.5462
X1.4810 Y1.6163
X1.4127 Y1.6836
X1.3413 Y1.7480
X1.2669 Y1.8093
X1.1897 Y1.8675
X1.1099 Y1.9224
X1.0275 Y1.9739
X0.9428 Y2.0218
X0.8558 Y2.0661
X0.7668 Y2.1066
X0.6758 Y2.1433
X0.5831 Y2.1761
X0.4888 Y2.2048
X0.3931 Y2.2295
X0.2962 Y2.2500
X0.1983 Y2.2663
X0.0995 Y2.2783
X0.0000 Y2.2859
X-0.1000 Y2.2893
X-0.2002 Y2.2882
X-0.3005 Y2.2828
X-0.4008 Y2.2729
X-0.5007 Y2.2587
X-0.6002 Y2.2400
X-0.6990 Y2.2169
X-0.7969 Y2.1895
X-0.8938 Y2.1578
X-0.9894 Y2.1217
X-1.0835 Y2.0814
X-1.1760 Y2.0370
X-1.2667 Y1.9884
X-1.3554 Y1.9357
X-1.4419 Y1.8792
X-1.5261 Y1.8187
X-1.6077 Y1.7545
X-1.6866 Y1.6866
X-1.7626 Y1.6151
X-1.8356 Y1.5402
X-1.9054 Y1.4621
X-1.9719 Y1.3807
X-2.0349 Y1.2964
X-2.0942 Y1.2091
X-2.1499 Y1.1192
X-2.2017 Y1.0266
X-2.2494 Y0.9317
X-2.2931 Y0.8346
X-2.3326 Y0.7355
X-2.3678 Y0.6344
X-2.3986 Y0.5318
X-2.4249 Y0.4276
X-2.4467 Y0.3221
X-2.4639 Y0.2156
X-2.4765 Y0.1081
X-2.4844 Y0.0000
X-2.4875 Y-0.1086
X-2.4859 Y-0.2175
X-2.4795 Y-0.3264
X-2.4683 Y-0.4352
X-2.4524 Y-0.5437
X-2.4317 Y-0.6516
X-2.4062 Y-0.7587
X-2.3760 Y-0.8648
X-2.3411 Y-0.9697
X-2.3016 Y-1.0732
X-2.2575 Y-1.1752
X-2.2088 Y-1.2753
X-2.1557 Y-1.3734
X-2.0983 Y-1.4692
X-2.0366 Y-1.5627
X-1.9707 Y-1.6536
X-1.9008 Y-1.7417
X-1.8269 Y-1.8269
X-1.7492 Y-1.9089
X-1.6678 Y-1.9876
X-1.5829 Y-2.0628
X-1.4945 Y-2.1344
X-1.4030 Y-2.2022
X-1.3083 Y-2.2661
X-1.2108 Y-2.3259
X-1.1105 Y-2.3815
X-1.0077 Y-2.4328
X-0.9025 Y-2.4796
X-0.7951 Y-2.5218
X-0.6858 Y-2.5595
X-0.5747 Y-2.5923
X-0.4620 Y-2.6203
X-0.3480 Y-2.6435
X-0.2329 Y-2.6616
X-0.1168 Y-2.6748
X0.0000 Y-2.6828
X0.1173 Y-2.6858
X0.2348 Y-2.6836
X0.3523 Y-2.6763
X0.4697 Y-2.6638
X0.5866 Y-2.6461
X0.7029 Y-2.6233
X0.8183 Y-2.5954
X0.9327 Y-2.5625
X1.0457 Y-2.5244
X1.1571 Y-2.4814
X1.2668 Y-2.4335
X1.3745 Y-2.3807
X1.4800 Y-2.3231
X1.5831 Y-2.2608
X1.6835 Y-2.1940
X1.7812 Y-2.1227
X1.8758 Y-2.0471
X1.9672 Y-1.9672
X2.0552 Y-1.8832
X2.1396 Y-1.7953
X2.2203 Y-1.7037
X2.2970 Y-1.6084
X2.3696 Y-1.5096
X2.4380 Y-1.4076
X2.5019 Y-1.3024
X2.5613 Y-1.1944
X2.6161 Y-1.0836
X2.6661 Y-0.9704
X2.7111 Y-0.8548
X2.7511 Y-0.7372
X2.7860 Y-0.6177
X2.8158 Y-0.4965
X2.8402 Y-0.3739
X2.8593 Y-0.2502
X2.8730 Y-0.1254
X2.8812 Y0.0000
X2.8840 Y0.1073
X2.8827 Y0.2147
X2.8774 Y0.3223
X2.8680 Y0.4297
X2.8547 Y0.5369
X2.8373 Y0.6436
X2.8160 Y0.7499
X2.7907 Y0.8554
X2.7614 Y0.9601
X2.7282 Y1.0638
X2.6910 Y1.1663
X2.6501 Y1.2675
X2.6053 Y1.3674
X2.5567 Y1.4656
X2.5045 Y1.5621
X2.4486 Y1.6567
X2.3891 Y1.7494
X2.3261 Y1.8399
X2.2597 Y1.9281
X2.1899 Y2.0140
X2.1169 Y2.0973
X2.0407 Y2.1779
X1.9614 Y2.2558
X1.8791 Y2.3308
X1.7940 Y2.4028
X1.7061 Y2.4717
X1.6156 Y2.5374
X1.5225 Y2.5997
X1.4271 Y2.6587
X1.3293 Y2.7141
X1.2294 Y2.7659
X1.1275 Y2.8141
X1.0237 Y2.8585
X0.9182 Y2.8990
X0.8110 Y2.9357
X0.7024 Y2.9684
X0.5925 Y2.9970
X0.4815 Y3.0216
X0.3694 Y3.0421
X0.2564 Y3.0584
X0.1428 Y3.0705
X0.0286 Y3.0784
X-0.0860 Y3.0820
X-0.2008 Y3.0814
X-0.3156 Y3.0765
X-0.4304 Y3.0672
X-0.5450 Y3.0538
X-0.6591 Y3.0360
X-0.7727 Y3.0139
X-0.8855 Y2.9876
X-0.9974 Y2.9571
X-1.1083 Y2.9224
X-1.2180 Y2.8835
X-1.3263 Y2.8405
X-1.4331 Y2.7934
X-1.5383 Y2.7423
X-1.6416 Y2.6872
X-1.7429 Y2.6283
X-1.8422 Y2.5655
X-1.9391 Y2.4989
X-2.0337 Y2.4287
X-2.1257 Y2.3550
X-2.2150 Y2.2777
X-2.3016 Y2.1970
X-2.3852 Y2.1131
X-2.4657 Y2.0259
X-2.5430 Y1.9357
X-2.6171 Y1.8426
X-2.6877 Y1.7466
X-2.7548 Y1.6479
X-2.8182 Y1.5466
X-2.8780 Y1.4429
X-2.9339 Y1.3369
X-2.9859 Y1.2287
X-3.0339 Y1.1185
X-3.0778 Y1.0064
X-3.1176 Y0.8926
X-3.1532 Y0.7772
X-3.1845 Y0.6604
X-3.2115 Y0.5424
X-3.2341 Y0.4232
X-3.2523 Y0.3032
X-3.2660 Y0.1823
X-3.2752 Y0.0609
X-3.2799 Y-0.0610
X-3.2801 Y-0.1831
X-3.2757 Y-0.3053
X-3.2667 Y-0.4275
X-3.2532 Y-0.5494
X-3.2351 Y-0.6709
X-3.2125 Y-0.7918
X-3.1854 Y-0.9120
X-3.1537 Y-1.0312
X-3.1176 Y-1.1493
X-3.0771 Y-1.2662
X-3.0322 Y-1.3817
X-2.9829 Y-1.4955
X-2.9294 Y-1.6076
X-2.8717 Y-1.7178
X-2.8098 Y-1.8259
X-2.7438 Y-1.9318
X-2.6738 Y-2.0353
X-2.6000 Y-2.1363
X-2.5223 Y-2.2345
X-2.4409 Y-2.3300
X-2.3558 Y-2.4225
X-2.2673 Y-2.5118
X-2.1754 Y-2.5980
X-2.0802 Y-2.6808
X-1.9819 Y-2.7600
X-1.8805 Y-2.8357
X-1.7763 Y-2.9077
X-1.6692 Y-2.9758
X-1.5596 Y-3.0399
X-1.4475 Y-3.1001
X-1.3331 Y-3.1561
X-1.2166 Y-3.2078
X-1.0980 Y-3.2553
X-0.9776 Y-3.2983
X-0.8555 Y-3.3370
X-0.7318 Y-3.3710
X-0.6069 Y-3.4005
X-0.4807 Y-3.4254
X-0.3535 Y-3.4456
X-0.2255 Y-3.4610
X-0.0968 Y-3.4717
X0.0323 Y-3.4776
X0.1618 Y-3.4787
X0.2914 Y-3.4749
X0.4209 Y-3.4664
X0.5502 Y-3.4530
X0.6791 Y-3.4347
X0.8073 Y-3.4117
X0.9349 Y-3.3839
X1.0614 Y-3.3512
X1.1868 Y-3.3139
X1.3109 Y-3.2719
X1.4335 Y-3.2252
X1.5545 Y-3.1739
X1.6736 Y-3.1180
X1.7907 Y-3.0577
X1.9057 Y-2.9930
X2.0183 Y-2.9240
X2.1284 Y-2.8507
X2.2358 Y-2.7733
X2.3404 Y-2.6918
X2.4421 Y-2.6064
X2.5406 Y-2.5171
X2.6359 Y-2.4241
X2.7277 Y-2.3275
X2.8160 Y-2.2274
X2.9007 Y-2.1240
X2.9815 Y-2.0173
X3.0584 Y-1.9076
X3.1313 Y-1.7949
X3.2000 Y-1.6795
X3.2644 Y-1.5614
X3.3245 Y-1.4409
X3.3802 Y-1.3180
X3.4313 Y-1.1930
X3.4777 Y-1.0660
X3.5195 Y-0.9372
X3.5565 Y-0.8068
X3.5886 Y-0.6749
X3.6159 Y-0.5417
X3.6382 Y-0.4075
X3.6555 Y-0.2723
X3.6678 Y-0.1364
X3.6750 Y0.0000
X3.6772 Y0.1210
X3.6753 Y0.2422
X3.6695 Y0.3633
X3.6597 Y0.4844
X3.6459 Y0.6051
X3.6281 Y0.7256
X3.6063 Y0.8454
X3.5806 Y0.9647
X3.5509 Y1.0831
X3.5173 Y1.2007
X3.4798 Y1.3172
X3.4384 Y1.4325
X3.3932 Y1.5466
X3.3442 Y1.6592
X3.2915 Y1.7702
X3.2351 Y1.8796
X3.1750 Y1.9872
X3.1114 Y2.0929
X3.0443 Y2.1965
X2.9737 Y2.2980
X2.8997 Y2.3972
X2.8224 Y2.4940
X2.7418 Y2.5884
X2.6581 Y2.6801
X2.5714 Y2.7691
X2.4816 Y2.8553
X2.3890 Y2.9386
X2.2936 Y3.0189
X2.1954 Y3.0961
X2.0947 Y3.1701
X1.9915 Y3.2408
X1.8859 Y3.3082
X1.7780 Y3.3721
X1.6679 Y3.4325
X1.5558 Y3.4893
X1.4418 Y3.5424
X1.3259 Y3.5918
X1.2084 Y3.6375
X1.0893 Y3.6792
X0.9687 Y3.7171
X0.8469 Y3.7510
X0.7238 Y3.7809
X0.5997 Y3.8067
X0.4747 Y3.8285
X0.3489 Y3.8462
X0.2224 Y3.8598
X0.0955 Y3.8691
X-0.0319 Y3.8743
X-0.1594 Y3.8754
X-0.2871 Y3.8722
X-0.4148 Y3.8647
X-0.5422 Y3.8531
X-0.6694 Y3.8373
X-0.7961 Y3.8173
X-0.9222 Y3.7931
X-1.0476 Y3.7647
X-1.1721 Y3.7322
X-1.2956 Y3.6955
X-1.4179 Y3.6548
X-1.5390 Y3.6100
X-1.6586 Y3.5612
X-1.7767 Y3.5084
X-1.8932 Y3.4517
X-2.0078 Y3.3912
X-2.1205 Y3.3268
X-2.2311 Y3.2587
X-2.3395 Y3.1869
X-2.4456 Y3.1115
X-2.5493 Y3.0325
X-2.6505 Y2.9501
X-2.7489 Y2.8644
X-2.8446 Y2.7753
X-2.9375 Y2.6831
X-3.0273 Y2.5877
X-3.1140 Y2.4893
X-3.1975 Y2.3880
X-3.2777 Y2.2840
X-3.3546 Y2.1772
X-3.4279 Y2.0678
X-3.4977 Y1.9560
X-3.5638 Y1.8418
X-3.6262 Y1.7254
X-3.6848 Y1.6068
X-3.7395 Y1.4863
X-3.7903 Y1.3639
X-3.8371 Y1.2398
X-3.8798 Y1.1140
X-3.9183 Y0.9868
X-3.9527 Y0.8583
X-3.9829 Y0.7286
X-4.0088 Y0.5978
X-4.0305 Y0.4661
X-4.0478 Y0.3336
X-4.0607 Y0.2005
X-4.0692 Y0.0669
X-4.0734 Y-0.0670
X-4.0731 Y-0.2011
X-4.0685 Y-0.3353
X-4.0594 Y-0.4695
X-4.0458 Y-0.6033
X-4.0279 Y-0.7368
X-4.0055 Y-0.8698
X-3.9788 Y-1.0021
X-3.9477 Y-1.1335
X-3.9122 Y-1.2640
X-3.8724 Y-1.3934
X-3.8284 Y-1.5216
X-3.7801 Y-1.6483
X-3.7276 Y-1.7736
X-3.6709 Y-1.8971
X-3.6101 Y-2.0189
X-3.5453 Y-2.1386
X-3.4766 Y-2.2564
X-3.4039 Y-2.3719
X-3.3274 Y-2.4850
X-3.2471 Y-2.5957
X-3.1631 Y-2.7038
X-3.0755 Y-2.8092
X-2.9845 Y-2.9117
X-2.8899 Y-3.0113
X-2.7921 Y-3.1078
X-2.6911 Y-3.2011
X-2.5869 Y-3.2912
X-2.4797 Y-3.3778
X-2.3696 Y-3.4610
X-2.2567 Y-3.5406
X-2.1412 Y-3.6165
X-2.0231 Y-3.6886
X-1.9025 Y-3.7568
X-1.7797 Y-3.8211
X-1.6547 Y-3.8814
X-1.5276 Y-3.9376
X-1.3987 Y-3.9897
X-1.2679 Y-4.0375
X-1.1356 Y-4.0810
X-1.0017 Y-4.1202
X-0.8665 Y-4.1549
X-0.7301 Y-4.1853
X-0.5926 Y-4.2112
X-0.4542 Y-4.2325
X-0.3151 Y-4.2493
X-0.1753 Y-4.2615
X-0.0351 Y-4.2691
X0.1054 Y-4.2721
X0.2461 Y-4.2705
X0.3868 Y-4.2642
X0.5274 Y-4.2533
X0.6676 Y-4.2378
X0.8074 Y-4.2176
X0.9466 Y-4.1928
X1.0851 Y-4.1634
X1.2226 Y-4.1295
X1.3591 Y-4.0910
X1.4943 Y-4.0480
X1.6282 Y-4.0005
X1.7606 Y-3.9486
X1.8913 Y-3.8923
X2.0203 Y-3.8316
X2.1473 Y-3.7667
X2.2722 Y-3.6976
X2.3948 Y-3.6243
X2.5152 Y-3.5470
X2.6330 Y-3.4657
X2.7482 Y-3.3804
X2.8606 Y-3.2913
X2.9701 Y-3.1985
X3.0766 Y-3.1020
X3.1800 Y-3.0020
X3.2801 Y-2.8986
X3.3769 Y-2.7917
X3.4702 Y-2.6817
X3.5599 Y-2.5686
X3.6459 Y-2.4524
X3.7281 Y-2.3334
X3.8064 Y-2.2116
X3.8808 Y-2.0871
X3.9510 Y-1.9602
X4.0151 Y-1.8300
G03X-4.0151Y1.8300I-4.0151J1.8300
X4.0151Y-1.8300I4.0151J-1.8300
G01 X0.5000 Y0.0000
X0.0870 Y0.4923
X0.0683 Y0.4953 Z-1.5616
X0.0474 Y0.4978 Z-1.5683
X0.0263 Y0.4993 Z-1.5750
X0.0053 Y0.5000 Z-1.5817
X-0.0158 Y0.4998 Z-1.5884
X-0.0369 Y0.4986 Z-1.5951
X-0.0579 Y0.4966 Z-1.6018
X-0.0787 Y0.4938 Z-1.6086
X-0.0995 Y0.4900 Z-1.6153
X-0.1201 Y0.4854 Z-1.6220
X-0.1404 Y0.4799 Z-1.6287
X-0.1605 Y0.4735 Z-1.6354
X-0.1803 Y0.4663 Z-1.6421
X-0.1998 Y0.4583 Z-1.6488
X-0.2190 Y0.4495 Z-1.6555
X-0.2377 Y0.4399 Z-1.6622
X-0.2561 Y0.4295 Z-1.6690
X-0.2739 Y0.4183 Z-1.6757
X-0.2913 Y0.4064 Z-1.6824
X-0.3082 Y0.3937 Z-1.6891
X-0.3245 Y0.3804 Z-1.6958
X-0.3403 Y0.3664 Z-1.7025
X-0.3554 Y0.3517 Z-1.7092
X-0.3699 Y0.3364 Z-1.7159
X-0.3838 Y0.3205 Z-1.7226
X-0.3969 Y0.3040 Z-1.7294
X-0.4094 Y0.2870 Z-1.7361
X-0.4211 Y0.2695 Z-1.7428
X-0.4321 Y0.2515 Z-1.7495
X-0.4424 Y0.2331 Z-1.7562
X-0.4518 Y0.2142 Z-1.7629
X-0.4604 Y0.1950 Z-1.7696
X-0.4682 Y0.1754 Z-1.7763
X-0.4752 Y0.1555 Z-1.7830
X-0.4813 Y0.1353 Z-1.7897
X-0.4866 Y0.1149 Z-1.7965
X-0.4910 Y0.0943 Z-1.8032
X-0.4946 Y0.0735 Z-1.8099
X-0.4972 Y0.0526 Z-1.8166
X-0.4990 Y0.0316 Z-1.8233
X-0.4999 Y0.0105 Z-1.8300
Y-0.0105 Z-1.8367
X-0.4990 Y-0.0316 Z-1.8434
X-0.4972 Y-0.0526 Z-1.8501
X-0.4946 Y-0.0735 Z-1.8569
X-0.4910 Y-0.0943 Z-1.8636
X-0.4866 Y-0.1149 Z-1.8703
X-0.4813 Y-0.1353 Z-1.8770
X-0.4752 Y-0.1555 Z-1.8837
X-0.4682 Y-0.1754 Z-1.8904
X-0.4604 Y-0.1950 Z-1.8971
X-0.4518 Y-0.2142 Z-1.9038
X-0.4424 Y-0.2331 Z-1.9105
X-0.4321 Y-0.2515 Z-1.9173
X-0.4211 Y-0.2695 Z-1.9240
X-0.4094 Y-0.2870 Z-1.9307
X-0.3969 Y-0.3040 Z-1.9374
X-0.3838 Y-0.3205 Z-1.9441
X-0.3699 Y-0.3364 Z-1.9508
X-0.3554 Y-0.3517 Z-1.9575
X-0.3403 Y-0.3664 Z-1.9642
X-0.3245 Y-0.3804 Z-1.9709
X-0.3082 Y-0.3937 Z-1.9777
X-0.2913 Y-0.4064 Z-1.9844
X-0.2739 Y-0.4183 Z-1.9911
X-0.2561 Y-0.4295 Z-1.9978
X-0.2377 Y-0.4399 Z-2.0045
X-0.2190 Y-0.4495 Z-2.0112
X-0.1998 Y-0.4583 Z-2.0179
X-0.1803 Y-0.4663 Z-2.0246
X-0.1605 Y-0.4735 Z-2.0313
X-0.1404 Y-0.4799 Z-2.0381
X-0.1201 Y-0.4854 Z-2.0448
X-0.0995 Y-0.4900 Z-2.0515
X-0.0787 Y-0.4938 Z-2.0582
X-0.0579 Y-0.4966 Z-2.0649
X-0.0369 Y-0.4986 Z-2.0716
X-0.0158 Y-0.4998 Z-2.0783
X0.0053 Y-0.5000 Z-2.0850
X0.0263 Y-0.4993 Z-2.0917
X0.0474 Y-0.4978 Z-2.0985
X0.0683 Y-0.4953 Z-2.1052
X0.0891 Y-0.4920 Z-2.1119
X0.1098 Y-0.4878 Z-2.1186
X0.1303 Y-0.4827 Z-2.1253
X0.1505 Y-0.4768 Z-2.1320
X0.1705 Y-0.4700 Z-2.1387
X0.1901 Y-0.4624 Z-2.1454
X0.2094 Y-0.4540 Z-2.1521
X0.2284 Y-0.4448 Z-2.1589
X0.2470 Y-0.4348 Z-2.1656
X0.2651 Y-0.4240 Z-2.1723
X0.2827 Y-0.4124 Z-2.1790
X0.2998 Y-0.4001 Z-2.1857
X0.3164 Y-0.3871 Z-2.1924
X0.3325 Y-0.3734 Z-2.1991
X0.3479 Y-0.3591 Z-2.2058
X0.3627 Y-0.3441 Z-2.2125
X0.3769 Y-0.3285 Z-2.2192
X0.3904 Y-0.3123 Z-2.2260
X0.4033 Y-0.2956 Z-2.2327
X0.4154 Y-0.2783 Z-2.2394
X0.4267 Y-0.2606 Z-2.2461
X0.4373 Y-0.2424 Z-2.2528
X0.4472 Y-0.2237 Z-2.2595
X0.4562 Y-0.2047 Z-2.2662
X0.4644 Y-0.1852 Z-2.2729
X0.4718 Y-0.1655 Z-2.2796
X0.4784 Y-0.1455 Z-2.2864
X0.4841 Y-0.1252 Z-2.2931
X0.4889 Y-0.1046 Z-2.2998
X0.4929 Y-0.0839 Z-2.3065
X0.4960 Y-0.0631 Z-2.3132
X0.4982 Y-0.0421 Z-2.3199
X0.4996 Y-0.0211 Z-2.3266
X0.5000 Y0.0000 Z-2.3333
X0.5092 Y0.0452
X0.5142 Y0.0920
X0.5148 Y0.1400
X0.5109 Y0.1888
X0.5024 Y0.2380
X0.4890 Y0.2872
X0.4708 Y0.3357
X0.4478 Y0.3833
X0.4200 Y0.4294
X0.3875 Y0.4735
X0.3504 Y0.5151
X0.3089 Y0.5538
X0.2633 Y0.5892
X0.2139 Y0.6207
X0.1609 Y0.6480
X0.1047 Y0.6707
X0.0458 Y0.6885
X-0.0155 Y0.7011
X-0.0786 Y0.7081
X-0.1431 Y0.7093
X-0.2084 Y0.7046
X-0.2740 Y0.6938
X-0.3392 Y0.6769
X-0.4036 Y0.6538
X-0.4665 Y0.6245
X-0.5273 Y0.5891
X-0.5855 Y0.5479
X-0.6404 Y0.5009
X-0.6916 Y0.4484
X-0.7384 Y0.3907
X-0.7803 Y0.3283
X-0.8169 Y0.2614
X-0.8477 Y0.1907
X-0.8724 Y0.1165
X-0.8904 Y0.0394
X-0.9016 Y-0.0399
X-0.9056 Y-0.1209
X-0.9023 Y-0.2029
X-0.8915 Y-0.2853
X-0.8731 Y-0.3673
X-0.8471 Y-0.4483
X-0.8135 Y-0.5275
X-0.7725 Y-0.6042
X-0.7243 Y-0.6777
X-0.6690 Y-0.7474
X-0.6070 Y-0.8126
X-0.5387 Y-0.8725
X-0.4645 Y-0.9267
X-0.3849 Y-0.9746
X-0.3004 Y-1.0155
X-0.2117 Y-1.0490
X-0.1194 Y-1.0747
X-0.0242 Y-1.0923
X0.0732 Y-1.1013
X0.1720 Y-1.1015
X0.2713 Y-1.0929
X0.3705 Y-1.0752
X0.4687 Y-1.0484
X0.5649 Y-1.0127
X0.6585 Y-0.9680
X0.7486 Y-0.9147
X0.8343 Y-0.8530
X0.9149 Y-0.7832
X0.9896 Y-0.7057
X1.0578 Y-0.6212
X1.1186 Y-0.5300
X1.1716 Y-0.4330
X1.2161 Y-0.3307
X1.2515 Y-0.2239
X1.2776 Y-0.1134
X1.2937 Y0.0000
X1.2988 Y0.0723
X1.2997 Y0.1451
X1.2966 Y0.2183
X1.2893 Y0.2916
X1.2778 Y0.3647
X1.2622 Y0.4375
X1.2425 Y0.5096
X1.2186 Y0.5809
X1.1906 Y0.6511
X1.1585 Y0.7199
X1.1225 Y0.7873
X1.0825 Y0.8528
X1.0387 Y0.9162
X0.9912 Y0.9775
X0.9400 Y1.0363
X0.8854 Y1.0924
X0.8275 Y1.1456
X0.7663 Y1.1957
X0.7021 Y1.2426
X0.6351 Y1.2860
X0.5654 Y1.3257
X0.4932 Y1.3617
X0.4188 Y1.3937
X0.3424 Y1.4217
X0.2641 Y1.4454
X0.1842 Y1.4648
X0.1030 Y1.4798
X0.0207 Y1.4903
X-0.0624 Y1.4962
X-0.1462 Y1.4974
X-0.2302 Y1.4939
X-0.3143 Y1.4856
X-0.3983 Y1.4727
X-0.4817 Y1.4549
X-0.5644 Y1.4324
X-0.6460 Y1.4052
X-0.7264 Y1.3734
X-0.8053 Y1.3369
X-0.8823 Y1.2959
X-0.9572 Y1.2504
X-1.0298 Y1.2006
X-1.0998 Y1.1466
X-1.1669 Y1.0885
X-1.2310 Y1.0265
X-1.2918 Y0.9607
X-1.3490 Y0.8913
X-1.4026 Y0.8185
X-1.4521 Y0.7424
X-1.4976 Y0.6634
X-1.5387 Y0.5817
X-1.5753 Y0.4974
X-1.6074 Y0.4108
X-1.6346 Y0.3222
X-1.6569 Y0.2318
X-1.6742 Y0.1400
X-1.6865 Y0.0469
X-1.6935 Y-0.0471
X-1.6952 Y-0.1417
X-1.6917 Y-0.2367
X-1.6828 Y-0.3317
X-1.6686 Y-0.4264
X-1.6490 Y-0.5206
X-1.6241 Y-0.6140
X-1.5939 Y-0.7061
X-1.5585 Y-0.7968
X-1.5178 Y-0.8857
X-1.4721 Y-0.9726
X-1.4214 Y-1.0571
X-1.3659 Y-1.1389
X-1.3056 Y-1.2179
X-1.2408 Y-1.2936
X-1.1715 Y-1.3659
X-1.0981 Y-1.4345
X-1.0206 Y-1.4991
X-0.9394 Y-1.5595
X-0.8545 Y-1.6155
X-0.7663 Y-1.6669
X-0.6751 Y-1.7135
X-0.5810 Y-1.7550
X-0.4844 Y-1.7913
X-0.3856 Y-1.8224
X-0.2848 Y-1.8479
X-0.1823 Y-1.8679
X-0.0785 Y-1.8822
X0.0263 Y-1.8906
X0.1318 Y-1.8933
X0.2377 Y-1.8900
X0.3436 Y-1.8808
X0.4493 Y-1.8656
X0.5543 Y-1.8445
X0.6583 Y-1.8174
X0.7610 Y-1.7845
X0.8622 Y-1.7457
X0.9613 Y-1.7012
X1.0581 Y-1.6511
X1.1524 Y-1.5954
X1.2437 Y-1.5344
X1.3318 Y-1.4681
X1.4163 Y-1.3967
X1.4970 Y-1.3205
X1.5736 Y-1.2396
X1.6458 Y-1.1543
X1.7134 Y-1.0648
X1.7761 Y-0.9713
X1.8336 Y-0.8741
X1.8859 Y-0.7735
X1.9326 Y-0.6698
X1.9736 Y-0.5633
X2.0087 Y-0.4543
X2.0377 Y-0.3431
X2.0606 Y-0.2301
X2.0773 Y-0.1156
X2.0875 Y0.0000
X2.0910 Y0.0913
X2.0905 Y0.1829
X2.0860 Y0.2746
X2.0775 Y0.3663
X2.0649 Y0.4578
X2.0483 Y0.5488
X2.0277 Y0.6393
X2.0030 Y0.7290
X1.9744 Y0.8178
X1.9419 Y0.9055
X1.9054 Y0.9919
X1.8651 Y1.0768
X1.8210 Y1.1601
X1.7732 Y1.2416
X1.7217 Y1.3211
X1.6667 Y1.3985
X1.6082 Y1.4736
X1.5462 Y1.5462
X1.4810 Y1.6163
X1.4127 Y1.6836
X1.3413 Y1.7480
X1.2669 Y1.8093
X1.1897 Y1.8675
X1.1099 Y1.9224
X1.0275 Y1.9739
X0.9428 Y2.0218
X0.8558 Y2.0661
X0.7668 Y2.1066
X0.6758 Y2.1433
X0.5831 Y2.1761
X0.4888 Y2.2048
X0.3931 Y2.2295
X0.2962 Y2.2500
X0.1983 Y2.2663
X0.0995 Y2.2783
X0.0000 Y2.2859
X-0.1000 Y2.2893
X-0.2002 Y2.2882
X-0.3005 Y2.2828
X-0.4008 Y2.2729
X-0.5007 Y2.2587
X-0.6002 Y2.2400
X-0.6990 Y2.2169
X-0.7969 Y2.1895
X-0.8938 Y2.1578
X-0.9894 Y2.1217
X-1.0835 Y2.0814
X-1.1760 Y2.0370
X-1.2667 Y1.9884
X-1.3554 Y1.9357
X-1.4419 Y1.8792
X-1.5261 Y1.8187
X-1.6077 Y1.7545
X-1.6866 Y1.6866
X-1.7626 Y1.6151
X-1.8356 Y1.5402
X-1.9054 Y1.4621
X-1.9719 Y1.3807
X-2.0349 Y1.2964
X-2.0942 Y1.2091
X-2.1499 Y1.1192
X-2.2017 Y1.0266
X-2.2494 Y0.9317
X-2.2931 Y0.8346
X-2.3326 Y0.7355
X-2.3678 Y0.6344
X-2.3986 Y0.5318
X-2.4249 Y0.4276
X-2.4467 Y0.3221
X-2.4639 Y0.2156
X-2.4765 Y0.1081
X-2.4844 Y0.0000
X-2.4875 Y-0.1086
X-2.4859 Y-0.2175
X-2.4795 Y-0.3264
X-2.4683 Y-0.4352
X-2.4524 Y-0.5437
X-2.4317 Y-0.6516
X-2.4062 Y-0.7587
X-2.3760 Y-0.8648
X-2.3411 Y-0.9697
X-2.3016 Y-1.0732
X-2.2575 Y-1.1752
X-2.2088 Y-1.2753
X-2.1557 Y-1.3734
X-2.0983 Y-1.4692
X-2.0366 Y-1.5627
X-1.9707 Y-1.6536
X-1.9008 Y-1.7417
X-1.8269 Y-1.8269
X-1.7492 Y-1.9089
X-1.6678 Y-1.9876
X-1.5829 Y-2.0628
X-1.4945 Y-2.1344
X-1.4030 Y-2.2022
X-1.3083 Y-2.2661
X-1.2108 Y-2.3259
X-1.1105 Y-2.3815
X-1.0077 Y-2.4328
X-0.9025 Y-2.4796
X-0.7951 Y-2.5218
X-0.6858 Y-2.5595
X-0.5747 Y-2.5923
X-0.4620 Y-2.6203
X-0.3480 Y-2.6435
X-0.2329 Y-2.6616
X-0.1168 Y-2.6748
X0.0000 Y-2.6828
X0.1173 Y-2.6858
X0.2348 Y-2.6836
X0.3523 Y-2.6763
X0.4697 Y-2.6638
X0.5866 Y-2.6461
X0.7029 Y-2.6233
X0.8183 Y-2.5954
X0.9327 Y-2.5625
X1.0457 Y-2.5244
X1.1571 Y-2.4814
X1.2668 Y-2.4335
X1.3745 Y-2.3807
X1.4800 Y-2.3231
X1.5831 Y-2.2608
X1.6835 Y-2.1940
X1.7812 Y-2.1227
X1.8758 Y-2.0471
X1.9672 Y-1.9672
X2.0552 Y-1.8832
X2.1396 Y-1.7953
X2.2203 Y-1.7037
X2.2970 Y-1.6084
X2.3696 Y-1.5096
X2.4380 Y-1.4076
X2.5019 Y-1.3024
X2.5613 Y-1.1944
X2.6161 Y-1.0836
X2.6661 Y-0.9704
X2.7111 Y-0.8548
X2.7511 Y-0.7372
X2.7860 Y-0.6177
X2.8158 Y-0.4965
X2.8402 Y-0.3739
X2.8593 Y-0.2502
X2.8730 Y-0.1254
X2.8812 Y0.0000
X2.8840 Y0.1073
X2.8827 Y0.2147
X2.8774 Y0.3223
X2.8680 Y0.4297
X2.8547 Y0.5369
X2.8373 Y0.6436
X2.8160 Y0.7499
X2.7907 Y0.8554
X2.7614 Y0.9601
X2.7282 Y1.0638
X2.6910 Y1.1663
X2.6501 Y1.2675
X2.6053 Y1.3674
X2.5567 Y1.4656
X2.5045 Y1.5621
X2.4486 Y1.6567
X2.3891 Y1.7494
X2.3261 Y1.8399
X2.2597 Y1.9281
X2.1899 Y2.0140
X2.1169 Y2.0973
X2.0407 Y2.1779
X1.9614 Y2.2558
X1.8791 Y2.3308
X1.7940 Y2.4028
X1.7061 Y2.4717
X1.6156 Y2.5374
X1.5225 Y2.5997
X1.4271 Y2.6587
X1.3293 Y2.7141
X1.2294 Y2.7659
X1.1275 Y2.8141
X1.0237 Y2.8585
X0.9182 Y2.8990
X0.8110 Y2.9357
X0.7024 Y2.9684
X0.5925 Y2.9970
X0.4815 Y3.0216
X0.3694 Y3.0421
X0.2564 Y3.0584
X0.1428 Y3.0705
X0.0286 Y3.0784
X-0.0860 Y3.0820
X-0.2008 Y3.0814
X-0.3156 Y3.0765
X-0.4304 Y3.0672
X-0.5450 Y3.0538
X-0.6591 Y3.0360
X-0.7727 Y3.0139
X-0.8855 Y2.9876
X-0.9974 Y2.9571
X-1.1083 Y2.9224
X-1.2180 Y2.8835
X-1.3263 Y2.8405
X-1.4331 Y2.7934
X-1.5383 Y2.7423
X-1.6416 Y2.6872
X-1.7429 Y2.6283
X-1.8422 Y2.5655
X-1.9391 Y2.4989
X-2.0337 Y2.4287
X-2.1257 Y2.3550
X-2.2150 Y2.2777
X-2.3016 Y2.1970
X-2.3852 Y2.1131
X-2.4657 Y2.0259
X-2.5430 Y1.9357
X-2.6171 Y1.8426
X-2.6877 Y1.7466
X-2.7548 Y1.6479
X-2.8182 Y1.5466
X-2.8780 Y1.4429
X-2.9339 Y1.3369
X-2.9859 Y1.2287
X-3.0339 Y1.1185
X-3.0778 Y1.0064
X-3.1176 Y0.8926
X-3.1532 Y0.7772
X-3.1845 Y0.6604
X-3.2115 Y0.5424
X-3.2341 Y0.4232
X-3.2523 Y0.3032
X-3.2660 Y0.1823
X-3.2752 Y0.0609
X-3.2799 Y-0.0610
X-3.2801 Y-0.1831
X-3.2757 Y-0.3053
X-3.2667 Y-0.4275
X-3.2532 Y-0.5494
X-3.2351 Y-0.6709
X-3.2125 Y-0.7918
X-3.1854 Y-0.9120
X-3.1537 Y-1.0312
X-3.1176 Y-1.1493
X-3.0771 Y-1.2662
X-3.0322 Y-1.3817
X-2.9829 Y-1.4955
X-2.9294 Y-1.6076
X-2.8717 Y-1.7178
X-2.8098 Y-1.8259
X-2.7438 Y-1.9318
X-2.6738 Y-2.0353
X-2.6000 Y-2.1363
X-2.5223 Y-2.2345
X-2.4409 Y-2.3300
X-2.3558 Y-2.4225
X-2.2673 Y-2.5118
X-2.1754 Y-2.5980
X-2.0802 Y-2.6808
X-1.9819 Y-2.7600
X-1.8805 Y-2.8357
X-1.7763 Y-2.9077
X-1.6692 Y-2.9758
X-1.5596 Y-3.0399
X-1.4475 Y-3.1001
X-1.3331 Y-3.1561
X-1.2166 Y-3.2078
X-1.0980 Y-3.2553
X-0.9776 Y-3.2983
X-0.8555 Y-3.3370
X-0.7318 Y-3.3710
X-0.6069 Y-3.4005
X-0.4807 Y-3.4254
X-0.3535 Y-3.4456
X-0.2255 Y-3.4610
X-0.0968 Y-3.4717
X0.0323 Y-3.4776
X0.1618 Y-3.4787
X0.2914 Y-3.4749
X0.4209 Y-3.4664
X0.5502 Y-3.4530
X0.6791 Y-3.4347
X0.8073 Y-3.4117
X0.9349 Y-3.3839
X1.0614 Y-3.3512
X1.1868 Y-3.3139
X1.3109 Y-3.2719
X1.4335 Y-3.2252
X1.5545 Y-3.1739
X1.6736 Y-3.1180
X1.7907 Y-3.0577
X1.9057 Y-2.9930
X2.0183 Y-2.9240
X2.1284 Y-2.8507
X2.2358 Y-2.7733
X2.3404 Y-2.6918
X2.4421 Y-2.6064
X2.5406 Y-2.5171
X2.6359 Y-2.4241
X2.7277 Y-2.3275
X2.8160 Y-2.2274
X2.9007 Y-2.1240
X2.9815 Y-2.0173
X3.0584 Y-1.9076
X3.1313 Y-1.7949
X3.2000 Y-1.6795
X3.2644 Y-1.5614
X3.3245 Y-1.4409
X3.3802 Y-1.3180
X3.4313 Y-1.1930
X3.4777 Y-1.0660
X3.5195 Y-0.9372
X3.5565 Y-0.8068
X3.5886 Y-0.6749
X3.6159 Y-0.5417
X3.6382 Y-0.4075
X3.6555 Y-0.2723
X3.6678 Y-0.1364
X3.6750 Y0.0000
X3.6772 Y0.1210
X3.6753 Y0.2422
X3.6695 Y0.3633
X3.6597 Y0.4844
X3.6459 Y0.6051
X3.6281 Y0.7256
X3.6063 Y0.8454
X3.5806 Y0.9647
X3.5509 Y1.0831
X3.5173 Y1.2007
X3.4798 Y1.3172
X3.4384 Y1.4325
X3.3932 Y1.5466
X3.3442 Y1.6592
X3.2915 Y1.7702
X3.2351 Y1.8796
X3.1750 Y1.9872
X3.1114 Y2.0929
X3.0443 Y2.1965
X2.9737 Y2.2980
X2.8997 Y2.3972
X2.8224 Y2.4940
X2.7418 Y2.5884
X2.6581 Y2.6801
X2.5714 Y2.7691
X2.4816 Y2.8553
X2.3890 Y2.9386
X2.2936 Y3.0189
X2.1954 Y3.0961
X2.0947 Y3.1701
X1.9915 Y3.2408
X1.8859 Y3.3082
X1.7780 Y3.3721
X1.6679 Y3.4325
X1.5558 Y3.4893
X1.4418 Y3.5424
X1.3259 Y3.5918
X1.2084 Y3.6375
X1.0893 Y3.6792
X0.9687 Y3.7171
X0.8469 Y3.7510
X0.7238 Y3.7809
X0.5997 Y3.8067
X0.4747 Y3.8285
X0.3489 Y3.8462
X0.2224 Y3.8598
X0.0955 Y3.8691
X-0.0319 Y3.8743
X-0.1594 Y3.8754
X-0.2871 Y3.8722
X-0.4148 Y3.8647
X-0.5422 Y3.8531
X-0.6694 Y3.8373
X-0.7961 Y3.8173
X-0.9222 Y3.7931
X-1.0476 Y3.7647
X-1.1721 Y3.7322
X-1.2956 Y3.6955
X-1.4179 Y3.6548
X-1.5390 Y3.6100
X-1.6586 Y3.5612
X-1.7767 Y3.5084
X-1.8932 Y3.4517
X-2.0078 Y3.3912
X-2.1205 Y3.3268
X-2.2311 Y3.2587
X-2.3395 Y3.1869
X-2.4456 Y3.1115
X-2.5493 Y3.0325
X-2.6505 Y2.9501
X-2.7489 Y2.8644
X-2.8446 Y2.7753
X-2.9375 Y2.6831
X-3.0273 Y2.5877
X-3.1140 Y2.4893
X-3.1975 Y2.3880
X-3.2777 Y2.2840
X-3.3546 Y2.1772
X-3.4279 Y2.0678
X-3.4977 Y1.9560
X-3.5638 Y1.8418
X-3.6262 Y1.7254
X-3.6848 Y1.6068
X-3.7395 Y1.4863
X-3.7903 Y1.3639
X-3.8371 Y1.2398
X-3.8798 Y1.1140
X-3.9183 Y0.9868
X-3.9527 Y0.8583
X-3.9829 Y0.7286
X-4.0088 Y0.5978
X-4.0305 Y0.4661
X-4.0478 Y0.3336
X-4.0607 Y0.2005
X-4.0692 Y0.0669
X-4.0734 Y-0.0670
X-4.0731 Y-0.2011
X-4.0685 Y-0.3353
X-4.0594 Y-0.4695
X-4.0458 Y-0.6033
X-4.0279 Y-0.7368
X-4.0055 Y-0.8698
X-3.9788 Y-1.0021
X-3.9477 Y-1.1335
X-3.9122 Y-1.2640
X-3.8724 Y-1.3934
X-3.8284 Y-1.5216
X-3.7801 Y-1.6483
X-3.7276 Y-1.7736
X-3.6709 Y-1.8971
X-3.6101 Y-2.0189
X-3.5453 Y-2.1386
X-3.4766 Y-2.2564
X-3.4039 Y-2.3719
X-3.3274 Y-2.4850
X-3.2471 Y-2.5957
X-3.1631 Y-2.7038
X-3.0755 Y-2.8092
X-2.9845 Y-2.9117
X-2.8899 Y-3.0113
X-2.7921 Y-3.1078
X-2.6911 Y-3.2011
X-2.5869 Y-3.2912
X-2.4797 Y-3.3778
X-2.3696 Y-3.4610
X-2.2567 Y-3.5406
X-2.1412 Y-3.6165
X-2.0231 Y-3.6886
X-1.9025 Y-3.7568
X-1.7797 Y-3.8211
X-1.6547 Y-3.8814
X-1.5276 Y-3.9376
X-1.3987 Y-3.9897
X-1.2679 Y-4.0375
X-1.1356 Y-4.0810
X-1.0017 Y-4.1202
X-0.8665 Y-4.1549
X-0.7301 Y-4.1853
X-0.5926 Y-4.2112
X-0.4542 Y-4.2325
X-0.3151 Y-4.2493
X-0.1753 Y-4.2615
X-0.0351 Y-4.2691
X0.1054 Y-4.2721
X0.2461 Y-4.2705
X0.3868 Y-4.2642
X0.5274 Y-4.2533
X0.6676 Y-4.2378
X0.8074 Y-4.2176
X0.9466 Y-4.1928
X1.0851 Y-4.1634
X1.2226 Y-4.1295
X1.3591 Y-4.0910
X1.4943 Y-4.0480
X1.6282 Y-4.0005
X1.7606 Y-3.9486
X1.8913 Y-3.8923
X2.0203 Y-3.8316
X2.1473 Y-3.7667
X2.2722 Y-3.6976
X2.3948 Y-3.6243
X2.5152 Y-3.5470
X2.6330 Y-3.4657
X2.7482 Y-3.3804
X2.8606 Y-3.2913
X2.9701 Y-3.1985
X3.0766 Y-3.1020
X3.1800 Y-3.0020
X3.2801 Y-2.8986
X3.3769 Y-2.7917
X3.4702 Y-2.6817
X3.5599 Y-2.5686
X3.6459 Y-2.4524
X3.7281 Y-2.3334
X3.8064 Y-2.2116
X3.8808 Y-2.0871
X3.9510 Y-1.9602
X4.0151 Y-1.8300
G03X-4.0151Y1.8300I-4.0151J1.8300
X4.0151Y-1.8300I4.0151J-1.8300
G01 X0.5000 Y0.0000
X0.0870 Y0.4923
X0.0683 Y0.4953 Z-2.3394
X0.0474 Y0.4978 Z-2.3461
X0.0263 Y0.4993 Z-2.3528
X0.0053 Y0.5000 Z-2.3595
X-0.0158 Y0.4998 Z-2.3662
X-0.0369 Y0.4986 Z-2.3729
X-0.0579 Y0.4966 Z-2.3796
X-0.0787 Y0.4938 Z-2.3863
X-0.0995 Y0.4900 Z-2.3930
X-0.1201 Y0.4854 Z-2.3998
X-0.1404 Y0.4799 Z-2.4065
X-0.1605 Y0.4735 Z-2.4132
X-0.1803 Y0.4663 Z-2.4199
X-0.1998 Y0.4583 Z-2.4266
X-0.2190 Y0.4495 Z-2.4333
X-0.2377 Y0.4399 Z-2.4400
X-0.2561 Y0.4295 Z-2.4467
X-0.2739 Y0.4183 Z-2.4534
X-0.2913 Y0.4064 Z-2.4602
X-0.3082 Y0.3937 Z-2.4669
X-0.3245 Y0.3804 Z-2.4736
X-0.3403 Y0.3664 Z-2.4803
X-0.3554 Y0.3517 Z-2.4870
X-0.3699 Y0.3364 Z-2.4937
X-0.3838 Y0.3205 Z-2.5004
X-0.3969 Y0.3040 Z-2.5071
X-0.4094 Y0.2870 Z-2.5138
X-0.4211 Y0.2695 Z-2.5206
X-0.4321 Y0.2515 Z-2.5273
X-0.4424 Y0.2331 Z-2.5340
X-0.4518 Y0.2142 Z-2.5407
X-0.4604 Y0.1950 Z-2.5474
X-0.4682 Y0.1754 Z-2.5541
X-0.4752 Y0.1555 Z-2.5608
X-0.4813 Y0.1353 Z-2.5675
X-0.4866 Y0.1149 Z-2.5742
X-0.4910 Y0.0943 Z-2.5809
X-0.4946 Y0.0735 Z-2.5877
X-0.4972 Y0.0526 Z-2.5944
X-0.4990 Y0.0316 Z-2.6011
X-0.4999 Y0.0105 Z-2.6078
Y-0.0105 Z-2.6145
X-0.4990 Y-0.0316 Z-2.6212
X-0.4972 Y-0.0526 Z-2.6279
X-0.4946 Y-0.0735 Z-2.6346
X-0.4910 Y-0.0943 Z-2.6413
X-0.4866 Y-0.1149 Z-2.6481
X-0.4813 Y-0.1353 Z-2.6548
X-0.4752 Y-0.1555 Z-2.6615
X-0.4682 Y-0.1754 Z-2.6682
X-0.4604 Y-0.1950 Z-2.6749
X-0.4518 Y-0.2142 Z-2.6816
X-0.4424 Y-0.2331 Z-2.6883
X-0.4321 Y-0.2515 Z-2.6950
X-0.4211 Y-0.2695 Z-2.7017
X-0.4094 Y-0.2870 Z-2.7085
X-0.3969 Y-0.3040 Z-2.7152
X-0.3838 Y-0.3205 Z-2.7219
X-0.3699 Y-0.3364 Z-2.7286
X-0.3554 Y-0.3517 Z-2.7353
X-0.3403 Y-0.3664 Z-2.7420
X-0.3245 Y-0.3804 Z-2.7487
X-0.3082 Y-0.3937 Z-2.7554
X-0.2913 Y-0.4064 Z-2.7621
X-0.2739 Y-0.4183 Z-2.7689
X-0.2561 Y-0.4295 Z-2.7756
X-0.2377 Y-0.4399 Z-2.7823
X-0.2190 Y-0.4495 Z-2.7890
X-0.1998 Y-0.4583 Z-2.7957
X-0.1803 Y-0.4663 Z-2.8024
X-0.1605 Y-0.4735 Z-2.8091
X-0.1404 Y-0.4799 Z-2.8158
X-0.1201 Y-0.4854 Z-2.8225
X-0.0995 Y-0.4900 Z-2.8293
X-0.0787 Y-0.4938 Z-2.8360
X-0.0579 Y-0.4966 Z-2.8427
X-0.0369 Y-0.4986 Z-2.8494
X-0.0158 Y-0.4998 Z-2.8561
X0.0053 Y-0.5000 Z-2.8628
X0.0263 Y-0.4993 Z-2.8695
X0.0474 Y-0.4978 Z-2.8762
X0.0683 Y-0.4953 Z-2.8829
X0.0891 Y-0.4920 Z-2.8897
X0.1098 Y-0.4878 Z-2.8964
X0.1303 Y-0.4827 Z-2.9031
X0.1505 Y-0.4768 Z-2.9098
X0.1705 Y-0.4700 Z-2.9165
X0.1901 Y-0.4624 Z-2.9232
X0.2094 Y-0.4540 Z-2.9299
X0.2284 Y-0.4448 Z-2.9366
X0.2470 Y-0.4348 Z-2.9433
X0.2651 Y-0.4240 Z-2.9500
X0.2827 Y-0.4124 Z-2.9568
X0.2998 Y-0.4001 Z-2.9635
X0.3164 Y-0.3871 Z-2.9702
X0.3325 Y-0.3734 Z-2.9769
X0.3479 Y-0.3591 Z-2.9836
X0.3627 Y-0.3441 Z-2.9903
X0.3769 Y-0.3285 Z-2.9970
X0.3904 Y-0.3123 Z-3.0037
X0.4033 Y-0.2956 Z-3.0104
X0.4154 Y-0.2783 Z-3.0172
X0.4267 Y-0.2606 Z-3.0239
X0.4373 Y-0.2424 Z-3.0306
X0.4472 Y-0.2237 Z-3.0373
X0.4562 Y-0.2047 Z-3.0440
X0.4644 Y-0.1852 Z-3.0507
X0.4718 Y-0.1655 Z-3.0574
X0.4784 Y-0.1455 Z-3.0641
X0.4841 Y-0.1252 Z-3.0708
X0.4889 Y-0.1046 Z-3.0776
X0.4929 Y-0.0839 Z-3.0843
X0.4960 Y-0.0631 Z-3.0910
X0.4982 Y-0.0421 Z-3.0977
X0.4996 Y-0.0211 Z-3.1044
X0.5000 Y0.0000 Z-3.1111
X0.5092 Y0.0452
X0.5142 Y0.0920
X0.5148 Y0.1400
X0.5109 Y0.1888
X0.5024 Y0.2380
X0.4890 Y0.2872
X0.4708 Y0.3357
X0.4478 Y0.3833
X0.4200 Y0.4294
X0.3875 Y0.4735
X0.3504 Y0.5151
X0.3089 Y0.5538
X0.2633 Y0.5892
X0.2139 Y0.6207
X0.1609 Y0.6480
X0.1047 Y0.6707
X0.0458 Y0.6885
X-0.0155 Y0.7011
X-0.0786 Y0.7081
X-0.1431 Y0.7093
X-0.2084 Y0.7046
X-0.2740 Y0.6938
X-0.3392 Y0.6769
X-0.4036 Y0.6538
X-0.4665 Y0.6245
X-0.5273 Y0.5891
X-0.5855 Y0.5479
X-0.6404 Y0.5009
X-0.6916 Y0.4484
X-0.7384 Y0.3907
X-0.7803 Y0.3283
X-0.8169 Y0.2614
X-0.8477 Y0.1907
X-0.8724 Y0.1165
X-0.8904 Y0.0394
X-0.9016 Y-0.0399
X-0.9056 Y-0.1209
X-0.9023 Y-0.2029
X-0.8915 Y-0.2853
X-0.8731 Y-0.3673
X-0.8471 Y-0.4483
X-0.8135 Y-0.5275
X-0.7725 Y-0.6042
X-0.7243 Y-0.6777
X-0.6690 Y-0.7474
X-0.6070 Y-0.8126
X-0.5387 Y-0.8725
X-0.4645 Y-0.9267
X-0.3849 Y-0.9746
X-0.3004 Y-1.0155
X-0.2117 Y-1.0490
X-0.1194 Y-1.0747
X-0.0242 Y-1.0923
X0.0732 Y-1.1013
X0.1720 Y-1.1015
X0.2713 Y-1.0929
X0.3705 Y-1.0752
X0.4687 Y-1.0484
X0.5649 Y-1.0127
X0.6585 Y-0.9680
X0.7486 Y-0.9147
X0.8343 Y-0.8530
X0.9149 Y-0.7832
X0.9896 Y-0.7057
X1.0578 Y-0.6212
X1.1186 Y-0.5300
X1.1716 Y-0.4330
X1.2161 Y-0.3307
X1.2515 Y-0.2239
X1.2776 Y-0.1134
X1.2937 Y0.0000
X1.2988 Y0.0723
X1.2997 Y0.1451
X1.2966 Y0.2183
X1.2893 Y0.2916
X1.2778 Y0.3647
X1.2622 Y0.4375
X1.2425 Y0.5096
X1.2186 Y0.5809
X1.1906 Y0.6511
X1.1585 Y0.7199
X1.1225 Y0.7873
X1.0825 Y0.8528
X1.0387 Y0.9162
X0.9912 Y0.9775
X0.9400 Y1.0363
X0.8854 Y1.0924
X0.8275 Y1.1456
X0.7663 Y1.1957
X0.7021 Y1.2426
X0.6351 Y1.2860
X0.5654 Y1.3257
X0.4932 Y1.3617
X0.4188 Y1.3937
X0.3424 Y1.4217
X0.2641 Y1.4454
X0.1842 Y1.4648
X0.1030 Y1.4798
X0.0207 Y1.4903
X-0.0624 Y1.4962
X-0.1462 Y1.4974
X-0.2302 Y1.4939
X-0.3143 Y1.4856
X-0.3983 Y1.4727
X-0.4817 Y1.4549
X-0.5644 Y1.4324
X-0.6460 Y1.4052
X-0.7264 Y1.3734
X-0.8053 Y1.3369
X-0.8823 Y1.2959
X-0.9572 Y1.2504
X-1.0298 Y1.2006
X-1.0998 Y1.1466
X-1.1669 Y1.0885
X-1.2310 Y1.0265
X-1.2918 Y0.9607
X-1.3490 Y0.8913
X-1.4026 Y0.8185
X-1.4521 Y0.7424
X-1.4976 Y0.6634
X-1.5387 Y0.5817
X-1.5753 Y0.4974
X-1.6074 Y0.4108
X-1.6346 Y0.3222
X-1.6569 Y0.2318
X-1.6742 Y0.1400
X-1.6865 Y0.0469
X-1.6935 Y-0.0471
X-1.6952 Y-0.1417
X-1.6917 Y-0.2367
X-1.6828 Y-0.3317
X-1.6686 Y-0.4264
X-1.6490 Y-0.5206
X-1.6241 Y-0.6140
X-1.5939 Y-0.7061
X-1.5585 Y-0.7968
X-1.5178 Y-0.8857
X-1.4721 Y-0.9726
X-1.4214 Y-1.0571
X-1.3659 Y-1.1389
X-1.3056 Y-1.2179
X-1.2408 Y-1.2936
X-1.1715 Y-1.3659
X-1.0981 Y-1.4345
X-1.0206 Y-1.4991
X-0.9394 Y-1.5595
X-0.8545 Y-1.6155
X-0.7663 Y-1.6669
X-0.6751 Y-1.7135
X-0.5810 Y-1.7550
X-0.4844 Y-1.7913
X-0.3856 Y-1.8224
X-0.2848 Y-1.8479
X-0.1823 Y-1.8679
X-0.0785 Y-1.8822
X0.0263 Y-1.8906
X0.1318 Y-1.8933
X0.2377 Y-1.8900
X0.3436 Y-1.8808
X0.4493 Y-1.8656
X0.5543 Y-1.8445
X0.6583 Y-1.8174
X0.7610 Y-1.7845
X0.8622 Y-1.7457
X0.9613 Y-1.7012
X1.0581 Y-1.6511
X1.1524 Y-1.5954
X1.2437 Y-1.5344
X1.3318 Y-1.4681
X1.4163 Y-1.3967
X1.4970 Y-1.3205
X1.5736 Y-1.2396
X1.6458 Y-1.1543
X1.7134 Y-1.0648
X1.7761 Y-0.9713
X1.8336 Y-0.8741
X1.8859 Y-0.7735
X1.9326 Y-0.6698
X1.9736 Y-0.5633
X2.0087 Y-0.4543
X2.0377 Y-0.3431
X2.0606 Y-0.2301
X2.0773 Y-0.1156
X2.0875 Y0.0000
X2.0910 Y0.0913
X2.0905 Y0.1829
X2.0860 Y0.2746
X2.0775 Y0.3663
X2.0649 Y0.4578
X2.0483 Y0.5488
X2.0277 Y0.6393
X2.0030 Y0.7290
X1.9744 Y0.8178
X1.9419 Y0.9055
X1.9054 Y0.9919
X1.8651 Y1.0768
X1.8210 Y1.1601
X1.7732 Y1.2416
X1.7217 Y1.3211
X1.6667 Y1.3985
X1.6082 Y1.4736
X1.5462 Y1.5462
X1.4810 Y1.6163
X1.4127 Y1.6836
X1.3413 Y1.7480
X1.2669 Y1.8093
X1.1897 Y1.8675
X1.1099 Y1.9224
X1.0275 Y1.9739
X0.9428 Y2.0218
X0.8558 Y2.0661
X0.7668 Y2.1066
X0.6758 Y2.1433
X0.5831 Y2.1761
X0.4888 Y2.2048
X0.3931 Y2.2295
X0.2962 Y2.2500
X0.1983 Y2.2663
X0.0995 Y2.2783
X0.0000 Y2.2859
X-0.1000 Y2.2893
X-0.2002 Y2.2882
X-0.3005 Y2.2828
X-0.4008 Y2.2729
X-0.5007 Y2.2587
X-0.6002 Y2.2400
X-0.6990 Y2.2169
X-0.7969 Y2.1895
X-0.8938 Y2.1578
X-0.9894 Y2.1217
X-1.0835 Y2.0814
X-1.1760 Y2.0370
X-1.2667 Y1.9884
X-1.3554 Y1.9357
X-1.4419 Y1.8792
X-1.5261 Y1.8187
X-1.6077 Y1.7545
X-1.6866 Y1.6866
X-1.7626 Y1.6151
X-1.8356 Y1.5402
X-1.9054 Y1.4621
X-1.9719 Y1.3807
X-2.0349 Y1.2964
X-2.0942 Y1.2091
X-2.1499 Y1.1192
X-2.2017 Y1.0266
X-2.2494 Y0.9317
X-2.2931 Y0.8346
X-2.3326 Y0.7355
X-2.3678 Y0.6344
X-2.3986 Y0.5318
X-2.4249 Y0.4276
X-2.4467 Y0.3221
X-2.4639 Y0.2156
X-2.4765 Y0.1081
X-2.4844 Y0.0000
X-2.4875 Y-0.1086
X-2.4859 Y-0.2175
X-2.4795 Y-0.3264
X-2.4683 Y-0.4352
X-2.4524 Y-0.5437
X-2.4317 Y-0.6516
X-2.4062 Y-0.7587
X-2.3760 Y-0.8648
X-2.3411 Y-0.9697
X-2.3016 Y-1.0732
X-2.2575 Y-1.1752
X-2.2088 Y-1.2753
X-2.1557 Y-1.3734
X-2.0983 Y-1.4692
X-2.0366 Y-1.5627
X-1.9707 Y-1.6536
X-1.9008 Y-1.7417
X-1.8269 Y-1.8269
X-1.7492 Y-1.9089
X-1.6678 Y-1.9876
X-1.5829 Y-2.0628
X-1.4945 Y-2.1344
X-1.4030 Y-2.2022
X-1.3083 Y-2.2661
X-1.2108 Y-2.3259
X-1.1105 Y-2.3815
X-1.0077 Y-2.4328
X-0.9025 Y-2.4796
X-0.7951 Y-2.5218
X-0.6858 Y-2.5595
X-0.5747 Y-2.5923
X-0.4620 Y-2.6203
X-0.3480 Y-2.6435
X-0.2329 Y-2.6616
X-0.1168 Y-2.6748
X0.0000 Y-2.6828
X0.1173 Y-2.6858
X0.2348 Y-2.6836
X0.3523 Y-2.6763
X0.4697 Y-2.6638
X0.5866 Y-2.6461
X0.7029 Y-2.6233
X0.8183 Y-2.5954
X0.9327 Y-2.5625
X1.0457 Y-2.5244
X1.1571 Y-2.4814
X1.2668 Y-2.4335
X1.3745 Y-2.3807
X1.4800 Y-2.3231
X1.5831 Y-2.2608
X1.6835 Y-2.1940
X1.7812 Y-2.1227
X1.8758 Y-2.0471
X1.9672 Y-1.9672
X2.0552 Y-1.8832
X2.1396 Y-1.7953
X2.2203 Y-1.7037
X2.2970 Y-1.6084
X2.3696 Y-1.5096
X2.4380 Y-1.4076
X2.5019 Y-1.3024
X2.5613 Y-1.1944
X2.6161 Y-1.0836
X2.6661 Y-0.9704
X2.7111 Y-0.8548
X2.7511 Y-0.7372
X2.7860 Y-0.6177
X2.8158 Y-0.4965
X2.8402 Y-0.3739
X2.8593 Y-0.2502
X2.8730 Y-0.1254
X2.8812 Y0.0000
X2.8840 Y0.1073
X2.8827 Y0.2147
X2.8774 Y0.3223
X2.8680 Y0.4297
X2.8547 Y0.5369
X2.8373 Y0.6436
X2.8160 Y0.7499
X2.7907 Y0.8554
X2.7614 Y0.9601
X2.7282 Y1.0638
X2.6910 Y1.1663
X2.6501 Y1.2675
X2.6053 Y1.3674
X2.5567 Y1.4656
X2.5045 Y1.5621
X2.4486 Y1.6567
X2.3891 Y1.7494
X2.3261 Y1.8399
X2.2597 Y1.9281
X2.1899 Y2.0140
X2.1169 Y2.0973
X2.0407 Y2.1779
X1.9614 Y2.2558
X1.8791 Y2.3308
X1.7940 Y2.4028
X1.7061 Y2.4717
X1.6156 Y2.5374
X1.5225 Y2.5997
X1.4271 Y2.6587
X1.3293 Y2.7141
X1.2294 Y2.7659
X1.1275 Y2.8141
X1.0237 Y2.8585
X0.9182 Y2.8990
X0.8110 Y2.9357
X0.7024 Y2.9684
X0.5925 Y2.9970
X0.4815 Y3.0216
X0.3694 Y3.0421
X0.2564 Y3.0584
X0.1428 Y3.0705
X0.0286 Y3.0784
X-0.0860 Y3.0820
X-0.2008 Y3.0814
X-0.3156 Y3.0765
X-0.4304 Y3.0672
X-0.5450 Y3.0538
X-0.6591 Y3.0360
X-0.7727 Y3.0139
X-0.8855 Y2.9876
X-0.9974 Y2.9571
X-1.1083 Y2.9224
X-1.2180 Y2.8835
X-1.3263 Y2.8405
X-1.4331 Y2.7934
X-1.5383 Y2.7423
X-1.6416 Y2.6872
X-1.7429 Y2.6283
X-1.8422 Y2.5655
X-1.9391 Y2.4989
X-2.0337 Y2.4287
X-2.1257 Y2.3550
X-2.2150 Y2.2777
X-2.3016 Y2.1970
X-2.3852 Y2.1131
X-2.4657 Y2.0259
X-2.5430 Y1.9357
X-2.6171 Y1.8426
X-2.6877 Y1.7466
X-2.7548 Y1.6479
X-2.8182 Y1.5466
X-2.8780 Y1.4429
X-2.9339 Y1.3369
X-2.9859 Y1.2287
X-3.0339 Y1.1185
X-3.0778 Y1.0064
X-3.1176 Y0.8926
X-3.1532 Y0.7772
X-3.1845 Y0.6604
X-3.2115 Y0.5424
X-3.2341 Y0.4232
X-3.2523 Y0.3032
X-3.2660 Y0.1823
X-3.2752 Y0.0609
X-3.2799 Y-0.0610
X-3.2801 Y-0.1831
X-3.2757 Y-0.3053
X-3.2667 Y-0.4275
X-3.2532 Y-0.5494
X-3.2351 Y-0.6709
X-3.2125 Y-0.7918
X-3.1854 Y-0.9120
X-3.1537 Y-1.0312
X-3.1176 Y-1.1493
X-3.0771 Y-1.2662
X-3.0322 Y-1.3817
X-2.9829 Y-1.4955
X-2.9294 Y-1.6076
X-2.8717 Y-1.7178
X-2.8098 Y-1.8259
X-2.7438 Y-1.9318
X-2.6738 Y-2.0353
X-2.6000 Y-2.1363
X-2.5223 Y-2.2345
X-2.4409 Y-2.3300
X-2.3558 Y-2.4225
X-2.2673 Y-2.5118
X-2.1754 Y-2.5980
X-2.0802 Y-2.6808
X-1.9819 Y-2.7600
X-1.8805 Y-2.8357
X-1.7763 Y-2.9077
X-1.6692 Y-2.9758
X-1.5596 Y-3.0399
X-1.4475 Y-3.1001
X-1.3331 Y-3.1561
X-1.2166 Y-3.2078
X-1.0980 Y-3.2553
X-0.9776 Y-3.2983
X-0.8555 Y-3.3370
X-0.7318 Y-3.3710
X-0.6069 Y-3.4005
X-0.4807 Y-3.4254
X-0.3535 Y-3.4456
X-0.2255 Y-3.4610
X-0.0968 Y-3.4717
X0.0323 Y-3.4776
X0.1618 Y-3.4787
X0.2914 Y-3.4749
X0.4209 Y-3.4664
X0.5502 Y-3.4530
X0.6791 Y-3.4347
X0.8073 Y-3.4117
X0.9349 Y-3.3839
X1.0614 Y-3.3512
X1.1868 Y-3.3139
X1.3109 Y-3.2719
X1.4335 Y-3.2252
X1.5545 Y-3.1739
X1.6736 Y-3.1180
X1.7907 Y-3.0577
X1.9057 Y-2.9930
X2.0183 Y-2.9240
X2.1284 Y-2.8507
X2.2358 Y-2.7733
X2.3404 Y-2.6918
X2.4421 Y-2.6064
X2.5406 Y-2.5171
X2.6359 Y-2.4241
X2.7277 Y-2.3275
X2.8160 Y-2.2274
X2.9007 Y-2.1240
X2.9815 Y-2.0173
X3.0584 Y-1.9076
X3.1313 Y-1.7949
X3.2000 Y-1.6795
X3.2644 Y-1.5614
X3.3245 Y-1.4409
X3.3802 Y-1.3180
X3.4313 Y-1.1930
X3.4777 Y-1.0660
X3.5195 Y-0.9372
X3.5565 Y-0.8068
X3.5886 Y-0.6749
X3.6159 Y-0.5417
X3.6382 Y-0.4075
X3.6555 Y-0.2723
X3.6678 Y-0.1364
X3.6750 Y0.0000
X3.6772 Y0.1210
X3.6753 Y0.2422
X3.6695 Y0.3633
X3.6597 Y0.4844
X3.6459 Y0.6051
X3.6281 Y0.7256
X3.6063 Y0.8454
X3.5806 Y0.9647
X3.5509 Y1.0831
X3.5173 Y1.2007
X3.4798 Y1.3172
X3.4384 Y1.4325
X3.3932 Y1.5466
X3.3442 Y1.6592
X3.2915 Y1.7702
X3.2351 Y1.8796
X3.1750 Y1.9872
X3.1114 Y2.0929
X3.0443 Y2.1965
X2.9737 Y2.2980
X2.8997 Y2.3972
X2.8224 Y2.4940
X2.7418 Y2.5884
X2.6581 Y2.6801
X2.5714 Y2.7691
X2.4816 Y2.8553
X2.3890 Y2.9386
X2.2936 Y3.0189
X2.1954 Y3.0961
X2.0947 Y3.1701
X1.9915 Y3.2408
X1.8859 Y3.3082
X1.7780 Y3.3721
X1.6679 Y3.4325
X1.5558 Y3.4893
X1.4418 Y3.5424
X1.3259 Y3.5918
X1.2084 Y3.6375
X1.0893 Y3.6792
X0.9687 Y3.7171
X0.8469 Y3.7510
X0.7238 Y3.7809
X0.5997 Y3.8067
X0.4747 Y3.8285
X0.3489 Y3.8462
X0.2224 Y3.8598
X0.0955 Y3.8691
X-0.0319 Y3.8743
X-0.1594 Y3.8754
X-0.2871 Y3.8722
X-0.4148 Y3.8647
X-0.5422 Y3.8531
X-0.6694 Y3.8373
X-0.7961 Y3.8173
X-0.9222 Y3.7931
X-1.0476 Y3.7647
X-1.1721 Y3.7322
X-1.2956 Y3.6955
X-1.4179 Y3.6548
X-1.5390 Y3.6100
X-1.6586 Y3.5612
X-1.7767 Y3.5084
X-1.8932 Y3.4517
X-2.0078 Y3.3912
X-2.1205 Y3.3268
X-2.2311 Y3.2587
X-2.3395 Y3.1869
X-2.4456 Y3.1115
X-2.5493 Y3.0325
X-2.6505 Y2.9501
X-2.7489 Y2.8644
X-2.8446 Y2.7753
X-2.9375 Y2.6831
X-3.0273 Y2.5877
X-3.1140 Y2.4893
X-3.1975 Y2.3880
X-3.2777 Y2.2840
X-3.3546 Y2.1772
X-3.4279 Y2.0678
X-3.4977 Y1.9560
X-3.5638 Y1.8418
X-3.6262 Y1.7254
X-3.6848 Y1.6068
X-3.7395 Y1.4863
X-3.7903 Y1.3639
X-3.8371 Y1.2398
X-3.8798 Y1.1140
X-3.9183 Y0.9868
X-3.9527 Y0.8583
X-3.9829 Y0.7286
X-4.0088 Y0.5978
X-4.0305 Y0.4661
X-4.0478 Y0.3336
X-4.0607 Y0.2005
X-4.0692 Y0.0669
X-4.0734 Y-0.0670
X-4.0731 Y-0.2011
X-4.0685 Y-0.3353
X-4.0594 Y-0.4695
X-4.0458 Y-0.6033
X-4.0279 Y-0.7368
X-4.0055 Y-0.8698
X-3.9788 Y-1.0021
X-3.9477 Y-1.1335
X-3.9122 Y-1.2640
X-3.8724 Y-1.3934
X-3.8284 Y-1.5216
X-3.7801 Y-1.6483
X-3.7276 Y-1.7736
X-3.6709 Y-1.8971
X-3.6101 Y-2.0189
X-3.5453 Y-2.1386
X-3.4766 Y-2.2564
X-3.4039 Y-2.3719
X-3.3274 Y-2.4850
X-3.2471 Y-2.5957
X-3.1631 Y-2.7038
X-3.0755 Y-2.8092
X-2.9845 Y-2.9117
X-2.8899 Y-3.0113
X-2.7921 Y-3.1078
X-2.6911 Y-3.2011
X-2.5869 Y-3.2912
X-2.4797 Y-3.3778
X-2.3696 Y-3.4610
X-2.2567 Y-3.5406
X-2.1412 Y-3.6165
X-2.0231 Y-3.6886
X-1.9025 Y-3.7568
X-1.7797 Y-3.8211
X-1.6547 Y-3.8814
X-1.5276 Y-3.9376
X-1.3987 Y-3.9897
X-1.2679 Y-4.0375
X-1.1356 Y-4.0810
X-1.0017 Y-4.1202
X-0.8665 Y-4.1549
X-0.7301 Y-4.1853
X-0.5926 Y-4.2112
X-0.4542 Y-4.2325
X-0.3151 Y-4.2493
X-0.1753 Y-4.2615
X-0.0351 Y-4.2691
X0.1054 Y-4.2721
X0.2461 Y-4.2705
X0.3868 Y-4.2642
X0.5274 Y-4.2533
X0.6676 Y-4.2378
X0.8074 Y-4.2176
X0.9466 Y-4.1928
X1.0851 Y-4.1634
X1.2226 Y-4.1295
X1.3591 Y-4.0910
X1.4943 Y-4.0480
X1.6282 Y-4.0005
X1.7606 Y-3.9486
X1.8913 Y-3.8923
X2.0203 Y-3.8316
X2.1473 Y-3.7667
X2.2722 Y-3.6976
X2.3948 Y-3.6243
X2.5152 Y-3.5470
X2.6330 Y-3.4657
X2.7482 Y-3.3804
X2.8606 Y-3.2913
X2.9701 Y-3.1985
X3.0766 Y-3.1020
X3.1800 Y-3.0020
X3.2801 Y-2.8986
X3.3769 Y-2.7917
X3.4702 Y-2.6817
X3.5599 Y-2.5686
X3.6459 Y-2.4524
X3.7281 Y-2.3334
X3.8064 Y-2.2116
X3.8808 Y-2.0871
X3.9510 Y-1.9602
X4.0151 Y-1.8300
G03X-4.0151Y1.8300I-4.0151J1.8300
X4.0151Y-1.8300I4.0151J-1.8300
G01 X0.5000 Y0.0000
X0.0870 Y0.4923
X0.0683 Y0.4953 Z-3.1171
X0.0474 Y0.4978 Z-3.1238
X0.0263 Y0.4993 Z-3.1306
X0.0053 Y0.5000 Z-3.1373
X-0.0158 Y0.4998 Z-3.1440
X-0.0369 Y0.4986 Z-3.1507
X-0.0579 Y0.4966 Z-3.1574
X-0.0787 Y0.4938 Z-3.1641
X-0.0995 Y0.4900 Z-3.1708
X-0.1201 Y0.4854 Z-3.1775
X-0.1404 Y0.4799 Z-3.1842
X-0.1605 Y0.4735 Z-3.1910
X-0.1803 Y0.4663 Z-3.1977
X-0.1998 Y0.4583 Z-3.2044
X-0.2190 Y0.4495 Z-3.2111
X-0.2377 Y0.4399 Z-3.2178
X-0.2561 Y0.4295 Z-3.2245
X-0.2739 Y0.4183 Z-3.2312
X-0.2913 Y0.4064 Z-3.2379
X-0.3082 Y0.3937 Z-3.2446
X-0.3245 Y0.3804 Z-3.2514
X-0.3403 Y0.3664 Z-3.2581
X-0.3554 Y0.3517 Z-3.2648
X-0.3699 Y0.3364 Z-3.2715
X-0.3838 Y0.3205 Z-3.2782
X-0.3969 Y0.3040 Z-3.2849
X-0.4094 Y0.2870 Z-3.2916
X-0.4211 Y0.2695 Z-3.2983
X-0.4321 Y0.2515 Z-3.3050
X-0.4424 Y0.2331 Z-3.3118
X-0.4518 Y0.2142 Z-3.3185
X-0.4604 Y0.1950 Z-3.3252
X-0.4682 Y0.1754 Z-3.3319
X-0.4752 Y0.1555 Z-3.3386
X-0.4813 Y0.1353 Z-3.3453
X-0.4866 Y0.1149 Z-3.3520
X-0.4910 Y0.0943 Z-3.3587
X-0.4946 Y0.0735 Z-3.3654
X-0.4972 Y0.0526 Z-3.3721
X-0.4990 Y0.0316 Z-3.3789
X-0.4999 Y0.0105 Z-3.3856
Y-0.0105 Z-3.3923
X-0.4990 Y-0.0316 Z-3.3990
X-0.4972 Y-0.0526 Z-3.4057
X-0.4946 Y-0.0735 Z-3.4124
X-0.4910 Y-0.0943 Z-3.4191
X-0.4866 Y-0.1149 Z-3.4258
X-0.4813 Y-0.1353 Z-3.4325
X-0.4752 Y-0.1555 Z-3.4393
X-0.4682 Y-0.1754 Z-3.4460
X-0.4604 Y-0.1950 Z-3.4527
X-0.4518 Y-0.2142 Z-3.4594
X-0.4424 Y-0.2331 Z-3.4661
X-0.4321 Y-0.2515 Z-3.4728
X-0.4211 Y-0.2695 Z-3.4795
X-0.4094 Y-0.2870 Z-3.4862
X-0.3969 Y-0.3040 Z-3.4929
X-0.3838 Y-0.3205 Z-3.4997
X-0.3699 Y-0.3364 Z-3.5064
X-0.3554 Y-0.3517 Z-3.5131
X-0.3403 Y-0.3664 Z-3.5198
X-0.3245 Y-0.3804 Z-3.5265
X-0.3082 Y-0.3937 Z-3.5332
X-0.2913 Y-0.4064 Z-3.5399
X-0.2739 Y-0.4183 Z-3.5466
X-0.2561 Y-0.4295 Z-3.5533
X-0.2377 Y-0.4399 Z-3.5601
X-0.2190 Y-0.4495 Z-3.5668
X-0.1998 Y-0.4583 Z-3.5735
X-0.1803 Y-0.4663 Z-3.5802
X-0.1605 Y-0.4735 Z-3.5869
X-0.1404 Y-0.4799 Z-3.5936
X-0.1201 Y-0.4854 Z-3.6003
X-0.0995 Y-0.4900 Z-3.6070
X-0.0787 Y-0.4938 Z-3.6137
X-0.0579 Y-0.4966 Z-3.6205
X-0.0369 Y-0.4986 Z-3.6272
X-0.0158 Y-0.4998 Z-3.6339
X0.0053 Y-0.5000 Z-3.6406
X0.0263 Y-0.4993 Z-3.6473
X0.0474 Y-0.4978 Z-3.6540
X0.0683 Y-0.4953 Z-3.6607
X0.0891 Y-0.4920 Z-3.6674
X0.1098 Y-0.4878 Z-3.6741
X0.1303 Y-0.4827 Z-3.6809
X0.1505 Y-0.4768 Z-3.6876
X0.1705 Y-0.4700 Z-3.6943
X0.1901 Y-0.4624 Z-3.7010
X0.2094 Y-0.4540 Z-3.7077
X0.2284 Y-0.4448 Z-3.7144
X0.2470 Y-0.4348 Z-3.7211
X0.2651 Y-0.4240 Z-3.7278
X0.2827 Y-0.4124 Z-3.7345
X0.2998 Y-0.4001 Z-3.7412
X0.3164 Y-0.3871 Z-3.7480
X0.3325 Y-0.3734 Z-3.7547
X0.3479 Y-0.3591 Z-3.7614
X0.3627 Y-0.3441 Z-3.7681
X0.3769 Y-0.3285 Z-3.7748
X0.3904 Y-0.3123 Z-3.7815
X0.4033 Y-0.2956 Z-3.7882
X0.4154 Y-0.2783 Z-3.7949
X0.4267 Y-0.2606 Z-3.8016
X0.4373 Y-0.2424 Z-3.8084
X0.4472 Y-0.2237 Z-3.8151
X0.4562 Y-0.2047 Z-3.8218
X0.4644 Y-0.1852 Z-3.8285
X0.4718 Y-0.1655 Z-3.8352
X0.4784 Y-0.1455 Z-3.8419
X0.4841 Y-0.1252 Z-3.8486
X0.4889 Y-0.1046 Z-3.8553
X0.4929 Y-0.0839 Z-3.8620
X0.4960 Y-0.0631 Z-3.8688
X0.4982 Y-0.0421 Z-3.8755
X0.4996 Y-0.0211 Z-3.8822
X0.5000 Y0.0000 Z-3.8889
X0.5092 Y0.0452
X0.5142 Y0.0920
X0.5148 Y0.1400
X0.5109 Y0.1888
X0.5024 Y0.2380
X0.4890 Y0.2872
X0.4708 Y0.3357
X0.4478 Y0.3833
X0.4200 Y0.4294
X0.3875 Y0.4735
X0.3504 Y0.5151
X0.3089 Y0.5538
X0.2633 Y0.5892
X0.2139 Y0.6207
X0.1609 Y0.6480
X0.1047 Y0.6707
X0.0458 Y0.6885
X-0.0155 Y0.7011
X-0.0786 Y0.7081
X-0.1431 Y0.7093
X-0.2084 Y0.7046
X-0.2740 Y0.6938
X-0.3392 Y0.6769
X-0.4036 Y0.6538
X-0.4665 Y0.6245
X-0.5273 Y0.5891
X-0.5855 Y0.5479
X-0.6404 Y0.5009
X-0.6916 Y0.4484
X-0.7384 Y0.3907
X-0.7803 Y0.3283
X-0.8169 Y0.2614
X-0.8477 Y0.1907
X-0.8724 Y0.1165
X-0.8904 Y0.0394
X-0.9016 Y-0.0399
X-0.9056 Y-0.1209
X-0.9023 Y-0.2029
X-0.8915 Y-0.2853
X-0.8731 Y-0.3673
X-0.8471 Y-0.4483
X-0.8135 Y-0.5275
X-0.7725 Y-0.6042
X-0.7243 Y-0.6777
X-0.6690 Y-0.7474
X-0.6070 Y-0.8126
X-0.5387 Y-0.8725
X-0.4645 Y-0.9267
X-0.3849 Y-0.9746
X-0.3004 Y-1.0155
X-0.2117 Y-1.0490
X-0.1194 Y-1.0747
X-0.0242 Y-1.0923
X0.0732 Y-1.1013
X0.1720 Y-1.1015
X0.2713 Y-1.0929
X0.3705 Y-1.0752
X0.4687 Y-1.0484
X0.5649 Y-1.0127
X0.6585 Y-0.9680
X0.7486 Y-0.9147
X0.8343 Y-0.8530
X0.9149 Y-0.7832
X0.9896 Y-0.7057
X1.0578 Y-0.6212
X1.1186 Y-0.5300
X1.1716 Y-0.4330
X1.2161 Y-0.3307
X1.2515 Y-0.2239
X1.2776 Y-0.1134
X1.2937 Y0.0000
X1.2988 Y0.0723
X1.2997 Y0.1451
X1.2966 Y0.2183
X1.2893 Y0.2916
X1.2778 Y0.3647
X1.2622 Y0.4375
X1.2425 Y0.5096
X1.2186 Y0.5809
X1.1906 Y0.6511
X1.1585 Y0.7199
X1.1225 Y0.7873
X1.0825 Y0.8528
X1.0387 Y0.9162
X0.9912 Y0.9775
X0.9400 Y1.0363
X0.8854 Y1.0924
X0.8275 Y1.1456
X0.7663 Y1.1957
X0.7021 Y1.2426
X0.6351 Y1.2860
X0.5654 Y1.3257
X0.4932 Y1.3617
X0.4188 Y1.3937
X0.3424 Y1.4217
X0.2641 Y1.4454
X0.1842 Y1.4648
X0.1030 Y1.4798
X0.0207 Y1.4903
X-0.0624 Y1.4962
X-0.1462 Y1.4974
X-0.2302 Y1.4939
X-0.3143 Y1.4856
X-0.3983 Y1.4727
X-0.4817 Y1.4549
X-0.5644 Y1.4324
X-0.6460 Y1.4052
X-0.7264 Y1.3734
X-0.8053 Y1.3369
X-0.8823 Y1.2959
X-0.9572 Y1.2504
X-1.0298 Y1.2006
X-1.0998 Y1.1466
X-1.1669 Y1.0885
X-1.2310 Y1.0265
X-1.2918 Y0.9607
X-1.3490 Y0.8913
X-1.4026 Y0.8185
X-1.4521 Y0.7424
X-1.4976 Y0.6634
X-1.5387 Y0.5817
X-1.5753 Y0.4974
X-1.6074 Y0.4108
X-1.6346 Y0.3222
X-1.6569 Y0.2318
X-1.6742 Y0.1400
X-1.6865 Y0.0469
X-1.6935 Y-0.0471
X-1.6952 Y-0.1417
X-1.6917 Y-0.2367
X-1.6828 Y-0.3317
X-1.6686 Y-0.4264
X-1.6490 Y-0.5206
X-1.6241 Y-0.6140
X-1.5939 Y-0.7061
X-1.5585 Y-0.7968
X-1.5178 Y-0.8857
X-1.4721 Y-0.9726
X-1.4214 Y-1.0571
X-1.3659 Y-1.1389
X-1.3056 Y-1.2179
X-1.2408 Y-1.2936
X-1.1715 Y-1.3659
X-1.0981 Y-1.4345
X-1.0206 Y-1.4991
X-0.9394 Y-1.5595
X-0.8545 Y-1.6155
X-0.7663 Y-1.6669
X-0.6751 Y-1.7135
X-0.5810 Y-1.7550
X-0.4844 Y-1.7913
X-0.3856 Y-1.8224
X-0.2848 Y-1.8479
X-0.1823 Y-1.8679
X-0.0785 Y-1.8822
X0.0263 Y-1.8906
X0.1318 Y-1.8933
X0.2377 Y-1.8900
X0.3436 Y-1.8808
X0.4493 Y-1.8656
X0.5543 Y-1.8445
X0.6583 Y-1.8174
X0.7610 Y-1.7845
X0.8622 Y-1.7457
X0.9613 Y-1.7012
X1.0581 Y-1.6511
X1.1524 Y-1.5954
X1.2437 Y-1.5344
X1.3318 Y-1.4681
X1.4163 Y-1.3967
X1.4970 Y-1.3205
X1.5736 Y-1.2396
X1.6458 Y-1.1543
X1.7134 Y-1.0648
X1.7761 Y-0.9713
X1.8336 Y-0.8741
X1.8859 Y-0.7735
X1.9326 Y-0.6698
X1.9736 Y-0.5633
X2.0087 Y-0.4543
X2.0377 Y-0.3431
X2.0606 Y-0.2301
X2.0773 Y-0.1156
X2.0875 Y0.0000
X2.0910 Y0.0913
X2.0905 Y0.1829
X2.0860 Y0.2746
X2.0775 Y0.3663
X2.0649 Y0.4578
X2.0483 Y0.5488
X2.0277 Y0.6393
X2.0030 Y0.7290
X1.9744 Y0.8178
X1.9419 Y0.9055
X1.9054 Y0.9919
X1.8651 Y1.0768
X1.8210 Y1.1601
X1.7732 Y1.2416
X1.7217 Y1.3211
X1.6667 Y1.3985
X1.6082 Y1.4736
X1.5462 Y1.5462
X1.4810 Y1.6163
X1.4127 Y1.6836
X1.3413 Y1.7480
X1.2669 Y1.8093
X1.1897 Y1.8675
X1.1099 Y1.9224
X1.0275 Y1.9739
X0.9428 Y2.0218
X0.8558 Y2.0661
X0.7668 Y2.1066
X0.6758 Y2.1433
X0.5831 Y2.1761
X0.4888 Y2.2048
X0.3931 Y2.2295
X0.2962 Y2.2500
X0.1983 Y2.2663
X0.0995 Y2.2783
X0.0000 Y2.2859
X-0.1000 Y2.2893
X-0.2002 Y2.2882
X-0.3005 Y2.2828
X-0.4008 Y2.2729
X-0.5007 Y2.2587
X-0.6002 Y2.2400
X-0.6990 Y2.2169
X-0.7969 Y2.1895
X-0.8938 Y2.1578
X-0.9894 Y2.1217
X-1.0835 Y2.0814
X-1.1760 Y2.0370
X-1.2667 Y1.9884
X-1.3554 Y1.9357
X-1.4419 Y1.8792
X-1.5261 Y1.8187
X-1.6077 Y1.7545
X-1.6866 Y1.6866
X-1.7626 Y1.6151
X-1.8356 Y1.5402
X-1.9054 Y1.4621
X-1.9719 Y1.3807
X-2.0349 Y1.2964
X-2.0942 Y1.2091
X-2.1499 Y1.1192
X-2.2017 Y1.0266
X-2.2494 Y0.9317
X-2.2931 Y0.8346
X-2.3326 Y0.7355
X-2.3678 Y0.6344
X-2.3986 Y0.5318
X-2.4249 Y0.4276
X-2.4467 Y0.3221
X-2.4639 Y0.2156
X-2.4765 Y0.1081
X-2.4844 Y0.0000
X-2.4875 Y-0.1086
X-2.4859 Y-0.2175
X-2.4795 Y-0.3264
X-2.4683 Y-0.4352
X-2.4524 Y-0.5437
X-2.4317 Y-0.6516
X-2.4062 Y-0.7587
X-2.3760 Y-0.8648
X-2.3411 Y-0.9697
X-2.3016 Y-1.0732
X-2.2575 Y-1.1752
X-2.2088 Y-1.2753
X-2.1557 Y-1.3734
X-2.0983 Y-1.4692
X-2.0366 Y-1.5627
X-1.9707 Y-1.6536
X-1.9008 Y-1.7417
X-1.8269 Y-1.8269
X-1.7492 Y-1.9089
X-1.6678 Y-1.9876
X-1.5829 Y-2.0628
X-1.4945 Y-2.1344
X-1.4030 Y-2.2022
X-1.3083 Y-2.2661
X-1.2108 Y-2.3259
X-1.1105 Y-2.3815
X-1.0077 Y-2.4328
X-0.9025 Y-2.4796
X-0.7951 Y-2.5218
X-0.6858 Y-2.5595
X-0.5747 Y-2.5923
X-0.4620 Y-2.6203
X-0.3480 Y-2.6435
X-0.2329 Y-2.6616
X-0.1168 Y-2.6748
X0.0000 Y-2.6828
X0.1173 Y-2.6858
X0.2348 Y-2.6836
X0.3523 Y-2.6763
X0.4697 Y-2.6638
X0.5866 Y-2.6461
X0.7029 Y-2.6233
X0.8183 Y-2.5954
X0.9327 Y-2.5625
X1.0457 Y-2.5244
X1.1571 Y-2.4814
X1.2668 Y-2.4335
X1.3745 Y-2.3807
X1.4800 Y-2.3231
X1.5831 Y-2.2608
X1.6835 Y-2.1940
X1.7812 Y-2.1227
X1.8758 Y-2.0471
X1.9672 Y-1.9672
X2.0552 Y-1.8832
X2.1396 Y-1.7953
X2.2203 Y-1.7037
X2.2970 Y-1.6084
X2.3696 Y-1.5096
X2.4380 Y-1.4076
X2.5019 Y-1.3024
X2.5613 Y-1.1944
X2.6161 Y-1.0836
X2.6661 Y-0.9704
X2.7111 Y-0.8548
X2.7511 Y-0.7372
X2.7860 Y-0.6177
X2.8158 Y-0.4965
X2.8402 Y-0.3739
X2.8593 Y-0.2502
X2.8730 Y-0.1254
X2.8812 Y0.0000
X2.8840 Y0.1073
X2.8827 Y0.2147
X2.8774 Y0.3223
X2.8680 Y0.4297
X2.8547 Y0.5369
X2.8373 Y0.6436
X2.8160 Y0.7499
X2.7907 Y0.8554
X2.7614 Y0.9601
X2.7282 Y1.0638
X2.6910 Y1.1663
X2.6501 Y1.2675
X2.6053 Y1.3674
X2.5567 Y1.4656
X2.5045 Y1.5621
X2.4486 Y1.6567
X2.3891 Y1.7494
X2.3261 Y1.8399
X2.2597 Y1.9281
X2.1899 Y2.0140
X2.1169 Y2.0973
X2.0407 Y2.1779
X1.9614 Y2.2558
X1.8791 Y2.3308
X1.7940 Y2.4028
X1.7061 Y2.4717
X1.6156 Y2.5374
X1.5225 Y2.5997
X1.4271 Y2.6587
X1.3293 Y2.7141
X1.2294 Y2.7659
X1.1275 Y2.8141
X1.0237 Y2.8585
X0.9182 Y2.8990
X0.8110 Y2.9357
X0.7024 Y2.9684
X0.5925 Y2.9970
X0.4815 Y3.0216
X0.3694 Y3.0421
X0.2564 Y3.0584
X0.1428 Y3.0705
X0.0286 Y3.0784
X-0.0860 Y3.0820
X-0.2008 Y3.0814
X-0.3156 Y3.0765
X-0.4304 Y3.0672
X-0.5450 Y3.0538
X-0.6591 Y3.0360
X-0.7727 Y3.0139
X-0.8855 Y2.9876
X-0.9974 Y2.9571
X-1.1083 Y2.9224
X-1.2180 Y2.8835
X-1.3263 Y2.8405
X-1.4331 Y2.7934
X-1.5383 Y2.7423
X-1.6416 Y2.6872
X-1.7429 Y2.6283
X-1.8422 Y2.5655
X-1.9391 Y2.4989
X-2.0337 Y2.4287
X-2.1257 Y2.3550
X-2.2150 Y2.2777
X-2.3016 Y2.1970
X-2.3852 Y2.1131
X-2.4657 Y2.0259
X-2.5430 Y1.9357
X-2.6171 Y1.8426
X-2.6877 Y1.7466
X-2.7548 Y1.6479
X-2.8182 Y1.5466
X-2.8780 Y1.4429
X-2.9339 Y1.3369
X-2.9859 Y1.2287
X-3.0339 Y1.1185
X-3.0778 Y1.0064
X-3.1176 Y0.8926
X-3.1532 Y0.7772
X-3.1845 Y0.6604
X-3.2115 Y0.5424
X-3.2341 Y0.4232
X-3.2523 Y0.3032
X-3.2660 Y0.1823
X-3.2752 Y0.0609
X-3.2799 Y-0.0610
X-3.2801 Y-0.1831
X-3.2757 Y-0.3053
X-3.2667 Y-0.4275
X-3.2532 Y-0.5494
X-3.2351 Y-0.6709
X-3.2125 Y-0.7918
X-3.1854 Y-0.9120
X-3.1537 Y-1.0312
X-3.1176 Y-1.1493
X-3.0771 Y-1.2662
X-3.0322 Y-1.3817
X-2.9829 Y-1.4955
X-2.9294 Y-1.6076
X-2.8717 Y-1.7178
X-2.8098 Y-1.8259
X-2.7438 Y-1.9318
X-2.6738 Y-2.0353
X-2.6000 Y-2.1363
X-2.5223 Y-2.2345
X-2.4409 Y-2.3300
X-2.3558 Y-2.4225
X-2.2673 Y-2.5118
X-2.1754 Y-2.5980
X-2.0802 Y-2.6808
X-1.9819 Y-2.7600
X-1.8805 Y-2.8357
X-1.7763 Y-2.9077
X-1.6692 Y-2.9758
X-1.5596 Y-3.0399
X-1.4475 Y-3.1001
X-1.3331 Y-3.1561
X-1.2166 Y-3.2078
X-1.0980 Y-3.2553
X-0.9776 Y-3.2983
X-0.8555 Y-3.3370
X-0.7318 Y-3.3710
X-0.6069 Y-3.4005
X-0.4807 Y-3.4254
X-0.3535 Y-3.4456
X-0.2255 Y-3.4610
X-0.0968 Y-3.4717
X0.0323 Y-3.4776
X0.1618 Y-3.4787
X0.2914 Y-3.4749
X0.4209 Y-3.4664
X0.5502 Y-3.4530
X0.6791 Y-3.4347
X0.8073 Y-3.4117
X0.9349 Y-3.3839
X1.0614 Y-3.3512
X1.1868 Y-3.3139
X1.3109 Y-3.2719
X1.4335 Y-3.2252
X1.5545 Y-3.1739
X1.6736 Y-3.1180
X1.7907 Y-3.0577
X1.9057 Y-2.9930
X2.0183 Y-2.9240
X2.1284 Y-2.8507
X2.2358 Y-2.7733
X2.3404 Y-2.6918
X2.4421 Y-2.6064
X2.5406 Y-2.5171
X2.6359 Y-2.4241
X2.7277 Y-2.3275
X2.8160 Y-2.2274
X2.9007 Y-2.1240
X2.9815 Y-2.0173
X3.0584 Y-1.9076
X3.1313 Y-1.7949
X3.2000 Y-1.6795
X3.2644 Y-1.5614
X3.3245 Y-1.4409
X3.3802 Y-1.3180
X3.4313 Y-1.1930
X3.4777 Y-1.0660
X3.5195 Y-0.9372
X3.5565 Y-0.8068
X3.5886 Y-0.6749
X3.6159 Y-0.5417
X3.6382 Y-0.4075
X3.6555 Y-0.2723
X3.6678 Y-0.1364
X3.6750 Y0.0000
X3.6772 Y0.1210
X3.6753 Y0.2422
X3.6695 Y0.3633
X3.6597 Y0.4844
X3.6459 Y0.6051
X3.6281 Y0.7256
X3.6063 Y0.8454
X3.5806 Y0.9647
X3.5509 Y1.0831
X3.5173 Y1.2007
X3.4798 Y1.3172
X3.4384 Y1.4325
X3.3932 Y1.5466
X3.3442 Y1.6592
X3.2915 Y1.7702
X3.2351 Y1.8796
X3.1750 Y1.9872
X3.1114 Y2.0929
X3.0443 Y2.1965
X2.9737 Y2.2980
X2.8997 Y2.3972
X2.8224 Y2.4940
X2.7418 Y2.5884
X2.6581 Y2.6801
X2.5714 Y2.7691
X2.4816 Y2.8553
X2.3890 Y2.9386
X2.2936 Y3.0189
X2.1954 Y3.0961
X2.0947 Y3.1701
X1.9915 Y3.2408
X1.8859 Y3.3082
X1.7780 Y3.3721
X1.6679 Y3.4325
X1.5558 Y3.4893
X1.4418 Y3.5424
X1.3259 Y3.5918
X1.2084 Y3.6375
X1.0893 Y3.6792
X0.9687 Y3.7171
X0.8469 Y3.7510
X0.7238 Y3.7809
X0.5997 Y3.8067
X0.4747 Y3.8285
X0.3489 Y3.8462
X0.2224 Y3.8598
X0.0955 Y3.8691
X-0.0319 Y3.8743
X-0.1594 Y3.8754
X-0.2871 Y3.8722
X-0.4148 Y3.8647
X-0.5422 Y3.8531
X-0.6694 Y3.8373
X-0.7961 Y3.8173
X-0.9222 Y3.7931
X-1.0476 Y3.7647
X-1.1721 Y3.7322
X-1.2956 Y3.6955
X-1.4179 Y3.6548
X-1.5390 Y3.6100
X-1.6586 Y3.5612
X-1.7767 Y3.5084
X-1.8932 Y3.4517
X-2.0078 Y3.3912
X-2.1205 Y3.3268
X-2.2311 Y3.2587
X-2.3395 Y3.1869
X-2.4456 Y3.1115
X-2.5493 Y3.0325
X-2.6505 Y2.9501
X-2.7489 Y2.8644
X-2.8446 Y2.7753
X-2.9375 Y2.6831
X-3.0273 Y2.5877
X-3.1140 Y2.4893
X-3.1975 Y2.3880
X-3.2777 Y2.2840
X-3.3546 Y2.1772
X-3.4279 Y2.0678
X-3.4977 Y1.9560
X-3.5638 Y1.8418
X-3.6262 Y1.7254
X-3.6848 Y1.6068
X-3.7395 Y1.4863
X-3.7903 Y1.3639
X-3.8371 Y1.2398
X-3.8798 Y1.1140
X-3.9183 Y0.9868
X-3.9527 Y0.8583
X-3.9829 Y0.7286
X-4.0088 Y0.5978
X-4.0305 Y0.4661
X-4.0478 Y0.3336
X-4.0607 Y0.2005
X-4.0692 Y0.0669
X-4.0734 Y-0.0670
X-4.0731 Y-0.2011
X-4.0685 Y-0.3353
X-4.0594 Y-0.4695
X-4.0458 Y-0.6033
X-4.0279 Y-0.7368
X-4.0055 Y-0.8698
X-3.9788 Y-1.0021
X-3.9477 Y-1.1335
X-3.9122 Y-1.2640
X-3.8724 Y-1.3934
X-3.8284 Y-1.5216
X-3.7801 Y-1.6483
X-3.7276 Y-1.7736
X-3.6709 Y-1.8971
X-3.6101 Y-2.0189
X-3.5453 Y-2.1386
X-3.4766 Y-2.2564
X-3.4039 Y-2.3719
X-3.3274 Y-2.4850
X-3.2471 Y-2.5957
X-3.1631 Y-2.7038
X-3.0755 Y-2.8092
X-2.9845 Y-2.9117
X-2.8899 Y-3.0113
X-2.7921 Y-3.1078
X-2.6911 Y-3.2011
X-2.5869 Y-3.2912
X-2.4797 Y-3.3778
X-2.3696 Y-3.4610
X-2.2567 Y-3.5406
X-2.1412 Y-3.6165
X-2.0231 Y-3.6886
X-1.9025 Y-3.7568
X-1.7797 Y-3.8211
X-1.6547 Y-3.8814
X-1.5276 Y-3.9376
X-1.3987 Y-3.9897
X-1.2679 Y-4.0375
X-1.1356 Y-4.0810
X-1.0017 Y-4.1202
X-0.8665 Y-4.1549
X-0.7301 Y-4.1853
X-0.5926 Y-4.2112
X-0.4542 Y-4.2325
X-0.3151 Y-4.2493
X-0.1753 Y-4.2615
X-0.0351 Y-4.2691
X0.1054 Y-4.2721
X0.2461 Y-4.2705
X0.3868 Y-4.2642
X0.5274 Y-4.2533
X0.6676 Y-4.2378
X0.8074 Y-4.2176
X0.9466 Y-4.1928
X1.0851 Y-4.1634
X1.2226 Y-4.1295
X1.3591 Y-4.0910
X1.4943 Y-4.0480
X1.6282 Y-4.0005
X1.7606 Y-3.9486
X1.8913 Y-3.8923
X2.0203 Y-3.8316
X2.1473 Y-3.7667
X2.2722 Y-3.6976
X2.3948 Y-3.6243
X2.5152 Y-3.5470
X2.6330 Y-3.4657
X2.7482 Y-3.3804
X2.8606 Y-3.2913
X2.9701 Y-3.1985
X3.0766 Y-3.1020
X3.1800 Y-3.0020
X3.2801 Y-2.8986
X3.3769 Y-2.7917
X3.4702 Y-2.6817
X3.5599 Y-2.5686
X3.6459 Y-2.4524
X3.7281 Y-2.3334
X3.8064 Y-2.2116
X3.8808 Y-2.0871
X3.9510 Y-1.9602
X4.0151 Y-1.8300
G03X-4.0151Y1.8300I-4.0151J1.8300
X4.0151Y-1.8300I4.0151J-1.8300
G01 X0.5000 Y0.0000
X0.0870 Y0.4923
X0.0683 Y0.4953 Z-3.8949
X0.0474 Y0.4978 Z-3.9016
X0.0263 Y0.4993 Z-3.9083
X0.0053 Y0.5000 Z-3.9150
X-0.0158 Y0.4998 Z-3.9218
X-0.0369 Y0.4986 Z-3.9285
X-0.0579 Y0.4966 Z-3.9352
X-0.0787 Y0.4938 Z-3.9419
X-0.0995 Y0.4900 Z-3.9486
X-0.1201 Y0.4854 Z-3.9553
X-0.1404 Y0.4799 Z-3.9620
X-0.1605 Y0.4735 Z-3.9687
X-0.1803 Y0.4663 Z-3.9754
X-0.1998 Y0.4583 Z-3.9822
X-0.2190 Y0.4495 Z-3.9889
X-0.2377 Y0.4399 Z-3.9956
X-0.2561 Y0.4295 Z-4.0023
X-0.2739 Y0.4183 Z-4.0090
X-0.2913 Y0.4064 Z-4.0157
X-0.3082 Y0.3937 Z-4.0224
X-0.3245 Y0.3804 Z-4.0291
X-0.3403 Y0.3664 Z-4.0358
X-0.3554 Y0.3517 Z-4.0426
X-0.3699 Y0.3364 Z-4.0493
X-0.3838 Y0.3205 Z-4.0560
X-0.3969 Y0.3040 Z-4.0627
X-0.4094 Y0.2870 Z-4.0694
X-0.4211 Y0.2695 Z-4.0761
X-0.4321 Y0.2515 Z-4.0828
X-0.4424 Y0.2331 Z-4.0895
X-0.4518 Y0.2142 Z-4.0962
X-0.4604 Y0.1950 Z-4.1030
X-0.4682 Y0.1754 Z-4.1097
X-0.4752 Y0.1555 Z-4.1164
X-0.4813 Y0.1353 Z-4.1231
X-0.4866 Y0.1149 Z-4.1298
X-0.4910 Y0.0943 Z-4.1365
X-0.4946 Y0.0735 Z-4.1432
X-0.4972 Y0.0526 Z-4.1499
X-0.4990 Y0.0316 Z-4.1566
X-0.4999 Y0.0105 Z-4.1633
Y-0.0105 Z-4.1701
X-0.4990 Y-0.0316 Z-4.1768
X-0.4972 Y-0.0526 Z-4.1835
X-0.4946 Y-0.0735 Z-4.1902
X-0.4910 Y-0.0943 Z-4.1969
X-0.4866 Y-0.1149 Z-4.2036
X-0.4813 Y-0.1353 Z-4.2103
X-0.4752 Y-0.1555 Z-4.2170
X-0.4682 Y-0.1754 Z-4.2237
X-0.4604 Y-0.1950 Z-4.2305
X-0.4518 Y-0.2142 Z-4.2372
X-0.4424 Y-0.2331 Z-4.2439
X-0.4321 Y-0.2515 Z-4.2506
X-0.4211 Y-0.2695 Z-4.2573
X-0.4094 Y-0.2870 Z-4.2640
X-0.3969 Y-0.3040 Z-4.2707
X-0.3838 Y-0.3205 Z-4.2774
X-0.3699 Y-0.3364 Z-4.2841
X-0.3554 Y-0.3517 Z-4.2909
X-0.3403 Y-0.3664 Z-4.2976
X-0.3245 Y-0.3804 Z-4.3043
X-0.3082 Y-0.3937 Z-4.3110
X-0.2913 Y-0.4064 Z-4.3177
X-0.2739 Y-0.4183 Z-4.3244
X-0.2561 Y-0.4295 Z-4.3311
X-0.2377 Y-0.4399 Z-4.3378
X-0.2190 Y-0.4495 Z-4.3445
X-0.1998 Y-0.4583 Z-4.3513
X-0.1803 Y-0.4663 Z-4.3580
X-0.1605 Y-0.4735 Z-4.3647
X-0.1404 Y-0.4799 Z-4.3714
X-0.1201 Y-0.4854 Z-4.3781
X-0.0995 Y-0.4900 Z-4.3848
X-0.0787 Y-0.4938 Z-4.3915
X-0.0579 Y-0.4966 Z-4.3982
X-0.0369 Y-0.4986 Z-4.4049
X-0.0158 Y-0.4998 Z-4.4117
X0.0053 Y-0.5000 Z-4.4184
X0.0263 Y-0.4993 Z-4.4251
X0.0474 Y-0.4978 Z-4.4318
X0.0683 Y-0.4953 Z-4.4385
X0.0891 Y-0.4920 Z-4.4452
X0.1098 Y-0.4878 Z-4.4519
X0.1303 Y-0.4827 Z-4.4586
X0.1505 Y-0.4768 Z-4.4653
X0.1705 Y-0.4700 Z-4.4721
X0.1901 Y-0.4624 Z-4.4788
X0.2094 Y-0.4540 Z-4.4855
X0.2284 Y-0.4448 Z-4.4922
X0.2470 Y-0.4348 Z-4.4989
X0.2651 Y-0.4240 Z-4.5056
X0.2827 Y-0.4124 Z-4.5123
X0.2998 Y-0.4001 Z-4.5190
X0.3164 Y-0.3871 Z-4.5257
X0.3325 Y-0.3734 Z-4.5324
X0.3479 Y-0.3591 Z-4.5392
X0.3627 Y-0.3441 Z-4.5459
X0.3769 Y-0.3285 Z-4.5526
X0.3904 Y-0.3123 Z-4.5593
X0.4033 Y-0.2956 Z-4.5660
X0.4154 Y-0.2783 Z-4.5727
X0.4267 Y-0.2606 Z-4.5794
X0.4373 Y-0.2424 Z-4.5861
X0.4472 Y-0.2237 Z-4.5928
X0.4562 Y-0.2047 Z-4.5996
X0.4644 Y-0.1852 Z-4.6063
X0.4718 Y-0.1655 Z-4.6130
X0.4784 Y-0.1455 Z-4.6197
X0.4841 Y-0.1252 Z-4.6264
X0.4889 Y-0.1046 Z-4.6331
X0.4929 Y-0.0839 Z-4.6398
X0.4960 Y-0.0631 Z-4.6465
X0.4982 Y-0.0421 Z-4.6532
X0.4996 Y-0.0211 Z-4.6600
X0.5000 Y0.0000 Z-4.6667
X0.5092 Y0.0452
X0.5142 Y0.0920
X0.5148 Y0.1400
X0.5109 Y0.1888
X0.5024 Y0.2380
X0.4890 Y0.2872
X0.4708 Y0.3357
X0.4478 Y0.3833
X0.4200 Y0.4294
X0.3875 Y0.4735
X0.3504 Y0.5151
X0.3089 Y0.5538
X0.2633 Y0.5892
X0.2139 Y0.6207
X0.1609 Y0.6480
X0.1047 Y0.6707
X0.0458 Y0.6885
X-0.0155 Y0.7011
X-0.0786 Y0.7081
X-0.1431 Y0.7093
X-0.2084 Y0.7046
X-0.2740 Y0.6938
X-0.3392 Y0.6769
X-0.4036 Y0.6538
X-0.4665 Y0.6245
X-0.5273 Y0.5891
X-0.5855 Y0.5479
X-0.6404 Y0.5009
X-0.6916 Y0.4484
X-0.7384 Y0.3907
X-0.7803 Y0.3283
X-0.8169 Y0.2614
X-0.8477 Y0.1907
X-0.8724 Y0.1165
X-0.8904 Y0.0394
X-0.9016 Y-0.0399
X-0.9056 Y-0.1209
X-0.9023 Y-0.2029
X-0.8915 Y-0.2853
X-0.8731 Y-0.3673
X-0.8471 Y-0.4483
X-0.8135 Y-0.5275
X-0.7725 Y-0.6042
X-0.7243 Y-0.6777
X-0.6690 Y-0.7474
X-0.6070 Y-0.8126
X-0.5387 Y-0.8725
X-0.4645 Y-0.9267
X-0.3849 Y-0.9746
X-0.3004 Y-1.0155
X-0.2117 Y-1.0490
X-0.1194 Y-1.0747
X-0.0242 Y-1.0923
