G00 G49 G40.1 G17 G80 G50 G90
G21
(2 1/2 Axis Profiling)
(SlotDrill 2mm Carbide)
M6 T12
M03 S20000
G00 Z1.0000
X-94.0637 Y3.9900
G01 Z-0.7300  F1000.0
X-94.0592 Y3.9915 Z-0.7308
X-93.9608 Y4.0531 Z-0.7513
X-93.8792 Y4.1357 Z-0.7718
X-93.8189 Y4.2349 Z-0.7923
X-93.7831 Y4.3453 Z-0.8127
X-93.7737 Y4.4611 Z-0.8332
X-93.7913 Y4.5758 Z-0.8537
X-93.8348 Y4.6834 Z-0.8741
X-93.9020 Y4.7781 Z-0.8946
X-93.9893 Y4.8547 Z-0.9151
X-94.0918 Y4.9092 Z-0.9355
X-94.2041 Y4.9385 Z-0.9560
X-94.3202 Y4.9411 Z-0.9765
X-94.4337 Y4.9169 Z-0.9970
X-94.5386 Y4.8672 Z-1.0174
X-94.6292 Y4.7946 Z-1.0379
X-94.7006 Y4.7031 Z-1.0584
X-94.7490 Y4.5975 Z-1.0788
X-94.7718 Y4.4837 Z-1.0993
X-94.7677 Y4.3677 Z-1.1198
X-94.7369 Y4.2557 Z-1.1402
X-94.6811 Y4.1539 Z-1.1607
X-94.6034 Y4.0677 Z-1.1812
X-94.5079 Y4.0017 Z-1.2017
X-94.3997 Y3.9595 Z-1.2221
X-94.2847 Y3.9434 Z-1.2426
X-94.1692 Y3.9543 Z-1.2631
X-94.0592 Y3.9915 Z-1.2835
X-93.9608 Y4.0531 Z-1.3040
X-93.8792 Y4.1357 Z-1.3245
X-93.8189 Y4.2349 Z-1.3450
X-93.7831 Y4.3453 Z-1.3654
X-93.7737 Y4.4611 Z-1.3859
X-93.7913 Y4.5758 Z-1.4064
X-93.8348 Y4.6834 Z-1.4268
X-93.9020 Y4.7781 Z-1.4473
X-93.9893 Y4.8547 Z-1.4678
X-94.0918 Y4.9092 Z-1.4882
X-94.2041 Y4.9385 Z-1.5087
X-94.3202 Y4.9411 Z-1.5292
X-94.4337 Y4.9169 Z-1.5497
X-94.5386 Y4.8672 Z-1.5701
X-94.6292 Y4.7946 Z-1.5906
X-94.7006 Y4.7031 Z-1.6111
X-94.7490 Y4.5975 Z-1.6315
X-94.7718 Y4.4837 Z-1.6520
X-94.7677 Y4.3677 Z-1.6725
X-94.7369 Y4.2557 Z-1.6929
X-94.6811 Y4.1539 Z-1.7134
X-94.6034 Y4.0677 Z-1.7339
X-94.5079 Y4.0017 Z-1.7544
X-94.3997 Y3.9595 Z-1.7748
X-94.2847 Y3.9434 Z-1.7953
X-94.1692 Y3.9543 Z-1.8158
X-94.0592 Y3.9915 Z-1.8362
X-93.9608 Y4.0531 Z-1.8567
X-93.8792 Y4.1357 Z-1.8772
X-93.8189 Y4.2349 Z-1.8976
X-93.7831 Y4.3453 Z-1.9181
X-93.7737 Y4.4611 Z-1.9386
X-93.7913 Y4.5758 Z-1.9591
X-93.8348 Y4.6834 Z-1.9795
X-93.9020 Y4.7781 Z-2.0000
X-94.3777 Y4.9323
X-94.7490 Y4.5975
X-94.6448 Y4.1085
X-94.1692 Y3.9543
X-93.7978 Y4.2891
X-93.9020 Y4.7781
Z-4.0000
X-94.3777 Y4.9323
X-94.7490 Y4.5975
X-94.6448 Y4.1085
X-94.1692 Y3.9543
X-93.7978 Y4.2891
X-93.9020 Y4.7781
G00 Z1.0000
X-94.7536 Y34.7859
G01 Z-0.7300  F1000.0
X-94.7528 Y34.7812 Z-0.7308
X-94.7071 Y34.6745 Z-0.7513
X-94.6380 Y34.5812 Z-0.7718
X-94.5493 Y34.5063 Z-0.7923
X-94.4457 Y34.4539 Z-0.8127
X-94.3328 Y34.4269 Z-0.8332
X-94.2167 Y34.4265 Z-0.8537
X-94.1037 Y34.4530 Z-0.8741
X-93.9998 Y34.5048 Z-0.8946
X-93.9107 Y34.5792 Z-0.9151
X-93.8411 Y34.6721 Z-0.9355
X-93.7948 Y34.7786 Z-0.9560
X-93.7743 Y34.8929 Z-0.9765
X-93.7808 Y35.0088 Z-0.9970
X-93.8138 Y35.1201 Z-1.0174
X-93.8715 Y35.2208 Z-1.0379
X-93.9510 Y35.3054 Z-1.0584
X-94.0478 Y35.3695 Z-1.0788
X-94.1568 Y35.4095 Z-1.0993
X-94.2720 Y35.4233 Z-1.1198
X-94.3874 Y35.4101 Z-1.1402
X-94.4966 Y35.3707 Z-1.1607
X-94.5937 Y35.3072 Z-1.1812
X-94.6736 Y35.2230 Z-1.2017
X-94.7320 Y35.1226 Z-1.2221
X-94.7656 Y35.0115 Z-1.2426
X-94.7726 Y34.8956 Z-1.2631
X-94.7528 Y34.7812 Z-1.2835
X-94.7071 Y34.6745 Z-1.3040
X-94.6380 Y34.5812 Z-1.3245
X-94.5493 Y34.5063 Z-1.3450
X-94.4457 Y34.4539 Z-1.3654
X-94.3328 Y34.4269 Z-1.3859
X-94.2167 Y34.4265 Z-1.4064
X-94.1037 Y34.4530 Z-1.4268
X-93.9998 Y34.5048 Z-1.4473
X-93.9107 Y34.5792 Z-1.4678
X-93.8411 Y34.6721 Z-1.4882
X-93.7948 Y34.7786 Z-1.5087
X-93.7743 Y34.8929 Z-1.5292
X-93.7808 Y35.0088 Z-1.5497
X-93.8138 Y35.1201 Z-1.5701
X-93.8715 Y35.2208 Z-1.5906
X-93.9510 Y35.3054 Z-1.6111
X-94.0478 Y35.3695 Z-1.6315
X-94.1568 Y35.4095 Z-1.6520
X-94.2720 Y35.4233 Z-1.6725
X-94.3874 Y35.4101 Z-1.6929
X-94.4966 Y35.3707 Z-1.7134
X-94.5937 Y35.3072 Z-1.7339
X-94.6736 Y35.2230 Z-1.7544
X-94.7320 Y35.1226 Z-1.7748
X-94.7656 Y35.0115 Z-1.7953
X-94.7726 Y34.8956 Z-1.8158
X-94.7528 Y34.7812 Z-1.8362
X-94.7071 Y34.6745 Z-1.8567
X-94.6380 Y34.5812 Z-1.8772
X-94.5493 Y34.5063 Z-1.8976
X-94.4457 Y34.4539 Z-1.9181
X-94.3328 Y34.4269 Z-1.9386
X-94.2167 Y34.4265 Z-1.9591
X-94.1037 Y34.4530 Z-1.9795
X-93.9998 Y34.5048 Z-2.0000
X-93.7742 Y34.9510
X-94.0478 Y35.3695
X-94.5470 Y35.3418
X-94.7726 Y34.8956
X-94.4990 Y34.4771
X-93.9998 Y34.5048
Z-4.0000
X-93.7742 Y34.9510
X-94.0478 Y35.3695
X-94.5470 Y35.3418
X-94.7726 Y34.8956
X-94.4990 Y34.4771
X-93.9998 Y34.5048
G00 Z1.0000
X-66.2240 Y87.6362
G01 Z-0.7300  F1000.0
X-66.0653 Y87.4302 Z-0.7758
X-65.8427 Y87.1859 Z-0.8341
X-65.6006 Y86.9608 Z-0.8924
X-65.3407 Y86.7564 Z-0.9507
X-65.0649 Y86.5742 Z-1.0090
X-64.7749 Y86.4154 Z-1.0673
X-64.4728 Y86.2810 Z-1.1256
X-64.1607 Y86.1721 Z-1.1839
X-63.8406 Y86.0893 Z-1.2422
X-63.5148 Y86.0333 Z-1.3005
X-63.1855 Y86.0043 Z-1.3588
X-62.8549 Y86.0026 Z-1.4171
X-62.5253 Y86.0283 Z-1.4754
X-62.1989 Y86.0810 Z-1.5337
X-61.8780 Y86.1606 Z-1.5919
X-61.5648 Y86.2663 Z-1.6502
X-61.2614 Y86.3976 Z-1.7085
X-60.9698 Y86.5535 Z-1.7668
X-60.6922 Y86.7329 Z-1.8251
X-60.4302 Y86.9347 Z-1.8834
X-60.1859 Y87.1573 Z-1.9417
X-59.9608 Y87.3994 Z-2.0000
G17
G03X-66.0392Y92.6006I-3.0392J2.6006
X-59.9608Y87.3994I3.0392J-2.6006
G01 Z-4.0000
G03X-66.0392Y92.6006I-3.0392J2.6006
X-59.9608Y87.3994I3.0392J-2.6006
G00 Z1.0000
X-5.4364 Y35.4188
G01 Z-0.7300  F1000.0
X-5.4412 Y35.4187 Z-0.7308
X-5.5536 Y35.3897 Z-0.7513
X-5.6563 Y35.3356 Z-0.7718
X-5.7437 Y35.2592 Z-0.7923
X-5.8112 Y35.1648 Z-0.8127
X-5.8551 Y35.0573 Z-0.8332
X-5.8730 Y34.9426 Z-0.8537
X-5.8640 Y34.8269 Z-0.8741
X-5.8285 Y34.7163 Z-0.8946
X-5.7685 Y34.6169 Z-0.9151
X-5.6872 Y34.5341 Z-0.9355
X-5.5890 Y34.4722 Z-0.9560
X-5.4792 Y34.4346 Z-0.9765
X-5.3636 Y34.4234 Z-0.9970
X-5.2486 Y34.4391 Z-1.0174
X-5.1403 Y34.4810 Z-1.0379
X-5.0446 Y34.5467 Z-1.0584
X-4.9666 Y34.6327 Z-1.0788
X-4.9105 Y34.7343 Z-1.0993
X-4.8794 Y34.8462 Z-1.1198
X-4.8749 Y34.9622 Z-1.1402
X-4.8973 Y35.0761 Z-1.1607
X-4.9454 Y35.1818 Z-1.1812
X-5.0165 Y35.2735 Z-1.2017
X-5.1069 Y35.3464 Z-1.2221
X-5.2116 Y35.3964 Z-1.2426
X-5.3251 Y35.4210 Z-1.2631
X-5.4412 Y35.4187 Z-1.2835
X-5.5536 Y35.3897 Z-1.3040
X-5.6563 Y35.3356 Z-1.3245
X-5.7437 Y35.2592 Z-1.3450
X-5.8112 Y35.1648 Z-1.3654
X-5.8551 Y35.0573 Z-1.3859
X-5.8730 Y34.9426 Z-1.4064
X-5.8640 Y34.8269 Z-1.4268
X-5.8285 Y34.7163 Z-1.4473
X-5.7685 Y34.6169 Z-1.4678
X-5.6872 Y34.5341 Z-1.4882
X-5.5890 Y34.4722 Z-1.5087
X-5.4792 Y34.4346 Z-1.5292
X-5.3636 Y34.4234 Z-1.5497
X-5.2486 Y34.4391 Z-1.5701
X-5.1403 Y34.4810 Z-1.5906
X-5.0446 Y34.5467 Z-1.6111
X-4.9666 Y34.6327 Z-1.6315
X-4.9105 Y34.7343 Z-1.6520
X-4.8794 Y34.8462 Z-1.6725
X-4.8749 Y34.9622 Z-1.6929
X-4.8973 Y35.0761 Z-1.7134
X-4.9454 Y35.1818 Z-1.7339
X-5.0165 Y35.2735 Z-1.7544
X-5.1069 Y35.3464 Z-1.7748
X-5.2116 Y35.3964 Z-1.7953
X-5.3251 Y35.4210 Z-1.8158
X-5.4412 Y35.4187 Z-1.8362
X-5.5536 Y35.3897 Z-1.8567
X-5.6563 Y35.3356 Z-1.8772
X-5.7437 Y35.2592 Z-1.8976
X-5.8112 Y35.1648 Z-1.9181
X-5.8551 Y35.0573 Z-1.9386
X-5.8730 Y34.9426 Z-1.9591
X-5.8640 Y34.8269 Z-1.9795
X-5.8285 Y34.7163 Z-2.0000
X-5.4217 Y34.4257
X-4.9666 Y34.6327
X-4.9183 Y35.1303
X-5.3251 Y35.4210
X-5.7802 Y35.2140
X-5.8285 Y34.7163
Z-4.0000
X-5.4217 Y34.4257
X-4.9666 Y34.6327
X-4.9183 Y35.1303
X-5.3251 Y35.4210
X-5.7802 Y35.2140
X-5.8285 Y34.7163
G00 Z1.0000
X-4.8817 Y4.5312
G01 Z-0.7300  F1000.0
X-4.8821 Y4.5359 Z-0.7308
X-4.9167 Y4.6467 Z-0.7513
X-4.9759 Y4.7466 Z-0.7718
X-5.0565 Y4.8301 Z-0.7923
X-5.1543 Y4.8927 Z-0.8127
X-5.2638 Y4.9312 Z-0.8332
X-5.3793 Y4.9433 Z-0.8537
X-5.4944 Y4.9284 Z-0.8741
X-5.6031 Y4.8875 Z-0.8946
X-5.6993 Y4.8225 Z-0.9151
X-5.7780 Y4.7371 Z-0.9355
X-5.8348 Y4.6359 Z-0.9560
X-5.8668 Y4.5243 Z-0.9765
X-5.8722 Y4.4084 Z-0.9970
X-5.8507 Y4.2943 Z-1.0174
X-5.8034 Y4.1882 Z-1.0379
X-5.7330 Y4.0959 Z-1.0584
X-5.6432 Y4.0224 Z-1.0788
X-5.5389 Y3.9715 Z-1.0993
X-5.4256 Y3.9460 Z-1.1198
X-5.3095 Y3.9474 Z-1.1402
X-5.1969 Y3.9755 Z-1.1607
X-5.0937 Y4.0288 Z-1.1812
X-5.0057 Y4.1045 Z-1.2017
X-4.9375 Y4.1984 Z-1.2221
X-4.8928 Y4.3056 Z-1.2426
X-4.8739 Y4.4201 Z-1.2631
X-4.8821 Y4.5359 Z-1.2835
X-4.9167 Y4.6467 Z-1.3040
X-4.9759 Y4.7466 Z-1.3245
X-5.0565 Y4.8301 Z-1.3450
X-5.1543 Y4.8927 Z-1.3654
X-5.2638 Y4.9312 Z-1.3859
X-5.3793 Y4.9433 Z-1.4064
X-5.4944 Y4.9284 Z-1.4268
X-5.6031 Y4.8875 Z-1.4473
X-5.6993 Y4.8225 Z-1.4678
X-5.7780 Y4.7371 Z-1.4882
X-5.8348 Y4.6359 Z-1.5087
X-5.8668 Y4.5243 Z-1.5292
X-5.8722 Y4.4084 Z-1.5497
X-5.8507 Y4.2943 Z-1.5701
X-5.8034 Y4.1882 Z-1.5906
X-5.7330 Y4.0959 Z-1.6111
X-5.6432 Y4.0224 Z-1.6315
X-5.5389 Y3.9715 Z-1.6520
X-5.4256 Y3.9460 Z-1.6725
X-5.3095 Y3.9474 Z-1.6929
X-5.1969 Y3.9755 Z-1.7134
X-5.0937 Y4.0288 Z-1.7339
X-5.0057 Y4.1045 Z-1.7544
X-4.9375 Y4.1984 Z-1.7748
X-4.8928 Y4.3056 Z-1.7953
X-4.8739 Y4.4201 Z-1.8158
X-4.8821 Y4.5359 Z-1.8362
X-4.9167 Y4.6467 Z-1.8567
X-4.9759 Y4.7466 Z-1.8772
X-5.0565 Y4.8301 Z-1.8976
X-5.1543 Y4.8927 Z-1.9181
X-5.2638 Y4.9312 Z-1.9386
X-5.3793 Y4.9433 Z-1.9591
X-5.4944 Y4.9284 Z-1.9795
X-5.6031 Y4.8875 Z-2.0000
X-5.8729 Y4.4665
X-5.6432 Y4.0224
X-5.1438 Y3.9992
X-4.8739 Y4.4201
X-5.1036 Y4.8643
X-5.6031 Y4.8875
Z-4.0000
X-5.8729 Y4.4665
X-5.6432 Y4.0224
X-5.1438 Y3.9992
X-4.8739 Y4.4201
X-5.1036 Y4.8643
X-5.6031 Y4.8875
G00 Z1.0000
(2 1/2 Axis Profiling)
(SlotDrill 2mm Carbide)
X1.0000 Y39.0717
G01 Z-0.7300  F1000.0
Y31.8692 Z-2.0000
Y0.0000
G02X0.0000Y-1.0000I-1.0000J0.0000
G01 X-98.9965
G02X-99.9965Y0.0000I0.0000J1.0000
G01 Y37.7768
G02X1.0000Y90.0000I36.9965J52.2232
G01 Y31.8692
Z-4.0000
Y0.0000
G02X0.0000Y-1.0000I-1.0000J0.0000
G01 X-98.9965
G02X-99.9965Y0.0000I0.0000J1.0000
G01 Y37.7768
G02X1.0000Y90.0000I36.9965J52.2232
G01 Y31.8692
G00 Z1.0000
M5 M9
M30
