G00 G49 G40.1 G17 G80 G50 G90
G21
(2 1/2 Axis Profiling)
(SlotDrill 2mm Carbide)
M6 T12
M03 S20000
G00 Z1.0000
X76.7862 Y31.4149
G01 Z0.0200  F500.0
X76.8438 Y31.3695 Z0.0071  F125.0
X76.9704 Y31.3041 Z-0.0181
X77.1072 Y31.2637 Z-0.0432
X77.2491 Y31.2500 Z-0.0684
X77.3911 Y31.2634 Z-0.0935
X77.5279 Y31.3034 Z-0.1186
X77.6547 Y31.3686 Z-0.1438
X77.7669 Y31.4566 Z-0.1689
X77.8604 Y31.5642 Z-0.1941
X77.9318 Y31.6876 Z-0.2192
X77.9786 Y31.8223 Z-0.2443
X77.9991 Y31.9634 Z-0.2695
X77.9925 Y32.1058 Z-0.2946
X77.9590 Y32.2444 Z-0.3198
X77.9000 Y32.3742 Z-0.3449
X77.8174 Y32.4905 Z-0.3701
X77.7143 Y32.5890 Z-0.3952
X77.5945 Y32.6662 Z-0.4203
X77.4622 Y32.7194 Z-0.4455
X77.3222 Y32.7465 Z-0.4706
X77.1796 Y32.7467 Z-0.4958
X77.0396 Y32.7199 Z-0.5209
X76.9071 Y32.6670 Z-0.5460
X76.7871 Y32.5901 Z-0.5712
X76.6838 Y32.4918 Z-0.5963
X76.6009 Y32.3758 Z-0.6215
X76.5415 Y32.2462 Z-0.6466
X76.5078 Y32.1076 Z-0.6717
X76.5008 Y31.9652 Z-0.6969
X76.5209 Y31.8241 Z-0.7220
X76.5674 Y31.6893 Z-0.7472
X76.6385 Y31.5657 Z-0.7723
X76.7318 Y31.4578 Z-0.7975
X76.8438 Y31.3695 Z-0.8226
X76.9704 Y31.3041 Z-0.8477
X77.1072 Y31.2637 Z-0.8729
X77.2491 Y31.2500 Z-0.8980
X77.3911 Y31.2634 Z-0.9232
X77.5279 Y31.3034 Z-0.9483
X77.6547 Y31.3686 Z-0.9734
X77.7669 Y31.4566 Z-0.9986
X77.8604 Y31.5642 Z-1.0237
X77.9318 Y31.6876 Z-1.0489
X77.9786 Y31.8223 Z-1.0740
X77.9991 Y31.9634 Z-1.0992
X77.9925 Y32.1058 Z-1.1243
X77.9590 Y32.2444 Z-1.1494
X77.9000 Y32.3742 Z-1.1746
X77.8174 Y32.4905 Z-1.1997
X77.7143 Y32.5890 Z-1.2249
X77.5945 Y32.6662 Z-1.2500
G17
G03X76.9055Y31.3338I-0.3445J-0.6662 F500.0
X77.5945Y32.6662I0.3445J0.6662
G01 Z-2.5000
G03X76.9055Y31.3338I-0.3445J-0.6662
X77.5945Y32.6662I0.3445J0.6662
G00 Z1.0000
X92.0000 Y46.5400
G01 Z0.0200  F500.0
Y53.7425 Z-1.2500  F125.0
Y62.7500  F500.0
X62.5000
Y37.2500
X92.0000
Y53.7425
Z-2.5000
Y62.7500
X62.5000
Y37.2500
X92.0000
Y53.7425
G00 Z1.0000
X76.7862 Y67.4149
G01 Z0.0200  F500.0
X76.8438 Y67.3695 Z0.0071  F125.0
X76.9704 Y67.3041 Z-0.0181
X77.1072 Y67.2637 Z-0.0432
X77.2491 Y67.2500 Z-0.0684
X77.3911 Y67.2634 Z-0.0935
X77.5279 Y67.3034 Z-0.1186
X77.6547 Y67.3686 Z-0.1438
X77.7669 Y67.4566 Z-0.1689
X77.8604 Y67.5642 Z-0.1941
X77.9318 Y67.6876 Z-0.2192
X77.9786 Y67.8223 Z-0.2443
X77.9991 Y67.9634 Z-0.2695
X77.9925 Y68.1058 Z-0.2946
X77.9590 Y68.2444 Z-0.3198
X77.9000 Y68.3742 Z-0.3449
X77.8174 Y68.4905 Z-0.3701
X77.7143 Y68.5890 Z-0.3952
X77.5945 Y68.6662 Z-0.4203
X77.4622 Y68.7194 Z-0.4455
X77.3222 Y68.7465 Z-0.4706
X77.1796 Y68.7467 Z-0.4958
X77.0396 Y68.7199 Z-0.5209
X76.9071 Y68.6670 Z-0.5460
X76.7871 Y68.5901 Z-0.5712
X76.6838 Y68.4918 Z-0.5963
X76.6009 Y68.3758 Z-0.6215
X76.5415 Y68.2462 Z-0.6466
X76.5078 Y68.1076 Z-0.6717
X76.5008 Y67.9652 Z-0.6969
X76.5209 Y67.8241 Z-0.7220
X76.5674 Y67.6893 Z-0.7472
X76.6385 Y67.5657 Z-0.7723
X76.7318 Y67.4578 Z-0.7975
X76.8438 Y67.3695 Z-0.8226
X76.9704 Y67.3041 Z-0.8477
X77.1072 Y67.2637 Z-0.8729
X77.2491 Y67.2500 Z-0.8980
X77.3911 Y67.2634 Z-0.9232
X77.5279 Y67.3034 Z-0.9483
X77.6547 Y67.3686 Z-0.9734
X77.7669 Y67.4566 Z-0.9986
X77.8604 Y67.5642 Z-1.0237
X77.9318 Y67.6876 Z-1.0489
X77.9786 Y67.8223 Z-1.0740
X77.9991 Y67.9634 Z-1.0992
X77.9925 Y68.1058 Z-1.1243
X77.9590 Y68.2444 Z-1.1494
X77.9000 Y68.3742 Z-1.1746
X77.8174 Y68.4905 Z-1.1997
X77.7143 Y68.5890 Z-1.2249
X77.5945 Y68.6662 Z-1.2500
G03X76.9055Y67.3338I-0.3445J-0.6662 F500.0
X77.5945Y68.6662I0.3445J0.6662
G01 Z-2.5000
G03X76.9055Y67.3338I-0.3445J-0.6662
X77.5945Y68.6662I0.3445J0.6662
G00 Z1.0000
M5 M9
M30
