G00 G49 G40.1 G17 G80 G50 G90
G21
(Standard Drill )
(1/8in Carbide Drill)
M6 T13
M03 S20000
G00 Z15.4875
X113.9500 Y52.7500
G81 X113.9500 Y52.7500 Z-4. R2.5 F70.0
G80
G00 Z15.4875
G81 X113.9500 Y97.2500 Z-4. R2.5 F70.0
G80
G00 Z15.4875
G81 X53.6500 Y97.2500 Z-4. R2.5 F70.0
G80
G00 Z15.4875
G81 X53.6500 Y52.7500 Z-4. R2.5 F70.0
G80
G00 Z15.4875
G81 X66.8000 Y151.0000 Z-4. R2.5 F70.0
G80
G00 Z15.4875
G81 X66.8000 Y176.0000 Z-4. R2.5 F70.0
G80
G00 Z15.4875
M5 M9
M30
