; generated by Slic3r 0.9.9 on 2013-04-06 at 19:52:22

; layer_height = 0.2
; perimeters = 3
; top_solid_layers = 3
; bottom_solid_layers = 3
; fill_density = 0.25
; perimeter_speed = 30
; infill_speed = 40
; travel_speed = 130
; nozzle_diameter = 0.4
; filament_diameter = 2.95
; extrusion_multiplier = 1.105263
; perimeters extrusion width = 0.67mm
; infill extrusion width = 0.67mm
; solid infill extrusion width = 0.67mm
; top infill extrusion width = 0.67mm
; first layer extrusion width = 0.80mm

G21 ; set units to millimeters
M190 P115 ; wait for bed temperature to be reached
M104 P210 ; set temperature
G92 A0                  ; Reset A to 0
G40                        ; Cancel cutter compensation
G64 P0.1                ; Path Blend within .1mm
G0 X108.5 Y200    ; Move to plate
M109 P210 ; wait for temperature to be reached
G90 ; use absolute coordinates
G0 Z0.400 F7800.000
G0 Z0.900 F1620.000 A-1.00000
G0 X73.150 Y73.350 F7800.000
G0 Z0.400
G0 F5400.000 A0.00000
G1 X73.560000 Y72.950000 Z0.400000 A0.026460 F540.000000
G3 X78.500000 Y71.070000 Z0.400000 A0.275950 I4.9088 J5.4684
G1 X138.500000 Y71.070000 Z0.400000 A3.047600
G3 X145.930000 Y78.500000 Z0.400000 A3.586470 I0.0255 J7.4045
G1 X145.930000 Y138.500000 Z0.400000 A6.358110
G3 X138.500000 Y145.930000 Z0.400000 A6.896980 I-7.4045 J0.0255
G1 X78.500000 Y145.930000 Z0.400000 A9.668630
G3 X71.070000 Y138.500000 Z0.400000 A10.207490 I-0.0255 J-7.4045
G1 X71.070000 Y78.500000 Z0.400000 A12.979140
G3 X73.076000 Y73.428000 Z0.400000 A13.237110 I7.3452 J-0.0276
G0 X73.660 Y73.850 F7800.000
G1 X74.050000 Y73.470000 Z0.400000 A13.262260 F540.000000
G3 X78.230000 Y71.790000 Z0.400000 A13.474410 I4.4304 J4.9832
G1 X138.770000 Y71.790000 Z0.400000 A16.271010
G3 X145.210000 Y78.230000 Z0.400000 A16.733220 I-0.2220 J6.6620
G1 X145.210000 Y138.770000 Z0.400000 A19.529810
G3 X138.770000 Y145.210000 Z0.400000 A19.992030 I-6.6620 J-0.2220
G1 X78.230000 Y145.210000 Z0.400000 A22.788620
G3 X71.790000 Y138.770000 Z0.400000 A23.250830 I0.2220 J-6.6620
G1 X71.790000 Y78.230000 Z0.400000 A26.047430
G3 X73.586000 Y73.928000 Z0.400000 A26.267390 I6.5649 J0.2148
G0 Z0.900 F1620.000 A25.26739
G0 X130.486 Y82.901 F7800.000
G0 Z0.400
G0 F5400.000 A26.26739
G1 X130.560000 Y82.608000 Z0.400000 A26.281320 F540.000000
G3 X130.427000 Y83.500000 Z0.400000 A27.130970 I2.9397 J0.8942
G1 X130.471000 Y83.007000 Z0.400000 A27.153840
G0 X131.188 Y83.040 F7800.000
G1 X131.322000 Y82.598000 Z0.400000 A27.175190 F540.000000
G3 X131.142000 Y83.500000 Z0.400000 A27.815660 I2.1775 J0.9035
G1 X131.172000 Y83.146000 Z0.400000 A27.832060
G0 X130.850 Y82.724 F7800.000
G0 X130.959 Y83.500
G0 X113.851 Y81.597
G0 X108.500 Y81.070
G0 X103.149 Y81.597
G0 X86.041 Y83.500
G0 X86.573 Y83.500
G1 X86.558000 Y83.801000 Z0.400000 A27.845990 F540.000000
G3 X86.210000 Y82.052000 Z0.400000 A28.653850 I-3.0331 J-0.3056
G1 X86.339000 Y82.324000 Z0.400000 A28.667780
G3 X86.567000 Y83.393000 Z0.400000 A28.718520 I-2.7649 J1.1485
G0 X85.858 Y83.500 F7800.000
G1 X85.812000 Y83.960000 Z0.400000 A28.739870 F540.000000
G3 X85.812000 Y83.040000 Z0.400000 A29.380330 I-2.3120 J-0.4600
G1 X85.852000 Y83.393000 Z0.400000 A29.396740
G0 X86.250 Y83.744 F7800.000
G0 X86.041 Y83.500
G0 X81.597 Y103.149
G0 X81.070 Y108.500
G0 X81.597 Y113.851
G0 X83.500 Y130.959
G0 X83.801 Y130.442
G1 X84.099000 Y130.486000 Z0.400000 A29.410660 F540.000000
G3 X82.324000 Y130.661000 Z0.400000 A30.218530 I-0.6008 J2.9958
G1 X82.608000 Y130.560000 Z0.400000 A30.232450
G3 X83.694000 Y130.437000 Z0.400000 A30.283200 I0.8681 J2.8088
G0 X83.698 Y131.152 F7800.000
G1 X83.960000 Y131.188000 Z0.400000 A30.295410 F540.000000
G3 X83.269000 Y131.154000 Z0.400000 A30.946560 I-0.4601 J2.3114
G1 X83.591000 Y131.147000 Z0.400000 A30.961440
G0 X83.850 Y130.936 F7800.000
G0 X88.660 Y128.254
G1 X86.856000 Y126.263000 Z0.400000 A31.085560 F540.000000
G3 X90.737000 Y130.144000 Z0.400000 A38.955260 I21.6401 J-17.7591
G1 X88.736000 Y128.330000 Z0.400000 A39.080050
G0 X89.207 Y127.793 F7800.000
G1 X87.409000 Y125.809000 Z0.400000 A39.203740 F378.000000
G3 X91.191000 Y129.591000 Z0.400000 A46.872460 I21.0910 J-17.3090
G1 X89.286000 Y127.865000 Z0.400000 A46.991200
G0 X88.514 Y127.967 F7800.000
G0 X89.104 Y127.896
G0 X85.297 Y135.297
G0 X108.512 Y135.928
G0 X131.703 Y135.296
G0 X127.896 Y127.896
G0 X130.959 Y133.500
G0 X130.442 Y133.199
G1 X130.486000 Y132.901000 Z0.400000 A47.005130 F540.000000
G3 X130.661000 Y134.676000 Z0.400000 A47.812990 I2.9958 J0.6008
G1 X130.560000 Y134.392000 Z0.400000 A47.826920
G3 X130.437000 Y133.306000 Z0.400000 A47.877660 I2.8088 J-0.8681
G0 X131.154 Y133.269 F7800.000
G1 X131.244000 Y132.816000 Z0.400000 A47.899010 F540.000000
G3 X131.154000 Y133.731000 Z0.400000 A48.539470 I2.2524 J0.6835
G1 X131.149000 Y133.376000 Z0.400000 A48.555880
G0 X130.787 Y132.988 F7800.000
G0 X129.770 Y132.863
G1 X129.731000 Y133.129000 Z0.400000 A48.568270 F540.000000
G2 X130.572000 Y135.903000 Z0.400000 A48.705610 I3.7487 J0.3780
G1 X131.308000 Y136.715000 Z0.400000 A48.756240
G1 X115.844000 Y136.715000 Z0.400000 A49.470610
G1 X115.786000 Y136.241000 Z0.400000 A49.492640
G2 X124.453000 Y132.375000 Z0.400000 A49.933160 I-5.3955 J-23.7440
G1 X126.716000 Y130.697000 Z0.400000 A50.063310
G2 X136.241000 Y115.786000 Z0.400000 A50.894350 I-17.9708 J-21.9773
G1 X136.715000 Y115.844000 Z0.400000 A50.916380
G1 X136.715000 Y131.308000 Z0.400000 A51.630730
G1 X135.903000 Y130.572000 Z0.400000 A51.681340
G2 X129.786000 Y132.757000 Z0.400000 A52.041750 I-2.4031 J2.9274
G0 X130.959 Y133.500 F7800.000
G0 X127.896 Y127.896
G0 X131.703 Y135.296
G0 X108.512 Y135.928
G0 X85.297 Y135.297
G0 X103.149 Y135.403
G0 X101.214 Y136.241
G1 X101.156000 Y136.715000 Z0.400000 A52.063770 F540.000000
G1 X85.692000 Y136.715000 Z0.400000 A52.778130
G1 X86.428000 Y135.903000 Z0.400000 A52.828740
G2 X81.097000 Y130.572000 Z0.400000 A53.343820 I-2.9278 J-2.4032
G1 X80.285000 Y131.308000 Z0.400000 A53.394440
G1 X80.285000 Y115.844000 Z0.400000 A54.108800
G1 X80.759000 Y115.786000 Z0.400000 A54.130830
G2 X83.176000 Y122.036000 Z0.400000 A54.441180 I22.2719 J-5.0207
G1 X84.625000 Y124.453000 Z0.400000 A54.571350
G2 X101.111000 Y136.215000 Z0.400000 A55.527580 I23.7184 J-15.8098
G0 X103.149 Y135.403 F7800.000
G0 X85.297 Y131.703
G0 X81.597 Y113.851
G0 X81.070 Y108.500
G0 X81.597 Y103.149
G0 X80.759 Y101.214
G1 X80.285000 Y101.156000 Z0.400000 A55.549610 F540.000000
G1 X80.285000 Y85.692000 Z0.400000 A56.263960
G1 X81.097000 Y86.428000 Z0.400000 A56.314570
G2 X86.428000 Y81.097000 Z0.400000 A56.829640 I2.4032 J-2.9278
G1 X85.692000 Y80.285000 Z0.400000 A56.880250
G1 X101.156000 Y80.285000 Z0.400000 A57.594600
G1 X101.214000 Y80.759000 Z0.400000 A57.616630
G2 X94.964000 Y83.176000 Z0.400000 A57.926970 I5.0371 J22.3145
G1 X92.547000 Y84.624000 Z0.400000 A58.057130
G2 X80.785000 Y101.111000 Z0.400000 A59.013370 I15.7684 J23.6884
G0 X81.597 Y103.149 F7800.000
G0 X83.158 Y98.003
G0 X85.693 Y93.261
G0 X89.104 Y89.104
G0 X93.261 Y85.693
G0 X98.003 Y83.158
G0 X103.149 Y81.597
G0 X108.500 Y81.070
G0 X113.851 Y81.597
G0 X115.786 Y80.759
G1 X115.844000 Y80.285000 Z0.400000 A59.035400 F540.000000
G1 X131.308000 Y80.285000 Z0.400000 A59.749750
G1 X130.572000 Y81.097000 Z0.400000 A59.800370
G2 X135.903000 Y86.428000 Z0.400000 A60.315440 I2.9278 J2.4032
G1 X136.715000 Y85.692000 Z0.400000 A60.366060
G1 X136.715000 Y101.156000 Z0.400000 A61.080410
G1 X136.241000 Y101.214000 Z0.400000 A61.102440
G2 X133.824000 Y94.964000 Z0.400000 A61.412800 I-22.3145 J5.0371
G1 X132.376000 Y92.547000 Z0.400000 A61.542940
G2 X115.889000 Y80.785000 Z0.400000 A62.499190 I-23.7224 J15.8161
G0 X137.429 Y79.571 F7800.000
G1 X137.429000 Y137.429000 Z0.400000 A65.171870 F540.000000
G1 X79.571000 Y137.429000 Z0.400000 A67.844550
G1 X79.571000 Y79.571000 Z0.400000 A70.517220
G1 X137.322000 Y79.571000 Z0.400000 A73.184950
G0 X138.143 Y78.857 F7800.000
G1 X138.143000 Y138.143000 Z0.400000 A75.923610 F378.000000
G1 X78.857000 Y138.143000 Z0.400000 A78.662270
G1 X78.857000 Y78.857000 Z0.400000 A81.400930
G1 X138.036000 Y78.857000 Z0.400000 A84.134640
G0 X137.786 Y79.476 F7800.000
G0 X138.000 Y79.000
G0 X135.297 Y131.703
G0 X133.500 Y130.959
G0 X133.868 Y127.063
G1 X134.050000 Y127.072000 Z0.400000 A84.143090 F720.000000
G1 X134.050000 Y126.667000 Z0.400000 A84.161830
G1 X133.761000 Y127.058000 Z0.400000 A84.184330
G0 X132.344 Y127.881 F7800.000
G1 X132.937000 Y127.789000 Z0.400000 A84.212110 F720.000000
G3 X134.766000 Y127.908000 Z0.400000 A84.297250 I0.5630 J5.4620
G1 X134.766000 Y124.256000 Z0.400000 A84.466310
G3 X132.240000 Y127.907000 Z0.400000 A84.671990 I-19.8043 J-11.0026
G0 X129.171 Y129.171 F7800.000
G1 X131.098000 Y127.045000 Z0.400000 A84.804780 F720.000000
G2 X135.821000 Y119.025000 Z0.400000 A85.237000 I-23.6496 J-19.3280
G1 X136.197000 Y119.109000 Z0.400000 A85.254820
G1 X136.197000 Y130.018000 Z0.400000 A85.759700
G1 X135.148000 Y129.522000 Z0.400000 A85.813410
G2 X129.522000 Y135.148000 Z0.400000 A86.282750 I-1.6524 J3.9736
G1 X130.018000 Y136.197000 Z0.400000 A86.336460
G1 X119.109000 Y136.197000 Z0.400000 A86.841350
G1 X119.025000 Y135.821000 Z0.400000 A86.859170
G2 X129.091000 Y129.243000 Z0.400000 A87.419200 I-11.1184 J-28.0047
G0 X127.058 Y133.761 F7800.000
G1 X127.072000 Y134.050000 Z0.400000 A87.432620 F720.000000
G1 X126.667000 Y134.050000 Z0.400000 A87.451360
G1 X126.972000 Y133.825000 Z0.400000 A87.468890
G0 X124.363 Y134.766 F7800.000
G1 X127.908000 Y134.766000 Z0.400000 A87.632980 F720.000000
G3 X127.907000 Y132.240000 Z0.400000 A87.750850 I5.3377 J-1.2651
G1 X125.537000 Y133.998000 Z0.400000 A87.887380
G1 X124.256000 Y134.766000 Z0.400000 A87.956540
G0 X121.524 Y135.481 F7800.000
G1 X128.888000 Y135.481000 Z0.400000 A88.297360 F720.000000
G3 X135.481000 Y128.888000 Z0.400000 A88.850850 I4.5921 J-2.0009
G1 X135.481000 Y121.417000 Z0.400000 A89.196640
G3 X129.677000 Y129.677000 Z0.400000 A89.666230 I-23.6558 J-10.4529
G1 X127.500000 Y131.651000 Z0.400000 A89.802270
G3 X121.417000 Y135.481000 Z0.400000 A90.135820 I-17.8358 J-21.5820
G0 X118.997 Y133.842 F7800.000
G0 X133.500 Y130.959
G0 X135.297 Y131.703
G0 X136.794 Y132.078
G1 X136.794000 Y132.078000 Z0.400000 A90.135820 F360.000000
G0 X136.216 Y136.472 F7800.000
G1 X136.216000 Y136.472000 Z0.400000 A90.135830 F360.000000
G0 X132.079 Y136.795 F7800.000
G1 X132.079000 Y136.795000 Z0.400000 A90.135830 F360.000000
G0 X117.758 Y136.198 F7800.000
G1 X118.156000 Y136.198000 Z0.400000 A90.146110 F360.000000
G1 X118.156000 Y136.055000 Z0.400000 A90.149790
G1 X118.555000 Y135.912000 Z0.400000 A90.160710
G1 X118.555000 Y136.198000 Z0.400000 A90.168060
G1 X118.953000 Y136.198000 Z0.400000 A90.178340
G1 X118.953000 Y135.770000 Z0.400000 A90.189380
G1 X119.352000 Y136.198000 Z0.400000 A90.204460
G0 X114.244 Y136.672 F7800.000
G1 X115.076000 Y136.671000 Z0.400000 A90.249210 F360.000000
G0 X110.653 Y136.912 F7800.000
G1 X111.044000 Y136.912000 Z0.400000 A90.259130 F360.000000
G1 X111.436000 Y136.912000 Z0.400000 A90.269550
G1 X111.436000 Y136.859000 Z0.400000 A90.270880
G1 X111.827000 Y136.912000 Z0.400000 A90.280880
G1 X111.827000 Y136.801000 Z0.400000 A90.283680
G1 X112.219000 Y136.743000 Z0.400000 A90.293710
G1 X112.219000 Y136.912000 Z0.400000 A90.297980
G1 X112.610000 Y136.912000 Z0.400000 A90.307890
G1 X112.610000 Y136.685000 Z0.400000 A90.313640
G1 X113.002000 Y136.912000 Z0.400000 A90.325100
G0 X103.998 Y136.912 F7800.000
G1 X104.390000 Y136.912000 Z0.400000 A90.335010 F360.000000
G1 X104.390000 Y136.685000 Z0.400000 A90.340750
G1 X104.781000 Y136.743000 Z0.400000 A90.350780
G1 X104.781000 Y136.912000 Z0.400000 A90.355050
G1 X105.173000 Y136.912000 Z0.400000 A90.364970
G1 X105.173000 Y136.801000 Z0.400000 A90.367770
G1 X105.564000 Y136.859000 Z0.400000 A90.377790
G1 X105.564000 Y136.912000 Z0.400000 A90.379120
G1 X105.956000 Y136.912000 Z0.400000 A90.389040
G1 X106.347000 Y136.912000 Z0.400000 A90.399460
G0 X101.924 Y136.672 F7800.000
G1 X102.756000 Y136.672000 Z0.400000 A90.444210 F360.000000
G0 X97.648 Y136.198 F7800.000
G1 X98.047000 Y136.198000 Z0.400000 A90.454490 F360.000000
G1 X98.047000 Y135.770000 Z0.400000 A90.465520
G1 X98.445000 Y135.912000 Z0.400000 A90.476440
G1 X98.445000 Y136.198000 Z0.400000 A90.483800
G1 X98.844000 Y136.198000 Z0.400000 A90.494070
G1 X98.844000 Y136.055000 Z0.400000 A90.497750
G1 X99.242000 Y136.198000 Z0.400000 A90.508670
G0 X89.937 Y133.868 F7800.000
G1 X89.928000 Y134.050000 Z0.400000 A90.517130 F720.000000
G1 X90.333000 Y134.050000 Z0.400000 A90.535860
G1 X89.942000 Y133.761000 Z0.400000 A90.558360
G0 X89.199 Y134.766 F7800.000
G1 X92.744000 Y134.766000 Z0.400000 A90.722450 F720.000000
G3 X89.093000 Y132.240000 Z0.400000 A90.928140 I11.0026 J-19.8043
G1 X89.211000 Y132.938000 Z0.400000 A90.960860
G3 X89.092000 Y134.766000 Z0.400000 A91.046010 I-5.4590 J0.5625
G0 X88.219 Y135.481 F7800.000
G1 X95.583000 Y135.481000 Z0.400000 A91.386830 F720.000000
G3 X87.323000 Y129.678000 Z0.400000 A91.856410 I10.4574 J-23.6652
G1 X85.349000 Y127.500000 Z0.400000 A91.992440
G3 X81.519000 Y121.417000 Z0.400000 A92.326010 I21.5820 J-17.8358
G1 X81.519000 Y128.888000 Z0.400000 A92.671800
G3 X88.112000 Y135.481000 Z0.400000 A93.225290 I2.0009 J4.5921
G0 X87.829 Y129.171 F7800.000
G1 X89.955000 Y131.098000 Z0.400000 A93.358050 F720.000000
G2 X97.975000 Y135.821000 Z0.400000 A93.790280 I19.3280 J-23.6496
G1 X97.891000 Y136.197000 Z0.400000 A93.808100
G1 X86.982000 Y136.197000 Z0.400000 A94.312990
G1 X87.478000 Y135.148000 Z0.400000 A94.366700
G2 X81.852000 Y129.522000 Z0.400000 A94.836030 I-3.9736 J-1.6524
G1 X80.803000 Y130.018000 Z0.400000 A94.889750
G1 X80.803000 Y119.109000 Z0.400000 A95.394630
G1 X81.179000 Y119.025000 Z0.400000 A95.412450
G2 X87.757000 Y129.092000 Z0.400000 A95.972490 I28.0214 J-11.1272
G0 X84.760 Y127.907 F7800.000
G1 X84.080000 Y127.790000 Z0.400000 A96.004390 F720.000000
G2 X82.234000 Y127.908000 Z0.400000 A96.090370 I-0.5763 J5.4828
G1 X82.234000 Y124.256000 Z0.400000 A96.259430
G2 X84.696000 Y127.821000 Z0.400000 A96.460150 I19.3465 J-10.7281
G0 X83.239 Y127.058 F7800.000
G1 X82.950000 Y127.072000 Z0.400000 A96.473570 F720.000000
G1 X82.950000 Y126.667000 Z0.400000 A96.492300
G1 X83.175000 Y126.972000 Z0.400000 A96.509830
G0 X83.500 Y130.959 F7800.000
G0 X81.703 Y131.703
G0 X79.000 Y138.000
G0 X83.588 Y136.005
G0 X84.609 Y136.912
G1 X84.609000 Y136.912000 Z0.400000 A96.509840 F360.000000
G0 X80.528 Y136.472 F7800.000
G1 X80.528000 Y136.216000 Z0.400000 A96.528250 F360.000000
G0 X80.088 Y132.391 F7800.000
G1 X80.088000 Y132.185000 Z0.400000 A96.532750 F360.000000
G0 X80.802 Y119.352 F7800.000
G1 X80.802000 Y117.758000 Z0.400000 A96.587210 F360.000000
G1 X81.331000 Y119.234000 Z0.400000 A96.640750
G0 X80.328 Y115.076 F7800.000
G1 X80.328000 Y114.244000 Z0.400000 A96.679180 F360.000000
G0 X80.088 Y113.002 F7800.000
G1 X80.088000 Y110.653000 Z0.400000 A96.730410 F360.000000
G0 X80.088 Y106.347 F7800.000
G1 X80.088000 Y103.998000 Z0.400000 A96.781640 F360.000000
G0 X80.328 Y102.756 F7800.000
G1 X80.328000 Y101.924000 Z0.400000 A96.820070 F360.000000
G0 X80.802 Y99.242 F7800.000
G1 X80.802000 Y97.648000 Z0.400000 A96.874530 F360.000000
G1 X81.331000 Y97.767000 Z0.400000 A96.893020
G0 X81.519 Y95.583 F7800.000
G1 X81.519000 Y88.112000 Z0.400000 A97.238810 F720.000000
G2 X88.112000 Y81.519000 Z0.400000 A97.792300 I2.0009 J-4.5921
G1 X95.583000 Y81.519000 Z0.400000 A98.138090
G2 X87.321000 Y87.323000 Z0.400000 A98.607740 I10.4623 J23.6756
G1 X85.280000 Y89.592000 Z0.400000 A98.748990
G2 X81.565000 Y95.486000 Z0.400000 A99.072270 I21.2612 J17.5187
G0 X82.234 Y92.744 F7800.000
G1 X82.234000 Y89.092000 Z0.400000 A99.241320 F720.000000
