G00 G49 G40.1 G17 G80 G50 G90
G21
(Slot-1)
(SlotDrill 1/8in 3.175mm Carbide Aluminium Cut)
M6 T6
M03 S20000
G00 Z1.5875
X6.7712 Y427.8353
G01 Z-2.0500  F1000.0
Z-2.6500
Y424.4326 Z-3.2500
X7.5428
Y428.6101
X6.7712
Y424.4326
Y423.6388
X5.9775
Y429.4038
X8.3365
Y423.6388
X6.7712
Y422.8451
X9.1303
Y430.1976
X5.1837
Y422.8451
X6.7712
G00 Z1.5875
Y424.4326
G01 Z-6.5000  F1000.0
X7.5428
Y428.6101
X6.7712
Y424.4326
Y423.6388
X5.9775
Y429.4038
X8.3365
Y423.6388
X6.7712
Y422.8451
X9.1303
Y430.1976
X5.1837
Y422.8451
X6.7712
G00 Z1.5875
Y424.4326
G01 Z-9.7500  F1000.0
X7.5428
Y428.6101
X6.7712
Y424.4326
Y423.6388
X5.9775
Y429.4038
X8.3365
Y423.6388
X6.7712
Y422.8451
X9.1303
Y430.1976
X5.1837
Y422.8451
X6.7712
G00 Z1.5875
Y424.4326
G01 Z-13.0000  F1000.0
X7.5428
Y428.6101
X6.7712
Y424.4326
Y423.6388
X5.9775
Y429.4038
X8.3365
Y423.6388
X6.7712
Y422.8451
X9.1303
Y430.1976
X5.1837
Y422.8451
X6.7712
Y423.9057 Z-11.9393
Z-11.3393
G00 Z1.5875
X125.5842 Y426.8061
G01 Z-2.0500  F1000.0
Z-2.6500
Y430.2089 Z-3.2500
X125.2051
Y424.2544
X125.5842
Y430.2089
Y431.0026
X126.3779
Y423.4607
X124.4114
Y431.0026
X125.5842
Y431.7964
X123.6176
Y422.6669
X127.1717
Y431.7964
X125.5842
G00 Z1.5875
Y430.2089
G01 Z-6.5000  F1000.0
X125.2051
Y424.2544
X125.5842
Y430.2089
Y431.0026
X126.3779
Y423.4607
X124.4114
Y431.0026
X125.5842
Y431.7964
X123.6176
Y422.6669
X127.1717
Y431.7964
X125.5842
G00 Z1.5875
Y430.2089
G01 Z-9.7500  F1000.0
X125.2051
Y424.2544
X125.5842
Y430.2089
Y431.0026
X126.3779
Y423.4607
X124.4114
Y431.0026
X125.5842
Y431.7964
X123.6176
Y422.6669
X127.1717
Y431.7964
X125.5842
G00 Z1.5875
Y430.2089
G01 Z-13.0000  F1000.0
X125.2051
Y424.2544
X125.5842
Y430.2089
Y431.0026
X126.3779
Y423.4607
X124.4114
Y431.0026
X125.5842
Y431.7964
X123.6176
Y422.6669
X127.1717
Y431.7964
X125.5842
Y430.7357 Z-11.9393
Z-11.3393
G00 Z1.5875
X6.7712 Y242.8353
G01 Z-2.0500  F1000.0
Z-2.6500
Y239.4326 Z-3.2500
X7.5428
Y243.6101
X6.7712
Y239.4326
Y238.6388
X5.9775
Y244.4038
X8.3365
Y238.6388
X6.7712
Y237.8451
X9.1303
Y245.1976
X5.1837
Y237.8451
X6.7712
G00 Z1.5875
Y239.4326
G01 Z-6.5000  F1000.0
X7.5428
Y243.6101
X6.7712
Y239.4326
Y238.6388
X5.9775
Y244.4038
X8.3365
Y238.6388
X6.7712
Y237.8451
X9.1303
Y245.1976
X5.1837
Y237.8451
X6.7712
G00 Z1.5875
Y239.4326
G01 Z-9.7500  F1000.0
X7.5428
Y243.6101
X6.7712
Y239.4326
Y238.6388
X5.9775
Y244.4038
X8.3365
Y238.6388
X6.7712
Y237.8451
X9.1303
Y245.1976
X5.1837
Y237.8451
X6.7712
G00 Z1.5875
Y239.4326
G01 Z-13.0000  F1000.0
X7.5428
Y243.6101
X6.7712
Y239.4326
Y238.6388
X5.9775
Y244.4038
X8.3365
Y238.6388
X6.7712
Y237.8451
X9.1303
Y245.1976
X5.1837
Y237.8451
X6.7712
Y238.9057 Z-11.9393
Z-11.3393
G00 Z1.5875
X125.5842 Y241.8061
G01 Z-2.0500  F1000.0
Z-2.6500
Y245.2089 Z-3.2500
X125.2051
Y239.2544
X125.5842
Y245.2089
Y246.0026
X126.3779
Y238.4607
X124.4114
Y246.0026
X125.5842
Y246.7964
X123.6176
Y237.6669
X127.1717
Y246.7964
X125.5842
G00 Z1.5875
Y245.2089
G01 Z-6.5000  F1000.0
X125.2051
Y239.2544
X125.5842
Y245.2089
Y246.0026
X126.3779
Y238.4607
X124.4114
Y246.0026
X125.5842
Y246.7964
X123.6176
Y237.6669
X127.1717
Y246.7964
X125.5842
G00 Z1.5875
Y245.2089
G01 Z-9.7500  F1000.0
X125.2051
Y239.2544
X125.5842
Y245.2089
Y246.0026
X126.3779
Y238.4607
X124.4114
Y246.0026
X125.5842
Y246.7964
X123.6176
Y237.6669
X127.1717
Y246.7964
X125.5842
G00 Z1.5875
Y245.2089
G01 Z-13.0000  F1000.0
X125.2051
Y239.2544
X125.5842
Y245.2089
Y246.0026
X126.3779
Y238.4607
X124.4114
Y246.0026
X125.5842
Y246.7964
X123.6176
Y237.6669
X127.1717
Y246.7964
X125.5842
Y245.7357 Z-11.9393
Z-11.3393
G00 Z1.5875
X6.7712 Y57.0638
G01 Z-2.0500  F1000.0
Z-2.6500
Y54.4326 Z-3.1140
X7.5428 Z-3.2500
Y58.6101
X6.7712
Y54.4326
X7.5428
X8.3365
Y53.6388
X5.9775
Y59.4038
X8.3365
Y54.4326
X9.1303
Y60.1976
X5.1837
Y52.8451
X9.1303
Y54.4326
G00 Z1.5875
X7.5428
G01 Z-6.5000  F1000.0
Y58.6101
X6.7712
Y54.4326
X7.5428
X8.3365
Y53.6388
X5.9775
Y59.4038
X8.3365
Y54.4326
X9.1303
Y60.1976
X5.1837
Y52.8451
X9.1303
Y54.4326
G00 Z1.5875
X7.5428
G01 Z-9.7500  F1000.0
Y58.6101
X6.7712
Y54.4326
X7.5428
X8.3365
Y53.6388
X5.9775
Y59.4038
X8.3365
Y54.4326
X9.1303
Y60.1976
X5.1837
Y52.8451
X9.1303
Y54.4326
G00 Z1.5875
X7.5428
G01 Z-13.0000  F1000.0
Y58.6101
X6.7712
Y54.4326
X7.5428
X8.3365
Y53.6388
X5.9775
Y59.4038
X8.3365
Y54.4326
X9.1303
Y60.1976
X5.1837
Y52.8451
X9.1303
Y54.4326
X8.0696 Z-11.9393
Z-11.3393
G00 Z1.5875
X125.5842 Y56.8061
G01 Z-2.0500  F1000.0
Z-2.6500
Y60.2089 Z-3.2500
X125.2051
Y54.2544
X125.5842
Y60.2089
X126.3779
Y53.4607
X124.4114
Y61.0026
X126.3779
Y60.2089
X127.1717
Y61.7964
X123.6176
Y52.6669
X127.1717
Y60.2089
G00 Z1.5875
X125.5842
G01 Z-6.5000  F1000.0
X125.2051
Y54.2544
X125.5842
Y60.2089
X126.3779
Y53.4607
X124.4114
Y61.0026
X126.3779
Y60.2089
X127.1717
Y61.7964
X123.6176
Y52.6669
X127.1717
Y60.2089
G00 Z1.5875
X125.5842
G01 Z-9.7500  F1000.0
X125.2051
Y54.2544
X125.5842
Y60.2089
X126.3779
Y53.4607
X124.4114
Y61.0026
X126.3779
Y60.2089
X127.1717
Y61.7964
X123.6176
Y52.6669
X127.1717
Y60.2089
G00 Z1.5875
X125.5842
G01 Z-13.0000  F1000.0
X125.2051
Y54.2544
X125.5842
Y60.2089
X126.3779
Y53.4607
X124.4114
Y61.0026
X126.3779
Y60.2089
X127.1717
Y61.7964
X123.6176
Y52.6669
X127.1717
Y60.2089
X126.1110 Z-11.9393
Z-11.3393
G00 Z1.5875
M5 M9
M30
