%
G17 G21 G40 G90 G64 P0.1
(V-Carve Roughing)
(Endmill 1mm Carbide )
T42 M06
S23873 M3
G0 Z6.5
X14.0001 Y23.64344
G1 Z0.15 F119.2
Z0.05 F357.7
X13.99569 Y23.65381 Z0.04801
X14.042 Y23.64371 Z0.03966
X14.05959 Y23.64054 Z0.0365
X14.10914 Y23.6334 Z0.02768
X14.11802 Y23.63244 Z0.0261
X14.12691 Y23.63149 Z0.02453
X14.17683 Y23.62791 Z0.0157
X14.1947 Y23.62727 Z0.01255
X14.24475 Z0.00372
X14.26262 Y23.62791 Z0.00057
X14.31254 Y23.63149 Z-0.00826
X14.33032 Y23.6334 Z-0.01141
X14.37986 Y23.64054 Z-0.02023
X14.39745 Y23.64371 Z-0.02339
X14.44321 Y23.65369 Z-0.03164
X14.41132 Y23.57858 Z-0.04603
X14.02769 Z-0.11367
X13.99569 Y23.65381 Z-0.12809
X14.042 Y23.64371 Z-0.13645
X14.05959 Y23.64054 Z-0.1396
X14.10914 Y23.6334 Z-0.14842
X14.11802 Y23.63244 Z-0.15
X14.12691 Y23.63149 F477.
X14.17683 Y23.62791
X14.1947 Y23.62727
X14.24475
X14.26262 Y23.62791
X14.31254 Y23.63149
X14.33032 Y23.6334
X14.37986 Y23.64054
X14.39745 Y23.64371
X14.44321 Y23.65369
X14.41132 Y23.57858
X14.02769
X13.99569 Y23.65381
X14.042 Y23.64371
X14.05959 Y23.64054
X14.10914 Y23.6334
X14.11802 Y23.63244
X14.14477 Y23.88085
X14.09523 Y23.88798
X14.04632 Y23.89864
X13.99831 Y23.91276
X13.95142 Y23.93028
X13.9059 Y23.95111
X13.86199 Y23.97514
X13.81991 Y24.00224
X13.77987 Y24.03228
X13.74208 Y24.0651
X13.70674 Y24.10054
X13.67401 Y24.13842
X13.64408 Y24.17854
X13.61709 Y24.22069
X13.59318 Y24.26466
X13.57248 Y24.31023
X10.65285 Y31.3988
X10.42955
X13.86235 Y23.32858
X14.57677
X18.00333 Y31.3988
X17.78661
X14.86697 Y24.31023
X14.84627 Y24.26466
X14.82236 Y24.22069
X14.79537 Y24.17854
X14.76544 Y24.13842
X14.73272 Y24.10054
X14.69737 Y24.0651
X14.65958 Y24.03228
X14.61954 Y24.00224
X14.57746 Y23.97514
X14.53355 Y23.95111
X14.48803 Y23.93028
X14.44115 Y23.91276
X14.39313 Y23.89864
X14.34422 Y23.88798
X14.29468 Y23.88085
X14.24475 Y23.87727
X14.1947
X14.14477 Y23.88085
G0 Z6.5
X14.6273 Y23.8314
G1 Z-0.3 F119.2
X14.59626 Y23.81477 F477.
X14.54553 Y23.79174
X14.4934 Y23.77208
X14.44009 Y23.75588
X14.38583 Y23.74321
X14.33086 Y23.73412
X14.27541 Y23.72865
X14.21973 Y23.72682
X14.16404 Y23.72865
X14.10859 Y23.73412
X14.05362 Y23.74321
X13.99937 Y23.75588
X13.94606 Y23.77208
X13.89392 Y23.79174
X13.84319 Y23.81477
X13.81128 Y23.83186
X14.00434 Y23.44825
X14.4338 Y23.448
X14.6273 Y23.8314
G0 Z6.5
X14.44324 Y23.65376
G1 Z-0.4 F119.2
X14.39572 Y23.64327 F477.
X14.33743 Y23.63414
X14.27869 Y23.62865
X14.21973 Y23.62682
X14.16076 Y23.62865
X14.10202 Y23.63414
X14.04373 Y23.64327
X13.99566 Y23.65389
X14.02769 Y23.57858
X14.41132
X14.44324 Y23.65376
Z1.1 F715.5
Z1.7
G0 Z6.5
X8.98902 Y39.50475
G1 Z0.15 F119.2
Z0.05 F357.7
X8.98866 Z0.04994
X8.98914 Y39.50433 Z0.04982
X8.98961 Y39.50391 Z0.04971
X8.99009 Y39.5035 Z0.0496
X8.99056 Y39.50308 Z0.04949
X8.99104 Y39.50266 Z0.04938
X8.99151 Y39.50224 Z0.04927
X8.99199 Y39.50182 Z0.04915
X8.99246 Y39.5014 Z0.04904
X8.99294 Y39.50098 Z0.04893
X8.99341 Y39.50056 Z0.04882
X8.99389 Y39.50014 Z0.04871
X8.99436 Y39.49972 Z0.0486
X8.99484 Y39.4993 Z0.04848
X8.99531 Y39.49888 Z0.04837
X8.99579 Y39.49846 Z0.04826
X8.99968 Y39.50475 Z0.04696
X8.98866 Z0.04501
X8.98914 Y39.50433 Z0.0449
X8.98961 Y39.50391 Z0.04479
X8.99009 Y39.5035 Z0.04468
X8.99056 Y39.50308 Z0.04457
X8.99104 Y39.50266 Z0.04445
X8.99151 Y39.50224 Z0.04434
X8.99199 Y39.50182 Z0.04423
X8.99246 Y39.5014 Z0.04412
X8.99294 Y39.50098 Z0.04401
X8.99341 Y39.50056 Z0.0439
X8.99389 Y39.50014 Z0.04378
X8.99436 Y39.49972 Z0.04367
X8.99484 Y39.4993 Z0.04356
X8.99531 Y39.49888 Z0.04345
X8.99579 Y39.49846 Z0.04334
X8.99968 Y39.50475 Z0.04203
X8.98866 Z0.04009
X8.98914 Y39.50433 Z0.03998
X8.98961 Y39.50391 Z0.03987
X8.99009 Y39.5035 Z0.03975
X8.99056 Y39.50308 Z0.03964
X8.99104 Y39.50266 Z0.03953
X8.99151 Y39.50224 Z0.03942
X8.99199 Y39.50182 Z0.03931
X8.99246 Y39.5014 Z0.03919
X8.99294 Y39.50098 Z0.03908
X8.99341 Y39.50056 Z0.03897
X8.99389 Y39.50014 Z0.03886
X8.99436 Y39.49972 Z0.03875
X8.99484 Y39.4993 Z0.03864
X8.99531 Y39.49888 Z0.03852
X8.99579 Y39.49846 Z0.03841
X8.99968 Y39.50475 Z0.03711
X8.98866 Z0.03516
X8.98914 Y39.50433 Z0.03505
X8.98961 Y39.50391 Z0.03494
X8.99009 Y39.5035 Z0.03483
X8.99056 Y39.50308 Z0.03472
X8.99104 Y39.50266 Z0.03461
X8.99151 Y39.50224 Z0.03449
X8.99199 Y39.50182 Z0.03438
X8.99246 Y39.5014 Z0.03427
X8.99294 Y39.50098 Z0.03416
X8.99341 Y39.50056 Z0.03405
X8.99389 Y39.50014 Z0.03394
X8.99436 Y39.49972 Z0.03382
X8.99484 Y39.4993 Z0.03371
X8.99531 Y39.49888 Z0.0336
X8.99579 Y39.49846 Z0.03349
X8.99968 Y39.50475 Z0.03218
X8.98866 Z0.03024
X8.98914 Y39.50433 Z0.03013
X8.98961 Y39.50391 Z0.03002
X8.99009 Y39.5035 Z0.02991
X8.99056 Y39.50308 Z0.02979
X8.99104 Y39.50266 Z0.02968
X8.99151 Y39.50224 Z0.02957
X8.99199 Y39.50182 Z0.02946
X8.99246 Y39.5014 Z0.02935
X8.99294 Y39.50098 Z0.02924
X8.99341 Y39.50056 Z0.02912
X8.99389 Y39.50014 Z0.02901
X8.99436 Y39.49972 Z0.0289
X8.99484 Y39.4993 Z0.02879
X8.99531 Y39.49888 Z0.02868
X8.99579 Y39.49846 Z0.02857
X8.99968 Y39.50475 Z0.02726
X8.98866 Z0.02532
X8.98914 Y39.50433 Z0.02521
X8.98961 Y39.50391 Z0.02509
X8.99009 Y39.5035 Z0.02498
X8.99056 Y39.50308 Z0.02487
X8.99104 Y39.50266 Z0.02476
X8.99151 Y39.50224 Z0.02465
X8.99199 Y39.50182 Z0.02453
X8.99246 Y39.5014 Z0.02442
X8.99294 Y39.50098 Z0.02431
X8.99341 Y39.50056 Z0.0242
X8.99389 Y39.50014 Z0.02409
X8.99436 Y39.49972 Z0.02398
X8.99484 Y39.4993 Z0.02386
X8.99531 Y39.49888 Z0.02375
X8.99579 Y39.49846 Z0.02364
X8.99968 Y39.50475 Z0.02234
X8.98866 Z0.02039
X8.98914 Y39.50433 Z0.02028
X8.98961 Y39.50391 Z0.02017
X8.99009 Y39.5035 Z0.02006
X8.99056 Y39.50308 Z0.01995
X8.99104 Y39.50266 Z0.01983
X8.99151 Y39.50224 Z0.01972
X8.99199 Y39.50182 Z0.01961
X8.99246 Y39.5014 Z0.0195
X8.99294 Y39.50098 Z0.01939
X8.99341 Y39.50056 Z0.01928
X8.99389 Y39.50014 Z0.01916
X8.99436 Y39.49972 Z0.01905
X8.99484 Y39.4993 Z0.01894
X8.99531 Y39.49888 Z0.01883
X8.99579 Y39.49846 Z0.01872
X8.99968 Y39.50475 Z0.01741
X8.98866 Z0.01547
X8.98914 Y39.50433 Z0.01536
X8.98961 Y39.50391 Z0.01525
X8.99009 Y39.5035 Z0.01513
X8.99056 Y39.50308 Z0.01502
X8.99104 Y39.50266 Z0.01491
X8.99151 Y39.50224 Z0.0148
X8.99199 Y39.50182 Z0.01469
X8.99246 Y39.5014 Z0.01458
X8.99294 Y39.50098 Z0.01446
X8.99341 Y39.50056 Z0.01435
X8.99389 Y39.50014 Z0.01424
X8.99436 Y39.49972 Z0.01413
X8.99484 Y39.4993 Z0.01402
X8.99531 Y39.49888 Z0.01391
X8.99579 Y39.49846 Z0.01379
X8.99968 Y39.50475 Z0.01249
X8.98866 Z0.01055
X8.98914 Y39.50433 Z0.01043
X8.98961 Y39.50391 Z0.01032
X8.99009 Y39.5035 Z0.01021
X8.99056 Y39.50308 Z0.0101
X8.99104 Y39.50266 Z0.00999
X8.99151 Y39.50224 Z0.00987
X8.99199 Y39.50182 Z0.00976
X8.99246 Y39.5014 Z0.00965
X8.99294 Y39.50098 Z0.00954
X8.99341 Y39.50056 Z0.00943
X8.99389 Y39.50014 Z0.00932
X8.99436 Y39.49972 Z0.0092
X8.99484 Y39.4993 Z0.00909
X8.99531 Y39.49888 Z0.00898
X8.99579 Y39.49846 Z0.00887
X8.99968 Y39.50475 Z0.00756
X8.98866 Z0.00562
X8.98914 Y39.50433 Z0.00551
X8.98961 Y39.50391 Z0.0054
X8.99009 Y39.5035 Z0.00529
X8.99056 Y39.50308 Z0.00517
X8.99104 Y39.50266 Z0.00506
X8.99151 Y39.50224 Z0.00495
X8.99199 Y39.50182 Z0.00484
X8.99246 Y39.5014 Z0.00473
X8.99294 Y39.50098 Z0.00462
X8.99341 Y39.50056 Z0.00451
X8.99389 Y39.50014 Z0.00439
X8.99436 Y39.49972 Z0.00428
X8.99484 Y39.4993 Z0.00417
X8.99531 Y39.49888 Z0.00406
X8.99579 Y39.49846 Z0.00395
X8.99968 Y39.50475 Z0.00264
X8.98866 Z0.0007
X8.98914 Y39.50433 Z0.00059
X8.98961 Y39.50391 Z0.00047
X8.99009 Y39.5035 Z0.00036
X8.99056 Y39.50308 Z0.00025
X8.99104 Y39.50266 Z0.00014
X8.99151 Y39.50224 Z0.00003
X8.99199 Y39.50182 Z-0.00008
X8.99246 Y39.5014 Z-0.0002
X8.99294 Y39.50098 Z-0.00031
X8.99341 Y39.50056 Z-0.00042
X8.99389 Y39.50014 Z-0.00053
X8.99436 Y39.49972 Z-0.00064
X8.99484 Y39.4993 Z-0.00075
X8.99531 Y39.49888 Z-0.00087
X8.99579 Y39.49846 Z-0.00098
X8.99968 Y39.50475 Z-0.00228
X8.98866 Z-0.00423
X8.98914 Y39.50433 Z-0.00434
X8.98961 Y39.50391 Z-0.00445
X8.99009 Y39.5035 Z-0.00456
X8.99056 Y39.50308 Z-0.00467
X8.99104 Y39.50266 Z-0.00479
X8.99151 Y39.50224 Z-0.0049
X8.99199 Y39.50182 Z-0.00501
X8.99246 Y39.5014 Z-0.00512
X8.99294 Y39.50098 Z-0.00523
X8.99341 Y39.50056 Z-0.00534
X8.99389 Y39.50014 Z-0.00546
X8.99436 Y39.49972 Z-0.00557
X8.99484 Y39.4993 Z-0.00568
X8.99531 Y39.49888 Z-0.00579
X8.99579 Y39.49846 Z-0.0059
X8.99968 Y39.50475 Z-0.00721
X8.98866 Z-0.00915
X8.98914 Y39.50433 Z-0.00926
X8.98961 Y39.50391 Z-0.00937
X8.99009 Y39.5035 Z-0.00949
X8.99056 Y39.50308 Z-0.0096
X8.99104 Y39.50266 Z-0.00971
X8.99151 Y39.50224 Z-0.00982
X8.99199 Y39.50182 Z-0.00993
X8.99246 Y39.5014 Z-0.01004
X8.99294 Y39.50098 Z-0.01016
X8.99341 Y39.50056 Z-0.01027
X8.99389 Y39.50014 Z-0.01038
X8.99436 Y39.49972 Z-0.01049
X8.99484 Y39.4993 Z-0.0106
X8.99531 Y39.49888 Z-0.01071
X8.99579 Y39.49846 Z-0.01083
X8.99968 Y39.50475 Z-0.01213
X8.98866 Z-0.01407
X8.98914 Y39.50433 Z-0.01419
X8.98961 Y39.50391 Z-0.0143
X8.99009 Y39.5035 Z-0.01441
X8.99056 Y39.50308 Z-0.01452
X8.99104 Y39.50266 Z-0.01463
X8.99151 Y39.50224 Z-0.01474
X8.99199 Y39.50182 Z-0.01486
X8.99246 Y39.5014 Z-0.01497
X8.99294 Y39.50098 Z-0.01508
X8.99341 Y39.50056 Z-0.01519
X8.99389 Y39.50014 Z-0.0153
X8.99436 Y39.49972 Z-0.01541
X8.99484 Y39.4993 Z-0.01553
X8.99531 Y39.49888 Z-0.01564
X8.99579 Y39.49846 Z-0.01575
X8.99968 Y39.50475 Z-0.01706
X8.98866 Z-0.019
X8.98914 Y39.50433 Z-0.01911
X8.98961 Y39.50391 Z-0.01922
X8.99009 Y39.5035 Z-0.01933
X8.99056 Y39.50308 Z-0.01945
X8.99104 Y39.50266 Z-0.01956
X8.99151 Y39.50224 Z-0.01967
X8.99199 Y39.50182 Z-0.01978
X8.99246 Y39.5014 Z-0.01989
X8.99294 Y39.50098 Z-0.02
X8.99341 Y39.50056 Z-0.02011
X8.99389 Y39.50014 Z-0.02023
X8.99436 Y39.49972 Z-0.02034
X8.99484 Y39.4993 Z-0.02045
X8.99531 Y39.49888 Z-0.02056
X8.99579 Y39.49846 Z-0.02067
X8.99968 Y39.50475 Z-0.02198
X8.98866 Z-0.02392
X8.98914 Y39.50433 Z-0.02403
X8.98961 Y39.50391 Z-0.02415
X8.99009 Y39.5035 Z-0.02426
X8.99056 Y39.50308 Z-0.02437
X8.99104 Y39.50266 Z-0.02448
X8.99151 Y39.50224 Z-0.02459
X8.99199 Y39.50182 Z-0.0247
X8.99246 Y39.5014 Z-0.02482
X8.99294 Y39.50098 Z-0.02493
X8.99341 Y39.50056 Z-0.02504
X8.99389 Y39.50014 Z-0.02515
X8.99436 Y39.49972 Z-0.02526
X8.99484 Y39.4993 Z-0.02537
X8.99531 Y39.49888 Z-0.02549
X8.99579 Y39.49846 Z-0.0256
X8.99968 Y39.50475 Z-0.0269
X8.98866 Z-0.02885
X8.98914 Y39.50433 Z-0.02896
X8.98961 Y39.50391 Z-0.02907
X8.99009 Y39.5035 Z-0.02918
X8.99056 Y39.50308 Z-0.02929
X8.99104 Y39.50266 Z-0.0294
X8.99151 Y39.50224 Z-0.02952
X8.99199 Y39.50182 Z-0.02963
X8.99246 Y39.5014 Z-0.02974
X8.99294 Y39.50098 Z-0.02985
X8.99341 Y39.50056 Z-0.02996
X8.99389 Y39.50014 Z-0.03007
X8.99436 Y39.49972 Z-0.03019
X8.99484 Y39.4993 Z-0.0303
X8.99531 Y39.49888 Z-0.03041
X8.99579 Y39.49846 Z-0.03052
X8.99968 Y39.50475 Z-0.03183
X8.98866 Z-0.03377
X8.98914 Y39.50433 Z-0.03388
X8.98961 Y39.50391 Z-0.03399
X8.99009 Y39.5035 Z-0.03411
X8.99056 Y39.50308 Z-0.03422
X8.99104 Y39.50266 Z-0.03433
X8.99151 Y39.50224 Z-0.03444
X8.99199 Y39.50182 Z-0.03455
X8.99246 Y39.5014 Z-0.03466
X8.99294 Y39.50098 Z-0.03478
X8.99341 Y39.50056 Z-0.03489
X8.99389 Y39.50014 Z-0.035
X8.99436 Y39.49972 Z-0.03511
X8.99484 Y39.4993 Z-0.03522
X8.99531 Y39.49888 Z-0.03533
X8.99579 Y39.49846 Z-0.03545
X8.99968 Y39.50475 Z-0.03675
X8.98866 Z-0.03869
X8.98914 Y39.50433 Z-0.03881
X8.98961 Y39.50391 Z-0.03892
X8.99009 Y39.5035 Z-0.03903
X8.99056 Y39.50308 Z-0.03914
X8.99104 Y39.50266 Z-0.03925
X8.99151 Y39.50224 Z-0.03936
X8.99199 Y39.50182 Z-0.03948
X8.99246 Y39.5014 Z-0.03959
X8.99294 Y39.50098 Z-0.0397
X8.99341 Y39.50056 Z-0.03981
X8.99389 Y39.50014 Z-0.03992
X8.99436 Y39.49972 Z-0.04003
X8.99484 Y39.4993 Z-0.04015
X8.99531 Y39.49888 Z-0.04026
X8.99579 Y39.49846 Z-0.04037
X8.99968 Y39.50475 Z-0.04167
X8.98866 Z-0.04362
X8.98914 Y39.50433 Z-0.04373
X8.98961 Y39.50391 Z-0.04384
X8.99009 Y39.5035 Z-0.04395
X8.99056 Y39.50308 Z-0.04406
X8.99104 Y39.50266 Z-0.04418
X8.99151 Y39.50224 Z-0.04429
X8.99199 Y39.50182 Z-0.0444
X8.99246 Y39.5014 Z-0.04451
X8.99294 Y39.50098 Z-0.04462
X8.99341 Y39.50056 Z-0.04473
X8.99389 Y39.50014 Z-0.04485
X8.99436 Y39.49972 Z-0.04496
X8.99484 Y39.4993 Z-0.04507
X8.99531 Y39.49888 Z-0.04518
X8.99579 Y39.49846 Z-0.04529
X8.99968 Y39.50475 Z-0.0466
X8.98866 Z-0.04854
X8.98914 Y39.50433 Z-0.04865
X8.98961 Y39.50391 Z-0.04877
X8.99009 Y39.5035 Z-0.04888
X8.99056 Y39.50308 Z-0.04899
X8.99104 Y39.50266 Z-0.0491
X8.99151 Y39.50224 Z-0.04921
X8.99199 Y39.50182 Z-0.04932
X8.99246 Y39.5014 Z-0.04944
X8.99294 Y39.50098 Z-0.04955
X8.99341 Y39.50056 Z-0.04966
X8.99389 Y39.50014 Z-0.04977
X8.99436 Y39.49972 Z-0.04988
X8.99484 Y39.4993 Z-0.04999
X8.99531 Y39.49888 Z-0.05011
X8.99579 Y39.49846 Z-0.05022
X8.99968 Y39.50475 Z-0.05152
X8.98866 Z-0.05347
X8.98914 Y39.50433 Z-0.05358
X8.98961 Y39.50391 Z-0.05369
X8.99009 Y39.5035 Z-0.0538
X8.99056 Y39.50308 Z-0.05391
X8.99104 Y39.50266 Z-0.05402
X8.99151 Y39.50224 Z-0.05414
X8.99199 Y39.50182 Z-0.05425
X8.99246 Y39.5014 Z-0.05436
X8.99294 Y39.50098 Z-0.05447
X8.99341 Y39.50056 Z-0.05458
X8.99389 Y39.50014 Z-0.05469
X8.99436 Y39.49972 Z-0.05481
X8.99484 Y39.4993 Z-0.05492
X8.99531 Y39.49888 Z-0.05503
X8.99579 Y39.49846 Z-0.05514
X8.99968 Y39.50475 Z-0.05645
X8.98866 Z-0.05839
X8.98914 Y39.50433 Z-0.0585
X8.98961 Y39.50391 Z-0.05861
X8.99009 Y39.5035 Z-0.05872
X8.99056 Y39.50308 Z-0.05884
X8.99104 Y39.50266 Z-0.05895
X8.99151 Y39.50224 Z-0.05906
X8.99199 Y39.50182 Z-0.05917
X8.99246 Y39.5014 Z-0.05928
X8.99294 Y39.50098 Z-0.05939
X8.99341 Y39.50056 Z-0.05951
X8.99389 Y39.50014 Z-0.05962
X8.99436 Y39.49972 Z-0.05973
X8.99484 Y39.4993 Z-0.05984
X8.99531 Y39.49888 Z-0.05995
X8.99579 Y39.49846 Z-0.06007
X8.99968 Y39.50475 Z-0.06137
X8.98866 Z-0.06331
X8.98914 Y39.50433 Z-0.06343
X8.98961 Y39.50391 Z-0.06354
X8.99009 Y39.5035 Z-0.06365
X8.99056 Y39.50308 Z-0.06376
X8.99104 Y39.50266 Z-0.06387
X8.99151 Y39.50224 Z-0.06398
X8.99199 Y39.50182 Z-0.0641
X8.99246 Y39.5014 Z-0.06421
X8.99294 Y39.50098 Z-0.06432
X8.99341 Y39.50056 Z-0.06443
X8.99389 Y39.50014 Z-0.06454
X8.99436 Y39.49972 Z-0.06465
X8.99484 Y39.4993 Z-0.06477
X8.99531 Y39.49888 Z-0.06488
X8.99579 Y39.49846 Z-0.06499
X8.99968 Y39.50475 Z-0.06629
X8.98866 Z-0.06824
X8.98914 Y39.50433 Z-0.06835
X8.98961 Y39.50391 Z-0.06846
X8.99009 Y39.5035 Z-0.06857
X8.99056 Y39.50308 Z-0.06868
X8.99104 Y39.50266 Z-0.06879
X8.99151 Y39.50224 Z-0.06891
X8.99199 Y39.50182 Z-0.06902
X8.99246 Y39.5014 Z-0.06913
X8.99294 Y39.50098 Z-0.06924
X8.99341 Y39.50056 Z-0.06935
X8.99389 Y39.50014 Z-0.06947
X8.99436 Y39.49972 Z-0.06958
X8.99484 Y39.4993 Z-0.06969
X8.99531 Y39.49888 Z-0.0698
X8.99579 Y39.49846 Z-0.06991
X8.99968 Y39.50475 Z-0.07122
X8.98866 Z-0.07316
X8.98914 Y39.50433 Z-0.07327
X8.98961 Y39.50391 Z-0.07338
X8.99009 Y39.5035 Z-0.0735
X8.99056 Y39.50308 Z-0.07361
X8.99104 Y39.50266 Z-0.07372
X8.99151 Y39.50224 Z-0.07383
X8.99199 Y39.50182 Z-0.07394
X8.99246 Y39.5014 Z-0.07406
X8.99294 Y39.50098 Z-0.07417
X8.99341 Y39.50056 Z-0.07428
X8.99389 Y39.50014 Z-0.07439
X8.99436 Y39.49972 Z-0.0745
X8.99484 Y39.4993 Z-0.07461
X8.99531 Y39.49888 Z-0.07473
X8.99579 Y39.49846 Z-0.07484
X8.99968 Y39.50475 Z-0.07614
X8.98866 Z-0.07809
X8.98914 Y39.50433 Z-0.0782
X8.98961 Y39.50391 Z-0.07831
X8.99009 Y39.5035 Z-0.07842
X8.99056 Y39.50308 Z-0.07853
X8.99104 Y39.50266 Z-0.07864
X8.99151 Y39.50224 Z-0.07876
X8.99199 Y39.50182 Z-0.07887
X8.99246 Y39.5014 Z-0.07898
X8.99294 Y39.50098 Z-0.07909
X8.99341 Y39.50056 Z-0.0792
X8.99389 Y39.50014 Z-0.07931
X8.99436 Y39.49972 Z-0.07942
X8.99484 Y39.4993 Z-0.07954
X8.99531 Y39.49888 Z-0.07965
X8.99579 Y39.49846 Z-0.07976
X8.99968 Y39.50475 Z-0.08107
X8.98866 Z-0.08301
X8.98914 Y39.50433 Z-0.08312
X8.98961 Y39.50391 Z-0.08323
X8.99009 Y39.5035 Z-0.08334
X8.99056 Y39.50308 Z-0.08346
X8.99104 Y39.50266 Z-0.08357
X8.99151 Y39.50224 Z-0.08368
X8.99199 Y39.50182 Z-0.08379
X8.99246 Y39.5014 Z-0.0839
X8.99294 Y39.50098 Z-0.08401
X8.99341 Y39.50056 Z-0.08413
X8.99389 Y39.50014 Z-0.08424
X8.99436 Y39.49972 Z-0.08435
X8.99484 Y39.4993 Z-0.08446
X8.99531 Y39.49888 Z-0.08457
X8.99579 Y39.49846 Z-0.08468
X8.99968 Y39.50475 Z-0.08599
X8.98866 Z-0.08793
X8.98914 Y39.50433 Z-0.08804
X8.98961 Y39.50391 Z-0.08816
X8.99009 Y39.5035 Z-0.08827
X8.99056 Y39.50308 Z-0.08838
X8.99104 Y39.50266 Z-0.08849
X8.99151 Y39.50224 Z-0.0886
X8.99199 Y39.50182 Z-0.08871
X8.99246 Y39.5014 Z-0.08883
X8.99294 Y39.50098 Z-0.08894
X8.99341 Y39.50056 Z-0.08905
X8.99389 Y39.50014 Z-0.08916
X8.99436 Y39.49972 Z-0.08927
X8.99484 Y39.4993 Z-0.08939
X8.99531 Y39.49888 Z-0.0895
X8.99579 Y39.49846 Z-0.08961
X8.99968 Y39.50475 Z-0.09091
X8.98866 Z-0.09286
X8.98914 Y39.50433 Z-0.09297
X8.98961 Y39.50391 Z-0.09308
X8.99009 Y39.5035 Z-0.09319
X8.99056 Y39.50308 Z-0.0933
X8.99104 Y39.50266 Z-0.09341
X8.99151 Y39.50224 Z-0.09353
X8.99199 Y39.50182 Z-0.09364
X8.99246 Y39.5014 Z-0.09375
X8.99294 Y39.50098 Z-0.09386
X8.99341 Y39.50056 Z-0.09397
X8.99389 Y39.50014 Z-0.09409
X8.99436 Y39.49972 Z-0.0942
X8.99484 Y39.4993 Z-0.09431
X8.99531 Y39.49888 Z-0.09442
X8.99579 Y39.49846 Z-0.09453
X8.99968 Y39.50475 Z-0.09584
X8.98866 Z-0.09778
X8.98914 Y39.50433 Z-0.09789
X8.98961 Y39.50391 Z-0.098
X8.99009 Y39.5035 Z-0.09811
X8.99056 Y39.50308 Z-0.09823
X8.99104 Y39.50266 Z-0.09834
X8.99151 Y39.50224 Z-0.09845
X8.99199 Y39.50182 Z-0.09856
X8.99246 Y39.5014 Z-0.09867
X8.99294 Y39.50098 Z-0.09879
X8.99341 Y39.50056 Z-0.0989
X8.99389 Y39.50014 Z-0.09901
X8.99436 Y39.49972 Z-0.09912
X8.99484 Y39.4993 Z-0.09923
X8.99531 Y39.49888 Z-0.09934
X8.99579 Y39.49846 Z-0.09946
X8.99968 Y39.50475 Z-0.10076
X8.98866 Z-0.1027
X8.98914 Y39.50433 Z-0.10282
X8.98961 Y39.50391 Z-0.10293
X8.99009 Y39.5035 Z-0.10304
X8.99056 Y39.50308 Z-0.10315
X8.99104 Y39.50266 Z-0.10326
X8.99151 Y39.50224 Z-0.10337
X8.99199 Y39.50182 Z-0.10349
X8.99246 Y39.5014 Z-0.1036
X8.99294 Y39.50098 Z-0.10371
X8.99341 Y39.50056 Z-0.10382
X8.99389 Y39.50014 Z-0.10393
X8.99436 Y39.49972 Z-0.10404
X8.99484 Y39.4993 Z-0.10416
X8.99531 Y39.49888 Z-0.10427
X8.99579 Y39.49846 Z-0.10438
X8.99968 Y39.50475 Z-0.10569
X8.98866 Z-0.10763
X8.98914 Y39.50433 Z-0.10774
X8.98961 Y39.50391 Z-0.10785
X8.99009 Y39.5035 Z-0.10796
X8.99056 Y39.50308 Z-0.10808
X8.99104 Y39.50266 Z-0.10819
X8.99151 Y39.50224 Z-0.1083
X8.99199 Y39.50182 Z-0.10841
X8.99246 Y39.5014 Z-0.10852
X8.99294 Y39.50098 Z-0.10863
X8.99341 Y39.50056 Z-0.10875
X8.99389 Y39.50014 Z-0.10886
X8.99436 Y39.49972 Z-0.10897
X8.99484 Y39.4993 Z-0.10908
X8.99531 Y39.49888 Z-0.10919
X8.99579 Y39.49846 Z-0.1093
X8.99968 Y39.50475 Z-0.11061
X8.98866 Z-0.11255
X8.98914 Y39.50433 Z-0.11266
X8.98961 Y39.50391 Z-0.11278
X8.99009 Y39.5035 Z-0.11289
X8.99056 Y39.50308 Z-0.113
X8.99104 Y39.50266 Z-0.11311
X8.99151 Y39.50224 Z-0.11322
X8.99199 Y39.50182 Z-0.11333
X8.99246 Y39.5014 Z-0.11345
X8.99294 Y39.50098 Z-0.11356
X8.99341 Y39.50056 Z-0.11367
X8.99389 Y39.50014 Z-0.11378
X8.99436 Y39.49972 Z-0.11389
X8.99484 Y39.4993 Z-0.114
X8.99531 Y39.49888 Z-0.11412
X8.99579 Y39.49846 Z-0.11423
X8.99968 Y39.50475 Z-0.11553
X8.98866 Z-0.11748
X8.98914 Y39.50433 Z-0.11759
X8.98961 Y39.50391 Z-0.1177
X8.99009 Y39.5035 Z-0.11781
X8.99056 Y39.50308 Z-0.11792
X8.99104 Y39.50266 Z-0.11804
X8.99151 Y39.50224 Z-0.11815
X8.99199 Y39.50182 Z-0.11826
X8.99246 Y39.5014 Z-0.11837
X8.99294 Y39.50098 Z-0.11848
X8.99341 Y39.50056 Z-0.11859
X8.99389 Y39.50014 Z-0.11871
X8.99436 Y39.49972 Z-0.11882
X8.99484 Y39.4993 Z-0.11893
X8.99531 Y39.49888 Z-0.11904
X8.99579 Y39.49846 Z-0.11915
X8.99968 Y39.50475 Z-0.12046
X8.98866 Z-0.1224
X8.98914 Y39.50433 Z-0.12251
X8.98961 Y39.50391 Z-0.12262
X8.99009 Y39.5035 Z-0.12274
X8.99056 Y39.50308 Z-0.12285
X8.99104 Y39.50266 Z-0.12296
X8.99151 Y39.50224 Z-0.12307
X8.99199 Y39.50182 Z-0.12318
X8.99246 Y39.5014 Z-0.12329
X8.99294 Y39.50098 Z-0.12341
X8.99341 Y39.50056 Z-0.12352
X8.99389 Y39.50014 Z-0.12363
X8.99436 Y39.49972 Z-0.12374
X8.99484 Y39.4993 Z-0.12385
X8.99531 Y39.49888 Z-0.12396
X8.99579 Y39.49846 Z-0.12408
X8.99968 Y39.50475 Z-0.12538
X8.98866 Z-0.12732
X8.98914 Y39.50433 Z-0.12744
X8.98961 Y39.50391 Z-0.12755
X8.99009 Y39.5035 Z-0.12766
X8.99056 Y39.50308 Z-0.12777
X8.99104 Y39.50266 Z-0.12788
X8.99151 Y39.50224 Z-0.12799
X8.99199 Y39.50182 Z-0.12811
X8.99246 Y39.5014 Z-0.12822
X8.99294 Y39.50098 Z-0.12833
X8.99341 Y39.50056 Z-0.12844
X8.99389 Y39.50014 Z-0.12855
X8.99436 Y39.49972 Z-0.12866
X8.99484 Y39.4993 Z-0.12878
X8.99531 Y39.49888 Z-0.12889
X8.99579 Y39.49846 Z-0.129
X8.99968 Y39.50475 Z-0.13031
X8.98866 Z-0.13225
X8.98914 Y39.50433 Z-0.13236
X8.98961 Y39.50391 Z-0.13247
X8.99009 Y39.5035 Z-0.13258
X8.99056 Y39.50308 Z-0.13269
X8.99104 Y39.50266 Z-0.13281
X8.99151 Y39.50224 Z-0.13292
X8.99199 Y39.50182 Z-0.13303
X8.99246 Y39.5014 Z-0.13314
X8.99294 Y39.50098 Z-0.13325
X8.99341 Y39.50056 Z-0.13337
X8.99389 Y39.50014 Z-0.13348
X8.99436 Y39.49972 Z-0.13359
X8.99484 Y39.4993 Z-0.1337
X8.99531 Y39.49888 Z-0.13381
X8.99579 Y39.49846 Z-0.13392
X8.99968 Y39.50475 Z-0.13523
X8.98866 Z-0.13717
X8.98914 Y39.50433 Z-0.13728
X8.98961 Y39.50391 Z-0.13739
X8.99009 Y39.5035 Z-0.13751
X8.99056 Y39.50308 Z-0.13762
X8.99104 Y39.50266 Z-0.13773
X8.99151 Y39.50224 Z-0.13784
X8.99199 Y39.50182 Z-0.13795
X8.99246 Y39.5014 Z-0.13807
X8.99294 Y39.50098 Z-0.13818
X8.99341 Y39.50056 Z-0.13829
X8.99389 Y39.50014 Z-0.1384
X8.99436 Y39.49972 Z-0.13851
X8.99484 Y39.4993 Z-0.13862
X8.99531 Y39.49888 Z-0.13874
X8.99579 Y39.49846 Z-0.13885
X8.99968 Y39.50475 Z-0.14015
X8.98866 Z-0.1421
X8.98914 Y39.50433 Z-0.14221
X8.98961 Y39.50391 Z-0.14232
X8.99009 Y39.5035 Z-0.14243
X8.99056 Y39.50308 Z-0.14254
X8.99104 Y39.50266 Z-0.14265
X8.99151 Y39.50224 Z-0.14277
X8.99199 Y39.50182 Z-0.14288
X8.99246 Y39.5014 Z-0.14299
X8.99294 Y39.50098 Z-0.1431
X8.99341 Y39.50056 Z-0.14321
X8.99389 Y39.50014 Z-0.14332
X8.99436 Y39.49972 Z-0.14344
X8.99484 Y39.4993 Z-0.14355
X8.99531 Y39.49888 Z-0.14366
X8.99579 Y39.49846 Z-0.14377
X8.99968 Y39.50475 Z-0.14508
X8.98866 Z-0.14702
X8.98914 Y39.50433 Z-0.14713
X8.98961 Y39.50391 Z-0.14724
X8.99009 Y39.5035 Z-0.14736
X8.99056 Y39.50308 Z-0.14747
X8.99104 Y39.50266 Z-0.14758
X8.99151 Y39.50224 Z-0.14769
X8.99199 Y39.50182 Z-0.1478
X8.99246 Y39.5014 Z-0.14791
X8.99294 Y39.50098 Z-0.14802
X8.99341 Y39.50056 Z-0.14814
X8.99389 Y39.50014 Z-0.14825
X8.99436 Y39.49972 Z-0.14836
X8.99484 Y39.4993 Z-0.14847
X8.99531 Y39.49888 Z-0.14858
X8.99579 Y39.49846 Z-0.14869
X8.99968 Y39.50475 Z-0.15
X8.99579 Y39.49846 F477.
X8.99968 Y39.50475
X8.98866
G17
G02 X8.99579 Y39.49846 I-2.69565 J-3.05904
G1 X8.83006 Y39.31128
G03 X8.21612 Y39.75475 I-2.53705 J-2.86557
G1 X9.67951
X9.66992 Y39.75111
X9.62312 Y39.73136
X9.60667 Y39.72371
X9.56142 Y39.70062
X9.54557 Y39.69179
X9.50211 Y39.66548
X9.48694 Y39.65553
X9.44551 Y39.62613
X9.4311 Y39.61511
X9.39191 Y39.58279
X9.37834 Y39.57074
X9.34159 Y39.53566
X9.32893 Y39.52267
X9.29483 Y39.48502
X9.28314 Y39.47114
X9.25186 Y39.43111
X9.24121 Y39.41642
X9.21291 Y39.37423
X9.20336 Y39.35881
X9.17819 Y39.31468
X9.16978 Y39.2986
X9.14788 Y39.25276
X9.14066 Y39.23612
X9.12215 Y39.18881
X9.11615 Y39.17168
X9.10111 Y39.12316
X9.09638 Y39.10565
X9.08629 Y39.06215
G03 X8.83006 Y39.31128 I-2.79328 J-2.61644
G1 X8.66434 Y39.1241
G02 X9.24121 Y38.47183 I-2.37133 J-2.67839
G1 X9.26698 Y38.43143
G02 X10.00105 Y36.12399 I-4.65901 J-2.75266
G1 X10.04035
X10.01668 Y36.48167
G03 X9.41318 Y38.50991 I-4.35644 J-0.19235
G02 X10.01562 Y39.56637 I0.60244 J0.35646
G1 X20.58027
Y40.00475
X7.41973
Y39.84093
G02 X8.66434 Y39.1241 I-1.12672 J-3.39522
G0 Z6.5
X9.02621 Y39.34671
G1 Z-0.3 F119.2
X9.02235 Y39.33872 F477.
G03 X8.70947 Y39.60475 I-2.72934 J-2.89301
G1 X9.20078
X9.19096 Y39.59417
X9.18017 Y39.58176
X9.1449 Y39.53839
X9.13495 Y39.52529
X9.1026 Y39.47969
X9.09354 Y39.46598
X9.06426 Y39.41835
X9.05612 Y39.40406
X9.03003 Y39.35461
X9.02621 Y39.34671
X9.25116 Y39.23798
X9.27724 Y39.28743
X9.30652 Y39.33506
X9.33886 Y39.38066
X9.37413 Y39.42404
X9.41218 Y39.465
X9.45284 Y39.50337
X9.49593 Y39.53899
X9.54127 Y39.5717
X9.58866 Y39.60136
X9.6379 Y39.62783
X9.68877 Y39.65102
X9.74106 Y39.67081
X9.79453 Y39.68712
X9.84896 Y39.69987
X9.90411 Y39.70903
X9.95975 Y39.71454
X10.01562 Y39.71637
X20.43027
Y39.85475
X7.80003
G02 X9.16732 Y38.81868 I-1.50702 J-3.40904
G1 X9.16565 Y38.85956
X9.16704 Y38.91545
X9.1721 Y38.97112
X9.18082 Y39.02635
X9.19314 Y39.08088
X9.20902 Y39.13448
X9.22839 Y39.18693
X9.25116 Y39.23798
G0 Z6.5
X8.98866 Y39.50475
G1 Z-0.4 F119.2
X8.99995 F477.
X8.99599 Y39.49828
G03 X8.98866 Y39.50475 I-2.70298 J-3.05257
G1 X8.82338 Y39.31719
G02 X9.08609 Y39.06236 I-2.53037 J-2.87148
G1 X9.10019 Y39.12031
X9.11766 Y39.17647
X9.13857 Y39.23144
X9.16284 Y39.28501
X9.19037 Y39.33697
X9.22107 Y39.38713
X9.25482 Y39.43529
X9.29148 Y39.48128
X9.33091 Y39.52491
X9.37297 Y39.56601
X9.41749 Y39.60444
X9.4643 Y39.64003
X9.51323 Y39.67266
X9.56408 Y39.7022
X9.61666 Y39.72854
X9.67078 Y39.75157
X9.67975 Y39.75475
X8.21612
G02 X8.82338 Y39.31719 I-1.92311 J-3.30904
G1 Z1.1 F715.5
Z1.7
G0 Z6.5
X8.86817 Y76.83452
G1 Z0.15 F119.2
Z0.05 F357.7
X8.86781 Z0.04994
X8.86829 Y76.8341 Z0.04983
X8.86876 Y76.83368 Z0.04971
X8.86924 Y76.83326 Z0.0496
X8.86971 Y76.83284 Z0.04949
X8.87019 Y76.83243 Z0.04938
X8.87067 Y76.83201 Z0.04927
X8.87114 Y76.83159 Z0.04915
X8.87161 Y76.83117 Z0.04904
X8.87209 Y76.83075 Z0.04893
X8.87256 Y76.83033 Z0.04882
X8.87304 Y76.82991 Z0.04871
X8.87351 Y76.82949 Z0.0486
X8.87399 Y76.82907 Z0.04848
X8.87446 Y76.82865 Z0.04837
X8.87494 Y76.82823 Z0.04826
X8.87883 Y76.83452 Z0.04696
X8.86781 Z0.04501
X8.86829 Y76.8341 Z0.0449
X8.86876 Y76.83368 Z0.04479
X8.86924 Y76.83326 Z0.04468
X8.86971 Y76.83284 Z0.04457
X8.87019 Y76.83243 Z0.04445
X8.87067 Y76.83201 Z0.04434
X8.87114 Y76.83159 Z0.04423
X8.87161 Y76.83117 Z0.04412
X8.87209 Y76.83075 Z0.04401
X8.87256 Y76.83033 Z0.0439
X8.87304 Y76.82991 Z0.04378
X8.87351 Y76.82949 Z0.04367
X8.87399 Y76.82907 Z0.04356
X8.87446 Y76.82865 Z0.04345
X8.87494 Y76.82823 Z0.04334
X8.87883 Y76.83452 Z0.04203
X8.86781 Z0.04009
X8.86829 Y76.8341 Z0.03998
X8.86876 Y76.83368 Z0.03987
X8.86924 Y76.83326 Z0.03975
X8.86971 Y76.83284 Z0.03964
X8.87019 Y76.83243 Z0.03953
X8.87067 Y76.83201 Z0.03942
X8.87114 Y76.83159 Z0.03931
X8.87161 Y76.83117 Z0.0392
X8.87209 Y76.83075 Z0.03908
X8.87256 Y76.83033 Z0.03897
X8.87304 Y76.82991 Z0.03886
X8.87351 Y76.82949 Z0.03875
X8.87399 Y76.82907 Z0.03864
X8.87446 Y76.82865 Z0.03852
X8.87494 Y76.82823 Z0.03841
X8.87883 Y76.83452 Z0.03711
X8.86781 Z0.03517
X8.86829 Y76.8341 Z0.03505
X8.86876 Y76.83368 Z0.03494
X8.86924 Y76.83326 Z0.03483
X8.86971 Y76.83284 Z0.03472
X8.87019 Y76.83243 Z0.03461
X8.87067 Y76.83201 Z0.03449
X8.87114 Y76.83159 Z0.03438
X8.87161 Y76.83117 Z0.03427
X8.87209 Y76.83075 Z0.03416
X8.87256 Y76.83033 Z0.03405
X8.87304 Y76.82991 Z0.03394
X8.87351 Y76.82949 Z0.03382
X8.87399 Y76.82907 Z0.03371
X8.87446 Y76.82865 Z0.0336
X8.87494 Y76.82823 Z0.03349
X8.87883 Y76.83452 Z0.03218
X8.86781 Z0.03024
X8.86829 Y76.8341 Z0.03013
X8.86876 Y76.83368 Z0.03002
X8.86924 Y76.83326 Z0.02991
X8.86971 Y76.83284 Z0.02979
X8.87019 Y76.83243 Z0.02968
X8.87067 Y76.83201 Z0.02957
X8.87114 Y76.83159 Z0.02946
X8.87161 Y76.83117 Z0.02935
X8.87209 Y76.83075 Z0.02924
X8.87256 Y76.83033 Z0.02912
X8.87304 Y76.82991 Z0.02901
X8.87351 Y76.82949 Z0.0289
X8.87399 Y76.82907 Z0.02879
X8.87446 Y76.82865 Z0.02868
X8.87494 Y76.82823 Z0.02857
X8.87883 Y76.83452 Z0.02726
X8.86781 Z0.02532
X8.86829 Y76.8341 Z0.02521
X8.86876 Y76.83368 Z0.02509
X8.86924 Y76.83326 Z0.02498
X8.86971 Y76.83284 Z0.02487
X8.87019 Y76.83243 Z0.02476
X8.87067 Y76.83201 Z0.02465
X8.87114 Y76.83159 Z0.02454
X8.87161 Y76.83117 Z0.02442
X8.87209 Y76.83075 Z0.02431
X8.87256 Y76.83033 Z0.0242
X8.87304 Y76.82991 Z0.02409
X8.87351 Y76.82949 Z0.02398
X8.87399 Y76.82907 Z0.02386
X8.87446 Y76.82865 Z0.02375
X8.87494 Y76.82823 Z0.02364
X8.87883 Y76.83452 Z0.02234
X8.86781 Z0.02039
X8.86829 Y76.8341 Z0.02028
X8.86876 Y76.83368 Z0.02017
X8.86924 Y76.83326 Z0.02006
X8.86971 Y76.83284 Z0.01995
X8.87019 Y76.83243 Z0.01983
X8.87067 Y76.83201 Z0.01972
X8.87114 Y76.83159 Z0.01961
X8.87161 Y76.83117 Z0.0195
X8.87209 Y76.83075 Z0.01939
X8.87256 Y76.83033 Z0.01928
X8.87304 Y76.82991 Z0.01916
X8.87351 Y76.82949 Z0.01905
X8.87399 Y76.82907 Z0.01894
X8.87446 Y76.82865 Z0.01883
X8.87494 Y76.82823 Z0.01872
X8.87883 Y76.83452 Z0.01741
X8.86781 Z0.01547
X8.86829 Y76.8341 Z0.01536
X8.86876 Y76.83368 Z0.01525
X8.86924 Y76.83326 Z0.01513
X8.86971 Y76.83284 Z0.01502
X8.87019 Y76.83243 Z0.01491
X8.87067 Y76.83201 Z0.0148
X8.87114 Y76.83159 Z0.01469
X8.87161 Y76.83117 Z0.01458
X8.87209 Y76.83075 Z0.01446
X8.87256 Y76.83033 Z0.01435
X8.87304 Y76.82991 Z0.01424
X8.87351 Y76.82949 Z0.01413
X8.87399 Y76.82907 Z0.01402
X8.87446 Y76.82865 Z0.01391
X8.87494 Y76.82823 Z0.01379
X8.87883 Y76.83452 Z0.01249
X8.86781 Z0.01055
X8.86829 Y76.8341 Z0.01043
X8.86876 Y76.83368 Z0.01032
X8.86924 Y76.83326 Z0.01021
X8.86971 Y76.83284 Z0.0101
X8.87019 Y76.83243 Z0.00999
X8.87067 Y76.83201 Z0.00988
X8.87114 Y76.83159 Z0.00976
X8.87161 Y76.83117 Z0.00965
X8.87209 Y76.83075 Z0.00954
X8.87256 Y76.83033 Z0.00943
X8.87304 Y76.82991 Z0.00932
X8.87351 Y76.82949 Z0.0092
X8.87399 Y76.82907 Z0.00909
X8.87446 Y76.82865 Z0.00898
X8.87494 Y76.82823 Z0.00887
X8.87883 Y76.83452 Z0.00756
X8.86781 Z0.00562
X8.86829 Y76.8341 Z0.00551
X8.86876 Y76.83368 Z0.0054
X8.86924 Y76.83326 Z0.00529
X8.86971 Y76.83284 Z0.00517
X8.87019 Y76.83243 Z0.00506
X8.87067 Y76.83201 Z0.00495
X8.87114 Y76.83159 Z0.00484
X8.87161 Y76.83117 Z0.00473
X8.87209 Y76.83075 Z0.00462
X8.87256 Y76.83033 Z0.00451
X8.87304 Y76.82991 Z0.00439
X8.87351 Y76.82949 Z0.00428
X8.87399 Y76.82907 Z0.00417
X8.87446 Y76.82865 Z0.00406
X8.87494 Y76.82823 Z0.00395
X8.87883 Y76.83452 Z0.00264
X8.86781 Z0.0007
X8.86829 Y76.8341 Z0.00059
X8.86876 Y76.83368 Z0.00047
X8.86924 Y76.83326 Z0.00036
X8.86971 Y76.83284 Z0.00025
X8.87019 Y76.83243 Z0.00014
X8.87067 Y76.83201 Z0.00003
X8.87114 Y76.83159 Z-0.00008
X8.87161 Y76.83117 Z-0.0002
X8.87209 Y76.83075 Z-0.00031
X8.87256 Y76.83033 Z-0.00042
X8.87304 Y76.82991 Z-0.00053
X8.87351 Y76.82949 Z-0.00064
X8.87399 Y76.82907 Z-0.00075
X8.87446 Y76.82865 Z-0.00087
X8.87494 Y76.82823 Z-0.00098
X8.87883 Y76.83452 Z-0.00228
X8.86781 Z-0.00423
X8.86829 Y76.8341 Z-0.00434
X8.86876 Y76.83368 Z-0.00445
X8.86924 Y76.83326 Z-0.00456
X8.86971 Y76.83284 Z-0.00467
X8.87019 Y76.83243 Z-0.00478
X8.87067 Y76.83201 Z-0.0049
X8.87114 Y76.83159 Z-0.00501
X8.87161 Y76.83117 Z-0.00512
X8.87209 Y76.83075 Z-0.00523
X8.87256 Y76.83033 Z-0.00534
X8.87304 Y76.82991 Z-0.00546
X8.87351 Y76.82949 Z-0.00557
X8.87399 Y76.82907 Z-0.00568
X8.87446 Y76.82865 Z-0.00579
X8.87494 Y76.82823 Z-0.0059
X8.87883 Y76.83452 Z-0.00721
X8.86781 Z-0.00915
X8.86829 Y76.8341 Z-0.00926
X8.86876 Y76.83368 Z-0.00937
X8.86924 Y76.83326 Z-0.00949
X8.86971 Y76.83284 Z-0.0096
X8.87019 Y76.83243 Z-0.00971
X8.87067 Y76.83201 Z-0.00982
X8.87114 Y76.83159 Z-0.00993
X8.87161 Y76.83117 Z-0.01004
X8.87209 Y76.83075 Z-0.01016
X8.87256 Y76.83033 Z-0.01027
X8.87304 Y76.82991 Z-0.01038
X8.87351 Y76.82949 Z-0.01049
X8.87399 Y76.82907 Z-0.0106
X8.87446 Y76.82865 Z-0.01071
X8.87494 Y76.82823 Z-0.01083
X8.87883 Y76.83452 Z-0.01213
X8.86781 Z-0.01407
X8.86829 Y76.8341 Z-0.01419
X8.86876 Y76.83368 Z-0.0143
X8.86924 Y76.83326 Z-0.01441
X8.86971 Y76.83284 Z-0.01452
X8.87019 Y76.83243 Z-0.01463
X8.87067 Y76.83201 Z-0.01474
X8.87114 Y76.83159 Z-0.01486
X8.87161 Y76.83117 Z-0.01497
X8.87209 Y76.83075 Z-0.01508
X8.87256 Y76.83033 Z-0.01519
X8.87304 Y76.82991 Z-0.0153
X8.87351 Y76.82949 Z-0.01541
X8.87399 Y76.82907 Z-0.01553
X8.87446 Y76.82865 Z-0.01564
X8.87494 Y76.82823 Z-0.01575
X8.87883 Y76.83452 Z-0.01705
X8.86781 Z-0.019
X8.86829 Y76.8341 Z-0.01911
X8.86876 Y76.83368 Z-0.01922
X8.86924 Y76.83326 Z-0.01933
X8.86971 Y76.83284 Z-0.01944
X8.87019 Y76.83243 Z-0.01956
X8.87067 Y76.83201 Z-0.01967
X8.87114 Y76.83159 Z-0.01978
X8.87161 Y76.83117 Z-0.01989
X8.87209 Y76.83075 Z-0.02
X8.87256 Y76.83033 Z-0.02011
X8.87304 Y76.82991 Z-0.02023
X8.87351 Y76.82949 Z-0.02034
X8.87399 Y76.82907 Z-0.02045
X8.87446 Y76.82865 Z-0.02056
X8.87494 Y76.82823 Z-0.02067
X8.87883 Y76.83452 Z-0.02198
X8.86781 Z-0.02392
X8.86829 Y76.8341 Z-0.02403
X8.86876 Y76.83368 Z-0.02415
X8.86924 Y76.83326 Z-0.02426
X8.86971 Y76.83284 Z-0.02437
X8.87019 Y76.83243 Z-0.02448
X8.87067 Y76.83201 Z-0.02459
X8.87114 Y76.83159 Z-0.0247
X8.87161 Y76.83117 Z-0.02482
X8.87209 Y76.83075 Z-0.02493
X8.87256 Y76.83033 Z-0.02504
X8.87304 Y76.82991 Z-0.02515
X8.87351 Y76.82949 Z-0.02526
X8.87399 Y76.82907 Z-0.02537
X8.87446 Y76.82865 Z-0.02549
X8.87494 Y76.82823 Z-0.0256
X8.87883 Y76.83452 Z-0.0269
X8.86781 Z-0.02885
X8.86829 Y76.8341 Z-0.02896
X8.86876 Y76.83368 Z-0.02907
X8.86924 Y76.83326 Z-0.02918
X8.86971 Y76.83284 Z-0.02929
X8.87019 Y76.83243 Z-0.0294
X8.87067 Y76.83201 Z-0.02952
X8.87114 Y76.83159 Z-0.02963
X8.87161 Y76.83117 Z-0.02974
X8.87209 Y76.83075 Z-0.02985
X8.87256 Y76.83033 Z-0.02996
X8.87304 Y76.82991 Z-0.03007
X8.87351 Y76.82949 Z-0.03019
X8.87399 Y76.82907 Z-0.0303
X8.87446 Y76.82865 Z-0.03041
X8.87494 Y76.82823 Z-0.03052
X8.87883 Y76.83452 Z-0.03183
X8.86781 Z-0.03377
X8.86829 Y76.8341 Z-0.03388
X8.86876 Y76.83368 Z-0.03399
X8.86924 Y76.83326 Z-0.0341
X8.86971 Y76.83284 Z-0.03422
X8.87019 Y76.83243 Z-0.03433
X8.87067 Y76.83201 Z-0.03444
X8.87114 Y76.83159 Z-0.03455
X8.87161 Y76.83117 Z-0.03466
X8.87209 Y76.83075 Z-0.03478
X8.87256 Y76.83033 Z-0.03489
X8.87304 Y76.82991 Z-0.035
X8.87351 Y76.82949 Z-0.03511
X8.87399 Y76.82907 Z-0.03522
X8.87446 Y76.82865 Z-0.03533
X8.87494 Y76.82823 Z-0.03545
X8.87883 Y76.83452 Z-0.03675
X8.86781 Z-0.03869
X8.86829 Y76.8341 Z-0.03881
X8.86876 Y76.83368 Z-0.03892
X8.86924 Y76.83326 Z-0.03903
X8.86971 Y76.83284 Z-0.03914
X8.87019 Y76.83243 Z-0.03925
X8.87067 Y76.83201 Z-0.03936
X8.87114 Y76.83159 Z-0.03948
X8.87161 Y76.83117 Z-0.03959
X8.87209 Y76.83075 Z-0.0397
X8.87256 Y76.83033 Z-0.03981
X8.87304 Y76.82991 Z-0.03992
X8.87351 Y76.82949 Z-0.04003
X8.87399 Y76.82907 Z-0.04015
X8.87446 Y76.82865 Z-0.04026
X8.87494 Y76.82823 Z-0.04037
X8.87883 Y76.83452 Z-0.04167
X8.86781 Z-0.04362
X8.86829 Y76.8341 Z-0.04373
X8.86876 Y76.83368 Z-0.04384
X8.86924 Y76.83326 Z-0.04395
X8.86971 Y76.83284 Z-0.04406
X8.87019 Y76.83243 Z-0.04418
X8.87067 Y76.83201 Z-0.04429
X8.87114 Y76.83159 Z-0.0444
X8.87161 Y76.83117 Z-0.04451
X8.87209 Y76.83075 Z-0.04462
X8.87256 Y76.83033 Z-0.04473
X8.87304 Y76.82991 Z-0.04485
X8.87351 Y76.82949 Z-0.04496
X8.87399 Y76.82907 Z-0.04507
X8.87446 Y76.82865 Z-0.04518
X8.87494 Y76.82823 Z-0.04529
X8.87883 Y76.83452 Z-0.0466
X8.86781 Z-0.04854
X8.86829 Y76.8341 Z-0.04865
X8.86876 Y76.83368 Z-0.04876
X8.86924 Y76.83326 Z-0.04888
X8.86971 Y76.83284 Z-0.04899
X8.87019 Y76.83243 Z-0.0491
X8.87067 Y76.83201 Z-0.04921
X8.87114 Y76.83159 Z-0.04932
X8.87161 Y76.83117 Z-0.04944
X8.87209 Y76.83075 Z-0.04955
X8.87256 Y76.83033 Z-0.04966
X8.87304 Y76.82991 Z-0.04977
X8.87351 Y76.82949 Z-0.04988
X8.87399 Y76.82907 Z-0.04999
X8.87446 Y76.82865 Z-0.05011
X8.87494 Y76.82823 Z-0.05022
X8.87883 Y76.83452 Z-0.05152
X8.86781 Z-0.05347
X8.86829 Y76.8341 Z-0.05358
X8.86876 Y76.83368 Z-0.05369
X8.86924 Y76.83326 Z-0.0538
X8.86971 Y76.83284 Z-0.05391
X8.87019 Y76.83243 Z-0.05402
X8.87067 Y76.83201 Z-0.05414
X8.87114 Y76.83159 Z-0.05425
X8.87161 Y76.83117 Z-0.05436
X8.87209 Y76.83075 Z-0.05447
X8.87256 Y76.83033 Z-0.05458
X8.87304 Y76.82991 Z-0.05469
X8.87351 Y76.82949 Z-0.05481
X8.87399 Y76.82907 Z-0.05492
X8.87446 Y76.82865 Z-0.05503
X8.87494 Y76.82823 Z-0.05514
X8.87883 Y76.83452 Z-0.05645
X8.86781 Z-0.05839
X8.86829 Y76.8341 Z-0.0585
X8.86876 Y76.83368 Z-0.05861
X8.86924 Y76.83326 Z-0.05872
X8.86971 Y76.83284 Z-0.05884
X8.87019 Y76.83243 Z-0.05895
X8.87067 Y76.83201 Z-0.05906
X8.87114 Y76.83159 Z-0.05917
X8.87161 Y76.83117 Z-0.05928
X8.87209 Y76.83075 Z-0.05939
X8.87256 Y76.83033 Z-0.05951
X8.87304 Y76.82991 Z-0.05962
X8.87351 Y76.82949 Z-0.05973
X8.87399 Y76.82907 Z-0.05984
X8.87446 Y76.82865 Z-0.05995
X8.87494 Y76.82823 Z-0.06007
X8.87883 Y76.83452 Z-0.06137
X8.86781 Z-0.06331
X8.86829 Y76.8341 Z-0.06343
X8.86876 Y76.83368 Z-0.06354
X8.86924 Y76.83326 Z-0.06365
X8.86971 Y76.83284 Z-0.06376
X8.87019 Y76.83243 Z-0.06387
X8.87067 Y76.83201 Z-0.06398
X8.87114 Y76.83159 Z-0.0641
X8.87161 Y76.83117 Z-0.06421
X8.87209 Y76.83075 Z-0.06432
X8.87256 Y76.83033 Z-0.06443
X8.87304 Y76.82991 Z-0.06454
X8.87351 Y76.82949 Z-0.06465
X8.87399 Y76.82907 Z-0.06477
X8.87446 Y76.82865 Z-0.06488
X8.87494 Y76.82823 Z-0.06499
X8.87883 Y76.83452 Z-0.06629
X8.86781 Z-0.06824
X8.86829 Y76.8341 Z-0.06835
X8.86876 Y76.83368 Z-0.06846
X8.86924 Y76.83326 Z-0.06857
X8.86971 Y76.83284 Z-0.06868
X8.87019 Y76.83243 Z-0.06879
X8.87067 Y76.83201 Z-0.06891
X8.87114 Y76.83159 Z-0.06902
X8.87161 Y76.83117 Z-0.06913
X8.87209 Y76.83075 Z-0.06924
X8.87256 Y76.83033 Z-0.06935
X8.87304 Y76.82991 Z-0.06947
X8.87351 Y76.82949 Z-0.06958
X8.87399 Y76.82907 Z-0.06969
X8.87446 Y76.82865 Z-0.0698
X8.87494 Y76.82823 Z-0.06991
X8.87883 Y76.83452 Z-0.07122
X8.86781 Z-0.07316
X8.86829 Y76.8341 Z-0.07327
X8.86876 Y76.83368 Z-0.07338
X8.86924 Y76.83326 Z-0.0735
X8.86971 Y76.83284 Z-0.07361
X8.87019 Y76.83243 Z-0.07372
X8.87067 Y76.83201 Z-0.07383
X8.87114 Y76.83159 Z-0.07394
X8.87161 Y76.83117 Z-0.07405
X8.87209 Y76.83075 Z-0.07417
X8.87256 Y76.83033 Z-0.07428
X8.87304 Y76.82991 Z-0.07439
X8.87351 Y76.82949 Z-0.0745
X8.87399 Y76.82907 Z-0.07461
X8.87446 Y76.82865 Z-0.07473
X8.87494 Y76.82823 Z-0.07484
X8.87883 Y76.83452 Z-0.07614
X8.86781 Z-0.07809
X8.86829 Y76.8341 Z-0.0782
X8.86876 Y76.83368 Z-0.07831
X8.86924 Y76.83326 Z-0.07842
X8.86971 Y76.83284 Z-0.07853
X8.87019 Y76.83243 Z-0.07864
X8.87067 Y76.83201 Z-0.07876
X8.87114 Y76.83159 Z-0.07887
X8.87161 Y76.83117 Z-0.07898
X8.87209 Y76.83075 Z-0.07909
X8.87256 Y76.83033 Z-0.0792
X8.87304 Y76.82991 Z-0.07931
X8.87351 Y76.82949 Z-0.07942
X8.87399 Y76.82907 Z-0.07954
X8.87446 Y76.82865 Z-0.07965
X8.87494 Y76.82823 Z-0.07976
X8.87883 Y76.83452 Z-0.08107
X8.86781 Z-0.08301
X8.86829 Y76.8341 Z-0.08312
X8.86876 Y76.83368 Z-0.08323
X8.86924 Y76.83326 Z-0.08334
X8.86971 Y76.83284 Z-0.08346
X8.87019 Y76.83243 Z-0.08357
X8.87067 Y76.83201 Z-0.08368
X8.87114 Y76.83159 Z-0.08379
X8.87161 Y76.83117 Z-0.0839
X8.87209 Y76.83075 Z-0.08401
X8.87256 Y76.83033 Z-0.08413
X8.87304 Y76.82991 Z-0.08424
X8.87351 Y76.82949 Z-0.08435
X8.87399 Y76.82907 Z-0.08446
X8.87446 Y76.82865 Z-0.08457
X8.87494 Y76.82823 Z-0.08468
X8.87883 Y76.83452 Z-0.08599
X8.86781 Z-0.08793
X8.86829 Y76.8341 Z-0.08804
X8.86876 Y76.83368 Z-0.08816
X8.86924 Y76.83326 Z-0.08827
X8.86971 Y76.83284 Z-0.08838
X8.87019 Y76.83243 Z-0.08849
X8.87067 Y76.83201 Z-0.0886
X8.87114 Y76.83159 Z-0.08871
X8.87161 Y76.83117 Z-0.08883
X8.87209 Y76.83075 Z-0.08894
X8.87256 Y76.83033 Z-0.08905
X8.87304 Y76.82991 Z-0.08916
X8.87351 Y76.82949 Z-0.08927
X8.87399 Y76.82907 Z-0.08939
X8.87446 Y76.82865 Z-0.0895
X8.87494 Y76.82823 Z-0.08961
X8.87883 Y76.83452 Z-0.09091
X8.86781 Z-0.09286
X8.86829 Y76.8341 Z-0.09297
X8.86876 Y76.83368 Z-0.09308
X8.86924 Y76.83326 Z-0.09319
X8.86971 Y76.83284 Z-0.0933
X8.87019 Y76.83243 Z-0.09341
X8.87067 Y76.83201 Z-0.09353
X8.87114 Y76.83159 Z-0.09364
X8.87161 Y76.83117 Z-0.09375
X8.87209 Y76.83075 Z-0.09386
X8.87256 Y76.83033 Z-0.09397
X8.87304 Y76.82991 Z-0.09409
X8.87351 Y76.82949 Z-0.0942
X8.87399 Y76.82907 Z-0.09431
X8.87446 Y76.82865 Z-0.09442
X8.87494 Y76.82823 Z-0.09453
X8.87883 Y76.83452 Z-0.09584
X8.86781 Z-0.09778
X8.86829 Y76.8341 Z-0.09789
X8.86876 Y76.83368 Z-0.098
X8.86924 Y76.83326 Z-0.09811
X8.86971 Y76.83284 Z-0.09823
X8.87019 Y76.83243 Z-0.09834
X8.87067 Y76.83201 Z-0.09845
X8.87114 Y76.83159 Z-0.09856
X8.87161 Y76.83117 Z-0.09867
X8.87209 Y76.83075 Z-0.09879
X8.87256 Y76.83033 Z-0.0989
X8.87304 Y76.82991 Z-0.09901
X8.87351 Y76.82949 Z-0.09912
X8.87399 Y76.82907 Z-0.09923
X8.87446 Y76.82865 Z-0.09934
X8.87494 Y76.82823 Z-0.09946
X8.87883 Y76.83452 Z-0.10076
X8.86781 Z-0.1027
X8.86829 Y76.8341 Z-0.10282
X8.86876 Y76.83368 Z-0.10293
X8.86924 Y76.83326 Z-0.10304
X8.86971 Y76.83284 Z-0.10315
X8.87019 Y76.83243 Z-0.10326
X8.87067 Y76.83201 Z-0.10337
X8.87114 Y76.83159 Z-0.10349
X8.87161 Y76.83117 Z-0.1036
X8.87209 Y76.83075 Z-0.10371
X8.87256 Y76.83033 Z-0.10382
X8.87304 Y76.82991 Z-0.10393
X8.87351 Y76.82949 Z-0.10404
X8.87399 Y76.82907 Z-0.10416
X8.87446 Y76.82865 Z-0.10427
X8.87494 Y76.82823 Z-0.10438
X8.87883 Y76.83452 Z-0.10569
X8.86781 Z-0.10763
X8.86829 Y76.8341 Z-0.10774
X8.86876 Y76.83368 Z-0.10785
X8.86924 Y76.83326 Z-0.10796
X8.86971 Y76.83284 Z-0.10808
X8.87019 Y76.83243 Z-0.10819
X8.87067 Y76.83201 Z-0.1083
X8.87114 Y76.83159 Z-0.10841
X8.87161 Y76.83117 Z-0.10852
X8.87209 Y76.83075 Z-0.10863
X8.87256 Y76.83033 Z-0.10875
X8.87304 Y76.82991 Z-0.10886
X8.87351 Y76.82949 Z-0.10897
X8.87399 Y76.82907 Z-0.10908
X8.87446 Y76.82865 Z-0.10919
X8.87494 Y76.82823 Z-0.1093
X8.87883 Y76.83452 Z-0.11061
X8.86781 Z-0.11255
X8.86829 Y76.8341 Z-0.11266
X8.86876 Y76.83368 Z-0.11278
X8.86924 Y76.83326 Z-0.11289
X8.86971 Y76.83284 Z-0.113
X8.87019 Y76.83243 Z-0.11311
X8.87067 Y76.83201 Z-0.11322
X8.87114 Y76.83159 Z-0.11333
X8.87161 Y76.83117 Z-0.11345
X8.87209 Y76.83075 Z-0.11356
X8.87256 Y76.83033 Z-0.11367
X8.87304 Y76.82991 Z-0.11378
X8.87351 Y76.82949 Z-0.11389
X8.87399 Y76.82907 Z-0.114
X8.87446 Y76.82865 Z-0.11412
X8.87494 Y76.82823 Z-0.11423
X8.87883 Y76.83452 Z-0.11553
X8.86781 Z-0.11748
X8.86829 Y76.8341 Z-0.11759
X8.86876 Y76.83368 Z-0.1177
X8.86924 Y76.83326 Z-0.11781
X8.86971 Y76.83284 Z-0.11792
X8.87019 Y76.83243 Z-0.11804
X8.87067 Y76.83201 Z-0.11815
X8.87114 Y76.83159 Z-0.11826
X8.87161 Y76.83117 Z-0.11837
X8.87209 Y76.83075 Z-0.11848
X8.87256 Y76.83033 Z-0.11859
X8.87304 Y76.82991 Z-0.11871
X8.87351 Y76.82949 Z-0.11882
X8.87399 Y76.82907 Z-0.11893
X8.87446 Y76.82865 Z-0.11904
X8.87494 Y76.82823 Z-0.11915
X8.87883 Y76.83452 Z-0.12046
X8.86781 Z-0.1224
X8.86829 Y76.8341 Z-0.12251
X8.86876 Y76.83368 Z-0.12262
X8.86924 Y76.83326 Z-0.12274
X8.86971 Y76.83284 Z-0.12285
X8.87019 Y76.83243 Z-0.12296
X8.87067 Y76.83201 Z-0.12307
X8.87114 Y76.83159 Z-0.12318
X8.87161 Y76.83117 Z-0.12329
X8.87209 Y76.83075 Z-0.12341
X8.87256 Y76.83033 Z-0.12352
X8.87304 Y76.82991 Z-0.12363
X8.87351 Y76.82949 Z-0.12374
X8.87399 Y76.82907 Z-0.12385
X8.87446 Y76.82865 Z-0.12396
X8.87494 Y76.82823 Z-0.12408
X8.87883 Y76.83452 Z-0.12538
X8.86781 Z-0.12732
X8.86829 Y76.8341 Z-0.12744
X8.86876 Y76.83368 Z-0.12755
X8.86924 Y76.83326 Z-0.12766
X8.86971 Y76.83284 Z-0.12777
X8.87019 Y76.83243 Z-0.12788
X8.87067 Y76.83201 Z-0.12799
X8.87114 Y76.83159 Z-0.12811
X8.87161 Y76.83117 Z-0.12822
X8.87209 Y76.83075 Z-0.12833
X8.87256 Y76.83033 Z-0.12844
X8.87304 Y76.82991 Z-0.12855
X8.87351 Y76.82949 Z-0.12866
X8.87399 Y76.82907 Z-0.12878
X8.87446 Y76.82865 Z-0.12889
X8.87494 Y76.82823 Z-0.129
X8.87883 Y76.83452 Z-0.13031
X8.86781 Z-0.13225
X8.86829 Y76.8341 Z-0.13236
X8.86876 Y76.83368 Z-0.13247
X8.86924 Y76.83326 Z-0.13258
X8.86971 Y76.83284 Z-0.13269
X8.87019 Y76.83243 Z-0.13281
X8.87067 Y76.83201 Z-0.13292
X8.87114 Y76.83159 Z-0.13303
X8.87161 Y76.83117 Z-0.13314
X8.87209 Y76.83075 Z-0.13325
X8.87256 Y76.83033 Z-0.13337
X8.87304 Y76.82991 Z-0.13348
X8.87351 Y76.82949 Z-0.13359
X8.87399 Y76.82907 Z-0.1337
X8.87446 Y76.82865 Z-0.13381
X8.87494 Y76.82823 Z-0.13392
X8.87883 Y76.83452 Z-0.13523
X8.86781 Z-0.13717
X8.86829 Y76.8341 Z-0.13728
X8.86876 Y76.83368 Z-0.13739
X8.86924 Y76.83326 Z-0.13751
X8.86971 Y76.83284 Z-0.13762
X8.87019 Y76.83243 Z-0.13773
X8.87067 Y76.83201 Z-0.13784
X8.87114 Y76.83159 Z-0.13795
X8.87161 Y76.83117 Z-0.13807
X8.87209 Y76.83075 Z-0.13818
X8.87256 Y76.83033 Z-0.13829
X8.87304 Y76.82991 Z-0.1384
X8.87351 Y76.82949 Z-0.13851
X8.87399 Y76.82907 Z-0.13862
X8.87446 Y76.82865 Z-0.13874
X8.87494 Y76.82823 Z-0.13885
X8.87883 Y76.83452 Z-0.14015
X8.86781 Z-0.1421
X8.86829 Y76.8341 Z-0.14221
X8.86876 Y76.83368 Z-0.14232
X8.86924 Y76.83326 Z-0.14243
X8.86971 Y76.83284 Z-0.14254
X8.87019 Y76.83243 Z-0.14265
X8.87067 Y76.83201 Z-0.14277
X8.87114 Y76.83159 Z-0.14288
X8.87161 Y76.83117 Z-0.14299
X8.87209 Y76.83075 Z-0.1431
X8.87256 Y76.83033 Z-0.14321
X8.87304 Y76.82991 Z-0.14332
X8.87351 Y76.82949 Z-0.14344
X8.87399 Y76.82907 Z-0.14355
X8.87446 Y76.82865 Z-0.14366
X8.87494 Y76.82823 Z-0.14377
X8.87883 Y76.83452 Z-0.14508
X8.86781 Z-0.14702
X8.86829 Y76.8341 Z-0.14713
X8.86876 Y76.83368 Z-0.14724
X8.86924 Y76.83326 Z-0.14736
X8.86971 Y76.83284 Z-0.14747
X8.87019 Y76.83243 Z-0.14758
X8.87067 Y76.83201 Z-0.14769
X8.87114 Y76.83159 Z-0.1478
X8.87161 Y76.83117 Z-0.14791
X8.87209 Y76.83075 Z-0.14802
X8.87256 Y76.83033 Z-0.14814
X8.87304 Y76.82991 Z-0.14825
X8.87351 Y76.82949 Z-0.14836
X8.87399 Y76.82907 Z-0.14847
X8.87446 Y76.82865 Z-0.14858
X8.87494 Y76.82823 Z-0.14869
X8.87883 Y76.83452 Z-0.15
X8.87494 Y76.82823 F477.
X8.87883 Y76.83452
X8.86781
G02 X8.87494 Y76.82823 I-2.69565 J-3.05904
G1 X8.70922 Y76.64105
G03 X8.09528 Y77.08452 I-2.53706 J-2.86557
G1 X9.55866
X9.54907 Y77.08088
X9.50227 Y77.06113
X9.48582 Y77.05348
X9.44057 Y77.03039
X9.42472 Y77.02156
X9.38126 Y76.99525
X9.36609 Y76.9853
X9.32466 Y76.9559
X9.31025 Y76.94487
X9.27106 Y76.91255
X9.25749 Y76.90051
X9.22074 Y76.86543
X9.20808 Y76.85244
X9.17398 Y76.81478
X9.16229 Y76.8009
X9.13101 Y76.76088
X9.12036 Y76.74619
X9.09206 Y76.704
X9.08251 Y76.68857
X9.05734 Y76.64445
X9.04893 Y76.62837
X9.02703 Y76.58253
X9.01981 Y76.56588
X9.0013 Y76.51858
X8.9953 Y76.50145
X8.98026 Y76.45293
X8.97553 Y76.43542
X8.96544 Y76.39192
G03 X8.70922 Y76.64105 I-2.79328 J-2.61644
G1 X8.54349 Y76.45387
G02 X9.12036 Y75.8016 I-2.37133 J-2.67839
G1 X9.14613 Y75.7612
G02 X9.8802 Y73.45376 I-4.659 J-2.75266
G1 X9.9195
X9.89583 Y73.81144
G03 X9.29233 Y75.83968 I-4.35644 J-0.19235
G02 X9.89477 Y76.89614 I0.60244 J0.35646
G1 X20.45942
Y77.33452
X7.29888
Y77.17069
G02 X8.54349 Y76.45387 I-1.12672 J-3.39521
G0 Z6.5
X8.90536 Y76.67647
G1 Z-0.3 F119.2
X8.9015 Y76.66849 F477.
G03 X8.58862 Y76.93452 I-2.72934 J-2.89301
G1 X9.07993
X9.0701 Y76.92394
X9.05932 Y76.91153
X9.02405 Y76.86815
X9.0141 Y76.85506
X8.98175 Y76.80946
X8.97269 Y76.79575
X8.94341 Y76.74812
X8.93527 Y76.73383
X8.90918 Y76.68438
X8.90536 Y76.67647
X9.13031 Y76.56775
X9.15639 Y76.6172
X9.18567 Y76.66483
X9.21801 Y76.71043
X9.25328 Y76.75381
X9.29133 Y76.79477
X9.33199 Y76.83314
X9.37508 Y76.86876
X9.42042 Y76.90147
X9.46781 Y76.93113
X9.51705 Y76.9576
X9.56792 Y76.98079
X9.62021 Y77.00058
X9.67368 Y77.01689
X9.72811 Y77.02964
X9.78326 Y77.0388
X9.8389 Y77.0443
X9.89477 Y77.04614
X20.30942
Y77.18452
X7.67918
G02 X9.04648 Y76.14845 I-1.50702 J-3.40904
G1 X9.0448 Y76.18933
X9.04619 Y76.24522
X9.05125 Y76.30089
X9.05996 Y76.35612
X9.07229 Y76.41065
X9.08817 Y76.46425
X9.10754 Y76.5167
X9.13031 Y76.56775
G0 Z6.5
X8.86781 Y76.83452
G1 Z-0.4 F119.2
X8.87911 F477.
X8.87514 Y76.82805
G03 X8.86781 Y76.83452 I-2.70298 J-3.05257
G1 Y77.08452
X8.09528
G02 X8.96524 Y76.39213 I-1.92312 J-3.30904
G1 X8.97934 Y76.45008
X8.99681 Y76.50624
X9.01772 Y76.56121
X9.04199 Y76.61477
X9.06952 Y76.66674
X9.10022 Y76.7169
X9.13397 Y76.76506
X9.17063 Y76.81105
X9.21006 Y76.85468
X9.25212 Y76.89578
X9.29664 Y76.93421
X9.34345 Y76.9698
X9.39238 Y77.00243
X9.44323 Y77.03197
X9.49581 Y77.05831
X9.54993 Y77.08134
X9.5589 Y77.08452
X8.86781
Z1.1 F715.5
Z1.7
G0 Z6.5
X20.1698 Y84.48931
G1 Z0.15 F119.2
Z0.05 F357.7
X20.20942 Z0.04301
Y84.3898 Z0.02547
X20.10991 Z0.00792
Y84.48931 Z-0.00963
X20.20942 Z-0.02717
Y84.3898 Z-0.04472
X20.10991 Z-0.06227
Y84.48931 Z-0.07981
X20.20942 Z-0.09736
Y84.3898 Z-0.11491
X20.10991 Z-0.13245
Y84.48931 Z-0.15
X20.20942 F477.
Y84.3898
X20.10991
Y84.48931
X19.85991
Y84.1398
X20.45942
Y84.73931
X19.85991
Y84.48931
G0 Z6.5
X20.00991 Y84.58931
G1 Z-0.3 F119.2
Y84.2898 F477.
X20.30942
Y84.58931
X20.00991
G0 Z6.5
X20.10991 Y84.48931
G1 Z-0.4 F119.2
Y84.3898 F477.
X20.20942
Y84.48931
X20.10991
Z1.1 F715.5
Z1.7
G0 Z6.5
X7.86347 Y90.08976
G1 Z0.15 F119.2
Z0.05 F357.7
X7.87173 Y90.08143 Z0.04793
X7.90588 Y90.04937 Z0.03967
X7.79058 Y90.05864 Z0.01927
Y90.17318 Z-0.00092
X7.81391 Y90.14402 Z-0.00751
X7.8197 Y90.13729 Z-0.00907
X7.82549 Y90.13055 Z-0.01064
X7.85923 Y90.09404 Z-0.0194
X7.87173 Y90.08143 Z-0.02253
X7.90588 Y90.04937 Z-0.03079
X7.79058 Y90.05864 Z-0.05119
Y90.17318 Z-0.07139
X7.81391 Y90.14402 Z-0.07797
X7.8197 Y90.13729 Z-0.07954
X7.82549 Y90.13055 Z-0.0811
X7.85923 Y90.09404 Z-0.08987
X7.87173 Y90.08143 Z-0.093
X7.90588 Y90.04937 Z-0.10126
X7.79058 Y90.05864 Z-0.12166
Y90.17318 Z-0.14185
X7.81391 Y90.14402 Z-0.14844
X7.8197 Y90.13729 Z-0.15
X7.82549 Y90.13055 F477.
X7.85923 Y90.09404
X7.87173 Y90.08143
X7.90588 Y90.04937
X7.79058 Y90.05864
Y90.17318
X7.81391 Y90.14402
X7.8197 Y90.13729
G0 Z6.5
X13.07088 Y89.67033
G1 Z0.15 F119.2
Z0.05 F357.7
X13.07506 Y89.67319 Z0.04911
X13.08945 Y89.68386 Z0.04595
X13.12866 Y89.71514 Z0.0371
X13.13545 Y89.72097 Z0.03553
X13.14225 Y89.7268 Z0.03395
X13.17911 Y89.76081 Z0.0251
X13.19183 Y89.77342 Z0.02194
X13.22617 Y89.80997 Z0.0131
X13.23795 Y89.82346 Z0.00994
X13.25421 Y89.84347 Z0.0054
X13.26674 Y89.82824 Z0.00192
X13.27933 Y89.81307 Z-0.00156
X13.29199 Y89.79796 Z-0.00503
X13.30472 Y89.7829 Z-0.00851
X13.31752 Y89.7679 Z-0.01199
X13.33039 Y89.75296 Z-0.01546
X13.34332 Y89.73808 Z-0.01894
X13.35632 Y89.72326 Z-0.02242
X13.36939 Y89.70849 Z-0.02589
X13.38252 Y89.69379 Z-0.02937
X13.39572 Y89.67914 Z-0.03284
X13.40898 Y89.66455 Z-0.03632
X13.42231 Y89.65003 Z-0.0398
X13.43571 Y89.63556 Z-0.04327
X13.44917 Y89.62115 Z-0.04675
Y89.60354 Z-0.04985
X13.02275 Y89.63784 Z-0.12529
X13.03372 Y89.6448 Z-0.12758
X13.07506 Y89.67319 Z-0.13642
X13.08945 Y89.68386 Z-0.13958
X13.12866 Y89.71514 Z-0.14842
X13.13545 Y89.72097 Z-0.15
X13.14225 Y89.7268 F477.
X13.17911 Y89.76081
X13.19183 Y89.77342
X13.22617 Y89.80997
X13.23795 Y89.82346
X13.25421 Y89.84347
G03 X13.44917 Y89.62115 I3.3858 J2.77249
G1 Y89.60354
X13.02275 Y89.63784
X13.03372 Y89.6448
X13.07506 Y89.67319
X13.08945 Y89.68386
X13.12866 Y89.71514
X13.13545 Y89.72097
X12.97274 Y89.91056
X12.93353 Y89.87928
X12.89219 Y89.85089
X12.84892 Y89.82553
X12.80395 Y89.80333
X12.7575 Y89.78441
X12.70981 Y89.76887
X12.66114 Y89.75678
X12.61173 Y89.74821
X12.56182 Y89.74319
X12.51169 Y89.74177
X12.46159 Y89.74393
G02 X8.38628 Y90.07373 I0.27975 J28.8011
G1 X8.3382 Y90.08635
X8.29113 Y90.10235
X8.24531 Y90.12165
X8.20098 Y90.14415
X8.15836 Y90.16974
X8.11766 Y90.1983
X8.07909 Y90.22967
X8.04285 Y90.2637
X8.00911 Y90.30021
X7.97805 Y90.33903
X7.94982 Y90.37995
X7.92457 Y90.42278
X7.90242 Y90.46729
X7.88349 Y90.51326
X7.86786 Y90.56045
X7.85563 Y90.60864
X7.84685 Y90.65757
X7.84156 Y90.70701
X7.83979 Y90.75669
Y96.15776
X7.54058
Y89.82794
X13.69917 Y89.33263
Y89.72179
G02 X13.20701 Y90.32701 I2.94084 J2.89417
G1 X13.20049 Y90.29133
X13.18797 Y90.24276
X13.172 Y90.19522
X13.15267 Y90.14894
X13.13007 Y90.10417
X13.10432 Y90.06113
X13.07556 Y90.02004
X13.04393 Y89.98112
X13.0096 Y89.94456
X12.97274 Y89.91056
G0 Z6.5
X16.31251 Y96.60778
G1 Z0.15 F119.2
Z0.05 F357.7
X16.34133 Y96.60821 Z0.04492
X16.39834 Y96.60834 Z0.03487
X16.45534 Y96.60774 Z0.02481
X16.51234 Y96.60643 Z0.01476
X16.56931 Y96.60439 Z0.00471
X16.62626 Y96.60164 Z-0.00535
X16.68316 Y96.59816 Z-0.0154
X16.74002 Y96.59396 Z-0.02545
X16.69296 Y96.59563 Z-0.03375
X16.64588 Y96.59683 Z-0.04206
X16.59879 Y96.59758 Z-0.05036
X16.5517 Y96.59786 Z-0.05866
X16.50462 Y96.59768 Z-0.06697
X16.45753 Y96.59703 Z-0.07527
X16.41045 Y96.59593 Z-0.08357
X16.36339 Y96.59436 Z-0.09188
X16.31634 Y96.59233 Z-0.10018
X16.26932 Y96.58983 Z-0.10848
X16.22232 Y96.58688 Z-0.11679
X16.17535 Y96.58346 Z-0.12509
X16.12842 Y96.57958 Z-0.13339
X16.08153 Y96.57524 Z-0.1417
X16.03468 Y96.57044 Z-0.15
G03 X14.51353 Y96.21614 I0.10171 J-3.87924 F477.
G02 X15.84347 Y96.57746 I1.55368 J-3.09047
G1 X15.8491 Y96.57789
X15.88061 Y96.58065
X15.88624 Y96.5812
G02 X16.74002 Y96.59396 I0.49383 J-4.47423
G03 X16.03468 Y96.57044 I-0.1934 J-4.78864
G1 X16.04124 Y96.32053
G02 X16.05131 Y96.32078 I0.09515 J-3.62933
X19.66824 Y95.10534 I0.49531 J-4.51546
G1 X19.6981 Y95.07534
G02 X20.05771 Y90.66865 I-2.59401 J-2.42971
G1 X20.03307 Y90.63414
G02 X18.1021 Y89.36445 I-2.76761 J2.10587
G1 Y88.88185
G03 X20.03885 Y90.25645 I-0.74481 J3.1011
X20.62373 Y93.57673 I-3.99826 J2.41595
G1 X20.62043 Y93.59466
G03 X19.16399 Y95.95737 I-3.65503 J-0.62281
X15.85881 Y96.82969 I-2.78392 J-3.8504
G1 X15.82729 Y96.82693
G03 X12.42606 Y93.83207 I0.23992 J-3.70126
G1 X12.42368 Y93.8203
G03 X12.63157 Y91.63759 I3.58588 J-0.75971
G02 X12.78252 Y94.08039 I4.00844 J0.97837
G1 X12.79216 Y94.10443
G02 X16.04124 Y96.32053 I3.34423 J-1.41323
G0 Z6.5
X7.69058 Y90.73261
G1 Z-0.3 F119.2
Y89.96636 F477.
X13.54917 Y89.49518
Y89.66099
G02 X13.24926 Y90.01059 I3.09084 J2.95497
G1 X13.21766 Y89.96075
X13.18466 Y89.9159
X13.1488 Y89.8733
X13.11023 Y89.83314
X13.06911 Y89.7956
X13.02562 Y89.76083
X12.97994 Y89.72898
X12.93228 Y89.70019
X12.88284 Y89.67458
X12.83182 Y89.65226
X12.77946 Y89.63333
X12.72596 Y89.61787
X12.67158 Y89.60595
X12.61652 Y89.59761
X12.56104 Y89.5929
X12.50537 Y89.59183
X12.44974 Y89.5944
G02 X8.36365 Y89.92514 I0.50304 J31.62072
X7.69058 Y90.73261 I0.17561 J0.83064
G0 Z6.5
X18.2521 Y89.24906
G1 Z-0.3 F119.2
Y89.07837 F477.
G03 X19.71244 Y90.06186 I-0.89481 J2.90458
G02 X18.2521 Y89.24906 I-2.44698 J2.67815
G0 Z6.5
X19.57552 Y95.38941
G1 Z-0.3 F119.2
G03 X19.07557 Y95.8362 I-2.61012 J-2.41756 F477.
X15.87527 Y96.6806 I-2.6955 J-3.72923
G1 X15.837 Y96.67725
G03 X12.68573 Y94.23577 I0.23021 J-3.55158
G02 X16.04134 Y96.47058 I3.45066 J-1.54457
X19.57552 Y95.38941 I0.50528 J-4.66526
G0 Z6.5
X7.79058 Y90.17327
G1 Z-0.4 F119.2
Y90.05864 F477.
X7.90633 Y90.04933
X7.88343 Y90.0699
X7.84203 Y90.112
X7.80333 Y90.15659
X7.79058 Y90.17327
Z1.1 F715.5
Z1.7
G0 Z6.5
X13.44917 Y89.60354
G1 Z-0.4 F119.2
Y89.62115 F477.
G02 X13.25422 Y89.84345 I3.19084 J2.99481
G1 X13.23097 Y89.81523
X13.19079 Y89.7722
X13.14803 Y89.73174
X13.10284 Y89.69401
X13.0554 Y89.65915
X13.02233 Y89.63787
X13.44917 Y89.60354
Z1.1 F715.5
Z1.7
G0 Z6.5
X16.74002 Y96.59396
G1 Z-0.4 F119.2
G03 X15.88624 Y96.5812 I-0.35995 J-4.48699 F477.
G1 X15.84347 Y96.57746
G03 X14.51353 Y96.21614 I0.22374 J-3.45179
G02 X16.03468 Y96.57044 I1.62286 J-3.52494
X16.74002 Y96.59396 I0.51194 J-4.76512
G1 Z1.1 F715.5
Z1.7
G0 Z6.5
X17.1437 Y140.46891
G1 Z0.15 F119.2
Z0.05 F357.7
X17.18754 Y140.46717 Z0.04226
X17.23554 Y140.46457 Z0.03379
X17.2835 Y140.46127 Z0.02531
X17.33141 Y140.45727 Z0.01684
X17.37925 Y140.45258 Z0.00836
X17.42702 Y140.4472 Z-0.00012
X17.37055 Y140.45194 Z-0.01011
X17.31402 Y140.45589 Z-0.0201
X17.25745 Y140.45906 Z-0.0301
X17.20083 Y140.46145 Z-0.04009
X17.14418 Y140.46304 Z-0.05008
X17.08752 Y140.46386 Z-0.06007
X17.03085 Y140.46388 Z-0.07006
X16.97419 Y140.46313 Z-0.08006
X16.91754 Y140.46158 Z-0.09005
X16.86092 Y140.45926 Z-0.10004
X16.80434 Y140.45614 Z-0.11003
X16.74781 Y140.45225 Z-0.12002
X16.69133 Y140.44757 Z-0.13002
X16.63493 Y140.4421 Z-0.14001
X16.5786 Y140.43586 Z-0.15
G03 X16.26179 Y140.41004 I0.11703 J-3.39253 F477.
G02 X16.64421 Y140.45085 I0.46256 J-2.52206
G1 X16.65253 Y140.45125
X16.69907 Y140.45426
X16.70738 Y140.45494
G02 X17.42702 Y140.4472 I0.32436 J-3.30251
G03 X16.5786 Y140.43586 I-0.36984 J-4.07094
G1 X16.58722 Y140.18601
G02 X16.59755 Y140.18635 I0.10841 J-3.14268
X19.58871 Y139.26059 I0.45963 J-3.81009
G1 X19.61598 Y139.23535
G02 X20.64468 Y136.30041 I-2.44585 J-2.50504
X18.08013 Y133.29068 I-3.20821 J0.13621
G1 Y132.81372
G03 X20.16276 Y134.39849 I-0.77216 J3.17555
X20.43222 Y138.29544 I-4.47868 J2.26748
X19.64878 Y139.57825 I-3.65115 J-1.34918
X16.68294 Y140.70374 I-2.61704 J-2.42582
G1 X16.6364 Y140.70073
G03 X14.03666 Y138.72204 I0.08795 J-2.81275
G02 X16.58722 Y140.18601 I2.65897 J-1.67871
G0 Z6.5
X8.60992 Y133.55152
G1 Z0.15 F119.2
Z0.05 F357.7
X8.65029 Y133.52253 Z0.04124
X8.6972 Y133.49001 Z0.03117
X8.74465 Y133.45827 Z0.02111
X8.79261 Y133.42732 Z0.01104
X8.84108 Y133.39718 Z0.00097
X8.89005 Y133.36784 Z-0.00909
X8.93949 Y133.33931 Z-0.01916
X8.9894 Y133.31162 Z-0.02922
X9.03976 Y133.28475 Z-0.03929
X9.09057 Y133.25872 Z-0.04935
X9.14179 Y133.23354 Z-0.05942
X9.19343 Y133.20921 Z-0.06948
X9.24546 Y133.18574 Z-0.07954
X9.29788 Y133.16313 Z-0.08961
X9.35066 Y133.1414 Z-0.09968
X9.4038 Y133.12055 Z-0.10974
X9.45727 Y133.10058 Z-0.11981
X9.51107 Y133.0815 Z-0.12987
X9.56518 Y133.06331 Z-0.13994
X9.61958 Y133.04603 Z-0.15
Y133.5163 F477.
X9.59704 Y133.52201
X9.56416 Y133.53209
X9.10147 Y133.68647
X9.06374 Y133.70028
G02 X7.6257 Y135.07794 I0.98328 J2.46574
G1 X7.61585 Y135.10095
G02 X7.38386 Y137.14005 I3.52125 J1.43335
X8.55263 Y139.0382 I2.60389 J-0.29442
G1 X8.58695 Y139.05928
X8.60455 Y139.06907
G02 X10.95735 Y139.4332 I1.69161 J-3.14684
X12.51473 Y138.70904 I-0.29902 J-2.67979
G03 X11.98524 Y139.37622 I-2.2216 J-1.21942
X7.96555 Y138.84916 I-1.7531 J-2.22165
X7.29843 Y136.52936 I3.21539 J-2.1805
G1 X7.29832 Y136.47634
G03 X8.29569 Y133.80974 I3.67156 J-0.14657
X9.61958 Y133.04603 I2.33896 J2.52521
G0 Z6.5
X13.23818 Y137.49543
G1 Z0.15 F119.2
Z0.05 F357.7
X13.2445 Y137.47577 Z0.04636
X13.26367 Y137.41313 Z0.03481
X13.28198 Y137.35024 Z0.02326
X13.29941 Y137.28709 Z0.01171
X13.31597 Y137.22371 Z0.00016
X13.33164 Y137.16011 Z-0.01139
X13.34644 Y137.0963 Z-0.02294
X13.36035 Y137.03229 Z-0.0345
X13.37337 Y136.96809 Z-0.04605
X13.38551 Y136.90372 Z-0.0576
X13.39675 Y136.83918 Z-0.06915
X13.40709 Y136.7745 Z-0.0807
X13.41654 Y136.70968 Z-0.09225
X13.4251 Y136.64473 Z-0.1038
X13.43275 Y136.57967 Z-0.11535
X13.4395 Y136.51452 Z-0.1269
X13.44535 Y136.44927 Z-0.13845
X13.45029 Y136.38395 Z-0.15
X13.468 F477.
G02 X13.59151 Y137.5459 I7.7682 J-0.23818
X13.74951 Y138.14268 I3.10412 J-0.50257
G1 X13.70644 Y138.10926
X13.66406 Y138.08135
X13.61977 Y138.05659
X13.5738 Y138.0351
X13.5264 Y138.017
X13.47781 Y138.00238
X13.42829 Y137.99131
X13.3781 Y137.98387
X13.3275 Y137.98008
X13.27676 Y137.97996
X13.22614 Y137.98352
X13.17592 Y137.99074
X13.12635 Y138.00158
X13.07769 Y138.01598
X13.02955 Y138.03417
X13.03349 Y138.02587
G02 X13.45029 Y136.38395 I-4.30369 J-1.96636
G0 Z6.5
X19.4589 Y139.55958
G1 Z-0.3 F119.2
G03 X16.6976 Y140.55446 I-2.42716 J-2.40715 F477.
G1 X16.64108 Y140.5508
G03 X14.82242 Y139.75352 I0.08327 J-2.66282
G02 X16.58619 Y140.33606 I1.87321 J-2.71019
X19.4589 Y139.55958 I0.47099 J-3.9598
G0 Z6.5
X19.5539 Y133.82634
G1 Z-0.3 F119.2
G02 X18.23013 Y133.17056 I-2.11743 J2.61028 F477.
G1 Y133.01067
G03 X19.5539 Y133.82634 I-0.92216 J2.9786
G0 Z6.5
X9.46958 Y133.256
G1 Z-0.3 F119.2
Y133.40552 F477.
X9.054 Y133.54418
X9.00818 Y133.56095
G02 X8.51117 Y133.81937 I1.03884 J2.60507
G03 X9.46958 Y133.256 I2.12348 J2.51558
G0 Z6.5
X13.41768 Y137.42113
G1 Z-0.3 F119.2
G02 X13.44368 Y137.57141 I7.81852 J-1.27536 F477.
X13.50248 Y137.85438 I3.25195 J-0.52808
G1 X13.47635 Y137.84794
X13.42046 Y137.83806
X13.36404 Y137.83193
X13.30734 Y137.82958
X13.27893 Y137.83031
G02 X13.41768 Y137.42113 I-4.54913 J-1.7708
G0 Z6.5
X11.67877 Y139.41063
G1 Z-0.3 F119.2
G03 X8.42339 Y139.13219 I-1.44663 J-2.25606 F477.
G1 X8.47048 Y139.1637
X8.51216 Y139.1893
X8.53353 Y139.20119
G02 X10.9796 Y139.58165 I1.76263 J-3.27896
X11.67877 Y139.41063 I-0.32127 J-2.82824
G0 Z6.5
X17.42702 Y140.4472
G1 Z-0.4 F119.2
G03 X16.70738 Y140.45494 I-0.39528 J-3.29477 F477.
G1 X16.64421 Y140.45085
G03 X16.26179 Y140.41004 I0.08014 J-2.56287
G02 X16.5786 Y140.43586 I0.43384 J-3.36671
X17.42702 Y140.4472 I0.47858 J-4.0596
G1 Z1.1 F715.5
Z1.7
G0 Z6.5
X16.19166 Y192.0873
G1 Z0.15 F119.2
Z0.05 F357.7
X16.22048 Y192.08773 Z0.04492
X16.27749 Y192.08786 Z0.03487
X16.33449 Y192.08727 Z0.02481
X16.39149 Y192.08595 Z0.01476
X16.44846 Y192.08392 Z0.00471
X16.50541 Y192.08116 Z-0.00535
X16.56231 Y192.07768 Z-0.0154
X16.61917 Y192.07348 Z-0.02545
X16.5721 Y192.07515 Z-0.03375
X16.52503 Y192.07636 Z-0.04206
X16.47794 Y192.0771 Z-0.05036
X16.43086 Y192.07738 Z-0.05866
X16.38376 Y192.0772 Z-0.06697
X16.33668 Y192.07656 Z-0.07527
X16.2896 Y192.07545 Z-0.08357
X16.24254 Y192.07388 Z-0.09188
X16.19549 Y192.07185 Z-0.10018
X16.14846 Y192.06936 Z-0.10848
X16.10147 Y192.0664 Z-0.11679
X16.0545 Y192.06298 Z-0.12509
X16.00757 Y192.05911 Z-0.13339
X15.96068 Y192.05477 Z-0.1417
X15.91383 Y192.04997 Z-0.15
G03 X14.39268 Y191.69566 I0.10171 J-3.87924 F477.
G02 X15.72262 Y192.05698 I1.55368 J-3.09046
G1 X15.72825 Y192.05741
X15.75976 Y192.06017
X15.76539 Y192.06073
G02 X16.61917 Y192.07348 I0.49383 J-4.47423
G03 X15.91383 Y192.04997 I-0.1934 J-4.78864
G1 X15.94054 Y191.8014
G02 X19.54739 Y190.58486 I0.48523 J-4.51656
G1 X19.57725 Y190.55487
G02 X19.93686 Y186.14817 I-2.59401 J-2.42971
G1 X19.91222 Y186.11366
G02 X17.98125 Y184.84397 I-2.76761 J2.10587
G1 Y184.36157
G03 X19.72031 Y185.45999 I-0.74874 J3.11132
X20.26929 Y189.86984 I-3.75297 J2.7063
X19.0422 Y191.43757 I-3.46428 J-1.44746
X15.73796 Y192.30922 I-2.78298 J-3.85107
G1 X15.70644 Y192.30646
G03 X12.30521 Y189.31159 I0.23992 J-3.70126
G1 X12.30283 Y189.29983
G03 X12.51072 Y187.11712 I3.58588 J-0.75971
G02 X12.66167 Y189.55991 I4.00845 J0.97836
G1 X12.67131 Y189.58395
G02 X15.93046 Y191.8003 I3.34423 J-1.41322
X15.94054 Y191.8014 I0.49531 J-4.51546
G0 Z6.5
X7.74262 Y185.56929
G1 Z0.15 F119.2
Z0.05 F357.7
X7.75088 Y185.56096 Z0.04793
X7.78503 Y185.5289 Z0.03967
X7.66973 Y185.53817 Z0.01927
Y185.6527 Z-0.00092
X7.69306 Y185.62354 Z-0.00751
X7.69885 Y185.61681 Z-0.00907
X7.70464 Y185.61008 Z-0.01064
X7.73838 Y185.57356 Z-0.0194
X7.75088 Y185.56096 Z-0.02253
X7.78503 Y185.5289 Z-0.03079
X7.66973 Y185.53817 Z-0.05119
Y185.6527 Z-0.07139
X7.69306 Y185.62354 Z-0.07797
X7.69885 Y185.61681 Z-0.07954
X7.70464 Y185.61008 Z-0.0811
X7.73838 Y185.57356 Z-0.08987
X7.75088 Y185.56096 Z-0.093
X7.78503 Y185.5289 Z-0.10126
X7.66973 Y185.53817 Z-0.12166
Y185.6527 Z-0.14185
X7.69306 Y185.62354 Z-0.14844
X7.69885 Y185.61681 Z-0.15
X7.70464 Y185.61008 F477.
X7.73838 Y185.57356
X7.75088 Y185.56096
X7.78503 Y185.5289
X7.66973 Y185.53817
Y185.6527
X7.69306 Y185.62354
X7.69885 Y185.61681
G0 Z6.5
X13.00385 Y185.1915
G1 Z0.15 F119.2
Z0.05 F357.7
X13.0078 Y185.19466 Z0.04911
X13.0214 Y185.20633 Z0.04595
X13.05826 Y185.24033 Z0.0371
X13.06462 Y185.24664 Z0.03553
X13.07098 Y185.25294 Z0.03395
X13.10532 Y185.2895 Z0.0251
X13.1171 Y185.30299 Z0.02194
X13.13336 Y185.32299 Z0.0174
X13.14589 Y185.30777 Z0.01392
X13.15848 Y185.2926 Z0.01045
X13.17114 Y185.27748 Z0.00697
X13.18387 Y185.26243 Z0.00349
X13.19667 Y185.24743 Z0.00002
X13.20954 Y185.23249 Z-0.00346
X13.22247 Y185.21761 Z-0.00694
X13.23547 Y185.20278 Z-0.01041
X13.24854 Y185.18802 Z-0.01389
X13.26167 Y185.17331 Z-0.01737
X13.27487 Y185.15867 Z-0.02084
X13.28813 Y185.14408 Z-0.02432
X13.30146 Y185.12955 Z-0.0278
X13.31486 Y185.11508 Z-0.03127
X13.32832 Y185.10068 Z-0.03475
Y185.08307 Z-0.03785
X12.9019 Y185.11736 Z-0.11329
X12.91287 Y185.12433 Z-0.11557
X12.95421 Y185.15272 Z-0.12442
X12.9686 Y185.16338 Z-0.12758
X13.0078 Y185.19466 Z-0.13642
X13.0214 Y185.20633 Z-0.13958
X13.05826 Y185.24033 Z-0.14842
X13.06462 Y185.24664 Z-0.15
X13.07098 Y185.25294 F477.
X13.10532 Y185.2895
X13.1171 Y185.30299
X13.13336 Y185.32299
G03 X13.32832 Y185.10068 I3.38581 J2.77249
G1 Y185.08307
X12.9019 Y185.11736
X12.91287 Y185.12433
X12.95421 Y185.15272
X12.9686 Y185.16338
X13.0078 Y185.19466
X13.0214 Y185.20633
X13.05826 Y185.24033
X13.06462 Y185.24664
X12.88875 Y185.42409
X12.85189 Y185.39008
X12.81268 Y185.3588
X12.77134 Y185.33041
X12.72807 Y185.30505
X12.6831 Y185.28286
X12.63665 Y185.26394
X12.58896 Y185.2484
X12.54029 Y185.23631
X12.49088 Y185.22773
X12.44097 Y185.22272
X12.39084 Y185.22129
X12.34074 Y185.22346
G02 X8.26543 Y185.55325 I0.27975 J28.8011
G1 X8.21735 Y185.56587
X8.17028 Y185.58187
X8.12446 Y185.60117
X8.08013 Y185.62367
X8.03751 Y185.64927
X7.99681 Y185.67782
X7.95824 Y185.70919
X7.922 Y185.74322
X7.88826 Y185.77974
X7.8572 Y185.81855
X7.82897 Y185.85948
X7.80372 Y185.9023
X7.78157 Y185.94681
X7.76264 Y185.99278
X7.74702 Y186.03998
X7.73478 Y186.08816
X7.726 Y186.1371
X7.72071 Y186.18653
X7.71894 Y186.23621
Y191.63729
X7.41973
Y185.30747
X13.57832 Y184.81216
Y185.20131
G02 X13.08616 Y185.80653 I2.94085 J2.89417
G1 X13.07964 Y185.77085
X13.06712 Y185.72229
X13.05115 Y185.67475
X13.03182 Y185.62847
X13.00922 Y185.5837
X12.98347 Y185.54065
X12.95471 Y185.49957
X12.92308 Y185.46065
X12.88875 Y185.42409
G0 Z6.5
X19.44278 Y190.87895
G1 Z-0.3 F119.2
G03 X18.95358 Y191.31655 I-2.63777 J-2.45657 F477.
X15.75442 Y192.16012 I-2.69436 J-3.73005
G1 X15.71615 Y192.15677
G03 X12.56488 Y189.71529 I0.23021 J-3.55157
G02 X15.92049 Y191.9501 I3.45066 J-1.54456
X19.44278 Y190.87895 I0.50528 J-4.66526
G0 Z6.5
X19.59783 Y185.5471
G1 Z-0.3 F119.2
G02 X18.13125 Y184.72858 I-2.45322 J2.67243 F477.
G1 Y184.55816
G03 X19.59783 Y185.5471 I-0.89874 J2.91473
G0 Z6.5
X7.56973 Y186.21213
G1 Z-0.3 F119.2
Y185.44589 F477.
X13.42832 Y184.9747
Y185.14052
G02 X13.12841 Y185.49012 I3.09085 J2.95496
G1 X13.09681 Y185.44027
X13.06381 Y185.39542
X13.02795 Y185.35282
X12.98938 Y185.31267
X12.94826 Y185.27512
X12.90477 Y185.24035
X12.85909 Y185.2085
X12.81143 Y185.17971
X12.76199 Y185.1541
X12.71097 Y185.13179
X12.65861 Y185.11286
X12.60511 Y185.0974
X12.55072 Y185.08547
X12.49567 Y185.07714
X12.44019 Y185.07242
X12.38452 Y185.07135
X12.32889 Y185.07393
G02 X8.2428 Y185.40467 I0.50304 J31.62072
X7.56973 Y186.21213 I0.17561 J0.83063
G0 Z6.5
X16.61917 Y192.07348
G1 Z-0.4 F119.2
G03 X15.76539 Y192.06073 I-0.35995 J-4.48698 F477.
G1 X15.72262 Y192.05698
G03 X14.39268 Y191.69566 I0.22374 J-3.45178
G02 X15.91383 Y192.04997 I1.62286 J-3.52493
X16.61917 Y192.07348 I0.51194 J-4.76513
G1 Z1.1 F715.5
Z1.7
G0 Z6.5
X7.66973 Y185.6528
G1 Z-0.4 F119.2
Y185.53817 F477.
X7.78548 Y185.52886
X7.76258 Y185.54943
X7.72118 Y185.59152
X7.68248 Y185.63611
X7.66973 Y185.6528
Z1.1 F715.5
Z1.7
G0 Z6.5
X13.32832 Y185.08307
G1 Z-0.4 F119.2
Y185.10068 F477.
G02 X13.13337 Y185.32298 I3.19085 J2.9948
G1 X13.11012 Y185.29475
X13.06994 Y185.25172
X13.02718 Y185.21126
X12.98199 Y185.17353
X12.93455 Y185.13867
X12.90148 Y185.1174
X13.32832 Y185.08307
Z1.1 F715.5
Z1.7
G0 Z6.5
X14.47655 Y236.10036
G1 Z0.15 F119.2
Z0.05 F357.7
X14.45132 Y236.10006 Z0.04555
X14.39423 Y236.09959 Z0.03548
X14.33714 Y236.09933 Z0.02542
X14.28004 Y236.09929 Z0.01535
X14.22294 Y236.09947 Z0.00528
X14.16585 Y236.09987 Z-0.00479
X14.10876 Y236.10047 Z-0.01485
X14.05167 Y236.1013 Z-0.02492
X13.99458 Y236.10234 Z-0.03499
X13.9375 Y236.1036 Z-0.04506
X13.88042 Y236.10507 Z-0.05512
X13.82335 Y236.10676 Z-0.06519
X13.76629 Y236.10867 Z-0.07526
X13.70923 Y236.11079 Z-0.08533
X13.71935 Y236.1137 Z-0.08718
X13.73671 Y236.11939 Z-0.09041
X13.78471 Y236.13708 Z-0.09942
X13.80161 Y236.14402 Z-0.10265
X13.84819 Y236.16516 Z-0.11167
X13.86454 Y236.17332 Z-0.11489
X13.90945 Y236.19781 Z-0.12391
X13.92516 Y236.20714 Z-0.12713
X13.96816 Y236.23484 Z-0.13615
X13.98314 Y236.24529 Z-0.13937
X14.02401 Y236.27606 Z-0.14839
X14.0311 Y236.28182 Z-0.15
X14.03819 Y236.28758 F477.
X14.0767 Y236.32125
X14.09 Y236.33378
X14.12594 Y236.37017
X14.13813 Y236.38345
X14.18916 Y236.33247
X14.19507 Y236.32676
X14.22864 Y236.29535
X14.241 Y236.28453
X14.27656 Y236.2554
X14.2896 Y236.24541
X14.327 Y236.21867
X14.34067 Y236.20956
X14.37975 Y236.18534
X14.39398 Y236.17715
X14.43456 Y236.15554
X14.4493 Y236.1483
X14.49122 Y236.1294
X14.5064 Y236.12315
X14.54947 Y236.10704
X14.5655 Y236.10165
G02 X13.70923 Y236.11079 I-0.26721 J15.08111
G1 X13.71935 Y236.1137
X13.73671 Y236.11939
X13.78471 Y236.13708
X13.80161 Y236.14402
X13.84819 Y236.16516
X13.86454 Y236.17332
X13.90945 Y236.19781
X13.92516 Y236.20714
X13.96816 Y236.23484
X13.98314 Y236.24529
X14.02401 Y236.27606
X14.0311 Y236.28182
G0 Z6.5
X16.45129 Y243.58728
G1 Z0.15 F119.2
Z0.05 F357.7
X16.43472 Y243.58684 Z0.04708
X16.36492 Y243.58406 Z0.03476
X16.29516 Y243.58039 Z0.02244
X16.22546 Y243.57581 Z0.01013
X16.15582 Y243.57033 Z-0.00219
X16.08626 Y243.56395 Z-0.01451
X16.01678 Y243.55667 Z-0.02683
X15.94741 Y243.54849 Z-0.03914
X15.87814 Y243.53942 Z-0.05146
X15.80901 Y243.52945 Z-0.06378
X15.74 Y243.51858 Z-0.0761
X15.67114 Y243.50683 Z-0.08841
X15.60244 Y243.49418 Z-0.10073
X15.53391 Y243.48065 Z-0.11305
X15.46556 Y243.46623 Z-0.12537
X15.3974 Y243.45092 Z-0.13768
X15.32945 Y243.43474 Z-0.15
G02 X16.71411 Y243.58889 I1.19258 J-4.41651 F477.
G03 X15.32945 Y243.43474 I-0.10004 J-5.39745
G1 X15.26427 Y243.6761
G03 X14.55324 Y243.42295 I1.25776 J-4.65787
X12.59846 Y239.90713 I1.47338 J-3.12053
G1 X12.60967 Y239.83069
G02 X14.44986 Y242.86284 I3.15307 J0.1609
X19.09318 Y242.70362 I2.16421 J-4.6714
G1 X19.09897 Y242.7004
G02 X19.98887 Y238.09671 I-1.50498 J-2.67877
G1 X19.95446 Y238.05704
G02 X17.1681 Y236.54684 I-3.65618 J3.42021
X14.86299 Y236.30454 I-2.34435 J11.2172
G1 X14.81703 Y236.3059
X14.77126 Y236.31027
X14.72588 Y236.31763
X14.68107 Y236.32795
X14.63704 Y236.3412
X14.59398 Y236.3573
X14.55206 Y236.3762
X14.51148 Y236.39781
X14.4724 Y236.42204
X14.435 Y236.44878
X14.39943 Y236.47792
X14.36586 Y236.50933
X14.09112 Y236.78381
X14.08318 Y236.76141
X14.06262 Y236.71457
X14.03869 Y236.66935
X14.01152 Y236.62601
X13.98126 Y236.58477
X13.94807 Y236.54584
X13.91212 Y236.50944
X13.87362 Y236.47577
X13.83275 Y236.445
X13.78975 Y236.41729
X13.74484 Y236.3928
X13.69826 Y236.37165
X13.65026 Y236.35397
X13.6011 Y236.33983
X13.55104 Y236.32932
X13.50034 Y236.3225
X13.44928 Y236.31939
X13.39813 Y236.32003
G02 X11.53446 Y236.53244 I0.71116 J14.52157
X8.72578 Y237.60734 I1.02248 J6.87866
X7.3819 Y240.70311 I1.63131 J2.54773
X8.24582 Y242.36878 I2.61459 J-0.29921
G1 X8.27405 Y242.39262
G02 X9.45845 Y242.9938 I2.0355 J-2.54293
G1 Y243.44296
G03 X8.04378 Y242.50457 I0.88597 J-2.87119
X7.32239 Y239.70061 I3.00004 J-2.26661
G1 X7.32757 Y239.65355
G03 X8.20722 Y237.6199 I3.38437 J0.25683
X10.48857 Y236.3301 I3.56698 J3.64666
X15.23109 Y235.87768 I3.80972 J14.85266
G1 X15.2591 Y235.87883
G03 X18.34752 Y236.53008 I-0.17666 J8.48649
G1 X18.35421 Y236.53283
G03 X20.32524 Y238.30471 I-1.45867 J3.60484
X20.40055 Y241.61108 I-3.84693 J1.74166
X19.2126 Y243.02304 I-3.1609 J-1.4537
X15.26427 Y243.6761 I-2.69057 J-4.00481
G0 Z6.5
X19.39883 Y242.6914
G1 Z-0.3 F119.2
G03 X19.12824 Y242.89901 I-2.15918 J-2.53402 F477.
X14.61588 Y243.28664 I-2.60621 J-3.88078
X13.41403 Y242.31988 I1.41074 J-2.98422
G02 X14.38714 Y242.9991 I2.34871 J-2.32829
X19.16541 Y242.83509 I2.22693 J-4.80766
G1 X19.17244 Y242.83118
G02 X19.39883 Y242.6914 I-1.57845 J-2.80955
G0 Z6.5
X14.12941 Y236.53352
G1 Z-0.3 F119.2
X14.11479 Y236.51243 F477.
X14.08022 Y236.46892
X14.04287 Y236.42776
X14.00291 Y236.38912
X13.96052 Y236.35318
X13.91586 Y236.32009
X13.86914 Y236.28999
X13.82055 Y236.263
X13.7703 Y236.23925
X13.71861 Y236.21883
X13.66569 Y236.20184
X13.61178 Y236.18834
X13.5571 Y236.17839
X13.50188 Y236.17204
X13.44637 Y236.1693
X13.3908 Y236.17021
G02 X11.51014 Y236.38441 I0.71849 J14.67139
X8.64401 Y237.48158 I1.0468 J7.02669
X8.32014 Y237.7193 I1.71308 J2.67349
G03 X10.52611 Y236.47533 I3.45406 J3.54726
X15.22196 Y236.0274 I3.77218 J14.70743
G1 X15.25598 Y236.02879
G03 X18.28982 Y236.66854 I-0.17354 J8.33653
G1 X18.29794 Y236.67187
G03 X19.37388 Y237.33833 I-1.4024 J3.4658
G02 X17.19649 Y236.39953 I-3.0756 J4.13892
X14.86351 Y236.15455 I-2.37274 J11.36451
G1 X14.81199 Y236.15593
X14.76065 Y236.16044
X14.70967 Y236.16805
X14.65925 Y236.17873
X14.60958 Y236.19245
X14.56082 Y236.20916
X14.51317 Y236.22879
X14.46679 Y236.25127
X14.42186 Y236.27652
X14.37855 Y236.30445
X14.33701 Y236.33495
X14.29739 Y236.36791
X14.25984 Y236.40321
X14.12941 Y236.53352
G0 Z6.5
X9.30845 Y243.10657
G1 Z-0.3 F119.2
Y243.23194 F477.
G03 X8.43897 Y242.69757 I1.03597 J-2.66017
G02 X9.30845 Y243.10657 I1.87058 J-2.84788
G0 Z6.5
X16.7141 Y243.58889
G1 Z-0.4 F119.2
G03 X15.32945 Y243.43474 I-0.19207 J-4.57066 F477.
G02 X16.7141 Y243.58889 I1.28462 J-5.2433
G1 Z1.1 F715.5
Z1.7
G0 Z6.5
X14.13797 Y236.38362
G1 Z-0.4 F119.2
X14.12753 Y236.37169 F477.
X14.08599 Y236.32978
X14.04192 Y236.29052
X13.9955 Y236.25408
X13.94691 Y236.2206
X13.89633 Y236.19019
X13.84397 Y236.16298
X13.79001 Y236.13908
X13.73467 Y236.11857
X13.70891 Y236.1108
G03 X14.5662 Y236.10166 I0.58938 J15.07196
G1 X14.54877 Y236.10718
X14.49876 Y236.12615
X14.44989 Y236.1479
X14.40233 Y236.17238
X14.35622 Y236.19949
X14.31172 Y236.22915
X14.26895 Y236.26127
X14.22805 Y236.29575
X14.18916 Y236.33247
X14.13797 Y236.38362
Z1.1 F715.5
Z1.7
G0 Z6.5
X8.87557 Y285.932
G1 Z0.15 F119.2
Z0.05 F357.7
X8.86781 Z0.04863
X8.87494 Y285.92571 Z0.04696
X8.87883 Y285.932 Z0.04565
X8.86781 Z0.04371
X8.87494 Y285.92571 Z0.04203
X8.87883 Y285.932 Z0.04073
X8.86781 Z0.03878
X8.87494 Y285.92571 Z0.03711
X8.87883 Y285.932 Z0.0358
X8.86781 Z0.03386
X8.87494 Y285.92571 Z0.03218
X8.87883 Y285.932 Z0.03088
X8.86781 Z0.02894
X8.87494 Y285.92571 Z0.02726
X8.87883 Y285.932 Z0.02596
X8.86781 Z0.02401
X8.87494 Y285.92571 Z0.02234
X8.87883 Y285.932 Z0.02103
X8.86781 Z0.01909
X8.87494 Y285.92571 Z0.01741
X8.87883 Y285.932 Z0.01611
X8.86781 Z0.01416
X8.87494 Y285.92571 Z0.01249
X8.87883 Y285.932 Z0.01118
X8.86781 Z0.00924
X8.87494 Y285.92571 Z0.00756
X8.87883 Y285.932 Z0.00626
X8.86781 Z0.00432
X8.87494 Y285.92571 Z0.00264
X8.87883 Y285.932 Z0.00134
X8.86781 Z-0.00061
X8.87494 Y285.92571 Z-0.00228
X8.87883 Y285.932 Z-0.00359
X8.86781 Z-0.00553
X8.87494 Y285.92571 Z-0.00721
X8.87883 Y285.932 Z-0.00851
X8.86781 Z-0.01046
X8.87494 Y285.92571 Z-0.01213
X8.87883 Y285.932 Z-0.01344
X8.86781 Z-0.01538
X8.87494 Y285.92571 Z-0.01706
X8.87883 Y285.932 Z-0.01836
X8.86781 Z-0.0203
X8.87494 Y285.92571 Z-0.02198
X8.87883 Y285.932 Z-0.02328
X8.86781 Z-0.02523
X8.87494 Y285.92571 Z-0.0269
X8.87883 Y285.932 Z-0.02821
X8.86781 Z-0.03015
X8.87494 Y285.92571 Z-0.03183
X8.87883 Y285.932 Z-0.03313
X8.86781 Z-0.03507
X8.87494 Y285.92571 Z-0.03675
X8.87883 Y285.932 Z-0.03806
X8.86781 Z-0.04
X8.87494 Y285.92571 Z-0.04167
X8.87883 Y285.932 Z-0.04298
X8.86781 Z-0.04492
X8.87494 Y285.92571 Z-0.0466
X8.87883 Y285.932 Z-0.0479
X8.86781 Z-0.04985
X8.87494 Y285.92571 Z-0.05152
X8.87883 Y285.932 Z-0.05283
X8.86781 Z-0.05477
X8.87494 Y285.92571 Z-0.05645
X8.87883 Y285.932 Z-0.05775
X8.86781 Z-0.05969
X8.87494 Y285.92571 Z-0.06137
X8.87883 Y285.932 Z-0.06267
X8.86781 Z-0.06462
X8.87494 Y285.92571 Z-0.06629
X8.87883 Y285.932 Z-0.0676
X8.86781 Z-0.06954
X8.87494 Y285.92571 Z-0.07122
X8.87883 Y285.932 Z-0.07252
X8.86781 Z-0.07447
X8.87494 Y285.92571 Z-0.07614
X8.87883 Y285.932 Z-0.07745
X8.86781 Z-0.07939
X8.87494 Y285.92571 Z-0.08107
X8.87883 Y285.932 Z-0.08237
X8.86781 Z-0.08431
X8.87494 Y285.92571 Z-0.08599
X8.87883 Y285.932 Z-0.08729
X8.86781 Z-0.08924
X8.87494 Y285.92571 Z-0.09091
X8.87883 Y285.932 Z-0.09222
X8.86781 Z-0.09416
X8.87494 Y285.92571 Z-0.09584
X8.87883 Y285.932 Z-0.09714
X8.86781 Z-0.09909
X8.87494 Y285.92571 Z-0.10076
X8.87883 Y285.932 Z-0.10207
X8.86781 Z-0.10401
X8.87494 Y285.92571 Z-0.10569
X8.87883 Y285.932 Z-0.10699
X8.86781 Z-0.10893
X8.87494 Y285.92571 Z-0.11061
X8.87883 Y285.932 Z-0.11191
X8.86781 Z-0.11386
X8.87494 Y285.92571 Z-0.11553
X8.87883 Y285.932 Z-0.11684
X8.86781 Z-0.11878
X8.87494 Y285.92571 Z-0.12046
X8.87883 Y285.932 Z-0.12176
X8.86781 Z-0.12371
X8.87494 Y285.92571 Z-0.12538
X8.87883 Y285.932 Z-0.12669
X8.86781 Z-0.12863
X8.87494 Y285.92571 Z-0.13031
X8.87883 Y285.932 Z-0.13161
X8.86781 Z-0.13355
X8.87494 Y285.92571 Z-0.13523
X8.87883 Y285.932 Z-0.13653
X8.86781 Z-0.13848
X8.87494 Y285.92571 Z-0.14015
X8.87883 Y285.932 Z-0.14146
X8.86781 Z-0.1434
X8.87494 Y285.92571 Z-0.14508
X8.87883 Y285.932 Z-0.14638
X8.86781 Z-0.14832
X8.87494 Y285.92571 Z-0.15
X8.87883 Y285.932 F477.
X8.86781
X8.87494 Y285.92571
X9.08747 Y285.79407
X9.08251 Y285.78605
X9.05734 Y285.74192
X9.04893 Y285.72584
X9.02703 Y285.68001
X9.01981 Y285.66336
X9.0013 Y285.61605
X8.9953 Y285.59893
X8.98026 Y285.55041
X8.97553 Y285.53289
X8.96544 Y285.48939
G03 X8.09528 Y286.182 I-2.79328 J-2.61644
G1 X9.55866
X9.54907 Y286.17836
X9.50227 Y286.15861
X9.48582 Y286.15096
X9.44057 Y286.12786
X9.42472 Y286.11904
X9.38126 Y286.09273
X9.36609 Y286.08277
X9.32466 Y286.05338
X9.31025 Y286.04235
X9.27106 Y286.01003
X9.25749 Y285.99799
X9.22074 Y285.96291
X9.20808 Y285.94991
X9.17398 Y285.91226
X9.16229 Y285.89838
X9.13101 Y285.85836
X9.12036 Y285.84366
X9.09206 Y285.80148
X9.08747 Y285.79407
X9.29968 Y285.66221
X9.32798 Y285.7044
X9.35926 Y285.74443
X9.39337 Y285.78208
X9.43011 Y285.81715
X9.46931 Y285.84948
X9.51074 Y285.87887
X9.5542 Y285.90518
X9.59945 Y285.92827
X9.64625 Y285.94802
X9.69437 Y285.96432
X9.74354 Y285.97709
X9.79351 Y285.98626
X9.84401 Y285.99178
X9.89477 Y285.99362
X20.45942
Y286.432
X7.29888
Y286.26817
G02 X9.12036 Y284.89907 I-1.12672 J-3.39522
G1 X9.14613 Y284.85868
G02 X9.8802 Y282.55124 I-4.659 J-2.75266
G1 X9.9195
X9.89583 Y282.90892
G03 X9.29233 Y284.93716 I-4.35644 J-0.19235
G1 X9.26807 Y284.98179
X9.2471 Y285.02806
X9.22955 Y285.07574
X9.2155 Y285.12455
X9.20503 Y285.17427
X9.19819 Y285.2246
X9.19501 Y285.27531
X9.19553 Y285.32611
X9.19973 Y285.37673
X9.20758 Y285.42692
X9.21906 Y285.47641
X9.2341 Y285.52493
X9.25262 Y285.57224
X9.27451 Y285.61808
X9.29968 Y285.66221
G0 Z6.5
X8.90536 Y285.77395
G1 Z-0.3 F119.2
X8.9015 Y285.76597 F477.
G03 X8.58862 Y286.032 I-2.72934 J-2.89302
G1 X9.07993
X9.0701 Y286.02142
X9.05932 Y286.00901
X9.02405 Y285.96563
X9.0141 Y285.95254
X8.98175 Y285.90694
X8.97269 Y285.89322
X8.94341 Y285.84559
X8.93527 Y285.83131
X8.90918 Y285.78186
X8.90536 Y285.77395
X9.13031 Y285.66523
X9.15639 Y285.71468
X9.18567 Y285.76231
X9.21801 Y285.80791
X9.25328 Y285.85128
X9.29133 Y285.89225
X9.33199 Y285.93062
X9.37508 Y285.96624
X9.42042 Y285.99895
X9.46781 Y286.0286
X9.51705 Y286.05508
X9.56792 Y286.07826
X9.62021 Y286.09805
X9.67368 Y286.11436
X9.72811 Y286.12712
X9.78326 Y286.13627
X9.8389 Y286.14178
X9.89477 Y286.14362
X20.30942
Y286.282
X7.67918
G02 X9.04648 Y285.24593 I-1.50702 J-3.40905
G1 X9.0448 Y285.28681
X9.04619 Y285.34269
X9.05125 Y285.39837
X9.05996 Y285.45359
X9.07229 Y285.50812
X9.08817 Y285.56173
X9.10754 Y285.61417
X9.13031 Y285.66523
G0 Z6.5
X8.87148 Y285.92876
G1 Z-0.4 F119.2
X8.86781 Y285.932 F477.
X8.87911
X8.87514 Y285.92552
X8.87148 Y285.92876
X8.70597 Y285.7414
G02 X8.96524 Y285.48961 I-2.53381 J-2.86845
G1 X8.97934 Y285.54756
X8.99681 Y285.60372
X9.01772 Y285.65868
X9.04199 Y285.71225
X9.06952 Y285.76421
X9.10022 Y285.81438
X9.13397 Y285.86254
X9.17063 Y285.90852
X9.21006 Y285.95215
X9.25212 Y285.99326
X9.29664 Y286.03168
X9.34345 Y286.06728
X9.39238 Y286.09991
X9.44323 Y286.12945
X9.49581 Y286.15579
X9.54993 Y286.17882
X9.5589 Y286.182
X8.09528
G02 X8.70597 Y285.7414 I-1.92312 J-3.30905
G1 Z1.1 F715.5
Z1.7
G0 Z6.5
X18.66316 Y299.21567
G1 Z0.15 F119.2
Z0.05 F357.7
X18.67839 Y299.20784 Z0.04698
X18.74087 Y299.17474 Z0.03451
X18.80293 Y299.14085 Z0.02204
X18.86456 Y299.10618 Z0.00958
X18.92574 Y299.07075 Z-0.00289
X18.98648 Y299.03454 Z-0.01536
X19.04676 Y298.99758 Z-0.02783
X19.10656 Y298.95986 Z-0.04029
X19.16589 Y298.92139 Z-0.05276
X19.22473 Y298.88218 Z-0.06523
X19.28307 Y298.84223 Z-0.0777
X19.34091 Y298.80155 Z-0.09016
X19.39823 Y298.76014 Z-0.10263
X19.40519 Y298.75453 Z-0.10421
X19.41213 Y298.74889 Z-0.10579
X19.41906 Y298.74323 Z-0.10736
X19.42597 Y298.73755 Z-0.10894
X19.43286 Y298.73184 Z-0.11052
X19.43973 Y298.72611 Z-0.1121
X19.44658 Y298.72037 Z-0.11367
X19.45341 Y298.71459 Z-0.11525
X19.46023 Y298.7088 Z-0.11683
X19.46702 Y298.70298 Z-0.11841
X19.4738 Y298.69715 Z-0.11998
X19.48056 Y298.69129 Z-0.12156
X19.4873 Y298.68541 Z-0.12314
X19.49402 Y298.6795 Z-0.12471
X19.50072 Y298.67358 Z-0.12629
X19.49329 Y298.67859 Z-0.12787
X19.48593 Y298.68371 Z-0.12945
X19.47866 Y298.68895 Z-0.13103
X19.47146 Y298.6943 Z-0.13261
X19.46435 Y298.69976 Z-0.13419
X19.45733 Y298.70533 Z-0.13578
X19.45039 Y298.711 Z-0.13736
X19.44355 Y298.71679 Z-0.13894
X19.43679 Y298.72268 Z-0.14052
X19.43012 Y298.72867 Z-0.1421
X19.42355 Y298.73477 Z-0.14368
X19.41707 Y298.74096 Z-0.14526
X19.41069 Y298.74726 Z-0.14684
X19.40441 Y298.75365 Z-0.14842
X19.39823 Y298.76014 Z-0.15
G03 X18.95034 Y299.0074 I-2.69386 J-4.3504 F477.
X16.92344 Y299.59692 I-2.77948 J-5.77731
X11.10712 Y299.5973 I-2.90971 J-23.3125
X8.6959 Y298.79022 I0.65229 J-5.95417
G1 X8.6695 Y298.7737
G03 X8.37969 Y298.55662 I1.61742 J-2.4613
G02 X9.33165 Y299.22069 I2.18787 J-2.122
G1 X9.34053 Y299.22469
G02 X12.33139 Y299.96062 I3.44556 J-7.55739
G1 X12.36786 Y299.96333
G02 X17.07705 Y299.75606 I1.60433 J-17.15012
G1 X17.07904 Y299.7557
G02 X19.39823 Y298.76014 I-1.00165 J-5.53249
X19.50072 Y298.67358 I-1.73594 J-2.15934
X19.39823 Y298.76014 I0.31987 J0.48269
G0 Z6.5
X9.57445 Y293.31333
G1 Z0.15 F119.2
Z0.05 F357.7
X9.51683 Y293.34013 Z0.0388
X9.4525 Y293.37105 Z0.02621
X9.38855 Y293.40277 Z0.01362
X9.32501 Y293.4353 Z0.00104
X9.26188 Y293.46861 Z-0.01155
X9.19918 Y293.50272 Z-0.02414
X9.13691 Y293.53762 Z-0.03672
X9.07508 Y293.57329 Z-0.04931
X9.01371 Y293.60974 Z-0.0619
X8.9528 Y293.64696 Z-0.07448
X8.89236 Y293.68494 Z-0.08707
X8.8324 Y293.72367 Z-0.09965
X8.77294 Y293.76316 Z-0.11224
X8.71397 Y293.80338 Z-0.12483
X8.65552 Y293.84435 Z-0.13741
X8.59758 Y293.88605 Z-0.15
G02 X8.48157 Y293.98543 I1.75268 J2.16333 F477.
G03 X9.06874 Y293.63096 I1.80535 J2.32697
X11.10405 Y293.04354 I2.79918 J5.87901
X16.92034 Y293.04316 I2.90968 J23.3125
X19.31804 Y293.85176 I-0.6423 J5.86379
G1 X19.34688 Y293.87007
G03 X19.62982 Y294.08533 I-1.64586 J2.45693
G02 X18.67848 Y293.41772 I-2.18637 J2.10394
G1 X18.66991 Y293.41385
G02 X15.69642 Y292.67971 I-3.42637 J7.48903
G1 X15.66076 Y292.67707
G02 X10.94272 Y292.88409 I-1.60548 J17.27705
G1 X10.94037 Y292.88452
G02 X8.59758 Y293.88605 I1.00511 J5.59206
G1 X8.45027 Y293.68406
G03 X10.89614 Y292.63846 I3.49521 J4.79252
G1 X10.89788 Y292.63815
G03 X15.68389 Y292.42815 I3.1574 J17.31597
G1 X15.71016 Y292.43009
G03 X18.77392 Y293.18652 I-0.46662 J8.47279
G1 X18.78024 Y293.18937
G03 X20.31707 Y294.59908 I-1.33679 J2.9999
X20.67738 Y296.79718 I-3.59536 J1.71793
G1 X20.67428 Y296.82872
G03 X19.5504 Y298.95857 I-3.01199 J-0.22792
X17.12358 Y300.0017 I-3.47301 J-4.73536
G1 X17.12211 Y300.00197
G03 X12.34458 Y300.21224 I-3.14992 J-17.18876
G1 X12.3177 Y300.21025
G03 X9.23682 Y299.45216 I0.46839 J-8.54295
G1 X9.23028 Y299.44922
G03 X7.68469 Y298.03625 I1.33728 J-3.0146
X7.32274 Y295.83702 I3.5838 J-1.71924
G1 X7.32564 Y295.80814
G03 X8.44519 Y293.68777 I3.02462 J0.24124
X8.45027 Y293.68406 I3.50029 J4.78881
G0 Z6.5
X18.93937 Y299.17854
G1 Z-0.3 F119.2
G03 X17.09686 Y299.8541 I-2.86198 J-4.95533 F477.
G1 X17.09508 Y299.85442
G03 X12.35855 Y300.06289 I-3.12289 J-17.04121
G1 X12.32591 Y300.06047
G03 X9.29904 Y299.31567 I0.46018 J-8.39317
G1 X9.2911 Y299.3121
G03 X8.6861 Y298.95838 I1.27646 J-2.87748
G02 X11.08966 Y299.74629 I3.07331 J-5.31525
X16.94153 Y299.74582 I2.92407 J-23.46187
X18.93937 Y299.17854 I-0.77067 J-6.51573
G0 Z6.5
X9.03421 Y293.48136
G1 Z-0.3 F119.2
G03 X10.92268 Y292.7861 I2.91127 J4.99522 F477.
G1 X10.92478 Y292.78572
G03 X15.67001 Y292.5775 I3.1305 J17.1684
G1 X15.70192 Y292.57986
G03 X18.71152 Y293.32292 I-0.45838 J8.32302
G1 X18.71918 Y293.32638
G03 X19.31871 Y293.67788 I-1.27573 J2.86289
G02 X16.93779 Y292.89417 I-3.04067 J5.22907
X11.08596 Y292.89464 I-2.92406 J23.46187
X9.03421 Y293.48136 I0.78196 J6.61533
G0 Z6.5
X15.01115 Y300.00684
G1 Z-0.4 F119.2
G03 X12.71451 Y299.99223 I-1.03896 J-17.19363 F477.
G02 X15.01115 Y300.00684 I1.29922 J-23.70781
G1 Z1.1 F715.5
Z1.7
G0 Z6.5
X13.02487 Y292.63326
G1 Z-0.4 F119.2
G03 X15.31043 Y292.6481 I1.03041 J17.32086 F477.
G02 X13.02487 Y292.63326 I-1.2967 J23.70794
G1 Z1.1 F715.5
Z1.7
G0 Z6.5
M30
%
