%
G17 G21 G40 G90 G64 P0.1
(2 1/2 Axis Facing)
(SlotDrill 1/8in 3.175mm Carbide Aluminium Cut)
T6 M06
S24000 M3
G0 Z1.5875
X0.47725 Y-7.15754
G1 Z0. F229.
X-0.62541 Y-0.90402 F687.
X-0.00006 Y-0.79375
X25.40006 F916.
G17
G03 X26.19375 Y0. I-0.00006 J0.79375
G1 X-0.79375
Y0.79375
X26.19375
Y1.5875
X-0.79375
Y2.38125
X26.19375
Y3.175
X-0.79375
Y3.96875
X26.19375
Y4.7625
X-0.79375
Y5.55625
X26.19375
Y6.35
X-0.79375
Y7.14375
X26.19375
Y7.9375
X-0.79375
Y8.73125
X26.19375
Y9.525
X-0.79375
Y10.31875
X26.19375
Y11.1125
X-0.79375
Y11.90625
X26.19375
Y12.7
X-0.79375
Y13.49375
X26.19375
Y14.2875
X-0.79375
Y15.08125
X26.19375
Y15.875
X-0.79375
Y16.66875
X26.19375
Y17.4625
X-0.79375
Y18.25625
X26.19375
Y19.05
X-0.79375
Y19.84375
X26.19375
Y20.6375
X-0.79375
Y21.43125
X26.19375
Y22.225
X-0.79375
Y23.01875
X26.19375
Y23.8125
X-0.79375
Y24.60625
X26.19375
Y25.4
X-0.79375
Y26.19375
X26.19375
Y26.9875
X-0.79375
Y27.78125
X26.19375
Y28.575
X-0.79375
Y29.36875
X26.19375
Y30.1625
X-0.79375
Y30.95625
X26.19375
Y31.75
X-0.79375
Y32.54375
X26.19375
Y33.3375
X-0.79375
Y34.13125
X26.19375
Y34.925
X-0.79375
Y35.71875
X26.19375
Y36.5125
X-0.79375
Y37.30625
X26.19375
Y38.1
X-0.79375
Y38.89375
X26.19375
Y39.6875
X-0.79375
Y40.48125
X26.19375
Y41.275
X-0.79375
Y42.06875
X26.19375
Y42.8625
X-0.79375
Y43.65625
X26.19375
Y44.45
X-0.79375
Y45.24375
X26.19375
Y46.0375
X-0.79375
Y46.83125
X26.19375
Y47.625
X-0.79375
Y48.41875
X26.19375
Y49.2125
X-0.79375
Y50.00625
X26.19375
Y50.8
X-0.79375
Y51.59375
X26.19375
Y52.3875
X-0.79375
Y53.18125
X26.19375
Y53.975
X-0.79375
Y54.76875
X26.19375
Y55.5625
X-0.79375
Y56.35625
X26.19375
Y57.15
X-0.79375
Y57.94375
X26.19375
Y58.7375
X-0.79375
Y59.53125
X26.19375
Y60.325
X-0.79375
Y61.11875
X26.19375
Y61.9125
X-0.79375
Y62.70625
X26.19375
Y63.5
X-0.79375
Y64.29375
X26.19375
Y65.0875
X-0.79375
Y65.88125
X26.19375
Y66.675
X-0.79375
Y67.46875
X26.19375
Y68.2625
X-0.79375
Y69.05625
X26.19375
Y69.85
X-0.79375
Y70.64375
X26.19375
Y71.4375
X-0.79375
Y72.23125
X26.19375
Y73.025
X-0.79375
Y73.81875
X26.19375
Y74.6125
X-0.79375
Y75.40625
X26.19375
Y76.2
X-0.79375
Y76.99375
X26.19375
Y77.7875
X-0.79375
Y78.58125
X26.19375
Y79.375
X-0.79375
Y80.16875
X26.19375
Y80.9625
X-0.79375
Y81.75625
X26.19375
Y82.55
X-0.79375
Y83.34375
X26.19375
Y84.1375
X-0.79375
Y84.93125
X26.19375
Y85.725
X-0.79375
Y86.51875
X26.19375
Y87.3125
X-0.79375
Y88.10625
X26.19375
Y88.9
X-0.79375
Y89.69375
X26.19375
Y90.4875
X-0.79375
Y91.28125
X26.19375
Y92.075
X-0.79375
Y92.86875
X26.19375
Y93.6625
X-0.79375
Y94.45625
X26.19375
Y95.25
X-0.79375
Y96.04375
X26.19375
Y96.8375
X-0.79375
Y97.63125
X26.19375
Y98.425
X-0.79375
Y99.21875
X26.19375
Y100.0125
X-0.79375
Y100.80625
X26.19375
Y101.6
X-0.79375
Y102.39375
X26.19375
Y103.1875
X-0.79375
Y103.98125
X26.19375
Y104.775
X-0.79375
Y105.56875
X26.19375
Y106.3625
X-0.79375
Y107.15625
X26.19375
Y107.95
X-0.79375
Y108.74375
X26.19375
Y109.5375
X-0.79375
Y110.33125
X26.19375
Y111.125
X-0.79375
Y111.91875
X26.19375
Y112.7125
X-0.79375
Y113.50625
X26.19375
Y114.3
X-0.79375
Y115.09375
X26.19375
Y115.8875
X-0.79375
Y116.68125
X26.19375
Y117.475
X-0.79375
Y118.26875
X26.19375
Y119.0625
X-0.79375
Y119.85625
X26.19375
Y120.65
X-0.79375
Y121.44375
X26.19375
Y122.2375
X-0.79375
Y123.03125
X26.19375
Y123.825
X-0.79375
Y124.61875
X26.19375
Y125.4125
X-0.79375
Y126.20625
X26.19375
Y127.
X-0.79375
Y127.79375
X26.19375
Y128.5875
X-0.79375
Y129.38125
X26.19375
Y130.175
X-0.79375
Y130.96875
X26.19375
Y131.7625
X-0.79375
Y132.55625
X26.19375
Y133.35
X-0.79375
Y134.14375
X26.19375
Y134.9375
X-0.79375
Y135.73125
X26.19375
Y136.525
X-0.79375
Y137.31875
X26.19375
Y138.1125
X-0.79375
Y138.90625
X26.19375
Y139.7
X-0.79375
Y140.49375
X26.19375
Y141.2875
X-0.79375
Y142.08125
X26.19375
Y142.875
X-0.79375
Y143.66875
X26.19375
Y144.4625
X-0.79375
Y145.25625
X26.19375
Y146.05
X-0.79375
Y146.84375
X26.19375
Y147.6375
X-0.79375
Y148.43125
X26.19375
Y149.225
X-0.79375
Y150.01875
X26.19375
Y150.8125
X-0.79375
Y151.60625
X26.19375
Y152.4
X-0.79375
Y153.19375
X26.19375
Y153.9875
X-0.79375
Y154.78125
X26.19375
Y155.575
X-0.79375
Y156.36875
X26.19375
Y157.1625
X-0.79375
Y157.95625
X26.19375
Y158.75
X-0.79375
Y159.54375
X26.19375
Y160.3375
X-0.79375
Y161.13125
X26.19375
Y161.925
X-0.79375
Y162.71875
X26.19375
Y163.5125
X-0.79375
Y164.30625
X26.19375
Y165.1
X-0.79375
Y165.89375
X26.19375
Y166.6875
X-0.79375
Y167.48125
X26.19375
Y168.275
X-0.79375
Y169.06875
X26.19375
Y169.8625
X-0.79375
Y170.65625
X26.19375
Y171.45
X-0.79375
Y172.24375
X26.19375
Y173.0375
X-0.79375
Y173.83125
X26.19375
Y174.625
X-0.79375
Y175.41875
X26.19375
Y176.2125
X-0.79375
Y177.00625
X26.19375
Y177.8
X-0.79375
Y178.59375
X26.19375
Y179.3875
X-0.79375
Y180.18125
X26.19375
Y180.975
X-0.79375
Y181.76875
X26.19375
Y182.5625
X-0.79375
Y183.35625
X26.19375
Y184.15
X-0.79375
Y184.94375
X26.19375
Y185.7375
X-0.79375
Y186.53125
X26.19375
Y187.325
X-0.79375
Y188.11875
X26.19375
Y188.9125
X-0.79375
Y189.70625
X26.19375
Y190.5
X-0.79375
Y191.29375
X26.19375
Y192.0875
X-0.79375
Y192.88125
X26.19375
Y193.675
X-0.79375
Y194.46875
X26.19375
Y195.2625
X-0.79375
Y196.05625
X26.19375
Y196.85
X-0.79375
Y197.64375
X26.19375
Y198.4375
X-0.79375
Y199.23125
X26.19375
Y200.025
X-0.79375
Y200.81875
X26.19375
Y201.6125
X-0.79375
Y202.40625
X26.19375
Y203.2
X-0.79375
Y203.99375
X26.19375
Y204.7875
X-0.79375
Y205.58125
X26.19375
Y206.375
X-0.79375
Y207.16875
X26.19375
Y207.9625
X-0.79375
Y208.75625
X26.19375
Y209.55
X-0.79375
Y210.34375
X26.19375
Y211.1375
X-0.79375
Y211.93125
X26.19375
Y212.725
X-0.79375
Y213.51875
X26.19375
Y214.3125
X-0.79375
Y215.10625
X26.19375
Y215.9
X-0.79375
Y216.69375
X26.19375
Y217.
X26.19205 Y217.05191
X26.18696 Y217.1036
X26.1785 Y217.15485
X26.1667 Y217.20544
X26.15163 Y217.25514
X26.13333 Y217.30375
X26.11189 Y217.35107
X26.08741 Y217.39687
X26.05998 Y217.44098
X26.02972 Y217.4832
X26.0262 Y217.4875
X-0.6262
X-0.59677 Y217.52336
X-0.56127 Y217.56127
X-0.52336 Y217.59677
X-0.4832 Y217.62972
X-0.44098 Y217.65998
X-0.39688 Y217.68741
X-0.35107 Y217.71189
X-0.30376 Y217.73333
X-0.25514 Y217.75163
X-0.20544 Y217.7667
X-0.15485 Y217.7785
X-0.10361 Y217.78696
X-0.05191 Y217.79205
X-0.00003 Y217.79375
X25.40003
X31.65356 Y218.89641 F1374.
X30.55089 Y225.14994
G0 Z1.5875
M30
%
