%
(HOLE JIG)
(T3  D=6.35 CR=0. - ZMIN=-23.5 - FLAT END MILL)
N10 G90 G94 G17 G91.1 G64 P0.1
N15 G21
N20 G53 G0 Z0.
(CIRCULAR1)
N25 T3 M6
(ENDMILL 14IN 6.35MM CARBIDE ROUGHING)
N30 S20602 M3
N35 G54
N40 B0.
N45 G0 G43 X-50.737 Y450.635 Z15. H0
N50 G0 Z0.
N55 G1 Z-1.365 F1000.
N60 G18 G3 X-51.373 Z-2. I-0.635 K0.
N65 G1 X-51.69
N70 G17 G3 X-52.325 Y450. I0. J-0.635
N75 X-48.675 I1.825 J0. F5000.
N80 X-52.325 I-1.825 J0.
N85 X-51.69 Y449.365 I0.635 J0. F1000.
N90 G1 X-51.373
N95 G18 G2 X-50.737 Z-1.365 I0. K0.635
N100 G0 Z5.
N105 Y450.635
N110 Z-2.
N115 G1 Z-3.365 F1000.
N120 G3 X-51.373 Z-4. I-0.635 K0.
N125 G1 X-51.69
N130 G17 G3 X-52.325 Y450. I0. J-0.635
N135 X-48.675 I1.825 J0. F5000.
N140 X-52.325 I-1.825 J0.
N145 X-51.69 Y449.365 I0.635 J0. F1000.
N150 G1 X-51.373
N155 G18 G2 X-50.737 Z-3.365 I0. K0.635
N160 G0 Z5.
N165 Y450.635
N170 Z-4.
N175 G1 Z-5.365 F1000.
N180 G3 X-51.373 Z-6. I-0.635 K0.
N185 G1 X-51.69
N190 G17 G3 X-52.325 Y450. I0. J-0.635
N195 X-48.675 I1.825 J0. F5000.
N200 X-52.325 I-1.825 J0.
N205 X-51.69 Y449.365 I0.635 J0. F1000.
N210 G1 X-51.373
N215 G18 G2 X-50.737 Z-5.365 I0. K0.635
N220 G0 Z5.
N225 Y450.635
N230 Z-6.
N235 G1 Z-7.365 F1000.
N240 G3 X-51.373 Z-8. I-0.635 K0.
N245 G1 X-51.69
N250 G17 G3 X-52.325 Y450. I0. J-0.635
N255 X-48.675 I1.825 J0. F5000.
N260 X-52.325 I-1.825 J0.
N265 X-51.69 Y449.365 I0.635 J0. F1000.
N270 G1 X-51.373
N275 G18 G2 X-50.737 Z-7.365 I0. K0.635
N280 G0 Z5.
N285 Y450.635
N290 Z-8.
N295 G1 Z-9.365 F1000.
N300 G3 X-51.373 Z-10. I-0.635 K0.
N305 G1 X-51.69
N310 G17 G3 X-52.325 Y450. I0. J-0.635
N315 X-48.675 I1.825 J0. F5000.
N320 X-52.325 I-1.825 J0.
N325 X-51.69 Y449.365 I0.635 J0. F1000.
N330 G1 X-51.373
N335 G18 G2 X-50.737 Z-9.365 I0. K0.635
N340 G0 Z5.
N345 Y450.635
N350 Z-10.
N355 G1 Z-11.365 F1000.
N360 G3 X-51.373 Z-12. I-0.635 K0.
N365 G1 X-51.69
N370 G17 G3 X-52.325 Y450. I0. J-0.635
N375 X-48.675 I1.825 J0. F5000.
N380 X-52.325 I-1.825 J0.
N385 X-51.69 Y449.365 I0.635 J0. F1000.
N390 G1 X-51.373
N395 G18 G2 X-50.737 Z-11.365 I0. K0.635
N400 G0 Z5.
N405 X50.263 Y450.635
N410 Z0.
N415 G1 Z-1.365 F1000.
N420 G3 X49.627 Z-2. I-0.635 K0.
N425 G1 X49.31
N430 G17 G3 X48.675 Y450. I0. J-0.635
N435 X52.325 I1.825 J0. F5000.
N440 X48.675 I-1.825 J0.
N445 X49.31 Y449.365 I0.635 J0. F1000.
N450 G1 X49.627
N455 G18 G2 X50.263 Z-1.365 I0. K0.635
N460 G0 Z5.
N465 Y450.635
N470 Z-2.
N475 G1 Z-3.365 F1000.
N480 G3 X49.627 Z-4. I-0.635 K0.
N485 G1 X49.31
N490 G17 G3 X48.675 Y450. I0. J-0.635
N495 X52.325 I1.825 J0. F5000.
N500 X48.675 I-1.825 J0.
N505 X49.31 Y449.365 I0.635 J0. F1000.
N510 G1 X49.627
N515 G18 G2 X50.263 Z-3.365 I0. K0.635
N520 G0 Z5.
N525 Y450.635
N530 Z-4.
N535 G1 Z-5.365 F1000.
N540 G3 X49.627 Z-6. I-0.635 K0.
N545 G1 X49.31
N550 G17 G3 X48.675 Y450. I0. J-0.635
N555 X52.325 I1.825 J0. F5000.
N560 X48.675 I-1.825 J0.
N565 X49.31 Y449.365 I0.635 J0. F1000.
N570 G1 X49.627
N575 G18 G2 X50.263 Z-5.365 I0. K0.635
N580 G0 Z5.
N585 Y450.635
N590 Z-6.
N595 G1 Z-7.365 F1000.
N600 G3 X49.627 Z-8. I-0.635 K0.
N605 G1 X49.31
N610 G17 G3 X48.675 Y450. I0. J-0.635
N615 X52.325 I1.825 J0. F5000.
N620 X48.675 I-1.825 J0.
N625 X49.31 Y449.365 I0.635 J0. F1000.
N630 G1 X49.627
N635 G18 G2 X50.263 Z-7.365 I0. K0.635
N640 G0 Z5.
N645 Y450.635
N650 Z-8.
N655 G1 Z-9.365 F1000.
N660 G3 X49.627 Z-10. I-0.635 K0.
N665 G1 X49.31
N670 G17 G3 X48.675 Y450. I0. J-0.635
N675 X52.325 I1.825 J0. F5000.
N680 X48.675 I-1.825 J0.
N685 X49.31 Y449.365 I0.635 J0. F1000.
N690 G1 X49.627
N695 G18 G2 X50.263 Z-9.365 I0. K0.635
N700 G0 Z5.
N705 Y450.635
N710 Z-10.
N715 G1 Z-11.365 F1000.
N720 G3 X49.627 Z-12. I-0.635 K0.
N725 G1 X49.31
N730 G17 G3 X48.675 Y450. I0. J-0.635
N735 X52.325 I1.825 J0. F5000.
N740 X48.675 I-1.825 J0.
N745 X49.31 Y449.365 I0.635 J0. F1000.
N750 G1 X49.627
N755 G18 G2 X50.263 Z-11.365 I0. K0.635
N760 G0 Z15.
N765 G17
(2D ADAPTIVE1)
N770 G0 X46.17 Y-7.283
N775 Z15.
N780 Z5.
N785 Z-1.73
N790 G1 Z-2.365 F1000.
N795 X46.172 Y-7.276 Z-2.464
N800 X46.178 Y-7.253 Z-2.561
N805 X46.187 Y-7.216 Z-2.653
N810 X46.2 Y-7.166 Z-2.738
N815 X46.216 Y-7.103 Z-2.814
N820 X46.235 Y-7.03 Z-2.879
N825 X46.256 Y-6.948 Z-2.931
N830 X46.279 Y-6.858 Z-2.969
N835 X46.303 Y-6.765 Z-2.992
N840 X46.328 Y-6.668 Z-3.
N845 G3 X46.825 Y-3.211 I-15.704 J4.023
N850 G1 Y-2.876 F5000.
N855 X46.823 Y-2.838
N860 X46.726 Y-2.715
N865 X46.596 Y-2.574
N870 X46.425 Y-2.416
N875 X46.203 Y-2.243
N880 X45.919 Y-2.056
N885 X45.554 Y-1.855
N890 X45.081 Y-1.642
N895 X44.454 Y-1.419
N900 X43.587 Y-1.186
N905 X42.621 Y-1.009
N910 X41.647 Y-0.89
N915 X40.669 Y-0.809
N920 X39.689 Y-0.753
N925 X38.708 Y-0.716
N930 X37.727 Y-0.69
N935 X36.746 Y-0.673
N940 X35.764 Y-0.661
N945 X34.783 Y-0.653
N950 X33.801 Y-0.647
N955 X32.82 Y-0.643
N960 X30.857 Y-0.639
N965 X27.912 Y-0.636
N970 X18.097 Y-0.635
N975 X-3.496
N980 X-45.343
N985 X-45.673 Y-0.672
N990 X-45.986 Y-0.782
N995 X-46.267 Y-0.958
N1000 X-46.502 Y-1.193
N1005 X-46.678 Y-1.474
N1010 X-46.788 Y-1.787
N1015 X-46.825 Y-2.117
N1020 G3 X-46.691 Y-2.485 I0.635 J0.022 F1000.
N1025 G1 X-46.662 Y-2.513
N1030 X-46.626 Y-2.529
N1035 X-46.586 Y-2.534
N1040 X-46.547 Y-2.527
N1045 X-46.513 Y-2.507
N1050 X-46.479 Y-2.491
N1055 X-46.442 Y-2.49
N1060 X-46.408 Y-2.503
N1065 X-46.382 Y-2.53
N1070 X-46.369 Y-2.565
N1075 X-46.37 Y-2.597 F5000.
N1080 X-46.382 Y-2.627
N1085 X-46.385 Y-2.632 F1000.
N1090 X-46.406 Y-2.651
N1095 X-46.433 Y-2.662
N1100 X-46.462 Y-2.664
N1105 X-46.489 Y-2.655
N1110 G2 X-46.825 Y-2.117 I0.299 J0.56
N1115 G1 Y-0.981 F4500.
N1120 X-46.818 Y-0.831
N1125 X-46.781 Y-0.685
N1130 X-46.727 Y-0.545
N1135 X-46.658 Y-0.413
N1140 X-46.575 Y-0.287
N1145 X-46.475 Y-0.162
N1150 X-46.342 Y-0.019
N1155 X-46.166 Y0.14
N1160 X-45.939 Y0.314
N1165 X-45.648 Y0.503
N1170 X-45.274 Y0.705
N1175 X-44.788 Y0.919
N1180 X-44.143 Y1.143
N1185 X-43.245 Y1.377
N1190 X-42.278 Y1.546
N1195 X-41.303 Y1.661
N1200 X-40.325 Y1.739
N1205 X-39.345 Y1.791
N1210 X-38.364 Y1.827
N1215 X-37.383 Y1.852
N1220 X-36.401 Y1.869
N1225 X-35.42 Y1.88
N1230 X-34.438 Y1.888
N1235 X-33.457 Y1.893
N1240 X-32.475 Y1.897
N1245 X-30.512 Y1.901
N1250 X-27.568 Y1.904
N1255 X-17.753 Y1.905
N1260 X2.859
N1265 X25.434 Y1.904
N1270 X29.36 Y1.902
N1275 X31.323 Y1.899
N1280 X32.305 Y1.896
N1285 X33.286 Y1.891
N1290 X34.268 Y1.885
N1295 X35.249 Y1.876
N1300 X36.231 Y1.863
N1305 X37.212 Y1.844
N1310 X38.193 Y1.816
N1315 X39.174 Y1.775
N1320 X40.153 Y1.718
N1325 X41.132 Y1.637
N1330 X42.107 Y1.524
N1335 X43.075 Y1.365
N1340 X44.033 Y1.152
N1345 X44.904 Y0.891
N1350 X45.88 Y0.51
N1355 X46.143 Y0.376
N1360 X46.375 Y0.192
N1365 X46.566 Y-0.034
N1370 X46.708 Y-0.294
N1375 X46.795 Y-0.577
N1380 X46.825 Y-0.871
N1385 G2 X46.691 Y-1.24 I-0.635 J0.022 F1000.
N1390 G1 X46.662 Y-1.267
N1395 X46.626 Y-1.284
N1400 X46.586 Y-1.289
N1405 X46.547 Y-1.281
N1410 X46.513 Y-1.262
N1415 X46.479 Y-1.246
N1420 X46.442 Y-1.244
N1425 X46.408 Y-1.258
N1430 X46.382 Y-1.284
N1435 X46.369 Y-1.319
N1440 X46.37 Y-1.352 F5000.
N1445 X46.382 Y-1.382
N1450 X46.385 Y-1.386 F1000.
N1455 X46.406 Y-1.406
N1460 X46.433 Y-1.417
N1465 X46.462 Y-1.418
N1470 X46.489 Y-1.409
N1475 G3 X46.825 Y-0.871 I-0.299 J0.56
N1480 G1 Y0.18 F5000.
N1485 X46.818 Y0.33
N1490 X46.793 Y0.478
N1495 X46.754 Y0.622
N1500 X46.692 Y0.791
N1505 X46.614 Y0.96
N1510 X46.506 Y1.152
N1515 X46.358 Y1.372
N1520 X46.183 Y1.592
N1525 X45.959 Y1.831
N1530 X45.67 Y2.093
N1535 X45.333 Y2.353
N1540 X44.896 Y2.638
N1545 X44.38 Y2.918
N1550 X43.721 Y3.209
N1555 X42.873 Y3.505
N1560 X41.923 Y3.753
N1565 X40.959 Y3.938
N1570 X39.987 Y4.074
N1575 X39.011 Y4.174
N1580 X38.032 Y4.248
N1585 X37.052 Y4.302
N1590 X36.071 Y4.342
N1595 X35.09 Y4.371
N1600 X34.109 Y4.392
N1605 X33.128 Y4.407
N1610 X32.146 Y4.417
N1615 X31.165 Y4.425
N1620 X30.183 Y4.431
N1625 X29.202 Y4.435
N1630 X27.239 Y4.44
N1635 X24.294 Y4.443
N1640 X17.424 Y4.445
N1645 X-2.207
N1650 X-24.782 Y4.444
N1655 X-28.708 Y4.442
N1660 X-30.671 Y4.44
N1665 X-31.652 Y4.437
N1670 X-32.634 Y4.433
N1675 X-33.615 Y4.428
N1680 X-34.597 Y4.42
N1685 X-35.578 Y4.409
N1690 X-36.559 Y4.393
N1695 X-37.541 Y4.369
N1700 X-38.522 Y4.335
N1705 X-39.502 Y4.287
N1710 X-40.481 Y4.217
N1715 X-41.457 Y4.117
N1720 X-42.429 Y3.976
N1725 X-43.392 Y3.786
N1730 X-44.32 Y3.541
N1735 X-45.086 Y3.272
N1740 X-45.7 Y2.999
N1745 X-46.052 Y2.807
N1750 X-46.313 Y2.627
N1755 X-46.529 Y2.395
N1760 X-46.691 Y2.122
N1765 X-46.791 Y1.821
N1770 X-46.825 Y1.506
N1775 Y0.057
N1780 G3 X-46.489 Y-0.481 I0.635 J0.022 F1000.
N1785 G1 X-46.433 Y-0.504
N1790 X-46.374 Y-0.517
N1795 G3 X-46.052 Y-0.334 I0.034 J0.315 F5000.
N1800 X-46.386 Y0.905 I-0.908 J0.42
N1805 G1 X-46.489 Y0.968 F1000.
N1810 G2 X-46.825 Y1.506 I0.299 J0.56
N1815 G1 Y2.634 F4500.
N1820 X-46.818 Y2.783
N1825 X-46.789 Y2.931
N1830 X-46.744 Y3.09
N1835 X-46.684 Y3.251
N1840 X-46.596 Y3.438
N1845 X-46.475 Y3.651
N1850 X-46.332 Y3.86
N1855 X-46.143 Y4.094
N1860 X-45.899 Y4.351
N1865 X-45.614 Y4.606
N1870 X-45.24 Y4.891
N1875 X-44.806 Y5.17
N1880 X-44.247 Y5.468
N1885 X-43.557 Y5.767
N1890 X-42.686 Y6.065
N1895 X-41.735 Y6.307
N1900 X-40.77 Y6.486
N1905 X-39.798 Y6.62
N1910 X-38.821 Y6.718
N1915 X-37.842 Y6.791
N1920 X-36.862 Y6.844
N1925 X-35.882 Y6.883
N1930 X-34.9 Y6.911
N1935 X-33.919 Y6.932
N1940 X-32.938 Y6.947
N1945 X-31.956 Y6.958
N1950 X-30.975 Y6.965
N1955 X-29.993 Y6.971
N1960 X-29.012 Y6.975
N1965 X-27.049 Y6.98
N1970 X-24.104 Y6.983
N1975 X-17.234 Y6.985
N1980 X2.397
N1985 X21.045 Y6.984
N1990 X24.972 Y6.982
N1995 X26.935 Y6.979
N2000 X28.898 Y6.973
N2005 X29.879 Y6.969
N2010 X30.861 Y6.962
N2015 X31.842 Y6.953
N2020 X32.823 Y6.941
N2025 X33.805 Y6.924
N2030 X34.786 Y6.901
N2035 X35.767 Y6.869
N2040 X36.748 Y6.826
N2045 X37.727 Y6.768
N2050 X38.706 Y6.69
N2055 X39.682 Y6.588
N2060 X40.654 Y6.454
N2065 X41.621 Y6.282
N2070 X42.577 Y6.06
N2075 X43.518 Y5.781
N2080 X44.405 Y5.448
N2085 X45.17 Y5.088
N2090 X45.801 Y4.728
N2095 X46.18 Y4.468
N2100 X46.4 Y4.284
N2105 X46.581 Y4.06
N2110 X46.715 Y3.806
N2115 X46.797 Y3.531
N2120 X46.825 Y3.245
N2125 Y0.18
N2130 G2 X46.489 Y-0.358 I-0.635 J0.022 F1000.
N2135 G1 X46.434 Y-0.384
N2140 X46.377 Y-0.403
N2145 G2 X45.776 Y-0.182 I-0.146 J0.53 F5000.
N2150 X46.384 Y2.647 I1.654 J1.125
N2155 G1 X46.489 Y2.707 F1000.
N2160 G3 X46.825 Y3.245 I-0.299 J0.56
N2165 G1 Y4.418 F5000.
N2170 X46.818 Y4.568
N2175 X46.791 Y4.728
N2180 X46.749 Y4.892
N2185 X46.684 Y5.083
N2190 X46.588 Y5.306
N2195 X46.47 Y5.529
N2200 X46.311 Y5.777
N2205 X46.099 Y6.058
N2210 X45.853 Y6.332
N2215 X45.528 Y6.642
N2220 X45.144 Y6.953
N2225 X44.649 Y7.293
N2230 X44.072 Y7.624
N2235 X43.335 Y7.97
N2240 X42.416 Y8.316
N2245 X41.473 Y8.588
N2250 X40.515 Y8.802
N2255 X39.548 Y8.969
N2260 X38.575 Y9.1
N2265 X37.599 Y9.201
N2270 X36.62 Y9.279
N2275 X35.641 Y9.34
N2280 X34.66 Y9.386
N2285 X33.679 Y9.42
N2290 X32.698 Y9.447
N2295 X31.717 Y9.467
N2300 X30.736 Y9.482
N2305 X29.754 Y9.493
N2310 X28.773 Y9.501
N2315 X27.791 Y9.508
N2320 X26.81 Y9.512
N2325 X24.847 Y9.518
N2330 X21.902 Y9.522
N2335 X16.995 Y9.524
N2340 X-1.654 Y9.525
N2345 X-20.303 Y9.524
N2350 X-24.229 Y9.523
N2355 X-26.192 Y9.52
N2360 X-28.155 Y9.515
N2365 X-29.137 Y9.512
N2370 X-30.118 Y9.506
N2375 X-31.1 Y9.499
N2380 X-32.081 Y9.489
N2385 X-33.063 Y9.475
N2390 X-34.044 Y9.455
N2395 X-35.025 Y9.429
N2400 X-36.006 Y9.394
N2405 X-36.986 Y9.346
N2410 X-37.966 Y9.282
N2415 X-38.943 Y9.196
N2420 X-39.918 Y9.083
N2425 X-40.889 Y8.934
N2430 X-41.851 Y8.742
N2435 X-42.802 Y8.501
N2440 X-43.737 Y8.2
N2445 X-44.604 Y7.85
N2450 X-45.318 Y7.493
N2455 X-45.943 Y7.115
N2460 X-46.21 Y6.922
N2465 X-46.421 Y6.738
N2470 X-46.593 Y6.517
N2475 X-46.72 Y6.268
N2480 X-46.799 Y5.999
N2485 X-46.825 Y5.72
N2490 Y2.634
N2495 G3 X-46.489 Y2.095 I0.635 J0.022 F1000.
N2500 G1 X-46.434 Y2.07
N2505 X-46.377 Y2.051
N2510 G3 X-45.8 Y2.258 I0.14 J0.517 F5000.
N2515 X-45.43 Y3.417 I-1.63 J1.16
N2520 X-46.384 Y5.122 I-2. J0.
N2525 G1 X-46.489 Y5.182 F1000.
N2530 G2 X-46.825 Y5.72 I0.299 J0.56
N2535 G1 Y6.872 F4500.
N2540 X-46.818 Y7.022
N2545 X-46.795 Y7.171
N2550 X-46.758 Y7.334
N2555 X-46.696 Y7.529
N2560 X-46.61 Y7.74
N2565 X-46.498 Y7.96
N2570 X-46.343 Y8.215
N2575 X-46.148 Y8.483
N2580 X-45.907 Y8.763
N2585 X-45.591 Y9.077
N2590 X-45.226 Y9.385
N2595 X-44.751 Y9.724
N2600 X-44.183 Y10.064
N2605 X-43.478 Y10.414
N2610 X-42.586 Y10.769
N2615 X-41.648 Y11.059
N2620 X-40.693 Y11.287
N2625 X-39.728 Y11.465
N2630 X-38.757 Y11.605
N2635 X-37.781 Y11.714
N2640 X-36.803 Y11.798
N2645 X-35.824 Y11.863
N2650 X-34.844 Y11.912
N2655 X-33.863 Y11.95
N2660 X-32.882 Y11.979
N2665 X-31.901 Y12.001
N2670 X-30.919 Y12.017
N2675 X-29.938 Y12.03
N2680 X-28.956 Y12.039
N2685 X-27.975 Y12.046
N2690 X-26.993 Y12.051
N2695 X-25.03 Y12.057
N2700 X-22.086 Y12.062
N2705 X-17.178 Y12.064
N2710 X1.471 Y12.065
N2715 X18.156 Y12.064
N2720 X22.082 Y12.061
N2725 X24.045 Y12.058
N2730 X26.008 Y12.053
N2735 X26.99 Y12.048
N2740 X27.971 Y12.042
N2745 X28.953 Y12.034
N2750 X29.934 Y12.024
N2755 X30.916 Y12.009
N2760 X31.897 Y11.991
N2765 X32.878 Y11.966
N2770 X33.859 Y11.934
N2775 X34.84 Y11.891
N2780 X35.82 Y11.837
N2785 X36.799 Y11.768
N2790 X37.777 Y11.679
N2795 X38.751 Y11.566
N2800 X39.723 Y11.423
N2805 X40.688 Y11.244
N2810 X41.644 Y11.024
N2815 X42.588 Y10.756
N2820 X43.515 Y10.432
N2825 X44.417 Y10.045
N2830 X45.201 Y9.632
N2835 X45.849 Y9.222
N2840 X46.234 Y8.933
N2845 X46.437 Y8.748
N2850 X46.602 Y8.53
N2855 X46.725 Y8.285
N2860 X46.8 Y8.021
N2865 X46.825 Y7.748
N2870 Y4.418
N2875 G2 X46.377 Y3.833 I-0.635 J0.022 F1000.
N2880 X45.726 Y4.007 I-0.187 J0.607 F5000.
N2885 X45.411 Y5.067 I0.908 J0.847
N2890 X46.421 Y7.103 I3.941 J-0.686
N2895 X46.623 Y7.306 I2.93 J-2.723 F1000.
N2900 G3 X46.825 Y7.748 I-0.433 J0.464
N2905 G1 Y8.879 F5000.
N2910 X46.816 Y9.058
N2915 X46.795 Y9.221
N2920 X46.759 Y9.388
N2925 X46.7 Y9.585
N2930 X46.61 Y9.815
N2935 X46.498 Y10.046
N2940 X46.345 Y10.307
N2945 X46.137 Y10.602
N2950 X45.895 Y10.894
N2955 X45.57 Y11.227
N2960 X45.188 Y11.56
N2965 X44.69 Y11.929
N2970 X44.101 Y12.295
N2975 X43.357 Y12.679
N2980 X42.451 Y13.058
N2985 X41.519 Y13.365
N2990 X40.57 Y13.615
N2995 X39.61 Y13.817
N3000 X38.642 Y13.981
N3005 X37.669 Y14.112
N3010 X36.693 Y14.218
N3015 X35.715 Y14.302
N3020 X34.736 Y14.369
N3025 X33.756 Y14.422
N3030 X32.776 Y14.463
N3035 X31.795 Y14.496
N3040 X30.813 Y14.521
N3045 X29.832 Y14.541
N3050 X28.851 Y14.556
N3055 X27.869 Y14.568
N3060 X26.888 Y14.577
N3065 X25.906 Y14.584
N3070 X24.925 Y14.589
N3075 X22.962 Y14.596
N3080 X20.999 Y14.6
N3085 X17.073 Y14.604
N3090 X7.257 Y14.605
N3095 X-1.576
N3100 X-17.28 Y14.604
N3105 X-21.206 Y14.602
N3110 X-24.151 Y14.598
N3115 X-26.114 Y14.592
N3120 X-27.096 Y14.587
N3125 X-28.077 Y14.58
N3130 X-29.059 Y14.572
N3135 X-30.04 Y14.56
N3140 X-31.021 Y14.545
N3145 X-32.003 Y14.525
N3150 X-32.984 Y14.499
N3155 X-33.965 Y14.465
N3160 X-34.945 Y14.421
N3165 X-35.925 Y14.364
N3170 X-36.904 Y14.29
N3175 X-37.881 Y14.196
N3180 X-38.855 Y14.078
N3185 X-39.825 Y13.928
N3190 X-40.789 Y13.743
N3195 X-41.744 Y13.515
N3200 X-42.686 Y13.239
N3205 X-43.609 Y12.906
N3210 X-44.506 Y12.508
N3215 X-45.282 Y12.087
N3220 X-45.923 Y11.67
N3225 X-46.249 Y11.418
N3230 X-46.447 Y11.234
N3235 X-46.608 Y11.017
N3240 X-46.727 Y10.775
N3245 X-46.8 Y10.515
N3250 X-46.825 Y10.245
N3255 Y6.872
N3260 G3 X-46.377 Y6.287 I0.635 J0.022 F1000.
N3265 X-45.726 Y6.461 I0.187 J0.607 F5000.
N3270 X-45.404 Y7.524 I-0.922 J0.859
N3275 X-46.421 Y9.6 I-3.947 J-0.646
N3280 X-46.623 Y9.803 I-2.93 J-2.723 F1000.
N3285 G2 X-46.825 Y10.245 I0.433 J0.464
N3290 G1 Y11.456 F4500.
N3295 X-46.818 Y11.606
N3300 X-46.793 Y11.762
N3305 X-46.75 Y11.942
N3310 X-46.681 Y12.155
N3315 X-46.587 Y12.382
N3320 X-46.463 Y12.624
N3325 X-46.289 Y12.902
N3330 X-46.077 Y13.191
N3335 X-45.807 Y13.501
N3340 X-45.463 Y13.837
N3345 X-45.048 Y14.183
N3350 X-44.529 Y14.548
N3355 X-43.875 Y14.935
N3360 X-43.071 Y15.326
N3365 X-42.157 Y15.683
N3370 X-41.22 Y15.974
N3375 X-40.267 Y16.209
N3380 X-39.304 Y16.401
N3385 X-38.335 Y16.555
N3390 X-37.361 Y16.679
N3395 X-36.385 Y16.779
N3400 X-35.406 Y16.858
N3405 X-34.427 Y16.921
N3410 X-33.447 Y16.971
N3415 X-32.466 Y17.011
N3420 X-31.485 Y17.042
N3425 X-30.504 Y17.066
N3430 X-29.522 Y17.084
N3435 X-28.541 Y17.099
N3440 X-27.56 Y17.11
N3445 X-26.578 Y17.119
N3450 X-25.597 Y17.125
N3455 X-24.615 Y17.13
N3460 X-22.652 Y17.137
N3465 X-19.708 Y17.142
N3470 X-14.8 Y17.144
N3475 X1.886 Y17.145
N3480 X14.645 Y17.144
N3485 X18.572 Y17.142
N3490 X21.516 Y17.138
N3495 X23.479 Y17.132
N3500 X24.461 Y17.128
N3505 X25.442 Y17.123
N3510 X26.424 Y17.116
N3515 X27.405 Y17.106
N3520 X28.387 Y17.094
N3525 X29.368 Y17.079
N3530 X30.349 Y17.058
N3535 X31.33 Y17.033
N3540 X32.311 Y17.
N3545 X33.292 Y16.958
N3550 X34.272 Y16.906
N3555 X35.251 Y16.841
N3560 X36.23 Y16.76
N3565 X37.206 Y16.66
N3570 X38.18 Y16.537
N3575 X39.15 Y16.388
N3580 X40.115 Y16.207
N3585 X41.071 Y15.986
N3590 X42.016 Y15.719
N3595 X42.945 Y15.403
N3600 X43.853 Y15.032
N3605 X44.734 Y14.598
N3610 X45.471 Y14.159
N3615 X46.103 Y13.71
N3620 X46.295 Y13.55
N3625 X46.518 Y13.317
N3630 X46.686 Y13.041
N3635 X46.79 Y12.735
N3640 X46.825 Y12.414
N3645 Y8.879
N3650 G2 X46.489 Y8.341 I-0.635 J0.022 F1000.
N3655 G1 X46.379 Y8.29
N3660 G2 X44.902 Y9.331 I-0.398 J1.004 F5000.
N3665 X46.383 Y11.817 I2.998 J-0.103
N3670 G1 X46.489 Y11.876 F1000.
N3675 G3 X46.825 Y12.414 I-0.299 J0.56
N3680 G1 Y13.564 F5000.
N3685 X46.816 Y13.752
N3690 X46.795 Y13.908
N3695 X46.755 Y14.096
N3700 X46.692 Y14.308
N3705 X46.607 Y14.526
N3710 X46.483 Y14.78
N3715 X46.317 Y15.063
N3720 X46.115 Y15.35
N3725 X45.839 Y15.682
N3730 X45.515 Y16.014
N3735 X45.086 Y16.389
N3740 X44.582 Y16.762
N3745 X43.938 Y17.163
N3750 X43.134 Y17.578
N3755 X42.228 Y17.956
N3760 X41.298 Y18.269
N3765 X40.351 Y18.528
N3770 X39.393 Y18.742
N3775 X38.428 Y18.919
N3780 X37.457 Y19.065
N3785 X36.483 Y19.185
N3790 X35.507 Y19.284
N3795 X34.528 Y19.364
N3800 X33.549 Y19.43
N3805 X32.569 Y19.482
N3810 X31.588 Y19.525
N3815 X30.607 Y19.559
N3820 X29.626 Y19.586
N3825 X28.645 Y19.608
N3830 X27.664 Y19.625
N3835 X26.682 Y19.639
N3840 X25.701 Y19.649
N3845 X24.719 Y19.657
N3850 X23.738 Y19.664
N3855 X22.756 Y19.669
N3860 X20.793 Y19.676
N3865 X17.849 Y19.681
N3870 X13.923 Y19.684
N3875 X2.144 Y19.685
N3880 X-1.782
N3885 X-14.541 Y19.684
N3890 X-18.467 Y19.682
N3895 X-21.412 Y19.678
N3900 X-23.375 Y19.672
N3905 X-24.356 Y19.668
N3910 X-25.338 Y19.663
N3915 X-26.319 Y19.656
N3920 X-27.301 Y19.646
N3925 X-28.282 Y19.634
N3930 X-29.264 Y19.619
N3935 X-30.245 Y19.599
N3940 X-31.226 Y19.573
N3945 X-32.207 Y19.54
N3950 X-33.188 Y19.499
N3955 X-34.168 Y19.447
N3960 X-35.147 Y19.382
N3965 X-36.126 Y19.302
N3970 X-37.102 Y19.203
N3975 X-38.076 Y19.081
N3980 X-39.046 Y18.932
N3985 X-40.011 Y18.753
N3990 X-40.969 Y18.537
N3995 X-41.915 Y18.275
N4000 X-42.845 Y17.962
N4005 X-43.755 Y17.595
N4010 X-44.638 Y17.167
N4015 X-45.392 Y16.726
N4020 X-46.048 Y16.268
N4025 X-46.286 Y16.071
N4030 X-46.513 Y15.838
N4035 X-46.684 Y15.56
N4040 X-46.789 Y15.252
N4045 X-46.825 Y14.928
N4050 Y11.456
N4055 G3 X-46.377 Y10.871 I0.635 J0.022 F1000.
N4060 X-45.726 Y11.045 I0.187 J0.607 F5000.
N4065 X-45.389 Y12.109 I-0.95 J0.886
N4070 X-46.421 Y14.283 I-3.962 J-0.548
N4075 X-46.623 Y14.486 I-2.93 J-2.723 F1000.
N4080 G2 X-46.825 Y14.928 I0.433 J0.464
N4085 G1 Y16.14 F4500.
N4090 X-46.818 Y16.29
N4095 X-46.795 Y16.447
N4100 X-46.752 Y16.637
N4105 X-46.684 Y16.856
N4110 X-46.595 Y17.078
N4115 X-46.467 Y17.333
N4120 X-46.292 Y17.623
N4125 X-46.083 Y17.914
N4130 X-45.799 Y18.249
N4135 X-45.46 Y18.588
N4140 X-45.016 Y18.967
N4145 X-44.496 Y19.343
N4150 X-43.832 Y19.746
N4155 X-43.003 Y20.161
N4160 X-42.094 Y20.53
N4165 X-41.161 Y20.835
N4170 X-40.212 Y21.088
N4175 X-39.254 Y21.297
N4180 X-38.288 Y21.471
N4185 X-37.317 Y21.615
N4190 X-36.342 Y21.733
N4195 X-35.365 Y21.83
N4200 X-34.387 Y21.909
N4205 X-33.408 Y21.973
N4210 X-32.428 Y22.025
N4215 X-31.447 Y22.067
N4220 X-30.466 Y22.101
N4225 X-29.485 Y22.128
N4230 X-28.504 Y22.149
N4235 X-27.522 Y22.166
N4240 X-26.541 Y22.179
N4245 X-25.559 Y22.19
N4250 X-24.578 Y22.198
N4255 X-23.596 Y22.204
N4260 X-22.615 Y22.209
N4265 X-20.652 Y22.216
N4270 X-17.707 Y22.221
N4275 X-13.781 Y22.224
N4280 X-2.003 Y22.225
N4285 X1.923
N4290 X12.72 Y22.224
N4295 X16.646 Y22.222
N4300 X19.59 Y22.217
N4305 X21.553 Y22.211
N4310 X22.535 Y22.207
N4315 X23.516 Y22.202
N4320 X24.498 Y22.195
N4325 X25.479 Y22.186
N4330 X26.461 Y22.174
N4335 X27.442 Y22.16
N4340 X28.423 Y22.141
N4345 X29.405 Y22.118
N4350 X30.386 Y22.09
N4355 X31.367 Y22.054
N4360 X32.347 Y22.01
N4365 X33.327 Y21.955
N4370 X34.306 Y21.888
N4375 X35.285 Y21.807
N4380 X36.261 Y21.709
N4385 X37.235 Y21.59
N4390 X38.207 Y21.449
N4395 X39.173 Y21.279
N4400 X40.134 Y21.079
N4405 X41.087 Y20.841
N4410 X42.027 Y20.558
N4415 X42.95 Y20.225
N4420 X43.852 Y19.838
N4425 X44.726 Y19.392
N4430 X45.474 Y18.933
N4435 X46.125 Y18.459
N4440 X46.309 Y18.3
N4445 X46.527 Y18.068
N4450 X46.69 Y17.795
N4455 X46.791 Y17.493
N4460 X46.825 Y17.177
N4465 Y13.564
N4470 G2 X46.489 Y13.026 I-0.635 J0.022 F1000.
N4475 G1 X46.379 Y12.975
N4480 G2 X44.9 Y13.972 I-0.398 J1.004 F5000.
N4485 X46.383 Y16.58 I3. J0.019
N4490 G1 X46.489 Y16.639 F1000.
N4495 G3 X46.825 Y17.177 I-0.299 J0.56
N4500 G1 Y18.371 F5000.
N4505 X46.817 Y18.529
N4510 X46.796 Y18.69
N4515 X46.754 Y18.884
N4520 X46.69 Y19.099
N4525 X46.602 Y19.324
N4530 X46.475 Y19.588
N4535 X46.306 Y19.874
N4540 X46.095 Y20.174
N4545 X45.81 Y20.518
N4550 X45.475 Y20.861
N4555 X45.032 Y21.248
N4560 X44.501 Y21.641
N4565 X43.837 Y22.054
N4570 X42.998 Y22.487
N4575 X42.092 Y22.865
N4580 X41.163 Y23.182
N4585 X40.219 Y23.449
N4590 X39.263 Y23.673
N4595 X38.3 Y23.861
N4600 X37.331 Y24.019
N4605 X36.359 Y24.152
N4610 X35.383 Y24.263
N4615 X34.406 Y24.355
N4620 X33.428 Y24.432
N4625 X32.448 Y24.495
N4630 X31.468 Y24.548
N4635 X30.488 Y24.59
N4640 X29.507 Y24.625
N4645 X28.526 Y24.654
N4650 X27.544 Y24.677
N4655 X26.563 Y24.695
N4660 X25.582 Y24.71
N4665 X24.6 Y24.722
N4670 X23.619 Y24.731
N4675 X22.637 Y24.739
N4680 X21.656 Y24.744
N4685 X20.674 Y24.749
N4690 X18.711 Y24.755
N4695 X15.767 Y24.761
N4700 X11.841 Y24.764
N4705 X1.044 Y24.765
N4710 X-0.919
N4715 X-12.697 Y24.764
N4720 X-16.623 Y24.761
N4725 X-19.568 Y24.757
N4730 X-21.531 Y24.751
N4735 X-22.512 Y24.747
N4740 X-23.494 Y24.741
N4745 X-24.475 Y24.734
N4750 X-25.457 Y24.725
N4755 X-26.438 Y24.713
N4760 X-27.42 Y24.699
N4765 X-28.401 Y24.68
N4770 X-29.382 Y24.657
N4775 X-30.363 Y24.628
N4780 X-31.344 Y24.592
N4785 X-32.325 Y24.547
N4790 X-33.305 Y24.492
N4795 X-34.284 Y24.425
N4800 X-35.262 Y24.343
N4805 X-36.238 Y24.244
N4810 X-37.213 Y24.125
N4815 X-38.184 Y23.982
N4820 X-39.15 Y23.812
N4825 X-40.111 Y23.61
N4830 X-41.063 Y23.373
N4835 X-42.004 Y23.092
N4840 X-42.928 Y22.76
N4845 X-43.83 Y22.374
N4850 X-44.705 Y21.929
N4855 X-45.461 Y21.467
N4860 X-46.121 Y20.986
N4865 X-46.309 Y20.825
N4870 X-46.526 Y20.593
N4875 X-46.69 Y20.32
N4880 X-46.791 Y20.018
N4885 X-46.825 Y19.701
N4890 Y16.14
N4895 G3 X-46.489 Y15.602 I0.635 J0.022 F1000.
N4900 G1 X-46.379 Y15.551
N4905 G3 X-44.901 Y16.578 I0.398 J1.004 F5000.
N4910 X-46.383 Y19.104 I-2.999 J-0.062
N4915 G1 X-46.489 Y19.163 F1000.
N4920 G2 X-46.825 Y19.701 I0.299 J0.56
N4925 G1 Y20.925 F4500.
N4930 X-46.818 Y21.075
N4935 X-46.794 Y21.241
N4940 X-46.749 Y21.44
N4945 X-46.681 Y21.656
N4950 X-46.588 Y21.886
N4955 X-46.454 Y22.154
N4960 X-46.28 Y22.442
N4965 X-46.059 Y22.748
N4970 X-45.765 Y23.094
N4975 X-45.417 Y23.442
N4980 X-44.962 Y23.829
N4985 X-44.409 Y24.229
N4990 X-43.725 Y24.643
N4995 X-42.851 Y25.081
N5000 X-41.941 Y25.448
N5005 X-41.009 Y25.757
N5010 X-40.063 Y26.017
N5015 X-39.106 Y26.235
N5020 X-38.142 Y26.419
N5025 X-37.172 Y26.574
N5030 X-36.2 Y26.704
N5035 X-35.224 Y26.812
N5040 X-34.247 Y26.903
N5045 X-33.268 Y26.978
N5050 X-32.289 Y27.04
N5055 X-31.308 Y27.092
N5060 X-30.328 Y27.134
N5065 X-29.347 Y27.168
N5070 X-28.366 Y27.196
N5075 X-27.384 Y27.218
N5080 X-26.403 Y27.236
N5085 X-25.422 Y27.251
N5090 X-24.44 Y27.262
N5095 X-23.459 Y27.272
N5100 X-22.477 Y27.279
N5105 X-21.496 Y27.285
N5110 X-19.533 Y27.293
N5115 X-17.57 Y27.298
N5120 X-14.625 Y27.302
N5125 X-9.718 Y27.304
N5130 X1.079 Y27.305
N5135 X10.894 Y27.304
N5140 X14.82 Y27.301
N5145 X17.765 Y27.296
N5150 X19.728 Y27.29
N5155 X20.709 Y27.286
N5160 X21.691 Y27.281
N5165 X22.672 Y27.274
N5170 X23.654 Y27.266
N5175 X24.635 Y27.255
N5180 X25.617 Y27.242
N5185 X26.598 Y27.225
N5190 X27.579 Y27.204
N5195 X28.561 Y27.179
N5200 X29.542 Y27.148
N5205 X30.522 Y27.11
N5210 X31.503 Y27.064
N5215 X32.483 Y27.008
N5220 X33.462 Y26.941
N5225 X34.44 Y26.86
N5230 X35.417 Y26.764
N5235 X36.392 Y26.65
N5240 X37.364 Y26.514
N5245 X38.332 Y26.355
N5250 X39.296 Y26.167
N5255 X40.252 Y25.948
N5260 X41.2 Y25.692
N5265 X42.136 Y25.395
N5270 X43.053 Y25.048
N5275 X43.949 Y24.646
N5280 X44.815 Y24.185
N5285 X45.568 Y23.704
N5290 X46.219 Y23.211
N5295 X46.33 Y23.112
N5300 X46.539 Y22.881
N5305 X46.696 Y22.612
N5310 X46.792 Y22.316
N5315 X46.825 Y22.006
N5320 Y18.371
N5325 G2 X46.489 Y17.833 I-0.635 J0.022 F1000.
N5330 G1 X46.379 Y17.782
N5335 G2 X44.901 Y18.767 I-0.398 J1.004 F5000.
N5340 X46.383 Y21.409 I3. J0.054
N5345 G1 X46.489 Y21.468 F1000.
N5350 G3 X46.825 Y22.006 I-0.299 J0.56
N5355 G1 Y23.156 F5000.
N5360 X46.815 Y23.364
N5365 X46.792 Y23.533
N5370 X46.749 Y23.735
N5375 X46.687 Y23.942
N5380 X46.596 Y24.176
N5385 X46.463 Y24.45
N5390 X46.298 Y24.73
N5395 X46.078 Y25.043
N5400 X45.794 Y25.385
N5405 X45.445 Y25.743
N5410 X45.002 Y26.13
N5415 X44.443 Y26.543
N5420 X43.764 Y26.966
N5425 X42.892 Y27.416
N5430 X41.986 Y27.795
N5435 X41.059 Y28.115
N5440 X40.116 Y28.387
N5445 X39.162 Y28.618
N5450 X38.2 Y28.815
N5455 X37.233 Y28.983
N5460 X36.262 Y29.125
N5465 X35.288 Y29.246
N5470 X34.312 Y29.348
N5475 X33.334 Y29.434
N5480 X32.355 Y29.506
N5485 X31.375 Y29.567
N5490 X30.395 Y29.618
N5495 X29.415 Y29.66
N5500 X28.434 Y29.695
N5505 X27.453 Y29.723
N5510 X26.471 Y29.747
N5515 X25.49 Y29.766
N5520 X24.509 Y29.782
N5525 X23.527 Y29.795
N5530 X22.546 Y29.805
N5535 X21.564 Y29.813
N5540 X20.583 Y29.82
N5545 X19.601 Y29.825
N5550 X17.638 Y29.833
N5555 X15.675 Y29.838
N5560 X12.731 Y29.842
N5565 X6.842 Y29.844
N5570 X-1.011 Y29.845
N5575 X-10.826 Y29.844
N5580 X-14.752 Y29.841
N5585 X-17.696 Y29.836
N5590 X-19.659 Y29.83
N5595 X-20.641 Y29.826
N5600 X-21.622 Y29.821
N5605 X-22.604 Y29.814
N5610 X-23.585 Y29.805
N5615 X-24.567 Y29.795
N5620 X-25.548 Y29.781
N5625 X-26.53 Y29.764
N5630 X-27.511 Y29.744
N5635 X-28.492 Y29.718
N5640 X-29.473 Y29.687
N5645 X-30.454 Y29.649
N5650 X-31.434 Y29.603
N5655 X-32.414 Y29.548
N5660 X-33.393 Y29.481
N5665 X-34.372 Y29.401
N5670 X-35.348 Y29.305
N5675 X-36.323 Y29.191
N5680 X-37.296 Y29.057
N5685 X-38.264 Y28.898
N5690 X-39.228 Y28.712
N5695 X-40.185 Y28.494
N5700 X-41.133 Y28.24
N5705 X-42.069 Y27.945
N5710 X-42.989 Y27.602
N5715 X-43.886 Y27.204
N5720 X-44.755 Y26.747
N5725 X-45.521 Y26.264
N5730 X-46.18 Y25.77
N5735 X-46.324 Y25.643
N5740 X-46.536 Y25.412
N5745 X-46.694 Y25.142
N5750 X-46.792 Y24.844
N5755 X-46.825 Y24.532
N5760 Y20.925
N5765 G3 X-46.489 Y20.387 I0.635 J0.022 F1000.
N5770 G1 X-46.379 Y20.336
N5775 G3 X-44.9 Y21.337 I0.398 J1.004 F5000.
N5780 X-46.383 Y23.935 I-3. J0.01
N5785 G1 X-46.489 Y23.994 F1000.
N5790 G2 X-46.825 Y24.532 I0.299 J0.56
N5795 G1 Y25.732 F4500.
N5800 X-46.817 Y25.891
N5805 X-46.795 Y26.058
N5810 X-46.752 Y26.258
N5815 X-46.689 Y26.471
N5820 X-46.598 Y26.703
N5825 X-46.467 Y26.973
N5830 X-46.299 Y27.259
N5835 X-46.081 Y27.568
N5840 X-45.794 Y27.915
N5845 X-45.45 Y28.268
N5850 X-45.003 Y28.658
N5855 X-44.448 Y29.068
N5860 X-43.763 Y29.494
N5865 X-42.891 Y29.944
N5870 X-41.985 Y30.323
N5875 X-41.058 Y30.644
N5880 X-40.115 Y30.917
N5885 X-39.161 Y31.149
N5890 X-38.2 Y31.347
N5895 X-37.233 Y31.515
N5900 X-36.262 Y31.658
N5905 X-35.288 Y31.779
N5910 X-34.312 Y31.882
N5915 X-33.334 Y31.969
N5920 X-32.355 Y32.042
N5925 X-31.376 Y32.103
N5930 X-30.395 Y32.154
N5935 X-29.415 Y32.197
N5940 X-28.434 Y32.232
N5945 X-27.453 Y32.261
N5950 X-26.472 Y32.285
N5955 X-25.49 Y32.305
N5960 X-24.509 Y32.321
N5965 X-23.527 Y32.334
N5970 X-22.546 Y32.344
N5975 X-21.565 Y32.353
N5980 X-20.583 Y32.359
N5985 X-19.602 Y32.365
N5990 X-17.639 Y32.373
N5995 X-15.675 Y32.377
N6000 X-12.731 Y32.381
N6005 X-7.823 Y32.384
N6010 X1.01 Y32.385
N6015 X9.844 Y32.383
N6020 X13.77 Y32.38
N6025 X16.714 Y32.374
N6030 X18.678 Y32.367
N6035 X19.659 Y32.362
N6040 X20.641 Y32.356
N6045 X21.622 Y32.349
N6050 X22.603 Y32.339
N6055 X23.585 Y32.328
N6060 X24.566 Y32.313
N6065 X25.548 Y32.296
N6070 X26.529 Y32.275
N6075 X27.51 Y32.249
N6080 X28.491 Y32.218
N6085 X29.472 Y32.18
N6090 X30.452 Y32.135
N6095 X31.432 Y32.081
N6100 X32.412 Y32.017
N6105 X33.39 Y31.941
N6110 X34.368 Y31.851
N6115 X35.344 Y31.746
N6120 X36.317 Y31.622
N6125 X37.288 Y31.478
N6130 X38.255 Y31.309
N6135 X39.217 Y31.114
N6140 X40.172 Y30.887
N6145 X41.118 Y30.626
N6150 X42.052 Y30.324
N6155 X42.969 Y29.974
N6160 X43.864 Y29.57
N6165 X44.73 Y29.109
N6170 X45.496 Y28.624
N6175 X46.162 Y28.123
N6180 X46.326 Y27.977
N6185 X46.537 Y27.746
N6190 X46.695 Y27.476
N6195 X46.792 Y27.179
N6200 X46.825 Y26.868
N6205 Y23.156
N6210 G2 X46.489 Y22.618 I-0.635 J0.022 F1000.
N6215 G1 X46.379 Y22.567
N6220 G2 X44.906 Y23.505 I-0.397 J1.002 F5000.
N6225 G1 X44.9 Y23.682
N6230 Y23.683
N6235 G2 X46.383 Y26.271 I3. J0.
N6240 G1 X46.489 Y26.33 F1000.
N6245 G3 X46.825 Y26.868 I-0.299 J0.56
N6250 G1 Y28.063 F5000.
N6255 X46.816 Y28.236
N6260 X46.794 Y28.403
N6265 X46.751 Y28.605
N6270 X46.687 Y28.821
N6275 X46.595 Y29.055
N6280 X46.462 Y29.329
N6285 X46.291 Y29.62
N6290 X46.071 Y29.934
N6295 X45.779 Y30.285
N6300 X45.427 Y30.646
N6305 X44.973 Y31.042
N6310 X44.405 Y31.463
N6315 X43.705 Y31.898
N6320 X42.833 Y32.348
N6325 X41.929 Y32.729
N6330 X41.002 Y33.053
N6335 X40.061 Y33.331
N6340 X39.109 Y33.569
N6345 X38.149 Y33.773
N6350 X37.183 Y33.949
N6355 X36.213 Y34.1
N6360 X35.24 Y34.229
N6365 X34.265 Y34.34
N6370 X33.288 Y34.435
N6375 X32.31 Y34.515
N6380 X31.331 Y34.584
N6385 X30.351 Y34.642
N6390 X29.371 Y34.691
N6395 X28.39 Y34.732
N6400 X27.409 Y34.766
N6405 X26.428 Y34.795
N6410 X25.447 Y34.819
N6415 X24.465 Y34.839
N6420 X23.484 Y34.855
N6425 X22.503 Y34.869
N6430 X21.521 Y34.88
N6435 X20.54 Y34.889
N6440 X19.558 Y34.896
N6445 X18.577 Y34.902
N6450 X16.614 Y34.91
N6455 X14.651 Y34.916
N6460 X11.706 Y34.921
N6465 X6.799 Y34.924
N6470 X-1.054 Y34.925
N6475 X-8.906 Y34.923
N6480 X-12.832 Y34.921
N6485 X-15.776 Y34.916
N6490 X-17.739 Y34.91
N6495 X-18.721 Y34.906
N6500 X-19.702 Y34.901
N6505 X-20.684 Y34.895
N6510 X-21.665 Y34.887
N6515 X-22.647 Y34.878
N6520 X-23.628 Y34.866
N6525 X-24.61 Y34.851
N6530 X-25.591 Y34.833
N6535 X-26.572 Y34.812
N6540 X-27.553 Y34.785
N6545 X-28.534 Y34.753
N6550 X-29.515 Y34.715
N6555 X-30.496 Y34.669
N6560 X-31.476 Y34.614
N6565 X-32.455 Y34.549
N6570 X-33.433 Y34.472
N6575 X-34.411 Y34.382
N6580 X-35.386 Y34.275
N6585 X-36.36 Y34.15
N6590 X-37.331 Y34.004
N6595 X-38.297 Y33.833
N6600 X-39.259 Y33.636
N6605 X-40.213 Y33.407
N6610 X-41.158 Y33.143
N6615 X-42.092 Y32.839
N6620 X-43.008 Y32.486
N6625 X-43.901 Y32.08
N6630 X-44.766 Y31.617
N6635 X-45.531 Y31.129
N6640 X-46.193 Y30.626
N6645 X-46.331 Y30.503
N6650 X-46.539 Y30.273
N6655 X-46.696 Y30.004
N6660 X-46.792 Y29.708
N6665 X-46.825 Y29.398
N6670 Y25.732
N6675 G3 X-46.489 Y25.194 I0.635 J0.022 F1000.
N6680 G1 X-46.379 Y25.143
N6685 G3 X-44.902 Y26.11 I0.398 J1.004 F5000.
N6690 X-46.383 Y28.801 I-2.998 J0.103
N6695 G1 X-46.489 Y28.86 F1000.
N6700 G2 X-46.825 Y29.398 I0.299 J0.56
N6705 G1 Y30.64 F4500.
N6710 X-46.818 Y30.79
N6715 X-46.792 Y30.965
N6720 X-46.744 Y31.173
N6725 X-46.677 Y31.386
N6730 X-46.578 Y31.629
N6735 X-46.436 Y31.912
N6740 X-46.261 Y32.199
N6745 X-46.026 Y32.524
N6750 X-45.728 Y32.873
N6755 X-45.352 Y33.246
N6760 X-44.887 Y33.641
N6765 X-44.291 Y34.069
N6770 X-43.546 Y34.517
N6775 X-42.667 Y34.955
N6780 X-41.758 Y35.325
N6785 X-40.829 Y35.641
N6790 X-39.885 Y35.911
N6795 X-38.931 Y36.143
N6800 X-37.97 Y36.342
N6805 X-37.004 Y36.513
N6810 X-36.033 Y36.66
N6815 X-35.06 Y36.786
N6820 X-34.084 Y36.894
N6825 X-33.107 Y36.986
N6830 X-32.129 Y37.064
N6835 X-31.149 Y37.131
N6840 X-30.17 Y37.188
N6845 X-29.189 Y37.236
N6850 X-28.208 Y37.276
N6855 X-27.228 Y37.31
N6860 X-26.246 Y37.338
N6865 X-25.265 Y37.361
N6870 X-24.284 Y37.381
N6875 X-23.302 Y37.397
N6880 X-22.321 Y37.41
N6885 X-21.34 Y37.421
N6890 X-20.358 Y37.429
N6895 X-19.377 Y37.436
N6900 X-18.395 Y37.442
N6905 X-16.432 Y37.451
N6910 X-14.469 Y37.456
N6915 X-11.525 Y37.461
N6920 X-6.617 Y37.464
N6925 X1.235 Y37.465
N6930 X8.106 Y37.463
N6935 X12.032 Y37.459
N6940 X14.976 Y37.454
N6945 X16.939 Y37.447
N6950 X17.921 Y37.442
N6955 X18.902 Y37.437
N6960 X19.884 Y37.43
N6965 X20.865 Y37.421
N6970 X21.847 Y37.41
N6975 X22.828 Y37.397
N6980 X23.81 Y37.382
N6985 X24.791 Y37.363
N6990 X25.772 Y37.34
N6995 X26.753 Y37.313
N7000 X27.734 Y37.28
N7005 X28.715 Y37.241
N7010 X29.695 Y37.195
N7015 X30.676 Y37.141
N7020 X31.655 Y37.077
N7025 X32.634 Y37.003
N7030 X33.611 Y36.916
N7035 X34.588 Y36.814
N7040 X35.562 Y36.697
N7045 X36.534 Y36.561
N7050 X37.503 Y36.403
N7055 X38.467 Y36.221
N7060 X39.426 Y36.011
N7065 X40.377 Y35.769
N7070 X41.318 Y35.49
N7075 X42.246 Y35.171
N7080 X43.157 Y34.805
N7085 X44.045 Y34.386
N7090 X44.902 Y33.908
N7095 X45.666 Y33.4
N7100 X46.302 Y32.9
N7105 X46.35 Y32.855
N7110 X46.551 Y32.626
N7115 X46.701 Y32.361
N7120 X46.794 Y32.071
N7125 X46.825 Y31.768
N7130 Y28.063
N7135 G2 X46.489 Y27.525 I-0.635 J0.022 F1000.
N7140 G1 X46.379 Y27.474
N7145 G2 X44.905 Y28.418 I-0.398 J1.003 F5000.
N7150 X46.383 Y31.171 I2.995 J0.164
N7155 G1 X46.489 Y31.23 F1000.
N7160 G3 X46.825 Y31.768 I-0.299 J0.56
N7165 G1 Y32.971 F5000.
N7170 X46.817 Y33.131
N7175 X46.794 Y33.308
N7180 X46.751 Y33.509
N7185 X46.688 Y33.718
N7190 X46.592 Y33.964
N7195 X46.457 Y34.242
N7200 X46.291 Y34.526
N7205 X46.06 Y34.854
N7210 X45.777 Y35.194
N7215 X45.408 Y35.573
N7220 X44.958 Y35.965
N7225 X44.376 Y36.396
N7230 X43.642 Y36.853
N7235 X42.77 Y37.303
N7240 X41.866 Y37.686
N7245 X40.941 Y38.013
N7250 X40.001 Y38.295
N7255 X39.049 Y38.537
N7260 X38.091 Y38.746
N7265 X37.126 Y38.928
N7270 X36.157 Y39.084
N7275 X35.185 Y39.22
N7280 X34.21 Y39.337
N7285 X33.234 Y39.439
N7290 X32.256 Y39.526
N7295 X31.278 Y39.601
N7300 X30.298 Y39.665
N7305 X29.318 Y39.72
N7310 X28.338 Y39.767
N7315 X27.357 Y39.807
N7320 X26.376 Y39.841
N7325 X25.395 Y39.869
N7330 X24.414 Y39.893
N7335 X23.433 Y39.913
N7340 X22.451 Y39.93
N7345 X21.47 Y39.944
N7350 X20.489 Y39.955
N7355 X19.507 Y39.964
N7360 X18.526 Y39.972
N7365 X17.544 Y39.979
N7370 X15.581 Y39.988
N7375 X13.618 Y39.994
N7380 X10.674 Y40.
N7385 X6.747 Y40.003
N7390 X-1.105 Y40.004
N7395 X-7.975 Y40.003
N7400 X-11.901 Y39.999
N7405 X-14.846 Y39.994
N7410 X-16.809 Y39.987
N7415 X-17.79 Y39.982
N7420 X-18.772 Y39.977
N7425 X-19.753 Y39.97
N7430 X-20.735 Y39.961
N7435 X-21.716 Y39.951
N7440 X-22.698 Y39.938
N7445 X-23.679 Y39.923
N7450 X-24.66 Y39.904
N7455 X-25.642 Y39.881
N7460 X-26.623 Y39.854
N7465 X-27.604 Y39.822
N7470 X-28.585 Y39.784
N7475 X-29.565 Y39.739
N7480 X-30.545 Y39.685
N7485 X-31.525 Y39.622
N7490 X-32.503 Y39.549
N7495 X-33.481 Y39.463
N7500 X-34.458 Y39.363
N7505 X-35.432 Y39.248
N7510 X-36.405 Y39.114
N7515 X-37.374 Y38.96
N7520 X-38.339 Y38.781
N7525 X-39.299 Y38.574
N7530 X-40.251 Y38.336
N7535 X-41.193 Y38.063
N7540 X-42.123 Y37.748
N7545 X-43.036 Y37.388
N7550 X-43.927 Y36.976
N7555 X-44.789 Y36.506
N7560 X-45.572 Y35.998
N7565 X-46.225 Y35.495
N7570 X-46.338 Y35.393
N7575 X-46.544 Y35.163
N7580 X-46.698 Y34.895
N7585 X-46.793 Y34.602
N7590 X-46.825 Y34.295
N7595 Y30.64
N7600 G3 X-46.489 Y30.102 I0.635 J0.022 F1000.
N7605 G1 X-46.379 Y30.051
N7610 G3 X-44.901 Y31.024 I0.398 J1.004 F5000.
N7615 X-46.383 Y33.698 I-2.999 J0.085
N7620 G1 X-46.489 Y33.757 F1000.
N7625 G2 X-46.825 Y34.295 I0.299 J0.56
N7630 G1 Y35.547 F4500.
N7635 X-46.818 Y35.697
N7640 X-46.79 Y35.877
N7645 X-46.741 Y36.088
N7650 X-46.672 Y36.303
N7655 X-46.569 Y36.552
N7660 X-46.423 Y36.839
N7665 X-46.245 Y37.129
N7670 X-46.001 Y37.462
N7675 X-45.7 Y37.811
N7680 X-45.309 Y38.197
N7685 X-44.832 Y38.597
N7690 X-44.217 Y39.034
N7695 X-43.441 Y39.497
N7700 X-42.561 Y39.93
N7705 X-41.651 Y40.299
N7710 X-40.722 Y40.616
N7715 X-39.779 Y40.888
N7720 X-38.826 Y41.123
N7725 X-37.866 Y41.326
N7730 X-36.9 Y41.501
N7735 X-35.93 Y41.653
N7740 X-34.958 Y41.784
N7745 X-33.983 Y41.898
N7750 X-33.006 Y41.996
N7755 X-32.028 Y42.081
N7760 X-31.049 Y42.153
N7765 X-30.07 Y42.216
N7770 X-29.09 Y42.269
N7775 X-28.109 Y42.314
N7780 X-27.129 Y42.353
N7785 X-26.148 Y42.386
N7790 X-25.167 Y42.413
N7795 X-24.185 Y42.436
N7800 X-23.204 Y42.456
N7805 X-22.223 Y42.472
N7810 X-21.241 Y42.485
N7815 X-20.26 Y42.496
N7820 X-19.278 Y42.506
N7825 X-18.297 Y42.513
N7830 X-17.315 Y42.519
N7835 X-15.352 Y42.528
N7840 X-13.389 Y42.534
N7845 X-10.445 Y42.54
N7850 X-6.519 Y42.543
N7855 X0.352 Y42.544
N7860 X1.333
N7865 X7.223 Y42.542
N7870 X11.149 Y42.538
N7875 X13.112 Y42.534
N7880 X15.075 Y42.528
N7885 X17.038 Y42.518
N7890 X18.019 Y42.512
N7895 X19.001 Y42.504
N7900 X19.982 Y42.495
N7905 X20.964 Y42.484
N7910 X21.945 Y42.47
N7915 X22.926 Y42.454
N7920 X23.908 Y42.434
N7925 X24.889 Y42.411
N7930 X25.87 Y42.383
N7935 X26.851 Y42.35
N7940 X27.832 Y42.312
N7945 X28.812 Y42.267
N7950 X29.792 Y42.214
N7955 X30.772 Y42.152
N7960 X31.751 Y42.081
N7965 X32.729 Y41.998
N7970 X33.706 Y41.903
N7975 X34.681 Y41.793
N7980 X35.654 Y41.667
N7985 X36.625 Y41.522
N7990 X37.593 Y41.356
N7995 X38.556 Y41.166
N8000 X39.512 Y40.947
N8005 X40.461 Y40.696
N8010 X41.399 Y40.408
N8015 X42.324 Y40.078
N8020 X43.231 Y39.702
N8025 X44.114 Y39.274
N8030 X44.966 Y38.787
N8035 X45.73 Y38.27
N8040 X46.35 Y37.772
N8045 X46.36 Y37.763
N8050 X46.557 Y37.535
N8055 X46.704 Y37.272
N8060 X46.794 Y36.985
N8065 X46.825 Y36.685
N8070 Y32.971
N8075 G2 X46.489 Y32.433 I-0.635 J0.022 F1000.
N8080 G1 X46.379 Y32.382
N8085 G2 X44.906 Y33.319 I-0.397 J1.002 F5000.
N8090 X46.383 Y36.088 I2.995 J0.18
N8095 G1 X46.489 Y36.147 F1000.
N8100 G3 X46.825 Y36.685 I-0.299 J0.56
N8105 G1 Y37.878 F5000.
N8110 X46.816 Y38.049
N8115 X46.793 Y38.23
N8120 X46.751 Y38.425
N8125 X46.687 Y38.639
N8130 X46.589 Y38.89
N8135 X46.456 Y39.164
N8140 X46.285 Y39.454
N8145 X46.049 Y39.79
N8150 X45.768 Y40.13
N8155 X45.388 Y40.519
N8160 X44.934 Y40.914
N8165 X44.346 Y41.349
N8170 X43.602 Y41.813
N8175 X42.729 Y42.263
N8180 X41.826 Y42.647
N8185 X40.902 Y42.978
N8190 X39.963 Y43.263
N8195 X39.013 Y43.51
N8200 X38.055 Y43.724
N8205 X37.091 Y43.91
N8210 X36.123 Y44.072
N8215 X35.152 Y44.214
N8220 X34.178 Y44.337
N8225 X33.203 Y44.444
N8230 X32.225 Y44.537
N8235 X31.247 Y44.618
N8240 X30.268 Y44.688
N8245 X29.289 Y44.749
N8250 X28.309 Y44.801
N8255 X27.328 Y44.846
N8260 X26.347 Y44.884
N8265 X25.366 Y44.917
N8270 X24.385 Y44.945
N8275 X23.404 Y44.968
N8280 X22.423 Y44.988
N8285 X21.441 Y45.005
N8290 X20.46 Y45.019
N8295 X19.478 Y45.031
N8300 X18.497 Y45.041
N8305 X17.515 Y45.049
N8310 X16.534 Y45.056
N8315 X14.571 Y45.066
N8320 X12.608 Y45.072
N8325 X9.663 Y45.079
N8330 X5.737 Y45.082
N8335 X-0.152 Y45.084
N8340 X-1.133
N8345 X-7.022 Y45.082
N8350 X-10.948 Y45.078
N8355 X-13.893 Y45.072
N8360 X-15.856 Y45.064
N8365 X-16.837 Y45.059
N8370 X-17.819 Y45.053
N8375 X-18.8 Y45.045
N8380 X-19.782 Y45.036
N8385 X-20.763 Y45.025
N8390 X-21.745 Y45.012
N8395 X-22.726 Y44.996
N8400 X-23.708 Y44.977
N8405 X-24.689 Y44.954
N8410 X-25.67 Y44.927
N8415 X-26.651 Y44.895
N8420 X-27.632 Y44.858
N8425 X-28.612 Y44.814
N8430 X-29.592 Y44.762
N8435 X-30.572 Y44.702
N8440 X-31.551 Y44.633
N8445 X-32.529 Y44.552
N8450 X-33.506 Y44.459
N8455 X-34.482 Y44.352
N8460 X-35.456 Y44.229
N8465 X-36.427 Y44.088
N8470 X-37.395 Y43.926
N8475 X-38.359 Y43.741
N8480 X-39.317 Y43.528
N8485 X-40.268 Y43.284
N8490 X-41.208 Y43.003
N8495 X-42.136 Y42.682
N8500 X-43.046 Y42.315
N8505 X-43.935 Y41.898
N8510 X-44.794 Y41.424
N8515 X-45.586 Y40.906
N8520 X-46.233 Y40.405
N8525 X-46.342 Y40.306
N8530 X-46.546 Y40.076
N8535 X-46.699 Y39.809
N8540 X-46.793 Y39.517
N8545 X-46.825 Y39.211
N8550 Y35.547
N8555 G3 X-46.489 Y35.009 I0.635 J0.022 F1000.
N8560 G1 X-46.379 Y34.958
N8565 G3 X-44.902 Y35.926 I0.398 J1.004 F5000.
N8570 X-46.383 Y38.614 I-2.998 J0.099
N8575 G1 X-46.489 Y38.673 F1000.
N8580 G2 X-46.825 Y39.211 I0.299 J0.56
N8585 G1 Y40.455 F4500.
N8590 X-46.818 Y40.605
N8595 X-46.792 Y40.784
N8600 X-46.744 Y40.994
N8605 X-46.677 Y41.209
N8610 X-46.576 Y41.458
N8615 X-46.432 Y41.745
N8620 X-46.256 Y42.036
N8625 X-46.014 Y42.37
N8630 X-45.715 Y42.722
N8635 X-45.325 Y43.111
N8640 X-44.85 Y43.515
N8645 X-44.236 Y43.956
N8650 X-43.462 Y44.425
N8655 X-42.584 Y44.863
N8660 X-41.677 Y45.239
N8665 X-40.75 Y45.561
N8670 X-39.809 Y45.84
N8675 X-38.858 Y46.081
N8680 X-37.899 Y46.29
N8685 X-36.934 Y46.473
N8690 X-35.966 Y46.631
N8695 X-34.994 Y46.77
N8700 X-34.02 Y46.891
N8705 X-33.044 Y46.996
N8710 X-32.067 Y47.087
N8715 X-31.089 Y47.167
N8720 X-30.109 Y47.235
N8725 X-29.13 Y47.295
N8730 X-28.15 Y47.346
N8735 X-27.169 Y47.39
N8740 X-26.188 Y47.428
N8745 X-25.207 Y47.46
N8750 X-24.226 Y47.487
N8755 X-23.245 Y47.51
N8760 X-22.264 Y47.53
N8765 X-21.282 Y47.546
N8770 X-20.301 Y47.56
N8775 X-19.319 Y47.572
N8780 X-18.338 Y47.581
N8785 X-17.356 Y47.589
N8790 X-16.375 Y47.596
N8795 X-14.412 Y47.606
N8800 X-12.449 Y47.613
N8805 X-9.504 Y47.619
N8810 X-5.578 Y47.622
N8815 X0.311 Y47.624
N8820 X1.292
N8825 X6.2 Y47.622
N8830 X9.144 Y47.618
N8835 X12.089 Y47.612
N8840 X14.052 Y47.606
N8845 X16.015 Y47.596
N8850 X16.996 Y47.589
N8855 X17.978 Y47.581
N8860 X18.959 Y47.571
N8865 X19.941 Y47.56
N8870 X20.922 Y47.546
N8875 X21.904 Y47.53
N8880 X22.885 Y47.51
N8885 X23.866 Y47.487
N8890 X24.847 Y47.46
N8895 X25.828 Y47.429
N8900 X26.809 Y47.392
N8905 X27.79 Y47.348
N8910 X28.77 Y47.298
N8915 X29.75 Y47.241
N8920 X30.729 Y47.174
N8925 X31.708 Y47.097
N8930 X32.685 Y47.009
N8935 X33.661 Y46.908
N8940 X34.636 Y46.793
N8945 X35.609 Y46.662
N8950 X36.579 Y46.512
N8955 X37.546 Y46.342
N8960 X38.507 Y46.147
N8965 X39.463 Y45.924
N8970 X40.411 Y45.67
N8975 X41.349 Y45.379
N8980 X42.273 Y45.048
N8985 X43.179 Y44.671
N8990 X44.062 Y44.243
N8995 X44.915 Y43.758
N9000 X45.691 Y43.234
N9005 X46.323 Y42.729
N9010 X46.358 Y42.695
N9015 X46.556 Y42.467
N9020 X46.703 Y42.204
N9025 X46.794 Y41.916
N9030 X46.825 Y41.616
N9035 Y37.878
N9040 G2 X46.489 Y37.34 I-0.635 J0.022 F1000.
N9045 G1 X46.379 Y37.289
N9050 G2 X44.908 Y38.212 I-0.397 J1.001 F5000.
N9055 X46.383 Y41.019 I2.992 J0.218
N9060 G1 X46.489 Y41.078 F1000.
N9065 G3 X46.825 Y41.616 I-0.299 J0.56
N9070 G1 Y42.786 F5000.
N9075 X46.815 Y42.987
N9080 X46.791 Y43.167
N9085 X46.749 Y43.367
N9090 X46.685 Y43.58
N9095 X46.587 Y43.831
N9100 X46.452 Y44.11
N9105 X46.281 Y44.401
N9110 X46.044 Y44.738
N9115 X45.759 Y45.081
N9120 X45.376 Y45.473
N9125 X44.918 Y45.873
N9130 X44.323 Y46.313
N9135 X43.568 Y46.783
N9140 X42.696 Y47.233
N9145 X41.793 Y47.619
N9150 X40.87 Y47.951
N9155 X39.931 Y48.239
N9160 X38.982 Y48.489
N9165 X38.025 Y48.708
N9170 X37.063 Y48.898
N9175 X36.095 Y49.065
N9180 X35.125 Y49.211
N9185 X34.152 Y49.34
N9190 X33.177 Y49.452
N9195 X32.2 Y49.551
N9200 X31.222 Y49.637
N9205 X30.244 Y49.712
N9210 X29.264 Y49.777
N9215 X28.285 Y49.834
N9220 X27.304 Y49.884
N9225 X26.324 Y49.927
N9230 X25.343 Y49.963
N9235 X24.362 Y49.995
N9240 X23.381 Y50.022
N9245 X22.4 Y50.045
N9250 X21.418 Y50.065
N9255 X20.437 Y50.082
N9260 X19.455 Y50.096
N9265 X18.474 Y50.108
N9270 X17.493 Y50.118
N9275 X16.511 Y50.126
N9280 X15.53 Y50.133
N9285 X13.567 Y50.144
N9290 X11.604 Y50.151
N9295 X8.659 Y50.157
N9300 X4.733 Y50.162
N9305 X-0.175 Y50.163
N9310 X-1.156
N9315 X-6.064 Y50.162
N9320 X-9.008 Y50.158
N9325 X-11.953 Y50.152
N9330 X-13.916 Y50.146
N9335 X-15.879 Y50.136
N9340 X-16.86 Y50.129
N9345 X-17.842 Y50.122
N9350 X-18.823 Y50.112
N9355 X-19.805 Y50.101
N9360 X-20.786 Y50.087
N9365 X-21.768 Y50.071
N9370 X-22.749 Y50.052
N9375 X-23.73 Y50.029
N9380 X-24.711 Y50.002
N9385 X-25.692 Y49.971
N9390 X-26.673 Y49.935
N9395 X-27.654 Y49.892
N9400 X-28.634 Y49.843
N9405 X-29.614 Y49.786
N9410 X-30.593 Y49.72
N9415 X-31.572 Y49.645
N9420 X-32.549 Y49.558
N9425 X-33.526 Y49.459
N9430 X-34.501 Y49.345
N9435 X-35.474 Y49.216
N9440 X-36.444 Y49.069
N9445 X-37.411 Y48.901
N9450 X-38.374 Y48.71
N9455 X-39.331 Y48.491
N9460 X-40.28 Y48.242
N9465 X-41.219 Y47.956
N9470 X-42.145 Y47.631
N9475 X-43.054 Y47.26
N9480 X-43.941 Y46.839
N9485 X-44.798 Y46.362
N9490 X-45.591 Y45.84
N9495 X-46.244 Y45.33
N9500 X-46.346 Y45.236
N9505 X-46.549 Y45.007
N9510 X-46.7 Y44.741
N9515 X-46.793 Y44.45
N9520 X-46.825 Y44.145
N9525 Y40.455
N9530 G3 X-46.489 Y39.917 I0.635 J0.022 F1000.
N9535 G1 X-46.379 Y39.866
N9540 G3 X-44.904 Y40.818 I0.398 J1.003 F5000.
N9545 X-46.383 Y43.548 I-2.997 J0.142
N9550 G1 X-46.489 Y43.607 F1000.
N9555 G2 X-46.825 Y44.145 I0.299 J0.56
N9560 G1 Y45.362 F4500.
N9565 X-46.817 Y45.519
N9570 X-46.794 Y45.694
N9575 X-46.75 Y45.902
N9580 X-46.686 Y46.115
N9585 X-46.59 Y46.36
N9590 X-46.452 Y46.645
N9595 X-46.282 Y46.934
N9600 X-46.05 Y47.264
N9605 X-45.757 Y47.617
N9610 X-45.382 Y48.002
N9615 X-44.917 Y48.407
N9620 X-44.317 Y48.851
N9625 X-43.561 Y49.321
N9630 X-42.689 Y49.772
N9635 X-41.786 Y50.157
N9640 X-40.863 Y50.489
N9645 X-39.924 Y50.776
N9650 X-38.975 Y51.026
N9655 X-38.018 Y51.244
N9660 X-37.055 Y51.434
N9665 X-36.088 Y51.601
N9670 X-35.117 Y51.747
N9675 X-34.144 Y51.876
N9680 X-33.169 Y51.988
N9685 X-32.193 Y52.087
N9690 X-31.215 Y52.173
N9695 X-30.236 Y52.249
N9700 X-29.257 Y52.315
N9705 X-28.277 Y52.372
N9710 X-27.297 Y52.422
N9715 X-26.316 Y52.464
N9720 X-25.336 Y52.501
N9725 X-24.355 Y52.533
N9730 X-23.373 Y52.561
N9735 X-22.392 Y52.584
N9740 X-21.411 Y52.604
N9745 X-20.43 Y52.621
N9750 X-19.448 Y52.635
N9755 X-18.467 Y52.647
N9760 X-17.485 Y52.657
N9765 X-16.504 Y52.665
N9770 X-15.522 Y52.673
N9775 X-14.541 Y52.678
N9780 X-12.578 Y52.687
N9785 X-10.615 Y52.693
N9790 X-7.67 Y52.699
N9795 X-3.744 Y52.702
N9800 X1.163 Y52.703
N9805 X6.071 Y52.7
N9810 X9.016 Y52.696
N9815 X10.979 Y52.691
N9820 X12.942 Y52.684
N9825 X14.905 Y52.674
N9830 X15.886 Y52.667
N9835 X16.868 Y52.659
N9840 X17.849 Y52.649
N9845 X18.831 Y52.638
N9850 X19.812 Y52.624
N9855 X20.793 Y52.608
N9860 X21.775 Y52.59
N9865 X22.756 Y52.567
N9870 X23.737 Y52.542
N9875 X24.718 Y52.512
N9880 X25.699 Y52.477
N9885 X26.68 Y52.436
N9890 X27.66 Y52.39
N9895 X28.64 Y52.336
N9900 X29.62 Y52.274
N9905 X30.599 Y52.204
N9910 X31.577 Y52.123
N9915 X32.554 Y52.032
N9920 X33.53 Y51.928
N9925 X34.505 Y51.81
N9930 X35.477 Y51.676
N9935 X36.447 Y51.523
N9940 X37.413 Y51.351
N9945 X38.374 Y51.154
N9950 X39.33 Y50.931
N9955 X40.278 Y50.677
N9960 X41.216 Y50.388
N9965 X42.141 Y50.06
N9970 X43.05 Y49.688
N9975 X43.936 Y49.266
N9980 X44.793 Y48.787
N9985 X45.58 Y48.266
N9990 X46.245 Y47.745
N9995 X46.348 Y47.649
N10000 X46.55 Y47.42
N10005 X46.701 Y47.155
N10010 X46.794 Y46.864
N10015 X46.825 Y46.56
N10020 Y42.786
N10025 G2 X46.489 Y42.248 I-0.635 J0.022 F1000.
N10030 G1 X46.379 Y42.197
N10035 G2 X44.913 Y43.096 I-0.396 J0.999 F5000.
N10040 X46.383 Y45.963 I2.987 J0.278
N10045 G1 X46.489 Y46.022 F1000.
N10050 G3 X46.825 Y46.56 I-0.299 J0.56
N10055 G1 Y47.816 F5000.
N10060 X46.818 Y47.966
N10065 X46.791 Y48.148
N10070 X46.742 Y48.36
N10075 X46.674 Y48.578
N10080 X46.571 Y48.831
N10085 X46.425 Y49.121
N10090 X46.246 Y49.415
N10095 X45.999 Y49.756
N10100 X45.696 Y50.11
N10105 X45.297 Y50.507
N10110 X44.814 Y50.916
N10115 X44.188 Y51.366
N10120 X43.391 Y51.845
N10125 X42.513 Y52.283
N10130 X41.606 Y52.659
N10135 X40.68 Y52.985
N10140 X39.741 Y53.268
N10145 X38.791 Y53.516
N10150 X37.834 Y53.733
N10155 X36.871 Y53.923
N10160 X35.904 Y54.091
N10165 X34.933 Y54.238
N10170 X33.96 Y54.368
N10175 X32.986 Y54.482
N10180 X32.009 Y54.583
N10185 X31.032 Y54.672
N10190 X30.053 Y54.75
N10195 X29.074 Y54.818
N10200 X28.094 Y54.878
N10205 X27.114 Y54.93
N10210 X26.134 Y54.976
N10215 X25.153 Y55.015
N10220 X24.172 Y55.05
N10225 X23.191 Y55.079
N10230 X22.21 Y55.105
N10235 X21.229 Y55.127
N10240 X20.247 Y55.146
N10245 X19.266 Y55.162
N10250 X18.285 Y55.175
N10255 X17.303 Y55.187
N10260 X16.322 Y55.197
N10265 X15.34 Y55.205
N10270 X14.359 Y55.212
N10275 X12.396 Y55.223
N10280 X10.433 Y55.23
N10285 X7.488 Y55.237
N10290 X4.544 Y55.24
N10295 X-0.364 Y55.242
N10300 X-1.345
N10305 X-5.272 Y55.241
N10310 X-8.216 Y55.237
N10315 X-11.161 Y55.23
N10320 X-13.124 Y55.223
N10325 X-15.087 Y55.212
N10330 X-16.068 Y55.205
N10335 X-17.05 Y55.197
N10340 X-18.031 Y55.187
N10345 X-19.013 Y55.175
N10350 X-19.994 Y55.161
N10355 X-20.975 Y55.144
N10360 X-21.957 Y55.124
N10365 X-22.938 Y55.101
N10370 X-23.919 Y55.075
N10375 X-24.9 Y55.043
N10380 X-25.881 Y55.007
N10385 X-26.862 Y54.965
N10390 X-27.842 Y54.917
N10395 X-28.822 Y54.862
N10400 X-29.801 Y54.798
N10405 X-30.78 Y54.726
N10410 X-31.758 Y54.643
N10415 X-32.735 Y54.549
N10420 X-33.711 Y54.442
N10425 X-34.685 Y54.32
N10430 X-35.657 Y54.183
N10435 X-36.626 Y54.027
N10440 X-37.591 Y53.85
N10445 X-38.552 Y53.65
N10450 X-39.507 Y53.422
N10455 X-40.453 Y53.163
N10460 X-41.389 Y52.867
N10465 X-42.311 Y52.53
N10470 X-43.215 Y52.147
N10475 X-44.096 Y51.714
N10480 X-44.946 Y51.224
N10485 X-45.719 Y50.696
N10490 X-46.347 Y50.189
N10495 X-46.363 Y50.173
N10500 X-46.559 Y49.946
N10505 X-46.705 Y49.684
N10510 X-46.795 Y49.397
N10515 X-46.825 Y49.099
N10520 Y45.362
N10525 G3 X-46.489 Y44.824 I0.635 J0.022 F1000.
N10530 G1 X-46.379 Y44.773
N10535 G3 X-44.908 Y45.697 I0.397 J1.001 F5000.
N10540 X-46.383 Y48.502 I-2.992 J0.216
N10545 G1 X-46.489 Y48.561 F1000.
N10550 G2 X-46.825 Y49.099 I0.299 J0.56
N10555 G1 Y50.37 F4500.
N10560 X-46.818 Y50.52
N10565 X-46.787 Y50.712
N10570 X-46.739 Y50.911
N10575 X-46.665 Y51.139
N10580 X-46.553 Y51.406
N10585 X-46.409 Y51.683
N10590 X-46.217 Y51.992
N10595 X-45.961 Y52.337
N10600 X-45.647 Y52.696
N10605 X-45.238 Y53.095
N10610 X-44.724 Y53.521
N10615 X-44.087 Y53.967
N10620 X-43.267 Y54.449
N10625 X-42.383 Y54.876
N10630 X-41.473 Y55.244
N10635 X-40.545 Y55.563
N10640 X-39.604 Y55.84
N10645 X-38.652 Y56.082
N10650 X-37.694 Y56.295
N10655 X-36.731 Y56.482
N10660 X-35.763 Y56.646
N10665 X-34.792 Y56.791
N10670 X-33.819 Y56.919
N10675 X-32.844 Y57.032
N10680 X-31.868 Y57.132
N10685 X-30.89 Y57.219
N10690 X-29.912 Y57.296
N10695 X-28.932 Y57.364
N10700 X-27.953 Y57.423
N10705 X-26.972 Y57.475
N10710 X-25.992 Y57.519
N10715 X-25.011 Y57.559
N10720 X-24.03 Y57.592
N10725 X-23.049 Y57.622
N10730 X-22.068 Y57.647
N10735 X-21.087 Y57.669
N10740 X-20.105 Y57.687
N10745 X-19.124 Y57.703
N10750 X-18.143 Y57.716
N10755 X-17.161 Y57.728
N10760 X-16.18 Y57.737
N10765 X-15.198 Y57.746
N10770 X-14.217 Y57.752
N10775 X-12.254 Y57.763
N10780 X-10.291 Y57.77
N10785 X-7.346 Y57.777
N10790 X-4.402 Y57.78
N10795 X-0.476 Y57.782
N10800 X1.487 Y57.781
N10805 X5.413 Y57.779
N10810 X8.358 Y57.774
N10815 X10.321 Y57.769
N10820 X12.284 Y57.761
N10825 X13.266 Y57.756
N10830 X14.247 Y57.75
N10835 X15.229 Y57.742
N10840 X16.21 Y57.734
N10845 X17.191 Y57.723
N10850 X18.173 Y57.711
N10855 X19.154 Y57.697
N10860 X20.136 Y57.68
N10865 X21.117 Y57.661
N10870 X22.098 Y57.638
N10875 X23.079 Y57.612
N10880 X24.061 Y57.582
N10885 X25.041 Y57.547
N10890 X26.022 Y57.506
N10895 X27.002 Y57.46
N10900 X27.983 Y57.407
N10905 X28.962 Y57.346
N10910 X29.941 Y57.278
N10915 X30.92 Y57.2
N10920 X31.897 Y57.111
N10925 X32.874 Y57.011
N10930 X33.849 Y56.897
N10935 X34.822 Y56.769
N10940 X35.792 Y56.624
N10945 X36.76 Y56.461
N10950 X37.724 Y56.276
N10955 X38.683 Y56.067
N10960 X39.636 Y55.832
N10965 X40.581 Y55.566
N10970 X41.515 Y55.264
N10975 X42.434 Y54.919
N10980 X43.334 Y54.527
N10985 X44.209 Y54.084
N10990 X45.054 Y53.584
N10995 X45.791 Y53.071
N11000 X46.285 Y52.663
N11005 X46.513 Y52.43
N11010 X46.683 Y52.152
N11015 X46.789 Y51.844
N11020 X46.825 Y51.52
N11025 Y47.816
N11030 G2 X46.489 Y47.278 I-0.635 J0.022 F1000.
N11035 G1 X46.379 Y47.227
N11040 G2 X44.905 Y48.171 I-0.398 J1.003 F5000.
N11045 X46.383 Y50.923 I2.996 J0.163
N11050 G1 X46.489 Y50.982 F1000.
N11055 G3 X46.825 Y51.52 I-0.299 J0.56
N11060 G1 Y52.724 F5000.
N11065 X46.816 Y52.902
N11070 X46.792 Y53.086
N11075 X46.752 Y53.275
N11080 X46.685 Y53.497
N11085 X46.584 Y53.757
N11090 X46.454 Y54.025
N11095 X46.275 Y54.328
N11100 X46.039 Y54.665
N11105 X45.746 Y55.017
N11110 X45.363 Y55.41
N11115 X44.887 Y55.825
N11120 X44.293 Y56.265
N11125 X43.53 Y56.739
N11130 X42.658 Y57.189
N11135 X41.756 Y57.577
N11140 X40.834 Y57.912
N11145 X39.897 Y58.205
N11150 X38.949 Y58.461
N11155 X37.994 Y58.686
N11160 X37.033 Y58.885
N11165 X36.067 Y59.061
N11170 X35.098 Y59.216
N11175 X34.126 Y59.353
N11180 X33.152 Y59.475
N11185 X32.177 Y59.582
N11190 X31.2 Y59.678
N11195 X30.222 Y59.762
N11200 X29.243 Y59.836
N11205 X28.264 Y59.902
N11210 X27.284 Y59.959
N11215 X26.304 Y60.01
N11220 X25.323 Y60.054
N11225 X24.343 Y60.092
N11230 X23.362 Y60.126
N11235 X22.381 Y60.155
N11240 X21.399 Y60.181
N11245 X20.418 Y60.202
N11250 X19.437 Y60.221
N11255 X18.455 Y60.238
N11260 X17.474 Y60.251
N11265 X16.492 Y60.263
N11270 X15.511 Y60.273
N11275 X14.53 Y60.282
N11280 X13.548 Y60.289
N11285 X11.585 Y60.3
N11290 X9.622 Y60.308
N11295 X6.678 Y60.315
N11300 X3.733 Y60.319
N11305 X-0.193 Y60.321
N11310 X-1.175
N11315 X-5.101 Y60.319
N11320 X-8.045 Y60.314
N11325 X-10.008 Y60.309
N11330 X-11.971 Y60.302
N11335 X-13.934 Y60.291
N11340 X-14.916 Y60.284
N11345 X-15.897 Y60.276
N11350 X-16.879 Y60.266
N11355 X-17.86 Y60.254
N11360 X-18.842 Y60.241
N11365 X-19.823 Y60.225
N11370 X-20.804 Y60.206
N11375 X-21.786 Y60.184
N11380 X-22.767 Y60.159
N11385 X-23.748 Y60.13
N11390 X-24.729 Y60.096
N11395 X-25.709 Y60.057
N11400 X-26.69 Y60.012
N11405 X-27.67 Y59.961
N11410 X-28.65 Y59.903
N11415 X-29.629 Y59.836
N11420 X-30.608 Y59.761
N11425 X-31.586 Y59.675
N11430 X-32.562 Y59.578
N11435 X-33.538 Y59.469
N11440 X-34.511 Y59.345
N11445 X-35.483 Y59.206
N11450 X-36.452 Y59.048
N11455 X-37.417 Y58.871
N11460 X-38.378 Y58.671
N11465 X-39.333 Y58.445
N11470 X-40.281 Y58.19
N11475 X-41.218 Y57.899
N11480 X-42.142 Y57.567
N11485 X-43.049 Y57.191
N11490 X-43.933 Y56.765
N11495 X-44.789 Y56.284
N11500 X-45.59 Y55.753
N11505 X-46.238 Y55.245
N11510 X-46.348 Y55.144
N11515 X-46.55 Y54.915
N11520 X-46.701 Y54.649
N11525 X-46.794 Y54.359
N11530 X-46.825 Y54.055
N11535 Y50.37
N11540 G3 X-46.489 Y49.832 I0.635 J0.022 F1000.
N11545 G1 X-46.379 Y49.781
N11550 G3 X-44.903 Y50.737 I0.398 J1.003 F5000.
N11555 X-46.383 Y53.458 I-2.997 J0.133
N11560 G1 X-46.489 Y53.517 F1000.
N11565 G2 X-46.825 Y54.055 I0.299 J0.56
N11570 G1 Y55.278 F4500.
N11575 X-46.817 Y55.433
N11580 X-46.794 Y55.609
N11585 X-46.749 Y55.818
N11590 X-46.685 Y56.033
N11595 X-46.589 Y56.281
N11600 X-46.449 Y56.569
N11605 X-46.277 Y56.861
N11610 X-46.042 Y57.196
N11615 X-45.746 Y57.552
N11620 X-45.363 Y57.944
N11625 X-44.893 Y58.354
N11630 X-44.286 Y58.804
N11635 X-43.518 Y59.281
N11640 X-42.646 Y59.731
N11645 X-41.744 Y60.118
N11650 X-40.821 Y60.453
N11655 X-39.884 Y60.745
N11660 X-38.937 Y61.
N11665 X-37.981 Y61.225
N11670 X-37.02 Y61.422
N11675 X-36.054 Y61.597
N11680 X-35.085 Y61.752
N11685 X-34.113 Y61.889
N11690 X-33.139 Y62.011
N11695 X-32.163 Y62.118
N11700 X-31.186 Y62.214
N11705 X-30.208 Y62.298
N11710 X-29.23 Y62.373
N11715 X-28.25 Y62.438
N11720 X-27.271 Y62.496
N11725 X-26.29 Y62.547
N11730 X-25.31 Y62.591
N11735 X-24.329 Y62.63
N11740 X-23.348 Y62.664
N11745 X-22.367 Y62.694
N11750 X-21.386 Y62.719
N11755 X-20.405 Y62.741
N11760 X-19.423 Y62.76
N11765 X-18.442 Y62.776
N11770 X-17.461 Y62.79
N11775 X-16.479 Y62.802
N11780 X-15.498 Y62.813
N11785 X-14.516 Y62.821
N11790 X-13.535 Y62.828
N11795 X-11.572 Y62.84
N11800 X-9.609 Y62.848
N11805 X-7.646 Y62.853
N11810 X-4.701 Y62.858
N11815 X-0.775 Y62.86
N11820 X1.188
N11825 X4.133 Y62.858
N11830 X7.077 Y62.853
N11835 X9.04 Y62.848
N11840 X11.003 Y62.841
N11845 X12.966 Y62.83
N11850 X13.948 Y62.823
N11855 X14.929 Y62.814
N11860 X15.911 Y62.805
N11865 X16.892 Y62.793
N11870 X17.873 Y62.78
N11875 X18.855 Y62.764
N11880 X19.836 Y62.746
N11885 X20.817 Y62.725
N11890 X21.799 Y62.701
N11895 X22.78 Y62.673
N11900 X23.761 Y62.641
N11905 X24.742 Y62.604
N11910 X25.722 Y62.562
N11915 X26.703 Y62.514
N11920 X27.683 Y62.459
N11925 X28.662 Y62.397
N11930 X29.641 Y62.327
N11935 X30.619 Y62.248
N11940 X31.597 Y62.158
N11945 X32.573 Y62.058
N11950 X33.548 Y61.944
N11955 X34.521 Y61.817
N11960 X35.492 Y61.673
N11965 X36.461 Y61.512
N11970 X37.425 Y61.331
N11975 X38.385 Y61.126
N11980 X39.339 Y60.896
N11985 X40.285 Y60.635
N11990 X41.222 Y60.341
N11995 X42.145 Y60.008
N12000 X43.052 Y59.631
N12005 X43.936 Y59.206
N12010 X44.791 Y58.724
N12015 X45.583 Y58.196
N12020 X46.251 Y57.67
N12025 X46.351 Y57.576
N12030 X46.552 Y57.348
N12035 X46.701 Y57.083
N12040 X46.794 Y56.793
N12045 X46.825 Y56.49
N12050 Y52.724
N12055 G2 X46.489 Y52.185 I-0.635 J0.022 F1000.
N12060 G1 X46.379 Y52.135
N12065 G2 X44.912 Y53.039 I-0.396 J1. F5000.
N12070 X46.383 Y55.893 I2.988 J0.266
N12075 G1 X46.489 Y55.952 F1000.
N12080 G3 X46.825 Y56.49 I-0.299 J0.56
N12085 G1 Y57.732 F5000.
N12090 X46.818 Y57.881
N12095 X46.793 Y58.061
N12100 X46.747 Y58.272
N12105 X46.681 Y58.488
N12110 X46.582 Y58.739
N12115 X46.44 Y59.028
N12120 X46.265 Y59.322
N12125 X46.025 Y59.66
N12130 X45.727 Y60.016
N12135 X45.337 Y60.411
N12140 X44.86 Y60.823
N12145 X44.241 Y61.277
N12150 X43.453 Y61.761
N12155 X42.579 Y62.207
N12160 X41.676 Y62.592
N12165 X40.753 Y62.926
N12170 X39.816 Y63.218
N12175 X38.869 Y63.475
N12180 X37.914 Y63.701
N12185 X36.953 Y63.901
N12190 X35.987 Y64.078
N12195 X35.018 Y64.235
N12200 X34.047 Y64.374
N12205 X33.073 Y64.498
N12210 X32.098 Y64.609
N12215 X31.121 Y64.707
N12220 X30.144 Y64.794
N12225 X29.165 Y64.871
N12230 X28.186 Y64.94
N12235 X27.206 Y65.
N12240 X26.226 Y65.054
N12245 X25.246 Y65.101
N12250 X24.265 Y65.142
N12255 X23.284 Y65.179
N12260 X22.303 Y65.211
N12265 X21.322 Y65.238
N12270 X20.341 Y65.262
N12275 X19.36 Y65.283
N12280 X18.378 Y65.302
N12285 X17.397 Y65.317
N12290 X16.416 Y65.331
N12295 X15.434 Y65.342
N12300 X14.453 Y65.352
N12305 X13.471 Y65.361
N12310 X12.49 Y65.368
N12315 X10.527 Y65.379
N12320 X8.564 Y65.387
N12325 X6.601 Y65.392
N12330 X3.656 Y65.397
N12335 X0.712 Y65.399
N12340 X-1.251
N12345 X-4.196 Y65.397
N12350 X-7.14 Y65.393
N12355 X-9.103 Y65.388
N12360 X-11.067 Y65.38
N12365 X-13.03 Y65.369
N12370 X-14.011 Y65.362
N12375 X-14.992 Y65.353
N12380 X-15.974 Y65.343
N12385 X-16.955 Y65.331
N12390 X-17.937 Y65.318
N12395 X-18.918 Y65.302
N12400 X-19.9 Y65.283
N12405 X-20.881 Y65.262
N12410 X-21.862 Y65.237
N12415 X-22.843 Y65.209
N12420 X-23.824 Y65.176
N12425 X-24.805 Y65.138
N12430 X-25.785 Y65.096
N12435 X-26.766 Y65.047
N12440 X-27.746 Y64.991
N12445 X-28.725 Y64.929
N12450 X-29.704 Y64.858
N12455 X-30.682 Y64.777
N12460 X-31.66 Y64.687
N12465 X-32.636 Y64.585
N12470 X-33.611 Y64.471
N12475 X-34.584 Y64.342
N12480 X-35.555 Y64.198
N12485 X-36.523 Y64.036
N12490 X-37.487 Y63.854
N12495 X-38.447 Y63.648
N12500 X-39.401 Y63.416
N12505 X-40.347 Y63.154
N12510 X-41.282 Y62.857
N12515 X-42.204 Y62.521
N12520 X-43.109 Y62.141
N12525 X-43.991 Y61.711
N12530 X-44.844 Y61.225
N12535 X-45.633 Y60.694
N12540 X-46.288 Y60.172
N12545 X-46.357 Y60.107
N12550 X-46.555 Y59.879
N12555 X-46.703 Y59.615
N12560 X-46.794 Y59.327
N12565 X-46.825 Y59.026
N12570 Y55.278
N12575 G3 X-46.489 Y54.74 I0.635 J0.022 F1000.
N12580 G1 X-46.379 Y54.689
N12585 G3 X-44.91 Y55.605 I0.397 J1.001 F5000.
N12590 X-46.383 Y58.429 I-2.991 J0.236
N12595 G1 X-46.489 Y58.488 F1000.
N12600 G2 X-46.825 Y59.026 I0.299 J0.56
N12605 G1 Y60.185 F4500.
N12610 X-46.814 Y60.408
N12615 X-46.79 Y60.587
N12620 X-46.746 Y60.795
N12625 X-46.682 Y61.009
N12630 X-46.584 Y61.26
N12635 X-46.445 Y61.546
N12640 X-46.273 Y61.838
N12645 X-46.035 Y62.177
N12650 X-45.742 Y62.53
N12655 X-45.355 Y62.927
N12660 X-44.886 Y63.336
N12665 X-44.277 Y63.787
N12670 X-43.501 Y64.269
N12675 X-42.629 Y64.719
N12680 X-41.728 Y65.107
N12685 X-40.806 Y65.444
N12690 X-39.869 Y65.739
N12695 X-38.922 Y65.997
N12700 X-37.968 Y66.224
N12705 X-37.007 Y66.425
N12710 X-36.042 Y66.603
N12715 X-35.073 Y66.761
N12720 X-34.102 Y66.902
N12725 X-33.128 Y67.027
N12730 X-32.153 Y67.138
N12735 X-31.176 Y67.237
N12740 X-30.199 Y67.325
N12745 X-29.22 Y67.403
N12750 X-28.241 Y67.472
N12755 X-27.262 Y67.533
N12760 X-26.282 Y67.588
N12765 X-25.301 Y67.635
N12770 X-24.321 Y67.677
N12775 X-23.34 Y67.714
N12780 X-22.359 Y67.747
N12785 X-21.378 Y67.775
N12790 X-20.397 Y67.799
N12795 X-19.415 Y67.821
N12800 X-18.434 Y67.839
N12805 X-17.453 Y67.855
N12810 X-16.471 Y67.869
N12815 X-15.49 Y67.881
N12820 X-14.508 Y67.891
N12825 X-13.527 Y67.899
N12830 X-12.545 Y67.907
N12835 X-10.582 Y67.918
N12840 X-8.619 Y67.926
N12845 X-6.656 Y67.932
N12850 X-3.712 Y67.936
N12855 X-0.767 Y67.938
N12860 X1.196
N12865 X4.14 Y67.935
N12870 X7.085 Y67.93
N12875 X9.048 Y67.923
N12880 X11.011 Y67.914
N12885 X11.992 Y67.908
N12890 X12.974 Y67.901
N12895 X13.955 Y67.893
N12900 X14.937 Y67.883
N12905 X15.918 Y67.872
N12910 X16.9 Y67.859
N12915 X17.881 Y67.843
N12920 X18.862 Y67.826
N12925 X19.844 Y67.805
N12930 X20.825 Y67.782
N12935 X21.806 Y67.755
N12940 X22.787 Y67.724
N12945 X23.768 Y67.689
N12950 X24.749 Y67.649
N12955 X25.729 Y67.604
N12960 X26.709 Y67.552
N12965 X27.689 Y67.494
N12970 X28.669 Y67.428
N12975 X29.647 Y67.355
N12980 X30.625 Y67.272
N12985 X31.602 Y67.179
N12990 X32.578 Y67.074
N12995 X33.553 Y66.957
N13000 X34.526 Y66.826
N13005 X35.496 Y66.679
N13010 X36.464 Y66.515
N13015 X37.428 Y66.331
N13020 X38.387 Y66.124
N13025 X39.341 Y65.89
N13030 X40.286 Y65.627
N13035 X41.221 Y65.33
N13040 X42.144 Y64.994
N13045 X43.049 Y64.615
N13050 X43.933 Y64.187
N13055 X44.787 Y63.705
N13060 X45.585 Y63.173
N13065 X46.251 Y62.647
N13070 X46.352 Y62.554
N13075 X46.552 Y62.325
N13080 X46.702 Y62.061
N13085 X46.794 Y61.771
N13090 X46.825 Y61.468
N13095 Y57.732
N13100 G2 X46.489 Y57.193 I-0.635 J0.022 F1000.
N13105 G1 X46.379 Y57.142
N13110 G2 X44.908 Y58.066 I-0.397 J1.001 F5000.
N13115 X46.383 Y60.871 I2.992 J0.217
N13120 G1 X46.489 Y60.93 F1000.
N13125 G3 X46.825 Y61.468 I-0.299 J0.56
N13130 G1 Y62.639 F5000.
N13135 X46.814 Y62.852
N13140 X46.791 Y63.029
N13145 X46.746 Y63.24
N13150 X46.682 Y63.455
N13155 X46.585 Y63.704
N13160 X46.445 Y63.993
N13165 X46.272 Y64.286
N13170 X46.035 Y64.623
N13175 X45.739 Y64.98
N13180 X45.353 Y65.375
N13185 X44.879 Y65.789
N13190 X44.263 Y66.244
N13195 X43.481 Y66.731
N13200 X42.609 Y67.181
N13205 X41.708 Y67.57
N13210 X40.787 Y67.908
N13215 X39.851 Y68.204
N13220 X38.904 Y68.464
N13225 X37.95 Y68.694
N13230 X36.99 Y68.897
N13235 X36.025 Y69.078
N13240 X35.057 Y69.239
N13245 X34.086 Y69.382
N13250 X33.113 Y69.51
N13255 X32.138 Y69.624
N13260 X31.162 Y69.726
N13265 X30.184 Y69.817
N13270 X29.206 Y69.899
N13275 X28.227 Y69.971
N13280 X27.248 Y70.035
N13285 X26.268 Y70.092
N13290 X25.288 Y70.143
N13295 X24.307 Y70.187
N13300 X23.327 Y70.227
N13305 X22.346 Y70.262
N13310 X21.365 Y70.292
N13315 X20.384 Y70.319
N13320 X19.402 Y70.342
N13325 X18.421 Y70.363
N13330 X17.44 Y70.38
N13335 X16.458 Y70.396
N13340 X15.477 Y70.409
N13345 X14.496 Y70.421
N13350 X13.514 Y70.43
N13355 X12.533 Y70.439
N13360 X11.551 Y70.446
N13365 X9.588 Y70.457
N13370 X7.625 Y70.465
N13375 X5.662 Y70.471
N13380 X2.718 Y70.476
N13385 X-0.227 Y70.477
N13390 X-1.209
N13395 X-4.153 Y70.475
N13400 X-7.098 Y70.469
N13405 X-9.061 Y70.463
N13410 X-11.024 Y70.453
N13415 X-12.005 Y70.447
N13420 X-12.987 Y70.44
N13425 X-13.968 Y70.432
N13430 X-14.95 Y70.422
N13435 X-15.931 Y70.411
N13440 X-16.912 Y70.397
N13445 X-17.894 Y70.382
N13450 X-18.875 Y70.364
N13455 X-19.857 Y70.343
N13460 X-20.838 Y70.32
N13465 X-21.819 Y70.292
N13470 X-22.8 Y70.261
N13475 X-23.781 Y70.226
N13480 X-24.761 Y70.185
N13485 X-25.742 Y70.14
N13490 X-26.722 Y70.088
N13495 X-27.702 Y70.029
N13500 X-28.681 Y69.964
N13505 X-29.66 Y69.889
N13510 X-30.638 Y69.806
N13515 X-31.615 Y69.713
N13520 X-32.591 Y69.608
N13525 X-33.565 Y69.491
N13530 X-34.538 Y69.359
N13535 X-35.508 Y69.213
N13540 X-36.476 Y69.048
N13545 X-37.44 Y68.864
N13550 X-38.399 Y68.656
N13555 X-39.353 Y68.422
N13560 X-40.298 Y68.159
N13565 X-41.233 Y67.861
N13570 X-42.156 Y67.525
N13575 X-43.061 Y67.145
N13580 X-43.944 Y66.717
N13585 X-44.798 Y66.234
N13590 X-45.592 Y65.702
N13595 X-46.258 Y65.175
N13600 X-46.353 Y65.086
N13605 X-46.553 Y64.858
N13610 X-46.702 Y64.593
N13615 X-46.794 Y64.304
N13620 X-46.825 Y64.002
N13625 Y60.185
N13630 G3 X-46.489 Y59.647 I0.635 J0.022 F1000.
N13635 G1 X-46.379 Y59.596
N13640 G3 X-44.921 Y60.468 I0.394 J0.997 F5000.
N13645 X-46.383 Y63.405 I-2.98 J0.348
N13650 G1 X-46.489 Y63.464 F1000.
N13655 G2 X-46.825 Y64.002 I0.299 J0.56
N13660 G1 Y65.215 F4500.
N13665 X-46.816 Y65.386
N13670 X-46.793 Y65.564
N13675 X-46.748 Y65.774
N13680 X-46.684 Y65.99
N13685 X-46.586 Y66.239
N13690 X-46.446 Y66.528
N13695 X-46.274 Y66.821
N13700 X-46.037 Y67.158
N13705 X-45.741 Y67.515
N13710 X-45.355 Y67.91
N13715 X-44.881 Y68.324
N13720 X-44.266 Y68.779
N13725 X-43.484 Y69.265
N13730 X-42.612 Y69.715
N13735 X-41.711 Y70.104
N13740 X-40.789 Y70.442
N13745 X-39.854 Y70.739
N13750 X-38.907 Y70.999
N13755 X-37.953 Y71.229
N13760 X-36.993 Y71.432
N13765 X-36.028 Y71.613
N13770 X-35.06 Y71.773
N13775 X-34.089 Y71.917
N13780 X-33.116 Y72.045
N13785 X-32.141 Y72.159
N13790 X-31.165 Y72.262
N13795 X-30.187 Y72.353
N13800 X-29.209 Y72.434
N13805 X-28.23 Y72.507
N13810 X-27.251 Y72.571
N13815 X-26.271 Y72.629
N13820 X-25.291 Y72.679
N13825 X-24.311 Y72.724
N13830 X-23.33 Y72.764
N13835 X-22.349 Y72.799
N13840 X-21.368 Y72.83
N13845 X-20.387 Y72.857
N13850 X-19.406 Y72.881
N13855 X-18.424 Y72.901
N13860 X-17.443 Y72.919
N13865 X-16.462 Y72.935
N13870 X-15.48 Y72.948
N13875 X-14.499 Y72.96
N13880 X-13.517 Y72.97
N13885 X-12.536 Y72.978
N13890 X-11.554 Y72.985
N13895 X-9.591 Y72.997
N13900 X-7.628 Y73.005
N13905 X-5.665 Y73.01
N13910 X-2.721 Y73.015
N13915 X0.224 Y73.016
N13920 X1.205 Y73.015
N13925 X4.15 Y73.012
N13930 X6.113 Y73.008
N13935 X8.076 Y73.002
N13940 X10.039 Y72.992
N13945 X11.021 Y72.987
N13950 X12.002 Y72.98
N13955 X12.983 Y72.971
N13960 X13.965 Y72.962
N13965 X14.946 Y72.951
N13970 X15.928 Y72.938
N13975 X16.909 Y72.923
N13980 X17.891 Y72.906
N13985 X18.872 Y72.886
N13990 X19.853 Y72.863
N13995 X20.834 Y72.837
N14000 X21.815 Y72.808
N14005 X22.796 Y72.775
N14010 X23.777 Y72.737
N14015 X24.758 Y72.694
N14020 X25.738 Y72.645
N14025 X26.718 Y72.591
N14030 X27.698 Y72.529
N14035 X28.677 Y72.46
N14040 X29.655 Y72.383
N14045 X30.633 Y72.297
N14050 X31.61 Y72.201
N14055 X32.585 Y72.093
N14060 X33.559 Y71.973
N14065 X34.532 Y71.839
N14070 X35.502 Y71.689
N14075 X36.469 Y71.522
N14080 X37.432 Y71.335
N14085 X38.391 Y71.125
N14090 X39.344 Y70.888
N14095 X40.289 Y70.623
N14100 X41.223 Y70.323
N14105 X42.145 Y69.986
N14110 X43.05 Y69.605
N14115 X43.933 Y69.176
N14120 X44.786 Y68.692
N14125 X45.583 Y68.159
N14130 X46.253 Y67.628
N14135 X46.353 Y67.535
N14140 X46.553 Y67.306
N14145 X46.702 Y67.042
N14150 X46.794 Y66.753
N14155 X46.825 Y66.451
N14160 Y62.639
N14165 G2 X46.489 Y62.101 I-0.635 J0.022 F1000.
N14170 G1 X46.379 Y62.05
N14175 G2 X44.92 Y62.925 I-0.394 J0.997 F5000.
N14180 X46.383 Y65.854 I2.981 J0.34
N14185 G1 X46.489 Y65.913 F1000.
N14190 G3 X46.825 Y66.451 I-0.299 J0.56
N14195 G1 Y67.669 F5000.
N14200 X46.817 Y67.836
N14205 X46.793 Y68.014
N14210 X46.748 Y68.225
N14215 X46.683 Y68.441
N14220 X46.586 Y68.691
N14225 X46.446 Y68.981
N14230 X46.272 Y69.275
N14235 X46.035 Y69.613
N14240 X45.737 Y69.971
N14245 X45.35 Y70.369
N14250 X44.873 Y70.784
N14255 X44.255 Y71.242
N14260 X43.468 Y71.732
N14265 X42.596 Y72.182
N14270 X41.695 Y72.571
N14275 X40.774 Y72.911
N14280 X39.838 Y73.208
N14285 X38.892 Y73.47
N14290 X37.939 Y73.702
N14295 X36.979 Y73.907
N14300 X36.015 Y74.09
N14305 X35.047 Y74.254
N14310 X34.076 Y74.4
N14315 X33.103 Y74.531
N14320 X32.129 Y74.648
N14325 X31.153 Y74.753
N14330 X30.176 Y74.847
N14335 X29.198 Y74.931
N14340 X28.219 Y75.006
N14345 X27.24 Y75.073
N14350 X26.261 Y75.133
N14355 X25.281 Y75.187
N14360 X24.3 Y75.234
N14365 X23.32 Y75.276
N14370 X22.339 Y75.314
N14375 X21.358 Y75.347
N14380 X20.377 Y75.376
N14385 X19.396 Y75.401
N14390 X18.414 Y75.424
N14395 X17.433 Y75.444
N14400 X16.452 Y75.461
N14405 X15.47 Y75.476
N14410 X14.489 Y75.489
N14415 X13.507 Y75.5
N14420 X12.526 Y75.509
N14425 X11.544 Y75.518
N14430 X10.563 Y75.525
N14435 X8.6 Y75.536
N14440 X6.637 Y75.544
N14445 X4.674 Y75.549
N14450 X1.729 Y75.554
N14455 X-1.215
N14460 X-4.16 Y75.552
N14465 X-6.123 Y75.547
N14470 X-8.086 Y75.541
N14475 X-10.049 Y75.532
N14480 X-11.03 Y75.526
N14485 X-12.012 Y75.519
N14490 X-12.993 Y75.51
N14495 X-13.975 Y75.501
N14500 X-14.956 Y75.49
N14505 X-15.938 Y75.476
N14510 X-16.919 Y75.461
N14515 X-17.9 Y75.444
N14520 X-18.882 Y75.424
N14525 X-19.863 Y75.401
N14530 X-20.844 Y75.375
N14535 X-21.825 Y75.345
N14540 X-22.806 Y75.312
N14545 X-23.787 Y75.274
N14550 X-24.767 Y75.23
N14555 X-25.748 Y75.182
N14560 X-26.728 Y75.127
N14565 X-27.707 Y75.065
N14570 X-28.686 Y74.996
N14575 X-29.665 Y74.918
N14580 X-30.643 Y74.832
N14585 X-31.619 Y74.735
N14590 X-32.595 Y74.627
N14595 X-33.569 Y74.507
N14600 X-34.541 Y74.372
N14605 X-35.511 Y74.223
N14610 X-36.478 Y74.055
N14615 X-37.442 Y73.868
N14620 X-38.401 Y73.658
N14625 X-39.353 Y73.421
N14630 X-40.298 Y73.155
N14635 X-41.233 Y72.855
N14640 X-42.154 Y72.517
N14645 X-43.059 Y72.136
N14650 X-43.941 Y71.707
N14655 X-44.795 Y71.222
N14660 X-45.591 Y70.689
N14665 X-46.26 Y70.159
N14670 X-46.354 Y70.071
N14675 X-46.553 Y69.843
N14680 X-46.702 Y69.578
N14685 X-46.794 Y69.289
N14690 X-46.825 Y68.988
N14695 Y65.215
N14700 G3 X-46.489 Y64.677 I0.635 J0.022 F1000.
N14705 G1 X-46.379 Y64.626
N14710 G3 X-44.913 Y65.528 I0.396 J1. F5000.
N14715 X-46.383 Y68.39 I-2.987 J0.275
N14720 G1 X-46.489 Y68.45 F1000.
N14725 G2 X-46.825 Y68.988 I0.299 J0.56
N14730 G1 Y70.223 F4500.
N14735 X-46.818 Y70.373
N14740 X-46.794 Y70.552
N14745 X-46.748 Y70.763
N14750 X-46.684 Y70.979
N14755 X-46.586 Y71.23
N14760 X-46.445 Y71.52
N14765 X-46.271 Y71.814
N14770 X-46.032 Y72.153
N14775 X-45.735 Y72.511
N14780 X-45.345 Y72.91
N14785 X-44.868 Y73.325
N14790 X-44.248 Y73.782
N14795 X-43.459 Y74.272
N14800 X-42.586 Y74.722
N14805 X-41.685 Y75.11
N14810 X-40.764 Y75.449
N14815 X-39.828 Y75.746
N14820 X-38.882 Y76.008
N14825 X-37.928 Y76.239
N14830 X-36.969 Y76.445
N14835 X-36.004 Y76.627
N14840 X-35.036 Y76.791
N14845 X-34.066 Y76.937
N14850 X-33.093 Y77.067
N14855 X-32.119 Y77.185
N14860 X-31.143 Y77.29
N14865 X-30.166 Y77.384
N14870 X-29.188 Y77.468
N14875 X-28.209 Y77.543
N14880 X-27.23 Y77.611
N14885 X-26.25 Y77.671
N14890 X-25.27 Y77.724
N14895 X-24.29 Y77.772
N14900 X-23.309 Y77.814
N14905 X-22.328 Y77.852
N14910 X-21.347 Y77.885
N14915 X-20.366 Y77.914
N14920 X-19.385 Y77.94
N14925 X-18.404 Y77.963
N14930 X-17.423 Y77.982
N14935 X-16.441 Y78.
N14940 X-15.46 Y78.015
N14945 X-14.478 Y78.028
N14950 X-13.497 Y78.039
N14955 X-12.516 Y78.049
N14960 X-11.534 Y78.057
N14965 X-10.553 Y78.064
N14970 X-8.59 Y78.075
N14975 X-6.627 Y78.083
N14980 X-4.664 Y78.088
N14985 X-1.719 Y78.092
N14990 X1.226
N14995 X4.17 Y78.089
N15000 X6.133 Y78.084
N15005 X8.096 Y78.076
N15010 X10.059 Y78.065
N15015 X11.041 Y78.058
N15020 X12.022 Y78.05
N15025 X13.004 Y78.041
N15030 X13.985 Y78.03
N15035 X14.966 Y78.017
N15040 X15.948 Y78.003
N15045 X16.929 Y77.986
N15050 X17.911 Y77.967
N15055 X18.892 Y77.945
N15060 X19.873 Y77.92
N15065 X20.854 Y77.892
N15070 X21.835 Y77.86
N15075 X22.816 Y77.824
N15080 X23.797 Y77.784
N15085 X24.777 Y77.738
N15090 X25.757 Y77.687
N15095 X26.737 Y77.629
N15100 X27.717 Y77.565
N15105 X28.695 Y77.493
N15110 X29.674 Y77.412
N15115 X30.651 Y77.323
N15120 X31.628 Y77.223
N15125 X32.603 Y77.113
N15130 X33.576 Y76.989
N15135 X34.548 Y76.852
N15140 X35.518 Y76.699
N15145 X36.485 Y76.529
N15150 X37.448 Y76.34
N15155 X38.406 Y76.127
N15160 X39.358 Y75.888
N15165 X40.302 Y75.62
N15170 X41.236 Y75.318
N15175 X42.157 Y74.979
N15180 X43.061 Y74.596
N15185 X43.943 Y74.165
N15190 X44.795 Y73.679
N15195 X45.593 Y73.144
N15200 X46.262 Y72.612
N15205 X46.355 Y72.526
N15210 X46.554 Y72.297
N15215 X46.702 Y72.033
N15220 X46.794 Y71.744
N15225 X46.825 Y71.443
N15230 Y67.669
N15235 G2 X46.489 Y67.131 I-0.635 J0.022 F1000.
N15240 G1 X46.379 Y67.08
N15245 G2 X44.913 Y67.98 I-0.396 J0.999 F5000.
N15250 X46.383 Y70.846 I2.987 J0.277
N15255 G1 X46.489 Y70.905 F1000.
N15260 G3 X46.825 Y71.443 I-0.299 J0.56
N15265 G1 Y72.677 F5000.
N15270 X46.817 Y72.828
N15275 X46.794 Y73.007
N15280 X46.749 Y73.218
N15285 X46.684 Y73.434
N15290 X46.586 Y73.685
N15295 X46.446 Y73.975
N15300 X46.272 Y74.27
N15305 X46.033 Y74.61
N15310 X45.736 Y74.969
N15315 X45.345 Y75.369
N15320 X44.868 Y75.785
N15325 X44.247 Y76.244
N15330 X43.456 Y76.737
N15335 X42.583 Y77.187
N15340 X41.683 Y77.577
N15345 X40.762 Y77.917
N15350 X39.827 Y78.216
N15355 X38.882 Y78.479
N15360 X37.928 Y78.713
N15365 X36.969 Y78.92
N15370 X36.005 Y79.106
N15375 X35.038 Y79.271
N15380 X34.067 Y79.42
N15385 X33.095 Y79.553
N15390 X32.121 Y79.673
N15395 X31.145 Y79.781
N15400 X30.168 Y79.877
N15405 X29.191 Y79.964
N15410 X28.212 Y80.042
N15415 X27.233 Y80.112
N15420 X26.254 Y80.175
N15425 X25.274 Y80.231
N15430 X24.294 Y80.281
N15435 X23.313 Y80.326
N15440 X22.333 Y80.366
N15445 X21.352 Y80.401
N15450 X20.371 Y80.432
N15455 X19.39 Y80.46
N15460 X18.408 Y80.484
N15465 X17.427 Y80.506
N15470 X16.446 Y80.525
N15475 X15.464 Y80.541
N15480 X14.483 Y80.556
N15485 X13.501 Y80.568
N15490 X12.52 Y80.579
N15495 X11.539 Y80.589
N15500 X10.557 Y80.597
N15505 X9.576 Y80.604
N15510 X7.613 Y80.615
N15515 X5.65 Y80.622
N15520 X3.687 Y80.627
N15525 X0.742 Y80.631
N15530 X-1.221
N15535 X-4.166 Y80.628
N15540 X-6.129 Y80.623
N15545 X-8.092 Y80.615
N15550 X-10.055 Y80.604
N15555 X-11.036 Y80.597
N15560 X-12.018 Y80.589
N15565 X-12.999 Y80.58
N15570 X-13.981 Y80.569
N15575 X-14.962 Y80.556
N15580 X-15.943 Y80.542
N15585 X-16.925 Y80.525
N15590 X-17.906 Y80.506
N15595 X-18.887 Y80.484
N15600 X-19.869 Y80.459
N15605 X-20.85 Y80.43
N15610 X-21.831 Y80.398
N15615 X-22.811 Y80.362
N15620 X-23.792 Y80.321
N15625 X-24.773 Y80.275
N15630 X-25.753 Y80.224
N15635 X-26.733 Y80.166
N15640 X-27.712 Y80.102
N15645 X-28.691 Y80.029
N15650 X-29.669 Y79.949
N15655 X-30.646 Y79.859
N15660 X-31.623 Y79.76
N15665 X-32.598 Y79.649
N15670 X-33.572 Y79.526
N15675 X-34.544 Y79.388
N15680 X-35.513 Y79.236
N15685 X-36.48 Y79.066
N15690 X-37.443 Y78.876
N15695 X-38.401 Y78.663
N15700 X-39.353 Y78.425
N15705 X-40.298 Y78.157
N15710 X-41.232 Y77.855
N15715 X-42.152 Y77.516
N15720 X-43.056 Y77.133
N15725 X-43.938 Y76.703
N15730 X-44.792 Y76.217
N15735 X-45.59 Y75.682
N15740 X-46.26 Y75.15
N15745 X-46.355 Y75.062
N15750 X-46.554 Y74.833
N15755 X-46.702 Y74.569
N15760 X-46.794 Y74.28
N15765 X-46.825 Y73.979
N15770 Y70.223
N15775 G3 X-46.489 Y69.685 I0.635 J0.022 F1000.
N15780 G1 X-46.379 Y69.634
N15785 G3 X-44.911 Y70.546 I0.396 J1. F5000.
N15790 X-46.383 Y73.382 I-2.99 J0.247
N15795 G1 X-46.489 Y73.441 F1000.
N15800 G2 X-46.825 Y73.979 I0.299 J0.56
N15805 G1 Y75.254 F4500.
N15810 X-46.818 Y75.403
N15815 X-46.789 Y75.591
N15820 X-46.738 Y75.805
N15825 X-46.667 Y76.028
N15830 X-46.559 Y76.289
N15835 X-46.409 Y76.582
N15840 X-46.222 Y76.886
N15845 X-45.963 Y77.239
N15850 X-45.651 Y77.599
N15855 X-45.233 Y78.01
N15860 X-44.725 Y78.435
N15865 X-44.07 Y78.899
N15870 X-43.227 Y79.4
N15875 X-42.346 Y79.832
N15880 X-41.439 Y80.207
N15885 X-40.514 Y80.535
N15890 X-39.576 Y80.823
N15895 X-38.628 Y81.078
N15900 X-37.673 Y81.304
N15905 X-36.712 Y81.506
N15910 X-35.747 Y81.686
N15915 X-34.779 Y81.847
N15920 X-33.808 Y81.992
N15925 X-32.835 Y82.122
N15930 X-31.861 Y82.238
N15935 X-30.885 Y82.343
N15940 X-29.908 Y82.438
N15945 X-28.93 Y82.522
N15950 X-27.951 Y82.598
N15955 X-26.972 Y82.667
N15960 X-25.993 Y82.728
N15965 X-25.013 Y82.783
N15970 X-24.032 Y82.831
N15975 X-23.052 Y82.875
N15980 X-22.071 Y82.914
N15985 X-21.09 Y82.948
N15990 X-20.109 Y82.978
N15995 X-19.128 Y83.005
N16000 X-18.147 Y83.029
N16005 X-17.165 Y83.05
N16010 X-16.184 Y83.068
N16015 X-15.203 Y83.084
N16020 X-14.221 Y83.098
N16025 X-13.24 Y83.111
N16030 X-12.258 Y83.121
N16035 X-11.277 Y83.13
N16040 X-10.295 Y83.138
N16045 X-9.314 Y83.145
N16050 X-7.351 Y83.155
N16055 X-5.388 Y83.162
N16060 X-3.425 Y83.167
N16065 X-1.462 Y83.169
N16070 X1.483
N16075 X3.446 Y83.166
N16080 X5.409 Y83.161
N16085 X7.372 Y83.153
N16090 X9.335 Y83.142
N16095 X10.316 Y83.135
N16100 X11.298 Y83.127
N16105 X12.279 Y83.118
N16110 X13.261 Y83.107
N16115 X14.242 Y83.094
N16120 X15.223 Y83.079
N16125 X16.205 Y83.063
N16130 X17.186 Y83.044
N16135 X18.167 Y83.022
N16140 X19.149 Y82.998
N16145 X20.13 Y82.97
N16150 X21.111 Y82.939
N16155 X22.092 Y82.904
N16160 X23.072 Y82.864
N16165 X24.053 Y82.82
N16170 X25.033 Y82.77
N16175 X26.013 Y82.714
N16180 X26.993 Y82.653
N16185 X27.972 Y82.584
N16190 X28.95 Y82.507
N16195 X29.928 Y82.422
N16200 X30.905 Y82.327
N16205 X31.881 Y82.222
N16210 X32.855 Y82.105
N16215 X33.828 Y81.975
N16220 X34.799 Y81.832
N16225 X35.768 Y81.672
N16230 X36.733 Y81.494
N16235 X37.694 Y81.296
N16240 X38.651 Y81.076
N16245 X39.601 Y80.83
N16250 X40.543 Y80.553
N16255 X41.473 Y80.241
N16260 X42.389 Y79.889
N16265 X43.287 Y79.491
N16270 X44.161 Y79.045
N16275 X45.004 Y78.543
N16280 X45.775 Y78.003
N16285 X46.288 Y77.579
N16290 X46.514 Y77.346
N16295 X46.684 Y77.069
N16300 X46.789 Y76.761
N16305 X46.825 Y76.438
N16310 Y72.677
N16315 G2 X46.489 Y72.139 I-0.635 J0.022 F1000.
N16320 G1 X46.379 Y72.088
N16325 G2 X44.911 Y72.997 I-0.396 J1. F5000.
N16330 X46.383 Y75.84 I2.989 J0.255
N16335 G1 X46.489 Y75.899 F1000.
N16340 G3 X46.825 Y76.438 I-0.299 J0.56
N16345 G1 Y77.707 F5000.
N16350 X46.818 Y77.857
N16355 X46.789 Y78.048
N16360 X46.744 Y78.245
N16365 X46.671 Y78.475
N16370 X46.561 Y78.745
N16375 X46.421 Y79.021
N16380 X46.229 Y79.336
N16385 X45.978 Y79.68
N16390 X45.662 Y80.05
N16395 X45.256 Y80.452
N16400 X44.734 Y80.893
N16405 X44.095 Y81.35
N16410 X43.266 Y81.848
N16415 X42.386 Y82.284
N16420 X41.481 Y82.662
N16425 X40.556 Y82.992
N16430 X39.619 Y83.284
N16435 X38.672 Y83.541
N16440 X37.718 Y83.77
N16445 X36.758 Y83.975
N16450 X35.793 Y84.158
N16455 X34.826 Y84.323
N16460 X33.855 Y84.47
N16465 X32.883 Y84.603
N16470 X31.909 Y84.723
N16475 X30.933 Y84.831
N16480 X29.957 Y84.929
N16485 X28.979 Y85.016
N16490 X28.001 Y85.095
N16495 X27.022 Y85.166
N16500 X26.042 Y85.23
N16505 X25.062 Y85.287
N16510 X24.082 Y85.339
N16515 X23.102 Y85.385
N16520 X22.121 Y85.426
N16525 X21.14 Y85.462
N16530 X20.159 Y85.495
N16535 X19.178 Y85.524
N16540 X18.197 Y85.55
N16545 X17.216 Y85.572
N16550 X16.235 Y85.592
N16555 X15.253 Y85.61
N16560 X14.272 Y85.626
N16565 X13.29 Y85.639
N16570 X12.309 Y85.651
N16575 X11.327 Y85.661
N16580 X10.346 Y85.67
N16585 X9.364 Y85.677
N16590 X7.401 Y85.689
N16595 X5.438 Y85.698
N16600 X3.475 Y85.704
N16605 X1.512 Y85.707
N16610 X-0.451 Y85.708
N16615 X-1.432 Y85.707
N16620 X-3.395 Y85.705
N16625 X-5.358 Y85.7
N16630 X-7.321 Y85.693
N16635 X-9.284 Y85.682
N16640 X-10.266 Y85.675
N16645 X-11.247 Y85.667
N16650 X-12.229 Y85.657
N16655 X-13.21 Y85.646
N16660 X-14.192 Y85.634
N16665 X-15.173 Y85.619
N16670 X-16.154 Y85.603
N16675 X-17.136 Y85.584
N16680 X-18.117 Y85.562
N16685 X-19.098 Y85.538
N16690 X-20.079 Y85.51
N16695 X-21.06 Y85.479
N16700 X-22.041 Y85.444
N16705 X-23.022 Y85.404
N16710 X-24.002 Y85.36
N16715 X-24.983 Y85.311
N16720 X-25.963 Y85.255
N16725 X-26.942 Y85.193
N16730 X-27.921 Y85.125
N16735 X-28.9 Y85.048
N16740 X-29.878 Y84.963
N16745 X-30.855 Y84.868
N16750 X-31.83 Y84.764
N16755 X-32.805 Y84.647
N16760 X-33.778 Y84.518
N16765 X-34.749 Y84.375
N16770 X-35.718 Y84.215
N16775 X-36.683 Y84.038
N16780 X-37.644 Y83.841
N16785 X-38.601 Y83.621
N16790 X-39.551 Y83.375
N16795 X-40.494 Y83.101
N16800 X-41.426 Y82.793
N16805 X-42.343 Y82.445
N16810 X-43.242 Y82.05
N16815 X-44.117 Y81.606
N16820 X-44.962 Y81.107
N16825 X-45.726 Y80.578
N16830 X-46.362 Y80.058
N16835 X-46.371 Y80.049
N16840 X-46.563 Y79.823
N16845 X-46.707 Y79.562
N16850 X-46.795 Y79.278
N16855 X-46.825 Y78.982
N16860 Y75.254
N16865 G3 X-46.489 Y74.715 I0.635 J0.022 F1000.
N16870 G1 X-46.379 Y74.664
N16875 G3 X-44.907 Y75.593 I0.397 J1.002 F5000.
N16880 X-46.383 Y78.384 I-2.993 J0.203
N16885 G1 X-46.489 Y78.444 F1000.
N16890 G2 X-46.825 Y78.982 I0.299 J0.56
N16895 G1 Y80.261 F4500.
N16900 X-46.818 Y80.411
N16905 X-46.787 Y80.605
N16910 X-46.739 Y80.805
N16915 X-46.663 Y81.038
N16920 X-46.549 Y81.31
N16925 X-46.405 Y81.59
N16930 X-46.207 Y81.908
N16935 X-45.949 Y82.256
N16940 X-45.623 Y82.629
N16945 X-45.209 Y83.033
N16950 X-44.675 Y83.476
N16955 X-44.024 Y83.933
N16960 X-43.178 Y84.431
N16965 X-42.295 Y84.859
N16970 X-41.386 Y85.232
N16975 X-40.461 Y85.558
N16980 X-39.522 Y85.845
N16985 X-38.574 Y86.1
N16990 X-37.619 Y86.327
N16995 X-36.659 Y86.53
N17000 X-35.694 Y86.711
N17005 X-34.727 Y86.874
N17010 X-33.756 Y87.02
N17015 X-32.783 Y87.152
N17020 X-31.809 Y87.271
N17025 X-30.833 Y87.378
N17030 X-29.857 Y87.475
N17035 X-28.879 Y87.562
N17040 X-27.901 Y87.64
N17045 X-26.922 Y87.71
N17050 X-25.942 Y87.774
N17055 X-24.962 Y87.831
N17060 X-23.982 Y87.882
N17065 X-23.002 Y87.927
N17070 X-22.021 Y87.968
N17075 X-21.04 Y88.004
N17080 X-20.059 Y88.037
N17085 X-19.078 Y88.065
N17090 X-18.097 Y88.091
N17095 X-17.116 Y88.113
N17100 X-16.134 Y88.133
N17105 X-15.153 Y88.151
N17110 X-14.172 Y88.166
N17115 X-13.19 Y88.179
N17120 X-12.209 Y88.191
N17125 X-11.227 Y88.201
N17130 X-10.246 Y88.21
N17135 X-9.264 Y88.217
N17140 X-7.301 Y88.229
N17145 X-5.338 Y88.237
N17150 X-3.375 Y88.242
N17155 X-1.412 Y88.245
N17160 X0.551
N17165 X1.532
N17170 X3.495 Y88.241
N17175 X5.458 Y88.236
N17180 X7.421 Y88.227
N17185 X8.403 Y88.221
N17190 X9.384 Y88.214
N17195 X10.366 Y88.206
N17200 X11.347 Y88.197
N17205 X12.329 Y88.186
N17210 X13.31 Y88.174
N17215 X14.292 Y88.16
N17220 X15.273 Y88.144
N17225 X16.254 Y88.125
N17230 X17.236 Y88.105
N17235 X18.217 Y88.081
N17240 X19.198 Y88.055
N17245 X20.179 Y88.025
N17250 X21.16 Y87.991
N17255 X22.141 Y87.954
N17260 X23.121 Y87.912
N17265 X24.102 Y87.865
N17270 X25.082 Y87.813
N17275 X26.062 Y87.755
N17280 X27.041 Y87.69
N17285 X28.02 Y87.618
N17290 X28.998 Y87.538
N17295 X29.976 Y87.45
N17300 X30.952 Y87.352
N17305 X31.928 Y87.244
N17310 X32.902 Y87.124
N17315 X33.875 Y86.991
N17320 X34.845 Y86.844
N17325 X35.813 Y86.68
N17330 X36.778 Y86.499
N17335 X37.738 Y86.298
N17340 X38.694 Y86.074
N17345 X39.643 Y85.824
N17350 X40.584 Y85.545
N17355 X41.515 Y85.233
N17360 X42.43 Y84.88
N17365 X43.327 Y84.48
N17370 X44.199 Y84.03
N17375 X45.04 Y83.525
N17380 X45.786 Y82.999
N17385 X46.291 Y82.578
N17390 X46.516 Y82.345
N17395 X46.685 Y82.069
N17400 X46.79 Y81.762
N17405 X46.825 Y81.44
N17410 Y77.707
N17415 G2 X46.489 Y77.169 I-0.635 J0.022 F1000.
N17420 G1 X46.379 Y77.118
N17425 G2 X44.908 Y78.045 I-0.397 J1.002 F5000.
N17430 X46.383 Y80.842 I2.993 J0.21
N17435 G1 X46.489 Y80.902 F1000.
N17440 G3 X46.825 Y81.44 I-0.299 J0.56
N17445 G1 Y82.715 F5000.
N17450 X46.818 Y82.865
N17455 X46.79 Y83.053
N17460 X46.744 Y83.251
N17465 X46.67 Y83.484
N17470 X46.559 Y83.754
N17475 X46.42 Y84.03
N17480 X46.224 Y84.349
N17485 X45.975 Y84.691
N17490 X45.655 Y85.064
N17495 X45.251 Y85.464
N17500 X44.729 Y85.904
N17505 X44.09 Y86.36
N17510 X43.258 Y86.859
N17515 X42.379 Y87.294
N17520 X41.473 Y87.672
N17525 X40.549 Y88.004
N17530 X39.612 Y88.296
N17535 X38.665 Y88.555
N17540 X37.711 Y88.786
N17545 X36.752 Y88.992
N17550 X35.788 Y89.178
N17555 X34.821 Y89.344
N17560 X33.851 Y89.494
N17565 X32.878 Y89.63
N17570 X31.905 Y89.752
N17575 X30.929 Y89.862
N17580 X29.953 Y89.962
N17585 X28.976 Y90.052
N17590 X27.997 Y90.134
N17595 X27.019 Y90.207
N17600 X26.039 Y90.273
N17605 X25.06 Y90.333
N17610 X24.08 Y90.387
N17615 X23.099 Y90.435
N17620 X22.119 Y90.478
N17625 X21.138 Y90.517
N17630 X20.157 Y90.551
N17635 X19.176 Y90.582
N17640 X18.195 Y90.61
N17645 X17.214 Y90.634
N17650 X16.232 Y90.656
N17655 X15.251 Y90.675
N17660 X14.27 Y90.692
N17665 X13.288 Y90.707
N17670 X12.307 Y90.72
N17675 X11.325 Y90.731
N17680 X10.344 Y90.741
N17685 X9.362 Y90.749
N17690 X8.381 Y90.756
N17695 X6.418 Y90.768
N17700 X4.455 Y90.776
N17705 X2.492 Y90.781
N17710 X0.529 Y90.783
N17715 X-1.434
N17720 X-3.397 Y90.78
N17725 X-5.36 Y90.775
N17730 X-7.323 Y90.766
N17735 X-8.305 Y90.76
N17740 X-9.286 Y90.754
N17745 X-10.268 Y90.746
N17750 X-11.249 Y90.737
N17755 X-12.231 Y90.726
N17760 X-13.212 Y90.714
N17765 X-14.193 Y90.7
N17770 X-15.175 Y90.684
N17775 X-16.156 Y90.666
N17780 X-17.137 Y90.646
N17785 X-18.119 Y90.622
N17790 X-19.1 Y90.596
N17795 X-20.081 Y90.567
N17800 X-21.062 Y90.533
N17805 X-22.043 Y90.496
N17810 X-23.023 Y90.454
N17815 X-24.004 Y90.408
N17820 X-24.984 Y90.356
N17825 X-25.964 Y90.298
N17830 X-26.943 Y90.234
N17835 X-27.922 Y90.163
N17840 X-28.9 Y90.084
N17845 X-29.878 Y89.996
N17850 X-30.855 Y89.899
N17855 X-31.83 Y89.791
N17860 X-32.805 Y89.672
N17865 X-33.777 Y89.54
N17870 X-34.748 Y89.394
N17875 X-35.716 Y89.233
N17880 X-36.681 Y89.053
N17885 X-37.642 Y88.854
N17890 X-38.598 Y88.632
N17895 X-39.548 Y88.385
N17900 X-40.49 Y88.109
N17905 X-41.422 Y87.801
N17910 X-42.339 Y87.453
N17915 X-43.238 Y87.058
N17920 X-44.113 Y86.613
N17925 X-44.958 Y86.114
N17930 X-45.718 Y85.588
N17935 X-46.359 Y85.063
N17940 X-46.371 Y85.052
N17945 X-46.563 Y84.825
N17950 X-46.707 Y84.564
N17955 X-46.795 Y84.28
N17960 X-46.825 Y83.984
N17965 Y80.261
N17970 G3 X-46.489 Y79.723 I0.635 J0.022 F1000.
N17975 G1 X-46.379 Y79.672
N17980 G3 X-44.907 Y80.605 I0.397 J1.002 F5000.
N17985 X-46.383 Y83.387 I-2.994 J0.194
N17990 G1 X-46.489 Y83.446 F1000.
N17995 G2 X-46.825 Y83.984 I0.299 J0.56
N18000 G1 Y85.169 F4500.
N18005 X-46.815 Y85.367
N18010 X-46.791 Y85.552
N18015 X-46.749 Y85.75
N18020 X-46.682 Y85.971
N18025 X-46.581 Y86.232
N18030 X-46.446 Y86.51
N18035 X-46.267 Y86.814
N18040 X-46.023 Y87.161
N18045 X-45.728 Y87.516
N18050 X-45.335 Y87.92
N18055 X-44.854 Y88.339
N18060 X-44.241 Y88.792
N18065 X-43.451 Y89.284
N18070 X-42.579 Y89.734
N18075 X-41.678 Y90.125
N18080 X-40.758 Y90.466
N18085 X-39.824 Y90.767
N18090 X-38.879 Y91.034
N18095 X-37.927 Y91.271
N18100 X-36.968 Y91.483
N18105 X-36.005 Y91.673
N18110 X-35.039 Y91.844
N18115 X-34.069 Y91.998
N18120 X-33.098 Y92.137
N18125 X-32.124 Y92.262
N18130 X-31.149 Y92.376
N18135 X-30.173 Y92.478
N18140 X-29.196 Y92.571
N18145 X-28.218 Y92.654
N18150 X-27.239 Y92.729
N18155 X-26.26 Y92.797
N18160 X-25.281 Y92.858
N18165 X-24.301 Y92.913
N18170 X-23.32 Y92.963
N18175 X-22.34 Y93.007
N18180 X-21.359 Y93.047
N18185 X-20.378 Y93.083
N18190 X-19.397 Y93.114
N18195 X-18.416 Y93.143
N18200 X-17.435 Y93.168
N18205 X-16.454 Y93.19
N18210 X-15.472 Y93.21
N18215 X-14.491 Y93.227
N18220 X-13.51 Y93.242
N18225 X-12.528 Y93.256
N18230 X-11.547 Y93.267
N18235 X-10.565 Y93.278
N18240 X-9.584 Y93.286
N18245 X-8.602 Y93.294
N18250 X-7.621 Y93.3
N18255 X-5.658 Y93.31
N18260 X-3.695 Y93.317
N18265 X-1.732 Y93.32
N18270 X0.231 Y93.321
N18275 X1.213 Y93.32
N18280 X3.176 Y93.317
N18285 X5.139 Y93.311
N18290 X7.102 Y93.301
N18295 X8.083 Y93.295
N18300 X9.065 Y93.288
N18305 X10.046 Y93.28
N18310 X11.028 Y93.27
N18315 X12.009 Y93.259
N18320 X12.991 Y93.246
N18325 X13.972 Y93.231
N18330 X14.953 Y93.214
N18335 X15.935 Y93.195
N18340 X16.916 Y93.174
N18345 X17.897 Y93.149
N18350 X18.878 Y93.122
N18355 X19.859 Y93.092
N18360 X20.84 Y93.057
N18365 X21.821 Y93.019
N18370 X22.802 Y92.976
N18375 X23.782 Y92.929
N18380 X24.762 Y92.876
N18385 X25.742 Y92.818
N18390 X26.721 Y92.753
N18395 X27.7 Y92.681
N18400 X28.678 Y92.601
N18405 X29.656 Y92.514
N18410 X30.633 Y92.416
N18415 X31.608 Y92.309
N18420 X32.583 Y92.191
N18425 X33.555 Y92.06
N18430 X34.526 Y91.916
N18435 X35.495 Y91.756
N18440 X36.46 Y91.579
N18445 X37.422 Y91.384
N18450 X38.379 Y91.166
N18455 X39.33 Y90.925
N18460 X40.274 Y90.655
N18465 X41.207 Y90.351
N18470 X42.128 Y90.009
N18475 X43.03 Y89.625
N18480 X43.912 Y89.192
N18485 X44.764 Y88.706
N18490 X45.578 Y88.162
N18495 X46.239 Y87.638
N18500 X46.354 Y87.531
N18505 X46.553 Y87.303
N18510 X46.702 Y87.039
N18515 X46.794 Y86.749
N18520 X46.825 Y86.448
N18525 Y82.715
N18530 G2 X46.489 Y82.177 I-0.635 J0.022 F1000.
N18535 G1 X46.379 Y82.126
N18540 G2 X44.908 Y83.052 I-0.397 J1.002 F5000.
N18545 X46.383 Y85.85 I2.993 J0.209
N18550 G1 X46.489 Y85.909 F1000.
N18555 G3 X46.825 Y86.448 I-0.299 J0.56
N18560 G1 Y87.623 F5000.
N18565 X46.814 Y87.837
N18570 X46.791 Y88.015
N18575 X46.746 Y88.227
N18580 X46.68 Y88.446
N18585 X46.582 Y88.697
N18590 X46.441 Y88.989
N18595 X46.266 Y89.286
N18600 X46.026 Y89.627
N18605 X45.725 Y89.99
N18610 X45.332 Y90.393
N18615 X44.85 Y90.813
N18620 X44.225 Y91.275
N18625 X43.427 Y91.772
N18630 X42.555 Y92.222
N18635 X41.655 Y92.612
N18640 X40.734 Y92.954
N18645 X39.8 Y93.255
N18650 X38.856 Y93.522
N18655 X37.903 Y93.76
N18660 X36.945 Y93.973
N18665 X35.983 Y94.164
N18670 X35.016 Y94.336
N18675 X34.047 Y94.491
N18680 X33.076 Y94.631
N18685 X32.102 Y94.758
N18690 X31.128 Y94.873
N18695 X30.152 Y94.977
N18700 X29.175 Y95.071
N18705 X28.197 Y95.156
N18710 X27.218 Y95.233
N18715 X26.239 Y95.303
N18720 X25.26 Y95.366
N18725 X24.28 Y95.423
N18730 X23.3 Y95.475
N18735 X22.319 Y95.521
N18740 X21.339 Y95.563
N18745 X20.358 Y95.6
N18750 X19.377 Y95.634
N18755 X18.396 Y95.663
N18760 X17.415 Y95.69
N18765 X16.433 Y95.714
N18770 X15.452 Y95.735
N18775 X14.471 Y95.754
N18780 X13.489 Y95.77
N18785 X12.508 Y95.785
N18790 X11.527 Y95.798
N18795 X10.545 Y95.809
N18800 X9.564 Y95.818
N18805 X8.582 Y95.827
N18810 X7.601 Y95.834
N18815 X5.638 Y95.845
N18820 X3.675 Y95.853
N18825 X1.712 Y95.857
N18830 X-0.251 Y95.858
N18835 X-1.233
N18840 X-3.196 Y95.855
N18845 X-5.159 Y95.849
N18850 X-7.122 Y95.84
N18855 X-8.103 Y95.834
N18860 X-9.085 Y95.827
N18865 X-10.066 Y95.818
N18870 X-11.048 Y95.808
N18875 X-12.029 Y95.797
N18880 X-13.011 Y95.784
N18885 X-13.992 Y95.769
N18890 X-14.973 Y95.753
N18895 X-15.955 Y95.733
N18900 X-16.936 Y95.712
N18905 X-17.917 Y95.687
N18910 X-18.898 Y95.66
N18915 X-19.879 Y95.629
N18920 X-20.86 Y95.595
N18925 X-21.841 Y95.557
N18930 X-22.822 Y95.514
N18935 X-23.802 Y95.466
N18940 X-24.782 Y95.413
N18945 X-25.762 Y95.355
N18950 X-26.741 Y95.289
N18955 X-27.72 Y95.217
N18960 X-28.698 Y95.137
N18965 X-29.676 Y95.049
N18970 X-30.653 Y94.952
N18975 X-31.628 Y94.844
N18980 X-32.602 Y94.725
N18985 X-33.575 Y94.594
N18990 X-34.546 Y94.449
N18995 X-35.514 Y94.289
N19000 X-36.48 Y94.112
N19005 X-37.441 Y93.916
N19010 X-38.398 Y93.698
N19015 X-39.349 Y93.454
N19020 X-40.292 Y93.182
N19025 X-41.225 Y92.877
N19030 X-42.145 Y92.534
N19035 X-43.048 Y92.15
N19040 X-43.929 Y91.718
N19045 X-44.782 Y91.231
N19050 X-45.583 Y90.693
N19055 X-46.254 Y90.159
N19060 X-46.356 Y90.064
N19065 X-46.555 Y89.835
N19070 X-46.703 Y89.572
N19075 X-46.794 Y89.283
N19080 X-46.825 Y88.982
N19085 Y85.169
N19090 G3 X-46.489 Y84.631 I0.635 J0.022 F1000.
N19095 G1 X-46.379 Y84.58
N19100 G3 X-44.92 Y85.454 I0.394 J0.997 F5000.
N19105 X-46.383 Y88.385 I-2.98 J0.342
N19110 G1 X-46.489 Y88.444 F1000.
N19115 G2 X-46.825 Y88.982 I0.299 J0.56
N19120 G1 Y90.199 F4500.
N19125 X-46.816 Y90.371
N19130 X-46.793 Y90.55
N19135 X-46.748 Y90.762
N19140 X-46.682 Y90.98
N19145 X-46.584 Y91.231
N19150 X-46.443 Y91.523
N19155 X-46.269 Y91.818
N19160 X-46.029 Y92.16
N19165 X-45.73 Y92.52
N19170 X-45.337 Y92.923
N19175 X-44.856 Y93.342
N19180 X-44.23 Y93.806
N19185 X-43.429 Y94.304
N19190 X-42.557 Y94.754
N19195 X-41.657 Y95.145
N19200 X-40.737 Y95.487
N19205 X-39.803 Y95.789
N19210 X-38.859 Y96.057
N19215 X-37.906 Y96.295
N19220 X-36.948 Y96.508
N19225 X-35.986 Y96.7
N19230 X-35.019 Y96.872
N19235 X-34.05 Y97.027
N19240 X-33.079 Y97.168
N19245 X-32.106 Y97.295
N19250 X-31.131 Y97.41
N19255 X-30.155 Y97.514
N19260 X-29.178 Y97.608
N19265 X-28.2 Y97.694
N19270 X-27.222 Y97.771
N19275 X-26.243 Y97.841
N19280 X-25.263 Y97.904
N19285 X-24.283 Y97.962
N19290 X-23.303 Y98.013
N19295 X-22.323 Y98.059
N19300 X-21.342 Y98.101
N19305 X-20.361 Y98.138
N19310 X-19.38 Y98.172
N19315 X-18.399 Y98.202
N19320 X-17.418 Y98.229
N19325 X-16.437 Y98.253
N19330 X-15.456 Y98.274
N19335 X-14.474 Y98.293
N19340 X-13.493 Y98.309
N19345 X-12.511 Y98.324
N19350 X-11.53 Y98.336
N19355 X-10.549 Y98.348
N19360 X-9.567 Y98.357
N19365 X-8.586 Y98.366
N19370 X-7.604 Y98.373
N19375 X-6.623 Y98.379
N19380 X-4.66 Y98.388
N19385 X-2.697 Y98.393
N19390 X-0.734 Y98.396
N19395 X1.229 Y98.395
N19400 X3.192 Y98.391
N19405 X5.155 Y98.384
N19410 X7.118 Y98.374
N19415 X8.1 Y98.367
N19420 X9.081 Y98.359
N19425 X10.063 Y98.349
N19430 X11.044 Y98.339
N19435 X12.026 Y98.326
N19440 X13.007 Y98.312
N19445 X13.989 Y98.296
N19450 X14.97 Y98.278
N19455 X15.951 Y98.257
N19460 X16.933 Y98.234
N19465 X17.914 Y98.209
N19470 X18.895 Y98.18
N19475 X19.876 Y98.147
N19480 X20.857 Y98.111
N19485 X21.837 Y98.071
N19490 X22.818 Y98.026
N19495 X23.798 Y97.976
N19500 X24.778 Y97.922
N19505 X25.758 Y97.861
N19510 X26.737 Y97.794
N19515 X27.716 Y97.72
N19520 X28.694 Y97.638
N19525 X29.671 Y97.548
N19530 X30.648 Y97.449
N19535 X31.623 Y97.339
N19540 X32.597 Y97.219
N19545 X33.57 Y97.086
N19550 X34.54 Y96.94
N19555 X35.508 Y96.778
N19560 X36.473 Y96.6
N19565 X37.435 Y96.403
N19570 X38.392 Y96.183
N19575 X39.342 Y95.939
N19580 X40.285 Y95.665
N19585 X41.218 Y95.36
N19590 X42.137 Y95.016
N19595 X43.04 Y94.631
N19600 X43.921 Y94.198
N19605 X44.773 Y93.711
N19610 X45.576 Y93.171
N19615 X46.252 Y92.634
N19620 X46.356 Y92.536
N19625 X46.555 Y92.308
N19630 X46.703 Y92.044
N19635 X46.794 Y91.755
N19640 X46.825 Y91.454
N19645 Y87.623
N19650 G2 X46.489 Y87.084 I-0.635 J0.022 F1000.
N19655 G1 X46.379 Y87.034
N19660 G2 X44.924 Y87.896 I-0.394 J0.995 F5000.
N19665 X46.383 Y90.857 I2.977 J0.373
N19670 G1 X46.489 Y90.916 F1000.
N19675 G3 X46.825 Y91.454 I-0.299 J0.56
N19680 G1 Y92.653 F5000.
N19685 X46.815 Y92.845
N19690 X46.792 Y93.025
N19695 X46.746 Y93.237
N19700 X46.681 Y93.455
N19705 X46.583 Y93.707
N19710 X46.441 Y93.999
N19715 X46.267 Y94.296
N19720 X46.026 Y94.638
N19725 X45.726 Y95.
N19730 X45.332 Y95.404
N19735 X44.849 Y95.825
N19740 X44.221 Y96.289
N19745 X43.418 Y96.789
N19750 X42.546 Y97.239
N19755 X41.645 Y97.631
N19760 X40.726 Y97.973
N19765 X39.792 Y98.276
N19770 X38.848 Y98.544
N19775 X37.896 Y98.783
N19780 X36.938 Y98.997
N19785 X35.975 Y99.19
N19790 X35.009 Y99.363
N19795 X34.04 Y99.52
N19800 X33.069 Y99.662
N19805 X32.096 Y99.79
N19810 X31.122 Y99.907
N19815 X30.146 Y100.013
N19820 X29.169 Y100.109
N19825 X28.191 Y100.196
N19830 X27.213 Y100.275
N19835 X26.234 Y100.347
N19840 X25.255 Y100.412
N19845 X24.275 Y100.471
N19850 X23.295 Y100.525
N19855 X22.315 Y100.573
N19860 X21.334 Y100.616
N19865 X20.353 Y100.655
N19870 X19.373 Y100.691
N19875 X18.392 Y100.722
N19880 X17.41 Y100.751
N19885 X16.429 Y100.776
N19890 X15.448 Y100.798
N19895 X14.467 Y100.819
N19900 X13.485 Y100.836
N19905 X12.504 Y100.852
N19910 X11.523 Y100.866
N19915 X10.541 Y100.878
N19920 X9.56 Y100.889
N19925 X8.578 Y100.898
N19930 X7.597 Y100.906
N19935 X6.615 Y100.912
N19940 X5.634 Y100.918
N19945 X3.671 Y100.926
N19950 X1.708 Y100.931
N19955 X-0.255 Y100.933
N19960 X-1.237 Y100.932
N19965 X-3.2 Y100.929
N19970 X-5.163 Y100.923
N19975 X-6.144 Y100.918
N19980 X-7.126 Y100.912
N19985 X-8.107 Y100.906
N19990 X-9.089 Y100.898
N19995 X-10.07 Y100.888
N20000 X-11.052 Y100.877
N20005 X-12.033 Y100.865
N20010 X-13.015 Y100.851
N20015 X-13.996 Y100.835
N20020 X-14.977 Y100.817
N20025 X-15.959 Y100.796
N20030 X-16.94 Y100.773
N20035 X-17.921 Y100.747
N20040 X-18.902 Y100.718
N20045 X-19.883 Y100.685
N20050 X-20.864 Y100.649
N20055 X-21.845 Y100.609
N20060 X-22.825 Y100.564
N20065 X-23.805 Y100.514
N20070 X-24.785 Y100.459
N20075 X-25.765 Y100.398
N20080 X-26.744 Y100.331
N20085 X-27.723 Y100.257
N20090 X-28.701 Y100.175
N20095 X-29.678 Y100.085
N20100 X-30.655 Y99.985
N20105 X-31.63 Y99.876
N20110 X-32.604 Y99.755
N20115 X-33.577 Y99.622
N20120 X-34.547 Y99.476
N20125 X-35.515 Y99.314
N20130 X-36.481 Y99.135
N20135 X-37.442 Y98.937
N20140 X-38.398 Y98.717
N20145 X-39.349 Y98.472
N20150 X-40.291 Y98.198
N20155 X-41.224 Y97.892
N20160 X-42.143 Y97.548
N20165 X-43.046 Y97.162
N20170 X-43.926 Y96.729
N20175 X-44.778 Y96.242
N20180 X-45.582 Y95.701
N20185 X-46.256 Y95.165
N20190 X-46.356 Y95.071
N20195 X-46.555 Y94.843
N20200 X-46.703 Y94.579
N20205 X-46.794 Y94.291
N20210 X-46.825 Y93.99
N20215 Y90.199
N20220 G3 X-46.489 Y89.661 I0.635 J0.022 F1000.
N20225 G1 X-46.379 Y89.61
N20230 G3 X-44.916 Y90.499 I0.395 J0.998 F5000.
N20235 X-46.383 Y93.392 I-2.984 J0.305
N20240 G1 X-46.489 Y93.451 F1000.
N20245 G2 X-46.825 Y93.99 I0.299 J0.56
N20250 G1 Y95.207 F4500.
N20255 X-46.816 Y95.379
N20260 X-46.793 Y95.558
N20265 X-46.747 Y95.771
N20270 X-46.682 Y95.988
N20275 X-46.584 Y96.24
N20280 X-46.443 Y96.532
N20285 X-46.268 Y96.829
N20290 X-46.027 Y97.171
N20295 X-45.727 Y97.533
N20300 X-45.332 Y97.938
N20305 X-44.849 Y98.359
