%
(1001)
(T3  D=6.35 CR=0. - ZMIN=-11. - FLAT END MILL)
N10 G90 G94 G17 G91.1 G64 P0.20

G64 P0.50

N15 G21
;N20 G53 G0 Z0.
(2D CONTOUR2)
;N25 T3 M6
(ENDMILL 14IN 6.35MM CARBIDE ROUGHING)
N30 S20602 M3
N35 G54
;N40 g0 B0.
N45 G0 G43 X31.779 Y361.264 Z15. H0
N50 G0 Z7.
N55 G1 Z-5.365 F333.33
N60 G18 G2 X32.414 Z-6. I0.635 K0.
N65 G1 X33.049 F1000.
N70 G17 G3 X33.684 Y361.899 I0. J0.635
N75 G1 Y363.703 F5000.
N80 X33.639 Y365.86
N85 X33.549 Y368.011
N90 X33.414 Y370.156
N95 X33.235 Y372.289
N100 X33.011 Y374.412
N105 X32.743 Y376.517
N110 X32.431 Y378.604
N115 X32.077 Y380.67
N120 X31.68 Y382.711
N125 X31.24 Y384.726
N130 X30.76 Y386.711
N135 X30.239 Y388.664
N140 X29.678 Y390.582
N145 X29.079 Y392.463
N150 X28.441 Y394.303
N155 X27.767 Y396.101
N160 X27.057 Y397.854
N165 X26.313 Y399.559
N170 X25.536 Y401.216
N175 X24.726 Y402.82
N180 X23.886 Y404.371
N185 X23.018 Y405.866
N190 X22.121 Y407.302
N195 X21.199 Y408.679
N200 X20.253 Y409.994
N205 X19.284 Y411.247
N210 X18.295 Y412.435
N215 X17.287 Y413.556
N220 X16.261 Y414.612
N225 X15.221 Y415.6
N230 X14.169 Y416.518
N235 X13.105 Y417.367
N240 X12.031 Y418.147
N245 X10.95 Y418.858
N250 X9.864 Y419.497
N255 X8.773 Y420.067
N260 X7.678 Y420.569
N265 X6.582 Y421.001
N270 X5.485 Y421.365
N275 X4.387 Y421.663
N280 X3.29 Y421.893
N285 X2.192 Y422.057
N290 X1.096 Y422.156
N295 X0. Y422.188
N300 X-1.096 Y422.156
N305 X-2.192 Y422.057
N310 X-3.29 Y421.893
N315 X-4.387 Y421.663
N320 X-5.485 Y421.365
N325 X-6.582 Y421.001
N330 X-7.678 Y420.569
N335 X-8.773 Y420.067
N340 X-9.864 Y419.497
N345 X-10.95 Y418.858
N350 X-12.031 Y418.147
N355 X-13.105 Y417.367
N360 X-14.169 Y416.518
N365 X-15.221 Y415.6
N370 X-16.261 Y414.612
N375 X-17.287 Y413.556
N380 X-18.295 Y412.435
N385 X-19.284 Y411.247
N390 X-20.253 Y409.994
N395 X-21.199 Y408.679
N400 X-22.121 Y407.302
N405 X-23.018 Y405.866
N410 X-23.886 Y404.371
N415 X-24.726 Y402.82
N420 X-25.536 Y401.216
N425 X-26.313 Y399.559
N430 X-27.057 Y397.854
N435 X-27.767 Y396.101
N440 X-28.441 Y394.303
N445 X-29.079 Y392.463
N450 X-29.678 Y390.582
N455 X-30.239 Y388.664
N460 X-30.76 Y386.711
N465 X-31.24 Y384.726
N470 X-31.68 Y382.711
N475 X-32.077 Y380.67
N480 X-32.431 Y378.604
N485 X-32.743 Y376.517
N490 X-33.011 Y374.412
N495 X-33.235 Y372.289
N500 X-33.414 Y370.156
N505 X-33.549 Y368.011
N510 X-33.639 Y365.86
N515 X-33.684 Y363.703
N520 Y361.547
N525 X-33.639 Y359.39
N530 X-33.549 Y357.239
N535 X-33.414 Y355.094
N540 X-33.235 Y352.961
N545 X-33.011 Y350.838
N550 X-32.743 Y348.733
N555 X-32.431 Y346.646
N560 X-32.077 Y344.58
N565 X-31.68 Y342.539
N570 X-31.24 Y340.524
N575 X-30.76 Y338.539
N580 X-30.239 Y336.586
N585 X-29.678 Y334.668
N590 X-29.079 Y332.787
N595 X-28.441 Y330.947
N600 X-27.767 Y329.149
N605 X-27.057 Y327.396
N610 X-26.313 Y325.691
N615 X-25.536 Y324.034
N620 X-24.726 Y322.43
N625 X-23.886 Y320.879
N630 X-23.018 Y319.384
N635 X-22.121 Y317.948
N640 X-21.199 Y316.571
N645 X-20.253 Y315.256
N650 X-19.284 Y314.003
N655 X-18.295 Y312.815
N660 X-17.287 Y311.694
N665 X-16.261 Y310.638
N670 X-15.221 Y309.65
N675 X-14.169 Y308.732
N680 X-13.105 Y307.883
N685 X-12.031 Y307.103
N690 X-10.95 Y306.392
N695 X-9.864 Y305.753
N700 X-8.773 Y305.183
N705 X-7.678 Y304.681
N710 X-6.582 Y304.249
N715 X-5.485 Y303.885
N720 X-4.387 Y303.587
N725 X-3.29 Y303.357
N730 X-2.192 Y303.193
N735 X-1.096 Y303.094
N740 X0. Y303.062
N745 X1.096 Y303.094
N750 X2.192 Y303.193
N755 X3.29 Y303.357
N760 X4.387 Y303.587
N765 X5.485 Y303.885
N770 X6.582 Y304.249
N775 X7.678 Y304.681
N780 X8.773 Y305.183
N785 X9.864 Y305.753
N790 X10.95 Y306.392
N795 X12.031 Y307.103
N800 X13.105 Y307.883
N805 X14.169 Y308.732
N810 X15.221 Y309.65
N815 X16.261 Y310.638
N820 X17.287 Y311.694
N825 X18.295 Y312.815
N830 X19.284 Y314.003
N835 X20.253 Y315.256
N840 X21.199 Y316.571
N845 X22.121 Y317.948
N850 X23.018 Y319.384
N855 X23.886 Y320.879
N860 X24.726 Y322.43
N865 X25.536 Y324.034
N870 X26.313 Y325.691
N875 X27.057 Y327.396
N880 X27.767 Y329.149
N885 X28.441 Y330.947
N890 X29.079 Y332.787
N895 X29.678 Y334.668
N900 X30.239 Y336.586
N905 X30.76 Y338.539
N910 X31.24 Y340.524
N915 X31.68 Y342.539
N920 X32.077 Y344.58
N925 X32.431 Y346.646
N930 X32.743 Y348.733
N935 X33.011 Y350.838
N940 X33.235 Y352.961
N945 X33.414 Y355.094
N950 X33.549 Y357.239
N955 X33.639 Y359.39
N960 X33.684 Y361.547
N965 Y361.899
N970 G3 X33.049 Y362.534 I-0.635 J0. F1000.
N975 G1 X32.414
N980 G18 G3 X31.779 Z-5.365 I0. K0.635

; level change
;N985 G0 Z5.
;N990 Y361.264
;N995 G1 Z1. F333.33
;N1000 Z-10.365
G1 Y361.264
G1 Z-10.365 F333.33

N1005 G2 X32.414 Z-11. I0.635 K0.
N1010 G1 X33.049 F1000.
N1015 G17 G3 X33.684 Y361.899 I0. J0.635
N1020 G1 Y363.703 F5000.
N1025 X33.639 Y365.86
N1030 X33.549 Y368.011
N1035 X33.414 Y370.156
N1040 X33.235 Y372.289
N1045 X33.011 Y374.412
N1050 X32.743 Y376.517
N1055 X32.431 Y378.604
N1060 X32.077 Y380.67
N1065 X31.68 Y382.711
N1070 X31.24 Y384.726
N1075 X30.76 Y386.711
N1080 X30.239 Y388.664
N1085 X29.678 Y390.582
N1090 X29.079 Y392.463
N1095 X28.441 Y394.303
N1100 X27.767 Y396.101
N1105 X27.057 Y397.854
N1110 X26.313 Y399.559
N1115 X25.536 Y401.216
N1120 X24.726 Y402.82
N1125 X23.886 Y404.371
N1130 X23.018 Y405.866
N1135 X22.121 Y407.302
N1140 X21.199 Y408.679
N1145 X20.253 Y409.994
N1150 X19.284 Y411.247
N1155 X18.295 Y412.435
N1160 X17.287 Y413.556
N1165 X16.261 Y414.612
N1170 X15.221 Y415.6
N1175 X14.169 Y416.518
N1180 X13.105 Y417.367
N1185 X12.031 Y418.147
N1190 X10.95 Y418.858
N1195 X9.864 Y419.497
N1200 X8.773 Y420.067
N1205 X7.678 Y420.569
N1210 X6.582 Y421.001
N1215 X5.485 Y421.365
N1220 X4.387 Y421.663
N1225 X3.29 Y421.893
N1230 X2.192 Y422.057
N1235 X1.096 Y422.156
N1240 X0. Y422.188
N1245 X-1.096 Y422.156
N1250 X-2.192 Y422.057
N1255 X-3.29 Y421.893
N1260 X-4.387 Y421.663
N1265 X-5.485 Y421.365
N1270 X-6.582 Y421.001
N1275 X-7.678 Y420.569
N1280 X-8.773 Y420.067
N1285 X-9.864 Y419.497
N1290 X-10.95 Y418.858
N1295 X-12.031 Y418.147
N1300 X-13.105 Y417.367
N1305 X-14.169 Y416.518
N1310 X-15.221 Y415.6
N1315 X-16.261 Y414.612
N1320 X-17.287 Y413.556
N1325 X-18.295 Y412.435
N1330 X-19.284 Y411.247
N1335 X-20.253 Y409.994
N1340 X-21.199 Y408.679
N1345 X-22.121 Y407.302
N1350 X-23.018 Y405.866
N1355 X-23.886 Y404.371
N1360 X-24.726 Y402.82
N1365 X-25.536 Y401.216
N1370 X-26.313 Y399.559
N1375 X-27.057 Y397.854
N1380 X-27.767 Y396.101
N1385 X-28.441 Y394.303
N1390 X-29.079 Y392.463
N1395 X-29.678 Y390.582
N1400 X-30.239 Y388.664
N1405 X-30.76 Y386.711
N1410 X-31.24 Y384.726
N1415 X-31.68 Y382.711
N1420 X-32.077 Y380.67
N1425 X-32.431 Y378.604
N1430 X-32.743 Y376.517
N1435 X-33.011 Y374.412
N1440 X-33.235 Y372.289
N1445 X-33.414 Y370.156
N1450 X-33.549 Y368.011
N1455 X-33.639 Y365.86
N1460 X-33.684 Y363.703
N1465 Y361.547
N1470 X-33.639 Y359.39
N1475 X-33.549 Y357.239
N1480 X-33.414 Y355.094
N1485 X-33.235 Y352.961
N1490 X-33.011 Y350.838
N1495 X-32.743 Y348.733
N1500 X-32.431 Y346.646
N1505 X-32.077 Y344.58
N1510 X-31.68 Y342.539
N1515 X-31.24 Y340.524
N1520 X-30.76 Y338.539
N1525 X-30.239 Y336.586
N1530 X-29.678 Y334.668
N1535 X-29.079 Y332.787
N1540 X-28.441 Y330.947
N1545 X-27.767 Y329.149
N1550 X-27.057 Y327.396
N1555 X-26.313 Y325.691
N1560 X-25.536 Y324.034
N1565 X-24.726 Y322.43
N1570 X-23.886 Y320.879
N1575 X-23.018 Y319.384
N1580 X-22.121 Y317.948
N1585 X-21.199 Y316.571
N1590 X-20.253 Y315.256
N1595 X-19.284 Y314.003
N1600 X-18.295 Y312.815
N1605 X-17.287 Y311.694
N1610 X-16.261 Y310.638
N1615 X-15.221 Y309.65
N1620 X-14.169 Y308.732
N1625 X-13.105 Y307.883
N1630 X-12.031 Y307.103
N1635 X-10.95 Y306.392
N1640 X-9.864 Y305.753
N1645 X-8.773 Y305.183
N1650 X-7.678 Y304.681
N1655 X-6.582 Y304.249
N1660 X-5.485 Y303.885
N1665 X-4.387 Y303.587
N1670 X-3.29 Y303.357
N1675 X-2.192 Y303.193
N1680 X-1.096 Y303.094
N1685 X0. Y303.062
N1690 X1.096 Y303.094
N1695 X2.192 Y303.193
N1700 X3.29 Y303.357
N1705 X4.387 Y303.587
N1710 X5.485 Y303.885
N1715 X6.582 Y304.249
N1720 X7.678 Y304.681
N1725 X8.773 Y305.183
N1730 X9.864 Y305.753
N1735 X10.95 Y306.392
N1740 X12.031 Y307.103
N1745 X13.105 Y307.883
N1750 X14.169 Y308.732
N1755 X15.221 Y309.65
N1760 X16.261 Y310.638
N1765 X17.287 Y311.694
N1770 X18.295 Y312.815
N1775 X19.284 Y314.003
N1780 X20.253 Y315.256
N1785 X21.199 Y316.571
N1790 X22.121 Y317.948
N1795 X23.018 Y319.384
N1800 X23.886 Y320.879
N1805 X24.726 Y322.43
N1810 X25.536 Y324.034
N1815 X26.313 Y325.691
N1820 X27.057 Y327.396
N1825 X27.767 Y329.149
N1830 X28.441 Y330.947
N1835 X29.079 Y332.787
N1840 X29.678 Y334.668
N1845 X30.239 Y336.586
N1850 X30.76 Y338.539
N1855 X31.24 Y340.524
N1860 X31.68 Y342.539
N1865 X32.077 Y344.58
N1870 X32.431 Y346.646
N1875 X32.743 Y348.733
N1880 X33.011 Y350.838
N1885 X33.235 Y352.961
N1890 X33.414 Y355.094
N1895 X33.549 Y357.239
N1900 X33.639 Y359.39
N1905 X33.684 Y361.547
N1910 Y361.899
G64 P0.20
N1915 G2 X34.002 Y362.376 I0.516 J0.
N1920 G3 X34.319 Y362.852 I-0.198 J0.476
N1925 G1 Y363.71
N1930 X34.274 Y365.879
N1935 X34.183 Y368.044
N1940 X34.048 Y370.202
N1945 X33.867 Y372.349
N1950 X33.642 Y374.485
N1955 X33.372 Y376.604
N1960 X33.058 Y378.705
N1965 X32.701 Y380.784
N1970 X32.301 Y382.84
N1975 X31.859 Y384.868
N1980 X31.375 Y386.867
N1985 X30.85 Y388.835
N1990 X30.285 Y390.767
N1995 X29.681 Y392.663
N2000 X29.039 Y394.518
N2005 X28.359 Y396.332
N2010 X27.643 Y398.1
N2015 X26.892 Y399.821
N2020 X26.107 Y401.494
N2025 X25.289 Y403.114
N2030 X24.44 Y404.682
N2035 X23.562 Y406.193
N2040 X22.655 Y407.647
N2045 X21.721 Y409.041
N2050 X20.762 Y410.374
N2055 X19.779 Y411.644
N2060 X18.775 Y412.85
N2065 X17.751 Y413.99
N2070 X16.708 Y415.064
N2075 X15.649 Y416.07
N2080 X14.576 Y417.006
N2085 X13.49 Y417.872
N2090 X12.392 Y418.669
N2095 X11.285 Y419.397
N2100 X10.172 Y420.052
N2105 X9.052 Y420.638
N2110 X7.927 Y421.153
N2115 X6.799 Y421.598
N2120 X5.668 Y421.974
N2125 X4.535 Y422.281
N2130 X3.402 Y422.519
N2135 X2.268 Y422.688
N2140 X1.134 Y422.79
N2145 X0. Y422.824
N2150 X-1.134 Y422.79
N2155 X-2.268 Y422.688
N2160 X-3.402 Y422.519
N2165 X-4.535 Y422.281
N2170 X-5.668 Y421.974
N2175 X-6.799 Y421.598
N2180 X-7.927 Y421.153
N2185 X-9.052 Y420.638
N2190 X-10.172 Y420.052
N2195 X-11.285 Y419.397
N2200 X-12.392 Y418.669
N2205 X-13.49 Y417.872
N2210 X-14.576 Y417.006
N2215 X-15.649 Y416.07
N2220 X-16.708 Y415.064
N2225 X-17.751 Y413.99
N2230 X-18.775 Y412.85
N2235 X-19.779 Y411.644
N2240 X-20.762 Y410.374
N2245 X-21.721 Y409.041
N2250 X-22.655 Y407.647
N2255 X-23.562 Y406.193
N2260 X-24.44 Y404.682
N2265 X-25.289 Y403.114
N2270 X-26.107 Y401.494
N2275 X-26.892 Y399.821
N2280 X-27.643 Y398.1
N2285 X-28.359 Y396.332
N2290 X-29.039 Y394.518
N2295 X-29.681 Y392.663
N2300 X-30.285 Y390.767
N2305 X-30.85 Y388.835
N2310 X-31.375 Y386.867
N2315 X-31.859 Y384.868
N2320 X-32.301 Y382.84
N2325 X-32.701 Y380.784
N2330 X-33.058 Y378.705
N2335 X-33.372 Y376.604
N2340 X-33.642 Y374.485
N2345 X-33.867 Y372.349
N2350 X-34.048 Y370.202
N2355 X-34.183 Y368.044
N2360 X-34.274 Y365.879
N2365 X-34.319 Y363.71
N2370 Y361.54
N2375 X-34.274 Y359.371
N2380 X-34.183 Y357.206
N2385 X-34.048 Y355.048
N2390 X-33.867 Y352.901
N2395 X-33.642 Y350.765
N2400 X-33.372 Y348.646
N2405 X-33.058 Y346.545
N2410 X-32.701 Y344.466
N2415 X-32.301 Y342.41
N2420 X-31.859 Y340.382
N2425 X-31.375 Y338.383
N2430 X-30.85 Y336.415
N2435 X-30.285 Y334.483
N2440 X-29.681 Y332.587
N2445 X-29.039 Y330.732
N2450 X-28.359 Y328.918
N2455 X-27.643 Y327.15
N2460 X-26.892 Y325.429
N2465 X-26.107 Y323.756
N2470 X-25.289 Y322.136
N2475 X-24.44 Y320.568
N2480 X-23.562 Y319.057
N2485 X-22.655 Y317.603
N2490 X-21.721 Y316.209
N2495 X-20.762 Y314.876
N2500 X-19.779 Y313.606
N2505 X-18.775 Y312.4
N2510 X-17.751 Y311.26
N2515 X-16.708 Y310.186
N2520 X-15.649 Y309.18
N2525 X-14.576 Y308.244
N2530 X-13.49 Y307.378
N2535 X-12.392 Y306.581
N2540 X-11.285 Y305.853
N2545 X-10.172 Y305.198
N2550 X-9.052 Y304.612
N2555 X-7.927 Y304.097
N2560 X-6.799 Y303.652
N2565 X-5.668 Y303.276
N2570 X-4.535 Y302.969
N2575 X-3.402 Y302.731
N2580 X-2.268 Y302.562
N2585 X-1.134 Y302.46
N2590 X0. Y302.426
N2595 X1.134 Y302.46
N2600 X2.268 Y302.562
N2605 X3.402 Y302.731
N2610 X4.535 Y302.969
N2615 X5.668 Y303.276
N2620 X6.799 Y303.652
N2625 X7.927 Y304.097
N2630 X9.052 Y304.612
N2635 X10.172 Y305.198
N2640 X11.285 Y305.853
N2645 X12.392 Y306.581
N2650 X13.49 Y307.378
N2655 X14.576 Y308.244
N2660 X15.649 Y309.18
N2665 X16.708 Y310.186
N2670 X17.751 Y311.26
N2675 X18.775 Y312.4
N2680 X19.779 Y313.606
N2685 X20.762 Y314.876
N2690 X21.721 Y316.209
N2695 X22.655 Y317.603
N2700 X23.562 Y319.057
N2705 X24.44 Y320.568
N2710 X25.289 Y322.136
N2715 X26.107 Y323.756
N2720 X26.892 Y325.429
N2725 X27.643 Y327.15
N2730 X28.359 Y328.918
N2735 X29.039 Y330.732
N2740 X29.681 Y332.587
N2745 X30.285 Y334.483
N2750 X30.85 Y336.415
N2755 X31.375 Y338.383
N2760 X31.859 Y340.382
N2765 X32.301 Y342.41
N2770 X32.701 Y344.466
N2775 X33.058 Y346.545
N2780 X33.372 Y348.646
N2785 X33.642 Y350.765
N2790 X33.867 Y352.901
N2795 X34.048 Y355.048
N2800 X34.183 Y357.206
N2805 X34.274 Y359.371
N2810 X34.319 Y361.54
N2815 Y362.852
N2820 G3 X33.684 Y363.487 I-0.635 J0. F1000.
N2825 G1 X33.049
N2830 G18 G3 X32.414 Z-10.365 I0. K0.635
N2835 G0 Z7.

G64 P0.50

N2840 X31.779 Y220.966
N2845 G1 Z-5.365 F333.33
N2850 G2 X32.414 Z-6. I0.635 K0.
N2855 G1 X33.049 F1000.
N2860 G17 G3 X33.684 Y221.601 I0. J0.635
N2865 G1 Y221.953 F5000.
N2870 X33.639 Y224.11
N2875 X33.549 Y226.261
N2880 X33.414 Y228.406
N2885 X33.235 Y230.539
N2890 X33.011 Y232.662
N2895 X32.743 Y234.767
N2900 X32.431 Y236.854
N2905 X32.077 Y238.92
N2910 X31.68 Y240.961
N2915 X31.24 Y242.976
N2920 X30.76 Y244.961
N2925 X30.239 Y246.914
N2930 X29.678 Y248.832
N2935 X29.079 Y250.713
N2940 X28.441 Y252.553
N2945 X27.767 Y254.351
N2950 X27.057 Y256.104
N2955 X26.313 Y257.809
N2960 X25.536 Y259.466
N2965 X24.726 Y261.07
N2970 X23.886 Y262.621
N2975 X23.018 Y264.116
N2980 X22.121 Y265.552
N2985 X21.199 Y266.929
N2990 X20.253 Y268.244
N2995 X19.284 Y269.497
N3000 X18.295 Y270.685
N3005 X17.287 Y271.806
N3010 X16.261 Y272.862
N3015 X15.221 Y273.85
N3020 X14.169 Y274.768
N3025 X13.105 Y275.617
N3030 X12.031 Y276.397
N3035 X10.95 Y277.108
N3040 X9.864 Y277.747
N3045 X8.773 Y278.317
N3050 X7.678 Y278.819
N3055 X6.582 Y279.251
N3060 X5.485 Y279.615
N3065 X4.387 Y279.913
N3070 X3.29 Y280.143
N3075 X2.192 Y280.307
N3080 X1.096 Y280.406
N3085 X0. Y280.438
N3090 X-1.096 Y280.406
N3095 X-2.192 Y280.307
N3100 X-3.29 Y280.143
N3105 X-4.387 Y279.913
N3110 X-5.485 Y279.615
N3115 X-6.582 Y279.251
N3120 X-7.678 Y278.819
N3125 X-8.773 Y278.317
N3130 X-9.864 Y277.747
N3135 X-10.95 Y277.108
N3140 X-12.031 Y276.397
N3145 X-13.105 Y275.617
N3150 X-14.169 Y274.768
N3155 X-15.221 Y273.85
N3160 X-16.261 Y272.862
N3165 X-17.287 Y271.806
N3170 X-18.295 Y270.685
N3175 X-19.284 Y269.497
N3180 X-20.253 Y268.244
N3185 X-21.199 Y266.929
N3190 X-22.121 Y265.552
N3195 X-23.018 Y264.116
N3200 X-23.886 Y262.621
N3205 X-24.726 Y261.07
N3210 X-25.536 Y259.466
N3215 X-26.313 Y257.809
N3220 X-27.057 Y256.104
N3225 X-27.767 Y254.351
N3230 X-28.441 Y252.553
N3235 X-29.079 Y250.713
N3240 X-29.678 Y248.832
N3245 X-30.239 Y246.914
N3250 X-30.76 Y244.961
N3255 X-31.24 Y242.976
N3260 X-31.68 Y240.961
N3265 X-32.077 Y238.92
N3270 X-32.431 Y236.854
N3275 X-32.743 Y234.767
N3280 X-33.011 Y232.662
N3285 X-33.235 Y230.539
N3290 X-33.414 Y228.406
N3295 X-33.549 Y226.261
N3300 X-33.639 Y224.11
N3305 X-33.684 Y221.953
N3310 Y219.797
N3315 X-33.639 Y217.64
N3320 X-33.549 Y215.489
N3325 X-33.414 Y213.344
N3330 X-33.235 Y211.211
N3335 X-33.011 Y209.088
N3340 X-32.743 Y206.983
N3345 X-32.431 Y204.896
N3350 X-32.077 Y202.83
N3355 X-31.68 Y200.789
N3360 X-31.24 Y198.774
N3365 X-30.76 Y196.789
N3370 X-30.239 Y194.836
N3375 X-29.678 Y192.918
N3380 X-29.079 Y191.037
N3385 X-28.441 Y189.197
N3390 X-27.767 Y187.399
N3395 X-27.057 Y185.646
N3400 X-26.313 Y183.941
N3405 X-25.536 Y182.284
N3410 X-24.726 Y180.68

N3415 X-23.886 Y179.129
N3420 X-23.018 Y177.634
N3425 X-22.121 Y176.198
N3430 X-21.199 Y174.821
N3435 X-20.253 Y173.506
N3440 X-19.284 Y172.253
N3445 X-18.295 Y171.065
N3450 X-17.287 Y169.944
N3455 X-16.261 Y168.888
N3460 X-15.221 Y167.9
N3465 X-14.169 Y166.982
N3470 X-13.105 Y166.133
N3475 X-12.031 Y165.353
N3480 X-10.95 Y164.642
N3485 X-9.864 Y164.003
N3490 X-8.773 Y163.433
N3495 X-7.678 Y162.931
N3500 X-6.582 Y162.499
N3505 X-5.485 Y162.135
N3510 X-4.387 Y161.837
N3515 X-3.29 Y161.607
N3520 X-2.192 Y161.443
N3525 X-1.096 Y161.344
N3530 X0. Y161.312
N3535 X1.096 Y161.344
N3540 X2.192 Y161.443
N3545 X3.29 Y161.607
N3550 X4.387 Y161.837
N3555 X5.485 Y162.135
N3560 X6.582 Y162.499
N3565 X7.678 Y162.931
N3570 X8.773 Y163.433
N3575 X9.864 Y164.003
N3580 X10.95 Y164.642
N3585 X12.031 Y165.353
N3590 X13.105 Y166.133
N3595 X14.169 Y166.982
N3600 X15.221 Y167.9
N3605 X16.261 Y168.888
N3610 X17.287 Y169.944
N3615 X18.295 Y171.065
N3620 X19.284 Y172.253
N3625 X20.253 Y173.506
N3630 X21.199 Y174.821
N3635 X22.121 Y176.198
N3640 X23.018 Y177.634
N3645 X23.886 Y179.129
N3650 X24.726 Y180.68
N3655 X25.536 Y182.284
N3660 X26.313 Y183.941
N3665 X27.057 Y185.646
N3670 X27.767 Y187.399
N3675 X28.441 Y189.197
N3680 X29.079 Y191.037
N3685 X29.678 Y192.918
N3690 X30.239 Y194.836
N3695 X30.76 Y196.789
N3700 X31.24 Y198.774
N3705 X31.68 Y200.789
N3710 X32.077 Y202.83
N3715 X32.431 Y204.896
N3720 X32.743 Y206.983
N3725 X33.011 Y209.088
N3730 X33.235 Y211.211
N3735 X33.414 Y213.344
N3740 X33.549 Y215.489
N3745 X33.639 Y217.64
N3750 X33.684 Y219.797
N3755 Y221.601
N3760 G3 X33.049 Y222.236 I-0.635 J0. F1000.
N3765 G1 X32.414
N3770 G18 G3 X31.779 Z-5.365 I0. K0.635
; level change
;N3775 G0 Z5.
;N3780 Y220.966
;N3785 G1 Z1. F333.33
;N3790 Z-10.365

G1  Y220.966
G1 Z-10.365 F333.33


N3795 G2 X32.414 Z-11. I0.635 K0.
N3800 G1 X33.049 F1000.
N3805 G17 G3 X33.684 Y221.601 I0. J0.635
N3810 G1 Y221.953 F5000.
N3815 X33.639 Y224.11
N3820 X33.549 Y226.261
N3825 X33.414 Y228.406
N3830 X33.235 Y230.539
N3835 X33.011 Y232.662
N3840 X32.743 Y234.767
N3845 X32.431 Y236.854
N3850 X32.077 Y238.92
N3855 X31.68 Y240.961
N3860 X31.24 Y242.976
N3865 X30.76 Y244.961
N3870 X30.239 Y246.914
N3875 X29.678 Y248.832
N3880 X29.079 Y250.713
N3885 X28.441 Y252.553
N3890 X27.767 Y254.351
N3895 X27.057 Y256.104
N3900 X26.313 Y257.809
N3905 X25.536 Y259.466
N3910 X24.726 Y261.07
N3915 X23.886 Y262.621
N3920 X23.018 Y264.116
N3925 X22.121 Y265.552
N3930 X21.199 Y266.929
N3935 X20.253 Y268.244
N3940 X19.284 Y269.497
N3945 X18.295 Y270.685
N3950 X17.287 Y271.806
N3955 X16.261 Y272.862
N3960 X15.221 Y273.85
N3965 X14.169 Y274.768
N3970 X13.105 Y275.617
N3975 X12.031 Y276.397
N3980 X10.95 Y277.108
N3985 X9.864 Y277.747
N3990 X8.773 Y278.317
N3995 X7.678 Y278.819
N4000 X6.582 Y279.251
N4005 X5.485 Y279.615
N4010 X4.387 Y279.913
N4015 X3.29 Y280.143
N4020 X2.192 Y280.307
N4025 X1.096 Y280.406
N4030 X0. Y280.438
N4035 X-1.096 Y280.406
N4040 X-2.192 Y280.307
N4045 X-3.29 Y280.143
N4050 X-4.387 Y279.913
N4055 X-5.485 Y279.615
N4060 X-6.582 Y279.251
N4065 X-7.678 Y278.819
N4070 X-8.773 Y278.317
N4075 X-9.864 Y277.747
N4080 X-10.95 Y277.108
N4085 X-12.031 Y276.397
N4090 X-13.105 Y275.617
N4095 X-14.169 Y274.768
N4100 X-15.221 Y273.85
N4105 X-16.261 Y272.862
N4110 X-17.287 Y271.806
N4115 X-18.295 Y270.685
N4120 X-19.284 Y269.497
N4125 X-20.253 Y268.244
N4130 X-21.199 Y266.929
N4135 X-22.121 Y265.552
N4140 X-23.018 Y264.116
N4145 X-23.886 Y262.621
N4150 X-24.726 Y261.07
N4155 X-25.536 Y259.466
N4160 X-26.313 Y257.809
N4165 X-27.057 Y256.104
N4170 X-27.767 Y254.351
N4175 X-28.441 Y252.553
N4180 X-29.079 Y250.713
N4185 X-29.678 Y248.832
N4190 X-30.239 Y246.914
N4195 X-30.76 Y244.961
N4200 X-31.24 Y242.976
N4205 X-31.68 Y240.961
N4210 X-32.077 Y238.92
N4215 X-32.431 Y236.854
N4220 X-32.743 Y234.767
N4225 X-33.011 Y232.662
N4230 X-33.235 Y230.539
N4235 X-33.414 Y228.406
N4240 X-33.549 Y226.261
N4245 X-33.639 Y224.11
N4250 X-33.684 Y221.953
N4255 Y219.797
N4260 X-33.639 Y217.64
N4265 X-33.549 Y215.489
N4270 X-33.414 Y213.344
N4275 X-33.235 Y211.211
N4280 X-33.011 Y209.088
N4285 X-32.743 Y206.983
N4290 X-32.431 Y204.896
N4295 X-32.077 Y202.83
N4300 X-31.68 Y200.789
N4305 X-31.24 Y198.774
N4310 X-30.76 Y196.789
N4315 X-30.239 Y194.836
N4320 X-29.678 Y192.918
N4325 X-29.079 Y191.037
N4330 X-28.441 Y189.197
N4335 X-27.767 Y187.399
N4340 X-27.057 Y185.646
N4345 X-26.313 Y183.941
N4350 X-25.536 Y182.284
N4355 X-24.726 Y180.68
N4360 X-23.886 Y179.129
N4365 X-23.018 Y177.634
N4370 X-22.121 Y176.198
N4375 X-21.199 Y174.821
N4380 X-20.253 Y173.506
N4385 X-19.284 Y172.253
N4390 X-18.295 Y171.065
N4395 X-17.287 Y169.944
N4400 X-16.261 Y168.888
N4405 X-15.221 Y167.9
N4410 X-14.169 Y166.982
N4415 X-13.105 Y166.133
N4420 X-12.031 Y165.353
N4425 X-10.95 Y164.642
N4430 X-9.864 Y164.003
N4435 X-8.773 Y163.433
N4440 X-7.678 Y162.931
N4445 X-6.582 Y162.499
N4450 X-5.485 Y162.135
N4455 X-4.387 Y161.837
N4460 X-3.29 Y161.607
N4465 X-2.192 Y161.443
N4470 X-1.096 Y161.344
N4475 X0. Y161.312
N4480 X1.096 Y161.344
N4485 X2.192 Y161.443
N4490 X3.29 Y161.607
N4495 X4.387 Y161.837
N4500 X5.485 Y162.135
N4505 X6.582 Y162.499
N4510 X7.678 Y162.931
N4515 X8.773 Y163.433
N4520 X9.864 Y164.003
N4525 X10.95 Y164.642
N4530 X12.031 Y165.353
N4535 X13.105 Y166.133
N4540 X14.169 Y166.982
N4545 X15.221 Y167.9
N4550 X16.261 Y168.888
N4555 X17.287 Y169.944
N4560 X18.295 Y171.065
N4565 X19.284 Y172.253
N4570 X20.253 Y173.506
N4575 X21.199 Y174.821
N4580 X22.121 Y176.198
N4585 X23.018 Y177.634
N4590 X23.886 Y179.129
N4595 X24.726 Y180.68
N4600 X25.536 Y182.284
N4605 X26.313 Y183.941
N4610 X27.057 Y185.646
N4615 X27.767 Y187.399
N4620 X28.441 Y189.197
N4625 X29.079 Y191.037
N4630 X29.678 Y192.918
N4635 X30.239 Y194.836
N4640 X30.76 Y196.789
N4645 X31.24 Y198.774
N4650 X31.68 Y200.789
N4655 X32.077 Y202.83
N4660 X32.431 Y204.896
N4665 X32.743 Y206.983
N4670 X33.011 Y209.088
N4675 X33.235 Y211.211
N4680 X33.414 Y213.344
N4685 X33.549 Y215.489
N4690 X33.639 Y217.64
N4695 X33.684 Y219.797
N4700 Y221.601
G64 P0.20
N4705 G2 X33.998 Y222.075 I0.516 J0.
N4710 G3 X34.307 Y222.553 I-0.199 J0.467
N4715 G1 X34.274 Y224.129
N4720 X34.183 Y226.294
N4725 X34.048 Y228.452
N4730 X33.867 Y230.599
N4735 X33.642 Y232.735
N4740 X33.372 Y234.854
N4745 X33.058 Y236.955
N4750 X32.701 Y239.034
N4755 X32.301 Y241.09
N4760 X31.859 Y243.118
N4765 X31.375 Y245.117
N4770 X30.85 Y247.085
N4775 X30.285 Y249.017
N4780 X29.681 Y250.913
N4785 X29.039 Y252.768
N4790 X28.359 Y254.582
N4795 X27.643 Y256.35
N4800 X26.892 Y258.071
N4805 X26.107 Y259.744
N4810 X25.289 Y261.364
N4815 X24.44 Y262.932
N4820 X23.562 Y264.443
N4825 X22.655 Y265.897
N4830 X21.721 Y267.291
N4835 X20.762 Y268.624
N4840 X19.779 Y269.894
N4845 X18.775 Y271.1
N4850 X17.751 Y272.24
N4855 X16.708 Y273.314
N4860 X15.649 Y274.32
N4865 X14.576 Y275.256
N4870 X13.49 Y276.122
N4875 X12.392 Y276.919
N4880 X11.285 Y277.647
N4885 X10.172 Y278.302
N4890 X9.052 Y278.888
N4895 X7.927 Y279.403
N4900 X6.799 Y279.848
N4905 X5.668 Y280.224
N4910 X4.535 Y280.531
N4915 X3.402 Y280.769
N4920 X2.268 Y280.938
N4925 X1.134 Y281.04
N4930 X0. Y281.074
N4935 X-1.134 Y281.04
N4940 X-2.268 Y280.938
N4945 X-3.402 Y280.769
N4950 X-4.535 Y280.531
N4955 X-5.668 Y280.224
N4960 X-6.799 Y279.848
N4965 X-7.927 Y279.403
N4970 X-9.052 Y278.888
N4975 X-10.172 Y278.302
N4980 X-11.285 Y277.647
N4985 X-12.392 Y276.919
N4990 X-13.49 Y276.122
N4995 X-14.576 Y275.256
N5000 X-15.649 Y274.32
N5005 X-16.708 Y273.314
N5010 X-17.751 Y272.24
N5015 X-18.775 Y271.1
N5020 X-19.779 Y269.894
N5025 X-20.762 Y268.624
N5030 X-21.721 Y267.291
N5035 X-22.655 Y265.897
N5040 X-23.562 Y264.443
N5045 X-24.44 Y262.932
N5050 X-25.289 Y261.364
N5055 X-26.107 Y259.744
N5060 X-26.892 Y258.071
N5065 X-27.643 Y256.35
N5070 X-28.359 Y254.582
N5075 X-29.039 Y252.768
N5080 X-29.681 Y250.913
N5085 X-30.285 Y249.017
N5090 X-30.85 Y247.085
N5095 X-31.375 Y245.117
N5100 X-31.859 Y243.118
N5105 X-32.301 Y241.09
N5110 X-32.701 Y239.034
N5115 X-33.058 Y236.955
N5120 X-33.372 Y234.854
N5125 X-33.642 Y232.735
N5130 X-33.867 Y230.599
N5135 X-34.048 Y228.452
N5140 X-34.183 Y226.294
N5145 X-34.274 Y224.129
N5150 X-34.319 Y221.96
N5155 Y219.79
N5160 X-34.274 Y217.621
N5165 X-34.183 Y215.456
N5170 X-34.048 Y213.298
N5175 X-33.867 Y211.151
N5180 X-33.642 Y209.015
N5185 X-33.372 Y206.896
N5190 X-33.058 Y204.795
N5195 X-32.701 Y202.716
N5200 X-32.301 Y200.66
N5205 X-31.859 Y198.632
N5210 X-31.375 Y196.633
N5215 X-30.85 Y194.665
N5220 X-30.285 Y192.733
N5225 X-29.681 Y190.837
N5230 X-29.039 Y188.982
N5235 X-28.359 Y187.168
N5240 X-27.643 Y185.4
N5245 X-26.892 Y183.679
N5250 X-26.107 Y182.006
N5255 X-25.289 Y180.386
N5260 X-24.44 Y178.818
N5265 X-23.562 Y177.307
N5270 X-22.655 Y175.853
N5275 X-21.721 Y174.459
N5280 X-20.762 Y173.126
N5285 X-19.779 Y171.856
N5290 X-18.775 Y170.65
N5295 X-17.751 Y169.51
N5300 X-16.708 Y168.436
N5305 X-15.649 Y167.43
N5310 X-14.576 Y166.494
N5315 X-13.49 Y165.628
N5320 X-12.392 Y164.831
N5325 X-11.285 Y164.103
N5330 X-10.172 Y163.448
N5335 X-9.052 Y162.862
N5340 X-7.927 Y162.347
N5345 X-6.799 Y161.902
N5350 X-5.668 Y161.526
N5355 X-4.535 Y161.219
N5360 X-3.402 Y160.981
N5365 X-2.268 Y160.812
N5370 X-1.134 Y160.71
N5375 X0. Y160.676
N5380 X1.134 Y160.71
N5385 X2.268 Y160.812
N5390 X3.402 Y160.981
N5395 X4.535 Y161.219
N5400 X5.668 Y161.526
N5405 X6.799 Y161.902
N5410 X7.927 Y162.347
N5415 X9.052 Y162.862
N5420 X10.172 Y163.448
N5425 X11.285 Y164.103
N5430 X12.392 Y164.831
N5435 X13.49 Y165.628
N5440 X14.576 Y166.494
N5445 X15.649 Y167.43
N5450 X16.708 Y168.436
N5455 X17.751 Y169.51
N5460 X18.775 Y170.65
N5465 X19.779 Y171.856
N5470 X20.762 Y173.126
N5475 X21.721 Y174.459
N5480 X22.655 Y175.853
N5485 X23.562 Y177.307
N5490 X24.44 Y178.818
N5495 X25.289 Y180.386
N5500 X26.107 Y182.006
N5505 X26.892 Y183.679
N5510 X27.643 Y185.4
N5515 X28.359 Y187.168
N5520 X29.039 Y188.982
N5525 X29.681 Y190.837
N5530 X30.285 Y192.733
N5535 X30.85 Y194.665
N5540 X31.375 Y196.633
N5545 X31.859 Y198.632
N5550 X32.301 Y200.66
N5555 X32.701 Y202.716
N5560 X33.058 Y204.795
N5565 X33.372 Y206.896
N5570 X33.642 Y209.015
N5575 X33.867 Y211.151
N5580 X34.048 Y213.298
N5585 X34.183 Y215.456
N5590 X34.274 Y217.621
N5595 X34.319 Y219.79
N5600 Y221.96
N5605 X34.307 Y222.553
N5610 G3 X33.659 Y223.175 I-0.635 J-0.013 F1000.
N5615 G1 X33.024 Y223.161
N5620 X32.924 Y223.159 Z-10.992
N5625 X32.828 Y223.157 Z-10.969
N5630 X32.736 Y223.155 Z-10.931
N5635 X32.651 Y223.154 Z-10.879
N5640 X32.575 Y223.152 Z-10.814
N5645 X32.51 Y223.151 Z-10.738
N5650 X32.458 Y223.149 Z-10.653
N5655 X32.42 Z-10.561
N5660 X32.397 Y223.148 Z-10.464
N5665 X32.389 Z-10.365


N5670 G0 Z25.
;M5

g0 x0 y460

;N5680 M30
%
