G00 G49 G40.1 G17 G80 G50 G90
G21
(Hole Pocketing)
(SlotDrill 2mm Carbide)
M6 T12
M03 S20000
G00 Z6.0000
X49.6036 Y30.1550
G01 Z0.6350  F1000.0
X49.6066 Y30.1591 Z0.6341  F100.0
X49.6146 Y30.1717 Z0.6314
X49.6219 Y30.1848 Z0.6288
X49.6284 Y30.1983 Z0.6261
X49.6341 Y30.2121 Z0.6235
X49.6389 Y30.2263 Z0.6209
X49.6429 Y30.2407 Z0.6182
X49.6460 Y30.2553 Z0.6156
X49.6482 Y30.2701 Z0.6130
X49.6496 Y30.2850 Z0.6103
X49.6500 Y30.3000 Z0.6077
X49.6496 Y30.3149 Z0.6050
X49.6482 Y30.3298 Z0.6024
X49.6460 Y30.3446 Z0.5998
X49.6429 Y30.3592 Z0.5971
X49.6389 Y30.3736 Z0.5945
X49.6341 Y30.3878 Z0.5919
X49.6284 Y30.4016 Z0.5892
X49.6219 Y30.4151 Z0.5866
X49.6146 Y30.4282 Z0.5839
X49.6066 Y30.4408 Z0.5813
X49.5978 Y30.4529 Z0.5787
X49.5883 Y30.4644 Z0.5760
X49.5781 Y30.4754 Z0.5734
X49.5673 Y30.4857 Z0.5708
X49.5559 Y30.4954 Z0.5681
X49.5439 Y30.5044 Z0.5655
X49.5314 Y30.5126 Z0.5628
X49.5185 Y30.5201 Z0.5602
X49.5051 Y30.5268 Z0.5576
X49.4913 Y30.5327 Z0.5549
X49.4773 Y30.5377 Z0.5523
X49.4629 Y30.5419 Z0.5497
X49.4483 Y30.5452 Z0.5470
X49.4336 Y30.5477 Z0.5444
X49.4187 Y30.5493 Z0.5417
X49.4037 Y30.5499 Z0.5391
X49.3888 Y30.5497 Z0.5365
X49.3739 Y30.5486 Z0.5338
X49.3590 Y30.5466 Z0.5312
X49.3444 Y30.5437 Z0.5286
X49.3299 Y30.5399 Z0.5259
X49.3157 Y30.5353 Z0.5233
X49.3017 Y30.5298 Z0.5206
X49.2882 Y30.5235 Z0.5180
X49.2750 Y30.5165 Z0.5154
X49.2623 Y30.5086 Z0.5127
X49.2500 Y30.5000 Z0.5101
X49.2383 Y30.4907 Z0.5075
X49.2272 Y30.4807 Z0.5048
X49.2167 Y30.4700 Z0.5022
X49.2069 Y30.4587 Z0.4995
X49.1977 Y30.4469 Z0.4969
X49.1893 Y30.4345 Z0.4943
X49.1816 Y30.4217 Z0.4916
X49.1748 Y30.4084 Z0.4890
X49.1687 Y30.3948 Z0.4864
X49.1634 Y30.3808 Z0.4837
X49.1590 Y30.3665 Z0.4811
X49.1555 Y30.3519 Z0.4784
X49.1528 Y30.3372 Z0.4758
X49.1510 Y30.3224 Z0.4732
X49.1501 Y30.3074 Z0.4705
Y30.2925 Z0.4679
X49.1510 Y30.2775 Z0.4653
X49.1528 Y30.2627 Z0.4626
X49.1555 Y30.2480 Z0.4600
X49.1590 Y30.2334 Z0.4573
X49.1634 Y30.2192 Z0.4547
X49.1687 Y30.2051 Z0.4521
X49.1748 Y30.1915 Z0.4494
X49.1816 Y30.1782 Z0.4468
X49.1893 Y30.1654 Z0.4442
X49.1977 Y30.1530 Z0.4415
X49.2069 Y30.1412 Z0.4389
X49.2167 Y30.1299 Z0.4363
X49.2272 Y30.1193 Z0.4336
X49.2383 Y30.1092 Z0.4310
X49.2500 Y30.0999 Z0.4283
X49.2623 Y30.0913 Z0.4257
X49.2750 Y30.0834 Z0.4231
X49.2882 Y30.0764 Z0.4204
X49.3017 Y30.0701 Z0.4178
X49.3157 Y30.0646 Z0.4151
X49.3299 Y30.0600 Z0.4125
X49.3444 Y30.0562 Z0.4099
X49.3590 Y30.0533 Z0.4072
X49.3739 Y30.0513 Z0.4046
X49.3888 Y30.0502 Z0.4020
X49.4037 Y30.0500 Z0.3993
X49.4187 Y30.0507 Z0.3967
X49.4336 Y30.0522 Z0.3940
X49.4483 Y30.0547 Z0.3914
X49.4629 Y30.0580 Z0.3888
X49.4773 Y30.0622 Z0.3861
X49.4913 Y30.0672 Z0.3835
X49.5051 Y30.0731 Z0.3809
X49.5185 Y30.0798 Z0.3782
X49.5314 Y30.0873 Z0.3756
X49.5439 Y30.0955 Z0.3730
X49.5559 Y30.1045 Z0.3703
X49.5673 Y30.1142 Z0.3677
X49.5781 Y30.1245 Z0.3650
X49.5883 Y30.1355 Z0.3624
X49.5978 Y30.1470 Z0.3598
X49.6066 Y30.1591 Z0.3571
X49.6146 Y30.1717 Z0.3545
X49.6219 Y30.1848 Z0.3519
X49.6284 Y30.1983 Z0.3492
X49.6341 Y30.2121 Z0.3466
X49.6389 Y30.2263 Z0.3439
X49.6429 Y30.2407 Z0.3413
X49.6460 Y30.2553 Z0.3387
X49.6482 Y30.2701 Z0.3360
X49.6496 Y30.2850 Z0.3334
X49.6500 Y30.3000 Z0.3308
X49.6496 Y30.3149 Z0.3281
X49.6482 Y30.3298 Z0.3255
X49.6460 Y30.3446 Z0.3228
X49.6429 Y30.3592 Z0.3202
X49.6389 Y30.3736 Z0.3176
X49.6341 Y30.3878 Z0.3149
X49.6284 Y30.4016 Z0.3123
X49.6219 Y30.4151 Z0.3097
X49.6146 Y30.4282 Z0.3070
X49.6066 Y30.4408 Z0.3044
X49.5978 Y30.4529 Z0.3017
X49.5883 Y30.4644 Z0.2991
X49.5781 Y30.4754 Z0.2965
X49.5673 Y30.4857 Z0.2938
X49.5559 Y30.4954 Z0.2912
X49.5439 Y30.5044 Z0.2886
X49.5314 Y30.5126 Z0.2859
X49.5185 Y30.5201 Z0.2833
X49.5051 Y30.5268 Z0.2806
X49.4913 Y30.5327 Z0.2780
X49.4773 Y30.5377 Z0.2754
X49.4629 Y30.5419 Z0.2727
X49.4483 Y30.5452 Z0.2701
X49.4336 Y30.5477 Z0.2675
X49.4187 Y30.5493 Z0.2648
X49.4037 Y30.5499 Z0.2622
X49.3888 Y30.5497 Z0.2595
X49.3739 Y30.5486 Z0.2569
X49.3590 Y30.5466 Z0.2543
X49.3444 Y30.5437 Z0.2516
X49.3299 Y30.5399 Z0.2490
X49.3157 Y30.5353 Z0.2464
X49.3017 Y30.5298 Z0.2437
X49.2882 Y30.5235 Z0.2411
X49.2750 Y30.5165 Z0.2384
X49.2623 Y30.5086 Z0.2358
X49.2500 Y30.5000 Z0.2332
X49.2383 Y30.4907 Z0.2305
X49.2272 Y30.4807 Z0.2279
X49.2167 Y30.4700 Z0.2253
X49.2069 Y30.4587 Z0.2226
X49.1977 Y30.4469 Z0.2200
X49.1893 Y30.4345 Z0.2173
X49.1816 Y30.4217 Z0.2147
X49.1748 Y30.4084 Z0.2121
X49.1687 Y30.3948 Z0.2094
X49.1634 Y30.3808 Z0.2068
X49.1590 Y30.3665 Z0.2042
X49.1555 Y30.3519 Z0.2015
X49.1528 Y30.3372 Z0.1989
X49.1510 Y30.3224 Z0.1962
X49.1501 Y30.3074 Z0.1936
Y30.2925 Z0.1910
X49.1510 Y30.2775 Z0.1883
X49.1528 Y30.2627 Z0.1857
X49.1555 Y30.2480 Z0.1831
X49.1590 Y30.2334 Z0.1804
X49.1634 Y30.2192 Z0.1778
X49.1687 Y30.2051 Z0.1751
X49.1748 Y30.1915 Z0.1725
X49.1816 Y30.1782 Z0.1699
X49.1893 Y30.1654 Z0.1672
X49.1977 Y30.1530 Z0.1646
X49.2069 Y30.1412 Z0.1620
X49.2167 Y30.1299 Z0.1593
X49.2272 Y30.1193 Z0.1567
X49.2383 Y30.1092 Z0.1540
X49.2500 Y30.0999 Z0.1514
X49.2623 Y30.0913 Z0.1488
X49.2750 Y30.0834 Z0.1461
X49.2882 Y30.0764 Z0.1435
X49.3017 Y30.0701 Z0.1409
X49.3157 Y30.0646 Z0.1382
X49.3299 Y30.0600 Z0.1356
X49.3444 Y30.0562 Z0.1329
X49.3590 Y30.0533 Z0.1303
X49.3739 Y30.0513 Z0.1277
X49.3888 Y30.0502 Z0.1250
X49.4037 Y30.0500 Z0.1224
X49.4187 Y30.0507 Z0.1198
X49.4336 Y30.0522 Z0.1171
X49.4483 Y30.0547 Z0.1145
X49.4629 Y30.0580 Z0.1118
X49.4773 Y30.0622 Z0.1092
X49.4913 Y30.0672 Z0.1066
X49.5051 Y30.0731 Z0.1039
X49.5185 Y30.0798 Z0.1013
X49.5314 Y30.0873 Z0.0987
X49.5439 Y30.0955 Z0.0960
X49.5559 Y30.1045 Z0.0934
X49.5673 Y30.1142 Z0.0907
X49.5781 Y30.1245 Z0.0881
X49.5883 Y30.1355 Z0.0855
X49.5978 Y30.1470 Z0.0828
X49.6066 Y30.1591 Z0.0802
X49.6146 Y30.1717 Z0.0776
X49.6219 Y30.1848 Z0.0749
X49.6284 Y30.1983 Z0.0723
X49.6341 Y30.2121 Z0.0696
X49.6389 Y30.2263 Z0.0670
X49.6429 Y30.2407 Z0.0644
X49.6460 Y30.2553 Z0.0617
X49.6482 Y30.2701 Z0.0591
X49.6496 Y30.2850 Z0.0565
X49.6500 Y30.3000 Z0.0538
X49.6496 Y30.3149 Z0.0512
X49.6482 Y30.3298 Z0.0485
X49.6460 Y30.3446 Z0.0459
X49.6429 Y30.3592 Z0.0433
X49.6389 Y30.3736 Z0.0406
X49.6341 Y30.3878 Z0.0380
X49.6284 Y30.4016 Z0.0354
X49.6219 Y30.4151 Z0.0327
X49.6146 Y30.4282 Z0.0301
X49.6066 Y30.4408 Z0.0274
X49.5978 Y30.4529 Z0.0248
X49.5883 Y30.4644 Z0.0222
X49.5781 Y30.4754 Z0.0195
X49.5673 Y30.4857 Z0.0169
X49.5559 Y30.4954 Z0.0143
X49.5439 Y30.5044 Z0.0116
X49.5314 Y30.5126 Z0.0090
X49.5185 Y30.5201 Z0.0063
X49.5051 Y30.5268 Z0.0037
X49.4913 Y30.5327 Z0.0011
X49.4773 Y30.5377 Z-0.0016
X49.4629 Y30.5419 Z-0.0042
X49.4483 Y30.5452 Z-0.0068
X49.4336 Y30.5477 Z-0.0095
X49.4187 Y30.5493 Z-0.0121
X49.4037 Y30.5499 Z-0.0148
X49.3888 Y30.5497 Z-0.0174
X49.3739 Y30.5486 Z-0.0200
X49.3590 Y30.5466 Z-0.0227
X49.3444 Y30.5437 Z-0.0253
X49.3299 Y30.5399 Z-0.0279
X49.3157 Y30.5353 Z-0.0306
X49.3017 Y30.5298 Z-0.0332
X49.2882 Y30.5235 Z-0.0359
X49.2750 Y30.5165 Z-0.0385
X49.2623 Y30.5086 Z-0.0411
X49.2500 Y30.5000 Z-0.0438
X49.2383 Y30.4907 Z-0.0464
X49.2272 Y30.4807 Z-0.0490
X49.2167 Y30.4700 Z-0.0517
X49.2069 Y30.4587 Z-0.0543
X49.1977 Y30.4469 Z-0.0570
X49.1893 Y30.4345 Z-0.0596
X49.1816 Y30.4217 Z-0.0622
X49.1748 Y30.4084 Z-0.0649
X49.1687 Y30.3948 Z-0.0675
X49.1634 Y30.3808 Z-0.0701
X49.1590 Y30.3665 Z-0.0728
X49.1555 Y30.3519 Z-0.0754
X49.1528 Y30.3372 Z-0.0781
X49.1510 Y30.3224 Z-0.0807
X49.1501 Y30.3074 Z-0.0833
Y30.2925 Z-0.0860
X49.1510 Y30.2775 Z-0.0886
X49.1528 Y30.2627 Z-0.0912
X49.1555 Y30.2480 Z-0.0939
X49.1590 Y30.2334 Z-0.0965
X49.1634 Y30.2192 Z-0.0992
X49.1687 Y30.2051 Z-0.1018
X49.1748 Y30.1915 Z-0.1044
X49.1816 Y30.1782 Z-0.1071
X49.1893 Y30.1654 Z-0.1097
X49.1977 Y30.1530 Z-0.1123
X49.2069 Y30.1412 Z-0.1150
X49.2167 Y30.1299 Z-0.1176
X49.2272 Y30.1193 Z-0.1203
X49.2383 Y30.1092 Z-0.1229
X49.2500 Y30.0999 Z-0.1255
X49.2623 Y30.0913 Z-0.1282
X49.2750 Y30.0834 Z-0.1308
X49.2882 Y30.0764 Z-0.1334
X49.3017 Y30.0701 Z-0.1361
X49.3157 Y30.0646 Z-0.1387
X49.3299 Y30.0600 Z-0.1414
X49.3444 Y30.0562 Z-0.1440
X49.3590 Y30.0533 Z-0.1466
X49.3739 Y30.0513 Z-0.1493
X49.3888 Y30.0502 Z-0.1519
X49.4037 Y30.0500 Z-0.1545
X49.4187 Y30.0507 Z-0.1572
X49.4336 Y30.0522 Z-0.1598
X49.4483 Y30.0547 Z-0.1625
X49.4629 Y30.0580 Z-0.1651
X49.4773 Y30.0622 Z-0.1677
X49.4913 Y30.0672 Z-0.1704
X49.5051 Y30.0731 Z-0.1730
X49.5185 Y30.0798 Z-0.1756
X49.5314 Y30.0873 Z-0.1783
X49.5439 Y30.0955 Z-0.1809
X49.5559 Y30.1045 Z-0.1836
X49.5673 Y30.1142 Z-0.1862
X49.5781 Y30.1245 Z-0.1888
X49.5883 Y30.1355 Z-0.1915
X49.5978 Y30.1470 Z-0.1941
X49.6066 Y30.1591 Z-0.1967
X49.6146 Y30.1717 Z-0.1994
X49.6219 Y30.1848 Z-0.2020
X49.6284 Y30.1983 Z-0.2047
X49.6341 Y30.2121 Z-0.2073
X49.6389 Y30.2263 Z-0.2099
X49.6429 Y30.2407 Z-0.2126
X49.6460 Y30.2553 Z-0.2152
X49.6482 Y30.2701 Z-0.2178
X49.6496 Y30.2850 Z-0.2205
X49.6500 Y30.3000 Z-0.2231
X49.6496 Y30.3149 Z-0.2258
X49.6482 Y30.3298 Z-0.2284
X49.6460 Y30.3446 Z-0.2310
X49.6429 Y30.3592 Z-0.2337
X49.6389 Y30.3736 Z-0.2363
X49.6341 Y30.3878 Z-0.2389
X49.6284 Y30.4016 Z-0.2416
X49.6219 Y30.4151 Z-0.2442
X49.6146 Y30.4282 Z-0.2469
X49.6066 Y30.4408 Z-0.2495
X49.5978 Y30.4529 Z-0.2521
X49.5883 Y30.4644 Z-0.2548
X49.5781 Y30.4754 Z-0.2574
X49.5673 Y30.4857 Z-0.2600
X49.5559 Y30.4954 Z-0.2627
X49.5439 Y30.5044 Z-0.2653
X49.5314 Y30.5126 Z-0.2680
X49.5185 Y30.5201 Z-0.2706
X49.5051 Y30.5268 Z-0.2732
X49.4913 Y30.5327 Z-0.2759
X49.4773 Y30.5377 Z-0.2785
X49.4629 Y30.5419 Z-0.2811
X49.4483 Y30.5452 Z-0.2838
X49.4336 Y30.5477 Z-0.2864
X49.4187 Y30.5493 Z-0.2890
X49.4037 Y30.5499 Z-0.2917
X49.3888 Y30.5497 Z-0.2943
X49.3739 Y30.5486 Z-0.2970
X49.3590 Y30.5466 Z-0.2996
X49.3444 Y30.5437 Z-0.3022
X49.3299 Y30.5399 Z-0.3049
X49.3157 Y30.5353 Z-0.3075
X49.3017 Y30.5298 Z-0.3101
X49.2882 Y30.5235 Z-0.3128
X49.2750 Y30.5165 Z-0.3154
X49.2623 Y30.5086 Z-0.3181
X49.2500 Y30.5000 Z-0.3207
X49.2383 Y30.4907 Z-0.3233
X49.2272 Y30.4807 Z-0.3260
X49.2167 Y30.4700 Z-0.3286
X49.2069 Y30.4587 Z-0.3312
X49.1977 Y30.4469 Z-0.3339
X49.1893 Y30.4345 Z-0.3365
X49.1816 Y30.4217 Z-0.3392
X49.1748 Y30.4084 Z-0.3418
X49.1687 Y30.3948 Z-0.3444
X49.1634 Y30.3808 Z-0.3471
X49.1590 Y30.3665 Z-0.3497
X49.1555 Y30.3519 Z-0.3523
X49.1528 Y30.3372 Z-0.3550
X49.1510 Y30.3224 Z-0.3576
X49.1501 Y30.3074 Z-0.3603
Y30.2925 Z-0.3629
X49.1510 Y30.2775 Z-0.3655
X49.1528 Y30.2627 Z-0.3682
X49.1555 Y30.2480 Z-0.3708
X49.1590 Y30.2334 Z-0.3734
X49.1634 Y30.2192 Z-0.3761
X49.1687 Y30.2051 Z-0.3787
X49.1748 Y30.1915 Z-0.3814
X49.1816 Y30.1782 Z-0.3840
X49.1893 Y30.1654 Z-0.3866
X49.1977 Y30.1530 Z-0.3893
X49.2069 Y30.1412 Z-0.3919
X49.2167 Y30.1299 Z-0.3945
X49.2272 Y30.1193 Z-0.3972
X49.2383 Y30.1092 Z-0.3998
X49.2500 Y30.0999 Z-0.4025
X49.2623 Y30.0913 Z-0.4051
X49.2750 Y30.0834 Z-0.4077
X49.2882 Y30.0764 Z-0.4104
X49.3017 Y30.0701 Z-0.4130
X49.3157 Y30.0646 Z-0.4156
X49.3299 Y30.0600 Z-0.4183
X49.3444 Y30.0562 Z-0.4209
X49.3590 Y30.0533 Z-0.4236
X49.3739 Y30.0513 Z-0.4262
X49.3888 Y30.0502 Z-0.4288
X49.4037 Y30.0500 Z-0.4315
X49.4187 Y30.0507 Z-0.4341
X49.4336 Y30.0522 Z-0.4367
X49.4483 Y30.0547 Z-0.4394
X49.4629 Y30.0580 Z-0.4420
X49.4773 Y30.0622 Z-0.4447
X49.4913 Y30.0672 Z-0.4473
X49.5051 Y30.0731 Z-0.4499
X49.5185 Y30.0798 Z-0.4526
X49.5314 Y30.0873 Z-0.4552
X49.5439 Y30.0955 Z-0.4578
X49.5559 Y30.1045 Z-0.4605
X49.5673 Y30.1142 Z-0.4631
X49.5781 Y30.1245 Z-0.4658
X49.5883 Y30.1355 Z-0.4684
X49.5978 Y30.1470 Z-0.4710
X49.6066 Y30.1591 Z-0.4737
X49.6146 Y30.1717 Z-0.4763
X49.6219 Y30.1848 Z-0.4789
X49.6284 Y30.1983 Z-0.4816
X49.6341 Y30.2121 Z-0.4842
X49.6389 Y30.2263 Z-0.4869
X49.6429 Y30.2407 Z-0.4895
X49.6460 Y30.2553 Z-0.4921
X49.6482 Y30.2701 Z-0.4948
X49.6496 Y30.2850 Z-0.4974
X49.6500 Y30.3000 Z-0.5000
X49.4854 Y30.5348
X49.4773 Y30.5377 Z-0.5016
X49.4629 Y30.5419 Z-0.5042
X49.4483 Y30.5452 Z-0.5068
X49.4336 Y30.5477 Z-0.5095
X49.4187 Y30.5493 Z-0.5121
X49.4037 Y30.5499 Z-0.5148
X49.3888 Y30.5497 Z-0.5174
X49.3739 Y30.5486 Z-0.5200
X49.3590 Y30.5466 Z-0.5227
X49.3444 Y30.5437 Z-0.5253
X49.3299 Y30.5399 Z-0.5279
X49.3157 Y30.5353 Z-0.5306
X49.3017 Y30.5298 Z-0.5332
X49.2882 Y30.5235 Z-0.5359
X49.2750 Y30.5165 Z-0.5385
X49.2623 Y30.5086 Z-0.5411
X49.2500 Y30.5000 Z-0.5438
X49.2383 Y30.4907 Z-0.5464
X49.2272 Y30.4807 Z-0.5490
X49.2167 Y30.4700 Z-0.5517
X49.2069 Y30.4587 Z-0.5543
X49.1977 Y30.4469 Z-0.5570
X49.1893 Y30.4345 Z-0.5596
X49.1816 Y30.4217 Z-0.5622
X49.1748 Y30.4084 Z-0.5649
X49.1687 Y30.3948 Z-0.5675
X49.1634 Y30.3808 Z-0.5701
X49.1590 Y30.3665 Z-0.5728
X49.1555 Y30.3519 Z-0.5754
X49.1528 Y30.3372 Z-0.5781
X49.1510 Y30.3224 Z-0.5807
X49.1501 Y30.3074 Z-0.5833
Y30.2925 Z-0.5860
X49.1510 Y30.2775 Z-0.5886
X49.1528 Y30.2627 Z-0.5912
X49.1555 Y30.2480 Z-0.5939
X49.1590 Y30.2334 Z-0.5965
X49.1634 Y30.2192 Z-0.5992
X49.1687 Y30.2051 Z-0.6018
X49.1748 Y30.1915 Z-0.6044
X49.1816 Y30.1782 Z-0.6071
X49.1893 Y30.1654 Z-0.6097
X49.1977 Y30.1530 Z-0.6123
X49.2069 Y30.1412 Z-0.6150
X49.2167 Y30.1299 Z-0.6176
X49.2272 Y30.1193 Z-0.6203
X49.2383 Y30.1092 Z-0.6229
X49.2500 Y30.0999 Z-0.6255
X49.2623 Y30.0913 Z-0.6282
X49.2750 Y30.0834 Z-0.6308
X49.2882 Y30.0764 Z-0.6334
X49.3017 Y30.0701 Z-0.6361
X49.3157 Y30.0646 Z-0.6387
X49.3299 Y30.0600 Z-0.6414
X49.3444 Y30.0562 Z-0.6440
X49.3590 Y30.0533 Z-0.6466
X49.3739 Y30.0513 Z-0.6493
X49.3888 Y30.0502 Z-0.6519
X49.4037 Y30.0500 Z-0.6545
X49.4187 Y30.0507 Z-0.6572
X49.4336 Y30.0522 Z-0.6598
X49.4483 Y30.0547 Z-0.6625
X49.4629 Y30.0580 Z-0.6651
X49.4773 Y30.0622 Z-0.6677
X49.4913 Y30.0672 Z-0.6704
X49.5051 Y30.0731 Z-0.6730
X49.5185 Y30.0798 Z-0.6756
X49.5314 Y30.0873 Z-0.6783
X49.5439 Y30.0955 Z-0.6809
X49.5559 Y30.1045 Z-0.6836
X49.5673 Y30.1142 Z-0.6862
X49.5781 Y30.1245 Z-0.6888
X49.5883 Y30.1355 Z-0.6915
X49.5978 Y30.1470 Z-0.6941
X49.6066 Y30.1591 Z-0.6967
X49.6146 Y30.1717 Z-0.6994
X49.6219 Y30.1848 Z-0.7020
X49.6284 Y30.1983 Z-0.7047
X49.6341 Y30.2121 Z-0.7073
X49.6389 Y30.2263 Z-0.7099
X49.6429 Y30.2407 Z-0.7126
X49.6460 Y30.2553 Z-0.7152
X49.6482 Y30.2701 Z-0.7178
X49.6496 Y30.2850 Z-0.7205
X49.6500 Y30.3000 Z-0.7231
X49.6496 Y30.3149 Z-0.7258
X49.6482 Y30.3298 Z-0.7284
X49.6460 Y30.3446 Z-0.7310
X49.6429 Y30.3592 Z-0.7337
X49.6389 Y30.3736 Z-0.7363
X49.6341 Y30.3878 Z-0.7389
X49.6284 Y30.4016 Z-0.7416
X49.6219 Y30.4151 Z-0.7442
X49.6146 Y30.4282 Z-0.7469
X49.6066 Y30.4408 Z-0.7495
X49.5978 Y30.4529 Z-0.7521
X49.5883 Y30.4644 Z-0.7548
X49.5781 Y30.4754 Z-0.7574
X49.5673 Y30.4857 Z-0.7600
X49.5559 Y30.4954 Z-0.7627
X49.5439 Y30.5044 Z-0.7653
X49.5314 Y30.5126 Z-0.7680
X49.5185 Y30.5201 Z-0.7706
X49.5051 Y30.5268 Z-0.7732
X49.4913 Y30.5327 Z-0.7759
X49.4773 Y30.5377 Z-0.7785
X49.4629 Y30.5419 Z-0.7811
X49.4483 Y30.5452 Z-0.7838
X49.4336 Y30.5477 Z-0.7864
X49.4187 Y30.5493 Z-0.7891
X49.4037 Y30.5499 Z-0.7917
X49.3888 Y30.5497 Z-0.7943
X49.3739 Y30.5486 Z-0.7970
X49.3590 Y30.5466 Z-0.7996
X49.3444 Y30.5437 Z-0.8022
X49.3299 Y30.5399 Z-0.8049
X49.3157 Y30.5353 Z-0.8075
X49.3017 Y30.5298 Z-0.8101
X49.2882 Y30.5235 Z-0.8128
X49.2750 Y30.5165 Z-0.8154
X49.2623 Y30.5086 Z-0.8181
X49.2500 Y30.5000 Z-0.8207
X49.2383 Y30.4907 Z-0.8233
X49.2272 Y30.4807 Z-0.8260
X49.2167 Y30.4700 Z-0.8286
X49.2069 Y30.4587 Z-0.8312
X49.1977 Y30.4469 Z-0.8339
X49.1893 Y30.4345 Z-0.8365
X49.1816 Y30.4217 Z-0.8392
X49.1748 Y30.4084 Z-0.8418
X49.1687 Y30.3948 Z-0.8444
X49.1634 Y30.3808 Z-0.8471
X49.1590 Y30.3665 Z-0.8497
X49.1555 Y30.3519 Z-0.8523
X49.1528 Y30.3372 Z-0.8550
X49.1510 Y30.3224 Z-0.8576
X49.1501 Y30.3074 Z-0.8603
Y30.2925 Z-0.8629
X49.1510 Y30.2775 Z-0.8655
X49.1528 Y30.2627 Z-0.8682
X49.1555 Y30.2480 Z-0.8708
X49.1590 Y30.2334 Z-0.8734
X49.1634 Y30.2192 Z-0.8761
X49.1687 Y30.2051 Z-0.8787
X49.1748 Y30.1915 Z-0.8814
X49.1816 Y30.1782 Z-0.8840
X49.1893 Y30.1654 Z-0.8866
X49.1977 Y30.1530 Z-0.8893
X49.2069 Y30.1412 Z-0.8919
X49.2167 Y30.1299 Z-0.8945
X49.2272 Y30.1193 Z-0.8972
X49.2383 Y30.1092 Z-0.8998
X49.2500 Y30.0999 Z-0.9025
X49.2623 Y30.0913 Z-0.9051
X49.2750 Y30.0834 Z-0.9077
X49.2882 Y30.0764 Z-0.9104
X49.3017 Y30.0701 Z-0.9130
X49.3157 Y30.0646 Z-0.9156
X49.3299 Y30.0600 Z-0.9183
X49.3444 Y30.0562 Z-0.9209
X49.3590 Y30.0533 Z-0.9236
X49.3739 Y30.0513 Z-0.9262
X49.3888 Y30.0502 Z-0.9288
X49.4037 Y30.0500 Z-0.9315
X49.4187 Y30.0507 Z-0.9341
X49.4336 Y30.0522 Z-0.9367
X49.4483 Y30.0547 Z-0.9394
X49.4629 Y30.0580 Z-0.9420
X49.4773 Y30.0622 Z-0.9447
X49.4913 Y30.0672 Z-0.9473
X49.5051 Y30.0731 Z-0.9499
X49.5185 Y30.0798 Z-0.9526
X49.5314 Y30.0873 Z-0.9552
X49.5439 Y30.0955 Z-0.9578
X49.5559 Y30.1045 Z-0.9605
X49.5673 Y30.1142 Z-0.9631
X49.5781 Y30.1245 Z-0.9658
X49.5883 Y30.1355 Z-0.9684
X49.5978 Y30.1470 Z-0.9710
X49.6066 Y30.1591 Z-0.9737
X49.6146 Y30.1717 Z-0.9763
X49.6219 Y30.1848 Z-0.9789
X49.6284 Y30.1983 Z-0.9816
X49.6341 Y30.2121 Z-0.9842
X49.6389 Y30.2263 Z-0.9869
X49.6429 Y30.2407 Z-0.9895
X49.6460 Y30.2553 Z-0.9921
X49.6482 Y30.2701 Z-0.9948
X49.6496 Y30.2850 Z-0.9974
X49.6500 Y30.3000 Z-1.0000
X49.4854 Y30.5348
X49.4773 Y30.5377 Z-1.0016
X49.4629 Y30.5419 Z-1.0042
X49.4483 Y30.5452 Z-1.0068
X49.4336 Y30.5477 Z-1.0095
X49.4187 Y30.5493 Z-1.0121
X49.4037 Y30.5499 Z-1.0148
X49.3888 Y30.5497 Z-1.0174
X49.3739 Y30.5486 Z-1.0200
X49.3590 Y30.5466 Z-1.0227
X49.3444 Y30.5437 Z-1.0253
X49.3299 Y30.5399 Z-1.0279
X49.3157 Y30.5353 Z-1.0306
X49.3017 Y30.5298 Z-1.0332
X49.2882 Y30.5235 Z-1.0359
X49.2750 Y30.5165 Z-1.0385
X49.2623 Y30.5086 Z-1.0411
X49.2500 Y30.5000 Z-1.0438
X49.2383 Y30.4907 Z-1.0464
X49.2272 Y30.4807 Z-1.0490
X49.2167 Y30.4700 Z-1.0517
X49.2069 Y30.4587 Z-1.0543
X49.1977 Y30.4469 Z-1.0570
X49.1893 Y30.4345 Z-1.0596
X49.1816 Y30.4217 Z-1.0622
X49.1748 Y30.4084 Z-1.0649
X49.1687 Y30.3948 Z-1.0675
X49.1634 Y30.3808 Z-1.0701
X49.1590 Y30.3665 Z-1.0728
X49.1555 Y30.3519 Z-1.0754
X49.1528 Y30.3372 Z-1.0781
X49.1510 Y30.3224 Z-1.0807
X49.1501 Y30.3074 Z-1.0833
Y30.2925 Z-1.0860
X49.1510 Y30.2775 Z-1.0886
X49.1528 Y30.2627 Z-1.0912
X49.1555 Y30.2480 Z-1.0939
X49.1590 Y30.2334 Z-1.0965
X49.1634 Y30.2192 Z-1.0992
X49.1687 Y30.2051 Z-1.1018
X49.1748 Y30.1915 Z-1.1044
X49.1816 Y30.1782 Z-1.1071
X49.1893 Y30.1654 Z-1.1097
X49.1977 Y30.1530 Z-1.1123
X49.2069 Y30.1412 Z-1.1150
X49.2167 Y30.1299 Z-1.1176
X49.2272 Y30.1193 Z-1.1203
X49.2383 Y30.1092 Z-1.1229
X49.2500 Y30.0999 Z-1.1255
X49.2623 Y30.0913 Z-1.1282
X49.2750 Y30.0834 Z-1.1308
X49.2882 Y30.0764 Z-1.1334
X49.3017 Y30.0701 Z-1.1361
X49.3157 Y30.0646 Z-1.1387
X49.3299 Y30.0600 Z-1.1414
X49.3444 Y30.0562 Z-1.1440
X49.3590 Y30.0533 Z-1.1466
X49.3739 Y30.0513 Z-1.1493
X49.3888 Y30.0502 Z-1.1519
X49.4037 Y30.0500 Z-1.1545
X49.4187 Y30.0507 Z-1.1572
X49.4336 Y30.0522 Z-1.1598
X49.4483 Y30.0547 Z-1.1625
X49.4629 Y30.0580 Z-1.1651
X49.4773 Y30.0622 Z-1.1677
X49.4913 Y30.0672 Z-1.1704
X49.5051 Y30.0731 Z-1.1730
X49.5185 Y30.0798 Z-1.1756
X49.5314 Y30.0873 Z-1.1783
X49.5439 Y30.0955 Z-1.1809
X49.5559 Y30.1045 Z-1.1836
X49.5673 Y30.1142 Z-1.1862
X49.5781 Y30.1245 Z-1.1888
X49.5883 Y30.1355 Z-1.1915
X49.5978 Y30.1470 Z-1.1941
X49.6066 Y30.1591 Z-1.1967
X49.6146 Y30.1717 Z-1.1994
X49.6219 Y30.1848 Z-1.2020
X49.6284 Y30.1983 Z-1.2047
X49.6341 Y30.2121 Z-1.2073
X49.6389 Y30.2263 Z-1.2099
X49.6429 Y30.2407 Z-1.2126
X49.6460 Y30.2553 Z-1.2152
X49.6482 Y30.2701 Z-1.2178
X49.6496 Y30.2850 Z-1.2205
X49.6500 Y30.3000 Z-1.2231
X49.6496 Y30.3149 Z-1.2258
X49.6482 Y30.3298 Z-1.2284
X49.6460 Y30.3446 Z-1.2310
X49.6429 Y30.3592 Z-1.2337
X49.6389 Y30.3736 Z-1.2363
X49.6341 Y30.3878 Z-1.2389
X49.6284 Y30.4016 Z-1.2416
X49.6219 Y30.4151 Z-1.2442
X49.6146 Y30.4282 Z-1.2469
X49.6066 Y30.4408 Z-1.2495
X49.5978 Y30.4529 Z-1.2521
X49.5883 Y30.4644 Z-1.2548
X49.5781 Y30.4754 Z-1.2574
X49.5673 Y30.4857 Z-1.2600
X49.5559 Y30.4954 Z-1.2627
X49.5439 Y30.5044 Z-1.2653
X49.5314 Y30.5126 Z-1.2679
X49.5185 Y30.5201 Z-1.2706
X49.5051 Y30.5268 Z-1.2732
X49.4913 Y30.5327 Z-1.2759
X49.4773 Y30.5377 Z-1.2785
X49.4629 Y30.5419 Z-1.2811
X49.4483 Y30.5452 Z-1.2838
X49.4336 Y30.5477 Z-1.2864
X49.4187 Y30.5493 Z-1.2891
X49.4037 Y30.5499 Z-1.2917
X49.3888 Y30.5497 Z-1.2943
X49.3739 Y30.5486 Z-1.2970
X49.3590 Y30.5466 Z-1.2996
X49.3444 Y30.5437 Z-1.3022
X49.3299 Y30.5399 Z-1.3049
X49.3157 Y30.5353 Z-1.3075
X49.3017 Y30.5298 Z-1.3101
X49.2882 Y30.5235 Z-1.3128
X49.2750 Y30.5165 Z-1.3154
X49.2623 Y30.5086 Z-1.3181
X49.2500 Y30.5000 Z-1.3207
X49.2383 Y30.4907 Z-1.3233
X49.2272 Y30.4807 Z-1.3260
X49.2167 Y30.4700 Z-1.3286
X49.2069 Y30.4587 Z-1.3312
X49.1977 Y30.4469 Z-1.3339
X49.1893 Y30.4345 Z-1.3365
X49.1816 Y30.4217 Z-1.3392
X49.1748 Y30.4084 Z-1.3418
X49.1687 Y30.3948 Z-1.3444
X49.1634 Y30.3808 Z-1.3471
X49.1590 Y30.3665 Z-1.3497
X49.1555 Y30.3519 Z-1.3523
X49.1528 Y30.3372 Z-1.3550
X49.1510 Y30.3224 Z-1.3576
X49.1501 Y30.3074 Z-1.3603
Y30.2925 Z-1.3629
X49.1510 Y30.2775 Z-1.3655
X49.1528 Y30.2627 Z-1.3682
X49.1555 Y30.2480 Z-1.3708
X49.1590 Y30.2334 Z-1.3734
X49.1634 Y30.2192 Z-1.3761
X49.1687 Y30.2051 Z-1.3787
X49.1748 Y30.1915 Z-1.3814
X49.1816 Y30.1782 Z-1.3840
X49.1893 Y30.1654 Z-1.3866
X49.1977 Y30.1530 Z-1.3893
X49.2069 Y30.1412 Z-1.3919
X49.2167 Y30.1299 Z-1.3945
X49.2272 Y30.1193 Z-1.3972
X49.2383 Y30.1092 Z-1.3998
X49.2500 Y30.0999 Z-1.4025
X49.2623 Y30.0913 Z-1.4051
X49.2750 Y30.0834 Z-1.4077
X49.2882 Y30.0764 Z-1.4104
X49.3017 Y30.0701 Z-1.4130
X49.3157 Y30.0646 Z-1.4156
X49.3299 Y30.0600 Z-1.4183
X49.3444 Y30.0562 Z-1.4209
X49.3590 Y30.0533 Z-1.4236
X49.3739 Y30.0513 Z-1.4262
X49.3888 Y30.0502 Z-1.4288
X49.4037 Y30.0500 Z-1.4315
X49.4187 Y30.0507 Z-1.4341
X49.4336 Y30.0522 Z-1.4367
X49.4483 Y30.0547 Z-1.4394
X49.4629 Y30.0580 Z-1.4420
X49.4773 Y30.0622 Z-1.4447
X49.4913 Y30.0672 Z-1.4473
X49.5051 Y30.0731 Z-1.4499
X49.5185 Y30.0798 Z-1.4526
X49.5314 Y30.0873 Z-1.4552
X49.5439 Y30.0955 Z-1.4578
X49.5559 Y30.1045 Z-1.4605
X49.5673 Y30.1142 Z-1.4631
X49.5781 Y30.1245 Z-1.4658
X49.5883 Y30.1355 Z-1.4684
X49.5978 Y30.1470 Z-1.4710
X49.6066 Y30.1591 Z-1.4737
X49.6146 Y30.1717 Z-1.4763
X49.6219 Y30.1848 Z-1.4789
X49.6284 Y30.1983 Z-1.4816
X49.6341 Y30.2121 Z-1.4842
X49.6389 Y30.2263 Z-1.4869
X49.6429 Y30.2407 Z-1.4895
X49.6460 Y30.2553 Z-1.4921
X49.6482 Y30.2701 Z-1.4948
X49.6496 Y30.2850 Z-1.4974
X49.6500 Y30.3000 Z-1.5000
X49.4854 Y30.5348
X49.4773 Y30.5377 Z-1.5016
X49.4629 Y30.5419 Z-1.5042
X49.4483 Y30.5452 Z-1.5068
X49.4336 Y30.5477 Z-1.5095
X49.4187 Y30.5493 Z-1.5121
X49.4037 Y30.5499 Z-1.5148
X49.3888 Y30.5497 Z-1.5174
X49.3739 Y30.5486 Z-1.5200
X49.3590 Y30.5466 Z-1.5227
X49.3444 Y30.5437 Z-1.5253
X49.3299 Y30.5399 Z-1.5279
X49.3157 Y30.5353 Z-1.5306
X49.3017 Y30.5298 Z-1.5332
X49.2882 Y30.5235 Z-1.5359
X49.2750 Y30.5165 Z-1.5385
X49.2623 Y30.5086 Z-1.5411
X49.2500 Y30.5000 Z-1.5438
X49.2383 Y30.4907 Z-1.5464
X49.2272 Y30.4807 Z-1.5490
X49.2167 Y30.4700 Z-1.5517
X49.2069 Y30.4587 Z-1.5543
X49.1977 Y30.4469 Z-1.5570
X49.1893 Y30.4345 Z-1.5596
X49.1816 Y30.4217 Z-1.5622
X49.1748 Y30.4084 Z-1.5649
X49.1687 Y30.3948 Z-1.5675
X49.1634 Y30.3808 Z-1.5701
X49.1590 Y30.3665 Z-1.5728
X49.1555 Y30.3519 Z-1.5754
X49.1528 Y30.3372 Z-1.5781
X49.1510 Y30.3224 Z-1.5807
X49.1501 Y30.3074 Z-1.5833
Y30.2925 Z-1.5860
X49.1510 Y30.2775 Z-1.5886
X49.1528 Y30.2627 Z-1.5912
X49.1555 Y30.2480 Z-1.5939
X49.1590 Y30.2334 Z-1.5965
X49.1634 Y30.2192 Z-1.5992
X49.1687 Y30.2051 Z-1.6018
X49.1748 Y30.1915 Z-1.6044
X49.1816 Y30.1782 Z-1.6071
X49.1893 Y30.1654 Z-1.6097
X49.1977 Y30.1530 Z-1.6123
X49.2069 Y30.1412 Z-1.6150
X49.2167 Y30.1299 Z-1.6176
X49.2272 Y30.1193 Z-1.6203
X49.2383 Y30.1092 Z-1.6229
X49.2500 Y30.0999 Z-1.6255
X49.2623 Y30.0913 Z-1.6282
X49.2750 Y30.0834 Z-1.6308
X49.2882 Y30.0764 Z-1.6334
X49.3017 Y30.0701 Z-1.6361
X49.3157 Y30.0646 Z-1.6387
X49.3299 Y30.0600 Z-1.6414
X49.3444 Y30.0562 Z-1.6440
X49.3590 Y30.0533 Z-1.6466
X49.3739 Y30.0513 Z-1.6493
X49.3888 Y30.0502 Z-1.6519
X49.4037 Y30.0500 Z-1.6545
X49.4187 Y30.0507 Z-1.6572
X49.4336 Y30.0522 Z-1.6598
X49.4483 Y30.0547 Z-1.6625
X49.4629 Y30.0580 Z-1.6651
X49.4773 Y30.0622 Z-1.6677
X49.4913 Y30.0672 Z-1.6704
X49.5051 Y30.0731 Z-1.6730
X49.5185 Y30.0798 Z-1.6756
X49.5314 Y30.0873 Z-1.6783
X49.5439 Y30.0955 Z-1.6809
X49.5559 Y30.1045 Z-1.6836
X49.5673 Y30.1142 Z-1.6862
X49.5781 Y30.1245 Z-1.6888
X49.5883 Y30.1355 Z-1.6915
X49.5978 Y30.1470 Z-1.6941
X49.6066 Y30.1591 Z-1.6967
X49.6146 Y30.1717 Z-1.6994
X49.6219 Y30.1848 Z-1.7020
X49.6284 Y30.1983 Z-1.7047
X49.6341 Y30.2121 Z-1.7073
X49.6389 Y30.2263 Z-1.7099
X49.6429 Y30.2407 Z-1.7126
X49.6460 Y30.2553 Z-1.7152
X49.6482 Y30.2701 Z-1.7178
X49.6496 Y30.2850 Z-1.7205
X49.6500 Y30.3000 Z-1.7231
X49.6496 Y30.3149 Z-1.7258
X49.6482 Y30.3298 Z-1.7284
X49.6460 Y30.3446 Z-1.7310
X49.6429 Y30.3592 Z-1.7337
X49.6389 Y30.3736 Z-1.7363
X49.6341 Y30.3878 Z-1.7389
X49.6284 Y30.4016 Z-1.7416
X49.6219 Y30.4151 Z-1.7442
X49.6146 Y30.4282 Z-1.7469
X49.6066 Y30.4408 Z-1.7495
X49.5978 Y30.4529 Z-1.7521
X49.5883 Y30.4644 Z-1.7548
X49.5781 Y30.4754 Z-1.7574
X49.5673 Y30.4857 Z-1.7600
X49.5559 Y30.4954 Z-1.7627
X49.5439 Y30.5044 Z-1.7653
X49.5314 Y30.5126 Z-1.7679
X49.5185 Y30.5201 Z-1.7706
X49.5051 Y30.5268 Z-1.7732
X49.4913 Y30.5327 Z-1.7759
X49.4773 Y30.5377 Z-1.7785
X49.4629 Y30.5419 Z-1.7811
X49.4483 Y30.5452 Z-1.7838
X49.4336 Y30.5477 Z-1.7864
X49.4187 Y30.5493 Z-1.7891
X49.4037 Y30.5499 Z-1.7917
X49.3888 Y30.5497 Z-1.7943
X49.3739 Y30.5486 Z-1.7970
X49.3590 Y30.5466 Z-1.7996
X49.3444 Y30.5437 Z-1.8022
X49.3299 Y30.5399 Z-1.8049
X49.3157 Y30.5353 Z-1.8075
X49.3017 Y30.5298 Z-1.8101
X49.2882 Y30.5235 Z-1.8128
X49.2750 Y30.5165 Z-1.8154
X49.2623 Y30.5086 Z-1.8181
X49.2500 Y30.5000 Z-1.8207
X49.2383 Y30.4907 Z-1.8233
X49.2272 Y30.4807 Z-1.8260
X49.2167 Y30.4700 Z-1.8286
X49.2069 Y30.4587 Z-1.8312
X49.1977 Y30.4469 Z-1.8339
X49.1893 Y30.4345 Z-1.8365
X49.1816 Y30.4217 Z-1.8392
X49.1748 Y30.4084 Z-1.8418
X49.1687 Y30.3948 Z-1.8444
X49.1634 Y30.3808 Z-1.8471
X49.1590 Y30.3665 Z-1.8497
X49.1555 Y30.3519 Z-1.8523
X49.1528 Y30.3372 Z-1.8550
X49.1510 Y30.3224 Z-1.8576
X49.1501 Y30.3074 Z-1.8603
Y30.2925 Z-1.8629
X49.1510 Y30.2775 Z-1.8655
X49.1528 Y30.2627 Z-1.8682
X49.1555 Y30.2480 Z-1.8708
X49.1590 Y30.2334 Z-1.8734
X49.1634 Y30.2192 Z-1.8761
X49.1687 Y30.2051 Z-1.8787
X49.1748 Y30.1915 Z-1.8814
X49.1816 Y30.1782 Z-1.8840
X49.1893 Y30.1654 Z-1.8866
X49.1977 Y30.1530 Z-1.8893
X49.2069 Y30.1412 Z-1.8919
X49.2167 Y30.1299 Z-1.8945
X49.2272 Y30.1193 Z-1.8972
X49.2383 Y30.1092 Z-1.8998
X49.2500 Y30.0999 Z-1.9025
X49.2623 Y30.0913 Z-1.9051
X49.2750 Y30.0834 Z-1.9077
X49.2882 Y30.0764 Z-1.9104
X49.3017 Y30.0701 Z-1.9130
X49.3157 Y30.0646 Z-1.9156
X49.3299 Y30.0600 Z-1.9183
X49.3444 Y30.0562 Z-1.9209
X49.3590 Y30.0533 Z-1.9236
X49.3739 Y30.0513 Z-1.9262
X49.3888 Y30.0502 Z-1.9288
X49.4037 Y30.0500 Z-1.9315
X49.4187 Y30.0507 Z-1.9341
X49.4336 Y30.0522 Z-1.9367
X49.4483 Y30.0547 Z-1.9394
X49.4629 Y30.0580 Z-1.9420
X49.4773 Y30.0622 Z-1.9447
X49.4913 Y30.0672 Z-1.9473
X49.5051 Y30.0731 Z-1.9499
X49.5185 Y30.0798 Z-1.9526
X49.5314 Y30.0873 Z-1.9552
X49.5439 Y30.0955 Z-1.9578
X49.5559 Y30.1045 Z-1.9605
X49.5673 Y30.1142 Z-1.9631
X49.5781 Y30.1245 Z-1.9658
X49.5883 Y30.1355 Z-1.9684
X49.5978 Y30.1470 Z-1.9710
X49.6066 Y30.1591 Z-1.9737
X49.6146 Y30.1717 Z-1.9763
X49.6219 Y30.1848 Z-1.9789
X49.6284 Y30.1983 Z-1.9816
X49.6341 Y30.2121 Z-1.9842
X49.6389 Y30.2263 Z-1.9869
X49.6429 Y30.2407 Z-1.9895
X49.6460 Y30.2553 Z-1.9921
X49.6482 Y30.2701 Z-1.9948
X49.6496 Y30.2850 Z-1.9974
X49.6500 Y30.3000 Z-2.0000
X49.4854 Y30.5348
X49.4773 Y30.5377 Z-2.0016
X49.4629 Y30.5419 Z-2.0042
X49.4483 Y30.5452 Z-2.0068
X49.4336 Y30.5477 Z-2.0095
X49.4187 Y30.5493 Z-2.0121
X49.4037 Y30.5499 Z-2.0148
X49.3888 Y30.5497 Z-2.0174
X49.3739 Y30.5486 Z-2.0200
X49.3590 Y30.5466 Z-2.0227
X49.3444 Y30.5437 Z-2.0253
X49.3299 Y30.5399 Z-2.0279
X49.3157 Y30.5353 Z-2.0306
X49.3017 Y30.5298 Z-2.0332
X49.2882 Y30.5235 Z-2.0359
X49.2750 Y30.5165 Z-2.0385
X49.2623 Y30.5086 Z-2.0411
X49.2500 Y30.5000 Z-2.0438
X49.2383 Y30.4907 Z-2.0464
X49.2272 Y30.4807 Z-2.0490
X49.2167 Y30.4700 Z-2.0517
X49.2069 Y30.4587 Z-2.0543
X49.1977 Y30.4469 Z-2.0570
X49.1893 Y30.4345 Z-2.0596
X49.1816 Y30.4217 Z-2.0622
X49.1748 Y30.4084 Z-2.0649
X49.1687 Y30.3948 Z-2.0675
X49.1634 Y30.3808 Z-2.0701
X49.1590 Y30.3665 Z-2.0728
X49.1555 Y30.3519 Z-2.0754
X49.1528 Y30.3372 Z-2.0781
X49.1510 Y30.3224 Z-2.0807
X49.1501 Y30.3074 Z-2.0833
Y30.2925 Z-2.0860
X49.1510 Y30.2775 Z-2.0886
X49.1528 Y30.2627 Z-2.0912
X49.1555 Y30.2480 Z-2.0939
X49.1590 Y30.2334 Z-2.0965
X49.1634 Y30.2192 Z-2.0992
X49.1687 Y30.2051 Z-2.1018
X49.1748 Y30.1915 Z-2.1044
X49.1816 Y30.1782 Z-2.1071
X49.1893 Y30.1654 Z-2.1097
X49.1977 Y30.1530 Z-2.1123
X49.2069 Y30.1412 Z-2.1150
X49.2167 Y30.1299 Z-2.1176
X49.2272 Y30.1193 Z-2.1203
X49.2383 Y30.1092 Z-2.1229
X49.2500 Y30.0999 Z-2.1255
X49.2623 Y30.0913 Z-2.1282
X49.2750 Y30.0834 Z-2.1308
X49.2882 Y30.0764 Z-2.1334
X49.3017 Y30.0701 Z-2.1361
X49.3157 Y30.0646 Z-2.1387
X49.3299 Y30.0600 Z-2.1414
X49.3444 Y30.0562 Z-2.1440
X49.3590 Y30.0533 Z-2.1466
X49.3739 Y30.0513 Z-2.1493
X49.3888 Y30.0502 Z-2.1519
X49.4037 Y30.0500 Z-2.1545
X49.4187 Y30.0507 Z-2.1572
X49.4336 Y30.0522 Z-2.1598
X49.4483 Y30.0547 Z-2.1625
X49.4629 Y30.0580 Z-2.1651
X49.4773 Y30.0622 Z-2.1677
X49.4913 Y30.0672 Z-2.1704
X49.5051 Y30.0731 Z-2.1730
X49.5185 Y30.0798 Z-2.1756
X49.5314 Y30.0873 Z-2.1783
X49.5439 Y30.0955 Z-2.1809
X49.5559 Y30.1045 Z-2.1836
X49.5673 Y30.1142 Z-2.1862
X49.5781 Y30.1245 Z-2.1888
X49.5883 Y30.1355 Z-2.1915
X49.5978 Y30.1470 Z-2.1941
X49.6066 Y30.1591 Z-2.1967
X49.6146 Y30.1717 Z-2.1994
X49.6219 Y30.1848 Z-2.2020
X49.6284 Y30.1983 Z-2.2047
X49.6341 Y30.2121 Z-2.2073
X49.6389 Y30.2263 Z-2.2099
X49.6429 Y30.2407 Z-2.2126
X49.6460 Y30.2553 Z-2.2152
X49.6482 Y30.2701 Z-2.2178
X49.6496 Y30.2850 Z-2.2205
X49.6500 Y30.3000 Z-2.2231
X49.6496 Y30.3149 Z-2.2258
X49.6482 Y30.3298 Z-2.2284
X49.6460 Y30.3446 Z-2.2310
X49.6429 Y30.3592 Z-2.2337
X49.6389 Y30.3736 Z-2.2363
X49.6341 Y30.3878 Z-2.2389
X49.6284 Y30.4016 Z-2.2416
X49.6219 Y30.4151 Z-2.2442
X49.6146 Y30.4282 Z-2.2469
X49.6066 Y30.4408 Z-2.2495
X49.5978 Y30.4529 Z-2.2521
X49.5883 Y30.4644 Z-2.2548
X49.5781 Y30.4754 Z-2.2574
X49.5673 Y30.4857 Z-2.2600
X49.5559 Y30.4954 Z-2.2627
X49.5439 Y30.5044 Z-2.2653
X49.5314 Y30.5126 Z-2.2680
X49.5185 Y30.5201 Z-2.2706
X49.5051 Y30.5268 Z-2.2732
X49.4913 Y30.5327 Z-2.2759
X49.4773 Y30.5377 Z-2.2785
X49.4629 Y30.5419 Z-2.2811
X49.4483 Y30.5452 Z-2.2838
X49.4336 Y30.5477 Z-2.2864
X49.4187 Y30.5493 Z-2.2891
X49.4037 Y30.5499 Z-2.2917
X49.3888 Y30.5497 Z-2.2943
X49.3739 Y30.5486 Z-2.2970
X49.3590 Y30.5466 Z-2.2996
X49.3444 Y30.5437 Z-2.3022
X49.3299 Y30.5399 Z-2.3049
X49.3157 Y30.5353 Z-2.3075
X49.3017 Y30.5298 Z-2.3101
X49.2882 Y30.5235 Z-2.3128
X49.2750 Y30.5165 Z-2.3154
X49.2623 Y30.5086 Z-2.3181
X49.2500 Y30.5000 Z-2.3207
X49.2383 Y30.4907 Z-2.3233
X49.2272 Y30.4807 Z-2.3260
X49.2167 Y30.4700 Z-2.3286
X49.2069 Y30.4587 Z-2.3312
X49.1977 Y30.4469 Z-2.3339
X49.1893 Y30.4345 Z-2.3365
X49.1816 Y30.4217 Z-2.3392
X49.1748 Y30.4084 Z-2.3418
X49.1687 Y30.3948 Z-2.3444
X49.1634 Y30.3808 Z-2.3471
X49.1590 Y30.3665 Z-2.3497
X49.1555 Y30.3519 Z-2.3523
X49.1528 Y30.3372 Z-2.3550
X49.1510 Y30.3224 Z-2.3576
X49.1501 Y30.3074 Z-2.3603
Y30.2925 Z-2.3629
X49.1510 Y30.2775 Z-2.3655
X49.1528 Y30.2627 Z-2.3682
X49.1555 Y30.2480 Z-2.3708
X49.1590 Y30.2334 Z-2.3734
X49.1634 Y30.2192 Z-2.3761
X49.1687 Y30.2051 Z-2.3787
X49.1748 Y30.1915 Z-2.3814
X49.1816 Y30.1782 Z-2.3840
X49.1893 Y30.1654 Z-2.3866
X49.1977 Y30.1530 Z-2.3893
X49.2069 Y30.1412 Z-2.3919
X49.2167 Y30.1299 Z-2.3945
X49.2272 Y30.1193 Z-2.3972
X49.2383 Y30.1092 Z-2.3998
X49.2500 Y30.0999 Z-2.4025
X49.2623 Y30.0913 Z-2.4051
X49.2750 Y30.0834 Z-2.4077
X49.2882 Y30.0764 Z-2.4104
X49.3017 Y30.0701 Z-2.4130
X49.3157 Y30.0646 Z-2.4156
X49.3299 Y30.0600 Z-2.4183
X49.3444 Y30.0562 Z-2.4209
X49.3590 Y30.0533 Z-2.4236
X49.3739 Y30.0513 Z-2.4262
X49.3888 Y30.0502 Z-2.4288
X49.4037 Y30.0500 Z-2.4315
X49.4187 Y30.0507 Z-2.4341
X49.4336 Y30.0522 Z-2.4367
X49.4483 Y30.0547 Z-2.4394
X49.4629 Y30.0580 Z-2.4420
X49.4773 Y30.0622 Z-2.4447
X49.4913 Y30.0672 Z-2.4473
X49.5051 Y30.0731 Z-2.4499
X49.5185 Y30.0798 Z-2.4526
X49.5314 Y30.0873 Z-2.4552
X49.5439 Y30.0955 Z-2.4578
X49.5559 Y30.1045 Z-2.4605
X49.5673 Y30.1142 Z-2.4631
X49.5781 Y30.1245 Z-2.4658
X49.5883 Y30.1355 Z-2.4684
X49.5978 Y30.1470 Z-2.4710
X49.6066 Y30.1591 Z-2.4737
X49.6146 Y30.1717 Z-2.4763
X49.6219 Y30.1848 Z-2.4789
X49.6284 Y30.1983 Z-2.4816
X49.6341 Y30.2121 Z-2.4842
X49.6389 Y30.2263 Z-2.4869
X49.6429 Y30.2407 Z-2.4895
X49.6460 Y30.2553 Z-2.4921
X49.6482 Y30.2701 Z-2.4948
X49.6496 Y30.2850 Z-2.4974
X49.6500 Y30.3000 Z-2.5000
X49.4854 Y30.5348
X49.4773 Y30.5377 Z-2.5016
X49.4629 Y30.5419 Z-2.5042
X49.4483 Y30.5452 Z-2.5068
X49.4336 Y30.5477 Z-2.5095
X49.4187 Y30.5493 Z-2.5121
X49.4037 Y30.5499 Z-2.5148
X49.3888 Y30.5497 Z-2.5174
X49.3739 Y30.5486 Z-2.5200
X49.3590 Y30.5466 Z-2.5227
X49.3444 Y30.5437 Z-2.5253
X49.3299 Y30.5399 Z-2.5279
X49.3157 Y30.5353 Z-2.5306
X49.3017 Y30.5298 Z-2.5332
X49.2882 Y30.5235 Z-2.5359
X49.2750 Y30.5165 Z-2.5385
X49.2623 Y30.5086 Z-2.5411
X49.2500 Y30.5000 Z-2.5438
X49.2383 Y30.4907 Z-2.5464
X49.2272 Y30.4807 Z-2.5490
X49.2167 Y30.4700 Z-2.5517
X49.2069 Y30.4587 Z-2.5543
X49.1977 Y30.4469 Z-2.5570
X49.1893 Y30.4345 Z-2.5596
X49.1816 Y30.4217 Z-2.5622
X49.1748 Y30.4084 Z-2.5649
X49.1687 Y30.3948 Z-2.5675
X49.1634 Y30.3808 Z-2.5701
X49.1590 Y30.3665 Z-2.5728
X49.1555 Y30.3519 Z-2.5754
X49.1528 Y30.3372 Z-2.5781
X49.1510 Y30.3224 Z-2.5807
X49.1501 Y30.3074 Z-2.5833
Y30.2925 Z-2.5860
X49.1510 Y30.2775 Z-2.5886
X49.1528 Y30.2627 Z-2.5912
X49.1555 Y30.2480 Z-2.5939
X49.1590 Y30.2334 Z-2.5965
X49.1634 Y30.2192 Z-2.5992
X49.1687 Y30.2051 Z-2.6018
X49.1748 Y30.1915 Z-2.6044
X49.1816 Y30.1782 Z-2.6071
X49.1893 Y30.1654 Z-2.6097
X49.1977 Y30.1530 Z-2.6123
X49.2069 Y30.1412 Z-2.6150
X49.2167 Y30.1299 Z-2.6176
X49.2272 Y30.1193 Z-2.6203
X49.2383 Y30.1092 Z-2.6229
X49.2500 Y30.0999 Z-2.6255
X49.2623 Y30.0913 Z-2.6282
X49.2750 Y30.0834 Z-2.6308
X49.2882 Y30.0764 Z-2.6334
X49.3017 Y30.0701 Z-2.6361
X49.3157 Y30.0646 Z-2.6387
X49.3299 Y30.0600 Z-2.6414
X49.3444 Y30.0562 Z-2.6440
X49.3590 Y30.0533 Z-2.6466
X49.3739 Y30.0513 Z-2.6493
X49.3888 Y30.0502 Z-2.6519
X49.4037 Y30.0500 Z-2.6545
X49.4187 Y30.0507 Z-2.6572
X49.4336 Y30.0522 Z-2.6598
X49.4483 Y30.0547 Z-2.6625
X49.4629 Y30.0580 Z-2.6651
X49.4773 Y30.0622 Z-2.6677
X49.4913 Y30.0672 Z-2.6704
X49.5051 Y30.0731 Z-2.6730
X49.5185 Y30.0798 Z-2.6756
X49.5314 Y30.0873 Z-2.6783
X49.5439 Y30.0955 Z-2.6809
X49.5559 Y30.1045 Z-2.6836
X49.5673 Y30.1142 Z-2.6862
X49.5781 Y30.1245 Z-2.6888
X49.5883 Y30.1355 Z-2.6915
X49.5978 Y30.1470 Z-2.6941
X49.6066 Y30.1591 Z-2.6967
X49.6146 Y30.1717 Z-2.6994
X49.6219 Y30.1848 Z-2.7020
X49.6284 Y30.1983 Z-2.7047
X49.6341 Y30.2121 Z-2.7073
X49.6389 Y30.2263 Z-2.7099
X49.6429 Y30.2407 Z-2.7126
X49.6460 Y30.2553 Z-2.7152
X49.6482 Y30.2701 Z-2.7178
X49.6496 Y30.2850 Z-2.7205
X49.6500 Y30.3000 Z-2.7231
X49.6496 Y30.3149 Z-2.7258
X49.6482 Y30.3298 Z-2.7284
X49.6460 Y30.3446 Z-2.7310
X49.6429 Y30.3592 Z-2.7337
X49.6389 Y30.3736 Z-2.7363
X49.6341 Y30.3878 Z-2.7389
X49.6284 Y30.4016 Z-2.7416
X49.6219 Y30.4151 Z-2.7442
X49.6146 Y30.4282 Z-2.7469
X49.6066 Y30.4408 Z-2.7495
X49.5978 Y30.4529 Z-2.7521
X49.5883 Y30.4644 Z-2.7548
X49.5781 Y30.4754 Z-2.7574
X49.5673 Y30.4857 Z-2.7600
X49.5559 Y30.4954 Z-2.7627
X49.5439 Y30.5044 Z-2.7653
X49.5314 Y30.5126 Z-2.7680
X49.5185 Y30.5201 Z-2.7706
X49.5051 Y30.5268 Z-2.7732
X49.4913 Y30.5327 Z-2.7759
X49.4773 Y30.5377 Z-2.7785
X49.4629 Y30.5419 Z-2.7811
X49.4483 Y30.5452 Z-2.7838
X49.4336 Y30.5477 Z-2.7864
X49.4187 Y30.5493 Z-2.7890
X49.4037 Y30.5499 Z-2.7917
X49.3888 Y30.5497 Z-2.7943
X49.3739 Y30.5486 Z-2.7970
X49.3590 Y30.5466 Z-2.7996
X49.3444 Y30.5437 Z-2.8022
X49.3299 Y30.5399 Z-2.8049
X49.3157 Y30.5353 Z-2.8075
X49.3017 Y30.5298 Z-2.8101
X49.2882 Y30.5235 Z-2.8128
X49.2750 Y30.5165 Z-2.8154
X49.2623 Y30.5086 Z-2.8181
X49.2500 Y30.5000 Z-2.8207
X49.2383 Y30.4907 Z-2.8233
X49.2272 Y30.4807 Z-2.8260
X49.2167 Y30.4700 Z-2.8286
X49.2069 Y30.4587 Z-2.8312
X49.1977 Y30.4469 Z-2.8339
X49.1893 Y30.4345 Z-2.8365
X49.1816 Y30.4217 Z-2.8392
X49.1748 Y30.4084 Z-2.8418
X49.1687 Y30.3948 Z-2.8444
X49.1634 Y30.3808 Z-2.8471
X49.1590 Y30.3665 Z-2.8497
X49.1555 Y30.3519 Z-2.8523
X49.1528 Y30.3372 Z-2.8550
X49.1510 Y30.3224 Z-2.8576
X49.1501 Y30.3074 Z-2.8603
Y30.2925 Z-2.8629
X49.1510 Y30.2775 Z-2.8655
X49.1528 Y30.2627 Z-2.8682
X49.1555 Y30.2480 Z-2.8708
X49.1590 Y30.2334 Z-2.8734
X49.1634 Y30.2192 Z-2.8761
X49.1687 Y30.2051 Z-2.8787
X49.1748 Y30.1915 Z-2.8814
X49.1816 Y30.1782 Z-2.8840
X49.1893 Y30.1654 Z-2.8866
X49.1977 Y30.1530 Z-2.8893
X49.2069 Y30.1412 Z-2.8919
X49.2167 Y30.1299 Z-2.8945
X49.2272 Y30.1193 Z-2.8972
X49.2383 Y30.1092 Z-2.8998
X49.2500 Y30.0999 Z-2.9025
X49.2623 Y30.0913 Z-2.9051
X49.2750 Y30.0834 Z-2.9077
X49.2882 Y30.0764 Z-2.9104
X49.3017 Y30.0701 Z-2.9130
X49.3157 Y30.0646 Z-2.9156
X49.3299 Y30.0600 Z-2.9183
X49.3444 Y30.0562 Z-2.9209
X49.3590 Y30.0533 Z-2.9236
X49.3739 Y30.0513 Z-2.9262
X49.3888 Y30.0502 Z-2.9288
X49.4037 Y30.0500 Z-2.9315
X49.4187 Y30.0507 Z-2.9341
X49.4336 Y30.0522 Z-2.9367
X49.4483 Y30.0547 Z-2.9394
X49.4629 Y30.0580 Z-2.9420
X49.4773 Y30.0622 Z-2.9447
X49.4913 Y30.0672 Z-2.9473
X49.5051 Y30.0731 Z-2.9499
X49.5185 Y30.0798 Z-2.9526
X49.5314 Y30.0873 Z-2.9552
X49.5439 Y30.0955 Z-2.9578
X49.5559 Y30.1045 Z-2.9605
X49.5673 Y30.1142 Z-2.9631
X49.5781 Y30.1245 Z-2.9658
X49.5883 Y30.1355 Z-2.9684
X49.5978 Y30.1470 Z-2.9710
X49.6066 Y30.1591 Z-2.9737
X49.6146 Y30.1717 Z-2.9763
X49.6219 Y30.1848 Z-2.9789
X49.6284 Y30.1983 Z-2.9816
X49.6341 Y30.2121 Z-2.9842
X49.6389 Y30.2263 Z-2.9869
X49.6429 Y30.2407 Z-2.9895
X49.6460 Y30.2553 Z-2.9921
X49.6482 Y30.2701 Z-2.9948
X49.6496 Y30.2850 Z-2.9974
X49.6500 Y30.3000 Z-3.0000
X49.4854 Y30.5348
X49.4773 Y30.5377 Z-3.0016
X49.4629 Y30.5419 Z-3.0042
X49.4483 Y30.5452 Z-3.0068
X49.4336 Y30.5477 Z-3.0095
X49.4187 Y30.5493 Z-3.0121
X49.4037 Y30.5499 Z-3.0148
X49.3888 Y30.5497 Z-3.0174
X49.3739 Y30.5486 Z-3.0200
X49.3590 Y30.5466 Z-3.0227
X49.3444 Y30.5437 Z-3.0253
X49.3299 Y30.5399 Z-3.0279
X49.3157 Y30.5353 Z-3.0306
X49.3017 Y30.5298 Z-3.0332
X49.2882 Y30.5235 Z-3.0359
X49.2750 Y30.5165 Z-3.0385
X49.2623 Y30.5086 Z-3.0411
X49.2500 Y30.5000 Z-3.0438
X49.2383 Y30.4907 Z-3.0464
X49.2272 Y30.4807 Z-3.0490
X49.2167 Y30.4700 Z-3.0517
X49.2069 Y30.4587 Z-3.0543
X49.1977 Y30.4469 Z-3.0570
X49.1893 Y30.4345 Z-3.0596
X49.1816 Y30.4217 Z-3.0622
X49.1748 Y30.4084 Z-3.0649
X49.1687 Y30.3948 Z-3.0675
X49.1634 Y30.3808 Z-3.0701
X49.1590 Y30.3665 Z-3.0728
X49.1555 Y30.3519 Z-3.0754
X49.1528 Y30.3372 Z-3.0781
X49.1510 Y30.3224 Z-3.0807
X49.1501 Y30.3074 Z-3.0833
Y30.2925 Z-3.0860
X49.1510 Y30.2775 Z-3.0886
X49.1528 Y30.2627 Z-3.0912
X49.1555 Y30.2480 Z-3.0939
X49.1590 Y30.2334 Z-3.0965
X49.1634 Y30.2192 Z-3.0992
X49.1687 Y30.2051 Z-3.1018
X49.1748 Y30.1915 Z-3.1044
X49.1816 Y30.1782 Z-3.1071
X49.1893 Y30.1654 Z-3.1097
X49.1977 Y30.1530 Z-3.1123
X49.2069 Y30.1412 Z-3.1150
X49.2167 Y30.1299 Z-3.1176
X49.2272 Y30.1193 Z-3.1203
X49.2383 Y30.1092 Z-3.1229
X49.2500 Y30.0999 Z-3.1255
X49.2623 Y30.0913 Z-3.1282
X49.2750 Y30.0834 Z-3.1308
X49.2882 Y30.0764 Z-3.1334
X49.3017 Y30.0701 Z-3.1361
X49.3157 Y30.0646 Z-3.1387
X49.3299 Y30.0600 Z-3.1414
X49.3444 Y30.0562 Z-3.1440
X49.3590 Y30.0533 Z-3.1466
X49.3739 Y30.0513 Z-3.1493
X49.3888 Y30.0502 Z-3.1519
X49.4037 Y30.0500 Z-3.1545
X49.4187 Y30.0507 Z-3.1572
X49.4336 Y30.0522 Z-3.1598
X49.4483 Y30.0547 Z-3.1625
X49.4629 Y30.0580 Z-3.1651
X49.4773 Y30.0622 Z-3.1677
X49.4913 Y30.0672 Z-3.1704
X49.5051 Y30.0731 Z-3.1730
X49.5185 Y30.0798 Z-3.1756
X49.5314 Y30.0873 Z-3.1783
X49.5439 Y30.0955 Z-3.1809
X49.5559 Y30.1045 Z-3.1836
X49.5673 Y30.1142 Z-3.1862
X49.5781 Y30.1245 Z-3.1888
X49.5883 Y30.1355 Z-3.1915
X49.5978 Y30.1470 Z-3.1941
X49.6066 Y30.1591 Z-3.1967
X49.6146 Y30.1717 Z-3.1994
X49.6219 Y30.1848 Z-3.2020
X49.6284 Y30.1983 Z-3.2047
X49.6341 Y30.2121 Z-3.2073
X49.6389 Y30.2263 Z-3.2099
X49.6429 Y30.2407 Z-3.2126
X49.6460 Y30.2553 Z-3.2152
X49.6482 Y30.2701 Z-3.2178
X49.6496 Y30.2850 Z-3.2205
X49.6500 Y30.3000 Z-3.2231
X49.6496 Y30.3149 Z-3.2258
X49.6482 Y30.3298 Z-3.2284
X49.6460 Y30.3446 Z-3.2310
X49.6429 Y30.3592 Z-3.2337
X49.6389 Y30.3736 Z-3.2363
X49.6341 Y30.3878 Z-3.2389
X49.6284 Y30.4016 Z-3.2416
X49.6219 Y30.4151 Z-3.2442
X49.6146 Y30.4282 Z-3.2469
X49.6066 Y30.4408 Z-3.2495
X49.5978 Y30.4529 Z-3.2521
X49.5883 Y30.4644 Z-3.2548
X49.5781 Y30.4754 Z-3.2574
X49.5673 Y30.4857 Z-3.2600
X49.5559 Y30.4954 Z-3.2627
X49.5439 Y30.5044 Z-3.2653
X49.5314 Y30.5126 Z-3.2680
X49.5185 Y30.5201 Z-3.2706
X49.5051 Y30.5268 Z-3.2732
X49.4913 Y30.5327 Z-3.2759
X49.4773 Y30.5377 Z-3.2785
X49.4629 Y30.5419 Z-3.2811
X49.4483 Y30.5452 Z-3.2838
X49.4336 Y30.5477 Z-3.2864
X49.4187 Y30.5493 Z-3.2891
X49.4037 Y30.5499 Z-3.2917
X49.3888 Y30.5497 Z-3.2943
X49.3739 Y30.5486 Z-3.2970
X49.3590 Y30.5466 Z-3.2996
X49.3444 Y30.5437 Z-3.3022
X49.3299 Y30.5399 Z-3.3049
X49.3157 Y30.5353 Z-3.3075
X49.3017 Y30.5298 Z-3.3101
X49.2882 Y30.5235 Z-3.3128
X49.2750 Y30.5165 Z-3.3154
X49.2623 Y30.5086 Z-3.3181
X49.2500 Y30.5000 Z-3.3207
X49.2383 Y30.4907 Z-3.3233
X49.2272 Y30.4807 Z-3.3260
X49.2167 Y30.4700 Z-3.3286
X49.2069 Y30.4587 Z-3.3312
X49.1977 Y30.4469 Z-3.3339
X49.1893 Y30.4345 Z-3.3365
X49.1816 Y30.4217 Z-3.3392
X49.1748 Y30.4084 Z-3.3418
X49.1687 Y30.3948 Z-3.3444
X49.1634 Y30.3808 Z-3.3471
X49.1590 Y30.3665 Z-3.3497
X49.1555 Y30.3519 Z-3.3523
X49.1528 Y30.3372 Z-3.3550
X49.1510 Y30.3224 Z-3.3576
X49.1501 Y30.3074 Z-3.3603
Y30.2925 Z-3.3629
X49.1510 Y30.2775 Z-3.3655
X49.1528 Y30.2627 Z-3.3682
X49.1555 Y30.2480 Z-3.3708
X49.1590 Y30.2334 Z-3.3734
X49.1634 Y30.2192 Z-3.3761
X49.1687 Y30.2051 Z-3.3787
X49.1748 Y30.1915 Z-3.3814
X49.1816 Y30.1782 Z-3.3840
X49.1893 Y30.1654 Z-3.3866
X49.1977 Y30.1530 Z-3.3893
X49.2069 Y30.1412 Z-3.3919
X49.2167 Y30.1299 Z-3.3945
X49.2272 Y30.1193 Z-3.3972
X49.2383 Y30.1092 Z-3.3998
X49.2500 Y30.0999 Z-3.4025
X49.2623 Y30.0913 Z-3.4051
X49.2750 Y30.0834 Z-3.4077
X49.2882 Y30.0764 Z-3.4104
X49.3017 Y30.0701 Z-3.4130
X49.3157 Y30.0646 Z-3.4156
X49.3299 Y30.0600 Z-3.4183
X49.3444 Y30.0562 Z-3.4209
X49.3590 Y30.0533 Z-3.4236
X49.3739 Y30.0513 Z-3.4262
X49.3888 Y30.0502 Z-3.4288
X49.4037 Y30.0500 Z-3.4315
X49.4187 Y30.0507 Z-3.4341
X49.4336 Y30.0522 Z-3.4367
X49.4483 Y30.0547 Z-3.4394
X49.4629 Y30.0580 Z-3.4420
X49.4773 Y30.0622 Z-3.4447
X49.4913 Y30.0672 Z-3.4473
X49.5051 Y30.0731 Z-3.4499
X49.5185 Y30.0798 Z-3.4526
X49.5314 Y30.0873 Z-3.4552
X49.5439 Y30.0955 Z-3.4578
X49.5559 Y30.1045 Z-3.4605
X49.5673 Y30.1142 Z-3.4631
X49.5781 Y30.1245 Z-3.4658
X49.5883 Y30.1355 Z-3.4684
X49.5978 Y30.1470 Z-3.4710
X49.6066 Y30.1591 Z-3.4737
X49.6146 Y30.1717 Z-3.4763
X49.6219 Y30.1848 Z-3.4789
X49.6284 Y30.1983 Z-3.4816
X49.6341 Y30.2121 Z-3.4842
X49.6389 Y30.2263 Z-3.4869
X49.6429 Y30.2407 Z-3.4895
X49.6460 Y30.2553 Z-3.4921
X49.6482 Y30.2701 Z-3.4948
X49.6496 Y30.2850 Z-3.4974
X49.6500 Y30.3000 Z-3.5000
X49.4854 Y30.5348
X49.4773 Y30.5377 Z-3.5016
X49.4629 Y30.5419 Z-3.5042
X49.4483 Y30.5452 Z-3.5068
X49.4336 Y30.5477 Z-3.5095
X49.4187 Y30.5493 Z-3.5121
X49.4037 Y30.5499 Z-3.5148
X49.3888 Y30.5497 Z-3.5174
X49.3739 Y30.5486 Z-3.5200
X49.3590 Y30.5466 Z-3.5227
X49.3444 Y30.5437 Z-3.5253
X49.3299 Y30.5399 Z-3.5279
X49.3157 Y30.5353 Z-3.5306
X49.3017 Y30.5298 Z-3.5332
X49.2882 Y30.5235 Z-3.5359
X49.2750 Y30.5165 Z-3.5385
X49.2623 Y30.5086 Z-3.5411
X49.2500 Y30.5000 Z-3.5438
X49.2383 Y30.4907 Z-3.5464
X49.2272 Y30.4807 Z-3.5490
X49.2167 Y30.4700 Z-3.5517
X49.2069 Y30.4587 Z-3.5543
X49.1977 Y30.4469 Z-3.5570
X49.1893 Y30.4345 Z-3.5596
X49.1816 Y30.4217 Z-3.5622
X49.1748 Y30.4084 Z-3.5649
X49.1687 Y30.3948 Z-3.5675
X49.1634 Y30.3808 Z-3.5701
X49.1590 Y30.3665 Z-3.5728
X49.1555 Y30.3519 Z-3.5754
X49.1528 Y30.3372 Z-3.5781
X49.1510 Y30.3224 Z-3.5807
X49.1501 Y30.3074 Z-3.5833
Y30.2925 Z-3.5860
X49.1510 Y30.2775 Z-3.5886
X49.1528 Y30.2627 Z-3.5912
X49.1555 Y30.2480 Z-3.5939
X49.1590 Y30.2334 Z-3.5965
X49.1634 Y30.2192 Z-3.5992
X49.1687 Y30.2051 Z-3.6018
X49.1748 Y30.1915 Z-3.6044
X49.1816 Y30.1782 Z-3.6071
X49.1893 Y30.1654 Z-3.6097
X49.1977 Y30.1530 Z-3.6123
X49.2069 Y30.1412 Z-3.6150
X49.2167 Y30.1299 Z-3.6176
X49.2272 Y30.1193 Z-3.6203
X49.2383 Y30.1092 Z-3.6229
X49.2500 Y30.0999 Z-3.6255
X49.2623 Y30.0913 Z-3.6282
X49.2750 Y30.0834 Z-3.6308
X49.2882 Y30.0764 Z-3.6334
X49.3017 Y30.0701 Z-3.6361
X49.3157 Y30.0646 Z-3.6387
X49.3299 Y30.0600 Z-3.6414
X49.3444 Y30.0562 Z-3.6440
X49.3590 Y30.0533 Z-3.6466
X49.3739 Y30.0513 Z-3.6493
X49.3888 Y30.0502 Z-3.6519
X49.4037 Y30.0500 Z-3.6545
X49.4187 Y30.0507 Z-3.6572
X49.4336 Y30.0522 Z-3.6598
X49.4483 Y30.0547 Z-3.6625
X49.4629 Y30.0580 Z-3.6651
X49.4773 Y30.0622 Z-3.6677
X49.4913 Y30.0672 Z-3.6704
X49.5051 Y30.0731 Z-3.6730
X49.5185 Y30.0798 Z-3.6756
X49.5314 Y30.0873 Z-3.6783
X49.5439 Y30.0955 Z-3.6809
X49.5559 Y30.1045 Z-3.6836
X49.5673 Y30.1142 Z-3.6862
X49.5781 Y30.1245 Z-3.6888
X49.5883 Y30.1355 Z-3.6915
X49.5978 Y30.1470 Z-3.6941
X49.6066 Y30.1591 Z-3.6967
X49.6146 Y30.1717 Z-3.6994
X49.6219 Y30.1848 Z-3.7020
X49.6284 Y30.1983 Z-3.7047
X49.6341 Y30.2121 Z-3.7073
X49.6389 Y30.2263 Z-3.7099
X49.6429 Y30.2407 Z-3.7126
X49.6460 Y30.2553 Z-3.7152
X49.6482 Y30.2701 Z-3.7178
X49.6496 Y30.2850 Z-3.7205
X49.6500 Y30.3000 Z-3.7231
X49.6496 Y30.3149 Z-3.7258
X49.6482 Y30.3298 Z-3.7284
X49.6460 Y30.3446 Z-3.7310
X49.6429 Y30.3592 Z-3.7337
X49.6389 Y30.3736 Z-3.7363
X49.6341 Y30.3878 Z-3.7389
X49.6284 Y30.4016 Z-3.7416
X49.6219 Y30.4151 Z-3.7442
X49.6146 Y30.4282 Z-3.7469
X49.6066 Y30.4408 Z-3.7495
X49.5978 Y30.4529 Z-3.7521
X49.5883 Y30.4644 Z-3.7548
X49.5781 Y30.4754 Z-3.7574
X49.5673 Y30.4857 Z-3.7600
X49.5559 Y30.4954 Z-3.7627
X49.5439 Y30.5044 Z-3.7653
X49.5314 Y30.5126 Z-3.7680
X49.5185 Y30.5201 Z-3.7706
X49.5051 Y30.5268 Z-3.7732
X49.4913 Y30.5327 Z-3.7759
X49.4773 Y30.5377 Z-3.7785
X49.4629 Y30.5419 Z-3.7811
X49.4483 Y30.5452 Z-3.7838
X49.4336 Y30.5477 Z-3.7864
X49.4187 Y30.5493 Z-3.7891
X49.4037 Y30.5499 Z-3.7917
X49.3888 Y30.5497 Z-3.7943
X49.3739 Y30.5486 Z-3.7970
X49.3590 Y30.5466 Z-3.7996
X49.3444 Y30.5437 Z-3.8022
X49.3299 Y30.5399 Z-3.8049
X49.3157 Y30.5353 Z-3.8075
X49.3017 Y30.5298 Z-3.8101
X49.2882 Y30.5235 Z-3.8128
X49.2750 Y30.5165 Z-3.8154
X49.2623 Y30.5086 Z-3.8181
X49.2500 Y30.5000 Z-3.8207
X49.2383 Y30.4907 Z-3.8233
X49.2272 Y30.4807 Z-3.8260
X49.2167 Y30.4700 Z-3.8286
X49.2069 Y30.4587 Z-3.8312
X49.1977 Y30.4469 Z-3.8339
X49.1893 Y30.4345 Z-3.8365
X49.1816 Y30.4217 Z-3.8392
X49.1748 Y30.4084 Z-3.8418
X49.1687 Y30.3948 Z-3.8444
X49.1634 Y30.3808 Z-3.8471
X49.1590 Y30.3665 Z-3.8497
X49.1555 Y30.3519 Z-3.8523
X49.1528 Y30.3372 Z-3.8550
X49.1510 Y30.3224 Z-3.8576
X49.1501 Y30.3074 Z-3.8603
Y30.2925 Z-3.8629
X49.1510 Y30.2775 Z-3.8655
X49.1528 Y30.2627 Z-3.8682
X49.1555 Y30.2480 Z-3.8708
X49.1590 Y30.2334 Z-3.8734
X49.1634 Y30.2192 Z-3.8761
X49.1687 Y30.2051 Z-3.8787
X49.1748 Y30.1915 Z-3.8814
X49.1816 Y30.1782 Z-3.8840
X49.1893 Y30.1654 Z-3.8866
X49.1977 Y30.1530 Z-3.8893
X49.2069 Y30.1412 Z-3.8919
X49.2167 Y30.1299 Z-3.8945
X49.2272 Y30.1193 Z-3.8972
X49.2383 Y30.1092 Z-3.8998
X49.2500 Y30.0999 Z-3.9025
X49.2623 Y30.0913 Z-3.9051
X49.2750 Y30.0834 Z-3.9077
X49.2882 Y30.0764 Z-3.9104
X49.3017 Y30.0701 Z-3.9130
X49.3157 Y30.0646 Z-3.9156
X49.3299 Y30.0600 Z-3.9183
X49.3444 Y30.0562 Z-3.9209
X49.3590 Y30.0533 Z-3.9236
X49.3739 Y30.0513 Z-3.9262
X49.3888 Y30.0502 Z-3.9288
X49.4037 Y30.0500 Z-3.9315
X49.4187 Y30.0507 Z-3.9341
X49.4336 Y30.0522 Z-3.9367
X49.4483 Y30.0547 Z-3.9394
X49.4629 Y30.0580 Z-3.9420
X49.4773 Y30.0622 Z-3.9447
X49.4913 Y30.0672 Z-3.9473
X49.5051 Y30.0731 Z-3.9499
X49.5185 Y30.0798 Z-3.9526
X49.5314 Y30.0873 Z-3.9552
X49.5439 Y30.0955 Z-3.9578
X49.5559 Y30.1045 Z-3.9605
X49.5673 Y30.1142 Z-3.9631
X49.5781 Y30.1245 Z-3.9658
X49.5883 Y30.1355 Z-3.9684
X49.5978 Y30.1470 Z-3.9710
X49.6066 Y30.1591 Z-3.9737
X49.6146 Y30.1717 Z-3.9763
X49.6219 Y30.1848 Z-3.9789
X49.6284 Y30.1983 Z-3.9816
X49.6341 Y30.2121 Z-3.9842
X49.6389 Y30.2263 Z-3.9869
X49.6429 Y30.2407 Z-3.9895
X49.6460 Y30.2553 Z-3.9921
X49.6482 Y30.2701 Z-3.9948
X49.6496 Y30.2850 Z-3.9974
X49.6500 Y30.3000 Z-4.0000
X49.4854 Y30.5348
X49.4773 Y30.5377 Z-4.0016
X49.4629 Y30.5419 Z-4.0042
X49.4483 Y30.5452 Z-4.0068
X49.4336 Y30.5477 Z-4.0095
X49.4187 Y30.5493 Z-4.0121
X49.4037 Y30.5499 Z-4.0148
X49.3888 Y30.5497 Z-4.0174
X49.3739 Y30.5486 Z-4.0200
X49.3590 Y30.5466 Z-4.0227
X49.3444 Y30.5437 Z-4.0253
X49.3299 Y30.5399 Z-4.0279
X49.3157 Y30.5353 Z-4.0306
X49.3017 Y30.5298 Z-4.0332
X49.2882 Y30.5235 Z-4.0359
X49.2750 Y30.5165 Z-4.0385
X49.2623 Y30.5086 Z-4.0411
X49.2500 Y30.5000 Z-4.0438
X49.2383 Y30.4907 Z-4.0464
X49.2272 Y30.4807 Z-4.0490
X49.2167 Y30.4700 Z-4.0517
X49.2069 Y30.4587 Z-4.0543
X49.1977 Y30.4469 Z-4.0570
X49.1893 Y30.4345 Z-4.0596
X49.1816 Y30.4217 Z-4.0622
X49.1748 Y30.4084 Z-4.0649
X49.1687 Y30.3948 Z-4.0675
X49.1634 Y30.3808 Z-4.0701
X49.1590 Y30.3665 Z-4.0728
X49.1555 Y30.3519 Z-4.0754
X49.1528 Y30.3372 Z-4.0781
X49.1510 Y30.3224 Z-4.0807
X49.1501 Y30.3074 Z-4.0833
Y30.2925 Z-4.0860
X49.1510 Y30.2775 Z-4.0886
X49.1528 Y30.2627 Z-4.0912
X49.1555 Y30.2480 Z-4.0939
X49.1590 Y30.2334 Z-4.0965
X49.1634 Y30.2192 Z-4.0992
X49.1687 Y30.2051 Z-4.1018
X49.1748 Y30.1915 Z-4.1044
X49.1816 Y30.1782 Z-4.1071
X49.1893 Y30.1654 Z-4.1097
X49.1977 Y30.1530 Z-4.1123
X49.2069 Y30.1412 Z-4.1150
X49.2167 Y30.1299 Z-4.1176
X49.2272 Y30.1193 Z-4.1203
X49.2383 Y30.1092 Z-4.1229
X49.2500 Y30.0999 Z-4.1255
X49.2623 Y30.0913 Z-4.1282
X49.2750 Y30.0834 Z-4.1308
X49.2882 Y30.0764 Z-4.1334
X49.3017 Y30.0701 Z-4.1361
X49.3157 Y30.0646 Z-4.1387
X49.3299 Y30.0600 Z-4.1414
X49.3444 Y30.0562 Z-4.1440
X49.3590 Y30.0533 Z-4.1466
X49.3739 Y30.0513 Z-4.1493
X49.3888 Y30.0502 Z-4.1519
X49.4037 Y30.0500 Z-4.1545
X49.4187 Y30.0507 Z-4.1572
X49.4336 Y30.0522 Z-4.1598
X49.4483 Y30.0547 Z-4.1625
X49.4629 Y30.0580 Z-4.1651
X49.4773 Y30.0622 Z-4.1677
X49.4913 Y30.0672 Z-4.1704
X49.5051 Y30.0731 Z-4.1730
X49.5185 Y30.0798 Z-4.1756
X49.5314 Y30.0873 Z-4.1783
X49.5439 Y30.0955 Z-4.1809
X49.5559 Y30.1045 Z-4.1836
X49.5673 Y30.1142 Z-4.1862
X49.5781 Y30.1245 Z-4.1888
X49.5883 Y30.1355 Z-4.1915
X49.5978 Y30.1470 Z-4.1941
X49.6066 Y30.1591 Z-4.1967
X49.6146 Y30.1717 Z-4.1994
X49.6219 Y30.1848 Z-4.2020
X49.6284 Y30.1983 Z-4.2047
X49.6341 Y30.2121 Z-4.2073
X49.6389 Y30.2263 Z-4.2099
X49.6429 Y30.2407 Z-4.2126
X49.6460 Y30.2553 Z-4.2152
X49.6482 Y30.2701 Z-4.2178
X49.6496 Y30.2850 Z-4.2205
X49.6500 Y30.3000 Z-4.2231
X49.6496 Y30.3149 Z-4.2258
X49.6482 Y30.3298 Z-4.2284
X49.6460 Y30.3446 Z-4.2310
X49.6429 Y30.3592 Z-4.2337
X49.6389 Y30.3736 Z-4.2363
X49.6341 Y30.3878 Z-4.2389
X49.6284 Y30.4016 Z-4.2416
X49.6219 Y30.4151 Z-4.2442
X49.6146 Y30.4282 Z-4.2469
X49.6066 Y30.4408 Z-4.2495
X49.5978 Y30.4529 Z-4.2521
X49.5883 Y30.4644 Z-4.2548
X49.5781 Y30.4754 Z-4.2574
X49.5673 Y30.4857 Z-4.2600
X49.5559 Y30.4954 Z-4.2627
X49.5439 Y30.5044 Z-4.2653
X49.5314 Y30.5126 Z-4.2680
X49.5185 Y30.5201 Z-4.2706
X49.5051 Y30.5268 Z-4.2732
X49.4913 Y30.5327 Z-4.2759
X49.4773 Y30.5377 Z-4.2785
X49.4629 Y30.5419 Z-4.2811
X49.4483 Y30.5452 Z-4.2838
X49.4336 Y30.5477 Z-4.2864
X49.4187 Y30.5493 Z-4.2890
X49.4037 Y30.5499 Z-4.2917
X49.3888 Y30.5497 Z-4.2943
X49.3739 Y30.5486 Z-4.2970
X49.3590 Y30.5466 Z-4.2996
X49.3444 Y30.5437 Z-4.3022
X49.3299 Y30.5399 Z-4.3049
X49.3157 Y30.5353 Z-4.3075
X49.3017 Y30.5298 Z-4.3101
X49.2882 Y30.5235 Z-4.3128
X49.2750 Y30.5165 Z-4.3154
X49.2623 Y30.5086 Z-4.3181
X49.2500 Y30.5000 Z-4.3207
X49.2383 Y30.4907 Z-4.3233
X49.2272 Y30.4807 Z-4.3260
X49.2167 Y30.4700 Z-4.3286
X49.2069 Y30.4587 Z-4.3312
X49.1977 Y30.4469 Z-4.3339
X49.1893 Y30.4345 Z-4.3365
X49.1816 Y30.4217 Z-4.3392
X49.1748 Y30.4084 Z-4.3418
X49.1687 Y30.3948 Z-4.3444
X49.1634 Y30.3808 Z-4.3471
X49.1590 Y30.3665 Z-4.3497
X49.1555 Y30.3519 Z-4.3523
X49.1528 Y30.3372 Z-4.3550
X49.1510 Y30.3224 Z-4.3576
X49.1501 Y30.3074 Z-4.3603
Y30.2925 Z-4.3629
X49.1510 Y30.2775 Z-4.3655
X49.1528 Y30.2627 Z-4.3682
X49.1555 Y30.2480 Z-4.3708
X49.1590 Y30.2334 Z-4.3734
X49.1634 Y30.2192 Z-4.3761
X49.1687 Y30.2051 Z-4.3787
X49.1748 Y30.1915 Z-4.3814
X49.1816 Y30.1782 Z-4.3840
X49.1893 Y30.1654 Z-4.3866
X49.1977 Y30.1530 Z-4.3893
X49.2069 Y30.1412 Z-4.3919
X49.2167 Y30.1299 Z-4.3945
X49.2272 Y30.1193 Z-4.3972
X49.2383 Y30.1092 Z-4.3998
X49.2500 Y30.0999 Z-4.4025
X49.2623 Y30.0913 Z-4.4051
X49.2750 Y30.0834 Z-4.4077
X49.2882 Y30.0764 Z-4.4104
X49.3017 Y30.0701 Z-4.4130
X49.3157 Y30.0646 Z-4.4156
X49.3299 Y30.0600 Z-4.4183
X49.3444 Y30.0562 Z-4.4209
X49.3590 Y30.0533 Z-4.4236
X49.3739 Y30.0513 Z-4.4262
X49.3888 Y30.0502 Z-4.4288
X49.4037 Y30.0500 Z-4.4315
X49.4187 Y30.0507 Z-4.4341
X49.4336 Y30.0522 Z-4.4367
X49.4483 Y30.0547 Z-4.4394
X49.4629 Y30.0580 Z-4.4420
X49.4773 Y30.0622 Z-4.4447
X49.4913 Y30.0672 Z-4.4473
X49.5051 Y30.0731 Z-4.4499
X49.5185 Y30.0798 Z-4.4526
X49.5314 Y30.0873 Z-4.4552
X49.5439 Y30.0955 Z-4.4578
X49.5559 Y30.1045 Z-4.4605
X49.5673 Y30.1142 Z-4.4631
X49.5781 Y30.1245 Z-4.4658
X49.5883 Y30.1355 Z-4.4684
X49.5978 Y30.1470 Z-4.4710
X49.6066 Y30.1591 Z-4.4737
X49.6146 Y30.1717 Z-4.4763
X49.6219 Y30.1848 Z-4.4789
X49.6284 Y30.1983 Z-4.4816
X49.6341 Y30.2121 Z-4.4842
X49.6389 Y30.2263 Z-4.4869
X49.6429 Y30.2407 Z-4.4895
X49.6460 Y30.2553 Z-4.4921
X49.6482 Y30.2701 Z-4.4948
X49.6496 Y30.2850 Z-4.4974
X49.6500 Y30.3000 Z-4.5000
X49.4854 Y30.5348
X49.4773 Y30.5377 Z-4.5016
X49.4629 Y30.5419 Z-4.5042
X49.4483 Y30.5452 Z-4.5068
X49.4336 Y30.5477 Z-4.5095
X49.4187 Y30.5493 Z-4.5121
X49.4037 Y30.5499 Z-4.5148
X49.3888 Y30.5497 Z-4.5174
X49.3739 Y30.5486 Z-4.5200
X49.3590 Y30.5466 Z-4.5227
X49.3444 Y30.5437 Z-4.5253
X49.3299 Y30.5399 Z-4.5279
X49.3157 Y30.5353 Z-4.5306
X49.3017 Y30.5298 Z-4.5332
X49.2882 Y30.5235 Z-4.5359
X49.2750 Y30.5165 Z-4.5385
X49.2623 Y30.5086 Z-4.5411
X49.2500 Y30.5000 Z-4.5438
X49.2383 Y30.4907 Z-4.5464
X49.2272 Y30.4807 Z-4.5490
X49.2167 Y30.4700 Z-4.5517
X49.2069 Y30.4587 Z-4.5543
X49.1977 Y30.4469 Z-4.5570
X49.1893 Y30.4345 Z-4.5596
X49.1816 Y30.4217 Z-4.5622
X49.1748 Y30.4084 Z-4.5649
X49.1687 Y30.3948 Z-4.5675
X49.1634 Y30.3808 Z-4.5701
X49.1590 Y30.3665 Z-4.5728
X49.1555 Y30.3519 Z-4.5754
X49.1528 Y30.3372 Z-4.5781
X49.1510 Y30.3224 Z-4.5807
X49.1501 Y30.3074 Z-4.5833
Y30.2925 Z-4.5860
X49.1510 Y30.2775 Z-4.5886
X49.1528 Y30.2627 Z-4.5912
X49.1555 Y30.2480 Z-4.5939
X49.1590 Y30.2334 Z-4.5965
X49.1634 Y30.2192 Z-4.5992
X49.1687 Y30.2051 Z-4.6018
X49.1748 Y30.1915 Z-4.6044
X49.1816 Y30.1782 Z-4.6071
X49.1893 Y30.1654 Z-4.6097
X49.1977 Y30.1530 Z-4.6123
X49.2069 Y30.1412 Z-4.6150
X49.2167 Y30.1299 Z-4.6176
X49.2272 Y30.1193 Z-4.6203
X49.2383 Y30.1092 Z-4.6229
X49.2500 Y30.0999 Z-4.6255
X49.2623 Y30.0913 Z-4.6282
X49.2750 Y30.0834 Z-4.6308
X49.2882 Y30.0764 Z-4.6334
X49.3017 Y30.0701 Z-4.6361
X49.3157 Y30.0646 Z-4.6387
X49.3299 Y30.0600 Z-4.6414
X49.3444 Y30.0562 Z-4.6440
X49.3590 Y30.0533 Z-4.6466
X49.3739 Y30.0513 Z-4.6493
X49.3888 Y30.0502 Z-4.6519
X49.4037 Y30.0500 Z-4.6545
X49.4187 Y30.0507 Z-4.6572
X49.4336 Y30.0522 Z-4.6598
X49.4483 Y30.0547 Z-4.6625
X49.4629 Y30.0580 Z-4.6651
X49.4773 Y30.0622 Z-4.6677
X49.4913 Y30.0672 Z-4.6704
X49.5051 Y30.0731 Z-4.6730
X49.5185 Y30.0798 Z-4.6756
X49.5314 Y30.0873 Z-4.6783
X49.5439 Y30.0955 Z-4.6809
X49.5559 Y30.1045 Z-4.6836
X49.5673 Y30.1142 Z-4.6862
X49.5781 Y30.1245 Z-4.6888
X49.5883 Y30.1355 Z-4.6915
X49.5978 Y30.1470 Z-4.6941
X49.6066 Y30.1591 Z-4.6967
X49.6146 Y30.1717 Z-4.6994
X49.6219 Y30.1848 Z-4.7020
X49.6284 Y30.1983 Z-4.7047
X49.6341 Y30.2121 Z-4.7073
X49.6389 Y30.2263 Z-4.7099
X49.6429 Y30.2407 Z-4.7126
X49.6460 Y30.2553 Z-4.7152
X49.6482 Y30.2701 Z-4.7178
X49.6496 Y30.2850 Z-4.7205
X49.6500 Y30.3000 Z-4.7231
X49.6496 Y30.3149 Z-4.7258
X49.6482 Y30.3298 Z-4.7284
X49.6460 Y30.3446 Z-4.7310
X49.6429 Y30.3592 Z-4.7337
X49.6389 Y30.3736 Z-4.7363
X49.6341 Y30.3878 Z-4.7389
X49.6284 Y30.4016 Z-4.7416
X49.6219 Y30.4151 Z-4.7442
X49.6146 Y30.4282 Z-4.7469
X49.6066 Y30.4408 Z-4.7495
X49.5978 Y30.4529 Z-4.7521
X49.5883 Y30.4644 Z-4.7548
X49.5781 Y30.4754 Z-4.7574
X49.5673 Y30.4857 Z-4.7600
X49.5559 Y30.4954 Z-4.7627
X49.5439 Y30.5044 Z-4.7653
X49.5314 Y30.5126 Z-4.7680
X49.5185 Y30.5201 Z-4.7706
X49.5051 Y30.5268 Z-4.7732
X49.4913 Y30.5327 Z-4.7759
X49.4773 Y30.5377 Z-4.7785
X49.4629 Y30.5419 Z-4.7811
X49.4483 Y30.5452 Z-4.7838
X49.4336 Y30.5477 Z-4.7864
X49.4187 Y30.5493 Z-4.7890
X49.4037 Y30.5499 Z-4.7917
X49.3888 Y30.5497 Z-4.7943
X49.3739 Y30.5486 Z-4.7970
X49.3590 Y30.5466 Z-4.7996
X49.3444 Y30.5437 Z-4.8022
X49.3299 Y30.5399 Z-4.8049
X49.3157 Y30.5353 Z-4.8075
X49.3017 Y30.5298 Z-4.8101
X49.2882 Y30.5235 Z-4.8128
X49.2750 Y30.5165 Z-4.8154
X49.2623 Y30.5086 Z-4.8181
X49.2500 Y30.5000 Z-4.8207
X49.2383 Y30.4907 Z-4.8233
X49.2272 Y30.4807 Z-4.8260
X49.2167 Y30.4700 Z-4.8286
X49.2069 Y30.4587 Z-4.8312
X49.1977 Y30.4469 Z-4.8339
X49.1893 Y30.4345 Z-4.8365
X49.1816 Y30.4217 Z-4.8392
X49.1748 Y30.4084 Z-4.8418
X49.1687 Y30.3948 Z-4.8444
X49.1634 Y30.3808 Z-4.8471
X49.1590 Y30.3665 Z-4.8497
X49.1555 Y30.3519 Z-4.8523
X49.1528 Y30.3372 Z-4.8550
X49.1510 Y30.3224 Z-4.8576
X49.1501 Y30.3074 Z-4.8603
Y30.2925 Z-4.8629
X49.1510 Y30.2775 Z-4.8655
X49.1528 Y30.2627 Z-4.8682
X49.1555 Y30.2480 Z-4.8708
X49.1590 Y30.2334 Z-4.8734
X49.1634 Y30.2192 Z-4.8761
X49.1687 Y30.2051 Z-4.8787
X49.1748 Y30.1915 Z-4.8814
X49.1816 Y30.1782 Z-4.8840
X49.1893 Y30.1654 Z-4.8866
X49.1977 Y30.1530 Z-4.8893
X49.2069 Y30.1412 Z-4.8919
X49.2167 Y30.1299 Z-4.8945
X49.2272 Y30.1193 Z-4.8972
X49.2383 Y30.1092 Z-4.8998
X49.2500 Y30.0999 Z-4.9025
X49.2623 Y30.0913 Z-4.9051
X49.2750 Y30.0834 Z-4.9077
X49.2882 Y30.0764 Z-4.9104
X49.3017 Y30.0701 Z-4.9130
X49.3157 Y30.0646 Z-4.9156
X49.3299 Y30.0600 Z-4.9183
X49.3444 Y30.0562 Z-4.9209
X49.3590 Y30.0533 Z-4.9236
X49.3739 Y30.0513 Z-4.9262
X49.3888 Y30.0502 Z-4.9288
X49.4037 Y30.0500 Z-4.9315
X49.4187 Y30.0507 Z-4.9341
X49.4336 Y30.0522 Z-4.9367
X49.4483 Y30.0547 Z-4.9394
X49.4629 Y30.0580 Z-4.9420
X49.4773 Y30.0622 Z-4.9447
X49.4913 Y30.0672 Z-4.9473
X49.5051 Y30.0731 Z-4.9499
X49.5185 Y30.0798 Z-4.9526
X49.5314 Y30.0873 Z-4.9552
X49.5439 Y30.0955 Z-4.9578
X49.5559 Y30.1045 Z-4.9605
X49.5673 Y30.1142 Z-4.9631
X49.5781 Y30.1245 Z-4.9658
X49.5883 Y30.1355 Z-4.9684
X49.5978 Y30.1470 Z-4.9710
X49.6066 Y30.1591 Z-4.9737
X49.6146 Y30.1717 Z-4.9763
X49.6219 Y30.1848 Z-4.9789
X49.6284 Y30.1983 Z-4.9816
X49.6341 Y30.2121 Z-4.9842
X49.6389 Y30.2263 Z-4.9869
X49.6429 Y30.2407 Z-4.9895
X49.6460 Y30.2553 Z-4.9921
X49.6482 Y30.2701 Z-4.9948
X49.6496 Y30.2850 Z-4.9974
X49.6500 Y30.3000 Z-5.0000
X49.4854 Y30.5348
X49.4773 Y30.5377 Z-5.0016
X49.4629 Y30.5419 Z-5.0042
X49.4483 Y30.5452 Z-5.0068
X49.4336 Y30.5477 Z-5.0095
X49.4187 Y30.5493 Z-5.0121
X49.4037 Y30.5499 Z-5.0148
X49.3888 Y30.5497 Z-5.0174
X49.3739 Y30.5486 Z-5.0200
X49.3590 Y30.5466 Z-5.0227
X49.3444 Y30.5437 Z-5.0253
X49.3299 Y30.5399 Z-5.0279
X49.3157 Y30.5353 Z-5.0306
X49.3017 Y30.5298 Z-5.0332
X49.2882 Y30.5235 Z-5.0359
X49.2750 Y30.5165 Z-5.0385
X49.2623 Y30.5086 Z-5.0411
X49.2500 Y30.5000 Z-5.0438
X49.2383 Y30.4907 Z-5.0464
X49.2272 Y30.4807 Z-5.0490
X49.2167 Y30.4700 Z-5.0517
X49.2069 Y30.4587 Z-5.0543
X49.1977 Y30.4469 Z-5.0570
X49.1893 Y30.4345 Z-5.0596
X49.1816 Y30.4217 Z-5.0622
X49.1748 Y30.4084 Z-5.0649
X49.1687 Y30.3948 Z-5.0675
X49.1634 Y30.3808 Z-5.0701
X49.1590 Y30.3665 Z-5.0728
X49.1555 Y30.3519 Z-5.0754
X49.1528 Y30.3372 Z-5.0781
X49.1510 Y30.3224 Z-5.0807
X49.1501 Y30.3074 Z-5.0833
Y30.2925 Z-5.0860
X49.1510 Y30.2775 Z-5.0886
X49.1528 Y30.2627 Z-5.0912
X49.1555 Y30.2480 Z-5.0939
X49.1590 Y30.2334 Z-5.0965
X49.1634 Y30.2192 Z-5.0992
X49.1687 Y30.2051 Z-5.1018
X49.1748 Y30.1915 Z-5.1044
X49.1816 Y30.1782 Z-5.1071
X49.1893 Y30.1654 Z-5.1097
X49.1977 Y30.1530 Z-5.1123
X49.2069 Y30.1412 Z-5.1150
X49.2167 Y30.1299 Z-5.1176
X49.2272 Y30.1193 Z-5.1203
X49.2383 Y30.1092 Z-5.1229
X49.2500 Y30.0999 Z-5.1255
X49.2623 Y30.0913 Z-5.1282
X49.2750 Y30.0834 Z-5.1308
X49.2882 Y30.0764 Z-5.1334
X49.3017 Y30.0701 Z-5.1361
X49.3157 Y30.0646 Z-5.1387
X49.3299 Y30.0600 Z-5.1414
X49.3444 Y30.0562 Z-5.1440
X49.3590 Y30.0533 Z-5.1466
X49.3739 Y30.0513 Z-5.1493
X49.3888 Y30.0502 Z-5.1519
X49.4037 Y30.0500 Z-5.1545
X49.4187 Y30.0507 Z-5.1572
X49.4336 Y30.0522 Z-5.1598
X49.4483 Y30.0547 Z-5.1625
X49.4629 Y30.0580 Z-5.1651
X49.4773 Y30.0622 Z-5.1677
X49.4913 Y30.0672 Z-5.1704
X49.5051 Y30.0731 Z-5.1730
X49.5185 Y30.0798 Z-5.1756
X49.5314 Y30.0873 Z-5.1783
X49.5439 Y30.0955 Z-5.1809
X49.5559 Y30.1045 Z-5.1836
X49.5673 Y30.1142 Z-5.1862
X49.5781 Y30.1245 Z-5.1888
X49.5883 Y30.1355 Z-5.1915
X49.5978 Y30.1470 Z-5.1941
X49.6066 Y30.1591 Z-5.1967
X49.6146 Y30.1717 Z-5.1994
X49.6219 Y30.1848 Z-5.2020
X49.6284 Y30.1983 Z-5.2047
X49.6341 Y30.2121 Z-5.2073
X49.6389 Y30.2263 Z-5.2099
X49.6429 Y30.2407 Z-5.2126
X49.6460 Y30.2553 Z-5.2152
X49.6482 Y30.2701 Z-5.2178
X49.6496 Y30.2850 Z-5.2205
X49.6500 Y30.3000 Z-5.2231
X49.6496 Y30.3149 Z-5.2258
X49.6482 Y30.3298 Z-5.2284
X49.6460 Y30.3446 Z-5.2310
X49.6429 Y30.3592 Z-5.2337
X49.6389 Y30.3736 Z-5.2363
X49.6341 Y30.3878 Z-5.2389
X49.6284 Y30.4016 Z-5.2416
X49.6219 Y30.4151 Z-5.2442
X49.6146 Y30.4282 Z-5.2469
X49.6066 Y30.4408 Z-5.2495
X49.5978 Y30.4529 Z-5.2521
X49.5883 Y30.4644 Z-5.2548
X49.5781 Y30.4754 Z-5.2574
X49.5673 Y30.4857 Z-5.2600
X49.5559 Y30.4954 Z-5.2627
X49.5439 Y30.5044 Z-5.2653
X49.5314 Y30.5126 Z-5.2680
X49.5185 Y30.5201 Z-5.2706
X49.5051 Y30.5268 Z-5.2732
X49.4913 Y30.5327 Z-5.2759
X49.4773 Y30.5377 Z-5.2785
X49.4629 Y30.5419 Z-5.2811
X49.4483 Y30.5452 Z-5.2838
X49.4336 Y30.5477 Z-5.2864
X49.4187 Y30.5493 Z-5.2890
X49.4037 Y30.5499 Z-5.2917
X49.3888 Y30.5497 Z-5.2943
X49.3739 Y30.5486 Z-5.2970
X49.3590 Y30.5466 Z-5.2996
X49.3444 Y30.5437 Z-5.3022
X49.3299 Y30.5399 Z-5.3049
X49.3157 Y30.5353 Z-5.3075
X49.3017 Y30.5298 Z-5.3101
X49.2882 Y30.5235 Z-5.3128
X49.2750 Y30.5165 Z-5.3154
X49.2623 Y30.5086 Z-5.3181
X49.2500 Y30.5000 Z-5.3207
X49.2383 Y30.4907 Z-5.3233
X49.2272 Y30.4807 Z-5.3260
X49.2167 Y30.4700 Z-5.3286
X49.2069 Y30.4587 Z-5.3312
X49.1977 Y30.4469 Z-5.3339
X49.1893 Y30.4345 Z-5.3365
X49.1816 Y30.4217 Z-5.3392
X49.1748 Y30.4084 Z-5.3418
X49.1687 Y30.3948 Z-5.3444
X49.1634 Y30.3808 Z-5.3471
X49.1590 Y30.3665 Z-5.3497
X49.1555 Y30.3519 Z-5.3523
X49.1528 Y30.3372 Z-5.3550
X49.1510 Y30.3224 Z-5.3576
X49.1501 Y30.3074 Z-5.3603
Y30.2925 Z-5.3629
X49.1510 Y30.2775 Z-5.3655
X49.1528 Y30.2627 Z-5.3682
X49.1555 Y30.2480 Z-5.3708
X49.1590 Y30.2334 Z-5.3734
X49.1634 Y30.2192 Z-5.3761
X49.1687 Y30.2051 Z-5.3787
X49.1748 Y30.1915 Z-5.3814
X49.1816 Y30.1782 Z-5.3840
X49.1893 Y30.1654 Z-5.3866
X49.1977 Y30.1530 Z-5.3893
X49.2069 Y30.1412 Z-5.3919
X49.2167 Y30.1299 Z-5.3945
X49.2272 Y30.1193 Z-5.3972
X49.2383 Y30.1092 Z-5.3998
X49.2500 Y30.0999 Z-5.4025
X49.2623 Y30.0913 Z-5.4051
X49.2750 Y30.0834 Z-5.4077
X49.2882 Y30.0764 Z-5.4104
X49.3017 Y30.0701 Z-5.4130
X49.3157 Y30.0646 Z-5.4156
X49.3299 Y30.0600 Z-5.4183
X49.3444 Y30.0562 Z-5.4209
X49.3590 Y30.0533 Z-5.4236
X49.3739 Y30.0513 Z-5.4262
X49.3888 Y30.0502 Z-5.4288
X49.4037 Y30.0500 Z-5.4315
X49.4187 Y30.0507 Z-5.4341
X49.4336 Y30.0522 Z-5.4367
X49.4483 Y30.0547 Z-5.4394
X49.4629 Y30.0580 Z-5.4420
X49.4773 Y30.0622 Z-5.4447
X49.4913 Y30.0672 Z-5.4473
X49.5051 Y30.0731 Z-5.4499
X49.5185 Y30.0798 Z-5.4526
X49.5314 Y30.0873 Z-5.4552
X49.5439 Y30.0955 Z-5.4578
X49.5559 Y30.1045 Z-5.4605
X49.5673 Y30.1142 Z-5.4631
X49.5781 Y30.1245 Z-5.4658
X49.5883 Y30.1355 Z-5.4684
X49.5978 Y30.1470 Z-5.4710
X49.6066 Y30.1591 Z-5.4737
X49.6146 Y30.1717 Z-5.4763
X49.6219 Y30.1848 Z-5.4789
X49.6284 Y30.1983 Z-5.4816
X49.6341 Y30.2121 Z-5.4842
X49.6389 Y30.2263 Z-5.4869
X49.6429 Y30.2407 Z-5.4895
X49.6460 Y30.2553 Z-5.4921
X49.6482 Y30.2701 Z-5.4948
X49.6496 Y30.2850 Z-5.4974
X49.6500 Y30.3000 Z-5.5000
X49.4854 Y30.5348
X49.4773 Y30.5377 Z-5.5016
X49.4629 Y30.5419 Z-5.5042
X49.4483 Y30.5452 Z-5.5068
X49.4336 Y30.5477 Z-5.5095
X49.4187 Y30.5493 Z-5.5121
X49.4037 Y30.5499 Z-5.5148
X49.3888 Y30.5497 Z-5.5174
X49.3739 Y30.5486 Z-5.5200
X49.3590 Y30.5466 Z-5.5227
X49.3444 Y30.5437 Z-5.5253
X49.3299 Y30.5399 Z-5.5279
X49.3157 Y30.5353 Z-5.5306
X49.3017 Y30.5298 Z-5.5332
X49.2882 Y30.5235 Z-5.5359
X49.2750 Y30.5165 Z-5.5385
X49.2623 Y30.5086 Z-5.5411
X49.2500 Y30.5000 Z-5.5438
X49.2383 Y30.4907 Z-5.5464
X49.2272 Y30.4807 Z-5.5490
X49.2167 Y30.4700 Z-5.5517
X49.2069 Y30.4587 Z-5.5543
X49.1977 Y30.4469 Z-5.5570
X49.1893 Y30.4345 Z-5.5596
X49.1816 Y30.4217 Z-5.5622
X49.1748 Y30.4084 Z-5.5649
X49.1687 Y30.3948 Z-5.5675
X49.1634 Y30.3808 Z-5.5701
X49.1590 Y30.3665 Z-5.5728
X49.1555 Y30.3519 Z-5.5754
X49.1528 Y30.3372 Z-5.5781
X49.1510 Y30.3224 Z-5.5807
X49.1501 Y30.3074 Z-5.5833
Y30.2925 Z-5.5860
X49.1510 Y30.2775 Z-5.5886
X49.1528 Y30.2627 Z-5.5912
X49.1555 Y30.2480 Z-5.5939
X49.1590 Y30.2334 Z-5.5965
X49.1634 Y30.2192 Z-5.5992
X49.1687 Y30.2051 Z-5.6018
X49.1748 Y30.1915 Z-5.6044
X49.1816 Y30.1782 Z-5.6071
X49.1893 Y30.1654 Z-5.6097
X49.1977 Y30.1530 Z-5.6123
X49.2069 Y30.1412 Z-5.6150
X49.2167 Y30.1299 Z-5.6176
X49.2272 Y30.1193 Z-5.6203
X49.2383 Y30.1092 Z-5.6229
X49.2500 Y30.0999 Z-5.6255
X49.2623 Y30.0913 Z-5.6282
X49.2750 Y30.0834 Z-5.6308
X49.2882 Y30.0764 Z-5.6334
X49.3017 Y30.0701 Z-5.6361
X49.3157 Y30.0646 Z-5.6387
X49.3299 Y30.0600 Z-5.6414
X49.3444 Y30.0562 Z-5.6440
X49.3590 Y30.0533 Z-5.6466
X49.3739 Y30.0513 Z-5.6493
X49.3888 Y30.0502 Z-5.6519
X49.4037 Y30.0500 Z-5.6545
X49.4187 Y30.0507 Z-5.6572
X49.4336 Y30.0522 Z-5.6598
X49.4483 Y30.0547 Z-5.6625
X49.4629 Y30.0580 Z-5.6651
X49.4773 Y30.0622 Z-5.6677
X49.4913 Y30.0672 Z-5.6704
X49.5051 Y30.0731 Z-5.6730
X49.5185 Y30.0798 Z-5.6756
X49.5314 Y30.0873 Z-5.6783
X49.5439 Y30.0955 Z-5.6809
X49.5559 Y30.1045 Z-5.6836
X49.5673 Y30.1142 Z-5.6862
X49.5781 Y30.1245 Z-5.6888
X49.5883 Y30.1355 Z-5.6915
X49.5978 Y30.1470 Z-5.6941
X49.6066 Y30.1591 Z-5.6967
X49.6146 Y30.1717 Z-5.6994
X49.6219 Y30.1848 Z-5.7020
X49.6284 Y30.1983 Z-5.7047
X49.6341 Y30.2121 Z-5.7073
X49.6389 Y30.2263 Z-5.7099
X49.6429 Y30.2407 Z-5.7126
X49.6460 Y30.2553 Z-5.7152
X49.6482 Y30.2701 Z-5.7178
X49.6496 Y30.2850 Z-5.7205
X49.6500 Y30.3000 Z-5.7231
X49.6496 Y30.3149 Z-5.7258
X49.6482 Y30.3298 Z-5.7284
X49.6460 Y30.3446 Z-5.7310
X49.6429 Y30.3592 Z-5.7337
X49.6389 Y30.3736 Z-5.7363
X49.6341 Y30.3878 Z-5.7389
X49.6284 Y30.4016 Z-5.7416
X49.6219 Y30.4151 Z-5.7442
X49.6146 Y30.4282 Z-5.7469
X49.6066 Y30.4408 Z-5.7495
X49.5978 Y30.4529 Z-5.7521
X49.5883 Y30.4644 Z-5.7548
X49.5781 Y30.4754 Z-5.7574
X49.5673 Y30.4857 Z-5.7600
X49.5559 Y30.4954 Z-5.7627
X49.5439 Y30.5044 Z-5.7653
X49.5314 Y30.5126 Z-5.7680
X49.5185 Y30.5201 Z-5.7706
X49.5051 Y30.5268 Z-5.7732
X49.4913 Y30.5327 Z-5.7759
X49.4773 Y30.5377 Z-5.7785
X49.4629 Y30.5419 Z-5.7811
X49.4483 Y30.5452 Z-5.7838
X49.4336 Y30.5477 Z-5.7864
X49.4187 Y30.5493 Z-5.7890
X49.4037 Y30.5499 Z-5.7917
X49.3888 Y30.5497 Z-5.7943
X49.3739 Y30.5486 Z-5.7970
X49.3590 Y30.5466 Z-5.7996
X49.3444 Y30.5437 Z-5.8022
X49.3299 Y30.5399 Z-5.8049
X49.3157 Y30.5353 Z-5.8075
X49.3017 Y30.5298 Z-5.8101
X49.2882 Y30.5235 Z-5.8128
X49.2750 Y30.5165 Z-5.8154
X49.2623 Y30.5086 Z-5.8181
X49.2500 Y30.5000 Z-5.8207
X49.2383 Y30.4907 Z-5.8233
X49.2272 Y30.4807 Z-5.8260
X49.2167 Y30.4700 Z-5.8286
X49.2069 Y30.4587 Z-5.8312
X49.1977 Y30.4469 Z-5.8339
X49.1893 Y30.4345 Z-5.8365
X49.1816 Y30.4217 Z-5.8392
X49.1748 Y30.4084 Z-5.8418
X49.1687 Y30.3948 Z-5.8444
X49.1634 Y30.3808 Z-5.8471
X49.1590 Y30.3665 Z-5.8497
X49.1555 Y30.3519 Z-5.8523
X49.1528 Y30.3372 Z-5.8550
X49.1510 Y30.3224 Z-5.8576
X49.1501 Y30.3074 Z-5.8603
Y30.2925 Z-5.8629
X49.1510 Y30.2775 Z-5.8655
X49.1528 Y30.2627 Z-5.8682
X49.1555 Y30.2480 Z-5.8708
X49.1590 Y30.2334 Z-5.8734
X49.1634 Y30.2192 Z-5.8761
X49.1687 Y30.2051 Z-5.8787
X49.1748 Y30.1915 Z-5.8814
X49.1816 Y30.1782 Z-5.8840
X49.1893 Y30.1654 Z-5.8866
X49.1977 Y30.1530 Z-5.8893
X49.2069 Y30.1412 Z-5.8919
X49.2167 Y30.1299 Z-5.8945
X49.2272 Y30.1193 Z-5.8972
X49.2383 Y30.1092 Z-5.8998
X49.2500 Y30.0999 Z-5.9025
X49.2623 Y30.0913 Z-5.9051
X49.2750 Y30.0834 Z-5.9077
X49.2882 Y30.0764 Z-5.9104
X49.3017 Y30.0701 Z-5.9130
X49.3157 Y30.0646 Z-5.9156
X49.3299 Y30.0600 Z-5.9183
X49.3444 Y30.0562 Z-5.9209
X49.3590 Y30.0533 Z-5.9236
X49.3739 Y30.0513 Z-5.9262
X49.3888 Y30.0502 Z-5.9288
X49.4037 Y30.0500 Z-5.9315
X49.4187 Y30.0507 Z-5.9341
X49.4336 Y30.0522 Z-5.9367
X49.4483 Y30.0547 Z-5.9394
X49.4629 Y30.0580 Z-5.9420
X49.4773 Y30.0622 Z-5.9447
X49.4913 Y30.0672 Z-5.9473
X49.5051 Y30.0731 Z-5.9499
X49.5185 Y30.0798 Z-5.9526
X49.5314 Y30.0873 Z-5.9552
X49.5439 Y30.0955 Z-5.9578
X49.5559 Y30.1045 Z-5.9605
X49.5673 Y30.1142 Z-5.9631
X49.5781 Y30.1245 Z-5.9658
X49.5883 Y30.1355 Z-5.9684
X49.5978 Y30.1470 Z-5.9710
X49.6066 Y30.1591 Z-5.9737
X49.6146 Y30.1717 Z-5.9763
X49.6219 Y30.1848 Z-5.9789
X49.6284 Y30.1983 Z-5.9816
X49.6341 Y30.2121 Z-5.9842
X49.6389 Y30.2263 Z-5.9869
X49.6429 Y30.2407 Z-5.9895
X49.6460 Y30.2553 Z-5.9921
X49.6482 Y30.2701 Z-5.9948
X49.6496 Y30.2850 Z-5.9974
X49.6500 Y30.3000 Z-6.0000
X49.4000
G00 Z6.0000
X75.0036 Y30.1550
G01 Z0.6350  F1000.0
X75.0066 Y30.1591 Z0.6341  F100.0
X75.0146 Y30.1717 Z0.6314
X75.0219 Y30.1848 Z0.6288
X75.0284 Y30.1983 Z0.6261
X75.0341 Y30.2121 Z0.6235
X75.0389 Y30.2263 Z0.6209
X75.0429 Y30.2407 Z0.6182
X75.0460 Y30.2553 Z0.6156
X75.0482 Y30.2701 Z0.6130
X75.0496 Y30.2850 Z0.6103
X75.0500 Y30.3000 Z0.6077
X75.0496 Y30.3149 Z0.6050
X75.0482 Y30.3298 Z0.6024
X75.0460 Y30.3446 Z0.5998
X75.0429 Y30.3592 Z0.5971
X75.0389 Y30.3736 Z0.5945
X75.0341 Y30.3878 Z0.5919
X75.0284 Y30.4016 Z0.5892
X75.0219 Y30.4151 Z0.5866
X75.0146 Y30.4282 Z0.5839
X75.0066 Y30.4408 Z0.5813
X74.9978 Y30.4529 Z0.5787
X74.9883 Y30.4644 Z0.5760
X74.9781 Y30.4754 Z0.5734
X74.9673 Y30.4857 Z0.5708
X74.9559 Y30.4954 Z0.5681
X74.9439 Y30.5044 Z0.5655
X74.9314 Y30.5126 Z0.5628
X74.9185 Y30.5201 Z0.5602
X74.9051 Y30.5268 Z0.5576
X74.8913 Y30.5327 Z0.5549
X74.8773 Y30.5377 Z0.5523
X74.8629 Y30.5419 Z0.5497
X74.8483 Y30.5452 Z0.5470
X74.8336 Y30.5477 Z0.5444
X74.8187 Y30.5493 Z0.5417
X74.8037 Y30.5499 Z0.5391
X74.7888 Y30.5497 Z0.5365
X74.7739 Y30.5486 Z0.5338
X74.7590 Y30.5466 Z0.5312
X74.7444 Y30.5437 Z0.5286
X74.7299 Y30.5399 Z0.5259
X74.7157 Y30.5353 Z0.5233
X74.7017 Y30.5298 Z0.5206
X74.6882 Y30.5235 Z0.5180
X74.6750 Y30.5165 Z0.5154
X74.6623 Y30.5086 Z0.5127
X74.6500 Y30.5000 Z0.5101
X74.6384 Y30.4907 Z0.5075
X74.6272 Y30.4807 Z0.5048
X74.6167 Y30.4700 Z0.5022
X74.6069 Y30.4587 Z0.4995
X74.5977 Y30.4469 Z0.4969
X74.5893 Y30.4345 Z0.4943
X74.5816 Y30.4217 Z0.4916
X74.5748 Y30.4084 Z0.4890
X74.5687 Y30.3948 Z0.4864
X74.5634 Y30.3808 Z0.4837
X74.5590 Y30.3665 Z0.4811
X74.5555 Y30.3519 Z0.4784
X74.5528 Y30.3372 Z0.4758
X74.5510 Y30.3224 Z0.4732
X74.5501 Y30.3074 Z0.4705
Y30.2925 Z0.4679
X74.5510 Y30.2775 Z0.4653
X74.5528 Y30.2627 Z0.4626
X74.5555 Y30.2480 Z0.4600
X74.5590 Y30.2334 Z0.4573
X74.5634 Y30.2192 Z0.4547
X74.5687 Y30.2051 Z0.4521
X74.5748 Y30.1915 Z0.4494
X74.5816 Y30.1782 Z0.4468
X74.5893 Y30.1654 Z0.4442
X74.5977 Y30.1530 Z0.4415
X74.6069 Y30.1412 Z0.4389
X74.6167 Y30.1299 Z0.4363
X74.6272 Y30.1193 Z0.4336
X74.6384 Y30.1092 Z0.4310
X74.6500 Y30.0999 Z0.4283
X74.6623 Y30.0913 Z0.4257
X74.6750 Y30.0834 Z0.4231
X74.6882 Y30.0764 Z0.4204
X74.7017 Y30.0701 Z0.4178
X74.7157 Y30.0646 Z0.4151
X74.7299 Y30.0600 Z0.4125
X74.7444 Y30.0562 Z0.4099
X74.7590 Y30.0533 Z0.4072
X74.7739 Y30.0513 Z0.4046
X74.7888 Y30.0502 Z0.4020
X74.8037 Y30.0500 Z0.3993
X74.8187 Y30.0507 Z0.3967
X74.8336 Y30.0522 Z0.3940
X74.8483 Y30.0547 Z0.3914
X74.8629 Y30.0580 Z0.3888
X74.8773 Y30.0622 Z0.3861
X74.8913 Y30.0672 Z0.3835
X74.9051 Y30.0731 Z0.3809
X74.9185 Y30.0798 Z0.3782
X74.9314 Y30.0873 Z0.3756
X74.9439 Y30.0955 Z0.3730
X74.9559 Y30.1045 Z0.3703
X74.9673 Y30.1142 Z0.3677
X74.9781 Y30.1245 Z0.3650
X74.9883 Y30.1355 Z0.3624
X74.9978 Y30.1470 Z0.3598
X75.0066 Y30.1591 Z0.3571
X75.0146 Y30.1717 Z0.3545
X75.0219 Y30.1848 Z0.3519
X75.0284 Y30.1983 Z0.3492
X75.0341 Y30.2121 Z0.3466
X75.0389 Y30.2263 Z0.3439
X75.0429 Y30.2407 Z0.3413
X75.0460 Y30.2553 Z0.3387
X75.0482 Y30.2701 Z0.3360
X75.0496 Y30.2850 Z0.3334
X75.0500 Y30.3000 Z0.3308
X75.0496 Y30.3149 Z0.3281
X75.0482 Y30.3298 Z0.3255
X75.0460 Y30.3446 Z0.3228
X75.0429 Y30.3592 Z0.3202
X75.0389 Y30.3736 Z0.3176
X75.0341 Y30.3878 Z0.3149
X75.0284 Y30.4016 Z0.3123
X75.0219 Y30.4151 Z0.3097
X75.0146 Y30.4282 Z0.3070
X75.0066 Y30.4408 Z0.3044
X74.9978 Y30.4529 Z0.3017
X74.9883 Y30.4644 Z0.2991
X74.9781 Y30.4754 Z0.2965
X74.9673 Y30.4857 Z0.2938
X74.9559 Y30.4954 Z0.2912
X74.9439 Y30.5044 Z0.2886
X74.9314 Y30.5126 Z0.2859
X74.9185 Y30.5201 Z0.2833
X74.9051 Y30.5268 Z0.2806
X74.8913 Y30.5327 Z0.2780
X74.8773 Y30.5377 Z0.2754
X74.8629 Y30.5419 Z0.2727
X74.8483 Y30.5452 Z0.2701
X74.8336 Y30.5477 Z0.2675
X74.8187 Y30.5493 Z0.2648
X74.8037 Y30.5499 Z0.2622
X74.7888 Y30.5497 Z0.2595
X74.7739 Y30.5486 Z0.2569
X74.7590 Y30.5466 Z0.2543
X74.7444 Y30.5437 Z0.2516
X74.7299 Y30.5399 Z0.2490
X74.7157 Y30.5353 Z0.2464
X74.7017 Y30.5298 Z0.2437
X74.6882 Y30.5235 Z0.2411
X74.6750 Y30.5165 Z0.2384
X74.6623 Y30.5086 Z0.2358
X74.6500 Y30.5000 Z0.2332
X74.6384 Y30.4907 Z0.2305
X74.6272 Y30.4807 Z0.2279
X74.6167 Y30.4700 Z0.2253
X74.6069 Y30.4587 Z0.2226
X74.5977 Y30.4469 Z0.2200
X74.5893 Y30.4345 Z0.2173
X74.5816 Y30.4217 Z0.2147
X74.5748 Y30.4084 Z0.2121
X74.5687 Y30.3948 Z0.2094
X74.5634 Y30.3808 Z0.2068
X74.5590 Y30.3665 Z0.2042
X74.5555 Y30.3519 Z0.2015
X74.5528 Y30.3372 Z0.1989
X74.5510 Y30.3224 Z0.1962
X74.5501 Y30.3074 Z0.1936
Y30.2925 Z0.1910
X74.5510 Y30.2775 Z0.1883
X74.5528 Y30.2627 Z0.1857
X74.5555 Y30.2480 Z0.1831
X74.5590 Y30.2334 Z0.1804
X74.5634 Y30.2192 Z0.1778
X74.5687 Y30.2051 Z0.1751
X74.5748 Y30.1915 Z0.1725
X74.5816 Y30.1782 Z0.1699
X74.5893 Y30.1654 Z0.1672
X74.5977 Y30.1530 Z0.1646
X74.6069 Y30.1412 Z0.1620
X74.6167 Y30.1299 Z0.1593
X74.6272 Y30.1193 Z0.1567
X74.6384 Y30.1092 Z0.1540
X74.6500 Y30.0999 Z0.1514
X74.6623 Y30.0913 Z0.1488
X74.6750 Y30.0834 Z0.1461
X74.6882 Y30.0764 Z0.1435
X74.7017 Y30.0701 Z0.1409
X74.7157 Y30.0646 Z0.1382
X74.7299 Y30.0600 Z0.1356
X74.7444 Y30.0562 Z0.1329
X74.7590 Y30.0533 Z0.1303
X74.7739 Y30.0513 Z0.1277
X74.7888 Y30.0502 Z0.1250
X74.8037 Y30.0500 Z0.1224
X74.8187 Y30.0507 Z0.1198
X74.8336 Y30.0522 Z0.1171
X74.8483 Y30.0547 Z0.1145
X74.8629 Y30.0580 Z0.1118
X74.8773 Y30.0622 Z0.1092
X74.8913 Y30.0672 Z0.1066
X74.9051 Y30.0731 Z0.1039
X74.9185 Y30.0798 Z0.1013
X74.9314 Y30.0873 Z0.0987
X74.9439 Y30.0955 Z0.0960
X74.9559 Y30.1045 Z0.0934
X74.9673 Y30.1142 Z0.0907
X74.9781 Y30.1245 Z0.0881
X74.9883 Y30.1355 Z0.0855
X74.9978 Y30.1470 Z0.0828
X75.0066 Y30.1591 Z0.0802
X75.0146 Y30.1717 Z0.0776
X75.0219 Y30.1848 Z0.0749
X75.0284 Y30.1983 Z0.0723
X75.0341 Y30.2121 Z0.0696
X75.0389 Y30.2263 Z0.0670
X75.0429 Y30.2407 Z0.0644
X75.0460 Y30.2553 Z0.0617
X75.0482 Y30.2701 Z0.0591
X75.0496 Y30.2850 Z0.0565
X75.0500 Y30.3000 Z0.0538
X75.0496 Y30.3149 Z0.0512
X75.0482 Y30.3298 Z0.0485
X75.0460 Y30.3446 Z0.0459
X75.0429 Y30.3592 Z0.0433
X75.0389 Y30.3736 Z0.0406
X75.0341 Y30.3878 Z0.0380
X75.0284 Y30.4016 Z0.0354
X75.0219 Y30.4151 Z0.0327
X75.0146 Y30.4282 Z0.0301
X75.0066 Y30.4408 Z0.0274
X74.9978 Y30.4529 Z0.0248
X74.9883 Y30.4644 Z0.0222
X74.9781 Y30.4754 Z0.0195
X74.9673 Y30.4857 Z0.0169
X74.9559 Y30.4954 Z0.0143
X74.9439 Y30.5044 Z0.0116
X74.9314 Y30.5126 Z0.0090
X74.9185 Y30.5201 Z0.0063
X74.9051 Y30.5268 Z0.0037
X74.8913 Y30.5327 Z0.0011
X74.8773 Y30.5377 Z-0.0016
X74.8629 Y30.5419 Z-0.0042
X74.8483 Y30.5452 Z-0.0068
X74.8336 Y30.5477 Z-0.0095
X74.8187 Y30.5493 Z-0.0121
X74.8037 Y30.5499 Z-0.0148
X74.7888 Y30.5497 Z-0.0174
X74.7739 Y30.5486 Z-0.0200
X74.7590 Y30.5466 Z-0.0227
X74.7444 Y30.5437 Z-0.0253
X74.7299 Y30.5399 Z-0.0279
X74.7157 Y30.5353 Z-0.0306
X74.7017 Y30.5298 Z-0.0332
X74.6882 Y30.5235 Z-0.0359
X74.6750 Y30.5165 Z-0.0385
X74.6623 Y30.5086 Z-0.0411
X74.6500 Y30.5000 Z-0.0438
X74.6384 Y30.4907 Z-0.0464
X74.6272 Y30.4807 Z-0.0490
X74.6167 Y30.4700 Z-0.0517
X74.6069 Y30.4587 Z-0.0543
X74.5977 Y30.4469 Z-0.0570
X74.5893 Y30.4345 Z-0.0596
X74.5816 Y30.4217 Z-0.0622
X74.5748 Y30.4084 Z-0.0649
X74.5687 Y30.3948 Z-0.0675
X74.5634 Y30.3808 Z-0.0701
X74.5590 Y30.3665 Z-0.0728
X74.5555 Y30.3519 Z-0.0754
X74.5528 Y30.3372 Z-0.0781
X74.5510 Y30.3224 Z-0.0807
X74.5501 Y30.3074 Z-0.0833
Y30.2925 Z-0.0860
X74.5510 Y30.2775 Z-0.0886
X74.5528 Y30.2627 Z-0.0912
X74.5555 Y30.2480 Z-0.0939
X74.5590 Y30.2334 Z-0.0965
X74.5634 Y30.2192 Z-0.0992
X74.5687 Y30.2051 Z-0.1018
X74.5748 Y30.1915 Z-0.1044
X74.5816 Y30.1782 Z-0.1071
X74.5893 Y30.1654 Z-0.1097
X74.5977 Y30.1530 Z-0.1123
X74.6069 Y30.1412 Z-0.1150
X74.6167 Y30.1299 Z-0.1176
X74.6272 Y30.1193 Z-0.1203
X74.6384 Y30.1092 Z-0.1229
X74.6500 Y30.0999 Z-0.1255
X74.6623 Y30.0913 Z-0.1282
X74.6750 Y30.0834 Z-0.1308
X74.6882 Y30.0764 Z-0.1334
X74.7017 Y30.0701 Z-0.1361
X74.7157 Y30.0646 Z-0.1387
X74.7299 Y30.0600 Z-0.1414
X74.7444 Y30.0562 Z-0.1440
X74.7590 Y30.0533 Z-0.1466
X74.7739 Y30.0513 Z-0.1493
X74.7888 Y30.0502 Z-0.1519
X74.8037 Y30.0500 Z-0.1545
X74.8187 Y30.0507 Z-0.1572
X74.8336 Y30.0522 Z-0.1598
X74.8483 Y30.0547 Z-0.1625
X74.8629 Y30.0580 Z-0.1651
X74.8773 Y30.0622 Z-0.1677
X74.8913 Y30.0672 Z-0.1704
X74.9051 Y30.0731 Z-0.1730
X74.9185 Y30.0798 Z-0.1756
X74.9314 Y30.0873 Z-0.1783
X74.9439 Y30.0955 Z-0.1809
X74.9559 Y30.1045 Z-0.1836
X74.9673 Y30.1142 Z-0.1862
X74.9781 Y30.1245 Z-0.1888
X74.9883 Y30.1355 Z-0.1915
X74.9978 Y30.1470 Z-0.1941
X75.0066 Y30.1591 Z-0.1967
X75.0146 Y30.1717 Z-0.1994
X75.0219 Y30.1848 Z-0.2020
X75.0284 Y30.1983 Z-0.2047
X75.0341 Y30.2121 Z-0.2073
X75.0389 Y30.2263 Z-0.2099
X75.0429 Y30.2407 Z-0.2126
X75.0460 Y30.2553 Z-0.2152
X75.0482 Y30.2701 Z-0.2178
X75.0496 Y30.2850 Z-0.2205
X75.0500 Y30.3000 Z-0.2231
X75.0496 Y30.3149 Z-0.2258
X75.0482 Y30.3298 Z-0.2284
X75.0460 Y30.3446 Z-0.2310
X75.0429 Y30.3592 Z-0.2337
X75.0389 Y30.3736 Z-0.2363
X75.0341 Y30.3878 Z-0.2389
X75.0284 Y30.4016 Z-0.2416
X75.0219 Y30.4151 Z-0.2442
X75.0146 Y30.4282 Z-0.2469
X75.0066 Y30.4408 Z-0.2495
X74.9978 Y30.4529 Z-0.2521
X74.9883 Y30.4644 Z-0.2548
X74.9781 Y30.4754 Z-0.2574
X74.9673 Y30.4857 Z-0.2600
X74.9559 Y30.4954 Z-0.2627
X74.9439 Y30.5044 Z-0.2653
X74.9314 Y30.5126 Z-0.2680
X74.9185 Y30.5201 Z-0.2706
X74.9051 Y30.5268 Z-0.2732
X74.8913 Y30.5327 Z-0.2759
X74.8773 Y30.5377 Z-0.2785
X74.8629 Y30.5419 Z-0.2811
X74.8483 Y30.5452 Z-0.2838
X74.8336 Y30.5477 Z-0.2864
X74.8187 Y30.5493 Z-0.2890
X74.8037 Y30.5499 Z-0.2917
X74.7888 Y30.5497 Z-0.2943
X74.7739 Y30.5486 Z-0.2970
X74.7590 Y30.5466 Z-0.2996
X74.7444 Y30.5437 Z-0.3022
X74.7299 Y30.5399 Z-0.3049
X74.7157 Y30.5353 Z-0.3075
X74.7017 Y30.5298 Z-0.3101
X74.6882 Y30.5235 Z-0.3128
X74.6750 Y30.5165 Z-0.3154
X74.6623 Y30.5086 Z-0.3181
X74.6500 Y30.5000 Z-0.3207
X74.6384 Y30.4907 Z-0.3233
X74.6272 Y30.4807 Z-0.3260
X74.6167 Y30.4700 Z-0.3286
X74.6069 Y30.4587 Z-0.3312
X74.5977 Y30.4469 Z-0.3339
X74.5893 Y30.4345 Z-0.3365
X74.5816 Y30.4217 Z-0.3392
X74.5748 Y30.4084 Z-0.3418
X74.5687 Y30.3948 Z-0.3444
X74.5634 Y30.3808 Z-0.3471
X74.5590 Y30.3665 Z-0.3497
X74.5555 Y30.3519 Z-0.3523
X74.5528 Y30.3372 Z-0.3550
X74.5510 Y30.3224 Z-0.3576
X74.5501 Y30.3074 Z-0.3603
Y30.2925 Z-0.3629
X74.5510 Y30.2775 Z-0.3655
X74.5528 Y30.2627 Z-0.3682
X74.5555 Y30.2480 Z-0.3708
X74.5590 Y30.2334 Z-0.3734
X74.5634 Y30.2192 Z-0.3761
X74.5687 Y30.2051 Z-0.3787
X74.5748 Y30.1915 Z-0.3814
X74.5816 Y30.1782 Z-0.3840
X74.5893 Y30.1654 Z-0.3866
X74.5977 Y30.1530 Z-0.3893
X74.6069 Y30.1412 Z-0.3919
X74.6167 Y30.1299 Z-0.3945
X74.6272 Y30.1193 Z-0.3972
X74.6384 Y30.1092 Z-0.3998
X74.6500 Y30.0999 Z-0.4025
X74.6623 Y30.0913 Z-0.4051
X74.6750 Y30.0834 Z-0.4077
X74.6882 Y30.0764 Z-0.4104
X74.7017 Y30.0701 Z-0.4130
X74.7157 Y30.0646 Z-0.4156
X74.7299 Y30.0600 Z-0.4183
X74.7444 Y30.0562 Z-0.4209
X74.7590 Y30.0533 Z-0.4236
X74.7739 Y30.0513 Z-0.4262
X74.7888 Y30.0502 Z-0.4288
X74.8037 Y30.0500 Z-0.4315
X74.8187 Y30.0507 Z-0.4341
X74.8336 Y30.0522 Z-0.4367
X74.8483 Y30.0547 Z-0.4394
X74.8629 Y30.0580 Z-0.4420
X74.8773 Y30.0622 Z-0.4447
X74.8913 Y30.0672 Z-0.4473
X74.9051 Y30.0731 Z-0.4499
X74.9185 Y30.0798 Z-0.4526
X74.9314 Y30.0873 Z-0.4552
X74.9439 Y30.0955 Z-0.4578
X74.9559 Y30.1045 Z-0.4605
X74.9673 Y30.1142 Z-0.4631
X74.9781 Y30.1245 Z-0.4658
X74.9883 Y30.1355 Z-0.4684
X74.9978 Y30.1470 Z-0.4710
X75.0066 Y30.1591 Z-0.4737
X75.0146 Y30.1717 Z-0.4763
X75.0219 Y30.1848 Z-0.4789
X75.0284 Y30.1983 Z-0.4816
X75.0341 Y30.2121 Z-0.4842
X75.0389 Y30.2263 Z-0.4869
X75.0429 Y30.2407 Z-0.4895
X75.0460 Y30.2553 Z-0.4921
X75.0482 Y30.2701 Z-0.4948
X75.0496 Y30.2850 Z-0.4974
X75.0500 Y30.3000 Z-0.5000
X74.8854 Y30.5348
X74.8773 Y30.5377 Z-0.5016
X74.8629 Y30.5419 Z-0.5042
X74.8483 Y30.5452 Z-0.5068
X74.8336 Y30.5477 Z-0.5095
X74.8187 Y30.5493 Z-0.5121
X74.8037 Y30.5499 Z-0.5148
X74.7888 Y30.5497 Z-0.5174
X74.7739 Y30.5486 Z-0.5200
X74.7590 Y30.5466 Z-0.5227
X74.7444 Y30.5437 Z-0.5253
X74.7299 Y30.5399 Z-0.5279
X74.7157 Y30.5353 Z-0.5306
X74.7017 Y30.5298 Z-0.5332
X74.6882 Y30.5235 Z-0.5359
X74.6750 Y30.5165 Z-0.5385
X74.6623 Y30.5086 Z-0.5411
X74.6500 Y30.5000 Z-0.5438
X74.6384 Y30.4907 Z-0.5464
X74.6272 Y30.4807 Z-0.5490
X74.6167 Y30.4700 Z-0.5517
X74.6069 Y30.4587 Z-0.5543
X74.5977 Y30.4469 Z-0.5570
X74.5893 Y30.4345 Z-0.5596
X74.5816 Y30.4217 Z-0.5622
X74.5748 Y30.4084 Z-0.5649
X74.5687 Y30.3948 Z-0.5675
X74.5634 Y30.3808 Z-0.5701
X74.5590 Y30.3665 Z-0.5728
X74.5555 Y30.3519 Z-0.5754
X74.5528 Y30.3372 Z-0.5781
X74.5510 Y30.3224 Z-0.5807
X74.5501 Y30.3074 Z-0.5833
Y30.2925 Z-0.5860
X74.5510 Y30.2775 Z-0.5886
X74.5528 Y30.2627 Z-0.5912
X74.5555 Y30.2480 Z-0.5939
X74.5590 Y30.2334 Z-0.5965
X74.5634 Y30.2192 Z-0.5992
X74.5687 Y30.2051 Z-0.6018
X74.5748 Y30.1915 Z-0.6044
X74.5816 Y30.1782 Z-0.6071
X74.5893 Y30.1654 Z-0.6097
X74.5977 Y30.1530 Z-0.6123
X74.6069 Y30.1412 Z-0.6150
X74.6167 Y30.1299 Z-0.6176
X74.6272 Y30.1193 Z-0.6203
X74.6384 Y30.1092 Z-0.6229
X74.6500 Y30.0999 Z-0.6255
X74.6623 Y30.0913 Z-0.6282
X74.6750 Y30.0834 Z-0.6308
X74.6882 Y30.0764 Z-0.6334
X74.7017 Y30.0701 Z-0.6361
X74.7157 Y30.0646 Z-0.6387
X74.7299 Y30.0600 Z-0.6414
X74.7444 Y30.0562 Z-0.6440
X74.7590 Y30.0533 Z-0.6466
X74.7739 Y30.0513 Z-0.6493
X74.7888 Y30.0502 Z-0.6519
X74.8037 Y30.0500 Z-0.6545
X74.8187 Y30.0507 Z-0.6572
X74.8336 Y30.0522 Z-0.6598
X74.8483 Y30.0547 Z-0.6625
X74.8629 Y30.0580 Z-0.6651
X74.8773 Y30.0622 Z-0.6677
X74.8913 Y30.0672 Z-0.6704
X74.9051 Y30.0731 Z-0.6730
X74.9185 Y30.0798 Z-0.6756
X74.9314 Y30.0873 Z-0.6783
X74.9439 Y30.0955 Z-0.6809
X74.9559 Y30.1045 Z-0.6836
X74.9673 Y30.1142 Z-0.6862
X74.9781 Y30.1245 Z-0.6888
X74.9883 Y30.1355 Z-0.6915
X74.9978 Y30.1470 Z-0.6941
X75.0066 Y30.1591 Z-0.6967
X75.0146 Y30.1717 Z-0.6994
X75.0219 Y30.1848 Z-0.7020
X75.0284 Y30.1983 Z-0.7047
X75.0341 Y30.2121 Z-0.7073
X75.0389 Y30.2263 Z-0.7099
X75.0429 Y30.2407 Z-0.7126
X75.0460 Y30.2553 Z-0.7152
X75.0482 Y30.2701 Z-0.7178
X75.0496 Y30.2850 Z-0.7205
X75.0500 Y30.3000 Z-0.7231
X75.0496 Y30.3149 Z-0.7258
X75.0482 Y30.3298 Z-0.7284
X75.0460 Y30.3446 Z-0.7310
X75.0429 Y30.3592 Z-0.7337
X75.0389 Y30.3736 Z-0.7363
X75.0341 Y30.3878 Z-0.7389
X75.0284 Y30.4016 Z-0.7416
X75.0219 Y30.4151 Z-0.7442
X75.0146 Y30.4282 Z-0.7469
X75.0066 Y30.4408 Z-0.7495
X74.9978 Y30.4529 Z-0.7521
X74.9883 Y30.4644 Z-0.7548
X74.9781 Y30.4754 Z-0.7574
X74.9673 Y30.4857 Z-0.7600
X74.9559 Y30.4954 Z-0.7627
X74.9439 Y30.5044 Z-0.7653
X74.9314 Y30.5126 Z-0.7680
X74.9185 Y30.5201 Z-0.7706
X74.9051 Y30.5268 Z-0.7732
X74.8913 Y30.5327 Z-0.7759
X74.8773 Y30.5377 Z-0.7785
X74.8629 Y30.5419 Z-0.7811
X74.8483 Y30.5452 Z-0.7838
X74.8336 Y30.5477 Z-0.7864
X74.8187 Y30.5493 Z-0.7891
X74.8037 Y30.5499 Z-0.7917
X74.7888 Y30.5497 Z-0.7943
X74.7739 Y30.5486 Z-0.7970
X74.7590 Y30.5466 Z-0.7996
X74.7444 Y30.5437 Z-0.8022
X74.7299 Y30.5399 Z-0.8049
X74.7157 Y30.5353 Z-0.8075
X74.7017 Y30.5298 Z-0.8101
X74.6882 Y30.5235 Z-0.8128
X74.6750 Y30.5165 Z-0.8154
X74.6623 Y30.5086 Z-0.8181
X74.6500 Y30.5000 Z-0.8207
X74.6384 Y30.4907 Z-0.8233
X74.6272 Y30.4807 Z-0.8260
X74.6167 Y30.4700 Z-0.8286
X74.6069 Y30.4587 Z-0.8312
X74.5977 Y30.4469 Z-0.8339
X74.5893 Y30.4345 Z-0.8365
X74.5816 Y30.4217 Z-0.8392
X74.5748 Y30.4084 Z-0.8418
X74.5687 Y30.3948 Z-0.8444
X74.5634 Y30.3808 Z-0.8471
X74.5590 Y30.3665 Z-0.8497
X74.5555 Y30.3519 Z-0.8523
X74.5528 Y30.3372 Z-0.8550
X74.5510 Y30.3224 Z-0.8576
X74.5501 Y30.3074 Z-0.8603
Y30.2925 Z-0.8629
X74.5510 Y30.2775 Z-0.8655
X74.5528 Y30.2627 Z-0.8682
X74.5555 Y30.2480 Z-0.8708
X74.5590 Y30.2334 Z-0.8734
X74.5634 Y30.2192 Z-0.8761
X74.5687 Y30.2051 Z-0.8787
X74.5748 Y30.1915 Z-0.8814
X74.5816 Y30.1782 Z-0.8840
X74.5893 Y30.1654 Z-0.8866
X74.5977 Y30.1530 Z-0.8893
X74.6069 Y30.1412 Z-0.8919
X74.6167 Y30.1299 Z-0.8945
X74.6272 Y30.1193 Z-0.8972
X74.6384 Y30.1092 Z-0.8998
X74.6500 Y30.0999 Z-0.9025
X74.6623 Y30.0913 Z-0.9051
X74.6750 Y30.0834 Z-0.9077
X74.6882 Y30.0764 Z-0.9104
X74.7017 Y30.0701 Z-0.9130
X74.7157 Y30.0646 Z-0.9156
X74.7299 Y30.0600 Z-0.9183
X74.7444 Y30.0562 Z-0.9209
X74.7590 Y30.0533 Z-0.9236
X74.7739 Y30.0513 Z-0.9262
X74.7888 Y30.0502 Z-0.9288
X74.8037 Y30.0500 Z-0.9315
X74.8187 Y30.0507 Z-0.9341
X74.8336 Y30.0522 Z-0.9367
X74.8483 Y30.0547 Z-0.9394
X74.8629 Y30.0580 Z-0.9420
X74.8773 Y30.0622 Z-0.9447
X74.8913 Y30.0672 Z-0.9473
X74.9051 Y30.0731 Z-0.9499
X74.9185 Y30.0798 Z-0.9526
X74.9314 Y30.0873 Z-0.9552
X74.9439 Y30.0955 Z-0.9578
X74.9559 Y30.1045 Z-0.9605
X74.9673 Y30.1142 Z-0.9631
X74.9781 Y30.1245 Z-0.9658
X74.9883 Y30.1355 Z-0.9684
X74.9978 Y30.1470 Z-0.9710
X75.0066 Y30.1591 Z-0.9737
X75.0146 Y30.1717 Z-0.9763
X75.0219 Y30.1848 Z-0.9789
X75.0284 Y30.1983 Z-0.9816
X75.0341 Y30.2121 Z-0.9842
X75.0389 Y30.2263 Z-0.9869
X75.0429 Y30.2407 Z-0.9895
X75.0460 Y30.2553 Z-0.9921
X75.0482 Y30.2701 Z-0.9948
X75.0496 Y30.2850 Z-0.9974
X75.0500 Y30.3000 Z-1.0000
X74.8854 Y30.5348
X74.8773 Y30.5377 Z-1.0016
X74.8629 Y30.5419 Z-1.0042
X74.8483 Y30.5452 Z-1.0068
X74.8336 Y30.5477 Z-1.0095
X74.8187 Y30.5493 Z-1.0121
X74.8037 Y30.5499 Z-1.0148
X74.7888 Y30.5497 Z-1.0174
X74.7739 Y30.5486 Z-1.0200
X74.7590 Y30.5466 Z-1.0227
X74.7444 Y30.5437 Z-1.0253
X74.7299 Y30.5399 Z-1.0279
X74.7157 Y30.5353 Z-1.0306
X74.7017 Y30.5298 Z-1.0332
X74.6882 Y30.5235 Z-1.0359
X74.6750 Y30.5165 Z-1.0385
X74.6623 Y30.5086 Z-1.0411
X74.6500 Y30.5000 Z-1.0438
X74.6384 Y30.4907 Z-1.0464
X74.6272 Y30.4807 Z-1.0490
X74.6167 Y30.4700 Z-1.0517
X74.6069 Y30.4587 Z-1.0543
X74.5977 Y30.4469 Z-1.0570
X74.5893 Y30.4345 Z-1.0596
X74.5816 Y30.4217 Z-1.0622
X74.5748 Y30.4084 Z-1.0649
X74.5687 Y30.3948 Z-1.0675
X74.5634 Y30.3808 Z-1.0701
X74.5590 Y30.3665 Z-1.0728
X74.5555 Y30.3519 Z-1.0754
X74.5528 Y30.3372 Z-1.0781
X74.5510 Y30.3224 Z-1.0807
X74.5501 Y30.3074 Z-1.0833
Y30.2925 Z-1.0860
X74.5510 Y30.2775 Z-1.0886
X74.5528 Y30.2627 Z-1.0912
X74.5555 Y30.2480 Z-1.0939
X74.5590 Y30.2334 Z-1.0965
X74.5634 Y30.2192 Z-1.0992
X74.5687 Y30.2051 Z-1.1018
X74.5748 Y30.1915 Z-1.1044
X74.5816 Y30.1782 Z-1.1071
X74.5893 Y30.1654 Z-1.1097
X74.5977 Y30.1530 Z-1.1123
X74.6069 Y30.1412 Z-1.1150
X74.6167 Y30.1299 Z-1.1176
X74.6272 Y30.1193 Z-1.1203
X74.6384 Y30.1092 Z-1.1229
X74.6500 Y30.0999 Z-1.1255
X74.6623 Y30.0913 Z-1.1282
X74.6750 Y30.0834 Z-1.1308
X74.6882 Y30.0764 Z-1.1334
X74.7017 Y30.0701 Z-1.1361
X74.7157 Y30.0646 Z-1.1387
X74.7299 Y30.0600 Z-1.1414
X74.7444 Y30.0562 Z-1.1440
X74.7590 Y30.0533 Z-1.1466
X74.7739 Y30.0513 Z-1.1493
X74.7888 Y30.0502 Z-1.1519
X74.8037 Y30.0500 Z-1.1545
X74.8187 Y30.0507 Z-1.1572
X74.8336 Y30.0522 Z-1.1598
X74.8483 Y30.0547 Z-1.1625
X74.8629 Y30.0580 Z-1.1651
X74.8773 Y30.0622 Z-1.1677
X74.8913 Y30.0672 Z-1.1704
X74.9051 Y30.0731 Z-1.1730
X74.9185 Y30.0798 Z-1.1756
X74.9314 Y30.0873 Z-1.1783
X74.9439 Y30.0955 Z-1.1809
X74.9559 Y30.1045 Z-1.1836
X74.9673 Y30.1142 Z-1.1862
X74.9781 Y30.1245 Z-1.1888
X74.9883 Y30.1355 Z-1.1915
X74.9978 Y30.1470 Z-1.1941
X75.0066 Y30.1591 Z-1.1967
X75.0146 Y30.1717 Z-1.1994
X75.0219 Y30.1848 Z-1.2020
X75.0284 Y30.1983 Z-1.2047
X75.0341 Y30.2121 Z-1.2073
X75.0389 Y30.2263 Z-1.2099
X75.0429 Y30.2407 Z-1.2126
X75.0460 Y30.2553 Z-1.2152
X75.0482 Y30.2701 Z-1.2178
X75.0496 Y30.2850 Z-1.2205
X75.0500 Y30.3000 Z-1.2231
X75.0496 Y30.3149 Z-1.2258
X75.0482 Y30.3298 Z-1.2284
X75.0460 Y30.3446 Z-1.2310
X75.0429 Y30.3592 Z-1.2337
X75.0389 Y30.3736 Z-1.2363
X75.0341 Y30.3878 Z-1.2389
X75.0284 Y30.4016 Z-1.2416
X75.0219 Y30.4151 Z-1.2442
X75.0146 Y30.4282 Z-1.2469
X75.0066 Y30.4408 Z-1.2495
X74.9978 Y30.4529 Z-1.2521
X74.9883 Y30.4644 Z-1.2548
X74.9781 Y30.4754 Z-1.2574
X74.9673 Y30.4857 Z-1.2600
X74.9559 Y30.4954 Z-1.2627
X74.9439 Y30.5044 Z-1.2653
X74.9314 Y30.5126 Z-1.2679
X74.9185 Y30.5201 Z-1.2706
X74.9051 Y30.5268 Z-1.2732
X74.8913 Y30.5327 Z-1.2759
X74.8773 Y30.5377 Z-1.2785
X74.8629 Y30.5419 Z-1.2811
X74.8483 Y30.5452 Z-1.2838
X74.8336 Y30.5477 Z-1.2864
X74.8187 Y30.5493 Z-1.2891
X74.8037 Y30.5499 Z-1.2917
X74.7888 Y30.5497 Z-1.2943
X74.7739 Y30.5486 Z-1.2970
X74.7590 Y30.5466 Z-1.2996
X74.7444 Y30.5437 Z-1.3022
X74.7299 Y30.5399 Z-1.3049
X74.7157 Y30.5353 Z-1.3075
X74.7017 Y30.5298 Z-1.3101
X74.6882 Y30.5235 Z-1.3128
X74.6750 Y30.5165 Z-1.3154
X74.6623 Y30.5086 Z-1.3181
X74.6500 Y30.5000 Z-1.3207
X74.6384 Y30.4907 Z-1.3233
X74.6272 Y30.4807 Z-1.3260
X74.6167 Y30.4700 Z-1.3286
X74.6069 Y30.4587 Z-1.3312
X74.5977 Y30.4469 Z-1.3339
X74.5893 Y30.4345 Z-1.3365
X74.5816 Y30.4217 Z-1.3392
X74.5748 Y30.4084 Z-1.3418
X74.5687 Y30.3948 Z-1.3444
X74.5634 Y30.3808 Z-1.3471
X74.5590 Y30.3665 Z-1.3497
X74.5555 Y30.3519 Z-1.3523
X74.5528 Y30.3372 Z-1.3550
X74.5510 Y30.3224 Z-1.3576
X74.5501 Y30.3074 Z-1.3603
Y30.2925 Z-1.3629
X74.5510 Y30.2775 Z-1.3655
X74.5528 Y30.2627 Z-1.3682
X74.5555 Y30.2480 Z-1.3708
X74.5590 Y30.2334 Z-1.3734
X74.5634 Y30.2192 Z-1.3761
X74.5687 Y30.2051 Z-1.3787
X74.5748 Y30.1915 Z-1.3814
X74.5816 Y30.1782 Z-1.3840
X74.5893 Y30.1654 Z-1.3866
X74.5977 Y30.1530 Z-1.3893
X74.6069 Y30.1412 Z-1.3919
X74.6167 Y30.1299 Z-1.3945
X74.6272 Y30.1193 Z-1.3972
X74.6384 Y30.1092 Z-1.3998
X74.6500 Y30.0999 Z-1.4025
X74.6623 Y30.0913 Z-1.4051
X74.6750 Y30.0834 Z-1.4077
X74.6882 Y30.0764 Z-1.4104
X74.7017 Y30.0701 Z-1.4130
X74.7157 Y30.0646 Z-1.4156
X74.7299 Y30.0600 Z-1.4183
X74.7444 Y30.0562 Z-1.4209
X74.7590 Y30.0533 Z-1.4236
X74.7739 Y30.0513 Z-1.4262
X74.7888 Y30.0502 Z-1.4288
X74.8037 Y30.0500 Z-1.4315
X74.8187 Y30.0507 Z-1.4341
X74.8336 Y30.0522 Z-1.4367
X74.8483 Y30.0547 Z-1.4394
X74.8629 Y30.0580 Z-1.4420
X74.8773 Y30.0622 Z-1.4447
X74.8913 Y30.0672 Z-1.4473
X74.9051 Y30.0731 Z-1.4499
X74.9185 Y30.0798 Z-1.4526
X74.9314 Y30.0873 Z-1.4552
X74.9439 Y30.0955 Z-1.4578
X74.9559 Y30.1045 Z-1.4605
X74.9673 Y30.1142 Z-1.4631
X74.9781 Y30.1245 Z-1.4658
X74.9883 Y30.1355 Z-1.4684
X74.9978 Y30.1470 Z-1.4710
X75.0066 Y30.1591 Z-1.4737
X75.0146 Y30.1717 Z-1.4763
X75.0219 Y30.1848 Z-1.4789
X75.0284 Y30.1983 Z-1.4816
X75.0341 Y30.2121 Z-1.4842
X75.0389 Y30.2263 Z-1.4869
X75.0429 Y30.2407 Z-1.4895
X75.0460 Y30.2553 Z-1.4921
X75.0482 Y30.2701 Z-1.4948
X75.0496 Y30.2850 Z-1.4974
X75.0500 Y30.3000 Z-1.5000
X74.8854 Y30.5348
X74.8773 Y30.5377 Z-1.5016
X74.8629 Y30.5419 Z-1.5042
X74.8483 Y30.5452 Z-1.5068
X74.8336 Y30.5477 Z-1.5095
X74.8187 Y30.5493 Z-1.5121
X74.8037 Y30.5499 Z-1.5148
X74.7888 Y30.5497 Z-1.5174
X74.7739 Y30.5486 Z-1.5200
X74.7590 Y30.5466 Z-1.5227
X74.7444 Y30.5437 Z-1.5253
X74.7299 Y30.5399 Z-1.5279
X74.7157 Y30.5353 Z-1.5306
X74.7017 Y30.5298 Z-1.5332
X74.6882 Y30.5235 Z-1.5359
X74.6750 Y30.5165 Z-1.5385
X74.6623 Y30.5086 Z-1.5411
X74.6500 Y30.5000 Z-1.5438
X74.6384 Y30.4907 Z-1.5464
X74.6272 Y30.4807 Z-1.5490
X74.6167 Y30.4700 Z-1.5517
X74.6069 Y30.4587 Z-1.5543
X74.5977 Y30.4469 Z-1.5570
X74.5893 Y30.4345 Z-1.5596
X74.5816 Y30.4217 Z-1.5622
X74.5748 Y30.4084 Z-1.5649
X74.5687 Y30.3948 Z-1.5675
X74.5634 Y30.3808 Z-1.5701
X74.5590 Y30.3665 Z-1.5728
X74.5555 Y30.3519 Z-1.5754
X74.5528 Y30.3372 Z-1.5781
X74.5510 Y30.3224 Z-1.5807
X74.5501 Y30.3074 Z-1.5833
Y30.2925 Z-1.5860
X74.5510 Y30.2775 Z-1.5886
X74.5528 Y30.2627 Z-1.5912
X74.5555 Y30.2480 Z-1.5939
X74.5590 Y30.2334 Z-1.5965
X74.5634 Y30.2192 Z-1.5992
X74.5687 Y30.2051 Z-1.6018
X74.5748 Y30.1915 Z-1.6044
X74.5816 Y30.1782 Z-1.6071
X74.5893 Y30.1654 Z-1.6097
X74.5977 Y30.1530 Z-1.6123
X74.6069 Y30.1412 Z-1.6150
X74.6167 Y30.1299 Z-1.6176
X74.6272 Y30.1193 Z-1.6203
X74.6384 Y30.1092 Z-1.6229
X74.6500 Y30.0999 Z-1.6255
X74.6623 Y30.0913 Z-1.6282
X74.6750 Y30.0834 Z-1.6308
X74.6882 Y30.0764 Z-1.6334
X74.7017 Y30.0701 Z-1.6361
X74.7157 Y30.0646 Z-1.6387
X74.7299 Y30.0600 Z-1.6414
X74.7444 Y30.0562 Z-1.6440
X74.7590 Y30.0533 Z-1.6466
X74.7739 Y30.0513 Z-1.6493
X74.7888 Y30.0502 Z-1.6519
X74.8037 Y30.0500 Z-1.6545
X74.8187 Y30.0507 Z-1.6572
X74.8336 Y30.0522 Z-1.6598
X74.8483 Y30.0547 Z-1.6625
X74.8629 Y30.0580 Z-1.6651
X74.8773 Y30.0622 Z-1.6677
X74.8913 Y30.0672 Z-1.6704
X74.9051 Y30.0731 Z-1.6730
X74.9185 Y30.0798 Z-1.6756
X74.9314 Y30.0873 Z-1.6783
X74.9439 Y30.0955 Z-1.6809
X74.9559 Y30.1045 Z-1.6836
X74.9673 Y30.1142 Z-1.6862
X74.9781 Y30.1245 Z-1.6888
X74.9883 Y30.1355 Z-1.6915
X74.9978 Y30.1470 Z-1.6941
X75.0066 Y30.1591 Z-1.6967
X75.0146 Y30.1717 Z-1.6994
X75.0219 Y30.1848 Z-1.7020
X75.0284 Y30.1983 Z-1.7047
X75.0341 Y30.2121 Z-1.7073
X75.0389 Y30.2263 Z-1.7099
X75.0429 Y30.2407 Z-1.7126
X75.0460 Y30.2553 Z-1.7152
X75.0482 Y30.2701 Z-1.7178
X75.0496 Y30.2850 Z-1.7205
X75.0500 Y30.3000 Z-1.7231
X75.0496 Y30.3149 Z-1.7258
X75.0482 Y30.3298 Z-1.7284
X75.0460 Y30.3446 Z-1.7310
X75.0429 Y30.3592 Z-1.7337
X75.0389 Y30.3736 Z-1.7363
X75.0341 Y30.3878 Z-1.7389
X75.0284 Y30.4016 Z-1.7416
X75.0219 Y30.4151 Z-1.7442
X75.0146 Y30.4282 Z-1.7469
X75.0066 Y30.4408 Z-1.7495
X74.9978 Y30.4529 Z-1.7521
X74.9883 Y30.4644 Z-1.7548
X74.9781 Y30.4754 Z-1.7574
X74.9673 Y30.4857 Z-1.7600
X74.9559 Y30.4954 Z-1.7627
X74.9439 Y30.5044 Z-1.7653
X74.9314 Y30.5126 Z-1.7679
X74.9185 Y30.5201 Z-1.7706
X74.9051 Y30.5268 Z-1.7732
X74.8913 Y30.5327 Z-1.7759
X74.8773 Y30.5377 Z-1.7785
X74.8629 Y30.5419 Z-1.7811
X74.8483 Y30.5452 Z-1.7838
X74.8336 Y30.5477 Z-1.7864
X74.8187 Y30.5493 Z-1.7891
X74.8037 Y30.5499 Z-1.7917
X74.7888 Y30.5497 Z-1.7943
X74.7739 Y30.5486 Z-1.7970
X74.7590 Y30.5466 Z-1.7996
X74.7444 Y30.5437 Z-1.8022
X74.7299 Y30.5399 Z-1.8049
X74.7157 Y30.5353 Z-1.8075
X74.7017 Y30.5298 Z-1.8101
X74.6882 Y30.5235 Z-1.8128
X74.6750 Y30.5165 Z-1.8154
X74.6623 Y30.5086 Z-1.8181
X74.6500 Y30.5000 Z-1.8207
X74.6384 Y30.4907 Z-1.8233
X74.6272 Y30.4807 Z-1.8260
X74.6167 Y30.4700 Z-1.8286
X74.6069 Y30.4587 Z-1.8312
X74.5977 Y30.4469 Z-1.8339
X74.5893 Y30.4345 Z-1.8365
X74.5816 Y30.4217 Z-1.8392
X74.5748 Y30.4084 Z-1.8418
X74.5687 Y30.3948 Z-1.8444
X74.5634 Y30.3808 Z-1.8471
X74.5590 Y30.3665 Z-1.8497
X74.5555 Y30.3519 Z-1.8523
X74.5528 Y30.3372 Z-1.8550
X74.5510 Y30.3224 Z-1.8576
X74.5501 Y30.3074 Z-1.8603
Y30.2925 Z-1.8629
X74.5510 Y30.2775 Z-1.8655
X74.5528 Y30.2627 Z-1.8682
X74.5555 Y30.2480 Z-1.8708
X74.5590 Y30.2334 Z-1.8734
X74.5634 Y30.2192 Z-1.8761
X74.5687 Y30.2051 Z-1.8787
X74.5748 Y30.1915 Z-1.8814
X74.5816 Y30.1782 Z-1.8840
X74.5893 Y30.1654 Z-1.8866
X74.5977 Y30.1530 Z-1.8893
X74.6069 Y30.1412 Z-1.8919
X74.6167 Y30.1299 Z-1.8945
X74.6272 Y30.1193 Z-1.8972
X74.6384 Y30.1092 Z-1.8998
X74.6500 Y30.0999 Z-1.9025
X74.6623 Y30.0913 Z-1.9051
X74.6750 Y30.0834 Z-1.9077
X74.6882 Y30.0764 Z-1.9104
X74.7017 Y30.0701 Z-1.9130
X74.7157 Y30.0646 Z-1.9156
X74.7299 Y30.0600 Z-1.9183
X74.7444 Y30.0562 Z-1.9209
X74.7590 Y30.0533 Z-1.9236
X74.7739 Y30.0513 Z-1.9262
X74.7888 Y30.0502 Z-1.9288
X74.8037 Y30.0500 Z-1.9315
X74.8187 Y30.0507 Z-1.9341
X74.8336 Y30.0522 Z-1.9367
X74.8483 Y30.0547 Z-1.9394
X74.8629 Y30.0580 Z-1.9420
X74.8773 Y30.0622 Z-1.9447
X74.8913 Y30.0672 Z-1.9473
X74.9051 Y30.0731 Z-1.9499
X74.9185 Y30.0798 Z-1.9526
X74.9314 Y30.0873 Z-1.9552
X74.9439 Y30.0955 Z-1.9578
X74.9559 Y30.1045 Z-1.9605
X74.9673 Y30.1142 Z-1.9631
X74.9781 Y30.1245 Z-1.9658
X74.9883 Y30.1355 Z-1.9684
X74.9978 Y30.1470 Z-1.9710
X75.0066 Y30.1591 Z-1.9737
X75.0146 Y30.1717 Z-1.9763
X75.0219 Y30.1848 Z-1.9789
X75.0284 Y30.1983 Z-1.9816
X75.0341 Y30.2121 Z-1.9842
X75.0389 Y30.2263 Z-1.9869
X75.0429 Y30.2407 Z-1.9895
X75.0460 Y30.2553 Z-1.9921
X75.0482 Y30.2701 Z-1.9948
X75.0496 Y30.2850 Z-1.9974
X75.0500 Y30.3000 Z-2.0000
X74.8854 Y30.5348
X74.8773 Y30.5377 Z-2.0016
X74.8629 Y30.5419 Z-2.0042
X74.8483 Y30.5452 Z-2.0068
X74.8336 Y30.5477 Z-2.0095
X74.8187 Y30.5493 Z-2.0121
X74.8037 Y30.5499 Z-2.0148
X74.7888 Y30.5497 Z-2.0174
X74.7739 Y30.5486 Z-2.0200
X74.7590 Y30.5466 Z-2.0227
X74.7444 Y30.5437 Z-2.0253
X74.7299 Y30.5399 Z-2.0279
X74.7157 Y30.5353 Z-2.0306
X74.7017 Y30.5298 Z-2.0332
X74.6882 Y30.5235 Z-2.0359
X74.6750 Y30.5165 Z-2.0385
X74.6623 Y30.5086 Z-2.0411
X74.6500 Y30.5000 Z-2.0438
X74.6384 Y30.4907 Z-2.0464
X74.6272 Y30.4807 Z-2.0490
X74.6167 Y30.4700 Z-2.0517
X74.6069 Y30.4587 Z-2.0543
X74.5977 Y30.4469 Z-2.0570
X74.5893 Y30.4345 Z-2.0596
X74.5816 Y30.4217 Z-2.0622
X74.5748 Y30.4084 Z-2.0649
X74.5687 Y30.3948 Z-2.0675
X74.5634 Y30.3808 Z-2.0701
X74.5590 Y30.3665 Z-2.0728
X74.5555 Y30.3519 Z-2.0754
X74.5528 Y30.3372 Z-2.0781
X74.5510 Y30.3224 Z-2.0807
X74.5501 Y30.3074 Z-2.0833
Y30.2925 Z-2.0860
X74.5510 Y30.2775 Z-2.0886
X74.5528 Y30.2627 Z-2.0912
X74.5555 Y30.2480 Z-2.0939
X74.5590 Y30.2334 Z-2.0965
X74.5634 Y30.2192 Z-2.0992
X74.5687 Y30.2051 Z-2.1018
X74.5748 Y30.1915 Z-2.1044
X74.5816 Y30.1782 Z-2.1071
X74.5893 Y30.1654 Z-2.1097
X74.5977 Y30.1530 Z-2.1123
X74.6069 Y30.1412 Z-2.1150
X74.6167 Y30.1299 Z-2.1176
X74.6272 Y30.1193 Z-2.1203
X74.6384 Y30.1092 Z-2.1229
X74.6500 Y30.0999 Z-2.1255
X74.6623 Y30.0913 Z-2.1282
X74.6750 Y30.0834 Z-2.1308
X74.6882 Y30.0764 Z-2.1334
X74.7017 Y30.0701 Z-2.1361
X74.7157 Y30.0646 Z-2.1387
X74.7299 Y30.0600 Z-2.1414
X74.7444 Y30.0562 Z-2.1440
X74.7590 Y30.0533 Z-2.1466
X74.7739 Y30.0513 Z-2.1493
X74.7888 Y30.0502 Z-2.1519
X74.8037 Y30.0500 Z-2.1545
X74.8187 Y30.0507 Z-2.1572
