G00 G49 G40.1 G17 G80 G50 G90
G21
(Hole Pocketing)
(SlotDrill 2mm Carbide)
M6 T12
M03 S20000
G00 Z6.0000
X50.2036 Y-0.1449
G01 Z0.6350  F1000.0
X50.2066 Y-0.1408 Z0.6341  F100.0
X50.2146 Y-0.1282 Z0.6315
X50.2219 Y-0.1152 Z0.6288
X50.2284 Y-0.1017 Z0.6262
X50.2341 Y-0.0878 Z0.6236
X50.2389 Y-0.0737 Z0.6209
X50.2429 Y-0.0593 Z0.6183
X50.2460 Y-0.0446 Z0.6156
X50.2482 Y-0.0298 Z0.6130
X50.2496 Y-0.0150 Z0.6104
X50.2500 Y0.0000 Z0.6077
X50.2496 Y0.0150 Z0.6051
X50.2482 Y0.0298 Z0.6025
X50.2460 Y0.0446 Z0.5998
X50.2429 Y0.0593 Z0.5972
X50.2389 Y0.0737 Z0.5945
X50.2341 Y0.0878 Z0.5919
X50.2284 Y0.1017 Z0.5893
X50.2219 Y0.1152 Z0.5866
X50.2146 Y0.1282 Z0.5840
X50.2066 Y0.1408 Z0.5814
X50.1978 Y0.1529 Z0.5787
X50.1883 Y0.1645 Z0.5761
X50.1781 Y0.1754 Z0.5734
X50.1673 Y0.1858 Z0.5708
X50.1559 Y0.1955 Z0.5682
X50.1439 Y0.2044 Z0.5655
X50.1314 Y0.2127 Z0.5629
X50.1185 Y0.2201 Z0.5603
X50.1051 Y0.2268 Z0.5576
X50.0913 Y0.2327 Z0.5550
X50.0773 Y0.2378 Z0.5523
X50.0629 Y0.2420 Z0.5497
X50.0483 Y0.2453 Z0.5471
X50.0336 Y0.2477 Z0.5444
X50.0187 Y0.2493 Z0.5418
X50.0037 Y0.2500 Z0.5392
X49.9888 Y0.2497 Z0.5365
X49.9739 Y0.2486 Z0.5339
X49.9590 Y0.2466 Z0.5312
X49.9444 Y0.2437 Z0.5286
X49.9299 Y0.2400 Z0.5260
X49.9157 Y0.2353 Z0.5233
X49.9017 Y0.2299 Z0.5207
X49.8882 Y0.2236 Z0.5181
X49.8750 Y0.2165 Z0.5154
X49.8623 Y0.2086 Z0.5128
X49.8500 Y0.2000 Z0.5101
X49.8383 Y0.1907 Z0.5075
X49.8272 Y0.1807 Z0.5049
X49.8167 Y0.1700 Z0.5022
X49.8069 Y0.1588 Z0.4996
X49.7977 Y0.1469 Z0.4970
X49.7893 Y0.1346 Z0.4943
X49.7816 Y0.1217 Z0.4917
X49.7748 Y0.1085 Z0.4890
X49.7687 Y0.0948 Z0.4864
X49.7634 Y0.0808 Z0.4838
X49.7590 Y0.0665 Z0.4811
X49.7555 Y0.0520 Z0.4785
X49.7528 Y0.0373 Z0.4759
X49.7510 Y0.0224 Z0.4732
X49.7501 Y0.0075 Z0.4706
Y-0.0075 Z0.4679
X49.7510 Y-0.0224 Z0.4653
X49.7528 Y-0.0373 Z0.4627
X49.7555 Y-0.0520 Z0.4600
X49.7590 Y-0.0665 Z0.4574
X49.7634 Y-0.0808 Z0.4548
X49.7687 Y-0.0948 Z0.4521
X49.7748 Y-0.1085 Z0.4495
X49.7816 Y-0.1217 Z0.4468
X49.7893 Y-0.1346 Z0.4442
X49.7977 Y-0.1469 Z0.4416
X49.8069 Y-0.1588 Z0.4389
X49.8167 Y-0.1700 Z0.4363
X49.8272 Y-0.1807 Z0.4337
X49.8383 Y-0.1907 Z0.4310
X49.8500 Y-0.2000 Z0.4284
X49.8623 Y-0.2086 Z0.4257
X49.8750 Y-0.2165 Z0.4231
X49.8882 Y-0.2236 Z0.4205
X49.9017 Y-0.2299 Z0.4178
X49.9157 Y-0.2353 Z0.4152
X49.9299 Y-0.2400 Z0.4126
X49.9444 Y-0.2437 Z0.4099
X49.9590 Y-0.2466 Z0.4073
X49.9739 Y-0.2486 Z0.4046
X49.9888 Y-0.2497 Z0.4020
X50.0037 Y-0.2500 Z0.3994
X50.0187 Y-0.2493 Z0.3967
X50.0336 Y-0.2477 Z0.3941
X50.0483 Y-0.2453 Z0.3915
X50.0629 Y-0.2420 Z0.3888
X50.0773 Y-0.2378 Z0.3862
X50.0913 Y-0.2327 Z0.3835
X50.1051 Y-0.2268 Z0.3809
X50.1185 Y-0.2201 Z0.3783
X50.1314 Y-0.2127 Z0.3756
X50.1439 Y-0.2044 Z0.3730
X50.1559 Y-0.1955 Z0.3704
X50.1673 Y-0.1858 Z0.3677
X50.1781 Y-0.1754 Z0.3651
X50.1883 Y-0.1645 Z0.3624
X50.1978 Y-0.1529 Z0.3598
X50.2066 Y-0.1408 Z0.3572
X50.2146 Y-0.1282 Z0.3545
X50.2219 Y-0.1152 Z0.3519
X50.2284 Y-0.1017 Z0.3493
X50.2341 Y-0.0878 Z0.3466
X50.2389 Y-0.0737 Z0.3440
X50.2429 Y-0.0593 Z0.3413
X50.2460 Y-0.0446 Z0.3387
X50.2482 Y-0.0298 Z0.3361
X50.2496 Y-0.0150 Z0.3334
X50.2500 Y0.0000 Z0.3308
X50.2496 Y0.0150 Z0.3282
X50.2482 Y0.0298 Z0.3255
X50.2460 Y0.0446 Z0.3229
X50.2429 Y0.0593 Z0.3202
X50.2389 Y0.0737 Z0.3176
X50.2341 Y0.0878 Z0.3150
X50.2284 Y0.1017 Z0.3123
X50.2219 Y0.1152 Z0.3097
X50.2146 Y0.1282 Z0.3071
X50.2066 Y0.1408 Z0.3044
X50.1978 Y0.1529 Z0.3018
X50.1883 Y0.1645 Z0.2991
X50.1781 Y0.1754 Z0.2965
X50.1673 Y0.1858 Z0.2939
X50.1559 Y0.1955 Z0.2912
X50.1439 Y0.2044 Z0.2886
X50.1314 Y0.2127 Z0.2860
X50.1185 Y0.2201 Z0.2833
X50.1051 Y0.2268 Z0.2807
X50.0913 Y0.2327 Z0.2780
X50.0773 Y0.2378 Z0.2754
X50.0629 Y0.2420 Z0.2728
X50.0483 Y0.2453 Z0.2701
X50.0336 Y0.2477 Z0.2675
X50.0187 Y0.2493 Z0.2649
X50.0037 Y0.2500 Z0.2622
X49.9888 Y0.2497 Z0.2596
X49.9739 Y0.2486 Z0.2569
X49.9590 Y0.2466 Z0.2543
X49.9444 Y0.2437 Z0.2517
X49.9299 Y0.2400 Z0.2490
X49.9157 Y0.2353 Z0.2464
X49.9017 Y0.2299 Z0.2438
X49.8882 Y0.2236 Z0.2411
X49.8750 Y0.2165 Z0.2385
X49.8623 Y0.2086 Z0.2358
X49.8500 Y0.2000 Z0.2332
X49.8383 Y0.1907 Z0.2306
X49.8272 Y0.1807 Z0.2279
X49.8167 Y0.1700 Z0.2253
X49.8069 Y0.1588 Z0.2227
X49.7977 Y0.1469 Z0.2200
X49.7893 Y0.1346 Z0.2174
X49.7816 Y0.1217 Z0.2147
X49.7748 Y0.1085 Z0.2121
X49.7687 Y0.0948 Z0.2095
X49.7634 Y0.0808 Z0.2068
X49.7590 Y0.0665 Z0.2042
X49.7555 Y0.0520 Z0.2016
X49.7528 Y0.0373 Z0.1989
X49.7510 Y0.0224 Z0.1963
X49.7501 Y0.0075 Z0.1936
Y-0.0075 Z0.1910
X49.7510 Y-0.0224 Z0.1884
X49.7528 Y-0.0373 Z0.1857
X49.7555 Y-0.0520 Z0.1831
X49.7590 Y-0.0665 Z0.1805
X49.7634 Y-0.0808 Z0.1778
X49.7687 Y-0.0948 Z0.1752
X49.7748 Y-0.1085 Z0.1725
X49.7816 Y-0.1217 Z0.1699
X49.7893 Y-0.1346 Z0.1673
X49.7977 Y-0.1469 Z0.1646
X49.8069 Y-0.1588 Z0.1620
X49.8167 Y-0.1700 Z0.1594
X49.8272 Y-0.1807 Z0.1567
X49.8383 Y-0.1907 Z0.1541
X49.8500 Y-0.2000 Z0.1515
X49.8623 Y-0.2086 Z0.1488
X49.8750 Y-0.2165 Z0.1462
X49.8882 Y-0.2236 Z0.1435
X49.9017 Y-0.2299 Z0.1409
X49.9157 Y-0.2353 Z0.1383
X49.9299 Y-0.2400 Z0.1356
X49.9444 Y-0.2437 Z0.1330
X49.9590 Y-0.2466 Z0.1304
X49.9739 Y-0.2486 Z0.1277
X49.9888 Y-0.2497 Z0.1251
X50.0037 Y-0.2500 Z0.1224
X50.0187 Y-0.2493 Z0.1198
X50.0336 Y-0.2477 Z0.1172
X50.0483 Y-0.2453 Z0.1145
X50.0629 Y-0.2420 Z0.1119
X50.0773 Y-0.2378 Z0.1093
X50.0913 Y-0.2327 Z0.1066
X50.1051 Y-0.2268 Z0.1040
X50.1185 Y-0.2201 Z0.1013
X50.1314 Y-0.2127 Z0.0987
X50.1439 Y-0.2044 Z0.0961
X50.1559 Y-0.1955 Z0.0934
X50.1673 Y-0.1858 Z0.0908
X50.1781 Y-0.1754 Z0.0882
X50.1883 Y-0.1645 Z0.0855
X50.1978 Y-0.1529 Z0.0829
X50.2066 Y-0.1408 Z0.0802
X50.2146 Y-0.1282 Z0.0776
X50.2219 Y-0.1152 Z0.0750
X50.2284 Y-0.1017 Z0.0723
X50.2341 Y-0.0878 Z0.0697
X50.2389 Y-0.0737 Z0.0671
X50.2429 Y-0.0593 Z0.0644
X50.2460 Y-0.0446 Z0.0618
X50.2482 Y-0.0298 Z0.0591
X50.2496 Y-0.0150 Z0.0565
X50.2500 Y0.0000 Z0.0539
X50.2496 Y0.0150 Z0.0512
X50.2482 Y0.0298 Z0.0486
X50.2460 Y0.0446 Z0.0460
X50.2429 Y0.0593 Z0.0433
X50.2389 Y0.0737 Z0.0407
X50.2341 Y0.0878 Z0.0380
X50.2284 Y0.1017 Z0.0354
X50.2219 Y0.1152 Z0.0328
X50.2146 Y0.1282 Z0.0301
X50.2066 Y0.1408 Z0.0275
X50.1978 Y0.1529 Z0.0249
X50.1883 Y0.1645 Z0.0222
X50.1781 Y0.1754 Z0.0196
X50.1673 Y0.1858 Z0.0169
X50.1559 Y0.1955 Z0.0143
X50.1439 Y0.2044 Z0.0117
X50.1314 Y0.2127 Z0.0090
X50.1185 Y0.2201 Z0.0064
X50.1051 Y0.2268 Z0.0038
X50.0913 Y0.2327 Z0.0011
X50.0773 Y0.2378 Z-0.0015
X50.0629 Y0.2420 Z-0.0042
X50.0483 Y0.2453 Z-0.0068
X50.0336 Y0.2477 Z-0.0094
X50.0187 Y0.2493 Z-0.0121
X50.0037 Y0.2500 Z-0.0147
X49.9888 Y0.2497 Z-0.0173
X49.9739 Y0.2486 Z-0.0200
X49.9590 Y0.2466 Z-0.0226
X49.9444 Y0.2437 Z-0.0253
X49.9299 Y0.2400 Z-0.0279
X49.9157 Y0.2353 Z-0.0305
X49.9017 Y0.2299 Z-0.0332
X49.8882 Y0.2236 Z-0.0358
X49.8750 Y0.2165 Z-0.0384
X49.8623 Y0.2086 Z-0.0411
X49.8500 Y0.2000 Z-0.0437
X49.8383 Y0.1907 Z-0.0464
X49.8272 Y0.1807 Z-0.0490
X49.8167 Y0.1700 Z-0.0516
X49.8069 Y0.1588 Z-0.0543
X49.7977 Y0.1469 Z-0.0569
X49.7893 Y0.1346 Z-0.0595
X49.7816 Y0.1217 Z-0.0622
X49.7748 Y0.1085 Z-0.0648
X49.7687 Y0.0948 Z-0.0675
X49.7634 Y0.0808 Z-0.0701
X49.7590 Y0.0665 Z-0.0727
X49.7555 Y0.0520 Z-0.0754
X49.7528 Y0.0373 Z-0.0780
X49.7510 Y0.0224 Z-0.0806
X49.7501 Y0.0075 Z-0.0833
Y-0.0075 Z-0.0859
X49.7510 Y-0.0224 Z-0.0886
X49.7528 Y-0.0373 Z-0.0912
X49.7555 Y-0.0520 Z-0.0938
X49.7590 Y-0.0665 Z-0.0965
X49.7634 Y-0.0808 Z-0.0991
X49.7687 Y-0.0948 Z-0.1017
X49.7748 Y-0.1085 Z-0.1044
X49.7816 Y-0.1217 Z-0.1070
X49.7893 Y-0.1346 Z-0.1097
X49.7977 Y-0.1469 Z-0.1123
X49.8069 Y-0.1588 Z-0.1149
X49.8167 Y-0.1700 Z-0.1176
X49.8272 Y-0.1807 Z-0.1202
X49.8383 Y-0.1907 Z-0.1228
X49.8500 Y-0.2000 Z-0.1255
X49.8623 Y-0.2086 Z-0.1281
X49.8750 Y-0.2165 Z-0.1308
X49.8882 Y-0.2236 Z-0.1334
X49.9017 Y-0.2299 Z-0.1360
X49.9157 Y-0.2353 Z-0.1387
X49.9299 Y-0.2400 Z-0.1413
X49.9444 Y-0.2437 Z-0.1439
X49.9590 Y-0.2466 Z-0.1466
X49.9739 Y-0.2486 Z-0.1492
X49.9888 Y-0.2497 Z-0.1519
X50.0037 Y-0.2500 Z-0.1545
X50.0187 Y-0.2493 Z-0.1571
X50.0336 Y-0.2477 Z-0.1598
X50.0483 Y-0.2453 Z-0.1624
X50.0629 Y-0.2420 Z-0.1650
X50.0773 Y-0.2378 Z-0.1677
X50.0913 Y-0.2327 Z-0.1703
X50.1051 Y-0.2268 Z-0.1730
X50.1185 Y-0.2201 Z-0.1756
X50.1314 Y-0.2127 Z-0.1782
X50.1439 Y-0.2044 Z-0.1809
X50.1559 Y-0.1955 Z-0.1835
X50.1673 Y-0.1858 Z-0.1861
X50.1781 Y-0.1754 Z-0.1888
X50.1883 Y-0.1645 Z-0.1914
X50.1978 Y-0.1529 Z-0.1941
X50.2066 Y-0.1408 Z-0.1967
X50.2146 Y-0.1282 Z-0.1993
X50.2219 Y-0.1152 Z-0.2020
X50.2284 Y-0.1017 Z-0.2046
X50.2341 Y-0.0878 Z-0.2072
X50.2389 Y-0.0737 Z-0.2099
X50.2429 Y-0.0593 Z-0.2125
X50.2460 Y-0.0446 Z-0.2152
X50.2482 Y-0.0298 Z-0.2178
X50.2496 Y-0.0150 Z-0.2204
X50.2500 Y0.0000 Z-0.2231
X50.2496 Y0.0150 Z-0.2257
X50.2482 Y0.0298 Z-0.2283
X50.2460 Y0.0446 Z-0.2310
X50.2429 Y0.0593 Z-0.2336
X50.2389 Y0.0737 Z-0.2363
X50.2341 Y0.0878 Z-0.2389
X50.2284 Y0.1017 Z-0.2415
X50.2219 Y0.1152 Z-0.2442
X50.2146 Y0.1282 Z-0.2468
X50.2066 Y0.1408 Z-0.2494
X50.1978 Y0.1529 Z-0.2521
X50.1883 Y0.1645 Z-0.2547
X50.1781 Y0.1754 Z-0.2574
X50.1673 Y0.1858 Z-0.2600
X50.1559 Y0.1955 Z-0.2626
X50.1439 Y0.2044 Z-0.2653
X50.1314 Y0.2127 Z-0.2679
X50.1185 Y0.2201 Z-0.2705
X50.1051 Y0.2268 Z-0.2732
X50.0913 Y0.2327 Z-0.2758
X50.0773 Y0.2378 Z-0.2785
X50.0629 Y0.2420 Z-0.2811
X50.0483 Y0.2453 Z-0.2837
X50.0336 Y0.2477 Z-0.2864
X50.0187 Y0.2493 Z-0.2890
X50.0037 Y0.2500 Z-0.2916
X49.9888 Y0.2497 Z-0.2943
X49.9739 Y0.2486 Z-0.2969
X49.9590 Y0.2466 Z-0.2996
X49.9444 Y0.2437 Z-0.3022
X49.9299 Y0.2400 Z-0.3048
X49.9157 Y0.2353 Z-0.3075
X49.9017 Y0.2299 Z-0.3101
X49.8882 Y0.2236 Z-0.3127
X49.8750 Y0.2165 Z-0.3154
X49.8623 Y0.2086 Z-0.3180
X49.8500 Y0.2000 Z-0.3207
X49.8383 Y0.1907 Z-0.3233
X49.8272 Y0.1807 Z-0.3259
X49.8167 Y0.1700 Z-0.3286
X49.8069 Y0.1588 Z-0.3312
X49.7977 Y0.1469 Z-0.3338
X49.7893 Y0.1346 Z-0.3365
X49.7816 Y0.1217 Z-0.3391
X49.7748 Y0.1085 Z-0.3418
X49.7687 Y0.0948 Z-0.3444
X49.7634 Y0.0808 Z-0.3470
X49.7590 Y0.0665 Z-0.3497
X49.7555 Y0.0520 Z-0.3523
X49.7528 Y0.0373 Z-0.3549
X49.7510 Y0.0224 Z-0.3576
X49.7501 Y0.0075 Z-0.3602
Y-0.0075 Z-0.3629
X49.7510 Y-0.0224 Z-0.3655
X49.7528 Y-0.0373 Z-0.3681
X49.7555 Y-0.0520 Z-0.3708
X49.7590 Y-0.0665 Z-0.3734
X49.7634 Y-0.0808 Z-0.3760
X49.7687 Y-0.0948 Z-0.3787
X49.7748 Y-0.1085 Z-0.3813
X49.7816 Y-0.1217 Z-0.3840
X49.7893 Y-0.1346 Z-0.3866
X49.7977 Y-0.1469 Z-0.3892
X49.8069 Y-0.1588 Z-0.3919
X49.8167 Y-0.1700 Z-0.3945
X49.8272 Y-0.1807 Z-0.3971
X49.8383 Y-0.1907 Z-0.3998
X49.8500 Y-0.2000 Z-0.4024
X49.8623 Y-0.2086 Z-0.4051
X49.8750 Y-0.2165 Z-0.4077
X49.8882 Y-0.2236 Z-0.4103
X49.9017 Y-0.2299 Z-0.4130
X49.9157 Y-0.2353 Z-0.4156
X49.9299 Y-0.2400 Z-0.4182
X49.9444 Y-0.2437 Z-0.4209
X49.9590 Y-0.2466 Z-0.4235
X49.9739 Y-0.2486 Z-0.4262
X49.9888 Y-0.2497 Z-0.4288
X50.0037 Y-0.2500 Z-0.4314
X50.0187 Y-0.2493 Z-0.4341
X50.0336 Y-0.2477 Z-0.4367
X50.0483 Y-0.2453 Z-0.4393
X50.0629 Y-0.2420 Z-0.4420
X50.0773 Y-0.2378 Z-0.4446
X50.0913 Y-0.2327 Z-0.4473
X50.1051 Y-0.2268 Z-0.4499
X50.1185 Y-0.2201 Z-0.4525
X50.1314 Y-0.2127 Z-0.4552
X50.1439 Y-0.2044 Z-0.4578
X50.1559 Y-0.1955 Z-0.4604
X50.1673 Y-0.1858 Z-0.4631
X50.1781 Y-0.1754 Z-0.4657
X50.1883 Y-0.1645 Z-0.4684
X50.1978 Y-0.1529 Z-0.4710
X50.2066 Y-0.1408 Z-0.4736
X50.2146 Y-0.1282 Z-0.4763
X50.2219 Y-0.1152 Z-0.4789
X50.2284 Y-0.1017 Z-0.4815
X50.2341 Y-0.0878 Z-0.4842
X50.2389 Y-0.0737 Z-0.4868
X50.2429 Y-0.0593 Z-0.4895
X50.2460 Y-0.0446 Z-0.4921
X50.2482 Y-0.0298 Z-0.4947
X50.2496 Y-0.0150 Z-0.4974
X50.2500 Y0.0000 Z-0.5000
X50.0854 Y0.2349
X50.0773 Y0.2378 Z-0.5015
X50.0629 Y0.2420 Z-0.5042
X50.0483 Y0.2453 Z-0.5068
X50.0336 Y0.2477 Z-0.5094
X50.0187 Y0.2493 Z-0.5121
X50.0037 Y0.2500 Z-0.5147
X49.9888 Y0.2497 Z-0.5173
X49.9739 Y0.2486 Z-0.5200
X49.9590 Y0.2466 Z-0.5226
X49.9444 Y0.2437 Z-0.5253
X49.9299 Y0.2400 Z-0.5279
X49.9157 Y0.2353 Z-0.5305
X49.9017 Y0.2299 Z-0.5332
X49.8882 Y0.2236 Z-0.5358
X49.8750 Y0.2165 Z-0.5384
X49.8623 Y0.2086 Z-0.5411
X49.8500 Y0.2000 Z-0.5437
X49.8383 Y0.1907 Z-0.5464
X49.8272 Y0.1807 Z-0.5490
X49.8167 Y0.1700 Z-0.5516
X49.8069 Y0.1588 Z-0.5543
X49.7977 Y0.1469 Z-0.5569
X49.7893 Y0.1346 Z-0.5595
X49.7816 Y0.1217 Z-0.5622
X49.7748 Y0.1085 Z-0.5648
X49.7687 Y0.0948 Z-0.5675
X49.7634 Y0.0808 Z-0.5701
X49.7590 Y0.0665 Z-0.5727
X49.7555 Y0.0520 Z-0.5754
X49.7528 Y0.0373 Z-0.5780
X49.7510 Y0.0224 Z-0.5806
X49.7501 Y0.0075 Z-0.5833
Y-0.0075 Z-0.5859
X49.7510 Y-0.0224 Z-0.5886
X49.7528 Y-0.0373 Z-0.5912
X49.7555 Y-0.0520 Z-0.5938
X49.7590 Y-0.0665 Z-0.5965
X49.7634 Y-0.0808 Z-0.5991
X49.7687 Y-0.0948 Z-0.6017
X49.7748 Y-0.1085 Z-0.6044
X49.7816 Y-0.1217 Z-0.6070
X49.7893 Y-0.1346 Z-0.6097
X49.7977 Y-0.1469 Z-0.6123
X49.8069 Y-0.1588 Z-0.6149
X49.8167 Y-0.1700 Z-0.6176
X49.8272 Y-0.1807 Z-0.6202
X49.8383 Y-0.1907 Z-0.6228
X49.8500 Y-0.2000 Z-0.6255
X49.8623 Y-0.2086 Z-0.6281
X49.8750 Y-0.2165 Z-0.6308
X49.8882 Y-0.2236 Z-0.6334
X49.9017 Y-0.2299 Z-0.6360
X49.9157 Y-0.2353 Z-0.6387
X49.9299 Y-0.2400 Z-0.6413
X49.9444 Y-0.2437 Z-0.6439
X49.9590 Y-0.2466 Z-0.6466
X49.9739 Y-0.2486 Z-0.6492
X49.9888 Y-0.2497 Z-0.6519
X50.0037 Y-0.2500 Z-0.6545
X50.0187 Y-0.2493 Z-0.6571
X50.0336 Y-0.2477 Z-0.6598
X50.0483 Y-0.2453 Z-0.6624
X50.0629 Y-0.2420 Z-0.6650
X50.0773 Y-0.2378 Z-0.6677
X50.0913 Y-0.2327 Z-0.6703
X50.1051 Y-0.2268 Z-0.6730
X50.1185 Y-0.2201 Z-0.6756
X50.1314 Y-0.2127 Z-0.6782
X50.1439 Y-0.2044 Z-0.6809
X50.1559 Y-0.1955 Z-0.6835
X50.1673 Y-0.1858 Z-0.6861
X50.1781 Y-0.1754 Z-0.6888
X50.1883 Y-0.1645 Z-0.6914
X50.1978 Y-0.1529 Z-0.6941
X50.2066 Y-0.1408 Z-0.6967
X50.2146 Y-0.1282 Z-0.6993
X50.2219 Y-0.1152 Z-0.7020
X50.2284 Y-0.1017 Z-0.7046
X50.2341 Y-0.0878 Z-0.7072
X50.2389 Y-0.0737 Z-0.7099
X50.2429 Y-0.0593 Z-0.7125
X50.2460 Y-0.0446 Z-0.7152
X50.2482 Y-0.0298 Z-0.7178
X50.2496 Y-0.0150 Z-0.7204
X50.2500 Y0.0000 Z-0.7231
X50.2496 Y0.0150 Z-0.7257
X50.2482 Y0.0298 Z-0.7283
X50.2460 Y0.0446 Z-0.7310
X50.2429 Y0.0593 Z-0.7336
X50.2389 Y0.0737 Z-0.7363
X50.2341 Y0.0878 Z-0.7389
X50.2284 Y0.1017 Z-0.7415
X50.2219 Y0.1152 Z-0.7442
X50.2146 Y0.1282 Z-0.7468
X50.2066 Y0.1408 Z-0.7494
X50.1978 Y0.1529 Z-0.7521
X50.1883 Y0.1645 Z-0.7547
X50.1781 Y0.1754 Z-0.7574
X50.1673 Y0.1858 Z-0.7600
X50.1559 Y0.1955 Z-0.7626
X50.1439 Y0.2044 Z-0.7653
X50.1314 Y0.2127 Z-0.7679
X50.1185 Y0.2201 Z-0.7705
X50.1051 Y0.2268 Z-0.7732
X50.0913 Y0.2327 Z-0.7758
X50.0773 Y0.2378 Z-0.7785
X50.0629 Y0.2420 Z-0.7811
X50.0483 Y0.2453 Z-0.7837
X50.0336 Y0.2477 Z-0.7864
X50.0187 Y0.2493 Z-0.7890
X50.0037 Y0.2500 Z-0.7916
X49.9888 Y0.2497 Z-0.7943
X49.9739 Y0.2486 Z-0.7969
X49.9590 Y0.2466 Z-0.7996
X49.9444 Y0.2437 Z-0.8022
X49.9299 Y0.2400 Z-0.8048
X49.9157 Y0.2353 Z-0.8075
X49.9017 Y0.2299 Z-0.8101
X49.8882 Y0.2236 Z-0.8127
X49.8750 Y0.2165 Z-0.8154
X49.8623 Y0.2086 Z-0.8180
X49.8500 Y0.2000 Z-0.8207
X49.8383 Y0.1907 Z-0.8233
X49.8272 Y0.1807 Z-0.8259
X49.8167 Y0.1700 Z-0.8286
X49.8069 Y0.1588 Z-0.8312
X49.7977 Y0.1469 Z-0.8338
X49.7893 Y0.1346 Z-0.8365
X49.7816 Y0.1217 Z-0.8391
X49.7748 Y0.1085 Z-0.8418
X49.7687 Y0.0948 Z-0.8444
X49.7634 Y0.0808 Z-0.8470
X49.7590 Y0.0665 Z-0.8497
X49.7555 Y0.0520 Z-0.8523
X49.7528 Y0.0373 Z-0.8549
X49.7510 Y0.0224 Z-0.8576
X49.7501 Y0.0075 Z-0.8602
Y-0.0075 Z-0.8629
X49.7510 Y-0.0224 Z-0.8655
X49.7528 Y-0.0373 Z-0.8681
X49.7555 Y-0.0520 Z-0.8708
X49.7590 Y-0.0665 Z-0.8734
X49.7634 Y-0.0808 Z-0.8760
X49.7687 Y-0.0948 Z-0.8787
X49.7748 Y-0.1085 Z-0.8813
X49.7816 Y-0.1217 Z-0.8840
X49.7893 Y-0.1346 Z-0.8866
X49.7977 Y-0.1469 Z-0.8892
X49.8069 Y-0.1588 Z-0.8919
X49.8167 Y-0.1700 Z-0.8945
X49.8272 Y-0.1807 Z-0.8971
X49.8383 Y-0.1907 Z-0.8998
X49.8500 Y-0.2000 Z-0.9024
X49.8623 Y-0.2086 Z-0.9051
X49.8750 Y-0.2165 Z-0.9077
X49.8882 Y-0.2236 Z-0.9103
X49.9017 Y-0.2299 Z-0.9130
X49.9157 Y-0.2353 Z-0.9156
X49.9299 Y-0.2400 Z-0.9182
X49.9444 Y-0.2437 Z-0.9209
X49.9590 Y-0.2466 Z-0.9235
X49.9739 Y-0.2486 Z-0.9262
X49.9888 Y-0.2497 Z-0.9288
X50.0037 Y-0.2500 Z-0.9314
X50.0187 Y-0.2493 Z-0.9341
X50.0336 Y-0.2477 Z-0.9367
X50.0483 Y-0.2453 Z-0.9393
X50.0629 Y-0.2420 Z-0.9420
X50.0773 Y-0.2378 Z-0.9446
X50.0913 Y-0.2327 Z-0.9473
X50.1051 Y-0.2268 Z-0.9499
X50.1185 Y-0.2201 Z-0.9525
X50.1314 Y-0.2127 Z-0.9552
X50.1439 Y-0.2044 Z-0.9578
X50.1559 Y-0.1955 Z-0.9604
X50.1673 Y-0.1858 Z-0.9631
X50.1781 Y-0.1754 Z-0.9657
X50.1883 Y-0.1645 Z-0.9684
X50.1978 Y-0.1529 Z-0.9710
X50.2066 Y-0.1408 Z-0.9736
X50.2146 Y-0.1282 Z-0.9763
X50.2219 Y-0.1152 Z-0.9789
X50.2284 Y-0.1017 Z-0.9815
X50.2341 Y-0.0878 Z-0.9842
X50.2389 Y-0.0737 Z-0.9868
X50.2429 Y-0.0593 Z-0.9895
X50.2460 Y-0.0446 Z-0.9921
X50.2482 Y-0.0298 Z-0.9947
X50.2496 Y-0.0150 Z-0.9974
X50.2500 Y0.0000 Z-1.0000
X50.0854 Y0.2349
X50.0773 Y0.2378 Z-1.0015
X50.0629 Y0.2420 Z-1.0042
X50.0483 Y0.2453 Z-1.0068
X50.0336 Y0.2477 Z-1.0094
X50.0187 Y0.2493 Z-1.0121
X50.0037 Y0.2500 Z-1.0147
X49.9888 Y0.2497 Z-1.0173
X49.9739 Y0.2486 Z-1.0200
X49.9590 Y0.2466 Z-1.0226
X49.9444 Y0.2437 Z-1.0253
X49.9299 Y0.2400 Z-1.0279
X49.9157 Y0.2353 Z-1.0305
X49.9017 Y0.2299 Z-1.0332
X49.8882 Y0.2236 Z-1.0358
X49.8750 Y0.2165 Z-1.0384
X49.8623 Y0.2086 Z-1.0411
X49.8500 Y0.2000 Z-1.0437
X49.8383 Y0.1907 Z-1.0464
X49.8272 Y0.1807 Z-1.0490
X49.8167 Y0.1700 Z-1.0516
X49.8069 Y0.1588 Z-1.0543
X49.7977 Y0.1469 Z-1.0569
X49.7893 Y0.1346 Z-1.0595
X49.7816 Y0.1217 Z-1.0622
X49.7748 Y0.1085 Z-1.0648
X49.7687 Y0.0948 Z-1.0675
X49.7634 Y0.0808 Z-1.0701
X49.7590 Y0.0665 Z-1.0727
X49.7555 Y0.0520 Z-1.0754
X49.7528 Y0.0373 Z-1.0780
X49.7510 Y0.0224 Z-1.0806
X49.7501 Y0.0075 Z-1.0833
Y-0.0075 Z-1.0859
X49.7510 Y-0.0224 Z-1.0886
X49.7528 Y-0.0373 Z-1.0912
X49.7555 Y-0.0520 Z-1.0938
X49.7590 Y-0.0665 Z-1.0965
X49.7634 Y-0.0808 Z-1.0991
X49.7687 Y-0.0948 Z-1.1017
X49.7748 Y-0.1085 Z-1.1044
X49.7816 Y-0.1217 Z-1.1070
X49.7893 Y-0.1346 Z-1.1097
X49.7977 Y-0.1469 Z-1.1123
X49.8069 Y-0.1588 Z-1.1149
X49.8167 Y-0.1700 Z-1.1176
X49.8272 Y-0.1807 Z-1.1202
X49.8383 Y-0.1907 Z-1.1228
X49.8500 Y-0.2000 Z-1.1255
X49.8623 Y-0.2086 Z-1.1281
X49.8750 Y-0.2165 Z-1.1308
X49.8882 Y-0.2236 Z-1.1334
X49.9017 Y-0.2299 Z-1.1360
X49.9157 Y-0.2353 Z-1.1387
X49.9299 Y-0.2400 Z-1.1413
X49.9444 Y-0.2437 Z-1.1439
X49.9590 Y-0.2466 Z-1.1466
X49.9739 Y-0.2486 Z-1.1492
X49.9888 Y-0.2497 Z-1.1519
X50.0037 Y-0.2500 Z-1.1545
X50.0187 Y-0.2493 Z-1.1571
X50.0336 Y-0.2477 Z-1.1598
X50.0483 Y-0.2453 Z-1.1624
X50.0629 Y-0.2420 Z-1.1650
X50.0773 Y-0.2378 Z-1.1677
X50.0913 Y-0.2327 Z-1.1703
X50.1051 Y-0.2268 Z-1.1730
X50.1185 Y-0.2201 Z-1.1756
X50.1314 Y-0.2127 Z-1.1782
X50.1439 Y-0.2044 Z-1.1809
X50.1559 Y-0.1955 Z-1.1835
X50.1673 Y-0.1858 Z-1.1861
X50.1781 Y-0.1754 Z-1.1888
X50.1883 Y-0.1645 Z-1.1914
X50.1978 Y-0.1529 Z-1.1941
X50.2066 Y-0.1408 Z-1.1967
X50.2146 Y-0.1282 Z-1.1993
X50.2219 Y-0.1152 Z-1.2020
X50.2284 Y-0.1017 Z-1.2046
X50.2341 Y-0.0878 Z-1.2072
X50.2389 Y-0.0737 Z-1.2099
X50.2429 Y-0.0593 Z-1.2125
X50.2460 Y-0.0446 Z-1.2152
X50.2482 Y-0.0298 Z-1.2178
X50.2496 Y-0.0150 Z-1.2204
X50.2500 Y0.0000 Z-1.2231
X50.2496 Y0.0150 Z-1.2257
X50.2482 Y0.0298 Z-1.2283
X50.2460 Y0.0446 Z-1.2310
X50.2429 Y0.0593 Z-1.2336
X50.2389 Y0.0737 Z-1.2363
X50.2341 Y0.0878 Z-1.2389
X50.2284 Y0.1017 Z-1.2415
X50.2219 Y0.1152 Z-1.2442
X50.2146 Y0.1282 Z-1.2468
X50.2066 Y0.1408 Z-1.2494
X50.1978 Y0.1529 Z-1.2521
X50.1883 Y0.1645 Z-1.2547
X50.1781 Y0.1754 Z-1.2574
X50.1673 Y0.1858 Z-1.2600
X50.1559 Y0.1955 Z-1.2626
X50.1439 Y0.2044 Z-1.2653
X50.1314 Y0.2127 Z-1.2679
X50.1185 Y0.2201 Z-1.2705
X50.1051 Y0.2268 Z-1.2732
X50.0913 Y0.2327 Z-1.2758
X50.0773 Y0.2378 Z-1.2785
X50.0629 Y0.2420 Z-1.2811
X50.0483 Y0.2453 Z-1.2837
X50.0336 Y0.2477 Z-1.2864
X50.0187 Y0.2493 Z-1.2890
X50.0037 Y0.2500 Z-1.2916
X49.9888 Y0.2497 Z-1.2943
X49.9739 Y0.2486 Z-1.2969
X49.9590 Y0.2466 Z-1.2996
X49.9444 Y0.2437 Z-1.3022
X49.9299 Y0.2400 Z-1.3048
X49.9157 Y0.2353 Z-1.3075
X49.9017 Y0.2299 Z-1.3101
X49.8882 Y0.2236 Z-1.3127
X49.8750 Y0.2165 Z-1.3154
X49.8623 Y0.2086 Z-1.3180
X49.8500 Y0.2000 Z-1.3207
X49.8383 Y0.1907 Z-1.3233
X49.8272 Y0.1807 Z-1.3259
X49.8167 Y0.1700 Z-1.3286
X49.8069 Y0.1588 Z-1.3312
X49.7977 Y0.1469 Z-1.3338
X49.7893 Y0.1346 Z-1.3365
X49.7816 Y0.1217 Z-1.3391
X49.7748 Y0.1085 Z-1.3418
X49.7687 Y0.0948 Z-1.3444
X49.7634 Y0.0808 Z-1.3470
X49.7590 Y0.0665 Z-1.3497
X49.7555 Y0.0520 Z-1.3523
X49.7528 Y0.0373 Z-1.3549
X49.7510 Y0.0224 Z-1.3576
X49.7501 Y0.0075 Z-1.3602
Y-0.0075 Z-1.3629
X49.7510 Y-0.0224 Z-1.3655
X49.7528 Y-0.0373 Z-1.3681
X49.7555 Y-0.0520 Z-1.3708
X49.7590 Y-0.0665 Z-1.3734
X49.7634 Y-0.0808 Z-1.3760
X49.7687 Y-0.0948 Z-1.3787
X49.7748 Y-0.1085 Z-1.3813
X49.7816 Y-0.1217 Z-1.3840
X49.7893 Y-0.1346 Z-1.3866
X49.7977 Y-0.1469 Z-1.3892
X49.8069 Y-0.1588 Z-1.3919
X49.8167 Y-0.1700 Z-1.3945
X49.8272 Y-0.1807 Z-1.3971
X49.8383 Y-0.1907 Z-1.3998
X49.8500 Y-0.2000 Z-1.4024
X49.8623 Y-0.2086 Z-1.4051
X49.8750 Y-0.2165 Z-1.4077
X49.8882 Y-0.2236 Z-1.4103
X49.9017 Y-0.2299 Z-1.4130
X49.9157 Y-0.2353 Z-1.4156
X49.9299 Y-0.2400 Z-1.4182
X49.9444 Y-0.2437 Z-1.4209
X49.9590 Y-0.2466 Z-1.4235
X49.9739 Y-0.2486 Z-1.4262
X49.9888 Y-0.2497 Z-1.4288
X50.0037 Y-0.2500 Z-1.4314
X50.0187 Y-0.2493 Z-1.4341
X50.0336 Y-0.2477 Z-1.4367
X50.0483 Y-0.2453 Z-1.4393
X50.0629 Y-0.2420 Z-1.4420
X50.0773 Y-0.2378 Z-1.4446
X50.0913 Y-0.2327 Z-1.4473
X50.1051 Y-0.2268 Z-1.4499
X50.1185 Y-0.2201 Z-1.4525
X50.1314 Y-0.2127 Z-1.4552
X50.1439 Y-0.2044 Z-1.4578
X50.1559 Y-0.1955 Z-1.4604
X50.1673 Y-0.1858 Z-1.4631
X50.1781 Y-0.1754 Z-1.4657
X50.1883 Y-0.1645 Z-1.4684
X50.1978 Y-0.1529 Z-1.4710
X50.2066 Y-0.1408 Z-1.4736
X50.2146 Y-0.1282 Z-1.4763
X50.2219 Y-0.1152 Z-1.4789
X50.2284 Y-0.1017 Z-1.4815
X50.2341 Y-0.0878 Z-1.4842
X50.2389 Y-0.0737 Z-1.4868
X50.2429 Y-0.0593 Z-1.4894
X50.2460 Y-0.0446 Z-1.4921
X50.2482 Y-0.0298 Z-1.4947
X50.2496 Y-0.0150 Z-1.4974
X50.2500 Y0.0000 Z-1.5000
X50.0854 Y0.2349
X50.0773 Y0.2378 Z-1.5015
X50.0629 Y0.2420 Z-1.5042
X50.0483 Y0.2453 Z-1.5068
X50.0336 Y0.2477 Z-1.5094
X50.0187 Y0.2493 Z-1.5121
X50.0037 Y0.2500 Z-1.5147
X49.9888 Y0.2497 Z-1.5173
X49.9739 Y0.2486 Z-1.5200
X49.9590 Y0.2466 Z-1.5226
X49.9444 Y0.2437 Z-1.5253
X49.9299 Y0.2400 Z-1.5279
X49.9157 Y0.2353 Z-1.5305
X49.9017 Y0.2299 Z-1.5332
X49.8882 Y0.2236 Z-1.5358
X49.8750 Y0.2165 Z-1.5384
X49.8623 Y0.2086 Z-1.5411
X49.8500 Y0.2000 Z-1.5437
X49.8383 Y0.1907 Z-1.5464
X49.8272 Y0.1807 Z-1.5490
X49.8167 Y0.1700 Z-1.5516
X49.8069 Y0.1588 Z-1.5543
X49.7977 Y0.1469 Z-1.5569
X49.7893 Y0.1346 Z-1.5595
X49.7816 Y0.1217 Z-1.5622
X49.7748 Y0.1085 Z-1.5648
X49.7687 Y0.0948 Z-1.5675
X49.7634 Y0.0808 Z-1.5701
X49.7590 Y0.0665 Z-1.5727
X49.7555 Y0.0520 Z-1.5754
X49.7528 Y0.0373 Z-1.5780
X49.7510 Y0.0224 Z-1.5806
X49.7501 Y0.0075 Z-1.5833
Y-0.0075 Z-1.5859
X49.7510 Y-0.0224 Z-1.5886
X49.7528 Y-0.0373 Z-1.5912
X49.7555 Y-0.0520 Z-1.5938
X49.7590 Y-0.0665 Z-1.5965
X49.7634 Y-0.0808 Z-1.5991
X49.7687 Y-0.0948 Z-1.6017
X49.7748 Y-0.1085 Z-1.6044
X49.7816 Y-0.1217 Z-1.6070
X49.7893 Y-0.1346 Z-1.6097
X49.7977 Y-0.1469 Z-1.6123
X49.8069 Y-0.1588 Z-1.6149
X49.8167 Y-0.1700 Z-1.6176
X49.8272 Y-0.1807 Z-1.6202
X49.8383 Y-0.1907 Z-1.6228
X49.8500 Y-0.2000 Z-1.6255
X49.8623 Y-0.2086 Z-1.6281
X49.8750 Y-0.2165 Z-1.6308
X49.8882 Y-0.2236 Z-1.6334
X49.9017 Y-0.2299 Z-1.6360
X49.9157 Y-0.2353 Z-1.6387
X49.9299 Y-0.2400 Z-1.6413
X49.9444 Y-0.2437 Z-1.6439
X49.9590 Y-0.2466 Z-1.6466
X49.9739 Y-0.2486 Z-1.6492
X49.9888 Y-0.2497 Z-1.6519
X50.0037 Y-0.2500 Z-1.6545
X50.0187 Y-0.2493 Z-1.6571
X50.0336 Y-0.2477 Z-1.6598
X50.0483 Y-0.2453 Z-1.6624
X50.0629 Y-0.2420 Z-1.6650
X50.0773 Y-0.2378 Z-1.6677
X50.0913 Y-0.2327 Z-1.6703
X50.1051 Y-0.2268 Z-1.6730
X50.1185 Y-0.2201 Z-1.6756
X50.1314 Y-0.2127 Z-1.6782
X50.1439 Y-0.2044 Z-1.6809
X50.1559 Y-0.1955 Z-1.6835
X50.1673 Y-0.1858 Z-1.6861
X50.1781 Y-0.1754 Z-1.6888
X50.1883 Y-0.1645 Z-1.6914
X50.1978 Y-0.1529 Z-1.6941
X50.2066 Y-0.1408 Z-1.6967
X50.2146 Y-0.1282 Z-1.6993
X50.2219 Y-0.1152 Z-1.7020
X50.2284 Y-0.1017 Z-1.7046
X50.2341 Y-0.0878 Z-1.7072
X50.2389 Y-0.0737 Z-1.7099
X50.2429 Y-0.0593 Z-1.7125
X50.2460 Y-0.0446 Z-1.7152
X50.2482 Y-0.0298 Z-1.7178
X50.2496 Y-0.0150 Z-1.7204
X50.2500 Y0.0000 Z-1.7231
X50.2496 Y0.0150 Z-1.7257
X50.2482 Y0.0298 Z-1.7283
X50.2460 Y0.0446 Z-1.7310
X50.2429 Y0.0593 Z-1.7336
X50.2389 Y0.0737 Z-1.7363
X50.2341 Y0.0878 Z-1.7389
X50.2284 Y0.1017 Z-1.7415
X50.2219 Y0.1152 Z-1.7442
X50.2146 Y0.1282 Z-1.7468
X50.2066 Y0.1408 Z-1.7494
X50.1978 Y0.1529 Z-1.7521
X50.1883 Y0.1645 Z-1.7547
X50.1781 Y0.1754 Z-1.7574
X50.1673 Y0.1858 Z-1.7600
X50.1559 Y0.1955 Z-1.7626
X50.1439 Y0.2044 Z-1.7653
X50.1314 Y0.2127 Z-1.7679
X50.1185 Y0.2201 Z-1.7705
X50.1051 Y0.2268 Z-1.7732
X50.0913 Y0.2327 Z-1.7758
X50.0773 Y0.2378 Z-1.7785
X50.0629 Y0.2420 Z-1.7811
X50.0483 Y0.2453 Z-1.7837
X50.0336 Y0.2477 Z-1.7864
X50.0187 Y0.2493 Z-1.7890
X50.0037 Y0.2500 Z-1.7916
X49.9888 Y0.2497 Z-1.7943
X49.9739 Y0.2486 Z-1.7969
X49.9590 Y0.2466 Z-1.7996
X49.9444 Y0.2437 Z-1.8022
X49.9299 Y0.2400 Z-1.8048
X49.9157 Y0.2353 Z-1.8075
X49.9017 Y0.2299 Z-1.8101
X49.8882 Y0.2236 Z-1.8127
X49.8750 Y0.2165 Z-1.8154
X49.8623 Y0.2086 Z-1.8180
X49.8500 Y0.2000 Z-1.8207
X49.8383 Y0.1907 Z-1.8233
X49.8272 Y0.1807 Z-1.8259
X49.8167 Y0.1700 Z-1.8286
X49.8069 Y0.1588 Z-1.8312
X49.7977 Y0.1469 Z-1.8338
X49.7893 Y0.1346 Z-1.8365
X49.7816 Y0.1217 Z-1.8391
X49.7748 Y0.1085 Z-1.8418
X49.7687 Y0.0948 Z-1.8444
X49.7634 Y0.0808 Z-1.8470
X49.7590 Y0.0665 Z-1.8497
X49.7555 Y0.0520 Z-1.8523
X49.7528 Y0.0373 Z-1.8549
X49.7510 Y0.0224 Z-1.8576
X49.7501 Y0.0075 Z-1.8602
Y-0.0075 Z-1.8629
X49.7510 Y-0.0224 Z-1.8655
X49.7528 Y-0.0373 Z-1.8681
X49.7555 Y-0.0520 Z-1.8708
X49.7590 Y-0.0665 Z-1.8734
X49.7634 Y-0.0808 Z-1.8760
X49.7687 Y-0.0948 Z-1.8787
X49.7748 Y-0.1085 Z-1.8813
X49.7816 Y-0.1217 Z-1.8840
X49.7893 Y-0.1346 Z-1.8866
X49.7977 Y-0.1469 Z-1.8892
X49.8069 Y-0.1588 Z-1.8919
X49.8167 Y-0.1700 Z-1.8945
X49.8272 Y-0.1807 Z-1.8971
X49.8383 Y-0.1907 Z-1.8998
X49.8500 Y-0.2000 Z-1.9024
X49.8623 Y-0.2086 Z-1.9051
X49.8750 Y-0.2165 Z-1.9077
X49.8882 Y-0.2236 Z-1.9103
X49.9017 Y-0.2299 Z-1.9130
X49.9157 Y-0.2353 Z-1.9156
X49.9299 Y-0.2400 Z-1.9182
X49.9444 Y-0.2437 Z-1.9209
X49.9590 Y-0.2466 Z-1.9235
X49.9739 Y-0.2486 Z-1.9262
X49.9888 Y-0.2497 Z-1.9288
X50.0037 Y-0.2500 Z-1.9314
X50.0187 Y-0.2493 Z-1.9341
X50.0336 Y-0.2477 Z-1.9367
X50.0483 Y-0.2453 Z-1.9393
X50.0629 Y-0.2420 Z-1.9420
X50.0773 Y-0.2378 Z-1.9446
X50.0913 Y-0.2327 Z-1.9473
X50.1051 Y-0.2268 Z-1.9499
X50.1185 Y-0.2201 Z-1.9525
X50.1314 Y-0.2127 Z-1.9552
X50.1439 Y-0.2044 Z-1.9578
X50.1559 Y-0.1955 Z-1.9604
X50.1673 Y-0.1858 Z-1.9631
X50.1781 Y-0.1754 Z-1.9657
X50.1883 Y-0.1645 Z-1.9684
X50.1978 Y-0.1529 Z-1.9710
X50.2066 Y-0.1408 Z-1.9736
X50.2146 Y-0.1282 Z-1.9763
X50.2219 Y-0.1152 Z-1.9789
X50.2284 Y-0.1017 Z-1.9815
X50.2341 Y-0.0878 Z-1.9842
X50.2389 Y-0.0737 Z-1.9868
X50.2429 Y-0.0593 Z-1.9895
X50.2460 Y-0.0446 Z-1.9921
X50.2482 Y-0.0298 Z-1.9947
X50.2496 Y-0.0150 Z-1.9974
X50.2500 Y0.0000 Z-2.0000
X50.0854 Y0.2349
X50.0773 Y0.2378 Z-2.0015
X50.0629 Y0.2420 Z-2.0042
X50.0483 Y0.2453 Z-2.0068
X50.0336 Y0.2477 Z-2.0094
X50.0187 Y0.2493 Z-2.0121
X50.0037 Y0.2500 Z-2.0147
X49.9888 Y0.2497 Z-2.0173
X49.9739 Y0.2486 Z-2.0200
X49.9590 Y0.2466 Z-2.0226
X49.9444 Y0.2437 Z-2.0253
X49.9299 Y0.2400 Z-2.0279
X49.9157 Y0.2353 Z-2.0305
X49.9017 Y0.2299 Z-2.0332
X49.8882 Y0.2236 Z-2.0358
X49.8750 Y0.2165 Z-2.0384
X49.8623 Y0.2086 Z-2.0411
X49.8500 Y0.2000 Z-2.0437
X49.8383 Y0.1907 Z-2.0464
X49.8272 Y0.1807 Z-2.0490
X49.8167 Y0.1700 Z-2.0516
X49.8069 Y0.1588 Z-2.0543
X49.7977 Y0.1469 Z-2.0569
X49.7893 Y0.1346 Z-2.0595
X49.7816 Y0.1217 Z-2.0622
X49.7748 Y0.1085 Z-2.0648
X49.7687 Y0.0948 Z-2.0675
X49.7634 Y0.0808 Z-2.0701
X49.7590 Y0.0665 Z-2.0727
X49.7555 Y0.0520 Z-2.0754
X49.7528 Y0.0373 Z-2.0780
X49.7510 Y0.0224 Z-2.0806
X49.7501 Y0.0075 Z-2.0833
Y-0.0075 Z-2.0859
X49.7510 Y-0.0224 Z-2.0886
X49.7528 Y-0.0373 Z-2.0912
X49.7555 Y-0.0520 Z-2.0938
X49.7590 Y-0.0665 Z-2.0965
X49.7634 Y-0.0808 Z-2.0991
X49.7687 Y-0.0948 Z-2.1017
X49.7748 Y-0.1085 Z-2.1044
X49.7816 Y-0.1217 Z-2.1070
X49.7893 Y-0.1346 Z-2.1097
X49.7977 Y-0.1469 Z-2.1123
X49.8069 Y-0.1588 Z-2.1149
X49.8167 Y-0.1700 Z-2.1176
X49.8272 Y-0.1807 Z-2.1202
X49.8383 Y-0.1907 Z-2.1228
X49.8500 Y-0.2000 Z-2.1255
X49.8623 Y-0.2086 Z-2.1281
X49.8750 Y-0.2165 Z-2.1308
X49.8882 Y-0.2236 Z-2.1334
X49.9017 Y-0.2299 Z-2.1360
X49.9157 Y-0.2353 Z-2.1387
X49.9299 Y-0.2400 Z-2.1413
X49.9444 Y-0.2437 Z-2.1439
X49.9590 Y-0.2466 Z-2.1466
X49.9739 Y-0.2486 Z-2.1492
X49.9888 Y-0.2497 Z-2.1519
X50.0037 Y-0.2500 Z-2.1545
X50.0187 Y-0.2493 Z-2.1571
X50.0336 Y-0.2477 Z-2.1598
X50.0483 Y-0.2453 Z-2.1624
X50.0629 Y-0.2420 Z-2.1650
X50.0773 Y-0.2378 Z-2.1677
X50.0913 Y-0.2327 Z-2.1703
X50.1051 Y-0.2268 Z-2.1730
X50.1185 Y-0.2201 Z-2.1756
X50.1314 Y-0.2127 Z-2.1782
X50.1439 Y-0.2044 Z-2.1809
X50.1559 Y-0.1955 Z-2.1835
X50.1673 Y-0.1858 Z-2.1861
X50.1781 Y-0.1754 Z-2.1888
X50.1883 Y-0.1645 Z-2.1914
X50.1978 Y-0.1529 Z-2.1941
X50.2066 Y-0.1408 Z-2.1967
X50.2146 Y-0.1282 Z-2.1993
X50.2219 Y-0.1152 Z-2.2020
X50.2284 Y-0.1017 Z-2.2046
X50.2341 Y-0.0878 Z-2.2072
X50.2389 Y-0.0737 Z-2.2099
X50.2429 Y-0.0593 Z-2.2125
X50.2460 Y-0.0446 Z-2.2152
X50.2482 Y-0.0298 Z-2.2178
X50.2496 Y-0.0150 Z-2.2204
X50.2500 Y0.0000 Z-2.2231
X50.2496 Y0.0150 Z-2.2257
X50.2482 Y0.0298 Z-2.2283
X50.2460 Y0.0446 Z-2.2310
X50.2429 Y0.0593 Z-2.2336
X50.2389 Y0.0737 Z-2.2363
X50.2341 Y0.0878 Z-2.2389
X50.2284 Y0.1017 Z-2.2415
X50.2219 Y0.1152 Z-2.2442
X50.2146 Y0.1282 Z-2.2468
X50.2066 Y0.1408 Z-2.2494
X50.1978 Y0.1529 Z-2.2521
X50.1883 Y0.1645 Z-2.2547
X50.1781 Y0.1754 Z-2.2574
X50.1673 Y0.1858 Z-2.2600
X50.1559 Y0.1955 Z-2.2626
X50.1439 Y0.2044 Z-2.2653
X50.1314 Y0.2127 Z-2.2679
X50.1185 Y0.2201 Z-2.2705
X50.1051 Y0.2268 Z-2.2732
X50.0913 Y0.2327 Z-2.2758
X50.0773 Y0.2378 Z-2.2785
X50.0629 Y0.2420 Z-2.2811
X50.0483 Y0.2453 Z-2.2837
X50.0336 Y0.2477 Z-2.2864
X50.0187 Y0.2493 Z-2.2890
X50.0037 Y0.2500 Z-2.2916
X49.9888 Y0.2497 Z-2.2943
X49.9739 Y0.2486 Z-2.2969
X49.9590 Y0.2466 Z-2.2996
X49.9444 Y0.2437 Z-2.3022
X49.9299 Y0.2400 Z-2.3048
X49.9157 Y0.2353 Z-2.3075
X49.9017 Y0.2299 Z-2.3101
X49.8882 Y0.2236 Z-2.3127
X49.8750 Y0.2165 Z-2.3154
X49.8623 Y0.2086 Z-2.3180
X49.8500 Y0.2000 Z-2.3207
X49.8383 Y0.1907 Z-2.3233
X49.8272 Y0.1807 Z-2.3259
X49.8167 Y0.1700 Z-2.3286
X49.8069 Y0.1588 Z-2.3312
X49.7977 Y0.1469 Z-2.3338
X49.7893 Y0.1346 Z-2.3365
X49.7816 Y0.1217 Z-2.3391
X49.7748 Y0.1085 Z-2.3418
X49.7687 Y0.0948 Z-2.3444
X49.7634 Y0.0808 Z-2.3470
X49.7590 Y0.0665 Z-2.3497
X49.7555 Y0.0520 Z-2.3523
X49.7528 Y0.0373 Z-2.3549
X49.7510 Y0.0224 Z-2.3576
X49.7501 Y0.0075 Z-2.3602
Y-0.0075 Z-2.3629
X49.7510 Y-0.0224 Z-2.3655
X49.7528 Y-0.0373 Z-2.3681
X49.7555 Y-0.0520 Z-2.3708
X49.7590 Y-0.0665 Z-2.3734
X49.7634 Y-0.0808 Z-2.3760
X49.7687 Y-0.0948 Z-2.3787
X49.7748 Y-0.1085 Z-2.3813
X49.7816 Y-0.1217 Z-2.3840
X49.7893 Y-0.1346 Z-2.3866
X49.7977 Y-0.1469 Z-2.3892
X49.8069 Y-0.1588 Z-2.3919
X49.8167 Y-0.1700 Z-2.3945
X49.8272 Y-0.1807 Z-2.3971
X49.8383 Y-0.1907 Z-2.3998
X49.8500 Y-0.2000 Z-2.4024
X49.8623 Y-0.2086 Z-2.4051
X49.8750 Y-0.2165 Z-2.4077
X49.8882 Y-0.2236 Z-2.4103
X49.9017 Y-0.2299 Z-2.4130
X49.9157 Y-0.2353 Z-2.4156
X49.9299 Y-0.2400 Z-2.4182
X49.9444 Y-0.2437 Z-2.4209
X49.9590 Y-0.2466 Z-2.4235
X49.9739 Y-0.2486 Z-2.4262
X49.9888 Y-0.2497 Z-2.4288
X50.0037 Y-0.2500 Z-2.4314
X50.0187 Y-0.2493 Z-2.4341
X50.0336 Y-0.2477 Z-2.4367
X50.0483 Y-0.2453 Z-2.4393
X50.0629 Y-0.2420 Z-2.4420
X50.0773 Y-0.2378 Z-2.4446
X50.0913 Y-0.2327 Z-2.4473
X50.1051 Y-0.2268 Z-2.4499
X50.1185 Y-0.2201 Z-2.4525
X50.1314 Y-0.2127 Z-2.4552
X50.1439 Y-0.2044 Z-2.4578
X50.1559 Y-0.1955 Z-2.4604
X50.1673 Y-0.1858 Z-2.4631
X50.1781 Y-0.1754 Z-2.4657
X50.1883 Y-0.1645 Z-2.4684
X50.1978 Y-0.1529 Z-2.4710
X50.2066 Y-0.1408 Z-2.4736
X50.2146 Y-0.1282 Z-2.4763
X50.2219 Y-0.1152 Z-2.4789
X50.2284 Y-0.1017 Z-2.4815
X50.2341 Y-0.0878 Z-2.4842
X50.2389 Y-0.0737 Z-2.4868
X50.2429 Y-0.0593 Z-2.4895
X50.2460 Y-0.0446 Z-2.4921
X50.2482 Y-0.0298 Z-2.4947
X50.2496 Y-0.0150 Z-2.4974
X50.2500 Y0.0000 Z-2.5000
X50.0854 Y0.2349
X50.0773 Y0.2378 Z-2.5015
X50.0629 Y0.2420 Z-2.5042
X50.0483 Y0.2453 Z-2.5068
X50.0336 Y0.2477 Z-2.5094
X50.0187 Y0.2493 Z-2.5121
X50.0037 Y0.2500 Z-2.5147
X49.9888 Y0.2497 Z-2.5173
X49.9739 Y0.2486 Z-2.5200
X49.9590 Y0.2466 Z-2.5226
X49.9444 Y0.2437 Z-2.5253
X49.9299 Y0.2400 Z-2.5279
X49.9157 Y0.2353 Z-2.5305
X49.9017 Y0.2299 Z-2.5332
X49.8882 Y0.2236 Z-2.5358
X49.8750 Y0.2165 Z-2.5384
X49.8623 Y0.2086 Z-2.5411
X49.8500 Y0.2000 Z-2.5437
X49.8383 Y0.1907 Z-2.5464
X49.8272 Y0.1807 Z-2.5490
X49.8167 Y0.1700 Z-2.5516
X49.8069 Y0.1588 Z-2.5543
X49.7977 Y0.1469 Z-2.5569
X49.7893 Y0.1346 Z-2.5595
X49.7816 Y0.1217 Z-2.5622
X49.7748 Y0.1085 Z-2.5648
X49.7687 Y0.0948 Z-2.5675
X49.7634 Y0.0808 Z-2.5701
X49.7590 Y0.0665 Z-2.5727
X49.7555 Y0.0520 Z-2.5754
X49.7528 Y0.0373 Z-2.5780
X49.7510 Y0.0224 Z-2.5806
X49.7501 Y0.0075 Z-2.5833
Y-0.0075 Z-2.5859
X49.7510 Y-0.0224 Z-2.5886
X49.7528 Y-0.0373 Z-2.5912
X49.7555 Y-0.0520 Z-2.5938
X49.7590 Y-0.0665 Z-2.5965
X49.7634 Y-0.0808 Z-2.5991
X49.7687 Y-0.0948 Z-2.6017
X49.7748 Y-0.1085 Z-2.6044
X49.7816 Y-0.1217 Z-2.6070
X49.7893 Y-0.1346 Z-2.6097
X49.7977 Y-0.1469 Z-2.6123
X49.8069 Y-0.1588 Z-2.6149
X49.8167 Y-0.1700 Z-2.6176
X49.8272 Y-0.1807 Z-2.6202
X49.8383 Y-0.1907 Z-2.6228
X49.8500 Y-0.2000 Z-2.6255
X49.8623 Y-0.2086 Z-2.6281
X49.8750 Y-0.2165 Z-2.6308
X49.8882 Y-0.2236 Z-2.6334
X49.9017 Y-0.2299 Z-2.6360
X49.9157 Y-0.2353 Z-2.6387
X49.9299 Y-0.2400 Z-2.6413
X49.9444 Y-0.2437 Z-2.6439
X49.9590 Y-0.2466 Z-2.6466
X49.9739 Y-0.2486 Z-2.6492
X49.9888 Y-0.2497 Z-2.6519
X50.0037 Y-0.2500 Z-2.6545
X50.0187 Y-0.2493 Z-2.6571
X50.0336 Y-0.2477 Z-2.6598
X50.0483 Y-0.2453 Z-2.6624
X50.0629 Y-0.2420 Z-2.6650
X50.0773 Y-0.2378 Z-2.6677
X50.0913 Y-0.2327 Z-2.6703
X50.1051 Y-0.2268 Z-2.6730
X50.1185 Y-0.2201 Z-2.6756
X50.1314 Y-0.2127 Z-2.6782
X50.1439 Y-0.2044 Z-2.6809
X50.1559 Y-0.1955 Z-2.6835
X50.1673 Y-0.1858 Z-2.6861
X50.1781 Y-0.1754 Z-2.6888
X50.1883 Y-0.1645 Z-2.6914
X50.1978 Y-0.1529 Z-2.6941
X50.2066 Y-0.1408 Z-2.6967
X50.2146 Y-0.1282 Z-2.6993
X50.2219 Y-0.1152 Z-2.7020
X50.2284 Y-0.1017 Z-2.7046
X50.2341 Y-0.0878 Z-2.7072
X50.2389 Y-0.0737 Z-2.7099
X50.2429 Y-0.0593 Z-2.7125
X50.2460 Y-0.0446 Z-2.7152
X50.2482 Y-0.0298 Z-2.7178
X50.2496 Y-0.0150 Z-2.7204
X50.2500 Y0.0000 Z-2.7231
X50.2496 Y0.0150 Z-2.7257
X50.2482 Y0.0298 Z-2.7283
X50.2460 Y0.0446 Z-2.7310
X50.2429 Y0.0593 Z-2.7336
X50.2389 Y0.0737 Z-2.7363
X50.2341 Y0.0878 Z-2.7389
X50.2284 Y0.1017 Z-2.7415
X50.2219 Y0.1152 Z-2.7442
X50.2146 Y0.1282 Z-2.7468
X50.2066 Y0.1408 Z-2.7494
X50.1978 Y0.1529 Z-2.7521
X50.1883 Y0.1645 Z-2.7547
X50.1781 Y0.1754 Z-2.7574
X50.1673 Y0.1858 Z-2.7600
X50.1559 Y0.1955 Z-2.7626
X50.1439 Y0.2044 Z-2.7653
X50.1314 Y0.2127 Z-2.7679
X50.1185 Y0.2201 Z-2.7705
X50.1051 Y0.2268 Z-2.7732
X50.0913 Y0.2327 Z-2.7758
X50.0773 Y0.2378 Z-2.7785
X50.0629 Y0.2420 Z-2.7811
X50.0483 Y0.2453 Z-2.7837
X50.0336 Y0.2477 Z-2.7864
X50.0187 Y0.2493 Z-2.7890
X50.0037 Y0.2500 Z-2.7916
X49.9888 Y0.2497 Z-2.7943
X49.9739 Y0.2486 Z-2.7969
X49.9590 Y0.2466 Z-2.7996
X49.9444 Y0.2437 Z-2.8022
X49.9299 Y0.2400 Z-2.8048
X49.9157 Y0.2353 Z-2.8075
X49.9017 Y0.2299 Z-2.8101
X49.8882 Y0.2236 Z-2.8127
X49.8750 Y0.2165 Z-2.8154
X49.8623 Y0.2086 Z-2.8180
X49.8500 Y0.2000 Z-2.8207
X49.8383 Y0.1907 Z-2.8233
X49.8272 Y0.1807 Z-2.8259
X49.8167 Y0.1700 Z-2.8286
X49.8069 Y0.1588 Z-2.8312
X49.7977 Y0.1469 Z-2.8338
X49.7893 Y0.1346 Z-2.8365
X49.7816 Y0.1217 Z-2.8391
X49.7748 Y0.1085 Z-2.8418
X49.7687 Y0.0948 Z-2.8444
X49.7634 Y0.0808 Z-2.8470
X49.7590 Y0.0665 Z-2.8497
X49.7555 Y0.0520 Z-2.8523
X49.7528 Y0.0373 Z-2.8549
X49.7510 Y0.0224 Z-2.8576
X49.7501 Y0.0075 Z-2.8602
Y-0.0075 Z-2.8629
X49.7510 Y-0.0224 Z-2.8655
X49.7528 Y-0.0373 Z-2.8681
X49.7555 Y-0.0520 Z-2.8708
X49.7590 Y-0.0665 Z-2.8734
X49.7634 Y-0.0808 Z-2.8760
X49.7687 Y-0.0948 Z-2.8787
X49.7748 Y-0.1085 Z-2.8813
X49.7816 Y-0.1217 Z-2.8840
X49.7893 Y-0.1346 Z-2.8866
X49.7977 Y-0.1469 Z-2.8892
X49.8069 Y-0.1588 Z-2.8919
X49.8167 Y-0.1700 Z-2.8945
X49.8272 Y-0.1807 Z-2.8971
X49.8383 Y-0.1907 Z-2.8998
X49.8500 Y-0.2000 Z-2.9024
X49.8623 Y-0.2086 Z-2.9051
X49.8750 Y-0.2165 Z-2.9077
X49.8882 Y-0.2236 Z-2.9103
X49.9017 Y-0.2299 Z-2.9130
X49.9157 Y-0.2353 Z-2.9156
X49.9299 Y-0.2400 Z-2.9182
X49.9444 Y-0.2437 Z-2.9209
X49.9590 Y-0.2466 Z-2.9235
X49.9739 Y-0.2486 Z-2.9262
X49.9888 Y-0.2497 Z-2.9288
X50.0037 Y-0.2500 Z-2.9314
X50.0187 Y-0.2493 Z-2.9341
X50.0336 Y-0.2477 Z-2.9367
X50.0483 Y-0.2453 Z-2.9393
X50.0629 Y-0.2420 Z-2.9420
X50.0773 Y-0.2378 Z-2.9446
X50.0913 Y-0.2327 Z-2.9473
X50.1051 Y-0.2268 Z-2.9499
X50.1185 Y-0.2201 Z-2.9525
X50.1314 Y-0.2127 Z-2.9552
X50.1439 Y-0.2044 Z-2.9578
X50.1559 Y-0.1955 Z-2.9604
X50.1673 Y-0.1858 Z-2.9631
X50.1781 Y-0.1754 Z-2.9657
X50.1883 Y-0.1645 Z-2.9684
X50.1978 Y-0.1529 Z-2.9710
X50.2066 Y-0.1408 Z-2.9736
X50.2146 Y-0.1282 Z-2.9763
X50.2219 Y-0.1152 Z-2.9789
X50.2284 Y-0.1017 Z-2.9815
X50.2341 Y-0.0878 Z-2.9842
X50.2389 Y-0.0737 Z-2.9868
X50.2429 Y-0.0593 Z-2.9895
X50.2460 Y-0.0446 Z-2.9921
X50.2482 Y-0.0298 Z-2.9947
X50.2496 Y-0.0150 Z-2.9974
X50.2500 Y0.0000 Z-3.0000
X50.0854 Y0.2349
X50.0773 Y0.2378 Z-3.0015
X50.0629 Y0.2420 Z-3.0042
X50.0483 Y0.2453 Z-3.0068
X50.0336 Y0.2477 Z-3.0094
X50.0187 Y0.2493 Z-3.0121
X50.0037 Y0.2500 Z-3.0147
X49.9888 Y0.2497 Z-3.0173
X49.9739 Y0.2486 Z-3.0200
X49.9590 Y0.2466 Z-3.0226
X49.9444 Y0.2437 Z-3.0253
X49.9299 Y0.2400 Z-3.0279
X49.9157 Y0.2353 Z-3.0305
X49.9017 Y0.2299 Z-3.0332
X49.8882 Y0.2236 Z-3.0358
X49.8750 Y0.2165 Z-3.0384
X49.8623 Y0.2086 Z-3.0411
X49.8500 Y0.2000 Z-3.0437
X49.8383 Y0.1907 Z-3.0464
X49.8272 Y0.1807 Z-3.0490
X49.8167 Y0.1700 Z-3.0516
X49.8069 Y0.1588 Z-3.0543
X49.7977 Y0.1469 Z-3.0569
X49.7893 Y0.1346 Z-3.0595
X49.7816 Y0.1217 Z-3.0622
X49.7748 Y0.1085 Z-3.0648
X49.7687 Y0.0948 Z-3.0675
X49.7634 Y0.0808 Z-3.0701
X49.7590 Y0.0665 Z-3.0727
X49.7555 Y0.0520 Z-3.0754
X49.7528 Y0.0373 Z-3.0780
X49.7510 Y0.0224 Z-3.0806
X49.7501 Y0.0075 Z-3.0833
Y-0.0075 Z-3.0859
X49.7510 Y-0.0224 Z-3.0886
X49.7528 Y-0.0373 Z-3.0912
X49.7555 Y-0.0520 Z-3.0938
X49.7590 Y-0.0665 Z-3.0965
X49.7634 Y-0.0808 Z-3.0991
X49.7687 Y-0.0948 Z-3.1017
X49.7748 Y-0.1085 Z-3.1044
X49.7816 Y-0.1217 Z-3.1070
X49.7893 Y-0.1346 Z-3.1097
X49.7977 Y-0.1469 Z-3.1123
X49.8069 Y-0.1588 Z-3.1149
X49.8167 Y-0.1700 Z-3.1176
X49.8272 Y-0.1807 Z-3.1202
X49.8383 Y-0.1907 Z-3.1228
X49.8500 Y-0.2000 Z-3.1255
X49.8623 Y-0.2086 Z-3.1281
X49.8750 Y-0.2165 Z-3.1308
X49.8882 Y-0.2236 Z-3.1334
X49.9017 Y-0.2299 Z-3.1360
X49.9157 Y-0.2353 Z-3.1387
X49.9299 Y-0.2400 Z-3.1413
X49.9444 Y-0.2437 Z-3.1439
X49.9590 Y-0.2466 Z-3.1466
X49.9739 Y-0.2486 Z-3.1492
X49.9888 Y-0.2497 Z-3.1519
X50.0037 Y-0.2500 Z-3.1545
X50.0187 Y-0.2493 Z-3.1571
X50.0336 Y-0.2477 Z-3.1598
X50.0483 Y-0.2453 Z-3.1624
X50.0629 Y-0.2420 Z-3.1650
X50.0773 Y-0.2378 Z-3.1677
X50.0913 Y-0.2327 Z-3.1703
X50.1051 Y-0.2268 Z-3.1730
X50.1185 Y-0.2201 Z-3.1756
X50.1314 Y-0.2127 Z-3.1782
X50.1439 Y-0.2044 Z-3.1809
X50.1559 Y-0.1955 Z-3.1835
X50.1673 Y-0.1858 Z-3.1861
X50.1781 Y-0.1754 Z-3.1888
X50.1883 Y-0.1645 Z-3.1914
X50.1978 Y-0.1529 Z-3.1941
X50.2066 Y-0.1408 Z-3.1967
X50.2146 Y-0.1282 Z-3.1993
X50.2219 Y-0.1152 Z-3.2020
X50.2284 Y-0.1017 Z-3.2046
X50.2341 Y-0.0878 Z-3.2072
X50.2389 Y-0.0737 Z-3.2099
X50.2429 Y-0.0593 Z-3.2125
X50.2460 Y-0.0446 Z-3.2152
X50.2482 Y-0.0298 Z-3.2178
X50.2496 Y-0.0150 Z-3.2204
X50.2500 Y0.0000 Z-3.2231
X50.2496 Y0.0150 Z-3.2257
X50.2482 Y0.0298 Z-3.2283
X50.2460 Y0.0446 Z-3.2310
X50.2429 Y0.0593 Z-3.2336
X50.2389 Y0.0737 Z-3.2363
X50.2341 Y0.0878 Z-3.2389
X50.2284 Y0.1017 Z-3.2415
X50.2219 Y0.1152 Z-3.2442
X50.2146 Y0.1282 Z-3.2468
X50.2066 Y0.1408 Z-3.2494
X50.1978 Y0.1529 Z-3.2521
X50.1883 Y0.1645 Z-3.2547
X50.1781 Y0.1754 Z-3.2574
X50.1673 Y0.1858 Z-3.2600
X50.1559 Y0.1955 Z-3.2626
X50.1439 Y0.2044 Z-3.2653
X50.1314 Y0.2127 Z-3.2679
X50.1185 Y0.2201 Z-3.2705
X50.1051 Y0.2268 Z-3.2732
X50.0913 Y0.2327 Z-3.2758
X50.0773 Y0.2378 Z-3.2785
X50.0629 Y0.2420 Z-3.2811
X50.0483 Y0.2453 Z-3.2837
X50.0336 Y0.2477 Z-3.2864
X50.0187 Y0.2493 Z-3.2890
X50.0037 Y0.2500 Z-3.2916
X49.9888 Y0.2497 Z-3.2943
X49.9739 Y0.2486 Z-3.2969
X49.9590 Y0.2466 Z-3.2996
X49.9444 Y0.2437 Z-3.3022
X49.9299 Y0.2400 Z-3.3048
X49.9157 Y0.2353 Z-3.3075
X49.9017 Y0.2299 Z-3.3101
X49.8882 Y0.2236 Z-3.3127
X49.8750 Y0.2165 Z-3.3154
X49.8623 Y0.2086 Z-3.3180
X49.8500 Y0.2000 Z-3.3207
X49.8383 Y0.1907 Z-3.3233
X49.8272 Y0.1807 Z-3.3259
X49.8167 Y0.1700 Z-3.3286
X49.8069 Y0.1588 Z-3.3312
X49.7977 Y0.1469 Z-3.3338
X49.7893 Y0.1346 Z-3.3365
X49.7816 Y0.1217 Z-3.3391
X49.7748 Y0.1085 Z-3.3418
X49.7687 Y0.0948 Z-3.3444
X49.7634 Y0.0808 Z-3.3470
X49.7590 Y0.0665 Z-3.3497
X49.7555 Y0.0520 Z-3.3523
X49.7528 Y0.0373 Z-3.3549
X49.7510 Y0.0224 Z-3.3576
X49.7501 Y0.0075 Z-3.3602
Y-0.0075 Z-3.3629
X49.7510 Y-0.0224 Z-3.3655
X49.7528 Y-0.0373 Z-3.3681
X49.7555 Y-0.0520 Z-3.3708
X49.7590 Y-0.0665 Z-3.3734
X49.7634 Y-0.0808 Z-3.3760
X49.7687 Y-0.0948 Z-3.3787
X49.7748 Y-0.1085 Z-3.3813
X49.7816 Y-0.1217 Z-3.3840
X49.7893 Y-0.1346 Z-3.3866
X49.7977 Y-0.1469 Z-3.3892
X49.8069 Y-0.1588 Z-3.3919
X49.8167 Y-0.1700 Z-3.3945
X49.8272 Y-0.1807 Z-3.3971
X49.8383 Y-0.1907 Z-3.3998
X49.8500 Y-0.2000 Z-3.4024
X49.8623 Y-0.2086 Z-3.4051
X49.8750 Y-0.2165 Z-3.4077
X49.8882 Y-0.2236 Z-3.4103
X49.9017 Y-0.2299 Z-3.4130
X49.9157 Y-0.2353 Z-3.4156
X49.9299 Y-0.2400 Z-3.4182
X49.9444 Y-0.2437 Z-3.4209
X49.9590 Y-0.2466 Z-3.4235
X49.9739 Y-0.2486 Z-3.4262
X49.9888 Y-0.2497 Z-3.4288
X50.0037 Y-0.2500 Z-3.4314
X50.0187 Y-0.2493 Z-3.4341
X50.0336 Y-0.2477 Z-3.4367
X50.0483 Y-0.2453 Z-3.4393
X50.0629 Y-0.2420 Z-3.4420
X50.0773 Y-0.2378 Z-3.4446
X50.0913 Y-0.2327 Z-3.4473
X50.1051 Y-0.2268 Z-3.4499
X50.1185 Y-0.2201 Z-3.4525
X50.1314 Y-0.2127 Z-3.4552
X50.1439 Y-0.2044 Z-3.4578
X50.1559 Y-0.1955 Z-3.4604
X50.1673 Y-0.1858 Z-3.4631
X50.1781 Y-0.1754 Z-3.4657
X50.1883 Y-0.1645 Z-3.4684
X50.1978 Y-0.1529 Z-3.4710
X50.2066 Y-0.1408 Z-3.4736
X50.2146 Y-0.1282 Z-3.4763
X50.2219 Y-0.1152 Z-3.4789
X50.2284 Y-0.1017 Z-3.4815
X50.2341 Y-0.0878 Z-3.4842
X50.2389 Y-0.0737 Z-3.4868
X50.2429 Y-0.0593 Z-3.4895
X50.2460 Y-0.0446 Z-3.4921
X50.2482 Y-0.0298 Z-3.4947
X50.2496 Y-0.0150 Z-3.4974
X50.2500 Y0.0000 Z-3.5000
X50.0854 Y0.2349
X50.0773 Y0.2378 Z-3.5015
X50.0629 Y0.2420 Z-3.5042
X50.0483 Y0.2453 Z-3.5068
X50.0336 Y0.2477 Z-3.5094
X50.0187 Y0.2493 Z-3.5121
X50.0037 Y0.2500 Z-3.5147
X49.9888 Y0.2497 Z-3.5173
X49.9739 Y0.2486 Z-3.5200
X49.9590 Y0.2466 Z-3.5226
X49.9444 Y0.2437 Z-3.5253
X49.9299 Y0.2400 Z-3.5279
X49.9157 Y0.2353 Z-3.5305
X49.9017 Y0.2299 Z-3.5332
X49.8882 Y0.2236 Z-3.5358
X49.8750 Y0.2165 Z-3.5384
X49.8623 Y0.2086 Z-3.5411
X49.8500 Y0.2000 Z-3.5437
X49.8383 Y0.1907 Z-3.5464
X49.8272 Y0.1807 Z-3.5490
X49.8167 Y0.1700 Z-3.5516
X49.8069 Y0.1588 Z-3.5543
X49.7977 Y0.1469 Z-3.5569
X49.7893 Y0.1346 Z-3.5595
X49.7816 Y0.1217 Z-3.5622
X49.7748 Y0.1085 Z-3.5648
X49.7687 Y0.0948 Z-3.5675
X49.7634 Y0.0808 Z-3.5701
X49.7590 Y0.0665 Z-3.5727
X49.7555 Y0.0520 Z-3.5754
X49.7528 Y0.0373 Z-3.5780
X49.7510 Y0.0224 Z-3.5806
X49.7501 Y0.0075 Z-3.5833
Y-0.0075 Z-3.5859
X49.7510 Y-0.0224 Z-3.5886
X49.7528 Y-0.0373 Z-3.5912
X49.7555 Y-0.0520 Z-3.5938
X49.7590 Y-0.0665 Z-3.5965
X49.7634 Y-0.0808 Z-3.5991
X49.7687 Y-0.0948 Z-3.6017
X49.7748 Y-0.1085 Z-3.6044
X49.7816 Y-0.1217 Z-3.6070
X49.7893 Y-0.1346 Z-3.6097
X49.7977 Y-0.1469 Z-3.6123
X49.8069 Y-0.1588 Z-3.6149
X49.8167 Y-0.1700 Z-3.6176
X49.8272 Y-0.1807 Z-3.6202
X49.8383 Y-0.1907 Z-3.6228
X49.8500 Y-0.2000 Z-3.6255
X49.8623 Y-0.2086 Z-3.6281
X49.8750 Y-0.2165 Z-3.6308
X49.8882 Y-0.2236 Z-3.6334
X49.9017 Y-0.2299 Z-3.6360
X49.9157 Y-0.2353 Z-3.6387
X49.9299 Y-0.2400 Z-3.6413
X49.9444 Y-0.2437 Z-3.6439
X49.9590 Y-0.2466 Z-3.6466
X49.9739 Y-0.2486 Z-3.6492
X49.9888 Y-0.2497 Z-3.6519
X50.0037 Y-0.2500 Z-3.6545
X50.0187 Y-0.2493 Z-3.6571
X50.0336 Y-0.2477 Z-3.6598
X50.0483 Y-0.2453 Z-3.6624
X50.0629 Y-0.2420 Z-3.6650
X50.0773 Y-0.2378 Z-3.6677
X50.0913 Y-0.2327 Z-3.6703
X50.1051 Y-0.2268 Z-3.6730
X50.1185 Y-0.2201 Z-3.6756
X50.1314 Y-0.2127 Z-3.6782
X50.1439 Y-0.2044 Z-3.6809
X50.1559 Y-0.1955 Z-3.6835
X50.1673 Y-0.1858 Z-3.6861
X50.1781 Y-0.1754 Z-3.6888
X50.1883 Y-0.1645 Z-3.6914
X50.1978 Y-0.1529 Z-3.6941
X50.2066 Y-0.1408 Z-3.6967
X50.2146 Y-0.1282 Z-3.6993
X50.2219 Y-0.1152 Z-3.7020
X50.2284 Y-0.1017 Z-3.7046
X50.2341 Y-0.0878 Z-3.7072
X50.2389 Y-0.0737 Z-3.7099
X50.2429 Y-0.0593 Z-3.7125
X50.2460 Y-0.0446 Z-3.7152
X50.2482 Y-0.0298 Z-3.7178
X50.2496 Y-0.0150 Z-3.7204
X50.2500 Y0.0000 Z-3.7231
X50.2496 Y0.0150 Z-3.7257
X50.2482 Y0.0298 Z-3.7283
X50.2460 Y0.0446 Z-3.7310
X50.2429 Y0.0593 Z-3.7336
X50.2389 Y0.0737 Z-3.7363
X50.2341 Y0.0878 Z-3.7389
X50.2284 Y0.1017 Z-3.7415
X50.2219 Y0.1152 Z-3.7442
X50.2146 Y0.1282 Z-3.7468
X50.2066 Y0.1408 Z-3.7494
X50.1978 Y0.1529 Z-3.7521
X50.1883 Y0.1645 Z-3.7547
X50.1781 Y0.1754 Z-3.7574
X50.1673 Y0.1858 Z-3.7600
X50.1559 Y0.1955 Z-3.7626
X50.1439 Y0.2044 Z-3.7653
X50.1314 Y0.2127 Z-3.7679
X50.1185 Y0.2201 Z-3.7705
X50.1051 Y0.2268 Z-3.7732
X50.0913 Y0.2327 Z-3.7758
X50.0773 Y0.2378 Z-3.7785
X50.0629 Y0.2420 Z-3.7811
X50.0483 Y0.2453 Z-3.7837
X50.0336 Y0.2477 Z-3.7864
X50.0187 Y0.2493 Z-3.7890
X50.0037 Y0.2500 Z-3.7916
X49.9888 Y0.2497 Z-3.7943
X49.9739 Y0.2486 Z-3.7969
X49.9590 Y0.2466 Z-3.7996
X49.9444 Y0.2437 Z-3.8022
X49.9299 Y0.2400 Z-3.8048
X49.9157 Y0.2353 Z-3.8075
X49.9017 Y0.2299 Z-3.8101
X49.8882 Y0.2236 Z-3.8127
X49.8750 Y0.2165 Z-3.8154
X49.8623 Y0.2086 Z-3.8180
X49.8500 Y0.2000 Z-3.8207
X49.8383 Y0.1907 Z-3.8233
X49.8272 Y0.1807 Z-3.8259
X49.8167 Y0.1700 Z-3.8286
X49.8069 Y0.1588 Z-3.8312
X49.7977 Y0.1469 Z-3.8338
X49.7893 Y0.1346 Z-3.8365
X49.7816 Y0.1217 Z-3.8391
X49.7748 Y0.1085 Z-3.8418
X49.7687 Y0.0948 Z-3.8444
X49.7634 Y0.0808 Z-3.8470
X49.7590 Y0.0665 Z-3.8497
X49.7555 Y0.0520 Z-3.8523
X49.7528 Y0.0373 Z-3.8549
X49.7510 Y0.0224 Z-3.8576
X49.7501 Y0.0075 Z-3.8602
Y-0.0075 Z-3.8629
X49.7510 Y-0.0224 Z-3.8655
X49.7528 Y-0.0373 Z-3.8681
X49.7555 Y-0.0520 Z-3.8708
X49.7590 Y-0.0665 Z-3.8734
X49.7634 Y-0.0808 Z-3.8760
X49.7687 Y-0.0948 Z-3.8787
X49.7748 Y-0.1085 Z-3.8813
X49.7816 Y-0.1217 Z-3.8840
X49.7893 Y-0.1346 Z-3.8866
X49.7977 Y-0.1469 Z-3.8892
X49.8069 Y-0.1588 Z-3.8919
X49.8167 Y-0.1700 Z-3.8945
X49.8272 Y-0.1807 Z-3.8971
X49.8383 Y-0.1907 Z-3.8998
X49.8500 Y-0.2000 Z-3.9024
X49.8623 Y-0.2086 Z-3.9051
X49.8750 Y-0.2165 Z-3.9077
X49.8882 Y-0.2236 Z-3.9103
X49.9017 Y-0.2299 Z-3.9130
X49.9157 Y-0.2353 Z-3.9156
X49.9299 Y-0.2400 Z-3.9182
X49.9444 Y-0.2437 Z-3.9209
X49.9590 Y-0.2466 Z-3.9235
X49.9739 Y-0.2486 Z-3.9262
X49.9888 Y-0.2497 Z-3.9288
X50.0037 Y-0.2500 Z-3.9314
X50.0187 Y-0.2493 Z-3.9341
X50.0336 Y-0.2477 Z-3.9367
X50.0483 Y-0.2453 Z-3.9393
X50.0629 Y-0.2420 Z-3.9420
X50.0773 Y-0.2378 Z-3.9446
X50.0913 Y-0.2327 Z-3.9473
X50.1051 Y-0.2268 Z-3.9499
X50.1185 Y-0.2201 Z-3.9525
X50.1314 Y-0.2127 Z-3.9552
X50.1439 Y-0.2044 Z-3.9578
X50.1559 Y-0.1955 Z-3.9604
X50.1673 Y-0.1858 Z-3.9631
X50.1781 Y-0.1754 Z-3.9657
X50.1883 Y-0.1645 Z-3.9684
X50.1978 Y-0.1529 Z-3.9710
X50.2066 Y-0.1408 Z-3.9736
X50.2146 Y-0.1282 Z-3.9763
X50.2219 Y-0.1152 Z-3.9789
X50.2284 Y-0.1017 Z-3.9815
X50.2341 Y-0.0878 Z-3.9842
X50.2389 Y-0.0737 Z-3.9868
X50.2429 Y-0.0593 Z-3.9895
X50.2460 Y-0.0446 Z-3.9921
X50.2482 Y-0.0298 Z-3.9947
X50.2496 Y-0.0150 Z-3.9974
X50.2500 Y0.0000 Z-4.0000
X50.0854 Y0.2349
X50.0773 Y0.2378 Z-4.0015
X50.0629 Y0.2420 Z-4.0042
X50.0483 Y0.2453 Z-4.0068
X50.0336 Y0.2477 Z-4.0094
X50.0187 Y0.2493 Z-4.0121
X50.0037 Y0.2500 Z-4.0147
X49.9888 Y0.2497 Z-4.0173
X49.9739 Y0.2486 Z-4.0200
X49.9590 Y0.2466 Z-4.0226
X49.9444 Y0.2437 Z-4.0253
X49.9299 Y0.2400 Z-4.0279
X49.9157 Y0.2353 Z-4.0305
X49.9017 Y0.2299 Z-4.0332
X49.8882 Y0.2236 Z-4.0358
X49.8750 Y0.2165 Z-4.0384
X49.8623 Y0.2086 Z-4.0411
X49.8500 Y0.2000 Z-4.0437
X49.8383 Y0.1907 Z-4.0464
X49.8272 Y0.1807 Z-4.0490
X49.8167 Y0.1700 Z-4.0516
X49.8069 Y0.1588 Z-4.0543
X49.7977 Y0.1469 Z-4.0569
X49.7893 Y0.1346 Z-4.0595
X49.7816 Y0.1217 Z-4.0622
X49.7748 Y0.1085 Z-4.0648
X49.7687 Y0.0948 Z-4.0675
X49.7634 Y0.0808 Z-4.0701
X49.7590 Y0.0665 Z-4.0727
X49.7555 Y0.0520 Z-4.0754
X49.7528 Y0.0373 Z-4.0780
X49.7510 Y0.0224 Z-4.0806
X49.7501 Y0.0075 Z-4.0833
Y-0.0075 Z-4.0859
X49.7510 Y-0.0224 Z-4.0886
X49.7528 Y-0.0373 Z-4.0912
X49.7555 Y-0.0520 Z-4.0938
X49.7590 Y-0.0665 Z-4.0965
X49.7634 Y-0.0808 Z-4.0991
X49.7687 Y-0.0948 Z-4.1017
X49.7748 Y-0.1085 Z-4.1044
X49.7816 Y-0.1217 Z-4.1070
X49.7893 Y-0.1346 Z-4.1097
X49.7977 Y-0.1469 Z-4.1123
X49.8069 Y-0.1588 Z-4.1149
X49.8167 Y-0.1700 Z-4.1176
X49.8272 Y-0.1807 Z-4.1202
X49.8383 Y-0.1907 Z-4.1228
X49.8500 Y-0.2000 Z-4.1255
X49.8623 Y-0.2086 Z-4.1281
X49.8750 Y-0.2165 Z-4.1308
X49.8882 Y-0.2236 Z-4.1334
X49.9017 Y-0.2299 Z-4.1360
X49.9157 Y-0.2353 Z-4.1387
X49.9299 Y-0.2400 Z-4.1413
X49.9444 Y-0.2437 Z-4.1439
X49.9590 Y-0.2466 Z-4.1466
X49.9739 Y-0.2486 Z-4.1492
X49.9888 Y-0.2497 Z-4.1519
X50.0037 Y-0.2500 Z-4.1545
X50.0187 Y-0.2493 Z-4.1571
X50.0336 Y-0.2477 Z-4.1598
X50.0483 Y-0.2453 Z-4.1624
X50.0629 Y-0.2420 Z-4.1650
X50.0773 Y-0.2378 Z-4.1677
X50.0913 Y-0.2327 Z-4.1703
X50.1051 Y-0.2268 Z-4.1730
X50.1185 Y-0.2201 Z-4.1756
X50.1314 Y-0.2127 Z-4.1782
X50.1439 Y-0.2044 Z-4.1809
X50.1559 Y-0.1955 Z-4.1835
X50.1673 Y-0.1858 Z-4.1861
X50.1781 Y-0.1754 Z-4.1888
X50.1883 Y-0.1645 Z-4.1914
X50.1978 Y-0.1529 Z-4.1941
X50.2066 Y-0.1408 Z-4.1967
X50.2146 Y-0.1282 Z-4.1993
X50.2219 Y-0.1152 Z-4.2020
X50.2284 Y-0.1017 Z-4.2046
X50.2341 Y-0.0878 Z-4.2072
X50.2389 Y-0.0737 Z-4.2099
X50.2429 Y-0.0593 Z-4.2125
X50.2460 Y-0.0446 Z-4.2152
X50.2482 Y-0.0298 Z-4.2178
X50.2496 Y-0.0150 Z-4.2204
X50.2500 Y0.0000 Z-4.2231
X50.2496 Y0.0150 Z-4.2257
X50.2482 Y0.0298 Z-4.2283
X50.2460 Y0.0446 Z-4.2310
X50.2429 Y0.0593 Z-4.2336
X50.2389 Y0.0737 Z-4.2363
X50.2341 Y0.0878 Z-4.2389
X50.2284 Y0.1017 Z-4.2415
X50.2219 Y0.1152 Z-4.2442
X50.2146 Y0.1282 Z-4.2468
X50.2066 Y0.1408 Z-4.2494
X50.1978 Y0.1529 Z-4.2521
X50.1883 Y0.1645 Z-4.2547
X50.1781 Y0.1754 Z-4.2574
X50.1673 Y0.1858 Z-4.2600
X50.1559 Y0.1955 Z-4.2626
X50.1439 Y0.2044 Z-4.2653
X50.1314 Y0.2127 Z-4.2679
X50.1185 Y0.2201 Z-4.2705
X50.1051 Y0.2268 Z-4.2732
X50.0913 Y0.2327 Z-4.2758
X50.0773 Y0.2378 Z-4.2785
X50.0629 Y0.2420 Z-4.2811
X50.0483 Y0.2453 Z-4.2837
X50.0336 Y0.2477 Z-4.2864
X50.0187 Y0.2493 Z-4.2890
X50.0037 Y0.2500 Z-4.2916
X49.9888 Y0.2497 Z-4.2943
X49.9739 Y0.2486 Z-4.2969
X49.9590 Y0.2466 Z-4.2996
X49.9444 Y0.2437 Z-4.3022
X49.9299 Y0.2400 Z-4.3048
X49.9157 Y0.2353 Z-4.3075
X49.9017 Y0.2299 Z-4.3101
X49.8882 Y0.2236 Z-4.3127
X49.8750 Y0.2165 Z-4.3154
X49.8623 Y0.2086 Z-4.3180
X49.8500 Y0.2000 Z-4.3207
X49.8383 Y0.1907 Z-4.3233
X49.8272 Y0.1807 Z-4.3259
X49.8167 Y0.1700 Z-4.3286
X49.8069 Y0.1588 Z-4.3312
X49.7977 Y0.1469 Z-4.3338
X49.7893 Y0.1346 Z-4.3365
X49.7816 Y0.1217 Z-4.3391
X49.7748 Y0.1085 Z-4.3418
X49.7687 Y0.0948 Z-4.3444
X49.7634 Y0.0808 Z-4.3470
X49.7590 Y0.0665 Z-4.3497
X49.7555 Y0.0520 Z-4.3523
X49.7528 Y0.0373 Z-4.3549
X49.7510 Y0.0224 Z-4.3576
X49.7501 Y0.0075 Z-4.3602
Y-0.0075 Z-4.3629
X49.7510 Y-0.0224 Z-4.3655
X49.7528 Y-0.0373 Z-4.3681
X49.7555 Y-0.0520 Z-4.3708
X49.7590 Y-0.0665 Z-4.3734
X49.7634 Y-0.0808 Z-4.3760
X49.7687 Y-0.0948 Z-4.3787
X49.7748 Y-0.1085 Z-4.3813
X49.7816 Y-0.1217 Z-4.3840
X49.7893 Y-0.1346 Z-4.3866
X49.7977 Y-0.1469 Z-4.3892
X49.8069 Y-0.1588 Z-4.3919
X49.8167 Y-0.1700 Z-4.3945
X49.8272 Y-0.1807 Z-4.3971
X49.8383 Y-0.1907 Z-4.3998
X49.8500 Y-0.2000 Z-4.4024
X49.8623 Y-0.2086 Z-4.4051
X49.8750 Y-0.2165 Z-4.4077
X49.8882 Y-0.2236 Z-4.4103
X49.9017 Y-0.2299 Z-4.4130
X49.9157 Y-0.2353 Z-4.4156
X49.9299 Y-0.2400 Z-4.4182
X49.9444 Y-0.2437 Z-4.4209
X49.9590 Y-0.2466 Z-4.4235
X49.9739 Y-0.2486 Z-4.4262
X49.9888 Y-0.2497 Z-4.4288
X50.0037 Y-0.2500 Z-4.4314
X50.0187 Y-0.2493 Z-4.4341
X50.0336 Y-0.2477 Z-4.4367
X50.0483 Y-0.2453 Z-4.4393
X50.0629 Y-0.2420 Z-4.4420
X50.0773 Y-0.2378 Z-4.4446
X50.0913 Y-0.2327 Z-4.4473
X50.1051 Y-0.2268 Z-4.4499
X50.1185 Y-0.2201 Z-4.4525
X50.1314 Y-0.2127 Z-4.4552
X50.1439 Y-0.2044 Z-4.4578
X50.1559 Y-0.1955 Z-4.4604
X50.1673 Y-0.1858 Z-4.4631
X50.1781 Y-0.1754 Z-4.4657
X50.1883 Y-0.1645 Z-4.4684
X50.1978 Y-0.1529 Z-4.4710
X50.2066 Y-0.1408 Z-4.4736
X50.2146 Y-0.1282 Z-4.4763
X50.2219 Y-0.1152 Z-4.4789
X50.2284 Y-0.1017 Z-4.4815
X50.2341 Y-0.0878 Z-4.4842
X50.2389 Y-0.0737 Z-4.4868
X50.2429 Y-0.0593 Z-4.4894
X50.2460 Y-0.0446 Z-4.4921
X50.2482 Y-0.0298 Z-4.4947
X50.2496 Y-0.0150 Z-4.4974
X50.2500 Y0.0000 Z-4.5000
X50.0854 Y0.2349
X50.0773 Y0.2378 Z-4.5015
X50.0629 Y0.2420 Z-4.5042
X50.0483 Y0.2453 Z-4.5068
X50.0336 Y0.2477 Z-4.5094
X50.0187 Y0.2493 Z-4.5121
X50.0037 Y0.2500 Z-4.5147
X49.9888 Y0.2497 Z-4.5173
X49.9739 Y0.2486 Z-4.5200
X49.9590 Y0.2466 Z-4.5226
X49.9444 Y0.2437 Z-4.5253
X49.9299 Y0.2400 Z-4.5279
X49.9157 Y0.2353 Z-4.5305
X49.9017 Y0.2299 Z-4.5332
X49.8882 Y0.2236 Z-4.5358
X49.8750 Y0.2165 Z-4.5384
X49.8623 Y0.2086 Z-4.5411
X49.8500 Y0.2000 Z-4.5437
X49.8383 Y0.1907 Z-4.5464
X49.8272 Y0.1807 Z-4.5490
X49.8167 Y0.1700 Z-4.5516
X49.8069 Y0.1588 Z-4.5543
X49.7977 Y0.1469 Z-4.5569
X49.7893 Y0.1346 Z-4.5595
X49.7816 Y0.1217 Z-4.5622
X49.7748 Y0.1085 Z-4.5648
X49.7687 Y0.0948 Z-4.5675
X49.7634 Y0.0808 Z-4.5701
X49.7590 Y0.0665 Z-4.5727
X49.7555 Y0.0520 Z-4.5754
X49.7528 Y0.0373 Z-4.5780
X49.7510 Y0.0224 Z-4.5806
X49.7501 Y0.0075 Z-4.5833
Y-0.0075 Z-4.5859
X49.7510 Y-0.0224 Z-4.5886
X49.7528 Y-0.0373 Z-4.5912
X49.7555 Y-0.0520 Z-4.5938
X49.7590 Y-0.0665 Z-4.5965
X49.7634 Y-0.0808 Z-4.5991
X49.7687 Y-0.0948 Z-4.6017
X49.7748 Y-0.1085 Z-4.6044
X49.7816 Y-0.1217 Z-4.6070
X49.7893 Y-0.1346 Z-4.6097
X49.7977 Y-0.1469 Z-4.6123
X49.8069 Y-0.1588 Z-4.6149
X49.8167 Y-0.1700 Z-4.6176
X49.8272 Y-0.1807 Z-4.6202
X49.8383 Y-0.1907 Z-4.6228
X49.8500 Y-0.2000 Z-4.6255
X49.8623 Y-0.2086 Z-4.6281
X49.8750 Y-0.2165 Z-4.6308
X49.8882 Y-0.2236 Z-4.6334
X49.9017 Y-0.2299 Z-4.6360
X49.9157 Y-0.2353 Z-4.6387
X49.9299 Y-0.2400 Z-4.6413
X49.9444 Y-0.2437 Z-4.6439
X49.9590 Y-0.2466 Z-4.6466
X49.9739 Y-0.2486 Z-4.6492
X49.9888 Y-0.2497 Z-4.6519
X50.0037 Y-0.2500 Z-4.6545
X50.0187 Y-0.2493 Z-4.6571
X50.0336 Y-0.2477 Z-4.6598
X50.0483 Y-0.2453 Z-4.6624
X50.0629 Y-0.2420 Z-4.6650
X50.0773 Y-0.2378 Z-4.6677
X50.0913 Y-0.2327 Z-4.6703
X50.1051 Y-0.2268 Z-4.6730
X50.1185 Y-0.2201 Z-4.6756
X50.1314 Y-0.2127 Z-4.6782
X50.1439 Y-0.2044 Z-4.6809
X50.1559 Y-0.1955 Z-4.6835
X50.1673 Y-0.1858 Z-4.6861
X50.1781 Y-0.1754 Z-4.6888
X50.1883 Y-0.1645 Z-4.6914
X50.1978 Y-0.1529 Z-4.6941
X50.2066 Y-0.1408 Z-4.6967
X50.2146 Y-0.1282 Z-4.6993
X50.2219 Y-0.1152 Z-4.7020
X50.2284 Y-0.1017 Z-4.7046
X50.2341 Y-0.0878 Z-4.7072
X50.2389 Y-0.0737 Z-4.7099
X50.2429 Y-0.0593 Z-4.7125
X50.2460 Y-0.0446 Z-4.7152
X50.2482 Y-0.0298 Z-4.7178
X50.2496 Y-0.0150 Z-4.7204
X50.2500 Y0.0000 Z-4.7231
X50.2496 Y0.0150 Z-4.7257
X50.2482 Y0.0298 Z-4.7283
X50.2460 Y0.0446 Z-4.7310
X50.2429 Y0.0593 Z-4.7336
X50.2389 Y0.0737 Z-4.7363
X50.2341 Y0.0878 Z-4.7389
X50.2284 Y0.1017 Z-4.7415
X50.2219 Y0.1152 Z-4.7442
X50.2146 Y0.1282 Z-4.7468
X50.2066 Y0.1408 Z-4.7494
X50.1978 Y0.1529 Z-4.7521
X50.1883 Y0.1645 Z-4.7547
X50.1781 Y0.1754 Z-4.7574
X50.1673 Y0.1858 Z-4.7600
X50.1559 Y0.1955 Z-4.7626
X50.1439 Y0.2044 Z-4.7653
X50.1314 Y0.2127 Z-4.7679
X50.1185 Y0.2201 Z-4.7705
X50.1051 Y0.2268 Z-4.7732
X50.0913 Y0.2327 Z-4.7758
X50.0773 Y0.2378 Z-4.7785
X50.0629 Y0.2420 Z-4.7811
X50.0483 Y0.2453 Z-4.7837
X50.0336 Y0.2477 Z-4.7864
X50.0187 Y0.2493 Z-4.7890
X50.0037 Y0.2500 Z-4.7916
X49.9888 Y0.2497 Z-4.7943
X49.9739 Y0.2486 Z-4.7969
X49.9590 Y0.2466 Z-4.7996
X49.9444 Y0.2437 Z-4.8022
X49.9299 Y0.2400 Z-4.8048
X49.9157 Y0.2353 Z-4.8075
X49.9017 Y0.2299 Z-4.8101
X49.8882 Y0.2236 Z-4.8127
X49.8750 Y0.2165 Z-4.8154
X49.8623 Y0.2086 Z-4.8180
X49.8500 Y0.2000 Z-4.8207
X49.8383 Y0.1907 Z-4.8233
X49.8272 Y0.1807 Z-4.8259
X49.8167 Y0.1700 Z-4.8286
X49.8069 Y0.1588 Z-4.8312
X49.7977 Y0.1469 Z-4.8338
X49.7893 Y0.1346 Z-4.8365
X49.7816 Y0.1217 Z-4.8391
X49.7748 Y0.1085 Z-4.8418
X49.7687 Y0.0948 Z-4.8444
X49.7634 Y0.0808 Z-4.8470
X49.7590 Y0.0665 Z-4.8497
X49.7555 Y0.0520 Z-4.8523
X49.7528 Y0.0373 Z-4.8549
X49.7510 Y0.0224 Z-4.8576
X49.7501 Y0.0075 Z-4.8602
Y-0.0075 Z-4.8629
X49.7510 Y-0.0224 Z-4.8655
X49.7528 Y-0.0373 Z-4.8681
X49.7555 Y-0.0520 Z-4.8708
X49.7590 Y-0.0665 Z-4.8734
X49.7634 Y-0.0808 Z-4.8760
X49.7687 Y-0.0948 Z-4.8787
X49.7748 Y-0.1085 Z-4.8813
X49.7816 Y-0.1217 Z-4.8840
X49.7893 Y-0.1346 Z-4.8866
X49.7977 Y-0.1469 Z-4.8892
X49.8069 Y-0.1588 Z-4.8919
X49.8167 Y-0.1700 Z-4.8945
X49.8272 Y-0.1807 Z-4.8971
X49.8383 Y-0.1907 Z-4.8998
X49.8500 Y-0.2000 Z-4.9024
X49.8623 Y-0.2086 Z-4.9051
X49.8750 Y-0.2165 Z-4.9077
X49.8882 Y-0.2236 Z-4.9103
X49.9017 Y-0.2299 Z-4.9130
X49.9157 Y-0.2353 Z-4.9156
X49.9299 Y-0.2400 Z-4.9182
X49.9444 Y-0.2437 Z-4.9209
X49.9590 Y-0.2466 Z-4.9235
X49.9739 Y-0.2486 Z-4.9262
X49.9888 Y-0.2497 Z-4.9288
X50.0037 Y-0.2500 Z-4.9314
X50.0187 Y-0.2493 Z-4.9341
X50.0336 Y-0.2477 Z-4.9367
X50.0483 Y-0.2453 Z-4.9393
X50.0629 Y-0.2420 Z-4.9420
X50.0773 Y-0.2378 Z-4.9446
X50.0913 Y-0.2327 Z-4.9473
X50.1051 Y-0.2268 Z-4.9499
X50.1185 Y-0.2201 Z-4.9525
X50.1314 Y-0.2127 Z-4.9552
X50.1439 Y-0.2044 Z-4.9578
X50.1559 Y-0.1955 Z-4.9604
X50.1673 Y-0.1858 Z-4.9631
X50.1781 Y-0.1754 Z-4.9657
X50.1883 Y-0.1645 Z-4.9684
X50.1978 Y-0.1529 Z-4.9710
X50.2066 Y-0.1408 Z-4.9736
X50.2146 Y-0.1282 Z-4.9763
X50.2219 Y-0.1152 Z-4.9789
X50.2284 Y-0.1017 Z-4.9815
X50.2341 Y-0.0878 Z-4.9842
X50.2389 Y-0.0737 Z-4.9868
X50.2429 Y-0.0593 Z-4.9894
X50.2460 Y-0.0446 Z-4.9921
X50.2482 Y-0.0298 Z-4.9947
X50.2496 Y-0.0150 Z-4.9974
X50.2500 Y0.0000 Z-5.0000
X50.0854 Y0.2349
X50.0773 Y0.2378 Z-5.0015
X50.0629 Y0.2420 Z-5.0042
X50.0483 Y0.2453 Z-5.0068
X50.0336 Y0.2477 Z-5.0094
X50.0187 Y0.2493 Z-5.0121
X50.0037 Y0.2500 Z-5.0147
X49.9888 Y0.2497 Z-5.0173
X49.9739 Y0.2486 Z-5.0200
X49.9590 Y0.2466 Z-5.0226
X49.9444 Y0.2437 Z-5.0253
X49.9299 Y0.2400 Z-5.0279
X49.9157 Y0.2353 Z-5.0305
X49.9017 Y0.2299 Z-5.0332
X49.8882 Y0.2236 Z-5.0358
X49.8750 Y0.2165 Z-5.0384
X49.8623 Y0.2086 Z-5.0411
X49.8500 Y0.2000 Z-5.0437
X49.8383 Y0.1907 Z-5.0464
X49.8272 Y0.1807 Z-5.0490
X49.8167 Y0.1700 Z-5.0516
X49.8069 Y0.1588 Z-5.0543
X49.7977 Y0.1469 Z-5.0569
X49.7893 Y0.1346 Z-5.0595
X49.7816 Y0.1217 Z-5.0622
X49.7748 Y0.1085 Z-5.0648
X49.7687 Y0.0948 Z-5.0675
X49.7634 Y0.0808 Z-5.0701
X49.7590 Y0.0665 Z-5.0727
X49.7555 Y0.0520 Z-5.0754
X49.7528 Y0.0373 Z-5.0780
X49.7510 Y0.0224 Z-5.0806
X49.7501 Y0.0075 Z-5.0833
Y-0.0075 Z-5.0859
X49.7510 Y-0.0224 Z-5.0886
X49.7528 Y-0.0373 Z-5.0912
X49.7555 Y-0.0520 Z-5.0938
X49.7590 Y-0.0665 Z-5.0965
X49.7634 Y-0.0808 Z-5.0991
X49.7687 Y-0.0948 Z-5.1017
X49.7748 Y-0.1085 Z-5.1044
X49.7816 Y-0.1217 Z-5.1070
X49.7893 Y-0.1346 Z-5.1097
X49.7977 Y-0.1469 Z-5.1123
X49.8069 Y-0.1588 Z-5.1149
X49.8167 Y-0.1700 Z-5.1176
X49.8272 Y-0.1807 Z-5.1202
X49.8383 Y-0.1907 Z-5.1228
X49.8500 Y-0.2000 Z-5.1255
X49.8623 Y-0.2086 Z-5.1281
X49.8750 Y-0.2165 Z-5.1308
X49.8882 Y-0.2236 Z-5.1334
X49.9017 Y-0.2299 Z-5.1360
X49.9157 Y-0.2353 Z-5.1387
X49.9299 Y-0.2400 Z-5.1413
X49.9444 Y-0.2437 Z-5.1439
X49.9590 Y-0.2466 Z-5.1466
X49.9739 Y-0.2486 Z-5.1492
X49.9888 Y-0.2497 Z-5.1519
X50.0037 Y-0.2500 Z-5.1545
X50.0187 Y-0.2493 Z-5.1571
X50.0336 Y-0.2477 Z-5.1598
X50.0483 Y-0.2453 Z-5.1624
X50.0629 Y-0.2420 Z-5.1650
X50.0773 Y-0.2378 Z-5.1677
X50.0913 Y-0.2327 Z-5.1703
X50.1051 Y-0.2268 Z-5.1730
X50.1185 Y-0.2201 Z-5.1756
X50.1314 Y-0.2127 Z-5.1782
X50.1439 Y-0.2044 Z-5.1809
X50.1559 Y-0.1955 Z-5.1835
X50.1673 Y-0.1858 Z-5.1861
X50.1781 Y-0.1754 Z-5.1888
X50.1883 Y-0.1645 Z-5.1914
X50.1978 Y-0.1529 Z-5.1941
X50.2066 Y-0.1408 Z-5.1967
X50.2146 Y-0.1282 Z-5.1993
X50.2219 Y-0.1152 Z-5.2020
X50.2284 Y-0.1017 Z-5.2046
X50.2341 Y-0.0878 Z-5.2072
X50.2389 Y-0.0737 Z-5.2099
X50.2429 Y-0.0593 Z-5.2125
X50.2460 Y-0.0446 Z-5.2152
X50.2482 Y-0.0298 Z-5.2178
X50.2496 Y-0.0150 Z-5.2204
X50.2500 Y0.0000 Z-5.2231
X50.2496 Y0.0150 Z-5.2257
X50.2482 Y0.0298 Z-5.2283
X50.2460 Y0.0446 Z-5.2310
X50.2429 Y0.0593 Z-5.2336
X50.2389 Y0.0737 Z-5.2363
X50.2341 Y0.0878 Z-5.2389
X50.2284 Y0.1017 Z-5.2415
X50.2219 Y0.1152 Z-5.2442
X50.2146 Y0.1282 Z-5.2468
X50.2066 Y0.1408 Z-5.2494
X50.1978 Y0.1529 Z-5.2521
X50.1883 Y0.1645 Z-5.2547
X50.1781 Y0.1754 Z-5.2574
X50.1673 Y0.1858 Z-5.2600
X50.1559 Y0.1955 Z-5.2626
X50.1439 Y0.2044 Z-5.2653
X50.1314 Y0.2127 Z-5.2679
X50.1185 Y0.2201 Z-5.2705
X50.1051 Y0.2268 Z-5.2732
X50.0913 Y0.2327 Z-5.2758
X50.0773 Y0.2378 Z-5.2785
X50.0629 Y0.2420 Z-5.2811
X50.0483 Y0.2453 Z-5.2837
X50.0336 Y0.2477 Z-5.2864
X50.0187 Y0.2493 Z-5.2890
X50.0037 Y0.2500 Z-5.2916
X49.9888 Y0.2497 Z-5.2943
X49.9739 Y0.2486 Z-5.2969
X49.9590 Y0.2466 Z-5.2996
X49.9444 Y0.2437 Z-5.3022
X49.9299 Y0.2400 Z-5.3048
X49.9157 Y0.2353 Z-5.3075
X49.9017 Y0.2299 Z-5.3101
X49.8882 Y0.2236 Z-5.3127
X49.8750 Y0.2165 Z-5.3154
X49.8623 Y0.2086 Z-5.3180
X49.8500 Y0.2000 Z-5.3207
X49.8383 Y0.1907 Z-5.3233
X49.8272 Y0.1807 Z-5.3259
X49.8167 Y0.1700 Z-5.3286
X49.8069 Y0.1588 Z-5.3312
X49.7977 Y0.1469 Z-5.3338
X49.7893 Y0.1346 Z-5.3365
X49.7816 Y0.1217 Z-5.3391
X49.7748 Y0.1085 Z-5.3418
X49.7687 Y0.0948 Z-5.3444
X49.7634 Y0.0808 Z-5.3470
X49.7590 Y0.0665 Z-5.3497
X49.7555 Y0.0520 Z-5.3523
X49.7528 Y0.0373 Z-5.3549
X49.7510 Y0.0224 Z-5.3576
X49.7501 Y0.0075 Z-5.3602
Y-0.0075 Z-5.3629
X49.7510 Y-0.0224 Z-5.3655
X49.7528 Y-0.0373 Z-5.3681
X49.7555 Y-0.0520 Z-5.3708
X49.7590 Y-0.0665 Z-5.3734
X49.7634 Y-0.0808 Z-5.3760
X49.7687 Y-0.0948 Z-5.3787
X49.7748 Y-0.1085 Z-5.3813
X49.7816 Y-0.1217 Z-5.3840
X49.7893 Y-0.1346 Z-5.3866
X49.7977 Y-0.1469 Z-5.3892
X49.8069 Y-0.1588 Z-5.3919
X49.8167 Y-0.1700 Z-5.3945
X49.8272 Y-0.1807 Z-5.3971
X49.8383 Y-0.1907 Z-5.3998
X49.8500 Y-0.2000 Z-5.4024
X49.8623 Y-0.2086 Z-5.4051
X49.8750 Y-0.2165 Z-5.4077
X49.8882 Y-0.2236 Z-5.4103
X49.9017 Y-0.2299 Z-5.4130
X49.9157 Y-0.2353 Z-5.4156
X49.9299 Y-0.2400 Z-5.4182
X49.9444 Y-0.2437 Z-5.4209
X49.9590 Y-0.2466 Z-5.4235
X49.9739 Y-0.2486 Z-5.4262
X49.9888 Y-0.2497 Z-5.4288
X50.0037 Y-0.2500 Z-5.4314
X50.0187 Y-0.2493 Z-5.4341
X50.0336 Y-0.2477 Z-5.4367
X50.0483 Y-0.2453 Z-5.4393
X50.0629 Y-0.2420 Z-5.4420
X50.0773 Y-0.2378 Z-5.4446
X50.0913 Y-0.2327 Z-5.4473
X50.1051 Y-0.2268 Z-5.4499
X50.1185 Y-0.2201 Z-5.4525
X50.1314 Y-0.2127 Z-5.4552
X50.1439 Y-0.2044 Z-5.4578
X50.1559 Y-0.1955 Z-5.4604
X50.1673 Y-0.1858 Z-5.4631
X50.1781 Y-0.1754 Z-5.4657
X50.1883 Y-0.1645 Z-5.4684
X50.1978 Y-0.1529 Z-5.4710
X50.2066 Y-0.1408 Z-5.4736
X50.2146 Y-0.1282 Z-5.4763
X50.2219 Y-0.1152 Z-5.4789
X50.2284 Y-0.1017 Z-5.4815
X50.2341 Y-0.0878 Z-5.4842
X50.2389 Y-0.0737 Z-5.4868
X50.2429 Y-0.0593 Z-5.4894
X50.2460 Y-0.0446 Z-5.4921
X50.2482 Y-0.0298 Z-5.4947
X50.2496 Y-0.0150 Z-5.4974
X50.2500 Y0.0000 Z-5.5000
X50.0854 Y0.2349
X50.0773 Y0.2378 Z-5.5015
X50.0629 Y0.2420 Z-5.5042
X50.0483 Y0.2453 Z-5.5068
X50.0336 Y0.2477 Z-5.5094
X50.0187 Y0.2493 Z-5.5121
X50.0037 Y0.2500 Z-5.5147
X49.9888 Y0.2497 Z-5.5173
X49.9739 Y0.2486 Z-5.5200
X49.9590 Y0.2466 Z-5.5226
X49.9444 Y0.2437 Z-5.5253
X49.9299 Y0.2400 Z-5.5279
X49.9157 Y0.2353 Z-5.5305
X49.9017 Y0.2299 Z-5.5332
X49.8882 Y0.2236 Z-5.5358
X49.8750 Y0.2165 Z-5.5384
X49.8623 Y0.2086 Z-5.5411
X49.8500 Y0.2000 Z-5.5437
X49.8383 Y0.1907 Z-5.5464
X49.8272 Y0.1807 Z-5.5490
X49.8167 Y0.1700 Z-5.5516
X49.8069 Y0.1588 Z-5.5543
X49.7977 Y0.1469 Z-5.5569
X49.7893 Y0.1346 Z-5.5595
X49.7816 Y0.1217 Z-5.5622
X49.7748 Y0.1085 Z-5.5648
X49.7687 Y0.0948 Z-5.5675
X49.7634 Y0.0808 Z-5.5701
X49.7590 Y0.0665 Z-5.5727
X49.7555 Y0.0520 Z-5.5754
X49.7528 Y0.0373 Z-5.5780
X49.7510 Y0.0224 Z-5.5806
X49.7501 Y0.0075 Z-5.5833
Y-0.0075 Z-5.5859
X49.7510 Y-0.0224 Z-5.5886
X49.7528 Y-0.0373 Z-5.5912
X49.7555 Y-0.0520 Z-5.5938
X49.7590 Y-0.0665 Z-5.5965
X49.7634 Y-0.0808 Z-5.5991
X49.7687 Y-0.0948 Z-5.6017
X49.7748 Y-0.1085 Z-5.6044
X49.7816 Y-0.1217 Z-5.6070
X49.7893 Y-0.1346 Z-5.6097
X49.7977 Y-0.1469 Z-5.6123
X49.8069 Y-0.1588 Z-5.6149
X49.8167 Y-0.1700 Z-5.6176
X49.8272 Y-0.1807 Z-5.6202
X49.8383 Y-0.1907 Z-5.6228
X49.8500 Y-0.2000 Z-5.6255
X49.8623 Y-0.2086 Z-5.6281
X49.8750 Y-0.2165 Z-5.6308
X49.8882 Y-0.2236 Z-5.6334
X49.9017 Y-0.2299 Z-5.6360
X49.9157 Y-0.2353 Z-5.6387
X49.9299 Y-0.2400 Z-5.6413
X49.9444 Y-0.2437 Z-5.6439
X49.9590 Y-0.2466 Z-5.6466
X49.9739 Y-0.2486 Z-5.6492
X49.9888 Y-0.2497 Z-5.6519
X50.0037 Y-0.2500 Z-5.6545
X50.0187 Y-0.2493 Z-5.6571
X50.0336 Y-0.2477 Z-5.6598
X50.0483 Y-0.2453 Z-5.6624
X50.0629 Y-0.2420 Z-5.6650
X50.0773 Y-0.2378 Z-5.6677
X50.0913 Y-0.2327 Z-5.6703
X50.1051 Y-0.2268 Z-5.6730
X50.1185 Y-0.2201 Z-5.6756
X50.1314 Y-0.2127 Z-5.6782
X50.1439 Y-0.2044 Z-5.6809
X50.1559 Y-0.1955 Z-5.6835
X50.1673 Y-0.1858 Z-5.6861
X50.1781 Y-0.1754 Z-5.6888
X50.1883 Y-0.1645 Z-5.6914
X50.1978 Y-0.1529 Z-5.6941
X50.2066 Y-0.1408 Z-5.6967
X50.2146 Y-0.1282 Z-5.6993
X50.2219 Y-0.1152 Z-5.7020
X50.2284 Y-0.1017 Z-5.7046
X50.2341 Y-0.0878 Z-5.7072
X50.2389 Y-0.0737 Z-5.7099
X50.2429 Y-0.0593 Z-5.7125
X50.2460 Y-0.0446 Z-5.7152
X50.2482 Y-0.0298 Z-5.7178
X50.2496 Y-0.0150 Z-5.7204
X50.2500 Y0.0000 Z-5.7231
X50.2496 Y0.0150 Z-5.7257
X50.2482 Y0.0298 Z-5.7283
X50.2460 Y0.0446 Z-5.7310
X50.2429 Y0.0593 Z-5.7336
X50.2389 Y0.0737 Z-5.7363
X50.2341 Y0.0878 Z-5.7389
X50.2284 Y0.1017 Z-5.7415
X50.2219 Y0.1152 Z-5.7442
X50.2146 Y0.1282 Z-5.7468
X50.2066 Y0.1408 Z-5.7494
X50.1978 Y0.1529 Z-5.7521
X50.1883 Y0.1645 Z-5.7547
X50.1781 Y0.1754 Z-5.7574
X50.1673 Y0.1858 Z-5.7600
X50.1559 Y0.1955 Z-5.7626
X50.1439 Y0.2044 Z-5.7653
X50.1314 Y0.2127 Z-5.7679
X50.1185 Y0.2201 Z-5.7705
X50.1051 Y0.2268 Z-5.7732
X50.0913 Y0.2327 Z-5.7758
X50.0773 Y0.2378 Z-5.7785
X50.0629 Y0.2420 Z-5.7811
X50.0483 Y0.2453 Z-5.7837
X50.0336 Y0.2477 Z-5.7864
X50.0187 Y0.2493 Z-5.7890
X50.0037 Y0.2500 Z-5.7916
X49.9888 Y0.2497 Z-5.7943
X49.9739 Y0.2486 Z-5.7969
X49.9590 Y0.2466 Z-5.7996
X49.9444 Y0.2437 Z-5.8022
X49.9299 Y0.2400 Z-5.8048
X49.9157 Y0.2353 Z-5.8075
X49.9017 Y0.2299 Z-5.8101
X49.8882 Y0.2236 Z-5.8127
X49.8750 Y0.2165 Z-5.8154
X49.8623 Y0.2086 Z-5.8180
X49.8500 Y0.2000 Z-5.8207
X49.8383 Y0.1907 Z-5.8233
X49.8272 Y0.1807 Z-5.8259
X49.8167 Y0.1700 Z-5.8286
X49.8069 Y0.1588 Z-5.8312
X49.7977 Y0.1469 Z-5.8338
X49.7893 Y0.1346 Z-5.8365
X49.7816 Y0.1217 Z-5.8391
X49.7748 Y0.1085 Z-5.8418
X49.7687 Y0.0948 Z-5.8444
X49.7634 Y0.0808 Z-5.8470
X49.7590 Y0.0665 Z-5.8497
X49.7555 Y0.0520 Z-5.8523
X49.7528 Y0.0373 Z-5.8549
X49.7510 Y0.0224 Z-5.8576
X49.7501 Y0.0075 Z-5.8602
Y-0.0075 Z-5.8629
X49.7510 Y-0.0224 Z-5.8655
X49.7528 Y-0.0373 Z-5.8681
X49.7555 Y-0.0520 Z-5.8708
X49.7590 Y-0.0665 Z-5.8734
X49.7634 Y-0.0808 Z-5.8760
X49.7687 Y-0.0948 Z-5.8787
X49.7748 Y-0.1085 Z-5.8813
X49.7816 Y-0.1217 Z-5.8840
X49.7893 Y-0.1346 Z-5.8866
X49.7977 Y-0.1469 Z-5.8892
X49.8069 Y-0.1588 Z-5.8919
X49.8167 Y-0.1700 Z-5.8945
X49.8272 Y-0.1807 Z-5.8971
X49.8383 Y-0.1907 Z-5.8998
X49.8500 Y-0.2000 Z-5.9024
X49.8623 Y-0.2086 Z-5.9051
X49.8750 Y-0.2165 Z-5.9077
X49.8882 Y-0.2236 Z-5.9103
X49.9017 Y-0.2299 Z-5.9130
X49.9157 Y-0.2353 Z-5.9156
X49.9299 Y-0.2400 Z-5.9182
X49.9444 Y-0.2437 Z-5.9209
X49.9590 Y-0.2466 Z-5.9235
X49.9739 Y-0.2486 Z-5.9262
X49.9888 Y-0.2497 Z-5.9288
X50.0037 Y-0.2500 Z-5.9314
X50.0187 Y-0.2493 Z-5.9341
X50.0336 Y-0.2477 Z-5.9367
X50.0483 Y-0.2453 Z-5.9393
X50.0629 Y-0.2420 Z-5.9420
X50.0773 Y-0.2378 Z-5.9446
X50.0913 Y-0.2327 Z-5.9473
X50.1051 Y-0.2268 Z-5.9499
X50.1185 Y-0.2201 Z-5.9525
X50.1314 Y-0.2127 Z-5.9552
X50.1439 Y-0.2044 Z-5.9578
X50.1559 Y-0.1955 Z-5.9604
X50.1673 Y-0.1858 Z-5.9631
X50.1781 Y-0.1754 Z-5.9657
X50.1883 Y-0.1645 Z-5.9684
X50.1978 Y-0.1529 Z-5.9710
X50.2066 Y-0.1408 Z-5.9736
X50.2146 Y-0.1282 Z-5.9763
X50.2219 Y-0.1152 Z-5.9789
X50.2284 Y-0.1017 Z-5.9815
X50.2341 Y-0.0878 Z-5.9842
X50.2389 Y-0.0737 Z-5.9868
X50.2429 Y-0.0593 Z-5.9894
X50.2460 Y-0.0446 Z-5.9921
X50.2482 Y-0.0298 Z-5.9947
X50.2496 Y-0.0150 Z-5.9974
X50.2500 Y0.0000 Z-6.0000
X50.0000
G00 Z6.0000
X205.2036 Y-0.1449
G01 Z0.6350  F1000.0
X205.2066 Y-0.1408 Z0.6341  F100.0
X205.2146 Y-0.1282 Z0.6315
X205.2219 Y-0.1152 Z0.6288
X205.2284 Y-0.1017 Z0.6262
X205.2341 Y-0.0878 Z0.6236
X205.2389 Y-0.0737 Z0.6209
X205.2429 Y-0.0593 Z0.6183
X205.2460 Y-0.0446 Z0.6156
X205.2482 Y-0.0298 Z0.6130
X205.2496 Y-0.0150 Z0.6104
X205.2500 Y0.0000 Z0.6077
X205.2496 Y0.0150 Z0.6051
X205.2482 Y0.0298 Z0.6025
X205.2460 Y0.0446 Z0.5998
X205.2429 Y0.0593 Z0.5972
X205.2389 Y0.0737 Z0.5945
X205.2341 Y0.0878 Z0.5919
X205.2284 Y0.1017 Z0.5893
X205.2219 Y0.1152 Z0.5866
X205.2146 Y0.1282 Z0.5840
X205.2066 Y0.1408 Z0.5814
X205.1978 Y0.1529 Z0.5787
X205.1883 Y0.1645 Z0.5761
X205.1781 Y0.1754 Z0.5734
X205.1673 Y0.1858 Z0.5708
X205.1559 Y0.1955 Z0.5682
X205.1439 Y0.2044 Z0.5655
X205.1314 Y0.2127 Z0.5629
X205.1185 Y0.2201 Z0.5603
X205.1051 Y0.2268 Z0.5576
X205.0913 Y0.2327 Z0.5550
X205.0773 Y0.2378 Z0.5523
X205.0629 Y0.2420 Z0.5497
X205.0483 Y0.2453 Z0.5471
X205.0336 Y0.2477 Z0.5444
X205.0187 Y0.2493 Z0.5418
X205.0037 Y0.2500 Z0.5392
X204.9888 Y0.2497 Z0.5365
X204.9739 Y0.2486 Z0.5339
X204.9590 Y0.2466 Z0.5312
X204.9444 Y0.2437 Z0.5286
X204.9299 Y0.2400 Z0.5260
X204.9157 Y0.2353 Z0.5233
X204.9017 Y0.2299 Z0.5207
X204.8882 Y0.2236 Z0.5181
X204.8750 Y0.2165 Z0.5154
X204.8623 Y0.2086 Z0.5128
X204.8500 Y0.2000 Z0.5101
X204.8383 Y0.1907 Z0.5075
X204.8272 Y0.1807 Z0.5049
X204.8167 Y0.1700 Z0.5022
X204.8069 Y0.1588 Z0.4996
X204.7977 Y0.1469 Z0.4970
X204.7893 Y0.1346 Z0.4943
X204.7816 Y0.1217 Z0.4917
X204.7748 Y0.1085 Z0.4890
X204.7687 Y0.0948 Z0.4864
X204.7634 Y0.0808 Z0.4838
X204.7590 Y0.0665 Z0.4811
X204.7555 Y0.0520 Z0.4785
X204.7528 Y0.0373 Z0.4759
X204.7510 Y0.0224 Z0.4732
X204.7501 Y0.0075 Z0.4706
Y-0.0075 Z0.4679
X204.7510 Y-0.0224 Z0.4653
X204.7528 Y-0.0373 Z0.4627
X204.7555 Y-0.0520 Z0.4600
X204.7590 Y-0.0665 Z0.4574
X204.7634 Y-0.0808 Z0.4548
X204.7687 Y-0.0948 Z0.4521
X204.7748 Y-0.1085 Z0.4495
X204.7816 Y-0.1217 Z0.4468
X204.7893 Y-0.1346 Z0.4442
X204.7977 Y-0.1469 Z0.4416
X204.8069 Y-0.1588 Z0.4389
X204.8167 Y-0.1700 Z0.4363
X204.8272 Y-0.1807 Z0.4337
X204.8383 Y-0.1907 Z0.4310
X204.8500 Y-0.2000 Z0.4284
X204.8623 Y-0.2086 Z0.4257
X204.8750 Y-0.2165 Z0.4231
X204.8882 Y-0.2236 Z0.4205
X204.9017 Y-0.2299 Z0.4178
X204.9157 Y-0.2353 Z0.4152
X204.9299 Y-0.2400 Z0.4126
X204.9444 Y-0.2437 Z0.4099
X204.9590 Y-0.2466 Z0.4073
X204.9739 Y-0.2486 Z0.4046
X204.9888 Y-0.2497 Z0.4020
X205.0037 Y-0.2500 Z0.3994
X205.0187 Y-0.2493 Z0.3967
X205.0336 Y-0.2477 Z0.3941
X205.0483 Y-0.2453 Z0.3915
X205.0629 Y-0.2420 Z0.3888
X205.0773 Y-0.2378 Z0.3862
X205.0913 Y-0.2327 Z0.3835
X205.1051 Y-0.2268 Z0.3809
X205.1185 Y-0.2201 Z0.3783
X205.1314 Y-0.2127 Z0.3756
X205.1439 Y-0.2044 Z0.3730
X205.1559 Y-0.1955 Z0.3704
X205.1673 Y-0.1858 Z0.3677
X205.1781 Y-0.1754 Z0.3651
X205.1883 Y-0.1645 Z0.3624
X205.1978 Y-0.1529 Z0.3598
X205.2066 Y-0.1408 Z0.3572
X205.2146 Y-0.1282 Z0.3545
X205.2219 Y-0.1152 Z0.3519
X205.2284 Y-0.1017 Z0.3493
X205.2341 Y-0.0878 Z0.3466
X205.2389 Y-0.0737 Z0.3440
X205.2429 Y-0.0593 Z0.3413
X205.2460 Y-0.0446 Z0.3387
X205.2482 Y-0.0298 Z0.3361
X205.2496 Y-0.0150 Z0.3334
X205.2500 Y0.0000 Z0.3308
X205.2496 Y0.0150 Z0.3282
X205.2482 Y0.0298 Z0.3255
X205.2460 Y0.0446 Z0.3229
X205.2429 Y0.0593 Z0.3202
X205.2389 Y0.0737 Z0.3176
X205.2341 Y0.0878 Z0.3150
X205.2284 Y0.1017 Z0.3123
X205.2219 Y0.1152 Z0.3097
X205.2146 Y0.1282 Z0.3071
X205.2066 Y0.1408 Z0.3044
X205.1978 Y0.1529 Z0.3018
X205.1883 Y0.1645 Z0.2991
X205.1781 Y0.1754 Z0.2965
X205.1673 Y0.1858 Z0.2939
X205.1559 Y0.1955 Z0.2912
X205.1439 Y0.2044 Z0.2886
X205.1314 Y0.2127 Z0.2860
X205.1185 Y0.2201 Z0.2833
X205.1051 Y0.2268 Z0.2807
X205.0913 Y0.2327 Z0.2780
X205.0773 Y0.2378 Z0.2754
X205.0629 Y0.2420 Z0.2728
X205.0483 Y0.2453 Z0.2701
X205.0336 Y0.2477 Z0.2675
X205.0187 Y0.2493 Z0.2649
X205.0037 Y0.2500 Z0.2622
X204.9888 Y0.2497 Z0.2596
X204.9739 Y0.2486 Z0.2569
X204.9590 Y0.2466 Z0.2543
X204.9444 Y0.2437 Z0.2517
X204.9299 Y0.2400 Z0.2490
X204.9157 Y0.2353 Z0.2464
X204.9017 Y0.2299 Z0.2438
X204.8882 Y0.2236 Z0.2411
X204.8750 Y0.2165 Z0.2385
X204.8623 Y0.2086 Z0.2358
X204.8500 Y0.2000 Z0.2332
X204.8383 Y0.1907 Z0.2306
X204.8272 Y0.1807 Z0.2279
X204.8167 Y0.1700 Z0.2253
X204.8069 Y0.1588 Z0.2227
X204.7977 Y0.1469 Z0.2200
X204.7893 Y0.1346 Z0.2174
X204.7816 Y0.1217 Z0.2147
X204.7748 Y0.1085 Z0.2121
X204.7687 Y0.0948 Z0.2095
X204.7634 Y0.0808 Z0.2068
X204.7590 Y0.0665 Z0.2042
X204.7555 Y0.0520 Z0.2016
X204.7528 Y0.0373 Z0.1989
X204.7510 Y0.0224 Z0.1963
X204.7501 Y0.0075 Z0.1936
Y-0.0075 Z0.1910
X204.7510 Y-0.0224 Z0.1884
X204.7528 Y-0.0373 Z0.1857
X204.7555 Y-0.0520 Z0.1831
X204.7590 Y-0.0665 Z0.1805
X204.7634 Y-0.0808 Z0.1778
X204.7687 Y-0.0948 Z0.1752
X204.7748 Y-0.1085 Z0.1725
X204.7816 Y-0.1217 Z0.1699
X204.7893 Y-0.1346 Z0.1673
X204.7977 Y-0.1469 Z0.1646
X204.8069 Y-0.1588 Z0.1620
X204.8167 Y-0.1700 Z0.1594
X204.8272 Y-0.1807 Z0.1567
X204.8383 Y-0.1907 Z0.1541
X204.8500 Y-0.2000 Z0.1515
X204.8623 Y-0.2086 Z0.1488
X204.8750 Y-0.2165 Z0.1462
X204.8882 Y-0.2236 Z0.1435
X204.9017 Y-0.2299 Z0.1409
X204.9157 Y-0.2353 Z0.1383
X204.9299 Y-0.2400 Z0.1356
X204.9444 Y-0.2437 Z0.1330
X204.9590 Y-0.2466 Z0.1304
X204.9739 Y-0.2486 Z0.1277
X204.9888 Y-0.2497 Z0.1251
X205.0037 Y-0.2500 Z0.1224
X205.0187 Y-0.2493 Z0.1198
X205.0336 Y-0.2477 Z0.1172
X205.0483 Y-0.2453 Z0.1145
X205.0629 Y-0.2420 Z0.1119
X205.0773 Y-0.2378 Z0.1093
X205.0913 Y-0.2327 Z0.1066
X205.1051 Y-0.2268 Z0.1040
X205.1185 Y-0.2201 Z0.1013
X205.1314 Y-0.2127 Z0.0987
X205.1439 Y-0.2044 Z0.0961
X205.1559 Y-0.1955 Z0.0934
X205.1673 Y-0.1858 Z0.0908
X205.1781 Y-0.1754 Z0.0882
X205.1883 Y-0.1645 Z0.0855
X205.1978 Y-0.1529 Z0.0829
X205.2066 Y-0.1408 Z0.0802
X205.2146 Y-0.1282 Z0.0776
X205.2219 Y-0.1152 Z0.0750
X205.2284 Y-0.1017 Z0.0723
X205.2341 Y-0.0878 Z0.0697
X205.2389 Y-0.0737 Z0.0671
X205.2429 Y-0.0593 Z0.0644
X205.2460 Y-0.0446 Z0.0618
X205.2482 Y-0.0298 Z0.0591
X205.2496 Y-0.0150 Z0.0565
X205.2500 Y0.0000 Z0.0539
X205.2496 Y0.0150 Z0.0512
X205.2482 Y0.0298 Z0.0486
X205.2460 Y0.0446 Z0.0460
X205.2429 Y0.0593 Z0.0433
X205.2389 Y0.0737 Z0.0407
X205.2341 Y0.0878 Z0.0380
X205.2284 Y0.1017 Z0.0354
X205.2219 Y0.1152 Z0.0328
X205.2146 Y0.1282 Z0.0301
X205.2066 Y0.1408 Z0.0275
X205.1978 Y0.1529 Z0.0249
X205.1883 Y0.1645 Z0.0222
X205.1781 Y0.1754 Z0.0196
X205.1673 Y0.1858 Z0.0169
X205.1559 Y0.1955 Z0.0143
X205.1439 Y0.2044 Z0.0117
X205.1314 Y0.2127 Z0.0090
X205.1185 Y0.2201 Z0.0064
X205.1051 Y0.2268 Z0.0038
X205.0913 Y0.2327 Z0.0011
X205.0773 Y0.2378 Z-0.0015
X205.0629 Y0.2420 Z-0.0042
X205.0483 Y0.2453 Z-0.0068
X205.0336 Y0.2477 Z-0.0094
X205.0187 Y0.2493 Z-0.0121
X205.0037 Y0.2500 Z-0.0147
X204.9888 Y0.2497 Z-0.0173
X204.9739 Y0.2486 Z-0.0200
X204.9590 Y0.2466 Z-0.0226
X204.9444 Y0.2437 Z-0.0253
X204.9299 Y0.2400 Z-0.0279
X204.9157 Y0.2353 Z-0.0305
X204.9017 Y0.2299 Z-0.0332
X204.8882 Y0.2236 Z-0.0358
X204.8750 Y0.2165 Z-0.0384
X204.8623 Y0.2086 Z-0.0411
X204.8500 Y0.2000 Z-0.0437
X204.8383 Y0.1907 Z-0.0464
X204.8272 Y0.1807 Z-0.0490
X204.8167 Y0.1700 Z-0.0516
X204.8069 Y0.1588 Z-0.0543
X204.7977 Y0.1469 Z-0.0569
X204.7893 Y0.1346 Z-0.0595
X204.7816 Y0.1217 Z-0.0622
X204.7748 Y0.1085 Z-0.0648
X204.7687 Y0.0948 Z-0.0675
X204.7634 Y0.0808 Z-0.0701
X204.7590 Y0.0665 Z-0.0727
X204.7555 Y0.0520 Z-0.0754
X204.7528 Y0.0373 Z-0.0780
X204.7510 Y0.0224 Z-0.0806
X204.7501 Y0.0075 Z-0.0833
Y-0.0075 Z-0.0859
X204.7510 Y-0.0224 Z-0.0886
X204.7528 Y-0.0373 Z-0.0912
X204.7555 Y-0.0520 Z-0.0938
X204.7590 Y-0.0665 Z-0.0965
X204.7634 Y-0.0808 Z-0.0991
X204.7687 Y-0.0948 Z-0.1017
X204.7748 Y-0.1085 Z-0.1044
X204.7816 Y-0.1217 Z-0.1070
X204.7893 Y-0.1346 Z-0.1097
X204.7977 Y-0.1469 Z-0.1123
X204.8069 Y-0.1588 Z-0.1149
X204.8167 Y-0.1700 Z-0.1176
X204.8272 Y-0.1807 Z-0.1202
X204.8383 Y-0.1907 Z-0.1228
X204.8500 Y-0.2000 Z-0.1255
X204.8623 Y-0.2086 Z-0.1281
X204.8750 Y-0.2165 Z-0.1308
X204.8882 Y-0.2236 Z-0.1334
X204.9017 Y-0.2299 Z-0.1360
X204.9157 Y-0.2353 Z-0.1387
X204.9299 Y-0.2400 Z-0.1413
X204.9444 Y-0.2437 Z-0.1439
X204.9590 Y-0.2466 Z-0.1466
X204.9739 Y-0.2486 Z-0.1492
X204.9888 Y-0.2497 Z-0.1519
X205.0037 Y-0.2500 Z-0.1545
X205.0187 Y-0.2493 Z-0.1571
X205.0336 Y-0.2477 Z-0.1598
X205.0483 Y-0.2453 Z-0.1624
X205.0629 Y-0.2420 Z-0.1650
X205.0773 Y-0.2378 Z-0.1677
X205.0913 Y-0.2327 Z-0.1703
X205.1051 Y-0.2268 Z-0.1730
X205.1185 Y-0.2201 Z-0.1756
X205.1314 Y-0.2127 Z-0.1782
X205.1439 Y-0.2044 Z-0.1809
X205.1559 Y-0.1955 Z-0.1835
X205.1673 Y-0.1858 Z-0.1861
X205.1781 Y-0.1754 Z-0.1888
X205.1883 Y-0.1645 Z-0.1914
X205.1978 Y-0.1529 Z-0.1941
X205.2066 Y-0.1408 Z-0.1967
X205.2146 Y-0.1282 Z-0.1993
X205.2219 Y-0.1152 Z-0.2020
X205.2284 Y-0.1017 Z-0.2046
X205.2341 Y-0.0878 Z-0.2072
X205.2389 Y-0.0737 Z-0.2099
X205.2429 Y-0.0593 Z-0.2125
X205.2460 Y-0.0446 Z-0.2152
X205.2482 Y-0.0298 Z-0.2178
X205.2496 Y-0.0150 Z-0.2204
X205.2500 Y0.0000 Z-0.2231
X205.2496 Y0.0150 Z-0.2257
X205.2482 Y0.0298 Z-0.2283
X205.2460 Y0.0446 Z-0.2310
X205.2429 Y0.0593 Z-0.2336
X205.2389 Y0.0737 Z-0.2363
X205.2341 Y0.0878 Z-0.2389
X205.2284 Y0.1017 Z-0.2415
X205.2219 Y0.1152 Z-0.2442
X205.2146 Y0.1282 Z-0.2468
X205.2066 Y0.1408 Z-0.2494
X205.1978 Y0.1529 Z-0.2521
X205.1883 Y0.1645 Z-0.2547
X205.1781 Y0.1754 Z-0.2574
X205.1673 Y0.1858 Z-0.2600
X205.1559 Y0.1955 Z-0.2626
X205.1439 Y0.2044 Z-0.2653
X205.1314 Y0.2127 Z-0.2679
X205.1185 Y0.2201 Z-0.2705
X205.1051 Y0.2268 Z-0.2732
X205.0913 Y0.2327 Z-0.2758
X205.0773 Y0.2378 Z-0.2785
X205.0629 Y0.2420 Z-0.2811
X205.0483 Y0.2453 Z-0.2837
X205.0336 Y0.2477 Z-0.2864
X205.0187 Y0.2493 Z-0.2890
X205.0037 Y0.2500 Z-0.2916
X204.9888 Y0.2497 Z-0.2943
X204.9739 Y0.2486 Z-0.2969
X204.9590 Y0.2466 Z-0.2996
X204.9444 Y0.2437 Z-0.3022
X204.9299 Y0.2400 Z-0.3048
X204.9157 Y0.2353 Z-0.3075
X204.9017 Y0.2299 Z-0.3101
X204.8882 Y0.2236 Z-0.3127
X204.8750 Y0.2165 Z-0.3154
X204.8623 Y0.2086 Z-0.3180
X204.8500 Y0.2000 Z-0.3207
X204.8383 Y0.1907 Z-0.3233
X204.8272 Y0.1807 Z-0.3259
X204.8167 Y0.1700 Z-0.3286
X204.8069 Y0.1588 Z-0.3312
X204.7977 Y0.1469 Z-0.3338
X204.7893 Y0.1346 Z-0.3365
X204.7816 Y0.1217 Z-0.3391
X204.7748 Y0.1085 Z-0.3418
X204.7687 Y0.0948 Z-0.3444
X204.7634 Y0.0808 Z-0.3470
X204.7590 Y0.0665 Z-0.3497
X204.7555 Y0.0520 Z-0.3523
X204.7528 Y0.0373 Z-0.3549
X204.7510 Y0.0224 Z-0.3576
X204.7501 Y0.0075 Z-0.3602
Y-0.0075 Z-0.3629
X204.7510 Y-0.0224 Z-0.3655
X204.7528 Y-0.0373 Z-0.3681
X204.7555 Y-0.0520 Z-0.3708
X204.7590 Y-0.0665 Z-0.3734
X204.7634 Y-0.0808 Z-0.3760
X204.7687 Y-0.0948 Z-0.3787
X204.7748 Y-0.1085 Z-0.3813
X204.7816 Y-0.1217 Z-0.3840
X204.7893 Y-0.1346 Z-0.3866
X204.7977 Y-0.1469 Z-0.3892
X204.8069 Y-0.1588 Z-0.3919
X204.8167 Y-0.1700 Z-0.3945
X204.8272 Y-0.1807 Z-0.3971
X204.8383 Y-0.1907 Z-0.3998
X204.8500 Y-0.2000 Z-0.4024
X204.8623 Y-0.2086 Z-0.4051
X204.8750 Y-0.2165 Z-0.4077
X204.8882 Y-0.2236 Z-0.4103
X204.9017 Y-0.2299 Z-0.4130
X204.9157 Y-0.2353 Z-0.4156
X204.9299 Y-0.2400 Z-0.4182
X204.9444 Y-0.2437 Z-0.4209
X204.9590 Y-0.2466 Z-0.4235
X204.9739 Y-0.2486 Z-0.4262
X204.9888 Y-0.2497 Z-0.4288
X205.0037 Y-0.2500 Z-0.4314
X205.0187 Y-0.2493 Z-0.4341
X205.0336 Y-0.2477 Z-0.4367
X205.0483 Y-0.2453 Z-0.4393
X205.0629 Y-0.2420 Z-0.4420
X205.0773 Y-0.2378 Z-0.4446
X205.0913 Y-0.2327 Z-0.4473
X205.1051 Y-0.2268 Z-0.4499
X205.1185 Y-0.2201 Z-0.4525
X205.1314 Y-0.2127 Z-0.4552
X205.1439 Y-0.2044 Z-0.4578
X205.1559 Y-0.1955 Z-0.4604
X205.1673 Y-0.1858 Z-0.4631
X205.1781 Y-0.1754 Z-0.4657
X205.1883 Y-0.1645 Z-0.4684
X205.1978 Y-0.1529 Z-0.4710
X205.2066 Y-0.1408 Z-0.4736
X205.2146 Y-0.1282 Z-0.4763
X205.2219 Y-0.1152 Z-0.4789
X205.2284 Y-0.1017 Z-0.4815
X205.2341 Y-0.0878 Z-0.4842
X205.2389 Y-0.0737 Z-0.4868
X205.2429 Y-0.0593 Z-0.4895
X205.2460 Y-0.0446 Z-0.4921
X205.2482 Y-0.0298 Z-0.4947
X205.2496 Y-0.0150 Z-0.4974
X205.2500 Y0.0000 Z-0.5000
X205.0854 Y0.2349
X205.0773 Y0.2378 Z-0.5015
X205.0629 Y0.2420 Z-0.5042
X205.0483 Y0.2453 Z-0.5068
X205.0336 Y0.2477 Z-0.5094
X205.0187 Y0.2493 Z-0.5121
X205.0037 Y0.2500 Z-0.5147
X204.9888 Y0.2497 Z-0.5173
X204.9739 Y0.2486 Z-0.5200
X204.9590 Y0.2466 Z-0.5226
X204.9444 Y0.2437 Z-0.5253
X204.9299 Y0.2400 Z-0.5279
X204.9157 Y0.2353 Z-0.5305
X204.9017 Y0.2299 Z-0.5332
X204.8882 Y0.2236 Z-0.5358
X204.8750 Y0.2165 Z-0.5384
X204.8623 Y0.2086 Z-0.5411
X204.8500 Y0.2000 Z-0.5437
X204.8383 Y0.1907 Z-0.5464
X204.8272 Y0.1807 Z-0.5490
X204.8167 Y0.1700 Z-0.5516
X204.8069 Y0.1588 Z-0.5543
X204.7977 Y0.1469 Z-0.5569
X204.7893 Y0.1346 Z-0.5595
X204.7816 Y0.1217 Z-0.5622
X204.7748 Y0.1085 Z-0.5648
X204.7687 Y0.0948 Z-0.5675
X204.7634 Y0.0808 Z-0.5701
X204.7590 Y0.0665 Z-0.5727
X204.7555 Y0.0520 Z-0.5754
X204.7528 Y0.0373 Z-0.5780
X204.7510 Y0.0224 Z-0.5806
X204.7501 Y0.0075 Z-0.5833
Y-0.0075 Z-0.5859
X204.7510 Y-0.0224 Z-0.5886
X204.7528 Y-0.0373 Z-0.5912
X204.7555 Y-0.0520 Z-0.5938
X204.7590 Y-0.0665 Z-0.5965
X204.7634 Y-0.0808 Z-0.5991
X204.7687 Y-0.0948 Z-0.6017
X204.7748 Y-0.1085 Z-0.6044
X204.7816 Y-0.1217 Z-0.6070
X204.7893 Y-0.1346 Z-0.6097
X204.7977 Y-0.1469 Z-0.6123
X204.8069 Y-0.1588 Z-0.6149
X204.8167 Y-0.1700 Z-0.6176
X204.8272 Y-0.1807 Z-0.6202
X204.8383 Y-0.1907 Z-0.6228
X204.8500 Y-0.2000 Z-0.6255
X204.8623 Y-0.2086 Z-0.6281
X204.8750 Y-0.2165 Z-0.6308
X204.8882 Y-0.2236 Z-0.6334
X204.9017 Y-0.2299 Z-0.6360
X204.9157 Y-0.2353 Z-0.6387
X204.9299 Y-0.2400 Z-0.6413
X204.9444 Y-0.2437 Z-0.6439
X204.9590 Y-0.2466 Z-0.6466
X204.9739 Y-0.2486 Z-0.6492
X204.9888 Y-0.2497 Z-0.6519
X205.0037 Y-0.2500 Z-0.6545
X205.0187 Y-0.2493 Z-0.6571
X205.0336 Y-0.2477 Z-0.6598
X205.0483 Y-0.2453 Z-0.6624
X205.0629 Y-0.2420 Z-0.6650
X205.0773 Y-0.2378 Z-0.6677
X205.0913 Y-0.2327 Z-0.6703
X205.1051 Y-0.2268 Z-0.6730
X205.1185 Y-0.2201 Z-0.6756
X205.1314 Y-0.2127 Z-0.6782
X205.1439 Y-0.2044 Z-0.6809
X205.1559 Y-0.1955 Z-0.6835
X205.1673 Y-0.1858 Z-0.6861
X205.1781 Y-0.1754 Z-0.6888
X205.1883 Y-0.1645 Z-0.6914
X205.1978 Y-0.1529 Z-0.6941
X205.2066 Y-0.1408 Z-0.6967
X205.2146 Y-0.1282 Z-0.6993
X205.2219 Y-0.1152 Z-0.7020
X205.2284 Y-0.1017 Z-0.7046
X205.2341 Y-0.0878 Z-0.7072
X205.2389 Y-0.0737 Z-0.7099
X205.2429 Y-0.0593 Z-0.7125
X205.2460 Y-0.0446 Z-0.7152
X205.2482 Y-0.0298 Z-0.7178
X205.2496 Y-0.0150 Z-0.7204
X205.2500 Y0.0000 Z-0.7231
X205.2496 Y0.0150 Z-0.7257
X205.2482 Y0.0298 Z-0.7283
X205.2460 Y0.0446 Z-0.7310
X205.2429 Y0.0593 Z-0.7336
X205.2389 Y0.0737 Z-0.7363
X205.2341 Y0.0878 Z-0.7389
X205.2284 Y0.1017 Z-0.7415
X205.2219 Y0.1152 Z-0.7442
X205.2146 Y0.1282 Z-0.7468
X205.2066 Y0.1408 Z-0.7494
X205.1978 Y0.1529 Z-0.7521
X205.1883 Y0.1645 Z-0.7547
X205.1781 Y0.1754 Z-0.7574
X205.1673 Y0.1858 Z-0.7600
X205.1559 Y0.1955 Z-0.7626
X205.1439 Y0.2044 Z-0.7653
X205.1314 Y0.2127 Z-0.7679
X205.1185 Y0.2201 Z-0.7705
X205.1051 Y0.2268 Z-0.7732
X205.0913 Y0.2327 Z-0.7758
X205.0773 Y0.2378 Z-0.7785
X205.0629 Y0.2420 Z-0.7811
X205.0483 Y0.2453 Z-0.7837
X205.0336 Y0.2477 Z-0.7864
X205.0187 Y0.2493 Z-0.7890
X205.0037 Y0.2500 Z-0.7916
X204.9888 Y0.2497 Z-0.7943
X204.9739 Y0.2486 Z-0.7969
X204.9590 Y0.2466 Z-0.7996
X204.9444 Y0.2437 Z-0.8022
X204.9299 Y0.2400 Z-0.8048
X204.9157 Y0.2353 Z-0.8075
X204.9017 Y0.2299 Z-0.8101
X204.8882 Y0.2236 Z-0.8127
X204.8750 Y0.2165 Z-0.8154
X204.8623 Y0.2086 Z-0.8180
X204.8500 Y0.2000 Z-0.8207
X204.8383 Y0.1907 Z-0.8233
X204.8272 Y0.1807 Z-0.8259
X204.8167 Y0.1700 Z-0.8286
X204.8069 Y0.1588 Z-0.8312
X204.7977 Y0.1469 Z-0.8338
X204.7893 Y0.1346 Z-0.8365
X204.7816 Y0.1217 Z-0.8391
X204.7748 Y0.1085 Z-0.8418
X204.7687 Y0.0948 Z-0.8444
X204.7634 Y0.0808 Z-0.8470
X204.7590 Y0.0665 Z-0.8497
X204.7555 Y0.0520 Z-0.8523
X204.7528 Y0.0373 Z-0.8549
X204.7510 Y0.0224 Z-0.8576
X204.7501 Y0.0075 Z-0.8602
Y-0.0075 Z-0.8629
X204.7510 Y-0.0224 Z-0.8655
X204.7528 Y-0.0373 Z-0.8681
X204.7555 Y-0.0520 Z-0.8708
X204.7590 Y-0.0665 Z-0.8734
X204.7634 Y-0.0808 Z-0.8760
X204.7687 Y-0.0948 Z-0.8787
X204.7748 Y-0.1085 Z-0.8813
X204.7816 Y-0.1217 Z-0.8840
X204.7893 Y-0.1346 Z-0.8866
X204.7977 Y-0.1469 Z-0.8892
X204.8069 Y-0.1588 Z-0.8919
X204.8167 Y-0.1700 Z-0.8945
X204.8272 Y-0.1807 Z-0.8971
X204.8383 Y-0.1907 Z-0.8998
X204.8500 Y-0.2000 Z-0.9024
X204.8623 Y-0.2086 Z-0.9051
X204.8750 Y-0.2165 Z-0.9077
X204.8882 Y-0.2236 Z-0.9103
X204.9017 Y-0.2299 Z-0.9130
X204.9157 Y-0.2353 Z-0.9156
X204.9299 Y-0.2400 Z-0.9182
X204.9444 Y-0.2437 Z-0.9209
X204.9590 Y-0.2466 Z-0.9235
X204.9739 Y-0.2486 Z-0.9262
X204.9888 Y-0.2497 Z-0.9288
X205.0037 Y-0.2500 Z-0.9314
X205.0187 Y-0.2493 Z-0.9341
X205.0336 Y-0.2477 Z-0.9367
X205.0483 Y-0.2453 Z-0.9393
X205.0629 Y-0.2420 Z-0.9420
X205.0773 Y-0.2378 Z-0.9446
X205.0913 Y-0.2327 Z-0.9473
X205.1051 Y-0.2268 Z-0.9499
X205.1185 Y-0.2201 Z-0.9525
X205.1314 Y-0.2127 Z-0.9552
X205.1439 Y-0.2044 Z-0.9578
X205.1559 Y-0.1955 Z-0.9604
X205.1673 Y-0.1858 Z-0.9631
X205.1781 Y-0.1754 Z-0.9657
X205.1883 Y-0.1645 Z-0.9684
X205.1978 Y-0.1529 Z-0.9710
X205.2066 Y-0.1408 Z-0.9736
X205.2146 Y-0.1282 Z-0.9763
X205.2219 Y-0.1152 Z-0.9789
X205.2284 Y-0.1017 Z-0.9815
X205.2341 Y-0.0878 Z-0.9842
X205.2389 Y-0.0737 Z-0.9868
X205.2429 Y-0.0593 Z-0.9895
X205.2460 Y-0.0446 Z-0.9921
X205.2482 Y-0.0298 Z-0.9947
X205.2496 Y-0.0150 Z-0.9974
X205.2500 Y0.0000 Z-1.0000
X205.0854 Y0.2349
X205.0773 Y0.2378 Z-1.0015
X205.0629 Y0.2420 Z-1.0042
X205.0483 Y0.2453 Z-1.0068
X205.0336 Y0.2477 Z-1.0094
X205.0187 Y0.2493 Z-1.0121
X205.0037 Y0.2500 Z-1.0147
X204.9888 Y0.2497 Z-1.0173
X204.9739 Y0.2486 Z-1.0200
X204.9590 Y0.2466 Z-1.0226
X204.9444 Y0.2437 Z-1.0253
X204.9299 Y0.2400 Z-1.0279
X204.9157 Y0.2353 Z-1.0305
X204.9017 Y0.2299 Z-1.0332
X204.8882 Y0.2236 Z-1.0358
X204.8750 Y0.2165 Z-1.0384
X204.8623 Y0.2086 Z-1.0411
X204.8500 Y0.2000 Z-1.0437
X204.8383 Y0.1907 Z-1.0464
X204.8272 Y0.1807 Z-1.0490
X204.8167 Y0.1700 Z-1.0516
X204.8069 Y0.1588 Z-1.0543
X204.7977 Y0.1469 Z-1.0569
X204.7893 Y0.1346 Z-1.0595
X204.7816 Y0.1217 Z-1.0622
X204.7748 Y0.1085 Z-1.0648
X204.7687 Y0.0948 Z-1.0675
X204.7634 Y0.0808 Z-1.0701
X204.7590 Y0.0665 Z-1.0727
X204.7555 Y0.0520 Z-1.0754
X204.7528 Y0.0373 Z-1.0780
X204.7510 Y0.0224 Z-1.0806
X204.7501 Y0.0075 Z-1.0833
Y-0.0075 Z-1.0859
X204.7510 Y-0.0224 Z-1.0886
X204.7528 Y-0.0373 Z-1.0912
X204.7555 Y-0.0520 Z-1.0938
X204.7590 Y-0.0665 Z-1.0965
X204.7634 Y-0.0808 Z-1.0991
X204.7687 Y-0.0948 Z-1.1017
X204.7748 Y-0.1085 Z-1.1044
X204.7816 Y-0.1217 Z-1.1070
X204.7893 Y-0.1346 Z-1.1097
X204.7977 Y-0.1469 Z-1.1123
X204.8069 Y-0.1588 Z-1.1149
X204.8167 Y-0.1700 Z-1.1176
X204.8272 Y-0.1807 Z-1.1202
X204.8383 Y-0.1907 Z-1.1228
X204.8500 Y-0.2000 Z-1.1255
X204.8623 Y-0.2086 Z-1.1281
X204.8750 Y-0.2165 Z-1.1308
X204.8882 Y-0.2236 Z-1.1334
X204.9017 Y-0.2299 Z-1.1360
X204.9157 Y-0.2353 Z-1.1387
X204.9299 Y-0.2400 Z-1.1413
X204.9444 Y-0.2437 Z-1.1439
X204.9590 Y-0.2466 Z-1.1466
X204.9739 Y-0.2486 Z-1.1492
X204.9888 Y-0.2497 Z-1.1519
X205.0037 Y-0.2500 Z-1.1545
X205.0187 Y-0.2493 Z-1.1571
X205.0336 Y-0.2477 Z-1.1598
X205.0483 Y-0.2453 Z-1.1624
X205.0629 Y-0.2420 Z-1.1650
X205.0773 Y-0.2378 Z-1.1677
X205.0913 Y-0.2327 Z-1.1703
X205.1051 Y-0.2268 Z-1.1730
X205.1185 Y-0.2201 Z-1.1756
X205.1314 Y-0.2127 Z-1.1782
X205.1439 Y-0.2044 Z-1.1809
X205.1559 Y-0.1955 Z-1.1835
X205.1673 Y-0.1858 Z-1.1861
X205.1781 Y-0.1754 Z-1.1888
X205.1883 Y-0.1645 Z-1.1914
X205.1978 Y-0.1529 Z-1.1941
X205.2066 Y-0.1408 Z-1.1967
X205.2146 Y-0.1282 Z-1.1993
X205.2219 Y-0.1152 Z-1.2020
X205.2284 Y-0.1017 Z-1.2046
X205.2341 Y-0.0878 Z-1.2072
X205.2389 Y-0.0737 Z-1.2099
X205.2429 Y-0.0593 Z-1.2125
X205.2460 Y-0.0446 Z-1.2152
X205.2482 Y-0.0298 Z-1.2178
X205.2496 Y-0.0150 Z-1.2204
X205.2500 Y0.0000 Z-1.2231
X205.2496 Y0.0150 Z-1.2257
X205.2482 Y0.0298 Z-1.2283
X205.2460 Y0.0446 Z-1.2310
X205.2429 Y0.0593 Z-1.2336
X205.2389 Y0.0737 Z-1.2363
X205.2341 Y0.0878 Z-1.2389
X205.2284 Y0.1017 Z-1.2415
X205.2219 Y0.1152 Z-1.2442
X205.2146 Y0.1282 Z-1.2468
X205.2066 Y0.1408 Z-1.2494
X205.1978 Y0.1529 Z-1.2521
X205.1883 Y0.1645 Z-1.2547
X205.1781 Y0.1754 Z-1.2574
X205.1673 Y0.1858 Z-1.2600
X205.1559 Y0.1955 Z-1.2626
X205.1439 Y0.2044 Z-1.2653
X205.1314 Y0.2127 Z-1.2679
X205.1185 Y0.2201 Z-1.2705
X205.1051 Y0.2268 Z-1.2732
X205.0913 Y0.2327 Z-1.2758
X205.0773 Y0.2378 Z-1.2785
X205.0629 Y0.2420 Z-1.2811
X205.0483 Y0.2453 Z-1.2837
X205.0336 Y0.2477 Z-1.2864
X205.0187 Y0.2493 Z-1.2890
X205.0037 Y0.2500 Z-1.2916
X204.9888 Y0.2497 Z-1.2943
X204.9739 Y0.2486 Z-1.2969
X204.9590 Y0.2466 Z-1.2996
X204.9444 Y0.2437 Z-1.3022
X204.9299 Y0.2400 Z-1.3048
X204.9157 Y0.2353 Z-1.3075
X204.9017 Y0.2299 Z-1.3101
X204.8882 Y0.2236 Z-1.3127
X204.8750 Y0.2165 Z-1.3154
X204.8623 Y0.2086 Z-1.3180
X204.8500 Y0.2000 Z-1.3207
X204.8383 Y0.1907 Z-1.3233
X204.8272 Y0.1807 Z-1.3259
X204.8167 Y0.1700 Z-1.3286
X204.8069 Y0.1588 Z-1.3312
X204.7977 Y0.1469 Z-1.3338
X204.7893 Y0.1346 Z-1.3365
X204.7816 Y0.1217 Z-1.3391
X204.7748 Y0.1085 Z-1.3418
X204.7687 Y0.0948 Z-1.3444
X204.7634 Y0.0808 Z-1.3470
X204.7590 Y0.0665 Z-1.3497
X204.7555 Y0.0520 Z-1.3523
X204.7528 Y0.0373 Z-1.3549
X204.7510 Y0.0224 Z-1.3576
X204.7501 Y0.0075 Z-1.3602
Y-0.0075 Z-1.3629
X204.7510 Y-0.0224 Z-1.3655
X204.7528 Y-0.0373 Z-1.3681
X204.7555 Y-0.0520 Z-1.3708
X204.7590 Y-0.0665 Z-1.3734
X204.7634 Y-0.0808 Z-1.3760
X204.7687 Y-0.0948 Z-1.3787
X204.7748 Y-0.1085 Z-1.3813
X204.7816 Y-0.1217 Z-1.3840
X204.7893 Y-0.1346 Z-1.3866
X204.7977 Y-0.1469 Z-1.3892
X204.8069 Y-0.1588 Z-1.3919
X204.8167 Y-0.1700 Z-1.3945
X204.8272 Y-0.1807 Z-1.3971
X204.8383 Y-0.1907 Z-1.3998
X204.8500 Y-0.2000 Z-1.4024
X204.8623 Y-0.2086 Z-1.4051
X204.8750 Y-0.2165 Z-1.4077
X204.8882 Y-0.2236 Z-1.4103
X204.9017 Y-0.2299 Z-1.4130
X204.9157 Y-0.2353 Z-1.4156
X204.9299 Y-0.2400 Z-1.4182
X204.9444 Y-0.2437 Z-1.4209
X204.9590 Y-0.2466 Z-1.4235
X204.9739 Y-0.2486 Z-1.4262
X204.9888 Y-0.2497 Z-1.4288
X205.0037 Y-0.2500 Z-1.4314
X205.0187 Y-0.2493 Z-1.4341
X205.0336 Y-0.2477 Z-1.4367
X205.0483 Y-0.2453 Z-1.4393
X205.0629 Y-0.2420 Z-1.4420
X205.0773 Y-0.2378 Z-1.4446
X205.0913 Y-0.2327 Z-1.4473
X205.1051 Y-0.2268 Z-1.4499
X205.1185 Y-0.2201 Z-1.4525
X205.1314 Y-0.2127 Z-1.4552
X205.1439 Y-0.2044 Z-1.4578
X205.1559 Y-0.1955 Z-1.4604
X205.1673 Y-0.1858 Z-1.4631
X205.1781 Y-0.1754 Z-1.4657
X205.1883 Y-0.1645 Z-1.4684
X205.1978 Y-0.1529 Z-1.4710
X205.2066 Y-0.1408 Z-1.4736
X205.2146 Y-0.1282 Z-1.4763
X205.2219 Y-0.1152 Z-1.4789
X205.2284 Y-0.1017 Z-1.4815
X205.2341 Y-0.0878 Z-1.4842
X205.2389 Y-0.0737 Z-1.4868
X205.2429 Y-0.0593 Z-1.4894
X205.2460 Y-0.0446 Z-1.4921
X205.2482 Y-0.0298 Z-1.4947
X205.2496 Y-0.0150 Z-1.4974
X205.2500 Y0.0000 Z-1.5000
X205.0854 Y0.2349
X205.0773 Y0.2378 Z-1.5015
X205.0629 Y0.2420 Z-1.5042
X205.0483 Y0.2453 Z-1.5068
X205.0336 Y0.2477 Z-1.5094
X205.0187 Y0.2493 Z-1.5121
X205.0037 Y0.2500 Z-1.5147
X204.9888 Y0.2497 Z-1.5173
X204.9739 Y0.2486 Z-1.5200
X204.9590 Y0.2466 Z-1.5226
X204.9444 Y0.2437 Z-1.5253
X204.9299 Y0.2400 Z-1.5279
X204.9157 Y0.2353 Z-1.5305
X204.9017 Y0.2299 Z-1.5332
X204.8882 Y0.2236 Z-1.5358
X204.8750 Y0.2165 Z-1.5384
X204.8623 Y0.2086 Z-1.5411
X204.8500 Y0.2000 Z-1.5437
X204.8383 Y0.1907 Z-1.5464
X204.8272 Y0.1807 Z-1.5490
X204.8167 Y0.1700 Z-1.5516
X204.8069 Y0.1588 Z-1.5543
X204.7977 Y0.1469 Z-1.5569
X204.7893 Y0.1346 Z-1.5595
X204.7816 Y0.1217 Z-1.5622
X204.7748 Y0.1085 Z-1.5648
X204.7687 Y0.0948 Z-1.5675
X204.7634 Y0.0808 Z-1.5701
X204.7590 Y0.0665 Z-1.5727
X204.7555 Y0.0520 Z-1.5754
X204.7528 Y0.0373 Z-1.5780
X204.7510 Y0.0224 Z-1.5806
X204.7501 Y0.0075 Z-1.5833
Y-0.0075 Z-1.5859
X204.7510 Y-0.0224 Z-1.5886
X204.7528 Y-0.0373 Z-1.5912
X204.7555 Y-0.0520 Z-1.5938
X204.7590 Y-0.0665 Z-1.5965
X204.7634 Y-0.0808 Z-1.5991
X204.7687 Y-0.0948 Z-1.6017
X204.7748 Y-0.1085 Z-1.6044
X204.7816 Y-0.1217 Z-1.6070
X204.7893 Y-0.1346 Z-1.6097
X204.7977 Y-0.1469 Z-1.6123
X204.8069 Y-0.1588 Z-1.6149
X204.8167 Y-0.1700 Z-1.6176
X204.8272 Y-0.1807 Z-1.6202
X204.8383 Y-0.1907 Z-1.6228
X204.8500 Y-0.2000 Z-1.6255
X204.8623 Y-0.2086 Z-1.6281
X204.8750 Y-0.2165 Z-1.6308
X204.8882 Y-0.2236 Z-1.6334
X204.9017 Y-0.2299 Z-1.6360
X204.9157 Y-0.2353 Z-1.6387
X204.9299 Y-0.2400 Z-1.6413
X204.9444 Y-0.2437 Z-1.6439
X204.9590 Y-0.2466 Z-1.6466
X204.9739 Y-0.2486 Z-1.6492
X204.9888 Y-0.2497 Z-1.6519
X205.0037 Y-0.2500 Z-1.6545
X205.0187 Y-0.2493 Z-1.6571
X205.0336 Y-0.2477 Z-1.6598
X205.0483 Y-0.2453 Z-1.6624
X205.0629 Y-0.2420 Z-1.6650
X205.0773 Y-0.2378 Z-1.6677
X205.0913 Y-0.2327 Z-1.6703
X205.1051 Y-0.2268 Z-1.6730
X205.1185 Y-0.2201 Z-1.6756
X205.1314 Y-0.2127 Z-1.6782
X205.1439 Y-0.2044 Z-1.6809
X205.1559 Y-0.1955 Z-1.6835
X205.1673 Y-0.1858 Z-1.6861
X205.1781 Y-0.1754 Z-1.6888
X205.1883 Y-0.1645 Z-1.6914
X205.1978 Y-0.1529 Z-1.6941
X205.2066 Y-0.1408 Z-1.6967
X205.2146 Y-0.1282 Z-1.6993
X205.2219 Y-0.1152 Z-1.7020
X205.2284 Y-0.1017 Z-1.7046
X205.2341 Y-0.0878 Z-1.7072
X205.2389 Y-0.0737 Z-1.7099
X205.2429 Y-0.0593 Z-1.7125
X205.2460 Y-0.0446 Z-1.7152
X205.2482 Y-0.0298 Z-1.7178
X205.2496 Y-0.0150 Z-1.7204
X205.2500 Y0.0000 Z-1.7231
X205.2496 Y0.0150 Z-1.7257
X205.2482 Y0.0298 Z-1.7283
X205.2460 Y0.0446 Z-1.7310
X205.2429 Y0.0593 Z-1.7336
X205.2389 Y0.0737 Z-1.7363
X205.2341 Y0.0878 Z-1.7389
X205.2284 Y0.1017 Z-1.7415
X205.2219 Y0.1152 Z-1.7442
X205.2146 Y0.1282 Z-1.7468
X205.2066 Y0.1408 Z-1.7494
X205.1978 Y0.1529 Z-1.7521
X205.1883 Y0.1645 Z-1.7547
X205.1781 Y0.1754 Z-1.7574
X205.1673 Y0.1858 Z-1.7600
X205.1559 Y0.1955 Z-1.7626
X205.1439 Y0.2044 Z-1.7653
X205.1314 Y0.2127 Z-1.7679
X205.1185 Y0.2201 Z-1.7705
X205.1051 Y0.2268 Z-1.7732
X205.0913 Y0.2327 Z-1.7758
X205.0773 Y0.2378 Z-1.7785
X205.0629 Y0.2420 Z-1.7811
X205.0483 Y0.2453 Z-1.7837
X205.0336 Y0.2477 Z-1.7864
X205.0187 Y0.2493 Z-1.7890
X205.0037 Y0.2500 Z-1.7916
X204.9888 Y0.2497 Z-1.7943
X204.9739 Y0.2486 Z-1.7969
X204.9590 Y0.2466 Z-1.7996
X204.9444 Y0.2437 Z-1.8022
X204.9299 Y0.2400 Z-1.8048
X204.9157 Y0.2353 Z-1.8075
X204.9017 Y0.2299 Z-1.8101
X204.8882 Y0.2236 Z-1.8127
X204.8750 Y0.2165 Z-1.8154
X204.8623 Y0.2086 Z-1.8180
X204.8500 Y0.2000 Z-1.8207
X204.8383 Y0.1907 Z-1.8233
X204.8272 Y0.1807 Z-1.8259
X204.8167 Y0.1700 Z-1.8286
X204.8069 Y0.1588 Z-1.8312
X204.7977 Y0.1469 Z-1.8338
X204.7893 Y0.1346 Z-1.8365
X204.7816 Y0.1217 Z-1.8391
X204.7748 Y0.1085 Z-1.8418
X204.7687 Y0.0948 Z-1.8444
X204.7634 Y0.0808 Z-1.8470
X204.7590 Y0.0665 Z-1.8497
X204.7555 Y0.0520 Z-1.8523
X204.7528 Y0.0373 Z-1.8549
X204.7510 Y0.0224 Z-1.8576
X204.7501 Y0.0075 Z-1.8602
Y-0.0075 Z-1.8629
X204.7510 Y-0.0224 Z-1.8655
X204.7528 Y-0.0373 Z-1.8681
X204.7555 Y-0.0520 Z-1.8708
X204.7590 Y-0.0665 Z-1.8734
X204.7634 Y-0.0808 Z-1.8760
X204.7687 Y-0.0948 Z-1.8787
X204.7748 Y-0.1085 Z-1.8813
X204.7816 Y-0.1217 Z-1.8840
X204.7893 Y-0.1346 Z-1.8866
X204.7977 Y-0.1469 Z-1.8892
X204.8069 Y-0.1588 Z-1.8919
X204.8167 Y-0.1700 Z-1.8945
X204.8272 Y-0.1807 Z-1.8971
X204.8383 Y-0.1907 Z-1.8998
X204.8500 Y-0.2000 Z-1.9024
X204.8623 Y-0.2086 Z-1.9051
X204.8750 Y-0.2165 Z-1.9077
X204.8882 Y-0.2236 Z-1.9103
X204.9017 Y-0.2299 Z-1.9130
X204.9157 Y-0.2353 Z-1.9156
X204.9299 Y-0.2400 Z-1.9182
X204.9444 Y-0.2437 Z-1.9209
X204.9590 Y-0.2466 Z-1.9235
X204.9739 Y-0.2486 Z-1.9262
X204.9888 Y-0.2497 Z-1.9288
X205.0037 Y-0.2500 Z-1.9314
X205.0187 Y-0.2493 Z-1.9341
X205.0336 Y-0.2477 Z-1.9367
X205.0483 Y-0.2453 Z-1.9393
X205.0629 Y-0.2420 Z-1.9420
X205.0773 Y-0.2378 Z-1.9446
X205.0913 Y-0.2327 Z-1.9473
X205.1051 Y-0.2268 Z-1.9499
X205.1185 Y-0.2201 Z-1.9525
X205.1314 Y-0.2127 Z-1.9552
X205.1439 Y-0.2044 Z-1.9578
X205.1559 Y-0.1955 Z-1.9604
X205.1673 Y-0.1858 Z-1.9631
X205.1781 Y-0.1754 Z-1.9657
X205.1883 Y-0.1645 Z-1.9684
X205.1978 Y-0.1529 Z-1.9710
X205.2066 Y-0.1408 Z-1.9736
X205.2146 Y-0.1282 Z-1.9763
X205.2219 Y-0.1152 Z-1.9789
X205.2284 Y-0.1017 Z-1.9815
X205.2341 Y-0.0878 Z-1.9842
X205.2389 Y-0.0737 Z-1.9868
X205.2429 Y-0.0593 Z-1.9895
X205.2460 Y-0.0446 Z-1.9921
X205.2482 Y-0.0298 Z-1.9947
X205.2496 Y-0.0150 Z-1.9974
X205.2500 Y0.0000 Z-2.0000
X205.0854 Y0.2349
X205.0773 Y0.2378 Z-2.0015
X205.0629 Y0.2420 Z-2.0042
X205.0483 Y0.2453 Z-2.0068
X205.0336 Y0.2477 Z-2.0094
X205.0187 Y0.2493 Z-2.0121
X205.0037 Y0.2500 Z-2.0147
X204.9888 Y0.2497 Z-2.0173
X204.9739 Y0.2486 Z-2.0200
X204.9590 Y0.2466 Z-2.0226
X204.9444 Y0.2437 Z-2.0253
X204.9299 Y0.2400 Z-2.0279
X204.9157 Y0.2353 Z-2.0305
X204.9017 Y0.2299 Z-2.0332
X204.8882 Y0.2236 Z-2.0358
X204.8750 Y0.2165 Z-2.0384
X204.8623 Y0.2086 Z-2.0411
X204.8500 Y0.2000 Z-2.0437
X204.8383 Y0.1907 Z-2.0464
X204.8272 Y0.1807 Z-2.0490
X204.8167 Y0.1700 Z-2.0516
X204.8069 Y0.1588 Z-2.0543
X204.7977 Y0.1469 Z-2.0569
X204.7893 Y0.1346 Z-2.0595
X204.7816 Y0.1217 Z-2.0622
X204.7748 Y0.1085 Z-2.0648
X204.7687 Y0.0948 Z-2.0675
X204.7634 Y0.0808 Z-2.0701
X204.7590 Y0.0665 Z-2.0727
X204.7555 Y0.0520 Z-2.0754
X204.7528 Y0.0373 Z-2.0780
X204.7510 Y0.0224 Z-2.0806
X204.7501 Y0.0075 Z-2.0833
Y-0.0075 Z-2.0859
X204.7510 Y-0.0224 Z-2.0886
X204.7528 Y-0.0373 Z-2.0912
X204.7555 Y-0.0520 Z-2.0938
X204.7590 Y-0.0665 Z-2.0965
X204.7634 Y-0.0808 Z-2.0991
X204.7687 Y-0.0948 Z-2.1017
X204.7748 Y-0.1085 Z-2.1044
X204.7816 Y-0.1217 Z-2.1070
X204.7893 Y-0.1346 Z-2.1097
X204.7977 Y-0.1469 Z-2.1123
X204.8069 Y-0.1588 Z-2.1149
X204.8167 Y-0.1700 Z-2.1176
X204.8272 Y-0.1807 Z-2.1202
X204.8383 Y-0.1907 Z-2.1228
X204.8500 Y-0.2000 Z-2.1255
X204.8623 Y-0.2086 Z-2.1281
X204.8750 Y-0.2165 Z-2.1308
X204.8882 Y-0.2236 Z-2.1334
X204.9017 Y-0.2299 Z-2.1360
X204.9157 Y-0.2353 Z-2.1387
X204.9299 Y-0.2400 Z-2.1413
X204.9444 Y-0.2437 Z-2.1439
X204.9590 Y-0.2466 Z-2.1466
X204.9739 Y-0.2486 Z-2.1492
X204.9888 Y-0.2497 Z-2.1519
X205.0037 Y-0.2500 Z-2.1545
X205.0187 Y-0.2493 Z-2.1571
X205.0336 Y-0.2477 Z-2.1598
X205.0483 Y-0.2453 Z-2.1624
X205.0629 Y-0.2420 Z-2.1650
X205.0773 Y-0.2378 Z-2.1677
X205.0913 Y-0.2327 Z-2.1703
X205.1051 Y-0.2268 Z-2.1730
X205.1185 Y-0.2201 Z-2.1756
X205.1314 Y-0.2127 Z-2.1782
X205.1439 Y-0.2044 Z-2.1809
X205.1559 Y-0.1955 Z-2.1835
X205.1673 Y-0.1858 Z-2.1861
X205.1781 Y-0.1754 Z-2.1888
X205.1883 Y-0.1645 Z-2.1914
X205.1978 Y-0.1529 Z-2.1941
X205.2066 Y-0.1408 Z-2.1967
X205.2146 Y-0.1282 Z-2.1993
X205.2219 Y-0.1152 Z-2.2020
X205.2284 Y-0.1017 Z-2.2046
X205.2341 Y-0.0878 Z-2.2072
X205.2389 Y-0.0737 Z-2.2099
X205.2429 Y-0.0593 Z-2.2125
