%
(KEYHOLE BRACKET KEYHOLE SIDE)
(T2  D=3.125 CR=0. - ZMIN=-3. - FLAT END MILL)
G90 G94 G17 G91.1 G64 P0.1
G21
G53 G0 Z0.
(2D CONTOUR2)
T2 M6
S24000 M3
G54
B0.
M8
G0 G43 X-15.478 Y12.523 Z10. H2
G0 Z2.313
G1 X-15.472 Y12.518 Z2.243 F333.33
X-15.456 Y12.502 Z2.177
X-15.429 Y12.476 Z2.118
X-15.393 Y12.442 Z2.068
X-15.35 Y12.401 Z2.031
X-15.302 Y12.356 Z2.008
X-15.252 Y12.308 Z2.
X-15.025 Y12.093 F400.
G3 X-14.583 Y12.104 R0.312
X-14.604 Y12.917 Z1.968 R0.575 F600.
X-15. Y13.075 Z1.953 R0.575
G1 X-20.416 Z1.764
G2 X-21.874 Y13.772 Z1.706 R1.875
G3 X-24.722 Y14.076 Z1.595 R2.025
X-25.026 Y11.228 Z1.484 R2.025
X-22.178 Y10.924 Z1.372 R2.025
X-21.874 Y11.228 Z1.357 R2.025
G2 X-20.416 Y11.925 Z1.299 R1.875
G1 X-15. Z1.11
G3 X-14.425 Y12.5 Z1.078 R0.575
X-15. Y13.075 Z1.047 R0.575
G1 X-20.416 Z0.858
G2 X-21.874 Y13.772 Z0.799 R1.875
G3 X-24.722 Y14.076 Z0.688 R2.025
X-25.026 Y11.228 Z0.577 R2.025
X-22.178 Y10.924 Z0.466 R2.025
X-21.874 Y11.228 Z0.451 R2.025
G2 X-20.416 Y11.925 Z0.393 R1.875
G1 X-15. Z0.204
G3 X-14.425 Y12.5 Z0.172 R0.575
X-15. Y13.075 Z0.141 R0.575
G1 X-20.416 Z-0.049
G2 X-21.874 Y13.772 Z-0.107 R1.875
G3 X-24.722 Y14.076 Z-0.218 R2.025
X-25.026 Y11.228 Z-0.329 R2.025
X-22.178 Y10.924 Z-0.44 R2.025
X-21.874 Y11.228 Z-0.455 R2.025
G2 X-20.416 Y11.925 Z-0.514 R1.875
G1 X-15. Z-0.703
G3 X-14.425 Y12.5 Z-0.734 R0.575
X-15. Y13.075 Z-0.766 R0.575
G1 X-20.416 Z-0.955
G2 X-21.874 Y13.772 Z-1.013 R1.875
G3 X-24.722 Y14.076 Z-1.124 R2.025
X-25.026 Y11.228 Z-1.235 R2.025
X-22.178 Y10.924 Z-1.346 R2.025
X-21.874 Y11.228 Z-1.361 R2.025
G2 X-20.416 Y11.925 Z-1.42 R1.875
G1 X-15. Z-1.609
G3 X-14.425 Y12.5 Z-1.641 R0.575
X-15. Y13.075 Z-1.672 R0.575
G1 X-20.416 Z-1.861
G2 X-21.874 Y13.772 Z-1.92 R1.875
G3 X-24.722 Y14.076 Z-2.031 R2.025
X-25.026 Y11.228 Z-2.142 R2.025
X-22.178 Y10.924 Z-2.253 R2.025
X-21.874 Y11.228 Z-2.268 R2.025
G2 X-20.416 Y11.925 Z-2.326 R1.875
G1 X-15. Z-2.515
G3 X-14.425 Y12.5 Z-2.547 R0.575
X-15. Y13.075 Z-2.578 R0.575
G1 X-20.416 Z-2.767
G2 X-21.874 Y13.772 Z-2.826 R1.875
G3 X-24.722 Y14.076 Z-2.937 R2.025
X-25.475 Y12.5 Z-3. R2.025
X-23.45 Y10.475 R2.025 F796.8
X-21.874 Y11.228 R2.025
G2 X-20.416 Y11.925 R1.875
G1 X-15.
G3 X-14.425 Y12.5 R0.575
X-15. Y13.075 R0.575
G1 X-20.416
G2 X-21.874 Y13.772 R1.875
G3 X-24.722 Y14.076 R2.025
X-25.475 Y12.5 R2.025
G2 X-25.62 Y12.274 R0.249
G3 X-25.741 Y12.034 R0.216
X-22.984 Y10.209 R2.338
X-21.631 Y11.032 R2.338
G2 X-20.416 Y11.613 R1.563
G1 X-15.
G3 X-14.113 Y12.5 R0.887
X-15. Y13.387 R0.887
G1 X-20.416
G2 X-21.631 Y13.968 R1.562
G3 X-24.918 Y14.319 R2.338
X-25.741 Y12.034 R2.338
X-25.607 Y11.836 R0.312 F400.
X-25.372 Y11.79 R0.312
G1 X-25.066 Y11.853
X-24.998 Y11.866 Z-2.992
X-24.933 Y11.88 Z-2.969
X-24.875 Y11.891 Z-2.932
X-24.827 Y11.901 Z-2.882
X-24.79 Y11.909 Z-2.823
X-24.767 Y11.913 Z-2.757
X-24.76 Y11.915 Z-2.688
G0 Z10.
(2D CONTOUR2)
G0 X-15.478 Y45.523
Z10.
Z2.313
G1 X-15.472 Y45.518 Z2.243 F333.33
X-15.456 Y45.502 Z2.177
X-15.429 Y45.476 Z2.118
X-15.393 Y45.442 Z2.068
X-15.35 Y45.401 Z2.031
X-15.302 Y45.356 Z2.008
X-15.252 Y45.308 Z2.
X-15.025 Y45.093 F400.
G3 X-14.583 Y45.104 R0.312
X-14.604 Y45.917 Z1.968 R0.575 F600.
X-15. Y46.075 Z1.953 R0.575
G1 X-20.416 Z1.764
G2 X-21.874 Y46.772 Z1.706 R1.875
G3 X-24.722 Y47.076 Z1.595 R2.025
X-25.026 Y44.228 Z1.484 R2.025
X-22.178 Y43.924 Z1.372 R2.025
X-21.874 Y44.228 Z1.357 R2.025
G2 X-20.416 Y44.925 Z1.299 R1.875
G1 X-15. Z1.11
G3 X-14.425 Y45.5 Z1.078 R0.575
X-15. Y46.075 Z1.047 R0.575
G1 X-20.416 Z0.858
G2 X-21.874 Y46.772 Z0.799 R1.875
G3 X-24.722 Y47.076 Z0.688 R2.025
X-25.026 Y44.228 Z0.577 R2.025
X-22.178 Y43.924 Z0.466 R2.025
X-21.874 Y44.228 Z0.451 R2.025
G2 X-20.416 Y44.925 Z0.393 R1.875
G1 X-15. Z0.204
G3 X-14.425 Y45.5 Z0.172 R0.575
X-15. Y46.075 Z0.141 R0.575
G1 X-20.416 Z-0.049
G2 X-21.874 Y46.772 Z-0.107 R1.875
G3 X-24.722 Y47.076 Z-0.218 R2.025
X-25.026 Y44.228 Z-0.329 R2.025
X-22.178 Y43.924 Z-0.44 R2.025
X-21.874 Y44.228 Z-0.455 R2.025
G2 X-20.416 Y44.925 Z-0.514 R1.875
G1 X-15. Z-0.703
G3 X-14.425 Y45.5 Z-0.734 R0.575
X-15. Y46.075 Z-0.766 R0.575
G1 X-20.416 Z-0.955
G2 X-21.874 Y46.772 Z-1.013 R1.875
G3 X-24.722 Y47.076 Z-1.124 R2.025
X-25.026 Y44.228 Z-1.235 R2.025
X-22.178 Y43.924 Z-1.346 R2.025
X-21.874 Y44.228 Z-1.361 R2.025
G2 X-20.416 Y44.925 Z-1.42 R1.875
G1 X-15. Z-1.609
G3 X-14.425 Y45.5 Z-1.641 R0.575
X-15. Y46.075 Z-1.672 R0.575
G1 X-20.416 Z-1.861
G2 X-21.874 Y46.772 Z-1.92 R1.875
G3 X-24.722 Y47.076 Z-2.031 R2.025
X-25.026 Y44.228 Z-2.142 R2.025
X-22.178 Y43.924 Z-2.253 R2.025
X-21.874 Y44.228 Z-2.268 R2.025
G2 X-20.416 Y44.925 Z-2.326 R1.875
G1 X-15. Z-2.515
G3 X-14.425 Y45.5 Z-2.547 R0.575
X-15. Y46.075 Z-2.578 R0.575
G1 X-20.416 Z-2.767
G2 X-21.874 Y46.772 Z-2.826 R1.875
G3 X-24.722 Y47.076 Z-2.937 R2.025
X-25.475 Y45.5 Z-3. R2.025
X-23.45 Y43.475 R2.025 F796.8
X-21.874 Y44.228 R2.025
G2 X-20.416 Y44.925 R1.875
G1 X-15.
G3 X-14.425 Y45.5 R0.575
X-15. Y46.075 R0.575
G1 X-20.416
G2 X-21.874 Y46.772 R1.875
G3 X-24.722 Y47.076 R2.025
X-25.475 Y45.5 R2.025
G2 X-25.62 Y45.274 R0.249
G3 X-25.741 Y45.034 R0.216
X-22.984 Y43.209 R2.338
X-21.631 Y44.032 R2.338
G2 X-20.416 Y44.613 R1.563
G1 X-15.
G3 X-14.113 Y45.5 R0.887
X-15. Y46.387 R0.887
G1 X-20.416
G2 X-21.631 Y46.968 R1.562
G3 X-24.918 Y47.319 R2.338
X-25.741 Y45.034 R2.338
X-25.607 Y44.836 R0.312 F400.
X-25.372 Y44.79 R0.312
G1 X-25.066 Y44.853
X-24.998 Y44.866 Z-2.992
X-24.933 Y44.88 Z-2.969
X-24.875 Y44.891 Z-2.932
X-24.827 Y44.901 Z-2.882
X-24.79 Y44.909 Z-2.823
X-24.767 Y44.913 Z-2.757
X-24.76 Y44.915 Z-2.688
G0 Z10.
(2D CONTOUR2)
G0 X-15.478 Y78.523
Z10.
Z2.313
G1 X-15.472 Y78.518 Z2.243 F333.33
X-15.456 Y78.502 Z2.177
X-15.429 Y78.476 Z2.118
X-15.393 Y78.442 Z2.068
X-15.35 Y78.401 Z2.031
X-15.302 Y78.356 Z2.008
X-15.252 Y78.308 Z2.
X-15.025 Y78.093 F400.
G3 X-14.583 Y78.104 R0.312
X-14.604 Y78.917 Z1.968 R0.575 F600.
X-15. Y79.075 Z1.953 R0.575
G1 X-20.416 Z1.764
G2 X-21.874 Y79.772 Z1.706 R1.875
G3 X-24.722 Y80.076 Z1.595 R2.025
X-25.026 Y77.228 Z1.484 R2.025
X-22.178 Y76.924 Z1.372 R2.025
X-21.874 Y77.228 Z1.357 R2.025
G2 X-20.416 Y77.925 Z1.299 R1.875
G1 X-15. Z1.11
G3 X-14.425 Y78.5 Z1.078 R0.575
X-15. Y79.075 Z1.047 R0.575
G1 X-20.416 Z0.858
G2 X-21.874 Y79.772 Z0.799 R1.875
G3 X-24.722 Y80.076 Z0.688 R2.025
X-25.026 Y77.228 Z0.577 R2.025
X-22.178 Y76.924 Z0.466 R2.025
X-21.874 Y77.228 Z0.451 R2.025
G2 X-20.416 Y77.925 Z0.393 R1.875
G1 X-15. Z0.204
G3 X-14.425 Y78.5 Z0.172 R0.575
X-15. Y79.075 Z0.141 R0.575
G1 X-20.416 Z-0.049
G2 X-21.874 Y79.772 Z-0.107 R1.875
G3 X-24.722 Y80.076 Z-0.218 R2.025
X-25.026 Y77.228 Z-0.329 R2.025
X-22.178 Y76.924 Z-0.44 R2.025
X-21.874 Y77.228 Z-0.455 R2.025
G2 X-20.416 Y77.925 Z-0.514 R1.875
G1 X-15. Z-0.703
G3 X-14.425 Y78.5 Z-0.734 R0.575
X-15. Y79.075 Z-0.766 R0.575
G1 X-20.416 Z-0.955
G2 X-21.874 Y79.772 Z-1.013 R1.875
G3 X-24.722 Y80.076 Z-1.124 R2.025
X-25.026 Y77.228 Z-1.235 R2.025
X-22.178 Y76.924 Z-1.346 R2.025
X-21.874 Y77.228 Z-1.361 R2.025
G2 X-20.416 Y77.925 Z-1.42 R1.875
G1 X-15. Z-1.609
G3 X-14.425 Y78.5 Z-1.641 R0.575
X-15. Y79.075 Z-1.672 R0.575
G1 X-20.416 Z-1.861
G2 X-21.874 Y79.772 Z-1.92 R1.875
G3 X-24.722 Y80.076 Z-2.031 R2.025
X-25.026 Y77.228 Z-2.142 R2.025
X-22.178 Y76.924 Z-2.253 R2.025
X-21.874 Y77.228 Z-2.268 R2.025
G2 X-20.416 Y77.925 Z-2.326 R1.875
G1 X-15. Z-2.515
G3 X-14.425 Y78.5 Z-2.547 R0.575
X-15. Y79.075 Z-2.578 R0.575
G1 X-20.416 Z-2.767
G2 X-21.874 Y79.772 Z-2.826 R1.875
G3 X-24.722 Y80.076 Z-2.937 R2.025
X-25.475 Y78.5 Z-3. R2.025
X-23.45 Y76.475 R2.025 F796.8
X-21.874 Y77.228 R2.025
G2 X-20.416 Y77.925 R1.875
G1 X-15.
G3 X-14.425 Y78.5 R0.575
X-15. Y79.075 R0.575
G1 X-20.416
G2 X-21.874 Y79.772 R1.875
G3 X-24.722 Y80.076 R2.025
X-25.475 Y78.5 R2.025
G2 X-25.62 Y78.274 R0.249
G3 X-25.741 Y78.034 R0.216
X-22.984 Y76.209 R2.338
X-21.631 Y77.032 R2.338
G2 X-20.416 Y77.613 R1.563
G1 X-15.
G3 X-14.113 Y78.5 R0.887
X-15. Y79.387 R0.887
G1 X-20.416
G2 X-21.631 Y79.968 R1.562
G3 X-24.918 Y80.319 R2.338
X-25.741 Y78.034 R2.338
X-25.607 Y77.836 R0.312 F400.
X-25.372 Y77.79 R0.312
G1 X-25.066 Y77.853
X-24.998 Y77.866 Z-2.992
X-24.933 Y77.88 Z-2.969
X-24.875 Y77.891 Z-2.932
X-24.827 Y77.901 Z-2.882
X-24.79 Y77.909 Z-2.823
X-24.767 Y77.913 Z-2.757
X-24.76 Y77.915 Z-2.688
G0 Z10.
(2D CONTOUR2)
G0 X-15.478 Y111.523
Z10.
Z2.313
G1 X-15.472 Y111.518 Z2.243 F333.33
X-15.456 Y111.502 Z2.177
X-15.429 Y111.476 Z2.118
X-15.393 Y111.442 Z2.068
X-15.35 Y111.401 Z2.031
X-15.302 Y111.356 Z2.008
X-15.252 Y111.308 Z2.
X-15.025 Y111.093 F400.
G3 X-14.583 Y111.104 R0.312
X-14.604 Y111.917 Z1.968 R0.575 F600.
X-15. Y112.075 Z1.953 R0.575
G1 X-20.416 Z1.764
G2 X-21.874 Y112.772 Z1.706 R1.875
G3 X-24.722 Y113.076 Z1.595 R2.025
X-25.026 Y110.228 Z1.484 R2.025
X-22.178 Y109.924 Z1.372 R2.025
X-21.874 Y110.228 Z1.357 R2.025
G2 X-20.416 Y110.925 Z1.299 R1.875
G1 X-15. Z1.11
G3 X-14.425 Y111.5 Z1.078 R0.575
X-15. Y112.075 Z1.047 R0.575
G1 X-20.416 Z0.858
G2 X-21.874 Y112.772 Z0.799 R1.875
G3 X-24.722 Y113.076 Z0.688 R2.025
X-25.026 Y110.228 Z0.577 R2.025
X-22.178 Y109.924 Z0.466 R2.025
X-21.874 Y110.228 Z0.451 R2.025
G2 X-20.416 Y110.925 Z0.393 R1.875
G1 X-15. Z0.204
G3 X-14.425 Y111.5 Z0.172 R0.575
X-15. Y112.075 Z0.141 R0.575
G1 X-20.416 Z-0.049
G2 X-21.874 Y112.772 Z-0.107 R1.875
G3 X-24.722 Y113.076 Z-0.218 R2.025
X-25.026 Y110.228 Z-0.329 R2.025
X-22.178 Y109.924 Z-0.44 R2.025
X-21.874 Y110.228 Z-0.455 R2.025
G2 X-20.416 Y110.925 Z-0.514 R1.875
G1 X-15. Z-0.703
G3 X-14.425 Y111.5 Z-0.734 R0.575
X-15. Y112.075 Z-0.766 R0.575
G1 X-20.416 Z-0.955
G2 X-21.874 Y112.772 Z-1.013 R1.875
G3 X-24.722 Y113.076 Z-1.124 R2.025
X-25.026 Y110.228 Z-1.235 R2.025
X-22.178 Y109.924 Z-1.346 R2.025
X-21.874 Y110.228 Z-1.361 R2.025
G2 X-20.416 Y110.925 Z-1.42 R1.875
G1 X-15. Z-1.609
G3 X-14.425 Y111.5 Z-1.641 R0.575
X-15. Y112.075 Z-1.672 R0.575
G1 X-20.416 Z-1.861
G2 X-21.874 Y112.772 Z-1.92 R1.875
G3 X-24.722 Y113.076 Z-2.031 R2.025
X-25.026 Y110.228 Z-2.142 R2.025
X-22.178 Y109.924 Z-2.253 R2.025
X-21.874 Y110.228 Z-2.268 R2.025
G2 X-20.416 Y110.925 Z-2.326 R1.875
G1 X-15. Z-2.515
G3 X-14.425 Y111.5 Z-2.547 R0.575
X-15. Y112.075 Z-2.578 R0.575
G1 X-20.416 Z-2.767
G2 X-21.874 Y112.772 Z-2.826 R1.875
G3 X-24.722 Y113.076 Z-2.937 R2.025
X-25.475 Y111.5 Z-3. R2.025
X-23.45 Y109.475 R2.025 F796.8
X-21.874 Y110.228 R2.025
G2 X-20.416 Y110.925 R1.875
G1 X-15.
G3 X-14.425 Y111.5 R0.575
X-15. Y112.075 R0.575
G1 X-20.416
G2 X-21.874 Y112.772 R1.875
G3 X-24.722 Y113.076 R2.025
X-25.475 Y111.5 R2.025
G2 X-25.62 Y111.274 R0.249
G3 X-25.741 Y111.034 R0.216
X-22.984 Y109.209 R2.338
X-21.631 Y110.032 R2.338
G2 X-20.416 Y110.613 R1.563
G1 X-15.
G3 X-14.113 Y111.5 R0.887
X-15. Y112.387 R0.887
G1 X-20.416
G2 X-21.631 Y112.968 R1.562
G3 X-24.918 Y113.319 R2.338
X-25.741 Y111.034 R2.338
X-25.607 Y110.836 R0.312 F400.
X-25.372 Y110.79 R0.312
G1 X-25.066 Y110.853
X-24.998 Y110.866 Z-2.992
X-24.933 Y110.88 Z-2.969
X-24.875 Y110.891 Z-2.932
X-24.827 Y110.901 Z-2.882
X-24.79 Y110.909 Z-2.823
X-24.767 Y110.913 Z-2.757
X-24.76 Y110.915 Z-2.688
G0 Z10.
(2D CONTOUR2)
G0 X-15.478 Y144.523
Z10.
Z2.313
G1 X-15.472 Y144.518 Z2.243 F333.33
X-15.456 Y144.502 Z2.177
X-15.429 Y144.476 Z2.118
X-15.393 Y144.442 Z2.068
X-15.35 Y144.401 Z2.031
X-15.302 Y144.356 Z2.008
X-15.252 Y144.308 Z2.
X-15.025 Y144.093 F400.
G3 X-14.583 Y144.104 R0.312
X-14.604 Y144.917 Z1.968 R0.575 F600.
X-15. Y145.075 Z1.953 R0.575
G1 X-20.416 Z1.764
G2 X-21.874 Y145.772 Z1.706 R1.875
G3 X-24.722 Y146.076 Z1.595 R2.025
X-25.026 Y143.228 Z1.484 R2.025
X-22.178 Y142.924 Z1.372 R2.025
X-21.874 Y143.228 Z1.357 R2.025
G2 X-20.416 Y143.925 Z1.299 R1.875
G1 X-15. Z1.11
G3 X-14.425 Y144.5 Z1.078 R0.575
X-15. Y145.075 Z1.047 R0.575
G1 X-20.416 Z0.858
G2 X-21.874 Y145.772 Z0.799 R1.875
G3 X-24.722 Y146.076 Z0.688 R2.025
X-25.026 Y143.228 Z0.577 R2.025
X-22.178 Y142.924 Z0.466 R2.025
X-21.874 Y143.228 Z0.451 R2.025
G2 X-20.416 Y143.925 Z0.393 R1.875
G1 X-15. Z0.204
G3 X-14.425 Y144.5 Z0.172 R0.575
X-15. Y145.075 Z0.141 R0.575
G1 X-20.416 Z-0.049
G2 X-21.874 Y145.772 Z-0.107 R1.875
G3 X-24.722 Y146.076 Z-0.218 R2.025
X-25.026 Y143.228 Z-0.329 R2.025
X-22.178 Y142.924 Z-0.44 R2.025
X-21.874 Y143.228 Z-0.455 R2.025
G2 X-20.416 Y143.925 Z-0.514 R1.875
G1 X-15. Z-0.703
G3 X-14.425 Y144.5 Z-0.734 R0.575
X-15. Y145.075 Z-0.766 R0.575
G1 X-20.416 Z-0.955
G2 X-21.874 Y145.772 Z-1.013 R1.875
G3 X-24.722 Y146.076 Z-1.124 R2.025
X-25.026 Y143.228 Z-1.235 R2.025
X-22.178 Y142.924 Z-1.346 R2.025
X-21.874 Y143.228 Z-1.361 R2.025
G2 X-20.416 Y143.925 Z-1.42 R1.875
G1 X-15. Z-1.609
G3 X-14.425 Y144.5 Z-1.641 R0.575
X-15. Y145.075 Z-1.672 R0.575
G1 X-20.416 Z-1.861
G2 X-21.874 Y145.772 Z-1.92 R1.875
G3 X-24.722 Y146.076 Z-2.031 R2.025
X-25.026 Y143.228 Z-2.142 R2.025
X-22.178 Y142.924 Z-2.253 R2.025
X-21.874 Y143.228 Z-2.268 R2.025
G2 X-20.416 Y143.925 Z-2.326 R1.875
G1 X-15. Z-2.515
G3 X-14.425 Y144.5 Z-2.547 R0.575
X-15. Y145.075 Z-2.578 R0.575
G1 X-20.416 Z-2.767
G2 X-21.874 Y145.772 Z-2.826 R1.875
G3 X-24.722 Y146.076 Z-2.937 R2.025
X-25.475 Y144.5 Z-3. R2.025
X-23.45 Y142.475 R2.025 F796.8
X-21.874 Y143.228 R2.025
G2 X-20.416 Y143.925 R1.875
G1 X-15.
G3 X-14.425 Y144.5 R0.575
X-15. Y145.075 R0.575
G1 X-20.416
G2 X-21.874 Y145.772 R1.875
G3 X-24.722 Y146.076 R2.025
X-25.475 Y144.5 R2.025
G2 X-25.62 Y144.274 R0.249
G3 X-25.741 Y144.034 R0.216
X-22.984 Y142.209 R2.338
X-21.631 Y143.032 R2.338
G2 X-20.416 Y143.613 R1.563
G1 X-15.
G3 X-14.113 Y144.5 R0.887
X-15. Y145.387 R0.887
G1 X-20.416
G2 X-21.631 Y145.968 R1.562
G3 X-24.918 Y146.319 R2.338
X-25.741 Y144.034 R2.338
X-25.607 Y143.836 R0.312 F400.
X-25.372 Y143.79 R0.312
G1 X-25.066 Y143.853
X-24.998 Y143.866 Z-2.992
X-24.933 Y143.88 Z-2.969
X-24.875 Y143.891 Z-2.932
X-24.827 Y143.901 Z-2.882
X-24.79 Y143.909 Z-2.823
X-24.767 Y143.913 Z-2.757
X-24.76 Y143.915 Z-2.688
G0 Z10.
(2D CONTOUR2)
G0 X-15.478 Y177.523
Z10.
Z2.313
G1 X-15.472 Y177.518 Z2.243 F333.33
X-15.456 Y177.502 Z2.177
X-15.429 Y177.476 Z2.118
X-15.393 Y177.442 Z2.068
X-15.35 Y177.401 Z2.031
X-15.302 Y177.356 Z2.008
X-15.252 Y177.308 Z2.
X-15.025 Y177.093 F400.
G3 X-14.583 Y177.104 R0.312
X-14.604 Y177.917 Z1.968 R0.575 F600.
X-15. Y178.075 Z1.953 R0.575
G1 X-20.416 Z1.764
G2 X-21.874 Y178.772 Z1.706 R1.875
G3 X-24.722 Y179.076 Z1.595 R2.025
X-25.026 Y176.228 Z1.484 R2.025
X-22.178 Y175.924 Z1.372 R2.025
X-21.874 Y176.228 Z1.357 R2.025
G2 X-20.416 Y176.925 Z1.299 R1.875
G1 X-15. Z1.11
G3 X-14.425 Y177.5 Z1.078 R0.575
X-15. Y178.075 Z1.047 R0.575
G1 X-20.416 Z0.858
G2 X-21.874 Y178.772 Z0.799 R1.875
G3 X-24.722 Y179.076 Z0.688 R2.025
X-25.026 Y176.228 Z0.577 R2.025
X-22.178 Y175.924 Z0.466 R2.025
X-21.874 Y176.228 Z0.451 R2.025
G2 X-20.416 Y176.925 Z0.393 R1.875
G1 X-15. Z0.204
G3 X-14.425 Y177.5 Z0.172 R0.575
X-15. Y178.075 Z0.141 R0.575
G1 X-20.416 Z-0.049
G2 X-21.874 Y178.772 Z-0.107 R1.875
G3 X-24.722 Y179.076 Z-0.218 R2.025
X-25.026 Y176.228 Z-0.329 R2.025
X-22.178 Y175.924 Z-0.44 R2.025
X-21.874 Y176.228 Z-0.455 R2.025
G2 X-20.416 Y176.925 Z-0.514 R1.875
G1 X-15. Z-0.703
G3 X-14.425 Y177.5 Z-0.734 R0.575
X-15. Y178.075 Z-0.766 R0.575
G1 X-20.416 Z-0.955
G2 X-21.874 Y178.772 Z-1.013 R1.875
G3 X-24.722 Y179.076 Z-1.124 R2.025
X-25.026 Y176.228 Z-1.235 R2.025
X-22.178 Y175.924 Z-1.346 R2.025
X-21.874 Y176.228 Z-1.361 R2.025
G2 X-20.416 Y176.925 Z-1.42 R1.875
G1 X-15. Z-1.609
G3 X-14.425 Y177.5 Z-1.641 R0.575
X-15. Y178.075 Z-1.672 R0.575
G1 X-20.416 Z-1.861
G2 X-21.874 Y178.772 Z-1.92 R1.875
G3 X-24.722 Y179.076 Z-2.031 R2.025
X-25.026 Y176.228 Z-2.142 R2.025
X-22.178 Y175.924 Z-2.253 R2.025
X-21.874 Y176.228 Z-2.268 R2.025
G2 X-20.416 Y176.925 Z-2.326 R1.875
G1 X-15. Z-2.515
G3 X-14.425 Y177.5 Z-2.547 R0.575
X-15. Y178.075 Z-2.578 R0.575
G1 X-20.416 Z-2.767
G2 X-21.874 Y178.772 Z-2.826 R1.875
G3 X-24.722 Y179.076 Z-2.937 R2.025
X-25.475 Y177.5 Z-3. R2.025
X-23.45 Y175.475 R2.025 F796.8
X-21.874 Y176.228 R2.025
G2 X-20.416 Y176.925 R1.875
G1 X-15.
G3 X-14.425 Y177.5 R0.575
X-15. Y178.075 R0.575
G1 X-20.416
G2 X-21.874 Y178.772 R1.875
G3 X-24.722 Y179.076 R2.025
X-25.475 Y177.5 R2.025
G2 X-25.62 Y177.274 R0.249
G3 X-25.741 Y177.034 R0.216
X-22.984 Y175.209 R2.338
X-21.631 Y176.032 R2.338
G2 X-20.416 Y176.613 R1.563
G1 X-15.
G3 X-14.113 Y177.5 R0.887
X-15. Y178.387 R0.887
G1 X-20.416
G2 X-21.631 Y178.968 R1.562
G3 X-24.918 Y179.319 R2.338
X-25.741 Y177.034 R2.338
X-25.607 Y176.836 R0.312 F400.
X-25.372 Y176.79 R0.312
G1 X-25.066 Y176.853
X-24.998 Y176.866 Z-2.992
X-24.933 Y176.88 Z-2.969
X-24.875 Y176.891 Z-2.932
X-24.827 Y176.901 Z-2.882
X-24.79 Y176.909 Z-2.823
X-24.767 Y176.913 Z-2.757
X-24.76 Y176.915 Z-2.688
G0 Z10.
(2D CONTOUR2)
G0 X-15.478 Y210.523
Z10.
Z2.313
G1 X-15.472 Y210.518 Z2.243 F333.33
X-15.456 Y210.502 Z2.177
X-15.429 Y210.476 Z2.118
X-15.393 Y210.442 Z2.068
X-15.35 Y210.401 Z2.031
X-15.302 Y210.356 Z2.008
X-15.252 Y210.308 Z2.
X-15.025 Y210.093 F400.
G3 X-14.583 Y210.104 R0.312
X-14.604 Y210.917 Z1.968 R0.575 F600.
X-15. Y211.075 Z1.953 R0.575
G1 X-20.416 Z1.764
G2 X-21.874 Y211.772 Z1.706 R1.875
G3 X-24.722 Y212.076 Z1.595 R2.025
X-25.026 Y209.228 Z1.484 R2.025
X-22.178 Y208.924 Z1.372 R2.025
X-21.874 Y209.228 Z1.357 R2.025
G2 X-20.416 Y209.925 Z1.299 R1.875
G1 X-15. Z1.11
G3 X-14.425 Y210.5 Z1.078 R0.575
X-15. Y211.075 Z1.047 R0.575
G1 X-20.416 Z0.858
G2 X-21.874 Y211.772 Z0.799 R1.875
G3 X-24.722 Y212.076 Z0.688 R2.025
X-25.026 Y209.228 Z0.577 R2.025
X-22.178 Y208.924 Z0.466 R2.025
X-21.874 Y209.228 Z0.451 R2.025
G2 X-20.416 Y209.925 Z0.393 R1.875
G1 X-15. Z0.204
G3 X-14.425 Y210.5 Z0.172 R0.575
X-15. Y211.075 Z0.141 R0.575
G1 X-20.416 Z-0.049
G2 X-21.874 Y211.772 Z-0.107 R1.875
G3 X-24.722 Y212.076 Z-0.218 R2.025
X-25.026 Y209.228 Z-0.329 R2.025
X-22.178 Y208.924 Z-0.44 R2.025
X-21.874 Y209.228 Z-0.455 R2.025
G2 X-20.416 Y209.925 Z-0.514 R1.875
G1 X-15. Z-0.703
G3 X-14.425 Y210.5 Z-0.734 R0.575
X-15. Y211.075 Z-0.766 R0.575
G1 X-20.416 Z-0.955
G2 X-21.874 Y211.772 Z-1.013 R1.875
G3 X-24.722 Y212.076 Z-1.124 R2.025
X-25.026 Y209.228 Z-1.235 R2.025
X-22.178 Y208.924 Z-1.346 R2.025
X-21.874 Y209.228 Z-1.361 R2.025
G2 X-20.416 Y209.925 Z-1.42 R1.875
G1 X-15. Z-1.609
G3 X-14.425 Y210.5 Z-1.641 R0.575
X-15. Y211.075 Z-1.672 R0.575
G1 X-20.416 Z-1.861
G2 X-21.874 Y211.772 Z-1.92 R1.875
G3 X-24.722 Y212.076 Z-2.031 R2.025
X-25.026 Y209.228 Z-2.142 R2.025
X-22.178 Y208.924 Z-2.253 R2.025
X-21.874 Y209.228 Z-2.268 R2.025
G2 X-20.416 Y209.925 Z-2.326 R1.875
G1 X-15. Z-2.515
G3 X-14.425 Y210.5 Z-2.547 R0.575
X-15. Y211.075 Z-2.578 R0.575
G1 X-20.416 Z-2.767
G2 X-21.874 Y211.772 Z-2.826 R1.875
G3 X-24.722 Y212.076 Z-2.937 R2.025
X-25.475 Y210.5 Z-3. R2.025
X-23.45 Y208.475 R2.025 F796.8
X-21.874 Y209.228 R2.025
G2 X-20.416 Y209.925 R1.875
G1 X-15.
G3 X-14.425 Y210.5 R0.575
X-15. Y211.075 R0.575
G1 X-20.416
G2 X-21.874 Y211.772 R1.875
G3 X-24.722 Y212.076 R2.025
X-25.475 Y210.5 R2.025
G2 X-25.62 Y210.274 R0.249
G3 X-25.741 Y210.034 R0.216
X-22.984 Y208.209 R2.338
X-21.631 Y209.032 R2.338
G2 X-20.416 Y209.613 R1.563
G1 X-15.
G3 X-14.113 Y210.5 R0.887
X-15. Y211.387 R0.887
G1 X-20.416
G2 X-21.631 Y211.968 R1.562
G3 X-24.918 Y212.319 R2.338
X-25.741 Y210.034 R2.338
X-25.607 Y209.836 R0.312 F400.
X-25.372 Y209.79 R0.312
G1 X-25.066 Y209.853
X-24.998 Y209.866 Z-2.992
X-24.933 Y209.88 Z-2.969
X-24.875 Y209.891 Z-2.932
X-24.827 Y209.901 Z-2.882
X-24.79 Y209.909 Z-2.823
X-24.767 Y209.913 Z-2.757
X-24.76 Y209.915 Z-2.688
G0 Z10.
(2D CONTOUR2)
G0 X-15.478 Y243.523
Z10.
Z2.313
G1 X-15.472 Y243.518 Z2.243 F333.33
X-15.456 Y243.502 Z2.177
X-15.429 Y243.476 Z2.118
X-15.393 Y243.442 Z2.068
X-15.35 Y243.401 Z2.031
X-15.302 Y243.356 Z2.008
X-15.252 Y243.308 Z2.
X-15.025 Y243.093 F400.
G3 X-14.583 Y243.104 R0.312
X-14.604 Y243.917 Z1.968 R0.575 F600.
X-15. Y244.075 Z1.953 R0.575
G1 X-20.416 Z1.764
G2 X-21.874 Y244.772 Z1.706 R1.875
G3 X-24.722 Y245.076 Z1.595 R2.025
X-25.026 Y242.228 Z1.484 R2.025
X-22.178 Y241.924 Z1.372 R2.025
X-21.874 Y242.228 Z1.357 R2.025
G2 X-20.416 Y242.925 Z1.299 R1.875
G1 X-15. Z1.11
G3 X-14.425 Y243.5 Z1.078 R0.575
X-15. Y244.075 Z1.047 R0.575
G1 X-20.416 Z0.858
G2 X-21.874 Y244.772 Z0.799 R1.875
G3 X-24.722 Y245.076 Z0.688 R2.025
X-25.026 Y242.228 Z0.577 R2.025
X-22.178 Y241.924 Z0.466 R2.025
X-21.874 Y242.228 Z0.451 R2.025
G2 X-20.416 Y242.925 Z0.393 R1.875
G1 X-15. Z0.204
G3 X-14.425 Y243.5 Z0.172 R0.575
X-15. Y244.075 Z0.141 R0.575
G1 X-20.416 Z-0.049
G2 X-21.874 Y244.772 Z-0.107 R1.875
G3 X-24.722 Y245.076 Z-0.218 R2.025
X-25.026 Y242.228 Z-0.329 R2.025
X-22.178 Y241.924 Z-0.44 R2.025
X-21.874 Y242.228 Z-0.455 R2.025
G2 X-20.416 Y242.925 Z-0.514 R1.875
G1 X-15. Z-0.703
G3 X-14.425 Y243.5 Z-0.734 R0.575
X-15. Y244.075 Z-0.766 R0.575
G1 X-20.416 Z-0.955
G2 X-21.874 Y244.772 Z-1.013 R1.875
G3 X-24.722 Y245.076 Z-1.124 R2.025
X-25.026 Y242.228 Z-1.235 R2.025
X-22.178 Y241.924 Z-1.346 R2.025
X-21.874 Y242.228 Z-1.361 R2.025
G2 X-20.416 Y242.925 Z-1.42 R1.875
G1 X-15. Z-1.609
G3 X-14.425 Y243.5 Z-1.641 R0.575
X-15. Y244.075 Z-1.672 R0.575
G1 X-20.416 Z-1.861
G2 X-21.874 Y244.772 Z-1.92 R1.875
G3 X-24.722 Y245.076 Z-2.031 R2.025
X-25.026 Y242.228 Z-2.142 R2.025
X-22.178 Y241.924 Z-2.253 R2.025
X-21.874 Y242.228 Z-2.268 R2.025
G2 X-20.416 Y242.925 Z-2.326 R1.875
G1 X-15. Z-2.515
G3 X-14.425 Y243.5 Z-2.547 R0.575
X-15. Y244.075 Z-2.578 R0.575
G1 X-20.416 Z-2.767
G2 X-21.874 Y244.772 Z-2.826 R1.875
G3 X-24.722 Y245.076 Z-2.937 R2.025
X-25.475 Y243.5 Z-3. R2.025
X-23.45 Y241.475 R2.025 F796.8
X-21.874 Y242.228 R2.025
G2 X-20.416 Y242.925 R1.875
G1 X-15.
G3 X-14.425 Y243.5 R0.575
X-15. Y244.075 R0.575
G1 X-20.416
G2 X-21.874 Y244.772 R1.875
G3 X-24.722 Y245.076 R2.025
X-25.475 Y243.5 R2.025
G2 X-25.62 Y243.274 R0.249
G3 X-25.741 Y243.034 R0.216
X-22.984 Y241.209 R2.338
X-21.631 Y242.032 R2.338
G2 X-20.416 Y242.613 R1.563
G1 X-15.
G3 X-14.113 Y243.5 R0.887
X-15. Y244.387 R0.887
G1 X-20.416
G2 X-21.631 Y244.968 R1.562
G3 X-24.918 Y245.319 R2.338
X-25.741 Y243.034 R2.338
X-25.607 Y242.836 R0.312 F400.
X-25.372 Y242.79 R0.312
G1 X-25.066 Y242.853
X-24.998 Y242.866 Z-2.992
X-24.933 Y242.88 Z-2.969
X-24.875 Y242.891 Z-2.932
X-24.827 Y242.901 Z-2.882
X-24.79 Y242.909 Z-2.823
X-24.767 Y242.913 Z-2.757
X-24.76 Y242.915 Z-2.688
G0 Z10.
(2D CONTOUR2)
G0 X-15.478 Y276.523
Z10.
Z2.313
G1 X-15.472 Y276.518 Z2.243 F333.33
X-15.456 Y276.502 Z2.177
X-15.429 Y276.476 Z2.118
X-15.393 Y276.442 Z2.068
X-15.35 Y276.401 Z2.031
X-15.302 Y276.356 Z2.008
X-15.252 Y276.308 Z2.
X-15.025 Y276.093 F400.
G3 X-14.583 Y276.104 R0.312
X-14.604 Y276.917 Z1.968 R0.575 F600.
X-15. Y277.075 Z1.953 R0.575
G1 X-20.416 Z1.764
G2 X-21.874 Y277.772 Z1.706 R1.875
G3 X-24.722 Y278.076 Z1.595 R2.025
X-25.026 Y275.228 Z1.484 R2.025
X-22.178 Y274.924 Z1.372 R2.025
X-21.874 Y275.228 Z1.357 R2.025
G2 X-20.416 Y275.925 Z1.299 R1.875
G1 X-15. Z1.11
G3 X-14.425 Y276.5 Z1.078 R0.575
X-15. Y277.075 Z1.047 R0.575
G1 X-20.416 Z0.858
G2 X-21.874 Y277.772 Z0.799 R1.875
G3 X-24.722 Y278.076 Z0.688 R2.025
X-25.026 Y275.228 Z0.577 R2.025
X-22.178 Y274.924 Z0.466 R2.025
X-21.874 Y275.228 Z0.451 R2.025
G2 X-20.416 Y275.925 Z0.393 R1.875
G1 X-15. Z0.204
G3 X-14.425 Y276.5 Z0.172 R0.575
X-15. Y277.075 Z0.141 R0.575
G1 X-20.416 Z-0.049
G2 X-21.874 Y277.772 Z-0.107 R1.875
G3 X-24.722 Y278.076 Z-0.218 R2.025
X-25.026 Y275.228 Z-0.329 R2.025
X-22.178 Y274.924 Z-0.44 R2.025
X-21.874 Y275.228 Z-0.455 R2.025
G2 X-20.416 Y275.925 Z-0.514 R1.875
G1 X-15. Z-0.703
G3 X-14.425 Y276.5 Z-0.734 R0.575
X-15. Y277.075 Z-0.766 R0.575
G1 X-20.416 Z-0.955
G2 X-21.874 Y277.772 Z-1.013 R1.875
G3 X-24.722 Y278.076 Z-1.124 R2.025
X-25.026 Y275.228 Z-1.235 R2.025
X-22.178 Y274.924 Z-1.346 R2.025
X-21.874 Y275.228 Z-1.361 R2.025
G2 X-20.416 Y275.925 Z-1.42 R1.875
G1 X-15. Z-1.609
G3 X-14.425 Y276.5 Z-1.641 R0.575
X-15. Y277.075 Z-1.672 R0.575
G1 X-20.416 Z-1.861
G2 X-21.874 Y277.772 Z-1.92 R1.875
G3 X-24.722 Y278.076 Z-2.031 R2.025
X-25.026 Y275.228 Z-2.142 R2.025
X-22.178 Y274.924 Z-2.253 R2.025
X-21.874 Y275.228 Z-2.268 R2.025
G2 X-20.416 Y275.925 Z-2.326 R1.875
G1 X-15. Z-2.515
G3 X-14.425 Y276.5 Z-2.547 R0.575
X-15. Y277.075 Z-2.578 R0.575
G1 X-20.416 Z-2.767
G2 X-21.874 Y277.772 Z-2.826 R1.875
G3 X-24.722 Y278.076 Z-2.937 R2.025
X-25.475 Y276.5 Z-3. R2.025
X-23.45 Y274.475 R2.025 F796.8
X-21.874 Y275.228 R2.025
G2 X-20.416 Y275.925 R1.875
G1 X-15.
G3 X-14.425 Y276.5 R0.575
X-15. Y277.075 R0.575
G1 X-20.416
G2 X-21.874 Y277.772 R1.875
G3 X-24.722 Y278.076 R2.025
X-25.475 Y276.5 R2.025
G2 X-25.62 Y276.274 R0.249
G3 X-25.741 Y276.034 R0.216
X-22.984 Y274.209 R2.338
X-21.631 Y275.032 R2.338
G2 X-20.416 Y275.613 R1.563
G1 X-15.
G3 X-14.113 Y276.5 R0.887
X-15. Y277.387 R0.887
G1 X-20.416
G2 X-21.631 Y277.968 R1.562
G3 X-24.918 Y278.319 R2.338
X-25.741 Y276.034 R2.338
X-25.607 Y275.836 R0.312 F400.
X-25.372 Y275.79 R0.312
G1 X-25.066 Y275.853
X-24.998 Y275.866 Z-2.992
X-24.933 Y275.88 Z-2.969
X-24.875 Y275.891 Z-2.932
X-24.827 Y275.901 Z-2.882
X-24.79 Y275.909 Z-2.823
X-24.767 Y275.913 Z-2.757
X-24.76 Y275.915 Z-2.688
G0 Z10.
(2D CONTOUR2)
G0 X-15.478 Y309.523
Z10.
Z2.313
G1 X-15.472 Y309.518 Z2.243 F333.33
X-15.456 Y309.502 Z2.177
X-15.429 Y309.476 Z2.118
X-15.393 Y309.442 Z2.068
X-15.35 Y309.401 Z2.031
X-15.302 Y309.356 Z2.008
X-15.252 Y309.308 Z2.
X-15.025 Y309.093 F400.
G3 X-14.583 Y309.104 R0.312
X-14.604 Y309.917 Z1.968 R0.575 F600.
X-15. Y310.075 Z1.953 R0.575
G1 X-20.416 Z1.764
G2 X-21.874 Y310.772 Z1.706 R1.875
G3 X-24.722 Y311.076 Z1.595 R2.025
X-25.026 Y308.228 Z1.484 R2.025
X-22.178 Y307.924 Z1.372 R2.025
X-21.874 Y308.228 Z1.357 R2.025
G2 X-20.416 Y308.925 Z1.299 R1.875
G1 X-15. Z1.11
G3 X-14.425 Y309.5 Z1.078 R0.575
X-15. Y310.075 Z1.047 R0.575
G1 X-20.416 Z0.858
G2 X-21.874 Y310.772 Z0.799 R1.875
G3 X-24.722 Y311.076 Z0.688 R2.025
X-25.026 Y308.228 Z0.577 R2.025
X-22.178 Y307.924 Z0.466 R2.025
X-21.874 Y308.228 Z0.451 R2.025
G2 X-20.416 Y308.925 Z0.393 R1.875
G1 X-15. Z0.204
G3 X-14.425 Y309.5 Z0.172 R0.575
X-15. Y310.075 Z0.141 R0.575
G1 X-20.416 Z-0.049
G2 X-21.874 Y310.772 Z-0.107 R1.875
G3 X-24.722 Y311.076 Z-0.218 R2.025
X-25.026 Y308.228 Z-0.329 R2.025
X-22.178 Y307.924 Z-0.44 R2.025
X-21.874 Y308.228 Z-0.455 R2.025
G2 X-20.416 Y308.925 Z-0.514 R1.875
G1 X-15. Z-0.703
G3 X-14.425 Y309.5 Z-0.734 R0.575
X-15. Y310.075 Z-0.766 R0.575
G1 X-20.416 Z-0.955
G2 X-21.874 Y310.772 Z-1.013 R1.875
G3 X-24.722 Y311.076 Z-1.124 R2.025
X-25.026 Y308.228 Z-1.235 R2.025
X-22.178 Y307.924 Z-1.346 R2.025
X-21.874 Y308.228 Z-1.361 R2.025
G2 X-20.416 Y308.925 Z-1.42 R1.875
G1 X-15. Z-1.609
G3 X-14.425 Y309.5 Z-1.641 R0.575
X-15. Y310.075 Z-1.672 R0.575
G1 X-20.416 Z-1.861
G2 X-21.874 Y310.772 Z-1.92 R1.875
G3 X-24.722 Y311.076 Z-2.031 R2.025
X-25.026 Y308.228 Z-2.142 R2.025
X-22.178 Y307.924 Z-2.253 R2.025
X-21.874 Y308.228 Z-2.268 R2.025
G2 X-20.416 Y308.925 Z-2.326 R1.875
G1 X-15. Z-2.515
G3 X-14.425 Y309.5 Z-2.547 R0.575
X-15. Y310.075 Z-2.578 R0.575
G1 X-20.416 Z-2.767
G2 X-21.874 Y310.772 Z-2.826 R1.875
G3 X-24.722 Y311.076 Z-2.937 R2.025
X-25.475 Y309.5 Z-3. R2.025
X-23.45 Y307.475 R2.025 F796.8
X-21.874 Y308.228 R2.025
G2 X-20.416 Y308.925 R1.875
G1 X-15.
G3 X-14.425 Y309.5 R0.575
X-15. Y310.075 R0.575
G1 X-20.416
G2 X-21.874 Y310.772 R1.875
G3 X-24.722 Y311.076 R2.025
X-25.475 Y309.5 R2.025
G2 X-25.62 Y309.274 R0.249
G3 X-25.741 Y309.034 R0.216
X-22.984 Y307.209 R2.338
X-21.631 Y308.032 R2.338
G2 X-20.416 Y308.613 R1.563
G1 X-15.
G3 X-14.113 Y309.5 R0.887
X-15. Y310.387 R0.887
G1 X-20.416
G2 X-21.631 Y310.968 R1.562
G3 X-24.918 Y311.319 R2.338
X-25.741 Y309.034 R2.338
X-25.607 Y308.836 R0.312 F400.
X-25.372 Y308.79 R0.312
G1 X-25.066 Y308.853
X-24.998 Y308.866 Z-2.992
X-24.933 Y308.88 Z-2.969
X-24.875 Y308.891 Z-2.932
X-24.827 Y308.901 Z-2.882
X-24.79 Y308.909 Z-2.823
X-24.767 Y308.913 Z-2.757
X-24.76 Y308.915 Z-2.688
G0 Z10.
(2D CONTOUR2)
G0 X-15.478 Y342.523
Z10.
Z2.313
G1 X-15.472 Y342.518 Z2.243 F333.33
X-15.456 Y342.502 Z2.177
X-15.429 Y342.476 Z2.118
X-15.393 Y342.442 Z2.068
X-15.35 Y342.401 Z2.031
X-15.302 Y342.356 Z2.008
X-15.252 Y342.308 Z2.
X-15.025 Y342.093 F400.
G3 X-14.583 Y342.104 R0.312
X-14.604 Y342.917 Z1.968 R0.575 F600.
X-15. Y343.075 Z1.953 R0.575
G1 X-20.416 Z1.764
G2 X-21.874 Y343.772 Z1.706 R1.875
G3 X-24.722 Y344.076 Z1.595 R2.025
X-25.026 Y341.228 Z1.484 R2.025
X-22.178 Y340.924 Z1.372 R2.025
X-21.874 Y341.228 Z1.357 R2.025
G2 X-20.416 Y341.925 Z1.299 R1.875
G1 X-15. Z1.11
G3 X-14.425 Y342.5 Z1.078 R0.575
X-15. Y343.075 Z1.047 R0.575
G1 X-20.416 Z0.858
G2 X-21.874 Y343.772 Z0.799 R1.875
G3 X-24.722 Y344.076 Z0.688 R2.025
X-25.026 Y341.228 Z0.577 R2.025
X-22.178 Y340.924 Z0.466 R2.025
X-21.874 Y341.228 Z0.451 R2.025
G2 X-20.416 Y341.925 Z0.393 R1.875
G1 X-15. Z0.204
G3 X-14.425 Y342.5 Z0.172 R0.575
X-15. Y343.075 Z0.141 R0.575
G1 X-20.416 Z-0.049
G2 X-21.874 Y343.772 Z-0.107 R1.875
G3 X-24.722 Y344.076 Z-0.218 R2.025
X-25.026 Y341.228 Z-0.329 R2.025
X-22.178 Y340.924 Z-0.44 R2.025
X-21.874 Y341.228 Z-0.455 R2.025
G2 X-20.416 Y341.925 Z-0.514 R1.875
G1 X-15. Z-0.703
G3 X-14.425 Y342.5 Z-0.734 R0.575
X-15. Y343.075 Z-0.766 R0.575
G1 X-20.416 Z-0.955
G2 X-21.874 Y343.772 Z-1.013 R1.875
G3 X-24.722 Y344.076 Z-1.124 R2.025
X-25.026 Y341.228 Z-1.235 R2.025
X-22.178 Y340.924 Z-1.346 R2.025
X-21.874 Y341.228 Z-1.361 R2.025
G2 X-20.416 Y341.925 Z-1.42 R1.875
G1 X-15. Z-1.609
G3 X-14.425 Y342.5 Z-1.641 R0.575
X-15. Y343.075 Z-1.672 R0.575
G1 X-20.416 Z-1.861
G2 X-21.874 Y343.772 Z-1.92 R1.875
G3 X-24.722 Y344.076 Z-2.031 R2.025
X-25.026 Y341.228 Z-2.142 R2.025
X-22.178 Y340.924 Z-2.253 R2.025
X-21.874 Y341.228 Z-2.268 R2.025
G2 X-20.416 Y341.925 Z-2.326 R1.875
G1 X-15. Z-2.515
G3 X-14.425 Y342.5 Z-2.547 R0.575
X-15. Y343.075 Z-2.578 R0.575
G1 X-20.416 Z-2.767
G2 X-21.874 Y343.772 Z-2.826 R1.875
G3 X-24.722 Y344.076 Z-2.937 R2.025
X-25.475 Y342.5 Z-3. R2.025
X-23.45 Y340.475 R2.025 F796.8
X-21.874 Y341.228 R2.025
G2 X-20.416 Y341.925 R1.875
G1 X-15.
G3 X-14.425 Y342.5 R0.575
X-15. Y343.075 R0.575
G1 X-20.416
G2 X-21.874 Y343.772 R1.875
G3 X-24.722 Y344.076 R2.025
X-25.475 Y342.5 R2.025
G2 X-25.62 Y342.274 R0.249
G3 X-25.741 Y342.034 R0.216
X-22.984 Y340.209 R2.338
X-21.631 Y341.032 R2.338
G2 X-20.416 Y341.613 R1.563
G1 X-15.
G3 X-14.113 Y342.5 R0.887
X-15. Y343.387 R0.887
G1 X-20.416
G2 X-21.631 Y343.968 R1.562
G3 X-24.918 Y344.319 R2.338
X-25.741 Y342.034 R2.338
X-25.607 Y341.836 R0.312 F400.
X-25.372 Y341.79 R0.312
G1 X-25.066 Y341.853
X-24.998 Y341.866 Z-2.992
X-24.933 Y341.88 Z-2.969
X-24.875 Y341.891 Z-2.932
X-24.827 Y341.901 Z-2.882
X-24.79 Y341.909 Z-2.823
X-24.767 Y341.913 Z-2.757
X-24.76 Y341.915 Z-2.688
G0 Z10.
(2D CONTOUR2)
G0 X-15.478 Y375.523
Z10.
Z2.313
G1 X-15.472 Y375.518 Z2.243 F333.33
X-15.456 Y375.502 Z2.177
X-15.429 Y375.476 Z2.118
X-15.393 Y375.442 Z2.068
X-15.35 Y375.401 Z2.031
X-15.302 Y375.356 Z2.008
X-15.252 Y375.308 Z2.
X-15.025 Y375.093 F400.
G3 X-14.583 Y375.104 R0.312
X-14.604 Y375.917 Z1.968 R0.575 F600.
X-15. Y376.075 Z1.953 R0.575
G1 X-20.416 Z1.764
G2 X-21.874 Y376.772 Z1.706 R1.875
G3 X-24.722 Y377.076 Z1.595 R2.025
X-25.026 Y374.228 Z1.484 R2.025
X-22.178 Y373.924 Z1.372 R2.025
X-21.874 Y374.228 Z1.357 R2.025
G2 X-20.416 Y374.925 Z1.299 R1.875
G1 X-15. Z1.11
G3 X-14.425 Y375.5 Z1.078 R0.575
X-15. Y376.075 Z1.047 R0.575
G1 X-20.416 Z0.858
G2 X-21.874 Y376.772 Z0.799 R1.875
G3 X-24.722 Y377.076 Z0.688 R2.025
X-25.026 Y374.228 Z0.577 R2.025
X-22.178 Y373.924 Z0.466 R2.025
X-21.874 Y374.228 Z0.451 R2.025
G2 X-20.416 Y374.925 Z0.393 R1.875
G1 X-15. Z0.204
G3 X-14.425 Y375.5 Z0.172 R0.575
X-15. Y376.075 Z0.141 R0.575
G1 X-20.416 Z-0.049
G2 X-21.874 Y376.772 Z-0.107 R1.875
G3 X-24.722 Y377.076 Z-0.218 R2.025
X-25.026 Y374.228 Z-0.329 R2.025
X-22.178 Y373.924 Z-0.44 R2.025
X-21.874 Y374.228 Z-0.455 R2.025
G2 X-20.416 Y374.925 Z-0.514 R1.875
G1 X-15. Z-0.703
G3 X-14.425 Y375.5 Z-0.734 R0.575
X-15. Y376.075 Z-0.766 R0.575
G1 X-20.416 Z-0.955
G2 X-21.874 Y376.772 Z-1.013 R1.875
G3 X-24.722 Y377.076 Z-1.124 R2.025
X-25.026 Y374.228 Z-1.235 R2.025
X-22.178 Y373.924 Z-1.346 R2.025
X-21.874 Y374.228 Z-1.361 R2.025
G2 X-20.416 Y374.925 Z-1.42 R1.875
G1 X-15. Z-1.609
G3 X-14.425 Y375.5 Z-1.641 R0.575
X-15. Y376.075 Z-1.672 R0.575
G1 X-20.416 Z-1.861
G2 X-21.874 Y376.772 Z-1.92 R1.875
G3 X-24.722 Y377.076 Z-2.031 R2.025
X-25.026 Y374.228 Z-2.142 R2.025
X-22.178 Y373.924 Z-2.253 R2.025
X-21.874 Y374.228 Z-2.268 R2.025
G2 X-20.416 Y374.925 Z-2.326 R1.875
G1 X-15. Z-2.515
G3 X-14.425 Y375.5 Z-2.547 R0.575
X-15. Y376.075 Z-2.578 R0.575
G1 X-20.416 Z-2.767
G2 X-21.874 Y376.772 Z-2.826 R1.875
G3 X-24.722 Y377.076 Z-2.937 R2.025
X-25.475 Y375.5 Z-3. R2.025
X-23.45 Y373.475 R2.025 F796.8
X-21.874 Y374.228 R2.025
G2 X-20.416 Y374.925 R1.875
G1 X-15.
G3 X-14.425 Y375.5 R0.575
X-15. Y376.075 R0.575
G1 X-20.416
G2 X-21.874 Y376.772 R1.875
G3 X-24.722 Y377.076 R2.025
X-25.475 Y375.5 R2.025
G2 X-25.62 Y375.274 R0.249
G3 X-25.741 Y375.034 R0.216
X-22.984 Y373.209 R2.338
X-21.631 Y374.032 R2.338
G2 X-20.416 Y374.613 R1.563
G1 X-15.
G3 X-14.113 Y375.5 R0.887
X-15. Y376.387 R0.887
G1 X-20.416
G2 X-21.631 Y376.968 R1.562
G3 X-24.918 Y377.319 R2.338
X-25.741 Y375.034 R2.338
X-25.607 Y374.836 R0.312 F400.
X-25.372 Y374.79 R0.312
G1 X-25.066 Y374.853
X-24.998 Y374.866 Z-2.992
X-24.933 Y374.88 Z-2.969
X-24.875 Y374.891 Z-2.932
X-24.827 Y374.901 Z-2.882
X-24.79 Y374.909 Z-2.823
X-24.767 Y374.913 Z-2.757
X-24.76 Y374.915 Z-2.688
G0 Z10.
(2D CONTOUR2)
G0 X-15.478 Y408.523
Z10.
Z2.313
G1 X-15.472 Y408.518 Z2.243 F333.33
X-15.456 Y408.502 Z2.177
X-15.429 Y408.476 Z2.118
X-15.393 Y408.442 Z2.068
X-15.35 Y408.401 Z2.031
X-15.302 Y408.356 Z2.008
X-15.252 Y408.308 Z2.
X-15.025 Y408.093 F400.
G3 X-14.583 Y408.104 R0.312
X-14.604 Y408.917 Z1.968 R0.575 F600.
X-15. Y409.075 Z1.953 R0.575
G1 X-20.416 Z1.764
G2 X-21.874 Y409.772 Z1.706 R1.875
G3 X-24.722 Y410.076 Z1.595 R2.025
X-25.026 Y407.228 Z1.484 R2.025
X-22.178 Y406.924 Z1.372 R2.025
X-21.874 Y407.228 Z1.357 R2.025
G2 X-20.416 Y407.925 Z1.299 R1.875
G1 X-15. Z1.11
G3 X-14.425 Y408.5 Z1.078 R0.575
X-15. Y409.075 Z1.047 R0.575
G1 X-20.416 Z0.858
G2 X-21.874 Y409.772 Z0.799 R1.875
G3 X-24.722 Y410.076 Z0.688 R2.025
X-25.026 Y407.228 Z0.577 R2.025
X-22.178 Y406.924 Z0.466 R2.025
X-21.874 Y407.228 Z0.451 R2.025
G2 X-20.416 Y407.925 Z0.393 R1.875
G1 X-15. Z0.204
G3 X-14.425 Y408.5 Z0.172 R0.575
X-15. Y409.075 Z0.141 R0.575
G1 X-20.416 Z-0.049
G2 X-21.874 Y409.772 Z-0.107 R1.875
G3 X-24.722 Y410.076 Z-0.218 R2.025
X-25.026 Y407.228 Z-0.329 R2.025
X-22.178 Y406.924 Z-0.44 R2.025
X-21.874 Y407.228 Z-0.455 R2.025
G2 X-20.416 Y407.925 Z-0.514 R1.875
G1 X-15. Z-0.703
G3 X-14.425 Y408.5 Z-0.734 R0.575
X-15. Y409.075 Z-0.766 R0.575
G1 X-20.416 Z-0.955
G2 X-21.874 Y409.772 Z-1.013 R1.875
G3 X-24.722 Y410.076 Z-1.124 R2.025
X-25.026 Y407.228 Z-1.235 R2.025
X-22.178 Y406.924 Z-1.346 R2.025
X-21.874 Y407.228 Z-1.361 R2.025
G2 X-20.416 Y407.925 Z-1.42 R1.875
G1 X-15. Z-1.609
G3 X-14.425 Y408.5 Z-1.641 R0.575
X-15. Y409.075 Z-1.672 R0.575
G1 X-20.416 Z-1.861
G2 X-21.874 Y409.772 Z-1.92 R1.875
G3 X-24.722 Y410.076 Z-2.031 R2.025
X-25.026 Y407.228 Z-2.142 R2.025
X-22.178 Y406.924 Z-2.253 R2.025
X-21.874 Y407.228 Z-2.268 R2.025
G2 X-20.416 Y407.925 Z-2.326 R1.875
G1 X-15. Z-2.515
G3 X-14.425 Y408.5 Z-2.547 R0.575
X-15. Y409.075 Z-2.578 R0.575
G1 X-20.416 Z-2.767
G2 X-21.874 Y409.772 Z-2.826 R1.875
G3 X-24.722 Y410.076 Z-2.937 R2.025
X-25.475 Y408.5 Z-3. R2.025
X-23.45 Y406.475 R2.025 F796.8
X-21.874 Y407.228 R2.025
G2 X-20.416 Y407.925 R1.875
G1 X-15.
G3 X-14.425 Y408.5 R0.575
X-15. Y409.075 R0.575
G1 X-20.416
G2 X-21.874 Y409.772 R1.875
G3 X-24.722 Y410.076 R2.025
X-25.475 Y408.5 R2.025
G2 X-25.62 Y408.274 R0.249
G3 X-25.741 Y408.034 R0.216
X-22.984 Y406.209 R2.338
X-21.631 Y407.032 R2.338
G2 X-20.416 Y407.613 R1.563
G1 X-15.
G3 X-14.113 Y408.5 R0.887
X-15. Y409.387 R0.887
G1 X-20.416
G2 X-21.631 Y409.968 R1.562
G3 X-24.918 Y410.319 R2.338
X-25.741 Y408.034 R2.338
X-25.607 Y407.836 R0.312 F400.
X-25.372 Y407.79 R0.312
G1 X-25.066 Y407.853
X-24.998 Y407.866 Z-2.992
X-24.933 Y407.88 Z-2.969
X-24.875 Y407.891 Z-2.932
X-24.827 Y407.901 Z-2.882
X-24.79 Y407.909 Z-2.823
X-24.767 Y407.913 Z-2.757
X-24.76 Y407.915 Z-2.688
G0 Z10.
(2D CONTOUR3)
G0 Z15.
X6.625 Y-1.563
Z3.313
G1 Z1. F333.33
Z0.312
G18 G3 X3.313 Z-3. R3.313
G1 X0. F400.
X-25. F796.8
G17 G2 X-36.563 Y10. R11.563
G1 Y15.
G2 X-25. Y26.563 R11.563
G1 X0.
X3.313 F400.
G18 G2 X6.625 Z0.312 R3.313
G0 Z15.
G17
(2D CONTOUR3)
G0 X6.625 Y31.438
Z15.
Z3.313
G1 Z1. F333.33
Z0.312
G18 G3 X3.313 Z-3. R3.313
G1 X0. F400.
X-25. F796.8
G17 G2 X-36.563 Y43. R11.563
G1 Y48.
G2 X-25. Y59.563 R11.563
G1 X0.
X3.313 F400.
G18 G2 X6.625 Z0.312 R3.313
G0 Z15.
G17
(2D CONTOUR3)
G0 X6.625 Y64.438
Z15.
Z3.313
G1 Z1. F333.33
Z0.312
G18 G3 X3.313 Z-3. R3.313
G1 X0. F400.
X-25. F796.8
G17 G2 X-36.563 Y76. R11.563
G1 Y81.
G2 X-25. Y92.563 R11.563
G1 X0.
X3.313 F400.
G18 G2 X6.625 Z0.312 R3.313
G0 Z15.
G17
(2D CONTOUR3)
G0 X6.625 Y97.438
Z15.
Z3.313
G1 Z1. F333.33
Z0.312
G18 G3 X3.313 Z-3. R3.313
G1 X0. F400.
X-25. F796.8
G17 G2 X-36.563 Y109. R11.563
G1 Y114.
G2 X-25. Y125.563 R11.563
G1 X0.
X3.313 F400.
G18 G2 X6.625 Z0.312 R3.313
G0 Z15.
G17
(2D CONTOUR3)
G0 X6.625 Y130.438
Z15.
Z3.313
G1 Z1. F333.33
Z0.312
G18 G3 X3.313 Z-3. R3.313
G1 X0. F400.
X-25. F796.8
G17 G2 X-36.563 Y142. R11.563
G1 Y147.
G2 X-25. Y158.563 R11.563
G1 X0.
X3.313 F400.
G18 G2 X6.625 Z0.312 R3.313
G0 Z15.
G17
(2D CONTOUR3)
G0 X6.625 Y163.438
Z15.
Z3.313
G1 Z1. F333.33
Z0.312
G18 G3 X3.313 Z-3. R3.313
G1 X0. F400.
X-25. F796.8
G17 G2 X-36.563 Y175. R11.563
G1 Y180.
G2 X-25. Y191.563 R11.563
G1 X0.
X3.313 F400.
G18 G2 X6.625 Z0.312 R3.313
G0 Z15.
G17
(2D CONTOUR3)
G0 X6.625 Y196.438
Z15.
Z3.313
G1 Z1. F333.33
Z0.312
G18 G3 X3.313 Z-3. R3.313
G1 X0. F400.
X-25. F796.8
G17 G2 X-36.563 Y208. R11.563
G1 Y213.
G2 X-25. Y224.563 R11.563
G1 X0.
X3.313 F400.
G18 G2 X6.625 Z0.312 R3.313
G0 Z15.
G17
(2D CONTOUR3)
G0 X6.625 Y229.438
Z15.
Z3.313
G1 Z1. F333.33
Z0.312
G18 G3 X3.313 Z-3. R3.313
G1 X0. F400.
X-25. F796.8
G17 G2 X-36.563 Y241. R11.563
G1 Y246.
G2 X-25. Y257.563 R11.563
G1 X0.
X3.313 F400.
G18 G2 X6.625 Z0.312 R3.313
G0 Z15.
G17
(2D CONTOUR3)
G0 X6.625 Y262.438
Z15.
Z3.313
G1 Z1. F333.33
Z0.312
G18 G3 X3.313 Z-3. R3.313
G1 X0. F400.
X-25. F796.8
G17 G2 X-36.563 Y274. R11.563
G1 Y279.
G2 X-25. Y290.563 R11.563
G1 X0.
X3.313 F400.
G18 G2 X6.625 Z0.312 R3.313
G0 Z15.
G17
(2D CONTOUR3)
G0 X6.625 Y295.438
Z15.
Z3.313
G1 Z1. F333.33
Z0.312
G18 G3 X3.313 Z-3. R3.313
G1 X0. F400.
X-25. F796.8
G17 G2 X-36.563 Y307. R11.563
G1 Y312.
G2 X-25. Y323.563 R11.563
G1 X0.
X3.313 F400.
G18 G2 X6.625 Z0.312 R3.313
G0 Z15.
G17
(2D CONTOUR3)
G0 X6.625 Y328.438
Z15.
Z3.313
G1 Z1. F333.33
Z0.312
G18 G3 X3.313 Z-3. R3.313
G1 X0. F400.
X-25. F796.8
G17 G2 X-36.563 Y340. R11.563
G1 Y345.
G2 X-25. Y356.563 R11.563
G1 X0.
X3.313 F400.
G18 G2 X6.625 Z0.312 R3.313
G0 Z15.
G17
(2D CONTOUR3)
G0 X6.625 Y361.438
Z15.
Z3.313
G1 Z1. F333.33
Z0.312
G18 G3 X3.313 Z-3. R3.313
G1 X0. F400.
X-25. F796.8
G17 G2 X-36.563 Y373. R11.563
G1 Y378.
G2 X-25. Y389.563 R11.563
G1 X0.
X3.313 F400.
G18 G2 X6.625 Z0.312 R3.313
G0 Z15.
G17
(2D CONTOUR3)
G0 X6.625 Y394.438
Z15.
Z3.313
G1 Z1. F333.33
Z0.312
G18 G3 X3.313 Z-3. R3.313
G1 X0. F400.
X-25. F796.8
G17 G2 X-36.563 Y406. R11.563
G1 Y411.
G2 X-25. Y422.563 R11.563
G1 X0.
X3.313 F400.
G18 G2 X6.625 Z0.312 R3.313
G0 Z15.
G17
M9
G53 G0 Z0.
M30
%
