%
(KEYHOLE BRACKET HOLE SIDE)
(T2  D=3.125 CR=0. - ZMIN=-2. - FLAT END MILL)
G90 G94 G17 G91.1 G64 P0.1
G21
G53 G0 Z0.
(2D CONTOUR2 2)
T2 M6
S24000 M3
G54
B0.
M8
G0 G43 X-7.982 Y4.625 Z13. H2
G0 Z3.
G1 Z2.312 F333.33
X-7.979 Y4.626 Z2.268 F600.
X-7.97 Z2.224
X-7.954 Y4.628 Z2.183
X-7.933 Y4.631 Z2.144
X-7.907 Y4.637 Z2.108
X-7.877 Y4.646 Z2.077
X-7.844 Y4.659 Z2.05
X-7.81 Y4.677 Z2.028
X-7.775 Y4.7 Z2.013
X-7.745 Y4.725 Z2.004
X-7.718 Y4.753 Z2.
G3 X-7.753 Y5.282 Z1.979 R0.375
X-8.282 Y5.247 Z1.959 R0.375
X-8.247 Y4.718 Z1.938 R0.375
X-7.718 Y4.753 Z1.918 R0.375
X-7.753 Y5.282 Z1.897 R0.375
X-8.282 Y5.247 Z1.877 R0.375
X-8.247 Y4.718 Z1.856 R0.375
X-7.718 Y4.753 Z1.835 R0.375
X-7.753 Y5.282 Z1.815 R0.375
X-8.282 Y5.247 Z1.794 R0.375
X-8.247 Y4.718 Z1.774 R0.375
X-7.718 Y4.753 Z1.753 R0.375
X-7.753 Y5.282 Z1.733 R0.375
X-8.282 Y5.247 Z1.712 R0.375
X-8.247 Y4.718 Z1.691 R0.375
X-7.718 Y4.753 Z1.671 R0.375
X-7.753 Y5.282 Z1.65 R0.375
X-8.282 Y5.247 Z1.63 R0.375
X-8.247 Y4.718 Z1.609 R0.375
X-7.718 Y4.753 Z1.589 R0.375
X-7.753 Y5.282 Z1.568 R0.375
X-8.282 Y5.247 Z1.547 R0.375
X-8.247 Y4.718 Z1.527 R0.375
X-7.718 Y4.753 Z1.506 R0.375
X-7.753 Y5.282 Z1.486 R0.375
X-8.282 Y5.247 Z1.465 R0.375
X-8.247 Y4.718 Z1.445 R0.375
X-7.718 Y4.753 Z1.424 R0.375
X-7.753 Y5.282 Z1.403 R0.375
X-8.282 Y5.247 Z1.383 R0.375
X-8.247 Y4.718 Z1.362 R0.375
X-7.718 Y4.753 Z1.342 R0.375
X-7.753 Y5.282 Z1.321 R0.375
X-8.282 Y5.247 Z1.301 R0.375
X-8.247 Y4.718 Z1.28 R0.375
X-7.718 Y4.753 Z1.259 R0.375
X-7.753 Y5.282 Z1.239 R0.375
X-8.282 Y5.247 Z1.218 R0.375
X-8.247 Y4.718 Z1.198 R0.375
X-7.718 Y4.753 Z1.177 R0.375
X-7.753 Y5.282 Z1.157 R0.375
X-8.282 Y5.247 Z1.136 R0.375
X-8.247 Y4.718 Z1.115 R0.375
X-7.718 Y4.753 Z1.095 R0.375
X-7.753 Y5.282 Z1.074 R0.375
X-8.282 Y5.247 Z1.054 R0.375
X-8.247 Y4.718 Z1.033 R0.375
X-7.718 Y4.753 Z1.013 R0.375
X-7.753 Y5.282 Z0.992 R0.375
X-8.282 Y5.247 Z0.971 R0.375
X-8.247 Y4.718 Z0.951 R0.375
X-7.718 Y4.753 Z0.93 R0.375
X-7.753 Y5.282 Z0.91 R0.375
X-8.282 Y5.247 Z0.889 R0.375
X-8.247 Y4.718 Z0.869 R0.375
X-7.718 Y4.753 Z0.848 R0.375
X-7.753 Y5.282 Z0.828 R0.375
X-8.282 Y5.247 Z0.807 R0.375
X-8.247 Y4.718 Z0.786 R0.375
X-7.718 Y4.753 Z0.766 R0.375
X-7.753 Y5.282 Z0.745 R0.375
X-8.282 Y5.247 Z0.725 R0.375
X-8.247 Y4.718 Z0.704 R0.375
X-7.718 Y4.753 Z0.684 R0.375
X-7.753 Y5.282 Z0.663 R0.375
X-8.282 Y5.247 Z0.642 R0.375
X-8.247 Y4.718 Z0.622 R0.375
X-7.718 Y4.753 Z0.601 R0.375
X-7.753 Y5.282 Z0.581 R0.375
X-8.282 Y5.247 Z0.56 R0.375
X-8.247 Y4.718 Z0.54 R0.375
X-7.718 Y4.753 Z0.519 R0.375
X-7.753 Y5.282 Z0.498 R0.375
X-8.282 Y5.247 Z0.478 R0.375
X-8.247 Y4.718 Z0.457 R0.375
X-7.718 Y4.753 Z0.437 R0.375
X-7.753 Y5.282 Z0.416 R0.375
X-8.282 Y5.247 Z0.396 R0.375
X-8.247 Y4.718 Z0.375 R0.375
X-7.718 Y4.753 Z0.354 R0.375
X-7.753 Y5.282 Z0.334 R0.375
X-8.282 Y5.247 Z0.313 R0.375
X-8.247 Y4.718 Z0.293 R0.375
X-7.718 Y4.753 Z0.272 R0.375
X-7.753 Y5.282 Z0.252 R0.375
X-8.282 Y5.247 Z0.231 R0.375
X-8.247 Y4.718 Z0.21 R0.375
X-7.718 Y4.753 Z0.19 R0.375
X-7.753 Y5.282 Z0.169 R0.375
X-8.282 Y5.247 Z0.149 R0.375
X-8.247 Y4.718 Z0.128 R0.375
X-7.718 Y4.753 Z0.108 R0.375
X-7.753 Y5.282 Z0.087 R0.375
X-8.282 Y5.247 Z0.066 R0.375
X-8.247 Y4.718 Z0.046 R0.375
X-7.718 Y4.753 Z0.025 R0.375
X-7.753 Y5.282 Z0.005 R0.375
X-8.282 Y5.247 Z-0.016 R0.375
X-8.247 Y4.718 Z-0.036 R0.375
X-7.718 Y4.753 Z-0.057 R0.375
X-7.753 Y5.282 Z-0.078 R0.375
X-8.282 Y5.247 Z-0.098 R0.375
X-8.247 Y4.718 Z-0.119 R0.375
X-7.718 Y4.753 Z-0.139 R0.375
X-7.753 Y5.282 Z-0.16 R0.375
X-8.282 Y5.247 Z-0.18 R0.375
X-8.247 Y4.718 Z-0.201 R0.375
X-7.718 Y4.753 Z-0.222 R0.375
X-7.753 Y5.282 Z-0.242 R0.375
X-8.282 Y5.247 Z-0.263 R0.375
X-8.247 Y4.718 Z-0.283 R0.375
X-7.718 Y4.753 Z-0.304 R0.375
X-7.753 Y5.282 Z-0.324 R0.375
X-8.282 Y5.247 Z-0.345 R0.375
X-8.247 Y4.718 Z-0.366 R0.375
X-7.718 Y4.753 Z-0.386 R0.375
X-7.753 Y5.282 Z-0.407 R0.375
X-8.282 Y5.247 Z-0.427 R0.375
X-8.247 Y4.718 Z-0.448 R0.375
X-7.718 Y4.753 Z-0.468 R0.375
X-7.753 Y5.282 Z-0.489 R0.375
X-8.282 Y5.247 Z-0.51 R0.375
X-8.247 Y4.718 Z-0.53 R0.375
X-7.718 Y4.753 Z-0.551 R0.375
X-7.753 Y5.282 Z-0.571 R0.375
X-8.282 Y5.247 Z-0.592 R0.375
X-8.247 Y4.718 Z-0.612 R0.375
X-7.718 Y4.753 Z-0.633 R0.375
X-7.753 Y5.282 Z-0.654 R0.375
X-8.282 Y5.247 Z-0.674 R0.375
X-8.247 Y4.718 Z-0.695 R0.375
X-7.718 Y4.753 Z-0.715 R0.375
X-7.753 Y5.282 Z-0.736 R0.375
X-8.282 Y5.247 Z-0.756 R0.375
X-8.247 Y4.718 Z-0.777 R0.375
X-7.718 Y4.753 Z-0.798 R0.375
X-7.753 Y5.282 Z-0.818 R0.375
X-8.282 Y5.247 Z-0.839 R0.375
X-8.247 Y4.718 Z-0.859 R0.375
X-7.718 Y4.753 Z-0.88 R0.375
X-7.753 Y5.282 Z-0.9 R0.375
X-8.282 Y5.247 Z-0.921 R0.375
X-8.247 Y4.718 Z-0.942 R0.375
X-7.718 Y4.753 Z-0.962 R0.375
X-7.753 Y5.282 Z-0.983 R0.375
X-8.282 Y5.247 Z-1.003 R0.375
X-8.247 Y4.718 Z-1.024 R0.375
X-7.718 Y4.753 Z-1.044 R0.375
X-7.753 Y5.282 Z-1.065 R0.375
X-8.282 Y5.247 Z-1.086 R0.375
X-8.247 Y4.718 Z-1.106 R0.375
X-7.718 Y4.753 Z-1.127 R0.375
X-7.753 Y5.282 Z-1.147 R0.375
X-8.282 Y5.247 Z-1.168 R0.375
X-8.247 Y4.718 Z-1.188 R0.375
X-7.718 Y4.753 Z-1.209 R0.375
X-7.753 Y5.282 Z-1.229 R0.375
X-8.282 Y5.247 Z-1.25 R0.375
X-8.247 Y4.718 Z-1.271 R0.375
X-7.718 Y4.753 Z-1.291 R0.375
X-7.753 Y5.282 Z-1.312 R0.375
X-8.282 Y5.247 Z-1.332 R0.375
X-8.247 Y4.718 Z-1.353 R0.375
X-7.718 Y4.753 Z-1.373 R0.375
X-7.753 Y5.282 Z-1.394 R0.375
X-8.282 Y5.247 Z-1.415 R0.375
X-8.247 Y4.718 Z-1.435 R0.375
X-7.718 Y4.753 Z-1.456 R0.375
X-7.753 Y5.282 Z-1.476 R0.375
X-8.282 Y5.247 Z-1.497 R0.375
X-8.247 Y4.718 Z-1.517 R0.375
X-7.718 Y4.753 Z-1.538 R0.375
X-7.753 Y5.282 Z-1.559 R0.375
X-8.282 Y5.247 Z-1.579 R0.375
X-8.247 Y4.718 Z-1.6 R0.375
X-7.718 Y4.753 Z-1.62 R0.375
X-7.753 Y5.282 Z-1.641 R0.375
X-8.282 Y5.247 Z-1.661 R0.375
X-8.247 Y4.718 Z-1.682 R0.375
X-7.718 Y4.753 Z-1.703 R0.375
X-7.753 Y5.282 Z-1.723 R0.375
X-8.282 Y5.247 Z-1.744 R0.375
X-8.247 Y4.718 Z-1.764 R0.375
X-7.718 Y4.753 Z-1.785 R0.375
X-7.753 Y5.282 Z-1.805 R0.375
X-8.282 Y5.247 Z-1.826 R0.375
X-8.247 Y4.718 Z-1.847 R0.375
X-7.718 Y4.753 Z-1.867 R0.375
X-7.753 Y5.282 Z-1.888 R0.375
X-8.282 Y5.247 Z-1.908 R0.375
X-8.247 Y4.718 Z-1.929 R0.375
X-7.718 Y4.753 Z-1.949 R0.375
X-7.753 Y5.282 Z-1.97 R0.375
X-8.282 Y5.247 Z-1.991 R0.375
X-8.375 Y5. Z-2. R0.375
X-8. Y4.625 R0.375 F796.8
X-7.625 Y5. R0.375
X-8. Y5.375 R0.375
X-8.375 Y5. R0.375
X-7.844 Y4.469 R0.531
X-7.313 Y5. R0.531
X-8. Y5.688 R0.688
X-8.688 Y5. R0.688
X-8. Y4.313 R0.688
X-7.313 Y5. R0.688
X-7.625 Y5.313 R0.313 F400.
G1 X-7.938
G18 G3 X-8.25 Z-1.688 R0.313
G0 Z3.
X-7.982 Y19.625
G1 Z2.312 F333.33
X-7.979 Y19.626 Z2.268 F600.
X-7.97 Z2.224
X-7.954 Y19.628 Z2.183
X-7.933 Y19.631 Z2.144
X-7.907 Y19.637 Z2.108
X-7.877 Y19.646 Z2.077
X-7.844 Y19.659 Z2.05
X-7.81 Y19.677 Z2.028
X-7.775 Y19.7 Z2.013
X-7.745 Y19.725 Z2.004
X-7.718 Y19.753 Z2.
G17 G3 X-7.753 Y20.282 Z1.979 R0.375
X-8.282 Y20.247 Z1.959 R0.375
X-8.247 Y19.718 Z1.938 R0.375
X-7.718 Y19.753 Z1.918 R0.375
X-7.753 Y20.282 Z1.897 R0.375
X-8.282 Y20.247 Z1.877 R0.375
X-8.247 Y19.718 Z1.856 R0.375
X-7.718 Y19.753 Z1.835 R0.375
X-7.753 Y20.282 Z1.815 R0.375
X-8.282 Y20.247 Z1.794 R0.375
X-8.247 Y19.718 Z1.774 R0.375
X-7.718 Y19.753 Z1.753 R0.375
X-7.753 Y20.282 Z1.733 R0.375
X-8.282 Y20.247 Z1.712 R0.375
X-8.247 Y19.718 Z1.691 R0.375
X-7.718 Y19.753 Z1.671 R0.375
X-7.753 Y20.282 Z1.65 R0.375
X-8.282 Y20.247 Z1.63 R0.375
X-8.247 Y19.718 Z1.609 R0.375
X-7.718 Y19.753 Z1.589 R0.375
X-7.753 Y20.282 Z1.568 R0.375
X-8.282 Y20.247 Z1.547 R0.375
X-8.247 Y19.718 Z1.527 R0.375
X-7.718 Y19.753 Z1.506 R0.375
X-7.753 Y20.282 Z1.486 R0.375
X-8.282 Y20.247 Z1.465 R0.375
X-8.247 Y19.718 Z1.445 R0.375
X-7.718 Y19.753 Z1.424 R0.375
X-7.753 Y20.282 Z1.403 R0.375
X-8.282 Y20.247 Z1.383 R0.375
X-8.247 Y19.718 Z1.362 R0.375
X-7.718 Y19.753 Z1.342 R0.375
X-7.753 Y20.282 Z1.321 R0.375
X-8.282 Y20.247 Z1.301 R0.375
X-8.247 Y19.718 Z1.28 R0.375
X-7.718 Y19.753 Z1.259 R0.375
X-7.753 Y20.282 Z1.239 R0.375
X-8.282 Y20.247 Z1.218 R0.375
X-8.247 Y19.718 Z1.198 R0.375
X-7.718 Y19.753 Z1.177 R0.375
X-7.753 Y20.282 Z1.157 R0.375
X-8.282 Y20.247 Z1.136 R0.375
X-8.247 Y19.718 Z1.115 R0.375
X-7.718 Y19.753 Z1.095 R0.375
X-7.753 Y20.282 Z1.074 R0.375
X-8.282 Y20.247 Z1.054 R0.375
X-8.247 Y19.718 Z1.033 R0.375
X-7.718 Y19.753 Z1.013 R0.375
X-7.753 Y20.282 Z0.992 R0.375
X-8.282 Y20.247 Z0.971 R0.375
X-8.247 Y19.718 Z0.951 R0.375
X-7.718 Y19.753 Z0.93 R0.375
X-7.753 Y20.282 Z0.91 R0.375
X-8.282 Y20.247 Z0.889 R0.375
X-8.247 Y19.718 Z0.869 R0.375
X-7.718 Y19.753 Z0.848 R0.375
X-7.753 Y20.282 Z0.828 R0.375
X-8.282 Y20.247 Z0.807 R0.375
X-8.247 Y19.718 Z0.786 R0.375
X-7.718 Y19.753 Z0.766 R0.375
X-7.753 Y20.282 Z0.745 R0.375
X-8.282 Y20.247 Z0.725 R0.375
X-8.247 Y19.718 Z0.704 R0.375
X-7.718 Y19.753 Z0.684 R0.375
X-7.753 Y20.282 Z0.663 R0.375
X-8.282 Y20.247 Z0.642 R0.375
X-8.247 Y19.718 Z0.622 R0.375
X-7.718 Y19.753 Z0.601 R0.375
X-7.753 Y20.282 Z0.581 R0.375
X-8.282 Y20.247 Z0.56 R0.375
X-8.247 Y19.718 Z0.54 R0.375
X-7.718 Y19.753 Z0.519 R0.375
X-7.753 Y20.282 Z0.498 R0.375
X-8.282 Y20.247 Z0.478 R0.375
X-8.247 Y19.718 Z0.457 R0.375
X-7.718 Y19.753 Z0.437 R0.375
X-7.753 Y20.282 Z0.416 R0.375
X-8.282 Y20.247 Z0.396 R0.375
X-8.247 Y19.718 Z0.375 R0.375
X-7.718 Y19.753 Z0.354 R0.375
X-7.753 Y20.282 Z0.334 R0.375
X-8.282 Y20.247 Z0.313 R0.375
X-8.247 Y19.718 Z0.293 R0.375
X-7.718 Y19.753 Z0.272 R0.375
X-7.753 Y20.282 Z0.252 R0.375
X-8.282 Y20.247 Z0.231 R0.375
X-8.247 Y19.718 Z0.21 R0.375
X-7.718 Y19.753 Z0.19 R0.375
X-7.753 Y20.282 Z0.169 R0.375
X-8.282 Y20.247 Z0.149 R0.375
X-8.247 Y19.718 Z0.128 R0.375
X-7.718 Y19.753 Z0.108 R0.375
X-7.753 Y20.282 Z0.087 R0.375
X-8.282 Y20.247 Z0.066 R0.375
X-8.247 Y19.718 Z0.046 R0.375
X-7.718 Y19.753 Z0.025 R0.375
X-7.753 Y20.282 Z0.005 R0.375
X-8.282 Y20.247 Z-0.016 R0.375
X-8.247 Y19.718 Z-0.036 R0.375
X-7.718 Y19.753 Z-0.057 R0.375
X-7.753 Y20.282 Z-0.078 R0.375
X-8.282 Y20.247 Z-0.098 R0.375
X-8.247 Y19.718 Z-0.119 R0.375
X-7.718 Y19.753 Z-0.139 R0.375
X-7.753 Y20.282 Z-0.16 R0.375
X-8.282 Y20.247 Z-0.18 R0.375
X-8.247 Y19.718 Z-0.201 R0.375
X-7.718 Y19.753 Z-0.222 R0.375
X-7.753 Y20.282 Z-0.242 R0.375
X-8.282 Y20.247 Z-0.263 R0.375
X-8.247 Y19.718 Z-0.283 R0.375
X-7.718 Y19.753 Z-0.304 R0.375
X-7.753 Y20.282 Z-0.324 R0.375
X-8.282 Y20.247 Z-0.345 R0.375
X-8.247 Y19.718 Z-0.366 R0.375
X-7.718 Y19.753 Z-0.386 R0.375
X-7.753 Y20.282 Z-0.407 R0.375
X-8.282 Y20.247 Z-0.427 R0.375
X-8.247 Y19.718 Z-0.448 R0.375
X-7.718 Y19.753 Z-0.468 R0.375
X-7.753 Y20.282 Z-0.489 R0.375
X-8.282 Y20.247 Z-0.51 R0.375
X-8.247 Y19.718 Z-0.53 R0.375
X-7.718 Y19.753 Z-0.551 R0.375
X-7.753 Y20.282 Z-0.571 R0.375
X-8.282 Y20.247 Z-0.592 R0.375
X-8.247 Y19.718 Z-0.612 R0.375
X-7.718 Y19.753 Z-0.633 R0.375
X-7.753 Y20.282 Z-0.654 R0.375
X-8.282 Y20.247 Z-0.674 R0.375
X-8.247 Y19.718 Z-0.695 R0.375
X-7.718 Y19.753 Z-0.715 R0.375
X-7.753 Y20.282 Z-0.736 R0.375
X-8.282 Y20.247 Z-0.756 R0.375
X-8.247 Y19.718 Z-0.777 R0.375
X-7.718 Y19.753 Z-0.798 R0.375
X-7.753 Y20.282 Z-0.818 R0.375
X-8.282 Y20.247 Z-0.839 R0.375
X-8.247 Y19.718 Z-0.859 R0.375
X-7.718 Y19.753 Z-0.88 R0.375
X-7.753 Y20.282 Z-0.9 R0.375
X-8.282 Y20.247 Z-0.921 R0.375
X-8.247 Y19.718 Z-0.942 R0.375
X-7.718 Y19.753 Z-0.962 R0.375
X-7.753 Y20.282 Z-0.983 R0.375
X-8.282 Y20.247 Z-1.003 R0.375
X-8.247 Y19.718 Z-1.024 R0.375
X-7.718 Y19.753 Z-1.044 R0.375
X-7.753 Y20.282 Z-1.065 R0.375
X-8.282 Y20.247 Z-1.086 R0.375
X-8.247 Y19.718 Z-1.106 R0.375
X-7.718 Y19.753 Z-1.127 R0.375
X-7.753 Y20.282 Z-1.147 R0.375
X-8.282 Y20.247 Z-1.168 R0.375
X-8.247 Y19.718 Z-1.188 R0.375
X-7.718 Y19.753 Z-1.209 R0.375
X-7.753 Y20.282 Z-1.229 R0.375
X-8.282 Y20.247 Z-1.25 R0.375
X-8.247 Y19.718 Z-1.271 R0.375
X-7.718 Y19.753 Z-1.291 R0.375
X-7.753 Y20.282 Z-1.312 R0.375
X-8.282 Y20.247 Z-1.332 R0.375
X-8.247 Y19.718 Z-1.353 R0.375
X-7.718 Y19.753 Z-1.373 R0.375
X-7.753 Y20.282 Z-1.394 R0.375
X-8.282 Y20.247 Z-1.415 R0.375
X-8.247 Y19.718 Z-1.435 R0.375
X-7.718 Y19.753 Z-1.456 R0.375
X-7.753 Y20.282 Z-1.476 R0.375
X-8.282 Y20.247 Z-1.497 R0.375
X-8.247 Y19.718 Z-1.517 R0.375
X-7.718 Y19.753 Z-1.538 R0.375
X-7.753 Y20.282 Z-1.559 R0.375
X-8.282 Y20.247 Z-1.579 R0.375
X-8.247 Y19.718 Z-1.6 R0.375
X-7.718 Y19.753 Z-1.62 R0.375
X-7.753 Y20.282 Z-1.641 R0.375
X-8.282 Y20.247 Z-1.661 R0.375
X-8.247 Y19.718 Z-1.682 R0.375
X-7.718 Y19.753 Z-1.703 R0.375
X-7.753 Y20.282 Z-1.723 R0.375
X-8.282 Y20.247 Z-1.744 R0.375
X-8.247 Y19.718 Z-1.764 R0.375
X-7.718 Y19.753 Z-1.785 R0.375
X-7.753 Y20.282 Z-1.805 R0.375
X-8.282 Y20.247 Z-1.826 R0.375
X-8.247 Y19.718 Z-1.847 R0.375
X-7.718 Y19.753 Z-1.867 R0.375
X-7.753 Y20.282 Z-1.888 R0.375
X-8.282 Y20.247 Z-1.908 R0.375
X-8.247 Y19.718 Z-1.929 R0.375
X-7.718 Y19.753 Z-1.949 R0.375
X-7.753 Y20.282 Z-1.97 R0.375
X-8.282 Y20.247 Z-1.991 R0.375
X-8.375 Y20. Z-2. R0.375
X-8. Y19.625 R0.375 F796.8
X-7.625 Y20. R0.375
X-8. Y20.375 R0.375
X-8.375 Y20. R0.375
X-7.844 Y19.469 R0.531
X-7.313 Y20. R0.531
X-8. Y20.688 R0.688
X-8.688 Y20. R0.688
X-8. Y19.313 R0.688
X-7.313 Y20. R0.688
X-7.625 Y20.313 R0.313 F400.
G1 X-7.938
G18 G3 X-8.25 Z-1.688 R0.313
G0 Z13.
G17
(2D CONTOUR3 2)
G0 Z16.
X6.625 Y-1.563
Z4.313
G1 Z2. F333.33
Z1.312
G18 G3 X3.313 Z-2. R3.313
G1 X0. F400.
X-13. F796.8
G17 G2 X-17.563 Y3. R4.563
G1 Y22.
G2 X-13. Y26.563 R4.563
G1 X0.
X3.313 F400.
G18 G2 X6.625 Z1.312 R3.313
G0 Z16.
G17
(2D CONTOUR2 2)
G0 X-7.982 Y37.625
Z13.
Z3.
G1 Z2.312 F333.33
X-7.979 Y37.626 Z2.268 F600.
X-7.97 Z2.224
X-7.954 Y37.628 Z2.183
X-7.933 Y37.631 Z2.144
X-7.907 Y37.637 Z2.108
X-7.877 Y37.646 Z2.077
X-7.844 Y37.659 Z2.05
X-7.81 Y37.677 Z2.028
X-7.775 Y37.7 Z2.013
X-7.745 Y37.725 Z2.004
X-7.718 Y37.753 Z2.
G3 X-7.753 Y38.282 Z1.979 R0.375
X-8.282 Y38.247 Z1.959 R0.375
X-8.247 Y37.718 Z1.938 R0.375
X-7.718 Y37.753 Z1.918 R0.375
X-7.753 Y38.282 Z1.897 R0.375
X-8.282 Y38.247 Z1.877 R0.375
X-8.247 Y37.718 Z1.856 R0.375
X-7.718 Y37.753 Z1.835 R0.375
X-7.753 Y38.282 Z1.815 R0.375
X-8.282 Y38.247 Z1.794 R0.375
X-8.247 Y37.718 Z1.774 R0.375
X-7.718 Y37.753 Z1.753 R0.375
X-7.753 Y38.282 Z1.733 R0.375
X-8.282 Y38.247 Z1.712 R0.375
X-8.247 Y37.718 Z1.691 R0.375
X-7.718 Y37.753 Z1.671 R0.375
X-7.753 Y38.282 Z1.65 R0.375
X-8.282 Y38.247 Z1.63 R0.375
X-8.247 Y37.718 Z1.609 R0.375
X-7.718 Y37.753 Z1.589 R0.375
X-7.753 Y38.282 Z1.568 R0.375
X-8.282 Y38.247 Z1.547 R0.375
X-8.247 Y37.718 Z1.527 R0.375
X-7.718 Y37.753 Z1.506 R0.375
X-7.753 Y38.282 Z1.486 R0.375
X-8.282 Y38.247 Z1.465 R0.375
X-8.247 Y37.718 Z1.445 R0.375
X-7.718 Y37.753 Z1.424 R0.375
X-7.753 Y38.282 Z1.403 R0.375
X-8.282 Y38.247 Z1.383 R0.375
X-8.247 Y37.718 Z1.362 R0.375
X-7.718 Y37.753 Z1.342 R0.375
X-7.753 Y38.282 Z1.321 R0.375
X-8.282 Y38.247 Z1.301 R0.375
X-8.247 Y37.718 Z1.28 R0.375
X-7.718 Y37.753 Z1.259 R0.375
X-7.753 Y38.282 Z1.239 R0.375
X-8.282 Y38.247 Z1.218 R0.375
X-8.247 Y37.718 Z1.198 R0.375
X-7.718 Y37.753 Z1.177 R0.375
X-7.753 Y38.282 Z1.157 R0.375
X-8.282 Y38.247 Z1.136 R0.375
X-8.247 Y37.718 Z1.115 R0.375
X-7.718 Y37.753 Z1.095 R0.375
X-7.753 Y38.282 Z1.074 R0.375
X-8.282 Y38.247 Z1.054 R0.375
X-8.247 Y37.718 Z1.033 R0.375
X-7.718 Y37.753 Z1.013 R0.375
X-7.753 Y38.282 Z0.992 R0.375
X-8.282 Y38.247 Z0.971 R0.375
X-8.247 Y37.718 Z0.951 R0.375
X-7.718 Y37.753 Z0.93 R0.375
X-7.753 Y38.282 Z0.91 R0.375
X-8.282 Y38.247 Z0.889 R0.375
X-8.247 Y37.718 Z0.869 R0.375
X-7.718 Y37.753 Z0.848 R0.375
X-7.753 Y38.282 Z0.828 R0.375
X-8.282 Y38.247 Z0.807 R0.375
X-8.247 Y37.718 Z0.786 R0.375
X-7.718 Y37.753 Z0.766 R0.375
X-7.753 Y38.282 Z0.745 R0.375
X-8.282 Y38.247 Z0.725 R0.375
X-8.247 Y37.718 Z0.704 R0.375
X-7.718 Y37.753 Z0.684 R0.375
X-7.753 Y38.282 Z0.663 R0.375
X-8.282 Y38.247 Z0.642 R0.375
X-8.247 Y37.718 Z0.622 R0.375
X-7.718 Y37.753 Z0.601 R0.375
X-7.753 Y38.282 Z0.581 R0.375
X-8.282 Y38.247 Z0.56 R0.375
X-8.247 Y37.718 Z0.54 R0.375
X-7.718 Y37.753 Z0.519 R0.375
X-7.753 Y38.282 Z0.498 R0.375
X-8.282 Y38.247 Z0.478 R0.375
X-8.247 Y37.718 Z0.457 R0.375
X-7.718 Y37.753 Z0.437 R0.375
X-7.753 Y38.282 Z0.416 R0.375
X-8.282 Y38.247 Z0.396 R0.375
X-8.247 Y37.718 Z0.375 R0.375
X-7.718 Y37.753 Z0.354 R0.375
X-7.753 Y38.282 Z0.334 R0.375
X-8.282 Y38.247 Z0.313 R0.375
X-8.247 Y37.718 Z0.293 R0.375
X-7.718 Y37.753 Z0.272 R0.375
X-7.753 Y38.282 Z0.252 R0.375
X-8.282 Y38.247 Z0.231 R0.375
X-8.247 Y37.718 Z0.21 R0.375
X-7.718 Y37.753 Z0.19 R0.375
X-7.753 Y38.282 Z0.169 R0.375
X-8.282 Y38.247 Z0.149 R0.375
X-8.247 Y37.718 Z0.128 R0.375
X-7.718 Y37.753 Z0.108 R0.375
X-7.753 Y38.282 Z0.087 R0.375
X-8.282 Y38.247 Z0.066 R0.375
X-8.247 Y37.718 Z0.046 R0.375
X-7.718 Y37.753 Z0.025 R0.375
X-7.753 Y38.282 Z0.005 R0.375
X-8.282 Y38.247 Z-0.016 R0.375
X-8.247 Y37.718 Z-0.036 R0.375
X-7.718 Y37.753 Z-0.057 R0.375
X-7.753 Y38.282 Z-0.078 R0.375
X-8.282 Y38.247 Z-0.098 R0.375
X-8.247 Y37.718 Z-0.119 R0.375
X-7.718 Y37.753 Z-0.139 R0.375
X-7.753 Y38.282 Z-0.16 R0.375
X-8.282 Y38.247 Z-0.18 R0.375
X-8.247 Y37.718 Z-0.201 R0.375
X-7.718 Y37.753 Z-0.222 R0.375
X-7.753 Y38.282 Z-0.242 R0.375
X-8.282 Y38.247 Z-0.263 R0.375
X-8.247 Y37.718 Z-0.283 R0.375
X-7.718 Y37.753 Z-0.304 R0.375
X-7.753 Y38.282 Z-0.324 R0.375
X-8.282 Y38.247 Z-0.345 R0.375
X-8.247 Y37.718 Z-0.366 R0.375
X-7.718 Y37.753 Z-0.386 R0.375
X-7.753 Y38.282 Z-0.407 R0.375
X-8.282 Y38.247 Z-0.427 R0.375
X-8.247 Y37.718 Z-0.448 R0.375
X-7.718 Y37.753 Z-0.468 R0.375
X-7.753 Y38.282 Z-0.489 R0.375
X-8.282 Y38.247 Z-0.51 R0.375
X-8.247 Y37.718 Z-0.53 R0.375
X-7.718 Y37.753 Z-0.551 R0.375
X-7.753 Y38.282 Z-0.571 R0.375
X-8.282 Y38.247 Z-0.592 R0.375
X-8.247 Y37.718 Z-0.612 R0.375
X-7.718 Y37.753 Z-0.633 R0.375
X-7.753 Y38.282 Z-0.654 R0.375
X-8.282 Y38.247 Z-0.674 R0.375
X-8.247 Y37.718 Z-0.695 R0.375
X-7.718 Y37.753 Z-0.715 R0.375
X-7.753 Y38.282 Z-0.736 R0.375
X-8.282 Y38.247 Z-0.756 R0.375
X-8.247 Y37.718 Z-0.777 R0.375
X-7.718 Y37.753 Z-0.798 R0.375
X-7.753 Y38.282 Z-0.818 R0.375
X-8.282 Y38.247 Z-0.839 R0.375
X-8.247 Y37.718 Z-0.859 R0.375
X-7.718 Y37.753 Z-0.88 R0.375
X-7.753 Y38.282 Z-0.9 R0.375
X-8.282 Y38.247 Z-0.921 R0.375
X-8.247 Y37.718 Z-0.942 R0.375
X-7.718 Y37.753 Z-0.962 R0.375
X-7.753 Y38.282 Z-0.983 R0.375
X-8.282 Y38.247 Z-1.003 R0.375
X-8.247 Y37.718 Z-1.024 R0.375
X-7.718 Y37.753 Z-1.044 R0.375
X-7.753 Y38.282 Z-1.065 R0.375
X-8.282 Y38.247 Z-1.086 R0.375
X-8.247 Y37.718 Z-1.106 R0.375
X-7.718 Y37.753 Z-1.127 R0.375
X-7.753 Y38.282 Z-1.147 R0.375
X-8.282 Y38.247 Z-1.168 R0.375
X-8.247 Y37.718 Z-1.188 R0.375
X-7.718 Y37.753 Z-1.209 R0.375
X-7.753 Y38.282 Z-1.229 R0.375
X-8.282 Y38.247 Z-1.25 R0.375
X-8.247 Y37.718 Z-1.271 R0.375
X-7.718 Y37.753 Z-1.291 R0.375
X-7.753 Y38.282 Z-1.312 R0.375
X-8.282 Y38.247 Z-1.332 R0.375
X-8.247 Y37.718 Z-1.353 R0.375
X-7.718 Y37.753 Z-1.373 R0.375
X-7.753 Y38.282 Z-1.394 R0.375
X-8.282 Y38.247 Z-1.415 R0.375
X-8.247 Y37.718 Z-1.435 R0.375
X-7.718 Y37.753 Z-1.456 R0.375
X-7.753 Y38.282 Z-1.476 R0.375
X-8.282 Y38.247 Z-1.497 R0.375
X-8.247 Y37.718 Z-1.517 R0.375
X-7.718 Y37.753 Z-1.538 R0.375
X-7.753 Y38.282 Z-1.559 R0.375
X-8.282 Y38.247 Z-1.579 R0.375
X-8.247 Y37.718 Z-1.6 R0.375
X-7.718 Y37.753 Z-1.62 R0.375
X-7.753 Y38.282 Z-1.641 R0.375
X-8.282 Y38.247 Z-1.661 R0.375
X-8.247 Y37.718 Z-1.682 R0.375
X-7.718 Y37.753 Z-1.703 R0.375
X-7.753 Y38.282 Z-1.723 R0.375
X-8.282 Y38.247 Z-1.744 R0.375
X-8.247 Y37.718 Z-1.764 R0.375
X-7.718 Y37.753 Z-1.785 R0.375
X-7.753 Y38.282 Z-1.805 R0.375
X-8.282 Y38.247 Z-1.826 R0.375
X-8.247 Y37.718 Z-1.847 R0.375
X-7.718 Y37.753 Z-1.867 R0.375
X-7.753 Y38.282 Z-1.888 R0.375
X-8.282 Y38.247 Z-1.908 R0.375
X-8.247 Y37.718 Z-1.929 R0.375
X-7.718 Y37.753 Z-1.949 R0.375
X-7.753 Y38.282 Z-1.97 R0.375
X-8.282 Y38.247 Z-1.991 R0.375
X-8.375 Y38. Z-2. R0.375
X-8. Y37.625 R0.375 F796.8
X-7.625 Y38. R0.375
X-8. Y38.375 R0.375
X-8.375 Y38. R0.375
X-7.844 Y37.469 R0.531
X-7.313 Y38. R0.531
X-8. Y38.688 R0.688
X-8.688 Y38. R0.688
X-8. Y37.313 R0.688
X-7.313 Y38. R0.688
X-7.625 Y38.313 R0.313 F400.
G1 X-7.938
G18 G3 X-8.25 Z-1.688 R0.313
G0 Z3.
X-7.982 Y52.625
G1 Z2.312 F333.33
X-7.979 Y52.626 Z2.268 F600.
X-7.97 Z2.224
X-7.954 Y52.628 Z2.183
X-7.933 Y52.631 Z2.144
X-7.907 Y52.637 Z2.108
X-7.877 Y52.646 Z2.077
X-7.844 Y52.659 Z2.05
X-7.81 Y52.677 Z2.028
X-7.775 Y52.7 Z2.013
X-7.745 Y52.725 Z2.004
X-7.718 Y52.753 Z2.
G17 G3 X-7.753 Y53.282 Z1.979 R0.375
X-8.282 Y53.247 Z1.959 R0.375
X-8.247 Y52.718 Z1.938 R0.375
X-7.718 Y52.753 Z1.918 R0.375
X-7.753 Y53.282 Z1.897 R0.375
X-8.282 Y53.247 Z1.877 R0.375
X-8.247 Y52.718 Z1.856 R0.375
X-7.718 Y52.753 Z1.835 R0.375
X-7.753 Y53.282 Z1.815 R0.375
X-8.282 Y53.247 Z1.794 R0.375
X-8.247 Y52.718 Z1.774 R0.375
X-7.718 Y52.753 Z1.753 R0.375
X-7.753 Y53.282 Z1.733 R0.375
X-8.282 Y53.247 Z1.712 R0.375
X-8.247 Y52.718 Z1.691 R0.375
X-7.718 Y52.753 Z1.671 R0.375
X-7.753 Y53.282 Z1.65 R0.375
X-8.282 Y53.247 Z1.63 R0.375
X-8.247 Y52.718 Z1.609 R0.375
X-7.718 Y52.753 Z1.589 R0.375
X-7.753 Y53.282 Z1.568 R0.375
X-8.282 Y53.247 Z1.547 R0.375
X-8.247 Y52.718 Z1.527 R0.375
X-7.718 Y52.753 Z1.506 R0.375
X-7.753 Y53.282 Z1.486 R0.375
X-8.282 Y53.247 Z1.465 R0.375
X-8.247 Y52.718 Z1.445 R0.375
X-7.718 Y52.753 Z1.424 R0.375
X-7.753 Y53.282 Z1.403 R0.375
X-8.282 Y53.247 Z1.383 R0.375
X-8.247 Y52.718 Z1.362 R0.375
X-7.718 Y52.753 Z1.342 R0.375
X-7.753 Y53.282 Z1.321 R0.375
X-8.282 Y53.247 Z1.301 R0.375
X-8.247 Y52.718 Z1.28 R0.375
X-7.718 Y52.753 Z1.259 R0.375
X-7.753 Y53.282 Z1.239 R0.375
X-8.282 Y53.247 Z1.218 R0.375
X-8.247 Y52.718 Z1.198 R0.375
X-7.718 Y52.753 Z1.177 R0.375
X-7.753 Y53.282 Z1.157 R0.375
X-8.282 Y53.247 Z1.136 R0.375
X-8.247 Y52.718 Z1.115 R0.375
X-7.718 Y52.753 Z1.095 R0.375
X-7.753 Y53.282 Z1.074 R0.375
X-8.282 Y53.247 Z1.054 R0.375
X-8.247 Y52.718 Z1.033 R0.375
X-7.718 Y52.753 Z1.013 R0.375
X-7.753 Y53.282 Z0.992 R0.375
X-8.282 Y53.247 Z0.971 R0.375
X-8.247 Y52.718 Z0.951 R0.375
X-7.718 Y52.753 Z0.93 R0.375
X-7.753 Y53.282 Z0.91 R0.375
X-8.282 Y53.247 Z0.889 R0.375
X-8.247 Y52.718 Z0.869 R0.375
X-7.718 Y52.753 Z0.848 R0.375
X-7.753 Y53.282 Z0.828 R0.375
X-8.282 Y53.247 Z0.807 R0.375
X-8.247 Y52.718 Z0.786 R0.375
X-7.718 Y52.753 Z0.766 R0.375
X-7.753 Y53.282 Z0.745 R0.375
X-8.282 Y53.247 Z0.725 R0.375
X-8.247 Y52.718 Z0.704 R0.375
X-7.718 Y52.753 Z0.684 R0.375
X-7.753 Y53.282 Z0.663 R0.375
X-8.282 Y53.247 Z0.642 R0.375
X-8.247 Y52.718 Z0.622 R0.375
X-7.718 Y52.753 Z0.601 R0.375
X-7.753 Y53.282 Z0.581 R0.375
X-8.282 Y53.247 Z0.56 R0.375
X-8.247 Y52.718 Z0.54 R0.375
X-7.718 Y52.753 Z0.519 R0.375
X-7.753 Y53.282 Z0.498 R0.375
X-8.282 Y53.247 Z0.478 R0.375
X-8.247 Y52.718 Z0.457 R0.375
X-7.718 Y52.753 Z0.437 R0.375
X-7.753 Y53.282 Z0.416 R0.375
X-8.282 Y53.247 Z0.396 R0.375
X-8.247 Y52.718 Z0.375 R0.375
X-7.718 Y52.753 Z0.354 R0.375
X-7.753 Y53.282 Z0.334 R0.375
X-8.282 Y53.247 Z0.313 R0.375
X-8.247 Y52.718 Z0.293 R0.375
X-7.718 Y52.753 Z0.272 R0.375
X-7.753 Y53.282 Z0.252 R0.375
X-8.282 Y53.247 Z0.231 R0.375
X-8.247 Y52.718 Z0.21 R0.375
X-7.718 Y52.753 Z0.19 R0.375
X-7.753 Y53.282 Z0.169 R0.375
X-8.282 Y53.247 Z0.149 R0.375
X-8.247 Y52.718 Z0.128 R0.375
X-7.718 Y52.753 Z0.108 R0.375
X-7.753 Y53.282 Z0.087 R0.375
X-8.282 Y53.247 Z0.066 R0.375
X-8.247 Y52.718 Z0.046 R0.375
X-7.718 Y52.753 Z0.025 R0.375
X-7.753 Y53.282 Z0.005 R0.375
X-8.282 Y53.247 Z-0.016 R0.375
X-8.247 Y52.718 Z-0.036 R0.375
X-7.718 Y52.753 Z-0.057 R0.375
X-7.753 Y53.282 Z-0.078 R0.375
X-8.282 Y53.247 Z-0.098 R0.375
X-8.247 Y52.718 Z-0.119 R0.375
X-7.718 Y52.753 Z-0.139 R0.375
X-7.753 Y53.282 Z-0.16 R0.375
X-8.282 Y53.247 Z-0.18 R0.375
X-8.247 Y52.718 Z-0.201 R0.375
X-7.718 Y52.753 Z-0.222 R0.375
X-7.753 Y53.282 Z-0.242 R0.375
X-8.282 Y53.247 Z-0.263 R0.375
X-8.247 Y52.718 Z-0.283 R0.375
X-7.718 Y52.753 Z-0.304 R0.375
X-7.753 Y53.282 Z-0.324 R0.375
X-8.282 Y53.247 Z-0.345 R0.375
X-8.247 Y52.718 Z-0.366 R0.375
X-7.718 Y52.753 Z-0.386 R0.375
X-7.753 Y53.282 Z-0.407 R0.375
X-8.282 Y53.247 Z-0.427 R0.375
X-8.247 Y52.718 Z-0.448 R0.375
X-7.718 Y52.753 Z-0.468 R0.375
X-7.753 Y53.282 Z-0.489 R0.375
X-8.282 Y53.247 Z-0.51 R0.375
X-8.247 Y52.718 Z-0.53 R0.375
X-7.718 Y52.753 Z-0.551 R0.375
X-7.753 Y53.282 Z-0.571 R0.375
X-8.282 Y53.247 Z-0.592 R0.375
X-8.247 Y52.718 Z-0.612 R0.375
X-7.718 Y52.753 Z-0.633 R0.375
X-7.753 Y53.282 Z-0.654 R0.375
X-8.282 Y53.247 Z-0.674 R0.375
X-8.247 Y52.718 Z-0.695 R0.375
X-7.718 Y52.753 Z-0.715 R0.375
X-7.753 Y53.282 Z-0.736 R0.375
X-8.282 Y53.247 Z-0.756 R0.375
X-8.247 Y52.718 Z-0.777 R0.375
X-7.718 Y52.753 Z-0.798 R0.375
X-7.753 Y53.282 Z-0.818 R0.375
X-8.282 Y53.247 Z-0.839 R0.375
X-8.247 Y52.718 Z-0.859 R0.375
X-7.718 Y52.753 Z-0.88 R0.375
X-7.753 Y53.282 Z-0.9 R0.375
X-8.282 Y53.247 Z-0.921 R0.375
X-8.247 Y52.718 Z-0.942 R0.375
X-7.718 Y52.753 Z-0.962 R0.375
X-7.753 Y53.282 Z-0.983 R0.375
X-8.282 Y53.247 Z-1.003 R0.375
X-8.247 Y52.718 Z-1.024 R0.375
X-7.718 Y52.753 Z-1.044 R0.375
X-7.753 Y53.282 Z-1.065 R0.375
X-8.282 Y53.247 Z-1.086 R0.375
X-8.247 Y52.718 Z-1.106 R0.375
X-7.718 Y52.753 Z-1.127 R0.375
X-7.753 Y53.282 Z-1.147 R0.375
X-8.282 Y53.247 Z-1.168 R0.375
X-8.247 Y52.718 Z-1.188 R0.375
X-7.718 Y52.753 Z-1.209 R0.375
X-7.753 Y53.282 Z-1.229 R0.375
X-8.282 Y53.247 Z-1.25 R0.375
X-8.247 Y52.718 Z-1.271 R0.375
X-7.718 Y52.753 Z-1.291 R0.375
X-7.753 Y53.282 Z-1.312 R0.375
X-8.282 Y53.247 Z-1.332 R0.375
X-8.247 Y52.718 Z-1.353 R0.375
X-7.718 Y52.753 Z-1.373 R0.375
X-7.753 Y53.282 Z-1.394 R0.375
X-8.282 Y53.247 Z-1.415 R0.375
X-8.247 Y52.718 Z-1.435 R0.375
X-7.718 Y52.753 Z-1.456 R0.375
X-7.753 Y53.282 Z-1.476 R0.375
X-8.282 Y53.247 Z-1.497 R0.375
X-8.247 Y52.718 Z-1.517 R0.375
X-7.718 Y52.753 Z-1.538 R0.375
X-7.753 Y53.282 Z-1.559 R0.375
X-8.282 Y53.247 Z-1.579 R0.375
X-8.247 Y52.718 Z-1.6 R0.375
X-7.718 Y52.753 Z-1.62 R0.375
X-7.753 Y53.282 Z-1.641 R0.375
X-8.282 Y53.247 Z-1.661 R0.375
X-8.247 Y52.718 Z-1.682 R0.375
X-7.718 Y52.753 Z-1.703 R0.375
X-7.753 Y53.282 Z-1.723 R0.375
X-8.282 Y53.247 Z-1.744 R0.375
X-8.247 Y52.718 Z-1.764 R0.375
X-7.718 Y52.753 Z-1.785 R0.375
X-7.753 Y53.282 Z-1.805 R0.375
X-8.282 Y53.247 Z-1.826 R0.375
X-8.247 Y52.718 Z-1.847 R0.375
X-7.718 Y52.753 Z-1.867 R0.375
X-7.753 Y53.282 Z-1.888 R0.375
X-8.282 Y53.247 Z-1.908 R0.375
X-8.247 Y52.718 Z-1.929 R0.375
X-7.718 Y52.753 Z-1.949 R0.375
X-7.753 Y53.282 Z-1.97 R0.375
X-8.282 Y53.247 Z-1.991 R0.375
X-8.375 Y53. Z-2. R0.375
X-8. Y52.625 R0.375 F796.8
X-7.625 Y53. R0.375
X-8. Y53.375 R0.375
X-8.375 Y53. R0.375
X-7.844 Y52.469 R0.531
X-7.313 Y53. R0.531
X-8. Y53.688 R0.688
X-8.688 Y53. R0.688
X-8. Y52.313 R0.688
X-7.313 Y53. R0.688
X-7.625 Y53.313 R0.313 F400.
G1 X-7.938
G18 G3 X-8.25 Z-1.688 R0.313
G0 Z13.
G17
(2D CONTOUR3 2)
G0 Z16.
X6.625 Y31.438
Z4.313
G1 Z2. F333.33
Z1.312
G18 G3 X3.313 Z-2. R3.313
G1 X0. F400.
X-13. F796.8
G17 G2 X-17.563 Y36. R4.563
G1 Y55.
G2 X-13. Y59.563 R4.563
G1 X0.
X3.313 F400.
G18 G2 X6.625 Z1.312 R3.313
G0 Z16.
G17
(2D CONTOUR2 2)
G0 X-7.982 Y70.625
Z13.
Z3.
G1 Z2.312 F333.33
X-7.979 Y70.626 Z2.268 F600.
X-7.97 Z2.224
X-7.954 Y70.628 Z2.183
X-7.933 Y70.631 Z2.144
X-7.907 Y70.637 Z2.108
X-7.877 Y70.646 Z2.077
X-7.844 Y70.659 Z2.05
X-7.81 Y70.677 Z2.028
X-7.775 Y70.7 Z2.013
X-7.745 Y70.725 Z2.004
X-7.718 Y70.753 Z2.
G3 X-7.753 Y71.282 Z1.979 R0.375
X-8.282 Y71.247 Z1.959 R0.375
X-8.247 Y70.718 Z1.938 R0.375
X-7.718 Y70.753 Z1.918 R0.375
X-7.753 Y71.282 Z1.897 R0.375
X-8.282 Y71.247 Z1.877 R0.375
X-8.247 Y70.718 Z1.856 R0.375
X-7.718 Y70.753 Z1.835 R0.375
X-7.753 Y71.282 Z1.815 R0.375
X-8.282 Y71.247 Z1.794 R0.375
X-8.247 Y70.718 Z1.774 R0.375
X-7.718 Y70.753 Z1.753 R0.375
X-7.753 Y71.282 Z1.733 R0.375
X-8.282 Y71.247 Z1.712 R0.375
X-8.247 Y70.718 Z1.691 R0.375
X-7.718 Y70.753 Z1.671 R0.375
X-7.753 Y71.282 Z1.65 R0.375
X-8.282 Y71.247 Z1.63 R0.375
X-8.247 Y70.718 Z1.609 R0.375
X-7.718 Y70.753 Z1.589 R0.375
X-7.753 Y71.282 Z1.568 R0.375
X-8.282 Y71.247 Z1.547 R0.375
X-8.247 Y70.718 Z1.527 R0.375
X-7.718 Y70.753 Z1.506 R0.375
X-7.753 Y71.282 Z1.486 R0.375
X-8.282 Y71.247 Z1.465 R0.375
X-8.247 Y70.718 Z1.445 R0.375
X-7.718 Y70.753 Z1.424 R0.375
X-7.753 Y71.282 Z1.403 R0.375
X-8.282 Y71.247 Z1.383 R0.375
X-8.247 Y70.718 Z1.362 R0.375
X-7.718 Y70.753 Z1.342 R0.375
X-7.753 Y71.282 Z1.321 R0.375
X-8.282 Y71.247 Z1.301 R0.375
X-8.247 Y70.718 Z1.28 R0.375
X-7.718 Y70.753 Z1.259 R0.375
X-7.753 Y71.282 Z1.239 R0.375
X-8.282 Y71.247 Z1.218 R0.375
X-8.247 Y70.718 Z1.198 R0.375
X-7.718 Y70.753 Z1.177 R0.375
X-7.753 Y71.282 Z1.157 R0.375
X-8.282 Y71.247 Z1.136 R0.375
X-8.247 Y70.718 Z1.115 R0.375
X-7.718 Y70.753 Z1.095 R0.375
X-7.753 Y71.282 Z1.074 R0.375
X-8.282 Y71.247 Z1.054 R0.375
X-8.247 Y70.718 Z1.033 R0.375
X-7.718 Y70.753 Z1.013 R0.375
X-7.753 Y71.282 Z0.992 R0.375
X-8.282 Y71.247 Z0.971 R0.375
X-8.247 Y70.718 Z0.951 R0.375
X-7.718 Y70.753 Z0.93 R0.375
X-7.753 Y71.282 Z0.91 R0.375
X-8.282 Y71.247 Z0.889 R0.375
X-8.247 Y70.718 Z0.869 R0.375
X-7.718 Y70.753 Z0.848 R0.375
X-7.753 Y71.282 Z0.828 R0.375
X-8.282 Y71.247 Z0.807 R0.375
X-8.247 Y70.718 Z0.786 R0.375
X-7.718 Y70.753 Z0.766 R0.375
X-7.753 Y71.282 Z0.745 R0.375
X-8.282 Y71.247 Z0.725 R0.375
X-8.247 Y70.718 Z0.704 R0.375
X-7.718 Y70.753 Z0.684 R0.375
X-7.753 Y71.282 Z0.663 R0.375
X-8.282 Y71.247 Z0.642 R0.375
X-8.247 Y70.718 Z0.622 R0.375
X-7.718 Y70.753 Z0.601 R0.375
X-7.753 Y71.282 Z0.581 R0.375
X-8.282 Y71.247 Z0.56 R0.375
X-8.247 Y70.718 Z0.54 R0.375
X-7.718 Y70.753 Z0.519 R0.375
X-7.753 Y71.282 Z0.498 R0.375
X-8.282 Y71.247 Z0.478 R0.375
X-8.247 Y70.718 Z0.457 R0.375
X-7.718 Y70.753 Z0.437 R0.375
X-7.753 Y71.282 Z0.416 R0.375
X-8.282 Y71.247 Z0.396 R0.375
X-8.247 Y70.718 Z0.375 R0.375
X-7.718 Y70.753 Z0.354 R0.375
X-7.753 Y71.282 Z0.334 R0.375
X-8.282 Y71.247 Z0.313 R0.375
X-8.247 Y70.718 Z0.293 R0.375
X-7.718 Y70.753 Z0.272 R0.375
X-7.753 Y71.282 Z0.252 R0.375
X-8.282 Y71.247 Z0.231 R0.375
X-8.247 Y70.718 Z0.21 R0.375
X-7.718 Y70.753 Z0.19 R0.375
X-7.753 Y71.282 Z0.169 R0.375
X-8.282 Y71.247 Z0.149 R0.375
X-8.247 Y70.718 Z0.128 R0.375
X-7.718 Y70.753 Z0.108 R0.375
X-7.753 Y71.282 Z0.087 R0.375
X-8.282 Y71.247 Z0.066 R0.375
X-8.247 Y70.718 Z0.046 R0.375
X-7.718 Y70.753 Z0.025 R0.375
X-7.753 Y71.282 Z0.005 R0.375
X-8.282 Y71.247 Z-0.016 R0.375
X-8.247 Y70.718 Z-0.036 R0.375
X-7.718 Y70.753 Z-0.057 R0.375
X-7.753 Y71.282 Z-0.078 R0.375
X-8.282 Y71.247 Z-0.098 R0.375
X-8.247 Y70.718 Z-0.119 R0.375
X-7.718 Y70.753 Z-0.139 R0.375
X-7.753 Y71.282 Z-0.16 R0.375
X-8.282 Y71.247 Z-0.18 R0.375
X-8.247 Y70.718 Z-0.201 R0.375
X-7.718 Y70.753 Z-0.222 R0.375
X-7.753 Y71.282 Z-0.242 R0.375
X-8.282 Y71.247 Z-0.263 R0.375
X-8.247 Y70.718 Z-0.283 R0.375
X-7.718 Y70.753 Z-0.304 R0.375
X-7.753 Y71.282 Z-0.324 R0.375
X-8.282 Y71.247 Z-0.345 R0.375
X-8.247 Y70.718 Z-0.366 R0.375
X-7.718 Y70.753 Z-0.386 R0.375
X-7.753 Y71.282 Z-0.407 R0.375
X-8.282 Y71.247 Z-0.427 R0.375
X-8.247 Y70.718 Z-0.448 R0.375
X-7.718 Y70.753 Z-0.468 R0.375
X-7.753 Y71.282 Z-0.489 R0.375
X-8.282 Y71.247 Z-0.51 R0.375
X-8.247 Y70.718 Z-0.53 R0.375
X-7.718 Y70.753 Z-0.551 R0.375
X-7.753 Y71.282 Z-0.571 R0.375
X-8.282 Y71.247 Z-0.592 R0.375
X-8.247 Y70.718 Z-0.612 R0.375
X-7.718 Y70.753 Z-0.633 R0.375
X-7.753 Y71.282 Z-0.654 R0.375
X-8.282 Y71.247 Z-0.674 R0.375
X-8.247 Y70.718 Z-0.695 R0.375
X-7.718 Y70.753 Z-0.715 R0.375
X-7.753 Y71.282 Z-0.736 R0.375
X-8.282 Y71.247 Z-0.756 R0.375
X-8.247 Y70.718 Z-0.777 R0.375
X-7.718 Y70.753 Z-0.798 R0.375
X-7.753 Y71.282 Z-0.818 R0.375
X-8.282 Y71.247 Z-0.839 R0.375
X-8.247 Y70.718 Z-0.859 R0.375
X-7.718 Y70.753 Z-0.88 R0.375
X-7.753 Y71.282 Z-0.9 R0.375
X-8.282 Y71.247 Z-0.921 R0.375
X-8.247 Y70.718 Z-0.942 R0.375
X-7.718 Y70.753 Z-0.962 R0.375
X-7.753 Y71.282 Z-0.983 R0.375
X-8.282 Y71.247 Z-1.003 R0.375
X-8.247 Y70.718 Z-1.024 R0.375
X-7.718 Y70.753 Z-1.044 R0.375
X-7.753 Y71.282 Z-1.065 R0.375
X-8.282 Y71.247 Z-1.086 R0.375
X-8.247 Y70.718 Z-1.106 R0.375
X-7.718 Y70.753 Z-1.127 R0.375
X-7.753 Y71.282 Z-1.147 R0.375
X-8.282 Y71.247 Z-1.168 R0.375
X-8.247 Y70.718 Z-1.188 R0.375
X-7.718 Y70.753 Z-1.209 R0.375
X-7.753 Y71.282 Z-1.229 R0.375
X-8.282 Y71.247 Z-1.25 R0.375
X-8.247 Y70.718 Z-1.271 R0.375
X-7.718 Y70.753 Z-1.291 R0.375
X-7.753 Y71.282 Z-1.312 R0.375
X-8.282 Y71.247 Z-1.332 R0.375
X-8.247 Y70.718 Z-1.353 R0.375
X-7.718 Y70.753 Z-1.373 R0.375
X-7.753 Y71.282 Z-1.394 R0.375
X-8.282 Y71.247 Z-1.415 R0.375
X-8.247 Y70.718 Z-1.435 R0.375
X-7.718 Y70.753 Z-1.456 R0.375
X-7.753 Y71.282 Z-1.476 R0.375
X-8.282 Y71.247 Z-1.497 R0.375
X-8.247 Y70.718 Z-1.517 R0.375
X-7.718 Y70.753 Z-1.538 R0.375
X-7.753 Y71.282 Z-1.559 R0.375
X-8.282 Y71.247 Z-1.579 R0.375
X-8.247 Y70.718 Z-1.6 R0.375
X-7.718 Y70.753 Z-1.62 R0.375
X-7.753 Y71.282 Z-1.641 R0.375
X-8.282 Y71.247 Z-1.661 R0.375
X-8.247 Y70.718 Z-1.682 R0.375
X-7.718 Y70.753 Z-1.703 R0.375
X-7.753 Y71.282 Z-1.723 R0.375
X-8.282 Y71.247 Z-1.744 R0.375
X-8.247 Y70.718 Z-1.764 R0.375
X-7.718 Y70.753 Z-1.785 R0.375
X-7.753 Y71.282 Z-1.805 R0.375
X-8.282 Y71.247 Z-1.826 R0.375
X-8.247 Y70.718 Z-1.847 R0.375
X-7.718 Y70.753 Z-1.867 R0.375
X-7.753 Y71.282 Z-1.888 R0.375
X-8.282 Y71.247 Z-1.908 R0.375
X-8.247 Y70.718 Z-1.929 R0.375
X-7.718 Y70.753 Z-1.949 R0.375
X-7.753 Y71.282 Z-1.97 R0.375
X-8.282 Y71.247 Z-1.991 R0.375
X-8.375 Y71. Z-2. R0.375
X-8. Y70.625 R0.375 F796.8
X-7.625 Y71. R0.375
X-8. Y71.375 R0.375
X-8.375 Y71. R0.375
X-7.844 Y70.469 R0.531
X-7.313 Y71. R0.531
X-8. Y71.688 R0.688
X-8.688 Y71. R0.688
X-8. Y70.313 R0.688
X-7.313 Y71. R0.688
X-7.625 Y71.313 R0.313 F400.
G1 X-7.938
G18 G3 X-8.25 Z-1.688 R0.313
G0 Z3.
X-7.982 Y85.625
G1 Z2.312 F333.33
X-7.979 Y85.626 Z2.268 F600.
X-7.97 Z2.224
X-7.954 Y85.628 Z2.183
X-7.933 Y85.631 Z2.144
X-7.907 Y85.637 Z2.108
X-7.877 Y85.646 Z2.077
X-7.844 Y85.659 Z2.05
X-7.81 Y85.677 Z2.028
X-7.775 Y85.7 Z2.013
X-7.745 Y85.725 Z2.004
X-7.718 Y85.753 Z2.
G17 G3 X-7.753 Y86.282 Z1.979 R0.375
X-8.282 Y86.247 Z1.959 R0.375
X-8.247 Y85.718 Z1.938 R0.375
X-7.718 Y85.753 Z1.918 R0.375
X-7.753 Y86.282 Z1.897 R0.375
X-8.282 Y86.247 Z1.877 R0.375
X-8.247 Y85.718 Z1.856 R0.375
X-7.718 Y85.753 Z1.835 R0.375
X-7.753 Y86.282 Z1.815 R0.375
X-8.282 Y86.247 Z1.794 R0.375
X-8.247 Y85.718 Z1.774 R0.375
X-7.718 Y85.753 Z1.753 R0.375
X-7.753 Y86.282 Z1.733 R0.375
X-8.282 Y86.247 Z1.712 R0.375
X-8.247 Y85.718 Z1.691 R0.375
X-7.718 Y85.753 Z1.671 R0.375
X-7.753 Y86.282 Z1.65 R0.375
X-8.282 Y86.247 Z1.63 R0.375
X-8.247 Y85.718 Z1.609 R0.375
X-7.718 Y85.753 Z1.589 R0.375
X-7.753 Y86.282 Z1.568 R0.375
X-8.282 Y86.247 Z1.547 R0.375
X-8.247 Y85.718 Z1.527 R0.375
X-7.718 Y85.753 Z1.506 R0.375
X-7.753 Y86.282 Z1.486 R0.375
X-8.282 Y86.247 Z1.465 R0.375
X-8.247 Y85.718 Z1.445 R0.375
X-7.718 Y85.753 Z1.424 R0.375
X-7.753 Y86.282 Z1.403 R0.375
X-8.282 Y86.247 Z1.383 R0.375
X-8.247 Y85.718 Z1.362 R0.375
X-7.718 Y85.753 Z1.342 R0.375
X-7.753 Y86.282 Z1.321 R0.375
X-8.282 Y86.247 Z1.301 R0.375
X-8.247 Y85.718 Z1.28 R0.375
X-7.718 Y85.753 Z1.259 R0.375
X-7.753 Y86.282 Z1.239 R0.375
X-8.282 Y86.247 Z1.218 R0.375
X-8.247 Y85.718 Z1.198 R0.375
X-7.718 Y85.753 Z1.177 R0.375
X-7.753 Y86.282 Z1.157 R0.375
X-8.282 Y86.247 Z1.136 R0.375
X-8.247 Y85.718 Z1.115 R0.375
X-7.718 Y85.753 Z1.095 R0.375
X-7.753 Y86.282 Z1.074 R0.375
X-8.282 Y86.247 Z1.054 R0.375
X-8.247 Y85.718 Z1.033 R0.375
X-7.718 Y85.753 Z1.013 R0.375
X-7.753 Y86.282 Z0.992 R0.375
X-8.282 Y86.247 Z0.971 R0.375
X-8.247 Y85.718 Z0.951 R0.375
X-7.718 Y85.753 Z0.93 R0.375
X-7.753 Y86.282 Z0.91 R0.375
X-8.282 Y86.247 Z0.889 R0.375
X-8.247 Y85.718 Z0.869 R0.375
X-7.718 Y85.753 Z0.848 R0.375
X-7.753 Y86.282 Z0.828 R0.375
X-8.282 Y86.247 Z0.807 R0.375
X-8.247 Y85.718 Z0.786 R0.375
X-7.718 Y85.753 Z0.766 R0.375
X-7.753 Y86.282 Z0.745 R0.375
X-8.282 Y86.247 Z0.725 R0.375
X-8.247 Y85.718 Z0.704 R0.375
X-7.718 Y85.753 Z0.684 R0.375
X-7.753 Y86.282 Z0.663 R0.375
X-8.282 Y86.247 Z0.642 R0.375
X-8.247 Y85.718 Z0.622 R0.375
X-7.718 Y85.753 Z0.601 R0.375
X-7.753 Y86.282 Z0.581 R0.375
X-8.282 Y86.247 Z0.56 R0.375
X-8.247 Y85.718 Z0.54 R0.375
X-7.718 Y85.753 Z0.519 R0.375
X-7.753 Y86.282 Z0.498 R0.375
X-8.282 Y86.247 Z0.478 R0.375
X-8.247 Y85.718 Z0.457 R0.375
X-7.718 Y85.753 Z0.437 R0.375
X-7.753 Y86.282 Z0.416 R0.375
X-8.282 Y86.247 Z0.396 R0.375
X-8.247 Y85.718 Z0.375 R0.375
X-7.718 Y85.753 Z0.354 R0.375
X-7.753 Y86.282 Z0.334 R0.375
X-8.282 Y86.247 Z0.313 R0.375
X-8.247 Y85.718 Z0.293 R0.375
X-7.718 Y85.753 Z0.272 R0.375
X-7.753 Y86.282 Z0.252 R0.375
X-8.282 Y86.247 Z0.231 R0.375
X-8.247 Y85.718 Z0.21 R0.375
X-7.718 Y85.753 Z0.19 R0.375
X-7.753 Y86.282 Z0.169 R0.375
X-8.282 Y86.247 Z0.149 R0.375
X-8.247 Y85.718 Z0.128 R0.375
X-7.718 Y85.753 Z0.108 R0.375
X-7.753 Y86.282 Z0.087 R0.375
X-8.282 Y86.247 Z0.066 R0.375
X-8.247 Y85.718 Z0.046 R0.375
X-7.718 Y85.753 Z0.025 R0.375
X-7.753 Y86.282 Z0.005 R0.375
X-8.282 Y86.247 Z-0.016 R0.375
X-8.247 Y85.718 Z-0.036 R0.375
X-7.718 Y85.753 Z-0.057 R0.375
X-7.753 Y86.282 Z-0.078 R0.375
X-8.282 Y86.247 Z-0.098 R0.375
X-8.247 Y85.718 Z-0.119 R0.375
X-7.718 Y85.753 Z-0.139 R0.375
X-7.753 Y86.282 Z-0.16 R0.375
X-8.282 Y86.247 Z-0.18 R0.375
X-8.247 Y85.718 Z-0.201 R0.375
X-7.718 Y85.753 Z-0.222 R0.375
X-7.753 Y86.282 Z-0.242 R0.375
X-8.282 Y86.247 Z-0.263 R0.375
X-8.247 Y85.718 Z-0.283 R0.375
X-7.718 Y85.753 Z-0.304 R0.375
X-7.753 Y86.282 Z-0.324 R0.375
X-8.282 Y86.247 Z-0.345 R0.375
X-8.247 Y85.718 Z-0.366 R0.375
X-7.718 Y85.753 Z-0.386 R0.375
X-7.753 Y86.282 Z-0.407 R0.375
X-8.282 Y86.247 Z-0.427 R0.375
X-8.247 Y85.718 Z-0.448 R0.375
X-7.718 Y85.753 Z-0.468 R0.375
X-7.753 Y86.282 Z-0.489 R0.375
X-8.282 Y86.247 Z-0.51 R0.375
X-8.247 Y85.718 Z-0.53 R0.375
X-7.718 Y85.753 Z-0.551 R0.375
X-7.753 Y86.282 Z-0.571 R0.375
X-8.282 Y86.247 Z-0.592 R0.375
X-8.247 Y85.718 Z-0.612 R0.375
X-7.718 Y85.753 Z-0.633 R0.375
X-7.753 Y86.282 Z-0.654 R0.375
X-8.282 Y86.247 Z-0.674 R0.375
X-8.247 Y85.718 Z-0.695 R0.375
X-7.718 Y85.753 Z-0.715 R0.375
X-7.753 Y86.282 Z-0.736 R0.375
X-8.282 Y86.247 Z-0.756 R0.375
X-8.247 Y85.718 Z-0.777 R0.375
X-7.718 Y85.753 Z-0.798 R0.375
X-7.753 Y86.282 Z-0.818 R0.375
X-8.282 Y86.247 Z-0.839 R0.375
X-8.247 Y85.718 Z-0.859 R0.375
X-7.718 Y85.753 Z-0.88 R0.375
X-7.753 Y86.282 Z-0.9 R0.375
X-8.282 Y86.247 Z-0.921 R0.375
X-8.247 Y85.718 Z-0.942 R0.375
X-7.718 Y85.753 Z-0.962 R0.375
X-7.753 Y86.282 Z-0.983 R0.375
X-8.282 Y86.247 Z-1.003 R0.375
X-8.247 Y85.718 Z-1.024 R0.375
X-7.718 Y85.753 Z-1.044 R0.375
X-7.753 Y86.282 Z-1.065 R0.375
X-8.282 Y86.247 Z-1.086 R0.375
X-8.247 Y85.718 Z-1.106 R0.375
X-7.718 Y85.753 Z-1.127 R0.375
X-7.753 Y86.282 Z-1.147 R0.375
X-8.282 Y86.247 Z-1.168 R0.375
X-8.247 Y85.718 Z-1.188 R0.375
X-7.718 Y85.753 Z-1.209 R0.375
X-7.753 Y86.282 Z-1.229 R0.375
X-8.282 Y86.247 Z-1.25 R0.375
X-8.247 Y85.718 Z-1.271 R0.375
X-7.718 Y85.753 Z-1.291 R0.375
X-7.753 Y86.282 Z-1.312 R0.375
X-8.282 Y86.247 Z-1.332 R0.375
X-8.247 Y85.718 Z-1.353 R0.375
X-7.718 Y85.753 Z-1.373 R0.375
X-7.753 Y86.282 Z-1.394 R0.375
X-8.282 Y86.247 Z-1.415 R0.375
X-8.247 Y85.718 Z-1.435 R0.375
X-7.718 Y85.753 Z-1.456 R0.375
X-7.753 Y86.282 Z-1.476 R0.375
X-8.282 Y86.247 Z-1.497 R0.375
X-8.247 Y85.718 Z-1.517 R0.375
X-7.718 Y85.753 Z-1.538 R0.375
X-7.753 Y86.282 Z-1.559 R0.375
X-8.282 Y86.247 Z-1.579 R0.375
X-8.247 Y85.718 Z-1.6 R0.375
X-7.718 Y85.753 Z-1.62 R0.375
X-7.753 Y86.282 Z-1.641 R0.375
X-8.282 Y86.247 Z-1.661 R0.375
X-8.247 Y85.718 Z-1.682 R0.375
X-7.718 Y85.753 Z-1.703 R0.375
X-7.753 Y86.282 Z-1.723 R0.375
X-8.282 Y86.247 Z-1.744 R0.375
X-8.247 Y85.718 Z-1.764 R0.375
X-7.718 Y85.753 Z-1.785 R0.375
X-7.753 Y86.282 Z-1.805 R0.375
X-8.282 Y86.247 Z-1.826 R0.375
X-8.247 Y85.718 Z-1.847 R0.375
X-7.718 Y85.753 Z-1.867 R0.375
X-7.753 Y86.282 Z-1.888 R0.375
X-8.282 Y86.247 Z-1.908 R0.375
X-8.247 Y85.718 Z-1.929 R0.375
X-7.718 Y85.753 Z-1.949 R0.375
X-7.753 Y86.282 Z-1.97 R0.375
X-8.282 Y86.247 Z-1.991 R0.375
X-8.375 Y86. Z-2. R0.375
X-8. Y85.625 R0.375 F796.8
X-7.625 Y86. R0.375
X-8. Y86.375 R0.375
X-8.375 Y86. R0.375
X-7.844 Y85.469 R0.531
X-7.313 Y86. R0.531
X-8. Y86.688 R0.688
X-8.688 Y86. R0.688
X-8. Y85.313 R0.688
X-7.313 Y86. R0.688
X-7.625 Y86.313 R0.313 F400.
G1 X-7.938
G18 G3 X-8.25 Z-1.688 R0.313
G0 Z13.
G17
(2D CONTOUR3 2)
G0 Z16.
X6.625 Y64.438
Z4.313
G1 Z2. F333.33
Z1.312
G18 G3 X3.313 Z-2. R3.313
G1 X0. F400.
X-13. F796.8
G17 G2 X-17.563 Y69. R4.563
G1 Y88.
G2 X-13. Y92.563 R4.563
G1 X0.
X3.313 F400.
G18 G2 X6.625 Z1.312 R3.313
G0 Z16.
G17
(2D CONTOUR2 2)
G0 X-7.982 Y103.625
Z13.
Z3.
G1 Z2.312 F333.33
X-7.979 Y103.626 Z2.268 F600.
X-7.97 Z2.224
X-7.954 Y103.628 Z2.183
X-7.933 Y103.631 Z2.144
X-7.907 Y103.637 Z2.108
X-7.877 Y103.646 Z2.077
X-7.844 Y103.659 Z2.05
X-7.81 Y103.677 Z2.028
X-7.775 Y103.7 Z2.013
X-7.745 Y103.725 Z2.004
X-7.718 Y103.753 Z2.
G3 X-7.753 Y104.282 Z1.979 R0.375
X-8.282 Y104.247 Z1.959 R0.375
X-8.247 Y103.718 Z1.938 R0.375
X-7.718 Y103.753 Z1.918 R0.375
X-7.753 Y104.282 Z1.897 R0.375
X-8.282 Y104.247 Z1.877 R0.375
X-8.247 Y103.718 Z1.856 R0.375
X-7.718 Y103.753 Z1.835 R0.375
X-7.753 Y104.282 Z1.815 R0.375
X-8.282 Y104.247 Z1.794 R0.375
X-8.247 Y103.718 Z1.774 R0.375
X-7.718 Y103.753 Z1.753 R0.375
X-7.753 Y104.282 Z1.733 R0.375
X-8.282 Y104.247 Z1.712 R0.375
X-8.247 Y103.718 Z1.691 R0.375
X-7.718 Y103.753 Z1.671 R0.375
X-7.753 Y104.282 Z1.65 R0.375
X-8.282 Y104.247 Z1.63 R0.375
X-8.247 Y103.718 Z1.609 R0.375
X-7.718 Y103.753 Z1.589 R0.375
X-7.753 Y104.282 Z1.568 R0.375
X-8.282 Y104.247 Z1.547 R0.375
X-8.247 Y103.718 Z1.527 R0.375
X-7.718 Y103.753 Z1.506 R0.375
X-7.753 Y104.282 Z1.486 R0.375
X-8.282 Y104.247 Z1.465 R0.375
X-8.247 Y103.718 Z1.445 R0.375
X-7.718 Y103.753 Z1.424 R0.375
X-7.753 Y104.282 Z1.403 R0.375
X-8.282 Y104.247 Z1.383 R0.375
X-8.247 Y103.718 Z1.362 R0.375
X-7.718 Y103.753 Z1.342 R0.375
X-7.753 Y104.282 Z1.321 R0.375
X-8.282 Y104.247 Z1.301 R0.375
X-8.247 Y103.718 Z1.28 R0.375
X-7.718 Y103.753 Z1.259 R0.375
X-7.753 Y104.282 Z1.239 R0.375
X-8.282 Y104.247 Z1.218 R0.375
X-8.247 Y103.718 Z1.198 R0.375
X-7.718 Y103.753 Z1.177 R0.375
X-7.753 Y104.282 Z1.157 R0.375
X-8.282 Y104.247 Z1.136 R0.375
X-8.247 Y103.718 Z1.115 R0.375
X-7.718 Y103.753 Z1.095 R0.375
X-7.753 Y104.282 Z1.074 R0.375
X-8.282 Y104.247 Z1.054 R0.375
X-8.247 Y103.718 Z1.033 R0.375
X-7.718 Y103.753 Z1.013 R0.375
X-7.753 Y104.282 Z0.992 R0.375
X-8.282 Y104.247 Z0.971 R0.375
X-8.247 Y103.718 Z0.951 R0.375
X-7.718 Y103.753 Z0.93 R0.375
X-7.753 Y104.282 Z0.91 R0.375
X-8.282 Y104.247 Z0.889 R0.375
X-8.247 Y103.718 Z0.869 R0.375
X-7.718 Y103.753 Z0.848 R0.375
X-7.753 Y104.282 Z0.828 R0.375
X-8.282 Y104.247 Z0.807 R0.375
X-8.247 Y103.718 Z0.786 R0.375
X-7.718 Y103.753 Z0.766 R0.375
X-7.753 Y104.282 Z0.745 R0.375
X-8.282 Y104.247 Z0.725 R0.375
X-8.247 Y103.718 Z0.704 R0.375
X-7.718 Y103.753 Z0.684 R0.375
X-7.753 Y104.282 Z0.663 R0.375
X-8.282 Y104.247 Z0.642 R0.375
X-8.247 Y103.718 Z0.622 R0.375
X-7.718 Y103.753 Z0.601 R0.375
X-7.753 Y104.282 Z0.581 R0.375
X-8.282 Y104.247 Z0.56 R0.375
X-8.247 Y103.718 Z0.54 R0.375
X-7.718 Y103.753 Z0.519 R0.375
X-7.753 Y104.282 Z0.498 R0.375
X-8.282 Y104.247 Z0.478 R0.375
X-8.247 Y103.718 Z0.457 R0.375
X-7.718 Y103.753 Z0.437 R0.375
X-7.753 Y104.282 Z0.416 R0.375
X-8.282 Y104.247 Z0.396 R0.375
X-8.247 Y103.718 Z0.375 R0.375
X-7.718 Y103.753 Z0.354 R0.375
X-7.753 Y104.282 Z0.334 R0.375
X-8.282 Y104.247 Z0.313 R0.375
X-8.247 Y103.718 Z0.293 R0.375
X-7.718 Y103.753 Z0.272 R0.375
X-7.753 Y104.282 Z0.252 R0.375
X-8.282 Y104.247 Z0.231 R0.375
X-8.247 Y103.718 Z0.21 R0.375
X-7.718 Y103.753 Z0.19 R0.375
X-7.753 Y104.282 Z0.169 R0.375
X-8.282 Y104.247 Z0.149 R0.375
X-8.247 Y103.718 Z0.128 R0.375
X-7.718 Y103.753 Z0.108 R0.375
X-7.753 Y104.282 Z0.087 R0.375
X-8.282 Y104.247 Z0.066 R0.375
X-8.247 Y103.718 Z0.046 R0.375
X-7.718 Y103.753 Z0.025 R0.375
X-7.753 Y104.282 Z0.005 R0.375
X-8.282 Y104.247 Z-0.016 R0.375
X-8.247 Y103.718 Z-0.036 R0.375
X-7.718 Y103.753 Z-0.057 R0.375
X-7.753 Y104.282 Z-0.078 R0.375
X-8.282 Y104.247 Z-0.098 R0.375
X-8.247 Y103.718 Z-0.119 R0.375
X-7.718 Y103.753 Z-0.139 R0.375
X-7.753 Y104.282 Z-0.16 R0.375
X-8.282 Y104.247 Z-0.18 R0.375
X-8.247 Y103.718 Z-0.201 R0.375
X-7.718 Y103.753 Z-0.222 R0.375
X-7.753 Y104.282 Z-0.242 R0.375
X-8.282 Y104.247 Z-0.263 R0.375
X-8.247 Y103.718 Z-0.283 R0.375
X-7.718 Y103.753 Z-0.304 R0.375
X-7.753 Y104.282 Z-0.324 R0.375
X-8.282 Y104.247 Z-0.345 R0.375
X-8.247 Y103.718 Z-0.366 R0.375
X-7.718 Y103.753 Z-0.386 R0.375
X-7.753 Y104.282 Z-0.407 R0.375
X-8.282 Y104.247 Z-0.427 R0.375
X-8.247 Y103.718 Z-0.448 R0.375
X-7.718 Y103.753 Z-0.468 R0.375
X-7.753 Y104.282 Z-0.489 R0.375
X-8.282 Y104.247 Z-0.51 R0.375
X-8.247 Y103.718 Z-0.53 R0.375
X-7.718 Y103.753 Z-0.551 R0.375
X-7.753 Y104.282 Z-0.571 R0.375
X-8.282 Y104.247 Z-0.592 R0.375
X-8.247 Y103.718 Z-0.612 R0.375
X-7.718 Y103.753 Z-0.633 R0.375
X-7.753 Y104.282 Z-0.654 R0.375
X-8.282 Y104.247 Z-0.674 R0.375
X-8.247 Y103.718 Z-0.695 R0.375
X-7.718 Y103.753 Z-0.715 R0.375
X-7.753 Y104.282 Z-0.736 R0.375
X-8.282 Y104.247 Z-0.756 R0.375
X-8.247 Y103.718 Z-0.777 R0.375
X-7.718 Y103.753 Z-0.798 R0.375
X-7.753 Y104.282 Z-0.818 R0.375
X-8.282 Y104.247 Z-0.839 R0.375
X-8.247 Y103.718 Z-0.859 R0.375
X-7.718 Y103.753 Z-0.88 R0.375
X-7.753 Y104.282 Z-0.9 R0.375
X-8.282 Y104.247 Z-0.921 R0.375
X-8.247 Y103.718 Z-0.942 R0.375
X-7.718 Y103.753 Z-0.962 R0.375
X-7.753 Y104.282 Z-0.983 R0.375
X-8.282 Y104.247 Z-1.003 R0.375
X-8.247 Y103.718 Z-1.024 R0.375
X-7.718 Y103.753 Z-1.044 R0.375
X-7.753 Y104.282 Z-1.065 R0.375
X-8.282 Y104.247 Z-1.086 R0.375
X-8.247 Y103.718 Z-1.106 R0.375
X-7.718 Y103.753 Z-1.127 R0.375
X-7.753 Y104.282 Z-1.147 R0.375
X-8.282 Y104.247 Z-1.168 R0.375
X-8.247 Y103.718 Z-1.188 R0.375
X-7.718 Y103.753 Z-1.209 R0.375
X-7.753 Y104.282 Z-1.229 R0.375
X-8.282 Y104.247 Z-1.25 R0.375
X-8.247 Y103.718 Z-1.271 R0.375
X-7.718 Y103.753 Z-1.291 R0.375
X-7.753 Y104.282 Z-1.312 R0.375
X-8.282 Y104.247 Z-1.332 R0.375
X-8.247 Y103.718 Z-1.353 R0.375
X-7.718 Y103.753 Z-1.373 R0.375
X-7.753 Y104.282 Z-1.394 R0.375
X-8.282 Y104.247 Z-1.415 R0.375
X-8.247 Y103.718 Z-1.435 R0.375
X-7.718 Y103.753 Z-1.456 R0.375
X-7.753 Y104.282 Z-1.476 R0.375
X-8.282 Y104.247 Z-1.497 R0.375
X-8.247 Y103.718 Z-1.517 R0.375
X-7.718 Y103.753 Z-1.538 R0.375
X-7.753 Y104.282 Z-1.559 R0.375
X-8.282 Y104.247 Z-1.579 R0.375
X-8.247 Y103.718 Z-1.6 R0.375
X-7.718 Y103.753 Z-1.62 R0.375
X-7.753 Y104.282 Z-1.641 R0.375
X-8.282 Y104.247 Z-1.661 R0.375
X-8.247 Y103.718 Z-1.682 R0.375
X-7.718 Y103.753 Z-1.703 R0.375
X-7.753 Y104.282 Z-1.723 R0.375
X-8.282 Y104.247 Z-1.744 R0.375
X-8.247 Y103.718 Z-1.764 R0.375
X-7.718 Y103.753 Z-1.785 R0.375
X-7.753 Y104.282 Z-1.805 R0.375
X-8.282 Y104.247 Z-1.826 R0.375
X-8.247 Y103.718 Z-1.847 R0.375
X-7.718 Y103.753 Z-1.867 R0.375
X-7.753 Y104.282 Z-1.888 R0.375
X-8.282 Y104.247 Z-1.908 R0.375
X-8.247 Y103.718 Z-1.929 R0.375
X-7.718 Y103.753 Z-1.949 R0.375
X-7.753 Y104.282 Z-1.97 R0.375
X-8.282 Y104.247 Z-1.991 R0.375
X-8.375 Y104. Z-2. R0.375
X-8. Y103.625 R0.375 F796.8
X-7.625 Y104. R0.375
X-8. Y104.375 R0.375
X-8.375 Y104. R0.375
X-7.844 Y103.469 R0.531
X-7.313 Y104. R0.531
X-8. Y104.688 R0.688
X-8.688 Y104. R0.688
X-8. Y103.313 R0.688
X-7.313 Y104. R0.688
X-7.625 Y104.313 R0.313 F400.
G1 X-7.938
G18 G3 X-8.25 Z-1.688 R0.313
G0 Z3.
X-7.982 Y118.625
G1 Z2.312 F333.33
X-7.979 Y118.626 Z2.268 F600.
X-7.97 Z2.224
X-7.954 Y118.628 Z2.183
X-7.933 Y118.631 Z2.144
X-7.907 Y118.637 Z2.108
X-7.877 Y118.646 Z2.077
X-7.844 Y118.659 Z2.05
X-7.81 Y118.677 Z2.028
X-7.775 Y118.7 Z2.013
X-7.745 Y118.725 Z2.004
X-7.718 Y118.753 Z2.
G17 G3 X-7.753 Y119.282 Z1.979 R0.375
X-8.282 Y119.247 Z1.959 R0.375
X-8.247 Y118.718 Z1.938 R0.375
X-7.718 Y118.753 Z1.918 R0.375
X-7.753 Y119.282 Z1.897 R0.375
X-8.282 Y119.247 Z1.877 R0.375
X-8.247 Y118.718 Z1.856 R0.375
X-7.718 Y118.753 Z1.835 R0.375
X-7.753 Y119.282 Z1.815 R0.375
X-8.282 Y119.247 Z1.794 R0.375
X-8.247 Y118.718 Z1.774 R0.375
X-7.718 Y118.753 Z1.753 R0.375
X-7.753 Y119.282 Z1.733 R0.375
X-8.282 Y119.247 Z1.712 R0.375
X-8.247 Y118.718 Z1.691 R0.375
X-7.718 Y118.753 Z1.671 R0.375
X-7.753 Y119.282 Z1.65 R0.375
X-8.282 Y119.247 Z1.63 R0.375
X-8.247 Y118.718 Z1.609 R0.375
X-7.718 Y118.753 Z1.589 R0.375
X-7.753 Y119.282 Z1.568 R0.375
X-8.282 Y119.247 Z1.547 R0.375
X-8.247 Y118.718 Z1.527 R0.375
X-7.718 Y118.753 Z1.506 R0.375
X-7.753 Y119.282 Z1.486 R0.375
X-8.282 Y119.247 Z1.465 R0.375
X-8.247 Y118.718 Z1.445 R0.375
X-7.718 Y118.753 Z1.424 R0.375
X-7.753 Y119.282 Z1.403 R0.375
X-8.282 Y119.247 Z1.383 R0.375
X-8.247 Y118.718 Z1.362 R0.375
X-7.718 Y118.753 Z1.342 R0.375
X-7.753 Y119.282 Z1.321 R0.375
X-8.282 Y119.247 Z1.301 R0.375
X-8.247 Y118.718 Z1.28 R0.375
X-7.718 Y118.753 Z1.259 R0.375
X-7.753 Y119.282 Z1.239 R0.375
X-8.282 Y119.247 Z1.218 R0.375
X-8.247 Y118.718 Z1.198 R0.375
X-7.718 Y118.753 Z1.177 R0.375
X-7.753 Y119.282 Z1.157 R0.375
X-8.282 Y119.247 Z1.136 R0.375
X-8.247 Y118.718 Z1.115 R0.375
X-7.718 Y118.753 Z1.095 R0.375
X-7.753 Y119.282 Z1.074 R0.375
X-8.282 Y119.247 Z1.054 R0.375
X-8.247 Y118.718 Z1.033 R0.375
X-7.718 Y118.753 Z1.013 R0.375
X-7.753 Y119.282 Z0.992 R0.375
X-8.282 Y119.247 Z0.971 R0.375
X-8.247 Y118.718 Z0.951 R0.375
X-7.718 Y118.753 Z0.93 R0.375
X-7.753 Y119.282 Z0.91 R0.375
X-8.282 Y119.247 Z0.889 R0.375
X-8.247 Y118.718 Z0.869 R0.375
X-7.718 Y118.753 Z0.848 R0.375
X-7.753 Y119.282 Z0.828 R0.375
X-8.282 Y119.247 Z0.807 R0.375
X-8.247 Y118.718 Z0.786 R0.375
X-7.718 Y118.753 Z0.766 R0.375
X-7.753 Y119.282 Z0.745 R0.375
X-8.282 Y119.247 Z0.725 R0.375
X-8.247 Y118.718 Z0.704 R0.375
X-7.718 Y118.753 Z0.684 R0.375
X-7.753 Y119.282 Z0.663 R0.375
X-8.282 Y119.247 Z0.642 R0.375
X-8.247 Y118.718 Z0.622 R0.375
X-7.718 Y118.753 Z0.601 R0.375
X-7.753 Y119.282 Z0.581 R0.375
X-8.282 Y119.247 Z0.56 R0.375
X-8.247 Y118.718 Z0.54 R0.375
X-7.718 Y118.753 Z0.519 R0.375
X-7.753 Y119.282 Z0.498 R0.375
X-8.282 Y119.247 Z0.478 R0.375
X-8.247 Y118.718 Z0.457 R0.375
X-7.718 Y118.753 Z0.437 R0.375
X-7.753 Y119.282 Z0.416 R0.375
X-8.282 Y119.247 Z0.396 R0.375
X-8.247 Y118.718 Z0.375 R0.375
X-7.718 Y118.753 Z0.354 R0.375
X-7.753 Y119.282 Z0.334 R0.375
X-8.282 Y119.247 Z0.313 R0.375
X-8.247 Y118.718 Z0.293 R0.375
X-7.718 Y118.753 Z0.272 R0.375
X-7.753 Y119.282 Z0.252 R0.375
X-8.282 Y119.247 Z0.231 R0.375
X-8.247 Y118.718 Z0.21 R0.375
X-7.718 Y118.753 Z0.19 R0.375
X-7.753 Y119.282 Z0.169 R0.375
X-8.282 Y119.247 Z0.149 R0.375
X-8.247 Y118.718 Z0.128 R0.375
X-7.718 Y118.753 Z0.108 R0.375
X-7.753 Y119.282 Z0.087 R0.375
X-8.282 Y119.247 Z0.066 R0.375
X-8.247 Y118.718 Z0.046 R0.375
X-7.718 Y118.753 Z0.025 R0.375
X-7.753 Y119.282 Z0.005 R0.375
X-8.282 Y119.247 Z-0.016 R0.375
X-8.247 Y118.718 Z-0.036 R0.375
X-7.718 Y118.753 Z-0.057 R0.375
X-7.753 Y119.282 Z-0.078 R0.375
X-8.282 Y119.247 Z-0.098 R0.375
X-8.247 Y118.718 Z-0.119 R0.375
X-7.718 Y118.753 Z-0.139 R0.375
X-7.753 Y119.282 Z-0.16 R0.375
X-8.282 Y119.247 Z-0.18 R0.375
X-8.247 Y118.718 Z-0.201 R0.375
X-7.718 Y118.753 Z-0.222 R0.375
X-7.753 Y119.282 Z-0.242 R0.375
X-8.282 Y119.247 Z-0.263 R0.375
X-8.247 Y118.718 Z-0.283 R0.375
X-7.718 Y118.753 Z-0.304 R0.375
X-7.753 Y119.282 Z-0.324 R0.375
X-8.282 Y119.247 Z-0.345 R0.375
X-8.247 Y118.718 Z-0.366 R0.375
X-7.718 Y118.753 Z-0.386 R0.375
X-7.753 Y119.282 Z-0.407 R0.375
X-8.282 Y119.247 Z-0.427 R0.375
X-8.247 Y118.718 Z-0.448 R0.375
X-7.718 Y118.753 Z-0.468 R0.375
X-7.753 Y119.282 Z-0.489 R0.375
X-8.282 Y119.247 Z-0.51 R0.375
X-8.247 Y118.718 Z-0.53 R0.375
X-7.718 Y118.753 Z-0.551 R0.375
X-7.753 Y119.282 Z-0.571 R0.375
X-8.282 Y119.247 Z-0.592 R0.375
X-8.247 Y118.718 Z-0.612 R0.375
X-7.718 Y118.753 Z-0.633 R0.375
X-7.753 Y119.282 Z-0.654 R0.375
X-8.282 Y119.247 Z-0.674 R0.375
X-8.247 Y118.718 Z-0.695 R0.375
X-7.718 Y118.753 Z-0.715 R0.375
X-7.753 Y119.282 Z-0.736 R0.375
X-8.282 Y119.247 Z-0.756 R0.375
X-8.247 Y118.718 Z-0.777 R0.375
X-7.718 Y118.753 Z-0.798 R0.375
X-7.753 Y119.282 Z-0.818 R0.375
X-8.282 Y119.247 Z-0.839 R0.375
X-8.247 Y118.718 Z-0.859 R0.375
X-7.718 Y118.753 Z-0.88 R0.375
X-7.753 Y119.282 Z-0.9 R0.375
X-8.282 Y119.247 Z-0.921 R0.375
X-8.247 Y118.718 Z-0.942 R0.375
X-7.718 Y118.753 Z-0.962 R0.375
X-7.753 Y119.282 Z-0.983 R0.375
X-8.282 Y119.247 Z-1.003 R0.375
X-8.247 Y118.718 Z-1.024 R0.375
X-7.718 Y118.753 Z-1.044 R0.375
X-7.753 Y119.282 Z-1.065 R0.375
X-8.282 Y119.247 Z-1.086 R0.375
X-8.247 Y118.718 Z-1.106 R0.375
X-7.718 Y118.753 Z-1.127 R0.375
X-7.753 Y119.282 Z-1.147 R0.375
X-8.282 Y119.247 Z-1.168 R0.375
X-8.247 Y118.718 Z-1.188 R0.375
X-7.718 Y118.753 Z-1.209 R0.375
X-7.753 Y119.282 Z-1.229 R0.375
X-8.282 Y119.247 Z-1.25 R0.375
X-8.247 Y118.718 Z-1.271 R0.375
X-7.718 Y118.753 Z-1.291 R0.375
X-7.753 Y119.282 Z-1.312 R0.375
X-8.282 Y119.247 Z-1.332 R0.375
X-8.247 Y118.718 Z-1.353 R0.375
X-7.718 Y118.753 Z-1.373 R0.375
X-7.753 Y119.282 Z-1.394 R0.375
X-8.282 Y119.247 Z-1.415 R0.375
X-8.247 Y118.718 Z-1.435 R0.375
X-7.718 Y118.753 Z-1.456 R0.375
X-7.753 Y119.282 Z-1.476 R0.375
X-8.282 Y119.247 Z-1.497 R0.375
X-8.247 Y118.718 Z-1.517 R0.375
X-7.718 Y118.753 Z-1.538 R0.375
X-7.753 Y119.282 Z-1.559 R0.375
X-8.282 Y119.247 Z-1.579 R0.375
X-8.247 Y118.718 Z-1.6 R0.375
X-7.718 Y118.753 Z-1.62 R0.375
X-7.753 Y119.282 Z-1.641 R0.375
X-8.282 Y119.247 Z-1.661 R0.375
X-8.247 Y118.718 Z-1.682 R0.375
X-7.718 Y118.753 Z-1.703 R0.375
X-7.753 Y119.282 Z-1.723 R0.375
X-8.282 Y119.247 Z-1.744 R0.375
X-8.247 Y118.718 Z-1.764 R0.375
X-7.718 Y118.753 Z-1.785 R0.375
X-7.753 Y119.282 Z-1.805 R0.375
X-8.282 Y119.247 Z-1.826 R0.375
X-8.247 Y118.718 Z-1.847 R0.375
X-7.718 Y118.753 Z-1.867 R0.375
X-7.753 Y119.282 Z-1.888 R0.375
X-8.282 Y119.247 Z-1.908 R0.375
X-8.247 Y118.718 Z-1.929 R0.375
X-7.718 Y118.753 Z-1.949 R0.375
X-7.753 Y119.282 Z-1.97 R0.375
X-8.282 Y119.247 Z-1.991 R0.375
X-8.375 Y119. Z-2. R0.375
X-8. Y118.625 R0.375 F796.8
X-7.625 Y119. R0.375
X-8. Y119.375 R0.375
X-8.375 Y119. R0.375
X-7.844 Y118.469 R0.531
X-7.313 Y119. R0.531
X-8. Y119.688 R0.688
X-8.688 Y119. R0.688
X-8. Y118.313 R0.688
X-7.313 Y119. R0.688
X-7.625 Y119.313 R0.313 F400.
G1 X-7.938
G18 G3 X-8.25 Z-1.688 R0.313
G0 Z13.
G17
(2D CONTOUR3 2)
G0 Z16.
X6.625 Y97.438
Z4.313
G1 Z2. F333.33
Z1.312
G18 G3 X3.313 Z-2. R3.313
G1 X0. F400.
X-13. F796.8
G17 G2 X-17.563 Y102. R4.563
G1 Y121.
G2 X-13. Y125.563 R4.563
G1 X0.
X3.313 F400.
G18 G2 X6.625 Z1.312 R3.313
G0 Z16.
G17
(2D CONTOUR2 2)
G0 X-7.982 Y136.625
Z13.
Z3.
G1 Z2.312 F333.33
X-7.979 Y136.626 Z2.268 F600.
X-7.97 Z2.224
X-7.954 Y136.628 Z2.183
X-7.933 Y136.631 Z2.144
X-7.907 Y136.637 Z2.108
X-7.877 Y136.646 Z2.077
X-7.844 Y136.659 Z2.05
X-7.81 Y136.677 Z2.028
X-7.775 Y136.7 Z2.013
X-7.745 Y136.725 Z2.004
X-7.718 Y136.753 Z2.
G3 X-7.753 Y137.282 Z1.979 R0.375
X-8.282 Y137.247 Z1.959 R0.375
X-8.247 Y136.718 Z1.938 R0.375
X-7.718 Y136.753 Z1.918 R0.375
X-7.753 Y137.282 Z1.897 R0.375
X-8.282 Y137.247 Z1.877 R0.375
X-8.247 Y136.718 Z1.856 R0.375
X-7.718 Y136.753 Z1.835 R0.375
X-7.753 Y137.282 Z1.815 R0.375
X-8.282 Y137.247 Z1.794 R0.375
X-8.247 Y136.718 Z1.774 R0.375
X-7.718 Y136.753 Z1.753 R0.375
X-7.753 Y137.282 Z1.733 R0.375
X-8.282 Y137.247 Z1.712 R0.375
X-8.247 Y136.718 Z1.691 R0.375
X-7.718 Y136.753 Z1.671 R0.375
X-7.753 Y137.282 Z1.65 R0.375
X-8.282 Y137.247 Z1.63 R0.375
X-8.247 Y136.718 Z1.609 R0.375
X-7.718 Y136.753 Z1.589 R0.375
X-7.753 Y137.282 Z1.568 R0.375
X-8.282 Y137.247 Z1.547 R0.375
X-8.247 Y136.718 Z1.527 R0.375
X-7.718 Y136.753 Z1.506 R0.375
X-7.753 Y137.282 Z1.486 R0.375
X-8.282 Y137.247 Z1.465 R0.375
X-8.247 Y136.718 Z1.445 R0.375
X-7.718 Y136.753 Z1.424 R0.375
X-7.753 Y137.282 Z1.403 R0.375
X-8.282 Y137.247 Z1.383 R0.375
X-8.247 Y136.718 Z1.362 R0.375
X-7.718 Y136.753 Z1.342 R0.375
X-7.753 Y137.282 Z1.321 R0.375
X-8.282 Y137.247 Z1.301 R0.375
X-8.247 Y136.718 Z1.28 R0.375
X-7.718 Y136.753 Z1.259 R0.375
X-7.753 Y137.282 Z1.239 R0.375
X-8.282 Y137.247 Z1.218 R0.375
X-8.247 Y136.718 Z1.198 R0.375
X-7.718 Y136.753 Z1.177 R0.375
X-7.753 Y137.282 Z1.157 R0.375
X-8.282 Y137.247 Z1.136 R0.375
X-8.247 Y136.718 Z1.115 R0.375
X-7.718 Y136.753 Z1.095 R0.375
X-7.753 Y137.282 Z1.074 R0.375
X-8.282 Y137.247 Z1.054 R0.375
X-8.247 Y136.718 Z1.033 R0.375
X-7.718 Y136.753 Z1.013 R0.375
X-7.753 Y137.282 Z0.992 R0.375
X-8.282 Y137.247 Z0.971 R0.375
X-8.247 Y136.718 Z0.951 R0.375
X-7.718 Y136.753 Z0.93 R0.375
X-7.753 Y137.282 Z0.91 R0.375
X-8.282 Y137.247 Z0.889 R0.375
X-8.247 Y136.718 Z0.869 R0.375
X-7.718 Y136.753 Z0.848 R0.375
X-7.753 Y137.282 Z0.828 R0.375
X-8.282 Y137.247 Z0.807 R0.375
X-8.247 Y136.718 Z0.786 R0.375
X-7.718 Y136.753 Z0.766 R0.375
X-7.753 Y137.282 Z0.745 R0.375
X-8.282 Y137.247 Z0.725 R0.375
X-8.247 Y136.718 Z0.704 R0.375
X-7.718 Y136.753 Z0.684 R0.375
X-7.753 Y137.282 Z0.663 R0.375
X-8.282 Y137.247 Z0.642 R0.375
X-8.247 Y136.718 Z0.622 R0.375
X-7.718 Y136.753 Z0.601 R0.375
X-7.753 Y137.282 Z0.581 R0.375
X-8.282 Y137.247 Z0.56 R0.375
X-8.247 Y136.718 Z0.54 R0.375
X-7.718 Y136.753 Z0.519 R0.375
X-7.753 Y137.282 Z0.498 R0.375
X-8.282 Y137.247 Z0.478 R0.375
X-8.247 Y136.718 Z0.457 R0.375
X-7.718 Y136.753 Z0.437 R0.375
X-7.753 Y137.282 Z0.416 R0.375
X-8.282 Y137.247 Z0.396 R0.375
X-8.247 Y136.718 Z0.375 R0.375
X-7.718 Y136.753 Z0.354 R0.375
X-7.753 Y137.282 Z0.334 R0.375
X-8.282 Y137.247 Z0.313 R0.375
X-8.247 Y136.718 Z0.293 R0.375
X-7.718 Y136.753 Z0.272 R0.375
X-7.753 Y137.282 Z0.252 R0.375
X-8.282 Y137.247 Z0.231 R0.375
X-8.247 Y136.718 Z0.21 R0.375
X-7.718 Y136.753 Z0.19 R0.375
X-7.753 Y137.282 Z0.169 R0.375
X-8.282 Y137.247 Z0.149 R0.375
X-8.247 Y136.718 Z0.128 R0.375
X-7.718 Y136.753 Z0.108 R0.375
X-7.753 Y137.282 Z0.087 R0.375
X-8.282 Y137.247 Z0.066 R0.375
X-8.247 Y136.718 Z0.046 R0.375
X-7.718 Y136.753 Z0.025 R0.375
X-7.753 Y137.282 Z0.005 R0.375
X-8.282 Y137.247 Z-0.016 R0.375
X-8.247 Y136.718 Z-0.036 R0.375
X-7.718 Y136.753 Z-0.057 R0.375
X-7.753 Y137.282 Z-0.078 R0.375
X-8.282 Y137.247 Z-0.098 R0.375
X-8.247 Y136.718 Z-0.119 R0.375
X-7.718 Y136.753 Z-0.139 R0.375
X-7.753 Y137.282 Z-0.16 R0.375
X-8.282 Y137.247 Z-0.18 R0.375
X-8.247 Y136.718 Z-0.201 R0.375
X-7.718 Y136.753 Z-0.222 R0.375
X-7.753 Y137.282 Z-0.242 R0.375
X-8.282 Y137.247 Z-0.263 R0.375
X-8.247 Y136.718 Z-0.283 R0.375
X-7.718 Y136.753 Z-0.304 R0.375
X-7.753 Y137.282 Z-0.324 R0.375
X-8.282 Y137.247 Z-0.345 R0.375
X-8.247 Y136.718 Z-0.366 R0.375
X-7.718 Y136.753 Z-0.386 R0.375
X-7.753 Y137.282 Z-0.407 R0.375
X-8.282 Y137.247 Z-0.427 R0.375
X-8.247 Y136.718 Z-0.448 R0.375
X-7.718 Y136.753 Z-0.468 R0.375
X-7.753 Y137.282 Z-0.489 R0.375
X-8.282 Y137.247 Z-0.51 R0.375
X-8.247 Y136.718 Z-0.53 R0.375
X-7.718 Y136.753 Z-0.551 R0.375
X-7.753 Y137.282 Z-0.571 R0.375
X-8.282 Y137.247 Z-0.592 R0.375
X-8.247 Y136.718 Z-0.612 R0.375
X-7.718 Y136.753 Z-0.633 R0.375
X-7.753 Y137.282 Z-0.654 R0.375
X-8.282 Y137.247 Z-0.674 R0.375
X-8.247 Y136.718 Z-0.695 R0.375
X-7.718 Y136.753 Z-0.715 R0.375
X-7.753 Y137.282 Z-0.736 R0.375
X-8.282 Y137.247 Z-0.756 R0.375
X-8.247 Y136.718 Z-0.777 R0.375
X-7.718 Y136.753 Z-0.798 R0.375
X-7.753 Y137.282 Z-0.818 R0.375
X-8.282 Y137.247 Z-0.839 R0.375
X-8.247 Y136.718 Z-0.859 R0.375
X-7.718 Y136.753 Z-0.88 R0.375
X-7.753 Y137.282 Z-0.9 R0.375
X-8.282 Y137.247 Z-0.921 R0.375
X-8.247 Y136.718 Z-0.942 R0.375
X-7.718 Y136.753 Z-0.962 R0.375
X-7.753 Y137.282 Z-0.983 R0.375
X-8.282 Y137.247 Z-1.003 R0.375
X-8.247 Y136.718 Z-1.024 R0.375
X-7.718 Y136.753 Z-1.044 R0.375
X-7.753 Y137.282 Z-1.065 R0.375
X-8.282 Y137.247 Z-1.086 R0.375
X-8.247 Y136.718 Z-1.106 R0.375
X-7.718 Y136.753 Z-1.127 R0.375
X-7.753 Y137.282 Z-1.147 R0.375
X-8.282 Y137.247 Z-1.168 R0.375
X-8.247 Y136.718 Z-1.188 R0.375
X-7.718 Y136.753 Z-1.209 R0.375
X-7.753 Y137.282 Z-1.229 R0.375
X-8.282 Y137.247 Z-1.25 R0.375
X-8.247 Y136.718 Z-1.271 R0.375
X-7.718 Y136.753 Z-1.291 R0.375
X-7.753 Y137.282 Z-1.312 R0.375
X-8.282 Y137.247 Z-1.332 R0.375
X-8.247 Y136.718 Z-1.353 R0.375
X-7.718 Y136.753 Z-1.373 R0.375
X-7.753 Y137.282 Z-1.394 R0.375
X-8.282 Y137.247 Z-1.415 R0.375
X-8.247 Y136.718 Z-1.435 R0.375
X-7.718 Y136.753 Z-1.456 R0.375
X-7.753 Y137.282 Z-1.476 R0.375
X-8.282 Y137.247 Z-1.497 R0.375
X-8.247 Y136.718 Z-1.517 R0.375
X-7.718 Y136.753 Z-1.538 R0.375
X-7.753 Y137.282 Z-1.559 R0.375
X-8.282 Y137.247 Z-1.579 R0.375
X-8.247 Y136.718 Z-1.6 R0.375
X-7.718 Y136.753 Z-1.62 R0.375
X-7.753 Y137.282 Z-1.641 R0.375
X-8.282 Y137.247 Z-1.661 R0.375
X-8.247 Y136.718 Z-1.682 R0.375
X-7.718 Y136.753 Z-1.703 R0.375
X-7.753 Y137.282 Z-1.723 R0.375
X-8.282 Y137.247 Z-1.744 R0.375
X-8.247 Y136.718 Z-1.764 R0.375
X-7.718 Y136.753 Z-1.785 R0.375
X-7.753 Y137.282 Z-1.805 R0.375
X-8.282 Y137.247 Z-1.826 R0.375
X-8.247 Y136.718 Z-1.847 R0.375
X-7.718 Y136.753 Z-1.867 R0.375
X-7.753 Y137.282 Z-1.888 R0.375
X-8.282 Y137.247 Z-1.908 R0.375
X-8.247 Y136.718 Z-1.929 R0.375
X-7.718 Y136.753 Z-1.949 R0.375
X-7.753 Y137.282 Z-1.97 R0.375
X-8.282 Y137.247 Z-1.991 R0.375
X-8.375 Y137. Z-2. R0.375
X-8. Y136.625 R0.375 F796.8
X-7.625 Y137. R0.375
X-8. Y137.375 R0.375
X-8.375 Y137. R0.375
X-7.844 Y136.469 R0.531
X-7.313 Y137. R0.531
X-8. Y137.688 R0.688
X-8.688 Y137. R0.688
X-8. Y136.313 R0.688
X-7.313 Y137. R0.688
X-7.625 Y137.313 R0.313 F400.
G1 X-7.938
G18 G3 X-8.25 Z-1.688 R0.313
G0 Z3.
X-7.982 Y151.625
G1 Z2.312 F333.33
X-7.979 Y151.626 Z2.268 F600.
X-7.97 Z2.224
X-7.954 Y151.628 Z2.183
X-7.933 Y151.631 Z2.144
X-7.907 Y151.637 Z2.108
X-7.877 Y151.646 Z2.077
X-7.844 Y151.659 Z2.05
X-7.81 Y151.677 Z2.028
X-7.775 Y151.7 Z2.013
X-7.745 Y151.725 Z2.004
X-7.718 Y151.753 Z2.
G17 G3 X-7.753 Y152.282 Z1.979 R0.375
X-8.282 Y152.247 Z1.959 R0.375
X-8.247 Y151.718 Z1.938 R0.375
X-7.718 Y151.753 Z1.918 R0.375
X-7.753 Y152.282 Z1.897 R0.375
X-8.282 Y152.247 Z1.877 R0.375
X-8.247 Y151.718 Z1.856 R0.375
X-7.718 Y151.753 Z1.835 R0.375
X-7.753 Y152.282 Z1.815 R0.375
X-8.282 Y152.247 Z1.794 R0.375
X-8.247 Y151.718 Z1.774 R0.375
X-7.718 Y151.753 Z1.753 R0.375
X-7.753 Y152.282 Z1.733 R0.375
X-8.282 Y152.247 Z1.712 R0.375
X-8.247 Y151.718 Z1.691 R0.375
X-7.718 Y151.753 Z1.671 R0.375
X-7.753 Y152.282 Z1.65 R0.375
X-8.282 Y152.247 Z1.63 R0.375
X-8.247 Y151.718 Z1.609 R0.375
X-7.718 Y151.753 Z1.589 R0.375
X-7.753 Y152.282 Z1.568 R0.375
X-8.282 Y152.247 Z1.547 R0.375
X-8.247 Y151.718 Z1.527 R0.375
X-7.718 Y151.753 Z1.506 R0.375
X-7.753 Y152.282 Z1.486 R0.375
X-8.282 Y152.247 Z1.465 R0.375
X-8.247 Y151.718 Z1.445 R0.375
X-7.718 Y151.753 Z1.424 R0.375
X-7.753 Y152.282 Z1.403 R0.375
X-8.282 Y152.247 Z1.383 R0.375
X-8.247 Y151.718 Z1.362 R0.375
X-7.718 Y151.753 Z1.342 R0.375
X-7.753 Y152.282 Z1.321 R0.375
X-8.282 Y152.247 Z1.301 R0.375
X-8.247 Y151.718 Z1.28 R0.375
X-7.718 Y151.753 Z1.259 R0.375
X-7.753 Y152.282 Z1.239 R0.375
X-8.282 Y152.247 Z1.218 R0.375
X-8.247 Y151.718 Z1.198 R0.375
X-7.718 Y151.753 Z1.177 R0.375
X-7.753 Y152.282 Z1.157 R0.375
X-8.282 Y152.247 Z1.136 R0.375
X-8.247 Y151.718 Z1.115 R0.375
X-7.718 Y151.753 Z1.095 R0.375
X-7.753 Y152.282 Z1.074 R0.375
X-8.282 Y152.247 Z1.054 R0.375
X-8.247 Y151.718 Z1.033 R0.375
X-7.718 Y151.753 Z1.013 R0.375
X-7.753 Y152.282 Z0.992 R0.375
X-8.282 Y152.247 Z0.971 R0.375
X-8.247 Y151.718 Z0.951 R0.375
X-7.718 Y151.753 Z0.93 R0.375
X-7.753 Y152.282 Z0.91 R0.375
X-8.282 Y152.247 Z0.889 R0.375
X-8.247 Y151.718 Z0.869 R0.375
X-7.718 Y151.753 Z0.848 R0.375
X-7.753 Y152.282 Z0.828 R0.375
X-8.282 Y152.247 Z0.807 R0.375
X-8.247 Y151.718 Z0.786 R0.375
X-7.718 Y151.753 Z0.766 R0.375
X-7.753 Y152.282 Z0.745 R0.375
X-8.282 Y152.247 Z0.725 R0.375
X-8.247 Y151.718 Z0.704 R0.375
X-7.718 Y151.753 Z0.684 R0.375
X-7.753 Y152.282 Z0.663 R0.375
X-8.282 Y152.247 Z0.642 R0.375
X-8.247 Y151.718 Z0.622 R0.375
X-7.718 Y151.753 Z0.601 R0.375
X-7.753 Y152.282 Z0.581 R0.375
X-8.282 Y152.247 Z0.56 R0.375
X-8.247 Y151.718 Z0.54 R0.375
X-7.718 Y151.753 Z0.519 R0.375
X-7.753 Y152.282 Z0.498 R0.375
X-8.282 Y152.247 Z0.478 R0.375
X-8.247 Y151.718 Z0.457 R0.375
X-7.718 Y151.753 Z0.437 R0.375
X-7.753 Y152.282 Z0.416 R0.375
X-8.282 Y152.247 Z0.396 R0.375
X-8.247 Y151.718 Z0.375 R0.375
X-7.718 Y151.753 Z0.354 R0.375
X-7.753 Y152.282 Z0.334 R0.375
X-8.282 Y152.247 Z0.313 R0.375
X-8.247 Y151.718 Z0.293 R0.375
X-7.718 Y151.753 Z0.272 R0.375
X-7.753 Y152.282 Z0.252 R0.375
X-8.282 Y152.247 Z0.231 R0.375
X-8.247 Y151.718 Z0.21 R0.375
X-7.718 Y151.753 Z0.19 R0.375
X-7.753 Y152.282 Z0.169 R0.375
X-8.282 Y152.247 Z0.149 R0.375
X-8.247 Y151.718 Z0.128 R0.375
X-7.718 Y151.753 Z0.108 R0.375
X-7.753 Y152.282 Z0.087 R0.375
X-8.282 Y152.247 Z0.066 R0.375
X-8.247 Y151.718 Z0.046 R0.375
X-7.718 Y151.753 Z0.025 R0.375
X-7.753 Y152.282 Z0.005 R0.375
X-8.282 Y152.247 Z-0.016 R0.375
X-8.247 Y151.718 Z-0.036 R0.375
X-7.718 Y151.753 Z-0.057 R0.375
X-7.753 Y152.282 Z-0.078 R0.375
X-8.282 Y152.247 Z-0.098 R0.375
X-8.247 Y151.718 Z-0.119 R0.375
X-7.718 Y151.753 Z-0.139 R0.375
X-7.753 Y152.282 Z-0.16 R0.375
X-8.282 Y152.247 Z-0.18 R0.375
X-8.247 Y151.718 Z-0.201 R0.375
X-7.718 Y151.753 Z-0.222 R0.375
X-7.753 Y152.282 Z-0.242 R0.375
X-8.282 Y152.247 Z-0.263 R0.375
X-8.247 Y151.718 Z-0.283 R0.375
X-7.718 Y151.753 Z-0.304 R0.375
X-7.753 Y152.282 Z-0.324 R0.375
X-8.282 Y152.247 Z-0.345 R0.375
X-8.247 Y151.718 Z-0.366 R0.375
X-7.718 Y151.753 Z-0.386 R0.375
X-7.753 Y152.282 Z-0.407 R0.375
X-8.282 Y152.247 Z-0.427 R0.375
X-8.247 Y151.718 Z-0.448 R0.375
X-7.718 Y151.753 Z-0.468 R0.375
X-7.753 Y152.282 Z-0.489 R0.375
X-8.282 Y152.247 Z-0.51 R0.375
X-8.247 Y151.718 Z-0.53 R0.375
X-7.718 Y151.753 Z-0.551 R0.375
X-7.753 Y152.282 Z-0.571 R0.375
X-8.282 Y152.247 Z-0.592 R0.375
X-8.247 Y151.718 Z-0.612 R0.375
X-7.718 Y151.753 Z-0.633 R0.375
X-7.753 Y152.282 Z-0.654 R0.375
X-8.282 Y152.247 Z-0.674 R0.375
X-8.247 Y151.718 Z-0.695 R0.375
X-7.718 Y151.753 Z-0.715 R0.375
X-7.753 Y152.282 Z-0.736 R0.375
X-8.282 Y152.247 Z-0.756 R0.375
X-8.247 Y151.718 Z-0.777 R0.375
X-7.718 Y151.753 Z-0.798 R0.375
X-7.753 Y152.282 Z-0.818 R0.375
X-8.282 Y152.247 Z-0.839 R0.375
X-8.247 Y151.718 Z-0.859 R0.375
X-7.718 Y151.753 Z-0.88 R0.375
X-7.753 Y152.282 Z-0.9 R0.375
X-8.282 Y152.247 Z-0.921 R0.375
X-8.247 Y151.718 Z-0.942 R0.375
X-7.718 Y151.753 Z-0.962 R0.375
X-7.753 Y152.282 Z-0.983 R0.375
X-8.282 Y152.247 Z-1.003 R0.375
X-8.247 Y151.718 Z-1.024 R0.375
X-7.718 Y151.753 Z-1.044 R0.375
X-7.753 Y152.282 Z-1.065 R0.375
X-8.282 Y152.247 Z-1.086 R0.375
X-8.247 Y151.718 Z-1.106 R0.375
X-7.718 Y151.753 Z-1.127 R0.375
X-7.753 Y152.282 Z-1.147 R0.375
X-8.282 Y152.247 Z-1.168 R0.375
X-8.247 Y151.718 Z-1.188 R0.375
X-7.718 Y151.753 Z-1.209 R0.375
X-7.753 Y152.282 Z-1.229 R0.375
X-8.282 Y152.247 Z-1.25 R0.375
X-8.247 Y151.718 Z-1.271 R0.375
X-7.718 Y151.753 Z-1.291 R0.375
X-7.753 Y152.282 Z-1.312 R0.375
X-8.282 Y152.247 Z-1.332 R0.375
X-8.247 Y151.718 Z-1.353 R0.375
X-7.718 Y151.753 Z-1.373 R0.375
X-7.753 Y152.282 Z-1.394 R0.375
X-8.282 Y152.247 Z-1.415 R0.375
X-8.247 Y151.718 Z-1.435 R0.375
X-7.718 Y151.753 Z-1.456 R0.375
X-7.753 Y152.282 Z-1.476 R0.375
X-8.282 Y152.247 Z-1.497 R0.375
X-8.247 Y151.718 Z-1.517 R0.375
X-7.718 Y151.753 Z-1.538 R0.375
X-7.753 Y152.282 Z-1.559 R0.375
X-8.282 Y152.247 Z-1.579 R0.375
X-8.247 Y151.718 Z-1.6 R0.375
X-7.718 Y151.753 Z-1.62 R0.375
X-7.753 Y152.282 Z-1.641 R0.375
X-8.282 Y152.247 Z-1.661 R0.375
X-8.247 Y151.718 Z-1.682 R0.375
X-7.718 Y151.753 Z-1.703 R0.375
X-7.753 Y152.282 Z-1.723 R0.375
X-8.282 Y152.247 Z-1.744 R0.375
X-8.247 Y151.718 Z-1.764 R0.375
X-7.718 Y151.753 Z-1.785 R0.375
X-7.753 Y152.282 Z-1.805 R0.375
X-8.282 Y152.247 Z-1.826 R0.375
X-8.247 Y151.718 Z-1.847 R0.375
X-7.718 Y151.753 Z-1.867 R0.375
X-7.753 Y152.282 Z-1.888 R0.375
X-8.282 Y152.247 Z-1.908 R0.375
X-8.247 Y151.718 Z-1.929 R0.375
X-7.718 Y151.753 Z-1.949 R0.375
X-7.753 Y152.282 Z-1.97 R0.375
X-8.282 Y152.247 Z-1.991 R0.375
X-8.375 Y152. Z-2. R0.375
X-8. Y151.625 R0.375 F796.8
X-7.625 Y152. R0.375
X-8. Y152.375 R0.375
X-8.375 Y152. R0.375
X-7.844 Y151.469 R0.531
X-7.313 Y152. R0.531
X-8. Y152.688 R0.688
X-8.688 Y152. R0.688
X-8. Y151.313 R0.688
X-7.313 Y152. R0.688
X-7.625 Y152.313 R0.313 F400.
G1 X-7.938
G18 G3 X-8.25 Z-1.688 R0.313
G0 Z13.
G17
(2D CONTOUR3 2)
G0 Z16.
X6.625 Y130.438
Z4.313
G1 Z2. F333.33
Z1.312
G18 G3 X3.313 Z-2. R3.313
G1 X0. F400.
X-13. F796.8
G17 G2 X-17.563 Y135. R4.563
G1 Y154.
G2 X-13. Y158.563 R4.563
G1 X0.
X3.313 F400.
G18 G2 X6.625 Z1.312 R3.313
G0 Z16.
G17
(2D CONTOUR2 2)
G0 X-7.982 Y169.625
Z13.
Z3.
G1 Z2.312 F333.33
X-7.979 Y169.626 Z2.268 F600.
X-7.97 Z2.224
X-7.954 Y169.628 Z2.183
X-7.933 Y169.631 Z2.144
X-7.907 Y169.637 Z2.108
X-7.877 Y169.646 Z2.077
X-7.844 Y169.659 Z2.05
X-7.81 Y169.677 Z2.028
X-7.775 Y169.7 Z2.013
X-7.745 Y169.725 Z2.004
X-7.718 Y169.753 Z2.
G3 X-7.753 Y170.282 Z1.979 R0.375
X-8.282 Y170.247 Z1.959 R0.375
X-8.247 Y169.718 Z1.938 R0.375
X-7.718 Y169.753 Z1.918 R0.375
X-7.753 Y170.282 Z1.897 R0.375
X-8.282 Y170.247 Z1.877 R0.375
X-8.247 Y169.718 Z1.856 R0.375
X-7.718 Y169.753 Z1.835 R0.375
X-7.753 Y170.282 Z1.815 R0.375
X-8.282 Y170.247 Z1.794 R0.375
X-8.247 Y169.718 Z1.774 R0.375
X-7.718 Y169.753 Z1.753 R0.375
X-7.753 Y170.282 Z1.733 R0.375
X-8.282 Y170.247 Z1.712 R0.375
X-8.247 Y169.718 Z1.691 R0.375
X-7.718 Y169.753 Z1.671 R0.375
X-7.753 Y170.282 Z1.65 R0.375
X-8.282 Y170.247 Z1.63 R0.375
X-8.247 Y169.718 Z1.609 R0.375
X-7.718 Y169.753 Z1.589 R0.375
X-7.753 Y170.282 Z1.568 R0.375
X-8.282 Y170.247 Z1.547 R0.375
X-8.247 Y169.718 Z1.527 R0.375
X-7.718 Y169.753 Z1.506 R0.375
X-7.753 Y170.282 Z1.486 R0.375
X-8.282 Y170.247 Z1.465 R0.375
X-8.247 Y169.718 Z1.445 R0.375
X-7.718 Y169.753 Z1.424 R0.375
X-7.753 Y170.282 Z1.403 R0.375
X-8.282 Y170.247 Z1.383 R0.375
X-8.247 Y169.718 Z1.362 R0.375
X-7.718 Y169.753 Z1.342 R0.375
X-7.753 Y170.282 Z1.321 R0.375
X-8.282 Y170.247 Z1.301 R0.375
X-8.247 Y169.718 Z1.28 R0.375
X-7.718 Y169.753 Z1.259 R0.375
X-7.753 Y170.282 Z1.239 R0.375
X-8.282 Y170.247 Z1.218 R0.375
X-8.247 Y169.718 Z1.198 R0.375
X-7.718 Y169.753 Z1.177 R0.375
X-7.753 Y170.282 Z1.157 R0.375
X-8.282 Y170.247 Z1.136 R0.375
X-8.247 Y169.718 Z1.115 R0.375
X-7.718 Y169.753 Z1.095 R0.375
X-7.753 Y170.282 Z1.074 R0.375
X-8.282 Y170.247 Z1.054 R0.375
X-8.247 Y169.718 Z1.033 R0.375
X-7.718 Y169.753 Z1.013 R0.375
X-7.753 Y170.282 Z0.992 R0.375
X-8.282 Y170.247 Z0.971 R0.375
X-8.247 Y169.718 Z0.951 R0.375
X-7.718 Y169.753 Z0.93 R0.375
X-7.753 Y170.282 Z0.91 R0.375
X-8.282 Y170.247 Z0.889 R0.375
X-8.247 Y169.718 Z0.869 R0.375
X-7.718 Y169.753 Z0.848 R0.375
X-7.753 Y170.282 Z0.828 R0.375
X-8.282 Y170.247 Z0.807 R0.375
X-8.247 Y169.718 Z0.786 R0.375
X-7.718 Y169.753 Z0.766 R0.375
X-7.753 Y170.282 Z0.745 R0.375
X-8.282 Y170.247 Z0.725 R0.375
X-8.247 Y169.718 Z0.704 R0.375
X-7.718 Y169.753 Z0.684 R0.375
X-7.753 Y170.282 Z0.663 R0.375
X-8.282 Y170.247 Z0.642 R0.375
X-8.247 Y169.718 Z0.622 R0.375
X-7.718 Y169.753 Z0.601 R0.375
X-7.753 Y170.282 Z0.581 R0.375
X-8.282 Y170.247 Z0.56 R0.375
X-8.247 Y169.718 Z0.54 R0.375
X-7.718 Y169.753 Z0.519 R0.375
X-7.753 Y170.282 Z0.498 R0.375
X-8.282 Y170.247 Z0.478 R0.375
X-8.247 Y169.718 Z0.457 R0.375
X-7.718 Y169.753 Z0.437 R0.375
X-7.753 Y170.282 Z0.416 R0.375
X-8.282 Y170.247 Z0.396 R0.375
X-8.247 Y169.718 Z0.375 R0.375
X-7.718 Y169.753 Z0.354 R0.375
X-7.753 Y170.282 Z0.334 R0.375
X-8.282 Y170.247 Z0.313 R0.375
X-8.247 Y169.718 Z0.293 R0.375
X-7.718 Y169.753 Z0.272 R0.375
X-7.753 Y170.282 Z0.252 R0.375
X-8.282 Y170.247 Z0.231 R0.375
X-8.247 Y169.718 Z0.21 R0.375
X-7.718 Y169.753 Z0.19 R0.375
X-7.753 Y170.282 Z0.169 R0.375
X-8.282 Y170.247 Z0.149 R0.375
X-8.247 Y169.718 Z0.128 R0.375
X-7.718 Y169.753 Z0.108 R0.375
X-7.753 Y170.282 Z0.087 R0.375
X-8.282 Y170.247 Z0.066 R0.375
X-8.247 Y169.718 Z0.046 R0.375
X-7.718 Y169.753 Z0.025 R0.375
X-7.753 Y170.282 Z0.005 R0.375
X-8.282 Y170.247 Z-0.016 R0.375
X-8.247 Y169.718 Z-0.036 R0.375
X-7.718 Y169.753 Z-0.057 R0.375
X-7.753 Y170.282 Z-0.078 R0.375
X-8.282 Y170.247 Z-0.098 R0.375
X-8.247 Y169.718 Z-0.119 R0.375
X-7.718 Y169.753 Z-0.139 R0.375
X-7.753 Y170.282 Z-0.16 R0.375
X-8.282 Y170.247 Z-0.18 R0.375
X-8.247 Y169.718 Z-0.201 R0.375
X-7.718 Y169.753 Z-0.222 R0.375
X-7.753 Y170.282 Z-0.242 R0.375
X-8.282 Y170.247 Z-0.263 R0.375
X-8.247 Y169.718 Z-0.283 R0.375
X-7.718 Y169.753 Z-0.304 R0.375
X-7.753 Y170.282 Z-0.324 R0.375
X-8.282 Y170.247 Z-0.345 R0.375
X-8.247 Y169.718 Z-0.366 R0.375
X-7.718 Y169.753 Z-0.386 R0.375
X-7.753 Y170.282 Z-0.407 R0.375
X-8.282 Y170.247 Z-0.427 R0.375
X-8.247 Y169.718 Z-0.448 R0.375
X-7.718 Y169.753 Z-0.468 R0.375
X-7.753 Y170.282 Z-0.489 R0.375
X-8.282 Y170.247 Z-0.51 R0.375
X-8.247 Y169.718 Z-0.53 R0.375
X-7.718 Y169.753 Z-0.551 R0.375
X-7.753 Y170.282 Z-0.571 R0.375
X-8.282 Y170.247 Z-0.592 R0.375
X-8.247 Y169.718 Z-0.612 R0.375
X-7.718 Y169.753 Z-0.633 R0.375
X-7.753 Y170.282 Z-0.654 R0.375
X-8.282 Y170.247 Z-0.674 R0.375
X-8.247 Y169.718 Z-0.695 R0.375
X-7.718 Y169.753 Z-0.715 R0.375
X-7.753 Y170.282 Z-0.736 R0.375
X-8.282 Y170.247 Z-0.756 R0.375
X-8.247 Y169.718 Z-0.777 R0.375
X-7.718 Y169.753 Z-0.798 R0.375
X-7.753 Y170.282 Z-0.818 R0.375
X-8.282 Y170.247 Z-0.839 R0.375
X-8.247 Y169.718 Z-0.859 R0.375
X-7.718 Y169.753 Z-0.88 R0.375
X-7.753 Y170.282 Z-0.9 R0.375
X-8.282 Y170.247 Z-0.921 R0.375
X-8.247 Y169.718 Z-0.942 R0.375
X-7.718 Y169.753 Z-0.962 R0.375
X-7.753 Y170.282 Z-0.983 R0.375
X-8.282 Y170.247 Z-1.003 R0.375
X-8.247 Y169.718 Z-1.024 R0.375
X-7.718 Y169.753 Z-1.044 R0.375
X-7.753 Y170.282 Z-1.065 R0.375
X-8.282 Y170.247 Z-1.086 R0.375
X-8.247 Y169.718 Z-1.106 R0.375
X-7.718 Y169.753 Z-1.127 R0.375
X-7.753 Y170.282 Z-1.147 R0.375
X-8.282 Y170.247 Z-1.168 R0.375
X-8.247 Y169.718 Z-1.188 R0.375
X-7.718 Y169.753 Z-1.209 R0.375
X-7.753 Y170.282 Z-1.229 R0.375
X-8.282 Y170.247 Z-1.25 R0.375
X-8.247 Y169.718 Z-1.271 R0.375
X-7.718 Y169.753 Z-1.291 R0.375
X-7.753 Y170.282 Z-1.312 R0.375
X-8.282 Y170.247 Z-1.332 R0.375
X-8.247 Y169.718 Z-1.353 R0.375
X-7.718 Y169.753 Z-1.373 R0.375
X-7.753 Y170.282 Z-1.394 R0.375
X-8.282 Y170.247 Z-1.415 R0.375
X-8.247 Y169.718 Z-1.435 R0.375
X-7.718 Y169.753 Z-1.456 R0.375
X-7.753 Y170.282 Z-1.476 R0.375
X-8.282 Y170.247 Z-1.497 R0.375
X-8.247 Y169.718 Z-1.517 R0.375
X-7.718 Y169.753 Z-1.538 R0.375
X-7.753 Y170.282 Z-1.559 R0.375
X-8.282 Y170.247 Z-1.579 R0.375
X-8.247 Y169.718 Z-1.6 R0.375
X-7.718 Y169.753 Z-1.62 R0.375
X-7.753 Y170.282 Z-1.641 R0.375
X-8.282 Y170.247 Z-1.661 R0.375
X-8.247 Y169.718 Z-1.682 R0.375
X-7.718 Y169.753 Z-1.703 R0.375
X-7.753 Y170.282 Z-1.723 R0.375
X-8.282 Y170.247 Z-1.744 R0.375
X-8.247 Y169.718 Z-1.764 R0.375
X-7.718 Y169.753 Z-1.785 R0.375
X-7.753 Y170.282 Z-1.805 R0.375
X-8.282 Y170.247 Z-1.826 R0.375
X-8.247 Y169.718 Z-1.847 R0.375
X-7.718 Y169.753 Z-1.867 R0.375
X-7.753 Y170.282 Z-1.888 R0.375
X-8.282 Y170.247 Z-1.908 R0.375
X-8.247 Y169.718 Z-1.929 R0.375
X-7.718 Y169.753 Z-1.949 R0.375
X-7.753 Y170.282 Z-1.97 R0.375
X-8.282 Y170.247 Z-1.991 R0.375
X-8.375 Y170. Z-2. R0.375
X-8. Y169.625 R0.375 F796.8
X-7.625 Y170. R0.375
X-8. Y170.375 R0.375
X-8.375 Y170. R0.375
X-7.844 Y169.469 R0.531
X-7.313 Y170. R0.531
X-8. Y170.688 R0.688
X-8.688 Y170. R0.688
X-8. Y169.313 R0.688
X-7.313 Y170. R0.688
X-7.625 Y170.313 R0.313 F400.
G1 X-7.938
G18 G3 X-8.25 Z-1.688 R0.313
G0 Z3.
X-7.982 Y184.625
G1 Z2.312 F333.33
X-7.979 Y184.626 Z2.268 F600.
X-7.97 Z2.224
X-7.954 Y184.628 Z2.183
X-7.933 Y184.631 Z2.144
X-7.907 Y184.637 Z2.108
X-7.877 Y184.646 Z2.077
X-7.844 Y184.659 Z2.05
X-7.81 Y184.677 Z2.028
X-7.775 Y184.7 Z2.013
X-7.745 Y184.725 Z2.004
X-7.718 Y184.753 Z2.
G17 G3 X-7.753 Y185.282 Z1.979 R0.375
X-8.282 Y185.247 Z1.959 R0.375
X-8.247 Y184.718 Z1.938 R0.375
X-7.718 Y184.753 Z1.918 R0.375
X-7.753 Y185.282 Z1.897 R0.375
X-8.282 Y185.247 Z1.877 R0.375
X-8.247 Y184.718 Z1.856 R0.375
X-7.718 Y184.753 Z1.835 R0.375
X-7.753 Y185.282 Z1.815 R0.375
X-8.282 Y185.247 Z1.794 R0.375
X-8.247 Y184.718 Z1.774 R0.375
X-7.718 Y184.753 Z1.753 R0.375
X-7.753 Y185.282 Z1.733 R0.375
X-8.282 Y185.247 Z1.712 R0.375
X-8.247 Y184.718 Z1.691 R0.375
X-7.718 Y184.753 Z1.671 R0.375
X-7.753 Y185.282 Z1.65 R0.375
X-8.282 Y185.247 Z1.63 R0.375
X-8.247 Y184.718 Z1.609 R0.375
X-7.718 Y184.753 Z1.589 R0.375
X-7.753 Y185.282 Z1.568 R0.375
X-8.282 Y185.247 Z1.547 R0.375
X-8.247 Y184.718 Z1.527 R0.375
X-7.718 Y184.753 Z1.506 R0.375
X-7.753 Y185.282 Z1.486 R0.375
X-8.282 Y185.247 Z1.465 R0.375
X-8.247 Y184.718 Z1.445 R0.375
X-7.718 Y184.753 Z1.424 R0.375
X-7.753 Y185.282 Z1.403 R0.375
X-8.282 Y185.247 Z1.383 R0.375
X-8.247 Y184.718 Z1.362 R0.375
X-7.718 Y184.753 Z1.342 R0.375
X-7.753 Y185.282 Z1.321 R0.375
X-8.282 Y185.247 Z1.301 R0.375
X-8.247 Y184.718 Z1.28 R0.375
X-7.718 Y184.753 Z1.259 R0.375
X-7.753 Y185.282 Z1.239 R0.375
X-8.282 Y185.247 Z1.218 R0.375
X-8.247 Y184.718 Z1.198 R0.375
X-7.718 Y184.753 Z1.177 R0.375
X-7.753 Y185.282 Z1.157 R0.375
X-8.282 Y185.247 Z1.136 R0.375
X-8.247 Y184.718 Z1.115 R0.375
X-7.718 Y184.753 Z1.095 R0.375
X-7.753 Y185.282 Z1.074 R0.375
X-8.282 Y185.247 Z1.054 R0.375
X-8.247 Y184.718 Z1.033 R0.375
X-7.718 Y184.753 Z1.013 R0.375
X-7.753 Y185.282 Z0.992 R0.375
X-8.282 Y185.247 Z0.971 R0.375
X-8.247 Y184.718 Z0.951 R0.375
X-7.718 Y184.753 Z0.93 R0.375
X-7.753 Y185.282 Z0.91 R0.375
X-8.282 Y185.247 Z0.889 R0.375
X-8.247 Y184.718 Z0.869 R0.375
X-7.718 Y184.753 Z0.848 R0.375
X-7.753 Y185.282 Z0.828 R0.375
X-8.282 Y185.247 Z0.807 R0.375
X-8.247 Y184.718 Z0.786 R0.375
X-7.718 Y184.753 Z0.766 R0.375
X-7.753 Y185.282 Z0.745 R0.375
X-8.282 Y185.247 Z0.725 R0.375
X-8.247 Y184.718 Z0.704 R0.375
X-7.718 Y184.753 Z0.684 R0.375
X-7.753 Y185.282 Z0.663 R0.375
X-8.282 Y185.247 Z0.642 R0.375
X-8.247 Y184.718 Z0.622 R0.375
X-7.718 Y184.753 Z0.601 R0.375
X-7.753 Y185.282 Z0.581 R0.375
X-8.282 Y185.247 Z0.56 R0.375
X-8.247 Y184.718 Z0.54 R0.375
X-7.718 Y184.753 Z0.519 R0.375
X-7.753 Y185.282 Z0.498 R0.375
X-8.282 Y185.247 Z0.478 R0.375
X-8.247 Y184.718 Z0.457 R0.375
X-7.718 Y184.753 Z0.437 R0.375
X-7.753 Y185.282 Z0.416 R0.375
X-8.282 Y185.247 Z0.396 R0.375
X-8.247 Y184.718 Z0.375 R0.375
X-7.718 Y184.753 Z0.354 R0.375
X-7.753 Y185.282 Z0.334 R0.375
X-8.282 Y185.247 Z0.313 R0.375
X-8.247 Y184.718 Z0.293 R0.375
X-7.718 Y184.753 Z0.272 R0.375
X-7.753 Y185.282 Z0.252 R0.375
X-8.282 Y185.247 Z0.231 R0.375
X-8.247 Y184.718 Z0.21 R0.375
X-7.718 Y184.753 Z0.19 R0.375
X-7.753 Y185.282 Z0.169 R0.375
X-8.282 Y185.247 Z0.149 R0.375
X-8.247 Y184.718 Z0.128 R0.375
X-7.718 Y184.753 Z0.108 R0.375
X-7.753 Y185.282 Z0.087 R0.375
X-8.282 Y185.247 Z0.066 R0.375
X-8.247 Y184.718 Z0.046 R0.375
X-7.718 Y184.753 Z0.025 R0.375
X-7.753 Y185.282 Z0.005 R0.375
X-8.282 Y185.247 Z-0.016 R0.375
X-8.247 Y184.718 Z-0.036 R0.375
X-7.718 Y184.753 Z-0.057 R0.375
X-7.753 Y185.282 Z-0.078 R0.375
X-8.282 Y185.247 Z-0.098 R0.375
X-8.247 Y184.718 Z-0.119 R0.375
X-7.718 Y184.753 Z-0.139 R0.375
X-7.753 Y185.282 Z-0.16 R0.375
X-8.282 Y185.247 Z-0.18 R0.375
X-8.247 Y184.718 Z-0.201 R0.375
X-7.718 Y184.753 Z-0.222 R0.375
X-7.753 Y185.282 Z-0.242 R0.375
X-8.282 Y185.247 Z-0.263 R0.375
X-8.247 Y184.718 Z-0.283 R0.375
X-7.718 Y184.753 Z-0.304 R0.375
X-7.753 Y185.282 Z-0.324 R0.375
X-8.282 Y185.247 Z-0.345 R0.375
X-8.247 Y184.718 Z-0.366 R0.375
X-7.718 Y184.753 Z-0.386 R0.375
X-7.753 Y185.282 Z-0.407 R0.375
X-8.282 Y185.247 Z-0.427 R0.375
X-8.247 Y184.718 Z-0.448 R0.375
X-7.718 Y184.753 Z-0.468 R0.375
X-7.753 Y185.282 Z-0.489 R0.375
X-8.282 Y185.247 Z-0.51 R0.375
X-8.247 Y184.718 Z-0.53 R0.375
X-7.718 Y184.753 Z-0.551 R0.375
X-7.753 Y185.282 Z-0.571 R0.375
X-8.282 Y185.247 Z-0.592 R0.375
X-8.247 Y184.718 Z-0.612 R0.375
X-7.718 Y184.753 Z-0.633 R0.375
X-7.753 Y185.282 Z-0.654 R0.375
X-8.282 Y185.247 Z-0.674 R0.375
X-8.247 Y184.718 Z-0.695 R0.375
X-7.718 Y184.753 Z-0.715 R0.375
X-7.753 Y185.282 Z-0.736 R0.375
X-8.282 Y185.247 Z-0.756 R0.375
X-8.247 Y184.718 Z-0.777 R0.375
X-7.718 Y184.753 Z-0.798 R0.375
X-7.753 Y185.282 Z-0.818 R0.375
X-8.282 Y185.247 Z-0.839 R0.375
X-8.247 Y184.718 Z-0.859 R0.375
X-7.718 Y184.753 Z-0.88 R0.375
X-7.753 Y185.282 Z-0.9 R0.375
X-8.282 Y185.247 Z-0.921 R0.375
X-8.247 Y184.718 Z-0.942 R0.375
X-7.718 Y184.753 Z-0.962 R0.375
X-7.753 Y185.282 Z-0.983 R0.375
X-8.282 Y185.247 Z-1.003 R0.375
X-8.247 Y184.718 Z-1.024 R0.375
X-7.718 Y184.753 Z-1.044 R0.375
X-7.753 Y185.282 Z-1.065 R0.375
X-8.282 Y185.247 Z-1.086 R0.375
X-8.247 Y184.718 Z-1.106 R0.375
X-7.718 Y184.753 Z-1.127 R0.375
X-7.753 Y185.282 Z-1.147 R0.375
X-8.282 Y185.247 Z-1.168 R0.375
X-8.247 Y184.718 Z-1.188 R0.375
X-7.718 Y184.753 Z-1.209 R0.375
X-7.753 Y185.282 Z-1.229 R0.375
X-8.282 Y185.247 Z-1.25 R0.375
X-8.247 Y184.718 Z-1.271 R0.375
X-7.718 Y184.753 Z-1.291 R0.375
X-7.753 Y185.282 Z-1.312 R0.375
X-8.282 Y185.247 Z-1.332 R0.375
X-8.247 Y184.718 Z-1.353 R0.375
X-7.718 Y184.753 Z-1.373 R0.375
X-7.753 Y185.282 Z-1.394 R0.375
X-8.282 Y185.247 Z-1.415 R0.375
X-8.247 Y184.718 Z-1.435 R0.375
X-7.718 Y184.753 Z-1.456 R0.375
X-7.753 Y185.282 Z-1.476 R0.375
X-8.282 Y185.247 Z-1.497 R0.375
X-8.247 Y184.718 Z-1.517 R0.375
X-7.718 Y184.753 Z-1.538 R0.375
X-7.753 Y185.282 Z-1.559 R0.375
X-8.282 Y185.247 Z-1.579 R0.375
X-8.247 Y184.718 Z-1.6 R0.375
X-7.718 Y184.753 Z-1.62 R0.375
X-7.753 Y185.282 Z-1.641 R0.375
X-8.282 Y185.247 Z-1.661 R0.375
X-8.247 Y184.718 Z-1.682 R0.375
X-7.718 Y184.753 Z-1.703 R0.375
X-7.753 Y185.282 Z-1.723 R0.375
X-8.282 Y185.247 Z-1.744 R0.375
X-8.247 Y184.718 Z-1.764 R0.375
X-7.718 Y184.753 Z-1.785 R0.375
X-7.753 Y185.282 Z-1.805 R0.375
X-8.282 Y185.247 Z-1.826 R0.375
X-8.247 Y184.718 Z-1.847 R0.375
X-7.718 Y184.753 Z-1.867 R0.375
X-7.753 Y185.282 Z-1.888 R0.375
X-8.282 Y185.247 Z-1.908 R0.375
X-8.247 Y184.718 Z-1.929 R0.375
X-7.718 Y184.753 Z-1.949 R0.375
X-7.753 Y185.282 Z-1.97 R0.375
X-8.282 Y185.247 Z-1.991 R0.375
X-8.375 Y185. Z-2. R0.375
X-8. Y184.625 R0.375 F796.8
X-7.625 Y185. R0.375
X-8. Y185.375 R0.375
X-8.375 Y185. R0.375
X-7.844 Y184.469 R0.531
X-7.313 Y185. R0.531
X-8. Y185.688 R0.688
X-8.688 Y185. R0.688
X-8. Y184.313 R0.688
X-7.313 Y185. R0.688
X-7.625 Y185.313 R0.313 F400.
G1 X-7.938
G18 G3 X-8.25 Z-1.688 R0.313
G0 Z13.
G17
(2D CONTOUR3 2)
G0 Z16.
X6.625 Y163.438
Z4.313
G1 Z2. F333.33
Z1.312
G18 G3 X3.313 Z-2. R3.313
G1 X0. F400.
X-13. F796.8
G17 G2 X-17.563 Y168. R4.563
G1 Y187.
G2 X-13. Y191.563 R4.563
G1 X0.
X3.313 F400.
G18 G2 X6.625 Z1.312 R3.313
G0 Z16.
G17
(2D CONTOUR2 2)
G0 X-7.982 Y202.625
Z13.
Z3.
G1 Z2.312 F333.33
X-7.979 Y202.626 Z2.268 F600.
X-7.97 Z2.224
X-7.954 Y202.628 Z2.183
X-7.933 Y202.631 Z2.144
X-7.907 Y202.637 Z2.108
X-7.877 Y202.646 Z2.077
X-7.844 Y202.659 Z2.05
X-7.81 Y202.677 Z2.028
X-7.775 Y202.7 Z2.013
X-7.745 Y202.725 Z2.004
X-7.718 Y202.753 Z2.
G3 X-7.753 Y203.282 Z1.979 R0.375
X-8.282 Y203.247 Z1.959 R0.375
X-8.247 Y202.718 Z1.938 R0.375
X-7.718 Y202.753 Z1.918 R0.375
X-7.753 Y203.282 Z1.897 R0.375
X-8.282 Y203.247 Z1.877 R0.375
X-8.247 Y202.718 Z1.856 R0.375
X-7.718 Y202.753 Z1.835 R0.375
X-7.753 Y203.282 Z1.815 R0.375
X-8.282 Y203.247 Z1.794 R0.375
X-8.247 Y202.718 Z1.774 R0.375
X-7.718 Y202.753 Z1.753 R0.375
X-7.753 Y203.282 Z1.733 R0.375
X-8.282 Y203.247 Z1.712 R0.375
X-8.247 Y202.718 Z1.691 R0.375
X-7.718 Y202.753 Z1.671 R0.375
X-7.753 Y203.282 Z1.65 R0.375
X-8.282 Y203.247 Z1.63 R0.375
X-8.247 Y202.718 Z1.609 R0.375
X-7.718 Y202.753 Z1.589 R0.375
X-7.753 Y203.282 Z1.568 R0.375
X-8.282 Y203.247 Z1.547 R0.375
X-8.247 Y202.718 Z1.527 R0.375
X-7.718 Y202.753 Z1.506 R0.375
X-7.753 Y203.282 Z1.486 R0.375
X-8.282 Y203.247 Z1.465 R0.375
X-8.247 Y202.718 Z1.445 R0.375
X-7.718 Y202.753 Z1.424 R0.375
X-7.753 Y203.282 Z1.403 R0.375
X-8.282 Y203.247 Z1.383 R0.375
X-8.247 Y202.718 Z1.362 R0.375
X-7.718 Y202.753 Z1.342 R0.375
X-7.753 Y203.282 Z1.321 R0.375
X-8.282 Y203.247 Z1.301 R0.375
X-8.247 Y202.718 Z1.28 R0.375
X-7.718 Y202.753 Z1.259 R0.375
X-7.753 Y203.282 Z1.239 R0.375
X-8.282 Y203.247 Z1.218 R0.375
X-8.247 Y202.718 Z1.198 R0.375
X-7.718 Y202.753 Z1.177 R0.375
X-7.753 Y203.282 Z1.157 R0.375
X-8.282 Y203.247 Z1.136 R0.375
X-8.247 Y202.718 Z1.115 R0.375
X-7.718 Y202.753 Z1.095 R0.375
X-7.753 Y203.282 Z1.074 R0.375
X-8.282 Y203.247 Z1.054 R0.375
X-8.247 Y202.718 Z1.033 R0.375
X-7.718 Y202.753 Z1.013 R0.375
X-7.753 Y203.282 Z0.992 R0.375
X-8.282 Y203.247 Z0.971 R0.375
X-8.247 Y202.718 Z0.951 R0.375
X-7.718 Y202.753 Z0.93 R0.375
X-7.753 Y203.282 Z0.91 R0.375
X-8.282 Y203.247 Z0.889 R0.375
X-8.247 Y202.718 Z0.869 R0.375
X-7.718 Y202.753 Z0.848 R0.375
X-7.753 Y203.282 Z0.828 R0.375
X-8.282 Y203.247 Z0.807 R0.375
X-8.247 Y202.718 Z0.786 R0.375
X-7.718 Y202.753 Z0.766 R0.375
X-7.753 Y203.282 Z0.745 R0.375
X-8.282 Y203.247 Z0.725 R0.375
X-8.247 Y202.718 Z0.704 R0.375
X-7.718 Y202.753 Z0.684 R0.375
X-7.753 Y203.282 Z0.663 R0.375
X-8.282 Y203.247 Z0.642 R0.375
X-8.247 Y202.718 Z0.622 R0.375
X-7.718 Y202.753 Z0.601 R0.375
X-7.753 Y203.282 Z0.581 R0.375
X-8.282 Y203.247 Z0.56 R0.375
X-8.247 Y202.718 Z0.54 R0.375
X-7.718 Y202.753 Z0.519 R0.375
X-7.753 Y203.282 Z0.498 R0.375
X-8.282 Y203.247 Z0.478 R0.375
X-8.247 Y202.718 Z0.457 R0.375
X-7.718 Y202.753 Z0.437 R0.375
X-7.753 Y203.282 Z0.416 R0.375
X-8.282 Y203.247 Z0.396 R0.375
X-8.247 Y202.718 Z0.375 R0.375
X-7.718 Y202.753 Z0.354 R0.375
X-7.753 Y203.282 Z0.334 R0.375
X-8.282 Y203.247 Z0.313 R0.375
X-8.247 Y202.718 Z0.293 R0.375
X-7.718 Y202.753 Z0.272 R0.375
X-7.753 Y203.282 Z0.252 R0.375
X-8.282 Y203.247 Z0.231 R0.375
X-8.247 Y202.718 Z0.21 R0.375
X-7.718 Y202.753 Z0.19 R0.375
X-7.753 Y203.282 Z0.169 R0.375
X-8.282 Y203.247 Z0.149 R0.375
X-8.247 Y202.718 Z0.128 R0.375
X-7.718 Y202.753 Z0.108 R0.375
X-7.753 Y203.282 Z0.087 R0.375
X-8.282 Y203.247 Z0.066 R0.375
X-8.247 Y202.718 Z0.046 R0.375
X-7.718 Y202.753 Z0.025 R0.375
X-7.753 Y203.282 Z0.005 R0.375
X-8.282 Y203.247 Z-0.016 R0.375
X-8.247 Y202.718 Z-0.036 R0.375
X-7.718 Y202.753 Z-0.057 R0.375
X-7.753 Y203.282 Z-0.078 R0.375
X-8.282 Y203.247 Z-0.098 R0.375
X-8.247 Y202.718 Z-0.119 R0.375
X-7.718 Y202.753 Z-0.139 R0.375
X-7.753 Y203.282 Z-0.16 R0.375
X-8.282 Y203.247 Z-0.18 R0.375
X-8.247 Y202.718 Z-0.201 R0.375
X-7.718 Y202.753 Z-0.222 R0.375
X-7.753 Y203.282 Z-0.242 R0.375
X-8.282 Y203.247 Z-0.263 R0.375
X-8.247 Y202.718 Z-0.283 R0.375
X-7.718 Y202.753 Z-0.304 R0.375
X-7.753 Y203.282 Z-0.324 R0.375
X-8.282 Y203.247 Z-0.345 R0.375
X-8.247 Y202.718 Z-0.366 R0.375
X-7.718 Y202.753 Z-0.386 R0.375
X-7.753 Y203.282 Z-0.407 R0.375
X-8.282 Y203.247 Z-0.427 R0.375
X-8.247 Y202.718 Z-0.448 R0.375
X-7.718 Y202.753 Z-0.468 R0.375
X-7.753 Y203.282 Z-0.489 R0.375
X-8.282 Y203.247 Z-0.51 R0.375
X-8.247 Y202.718 Z-0.53 R0.375
X-7.718 Y202.753 Z-0.551 R0.375
X-7.753 Y203.282 Z-0.571 R0.375
X-8.282 Y203.247 Z-0.592 R0.375
X-8.247 Y202.718 Z-0.612 R0.375
X-7.718 Y202.753 Z-0.633 R0.375
X-7.753 Y203.282 Z-0.654 R0.375
X-8.282 Y203.247 Z-0.674 R0.375
X-8.247 Y202.718 Z-0.695 R0.375
X-7.718 Y202.753 Z-0.715 R0.375
X-7.753 Y203.282 Z-0.736 R0.375
X-8.282 Y203.247 Z-0.756 R0.375
X-8.247 Y202.718 Z-0.777 R0.375
X-7.718 Y202.753 Z-0.798 R0.375
X-7.753 Y203.282 Z-0.818 R0.375
X-8.282 Y203.247 Z-0.839 R0.375
X-8.247 Y202.718 Z-0.859 R0.375
X-7.718 Y202.753 Z-0.88 R0.375
X-7.753 Y203.282 Z-0.9 R0.375
X-8.282 Y203.247 Z-0.921 R0.375
X-8.247 Y202.718 Z-0.942 R0.375
X-7.718 Y202.753 Z-0.962 R0.375
X-7.753 Y203.282 Z-0.983 R0.375
X-8.282 Y203.247 Z-1.003 R0.375
X-8.247 Y202.718 Z-1.024 R0.375
X-7.718 Y202.753 Z-1.044 R0.375
X-7.753 Y203.282 Z-1.065 R0.375
X-8.282 Y203.247 Z-1.086 R0.375
X-8.247 Y202.718 Z-1.106 R0.375
X-7.718 Y202.753 Z-1.127 R0.375
X-7.753 Y203.282 Z-1.147 R0.375
X-8.282 Y203.247 Z-1.168 R0.375
X-8.247 Y202.718 Z-1.188 R0.375
X-7.718 Y202.753 Z-1.209 R0.375
X-7.753 Y203.282 Z-1.229 R0.375
X-8.282 Y203.247 Z-1.25 R0.375
X-8.247 Y202.718 Z-1.271 R0.375
X-7.718 Y202.753 Z-1.291 R0.375
X-7.753 Y203.282 Z-1.312 R0.375
X-8.282 Y203.247 Z-1.332 R0.375
X-8.247 Y202.718 Z-1.353 R0.375
X-7.718 Y202.753 Z-1.373 R0.375
X-7.753 Y203.282 Z-1.394 R0.375
X-8.282 Y203.247 Z-1.415 R0.375
X-8.247 Y202.718 Z-1.435 R0.375
X-7.718 Y202.753 Z-1.456 R0.375
X-7.753 Y203.282 Z-1.476 R0.375
X-8.282 Y203.247 Z-1.497 R0.375
X-8.247 Y202.718 Z-1.517 R0.375
X-7.718 Y202.753 Z-1.538 R0.375
X-7.753 Y203.282 Z-1.559 R0.375
X-8.282 Y203.247 Z-1.579 R0.375
X-8.247 Y202.718 Z-1.6 R0.375
X-7.718 Y202.753 Z-1.62 R0.375
X-7.753 Y203.282 Z-1.641 R0.375
X-8.282 Y203.247 Z-1.661 R0.375
X-8.247 Y202.718 Z-1.682 R0.375
X-7.718 Y202.753 Z-1.703 R0.375
X-7.753 Y203.282 Z-1.723 R0.375
X-8.282 Y203.247 Z-1.744 R0.375
X-8.247 Y202.718 Z-1.764 R0.375
X-7.718 Y202.753 Z-1.785 R0.375
X-7.753 Y203.282 Z-1.805 R0.375
X-8.282 Y203.247 Z-1.826 R0.375
X-8.247 Y202.718 Z-1.847 R0.375
X-7.718 Y202.753 Z-1.867 R0.375
X-7.753 Y203.282 Z-1.888 R0.375
X-8.282 Y203.247 Z-1.908 R0.375
X-8.247 Y202.718 Z-1.929 R0.375
X-7.718 Y202.753 Z-1.949 R0.375
X-7.753 Y203.282 Z-1.97 R0.375
X-8.282 Y203.247 Z-1.991 R0.375
X-8.375 Y203. Z-2. R0.375
X-8. Y202.625 R0.375 F796.8
X-7.625 Y203. R0.375
X-8. Y203.375 R0.375
X-8.375 Y203. R0.375
X-7.844 Y202.469 R0.531
X-7.313 Y203. R0.531
X-8. Y203.688 R0.688
X-8.688 Y203. R0.688
X-8. Y202.313 R0.688
X-7.313 Y203. R0.688
X-7.625 Y203.313 R0.313 F400.
G1 X-7.938
G18 G3 X-8.25 Z-1.688 R0.313
G0 Z3.
X-7.982 Y217.625
G1 Z2.312 F333.33
X-7.979 Y217.626 Z2.268 F600.
X-7.97 Z2.224
X-7.954 Y217.628 Z2.183
X-7.933 Y217.631 Z2.144
X-7.907 Y217.637 Z2.108
X-7.877 Y217.646 Z2.077
X-7.844 Y217.659 Z2.05
X-7.81 Y217.677 Z2.028
X-7.775 Y217.7 Z2.013
X-7.745 Y217.725 Z2.004
X-7.718 Y217.753 Z2.
G17 G3 X-7.753 Y218.282 Z1.979 R0.375
X-8.282 Y218.247 Z1.959 R0.375
X-8.247 Y217.718 Z1.938 R0.375
X-7.718 Y217.753 Z1.918 R0.375
X-7.753 Y218.282 Z1.897 R0.375
X-8.282 Y218.247 Z1.877 R0.375
X-8.247 Y217.718 Z1.856 R0.375
X-7.718 Y217.753 Z1.835 R0.375
X-7.753 Y218.282 Z1.815 R0.375
X-8.282 Y218.247 Z1.794 R0.375
X-8.247 Y217.718 Z1.774 R0.375
X-7.718 Y217.753 Z1.753 R0.375
X-7.753 Y218.282 Z1.733 R0.375
X-8.282 Y218.247 Z1.712 R0.375
X-8.247 Y217.718 Z1.691 R0.375
X-7.718 Y217.753 Z1.671 R0.375
X-7.753 Y218.282 Z1.65 R0.375
X-8.282 Y218.247 Z1.63 R0.375
X-8.247 Y217.718 Z1.609 R0.375
X-7.718 Y217.753 Z1.589 R0.375
X-7.753 Y218.282 Z1.568 R0.375
X-8.282 Y218.247 Z1.547 R0.375
X-8.247 Y217.718 Z1.527 R0.375
X-7.718 Y217.753 Z1.506 R0.375
X-7.753 Y218.282 Z1.486 R0.375
X-8.282 Y218.247 Z1.465 R0.375
X-8.247 Y217.718 Z1.445 R0.375
X-7.718 Y217.753 Z1.424 R0.375
X-7.753 Y218.282 Z1.403 R0.375
X-8.282 Y218.247 Z1.383 R0.375
X-8.247 Y217.718 Z1.362 R0.375
X-7.718 Y217.753 Z1.342 R0.375
X-7.753 Y218.282 Z1.321 R0.375
X-8.282 Y218.247 Z1.301 R0.375
X-8.247 Y217.718 Z1.28 R0.375
X-7.718 Y217.753 Z1.259 R0.375
X-7.753 Y218.282 Z1.239 R0.375
X-8.282 Y218.247 Z1.218 R0.375
X-8.247 Y217.718 Z1.198 R0.375
X-7.718 Y217.753 Z1.177 R0.375
X-7.753 Y218.282 Z1.157 R0.375
X-8.282 Y218.247 Z1.136 R0.375
X-8.247 Y217.718 Z1.115 R0.375
X-7.718 Y217.753 Z1.095 R0.375
X-7.753 Y218.282 Z1.074 R0.375
X-8.282 Y218.247 Z1.054 R0.375
X-8.247 Y217.718 Z1.033 R0.375
X-7.718 Y217.753 Z1.013 R0.375
X-7.753 Y218.282 Z0.992 R0.375
X-8.282 Y218.247 Z0.971 R0.375
X-8.247 Y217.718 Z0.951 R0.375
X-7.718 Y217.753 Z0.93 R0.375
X-7.753 Y218.282 Z0.91 R0.375
X-8.282 Y218.247 Z0.889 R0.375
X-8.247 Y217.718 Z0.869 R0.375
X-7.718 Y217.753 Z0.848 R0.375
X-7.753 Y218.282 Z0.828 R0.375
X-8.282 Y218.247 Z0.807 R0.375
X-8.247 Y217.718 Z0.786 R0.375
X-7.718 Y217.753 Z0.766 R0.375
X-7.753 Y218.282 Z0.745 R0.375
X-8.282 Y218.247 Z0.725 R0.375
X-8.247 Y217.718 Z0.704 R0.375
X-7.718 Y217.753 Z0.684 R0.375
X-7.753 Y218.282 Z0.663 R0.375
X-8.282 Y218.247 Z0.642 R0.375
X-8.247 Y217.718 Z0.622 R0.375
X-7.718 Y217.753 Z0.601 R0.375
X-7.753 Y218.282 Z0.581 R0.375
X-8.282 Y218.247 Z0.56 R0.375
X-8.247 Y217.718 Z0.54 R0.375
X-7.718 Y217.753 Z0.519 R0.375
X-7.753 Y218.282 Z0.498 R0.375
X-8.282 Y218.247 Z0.478 R0.375
X-8.247 Y217.718 Z0.457 R0.375
X-7.718 Y217.753 Z0.437 R0.375
X-7.753 Y218.282 Z0.416 R0.375
X-8.282 Y218.247 Z0.396 R0.375
X-8.247 Y217.718 Z0.375 R0.375
X-7.718 Y217.753 Z0.354 R0.375
X-7.753 Y218.282 Z0.334 R0.375
X-8.282 Y218.247 Z0.313 R0.375
X-8.247 Y217.718 Z0.293 R0.375
X-7.718 Y217.753 Z0.272 R0.375
X-7.753 Y218.282 Z0.252 R0.375
X-8.282 Y218.247 Z0.231 R0.375
X-8.247 Y217.718 Z0.21 R0.375
X-7.718 Y217.753 Z0.19 R0.375
X-7.753 Y218.282 Z0.169 R0.375
X-8.282 Y218.247 Z0.149 R0.375
X-8.247 Y217.718 Z0.128 R0.375
X-7.718 Y217.753 Z0.108 R0.375
X-7.753 Y218.282 Z0.087 R0.375
X-8.282 Y218.247 Z0.066 R0.375
X-8.247 Y217.718 Z0.046 R0.375
X-7.718 Y217.753 Z0.025 R0.375
X-7.753 Y218.282 Z0.005 R0.375
X-8.282 Y218.247 Z-0.016 R0.375
X-8.247 Y217.718 Z-0.036 R0.375
X-7.718 Y217.753 Z-0.057 R0.375
X-7.753 Y218.282 Z-0.078 R0.375
X-8.282 Y218.247 Z-0.098 R0.375
X-8.247 Y217.718 Z-0.119 R0.375
X-7.718 Y217.753 Z-0.139 R0.375
X-7.753 Y218.282 Z-0.16 R0.375
X-8.282 Y218.247 Z-0.18 R0.375
X-8.247 Y217.718 Z-0.201 R0.375
X-7.718 Y217.753 Z-0.222 R0.375
X-7.753 Y218.282 Z-0.242 R0.375
X-8.282 Y218.247 Z-0.263 R0.375
X-8.247 Y217.718 Z-0.283 R0.375
X-7.718 Y217.753 Z-0.304 R0.375
X-7.753 Y218.282 Z-0.324 R0.375
X-8.282 Y218.247 Z-0.345 R0.375
X-8.247 Y217.718 Z-0.366 R0.375
X-7.718 Y217.753 Z-0.386 R0.375
X-7.753 Y218.282 Z-0.407 R0.375
X-8.282 Y218.247 Z-0.427 R0.375
X-8.247 Y217.718 Z-0.448 R0.375
X-7.718 Y217.753 Z-0.468 R0.375
X-7.753 Y218.282 Z-0.489 R0.375
X-8.282 Y218.247 Z-0.51 R0.375
X-8.247 Y217.718 Z-0.53 R0.375
X-7.718 Y217.753 Z-0.551 R0.375
X-7.753 Y218.282 Z-0.571 R0.375
X-8.282 Y218.247 Z-0.592 R0.375
X-8.247 Y217.718 Z-0.612 R0.375
X-7.718 Y217.753 Z-0.633 R0.375
X-7.753 Y218.282 Z-0.654 R0.375
X-8.282 Y218.247 Z-0.674 R0.375
X-8.247 Y217.718 Z-0.695 R0.375
X-7.718 Y217.753 Z-0.715 R0.375
X-7.753 Y218.282 Z-0.736 R0.375
X-8.282 Y218.247 Z-0.756 R0.375
X-8.247 Y217.718 Z-0.777 R0.375
X-7.718 Y217.753 Z-0.798 R0.375
X-7.753 Y218.282 Z-0.818 R0.375
X-8.282 Y218.247 Z-0.839 R0.375
X-8.247 Y217.718 Z-0.859 R0.375
X-7.718 Y217.753 Z-0.88 R0.375
X-7.753 Y218.282 Z-0.9 R0.375
X-8.282 Y218.247 Z-0.921 R0.375
X-8.247 Y217.718 Z-0.942 R0.375
X-7.718 Y217.753 Z-0.962 R0.375
X-7.753 Y218.282 Z-0.983 R0.375
X-8.282 Y218.247 Z-1.003 R0.375
X-8.247 Y217.718 Z-1.024 R0.375
X-7.718 Y217.753 Z-1.044 R0.375
X-7.753 Y218.282 Z-1.065 R0.375
X-8.282 Y218.247 Z-1.086 R0.375
X-8.247 Y217.718 Z-1.106 R0.375
X-7.718 Y217.753 Z-1.127 R0.375
X-7.753 Y218.282 Z-1.147 R0.375
X-8.282 Y218.247 Z-1.168 R0.375
X-8.247 Y217.718 Z-1.188 R0.375
X-7.718 Y217.753 Z-1.209 R0.375
X-7.753 Y218.282 Z-1.229 R0.375
X-8.282 Y218.247 Z-1.25 R0.375
X-8.247 Y217.718 Z-1.271 R0.375
X-7.718 Y217.753 Z-1.291 R0.375
X-7.753 Y218.282 Z-1.312 R0.375
X-8.282 Y218.247 Z-1.332 R0.375
X-8.247 Y217.718 Z-1.353 R0.375
X-7.718 Y217.753 Z-1.373 R0.375
X-7.753 Y218.282 Z-1.394 R0.375
X-8.282 Y218.247 Z-1.415 R0.375
X-8.247 Y217.718 Z-1.435 R0.375
X-7.718 Y217.753 Z-1.456 R0.375
X-7.753 Y218.282 Z-1.476 R0.375
X-8.282 Y218.247 Z-1.497 R0.375
X-8.247 Y217.718 Z-1.517 R0.375
X-7.718 Y217.753 Z-1.538 R0.375
X-7.753 Y218.282 Z-1.559 R0.375
X-8.282 Y218.247 Z-1.579 R0.375
X-8.247 Y217.718 Z-1.6 R0.375
X-7.718 Y217.753 Z-1.62 R0.375
X-7.753 Y218.282 Z-1.641 R0.375
X-8.282 Y218.247 Z-1.661 R0.375
X-8.247 Y217.718 Z-1.682 R0.375
X-7.718 Y217.753 Z-1.703 R0.375
X-7.753 Y218.282 Z-1.723 R0.375
X-8.282 Y218.247 Z-1.744 R0.375
X-8.247 Y217.718 Z-1.764 R0.375
X-7.718 Y217.753 Z-1.785 R0.375
X-7.753 Y218.282 Z-1.805 R0.375
X-8.282 Y218.247 Z-1.826 R0.375
X-8.247 Y217.718 Z-1.847 R0.375
X-7.718 Y217.753 Z-1.867 R0.375
X-7.753 Y218.282 Z-1.888 R0.375
X-8.282 Y218.247 Z-1.908 R0.375
X-8.247 Y217.718 Z-1.929 R0.375
X-7.718 Y217.753 Z-1.949 R0.375
X-7.753 Y218.282 Z-1.97 R0.375
X-8.282 Y218.247 Z-1.991 R0.375
X-8.375 Y218. Z-2. R0.375
X-8. Y217.625 R0.375 F796.8
X-7.625 Y218. R0.375
X-8. Y218.375 R0.375
X-8.375 Y218. R0.375
X-7.844 Y217.469 R0.531
X-7.313 Y218. R0.531
X-8. Y218.688 R0.688
X-8.688 Y218. R0.688
X-8. Y217.313 R0.688
X-7.313 Y218. R0.688
X-7.625 Y218.313 R0.313 F400.
G1 X-7.938
G18 G3 X-8.25 Z-1.688 R0.313
G0 Z13.
G17
(2D CONTOUR3 2)
G0 Z16.
X6.625 Y196.438
Z4.313
G1 Z2. F333.33
Z1.312
G18 G3 X3.313 Z-2. R3.313
G1 X0. F400.
X-13. F796.8
G17 G2 X-17.563 Y201. R4.563
G1 Y220.
G2 X-13. Y224.563 R4.563
G1 X0.
X3.313 F400.
G18 G2 X6.625 Z1.312 R3.313
G0 Z16.
G17
(2D CONTOUR2 2)
G0 X-7.982 Y235.625
Z13.
Z3.
G1 Z2.312 F333.33
X-7.979 Y235.626 Z2.268 F600.
X-7.97 Z2.224
X-7.954 Y235.628 Z2.183
X-7.933 Y235.631 Z2.144
X-7.907 Y235.637 Z2.108
X-7.877 Y235.646 Z2.077
X-7.844 Y235.659 Z2.05
X-7.81 Y235.677 Z2.028
X-7.775 Y235.7 Z2.013
X-7.745 Y235.725 Z2.004
X-7.718 Y235.753 Z2.
G3 X-7.753 Y236.282 Z1.979 R0.375
X-8.282 Y236.247 Z1.959 R0.375
X-8.247 Y235.718 Z1.938 R0.375
X-7.718 Y235.753 Z1.918 R0.375
X-7.753 Y236.282 Z1.897 R0.375
X-8.282 Y236.247 Z1.877 R0.375
X-8.247 Y235.718 Z1.856 R0.375
X-7.718 Y235.753 Z1.835 R0.375
X-7.753 Y236.282 Z1.815 R0.375
X-8.282 Y236.247 Z1.794 R0.375
X-8.247 Y235.718 Z1.774 R0.375
X-7.718 Y235.753 Z1.753 R0.375
X-7.753 Y236.282 Z1.733 R0.375
X-8.282 Y236.247 Z1.712 R0.375
X-8.247 Y235.718 Z1.691 R0.375
X-7.718 Y235.753 Z1.671 R0.375
X-7.753 Y236.282 Z1.65 R0.375
X-8.282 Y236.247 Z1.63 R0.375
X-8.247 Y235.718 Z1.609 R0.375
X-7.718 Y235.753 Z1.589 R0.375
X-7.753 Y236.282 Z1.568 R0.375
X-8.282 Y236.247 Z1.547 R0.375
X-8.247 Y235.718 Z1.527 R0.375
X-7.718 Y235.753 Z1.506 R0.375
X-7.753 Y236.282 Z1.486 R0.375
X-8.282 Y236.247 Z1.465 R0.375
X-8.247 Y235.718 Z1.445 R0.375
X-7.718 Y235.753 Z1.424 R0.375
X-7.753 Y236.282 Z1.403 R0.375
X-8.282 Y236.247 Z1.383 R0.375
X-8.247 Y235.718 Z1.362 R0.375
X-7.718 Y235.753 Z1.342 R0.375
X-7.753 Y236.282 Z1.321 R0.375
X-8.282 Y236.247 Z1.301 R0.375
X-8.247 Y235.718 Z1.28 R0.375
X-7.718 Y235.753 Z1.259 R0.375
X-7.753 Y236.282 Z1.239 R0.375
X-8.282 Y236.247 Z1.218 R0.375
X-8.247 Y235.718 Z1.198 R0.375
X-7.718 Y235.753 Z1.177 R0.375
X-7.753 Y236.282 Z1.157 R0.375
X-8.282 Y236.247 Z1.136 R0.375
X-8.247 Y235.718 Z1.115 R0.375
X-7.718 Y235.753 Z1.095 R0.375
X-7.753 Y236.282 Z1.074 R0.375
X-8.282 Y236.247 Z1.054 R0.375
X-8.247 Y235.718 Z1.033 R0.375
X-7.718 Y235.753 Z1.013 R0.375
X-7.753 Y236.282 Z0.992 R0.375
X-8.282 Y236.247 Z0.971 R0.375
X-8.247 Y235.718 Z0.951 R0.375
X-7.718 Y235.753 Z0.93 R0.375
X-7.753 Y236.282 Z0.91 R0.375
X-8.282 Y236.247 Z0.889 R0.375
X-8.247 Y235.718 Z0.869 R0.375
X-7.718 Y235.753 Z0.848 R0.375
X-7.753 Y236.282 Z0.828 R0.375
X-8.282 Y236.247 Z0.807 R0.375
X-8.247 Y235.718 Z0.786 R0.375
X-7.718 Y235.753 Z0.766 R0.375
X-7.753 Y236.282 Z0.745 R0.375
