(GCode to score and cut a bellows.  Generated: 11/06/2009 11:38:33 AM)
G80 G17 G21 G40 G49 G50 G90 G90.1
(Step 1 - Generate template to align the bellows when it is flipped)
(         Install a sacrificial board to mark the template on)
(         Insert the knife tool to mark the registration lines)
G0 Z5
M0
F2500
G0 Z5
G0 X0 Y15
G1 Z0
G1 X148 Y15
G0 Z5
G0 X0 Y45
G1 Z0
G1 X148 Y45
G0 Z5
G0 X0 Y75
G1 Z0
G1 X148 Y75
G0 Z5
G0 X40.2906582201859 Y0
G1 Z0
G1 X45 Y15
G1 X40.2906582201859 Y30
G1 X45 Y45
G1 X40.2906582201859 Y60
G1 X45 Y75
G1 X40.2906582201859 Y90
G0 Z5
G0 X107.709341779814 Y0
G1 Z0
G1 X103 Y15
G1 X107.709341779814 Y30
G1 X103 Y45
G1 X107.709341779814 Y60
G1 X103 Y75
G1 X107.709341779814 Y90
G0 Z5
G0 X0 Y0
G1 Z0
G1 X0 Y420
G0 Z5
G0 X148 Y420
G1 Z0
G1 X148 Y0
G1 X0 Y0
(Step 2 - Install bellows sheet)
(Ensure a reference line is scribe along the edge,)
(and the reference line is aligned with the template edge)
G0 Z5
M0
(Holes)
F2500
G0 Z5
G0 X124.5 Y24
G1 Z0
G02 X124.5 Y21 I124.5 J22.5
G02 X124.5 Y24 I124.5 J22.5
G0 Z5
G0 X139.5 Y24
G1 Z0
G02 X139.5 Y21 I139.5 J22.5
G02 X139.5 Y24 I139.5 J22.5
G0 Z5
G0 X139.5 Y9
G1 Z0
G02 X139.5 Y6 I139.5 J7.5
G02 X139.5 Y9 I139.5 J7.5
G0 Z5
G0 X124.5 Y9
G1 Z0
G02 X124.5 Y6 I124.5 J7.5
G02 X124.5 Y9 I124.5 J7.5
G0 Z5
G0 X81.5 Y6.5
G1 Z0
G02 X81.5 Y3.5 I81.5 J5
G02 X81.5 Y6.5 I81.5 J5
G0 Z5
G0 X81.5 Y26.5
G1 Z0
G02 X81.5 Y23.5 I81.5 J25
G02 X81.5 Y26.5 I81.5 J25
G0 Z5
G0 X66.5 Y26.5
G1 Z0
G02 X66.5 Y23.5 I66.5 J25
G02 X66.5 Y26.5 I66.5 J25
G0 Z5
G0 X66.5 Y6.5
G1 Z0
G02 X66.5 Y3.5 I66.5 J5
G02 X66.5 Y6.5 I66.5 J5
G0 Z5
G0 X23.5 Y9
G1 Z0
G02 X23.5 Y6 I23.5 J7.5
G02 X23.5 Y9 I23.5 J7.5
G0 Z5
G0 X8.5 Y9
G1 Z0
G02 X8.5 Y6 I8.5 J7.5
G02 X8.5 Y9 I8.5 J7.5
G0 Z5
G0 X8.5 Y24
G1 Z0
G02 X8.5 Y21 I8.5 J22.5
G02 X8.5 Y24 I8.5 J22.5
G0 Z5
G0 X23.5 Y24
G1 Z0
G02 X23.5 Y21 I23.5 J22.5
G02 X23.5 Y24 I23.5 J22.5
(Lines)
G0 Z5
G0 X0 Y15
G1 Z0
G1 X148 Y15
G0 Z5
G0 X16.2710187850479 Y30
G1 Z0
G1 X40.2906582201859 Y30
G0 Z5
G0 X107.709341779814 Y30
G1 Z0
G1 X131.728981214952 Y30
G0 Z5
G0 X0 Y45
G1 Z0
G1 X148 Y45
G0 Z5
G0 X16.2710187850479 Y60
G1 Z0
G1 X40.2906582201859 Y60
G0 Z5
G0 X107.709341779814 Y60
G1 Z0
G1 X131.728981214952 Y60
G0 Z5
G0 X0 Y75
G1 Z0
G1 X148 Y75
G0 Z5
G0 X16.2710187850479 Y90
G1 Z0
G1 X40.2906582201859 Y90
G0 Z5
G0 X107.709341779814 Y90
G1 Z0
G1 X131.728981214952 Y90
G0 Z5
G0 X0 Y105
G1 Z0
G1 X148 Y105
G0 Z5
G0 X16.2710187850479 Y120
G1 Z0
G1 X40.2906582201859 Y120
G0 Z5
G0 X107.709341779814 Y120
G1 Z0
G1 X131.728981214952 Y120
G0 Z5
G0 X0 Y135
G1 Z0
G1 X148 Y135
G0 Z5
G0 X16.2710187850479 Y150
G1 Z0
G1 X40.2906582201859 Y150
G0 Z5
G0 X107.709341779814 Y150
G1 Z0
G1 X131.728981214952 Y150
G0 Z5
G0 X0 Y165
G1 Z0
G1 X148 Y165
G0 Z5
G0 X16.2710187850479 Y180
G1 Z0
G1 X40.2906582201859 Y180
G0 Z5
G0 X107.709341779814 Y180
G1 Z0
G1 X131.728981214952 Y180
G0 Z5
G0 X0 Y195
G1 Z0
G1 X148 Y195
G0 Z5
G0 X16.2710187850479 Y210
G1 Z0
G1 X40.2906582201859 Y210
G0 Z5
G0 X107.709341779814 Y210
G1 Z0
G1 X131.728981214952 Y210
G0 Z5
G0 X0 Y225
G1 Z0
G1 X148 Y225
G0 Z5
G0 X16.2710187850479 Y240
G1 Z0
G1 X40.2906582201859 Y240
G0 Z5
G0 X107.709341779814 Y240
G1 Z0
G1 X131.728981214952 Y240
G0 Z5
G0 X0 Y255
G1 Z0
G1 X148 Y255
G0 Z5
G0 X16.2710187850479 Y270
G1 Z0
G1 X40.2906582201859 Y270
G0 Z5
G0 X107.709341779814 Y270
G1 Z0
G1 X131.728981214952 Y270
G0 Z5
G0 X0 Y285
G1 Z0
G1 X148 Y285
G0 Z5
G0 X16.2710187850479 Y300
G1 Z0
G1 X40.2906582201859 Y300
G0 Z5
G0 X107.709341779814 Y300
G1 Z0
G1 X131.728981214952 Y300
G0 Z5
G0 X0 Y315
G1 Z0
G1 X148 Y315
G0 Z5
G0 X16.2710187850479 Y330
G1 Z0
G1 X40.2906582201859 Y330
G0 Z5
G0 X107.709341779814 Y330
G1 Z0
G1 X131.728981214952 Y330
G0 Z5
G0 X0 Y345
G1 Z0
G1 X148 Y345
G0 Z5
G0 X16.2710187850479 Y360
G1 Z0
G1 X40.2906582201859 Y360
G0 Z5
G0 X107.709341779814 Y360
G1 Z0
G1 X131.728981214952 Y360
G0 Z5
G0 X0 Y375
G1 Z0
G1 X148 Y375
G0 Z5
G0 X16.2710187850479 Y390
G1 Z0
G1 X40.2906582201859 Y390
G0 Z5
G0 X107.709341779814 Y390
G1 Z0
G1 X131.728981214952 Y390
G0 Z5
G0 X0 Y405
G1 Z0
G1 X148 Y405
G0 Z5
G0 X16.2710187850479 Y420
G1 Z0
G1 X40.2906582201859 Y420
G0 Z5
G0 X107.709341779814 Y420
G1 Z0
G1 X131.728981214952 Y420
G0 Z5
G0 X40.2906582201859 Y0
G1 Z0
G1 X45 Y15
G1 X40.2906582201859 Y30
G1 X45 Y45
G1 X40.2906582201859 Y60
G1 X45 Y75
G1 X40.2906582201859 Y90
G1 X45 Y105
G1 X40.2906582201859 Y120
G1 X45 Y135
G1 X40.2906582201859 Y150
G1 X45 Y165
G1 X40.2906582201859 Y180
G1 X45 Y195
G1 X40.2906582201859 Y210
G1 X45 Y225
G1 X40.2906582201859 Y240
G1 X45 Y255
G1 X40.2906582201859 Y270
G1 X45 Y285
G1 X40.2906582201859 Y300
G1 X45 Y315
G1 X40.2906582201859 Y330
G1 X45 Y345
G1 X40.2906582201859 Y360
G1 X45 Y375
G1 X40.2906582201859 Y390
G1 X45 Y405
G1 X40.2906582201859 Y420
G0 Z5
G0 X107.709341779814 Y0
G1 Z0
G1 X103 Y15
G1 X107.709341779814 Y30
G1 X103 Y45
G1 X107.709341779814 Y60
G1 X103 Y75
G1 X107.709341779814 Y90
G1 X103 Y105
G1 X107.709341779814 Y120
G1 X103 Y135
G1 X107.709341779814 Y150
G1 X103 Y165
G1 X107.709341779814 Y180
G1 X103 Y195
G1 X107.709341779814 Y210
G1 X103 Y225
G1 X107.709341779814 Y240
G1 X103 Y255
G1 X107.709341779814 Y270
G1 X103 Y285
G1 X107.709341779814 Y300
G1 X103 Y315
G1 X107.709341779814 Y330
G1 X103 Y345
G1 X107.709341779814 Y360
G1 X103 Y375
G1 X107.709341779814 Y390
G1 X103 Y405
G1 X107.709341779814 Y420
G0 Z5
G0 X0 Y0
G1 Z0
G1 X0 Y420
G0 Z5
G0 X148 Y420
G1 Z0
G1 X148 Y0
G1 X0 Y0
G0 Z5
M0
(Move the sheet and re-align.)
(Use the manual reference line to align the edge.)
(There should be no overlap of scored lines - the bottom edge aligns with the top scored line.)
(Holes)
F2500
G0 Z5
G0 X23.5 Y369
G1 Z0
G02 X23.5 Y366 I23.5 J367.5
G02 X23.5 Y369 I23.5 J367.5
G0 Z5
G0 X8.5 Y369
G1 Z0
G02 X8.5 Y366 I8.5 J367.5
G02 X8.5 Y369 I8.5 J367.5
G0 Z5
G0 X8.5 Y384
G1 Z0
G02 X8.5 Y381 I8.5 J382.5
G02 X8.5 Y384 I8.5 J382.5
G0 Z5
G0 X23.5 Y384
G1 Z0
G02 X23.5 Y381 I23.5 J382.5
G02 X23.5 Y384 I23.5 J382.5
G0 Z5
G0 X66.5 Y369
G1 Z0
G02 X66.5 Y366 I66.5 J367.5
G02 X66.5 Y369 I66.5 J367.5
G0 Z5
G0 X66.5 Y384
G1 Z0
G02 X66.5 Y381 I66.5 J382.5
G02 X66.5 Y384 I66.5 J382.5
G0 Z5
G0 X81.5 Y384
G1 Z0
G02 X81.5 Y381 I81.5 J382.5
G02 X81.5 Y384 I81.5 J382.5
G0 Z5
G0 X81.5 Y369
G1 Z0
G02 X81.5 Y366 I81.5 J367.5
G02 X81.5 Y369 I81.5 J367.5
G0 Z5
G0 X124.5 Y369
G1 Z0
G02 X124.5 Y366 I124.5 J367.5
G02 X124.5 Y369 I124.5 J367.5
G0 Z5
G0 X124.5 Y384
G1 Z0
G02 X124.5 Y381 I124.5 J382.5
G02 X124.5 Y384 I124.5 J382.5
G0 Z5
G0 X139.5 Y384
G1 Z0
G02 X139.5 Y381 I139.5 J382.5
G02 X139.5 Y384 I139.5 J382.5
G0 Z5
G0 X139.5 Y369
G1 Z0
G02 X139.5 Y366 I139.5 J367.5
G02 X139.5 Y369 I139.5 J367.5
(Lines)
G0 Z5
G0 X0 Y15
G1 Z0
G1 X148 Y15
G0 Z5
G0 X16.2710187850479 Y30
G1 Z0
G1 X40.2906582201859 Y30
G0 Z5
G0 X107.709341779814 Y30
G1 Z0
G1 X131.728981214952 Y30
G0 Z5
G0 X0 Y45
G1 Z0
G1 X148 Y45
G0 Z5
G0 X16.2710187850479 Y60
G1 Z0
G1 X40.2906582201859 Y60
G0 Z5
G0 X107.709341779814 Y60
G1 Z0
G1 X131.728981214952 Y60
G0 Z5
G0 X0 Y75
G1 Z0
G1 X148 Y75
G0 Z5
G0 X16.2710187850479 Y90
G1 Z0
G1 X40.2906582201859 Y90
G0 Z5
G0 X107.709341779814 Y90
G1 Z0
G1 X131.728981214952 Y90
G0 Z5
G0 X0 Y105
G1 Z0
G1 X148 Y105
G0 Z5
G0 X16.2710187850479 Y120
G1 Z0
G1 X40.2906582201859 Y120
G0 Z5
G0 X107.709341779814 Y120
G1 Z0
G1 X131.728981214952 Y120
G0 Z5
G0 X0 Y135
G1 Z0
G1 X148 Y135
G0 Z5
G0 X16.2710187850479 Y150
G1 Z0
G1 X40.2906582201859 Y150
G0 Z5
G0 X107.709341779814 Y150
G1 Z0
G1 X131.728981214952 Y150
G0 Z5
G0 X0 Y165
G1 Z0
G1 X148 Y165
G0 Z5
G0 X16.2710187850479 Y180
G1 Z0
G1 X40.2906582201859 Y180
G0 Z5
G0 X107.709341779814 Y180
G1 Z0
G1 X131.728981214952 Y180
G0 Z5
G0 X0 Y195
G1 Z0
G1 X148 Y195
G0 Z5
G0 X16.2710187850479 Y210
G1 Z0
G1 X40.2906582201859 Y210
G0 Z5
G0 X107.709341779814 Y210
G1 Z0
G1 X131.728981214952 Y210
G0 Z5
G0 X0 Y225
G1 Z0
G1 X148 Y225
G0 Z5
G0 X16.2710187850479 Y240
G1 Z0
G1 X40.2906582201859 Y240
G0 Z5
G0 X107.709341779814 Y240
G1 Z0
G1 X131.728981214952 Y240
G0 Z5
G0 X0 Y255
G1 Z0
G1 X148 Y255
G0 Z5
G0 X16.2710187850479 Y270
G1 Z0
G1 X40.2906582201859 Y270
G0 Z5
G0 X107.709341779814 Y270
G1 Z0
G1 X131.728981214952 Y270
G0 Z5
G0 X0 Y285
G1 Z0
G1 X148 Y285
G0 Z5
G0 X16.2710187850479 Y300
G1 Z0
G1 X40.2906582201859 Y300
G0 Z5
G0 X107.709341779814 Y300
G1 Z0
G1 X131.728981214952 Y300
G0 Z5
G0 X0 Y315
G1 Z0
G1 X148 Y315
G0 Z5
G0 X16.2710187850479 Y330
G1 Z0
G1 X40.2906582201859 Y330
G0 Z5
G0 X107.709341779814 Y330
G1 Z0
G1 X131.728981214952 Y330
G0 Z5
G0 X0 Y345
G1 Z0
G1 X148 Y345
G0 Z5
G0 X16.2710187850479 Y360
G1 Z0
G1 X40.2906582201859 Y360
G0 Z5
G0 X107.709341779814 Y360
G1 Z0
G1 X131.728981214952 Y360
G0 Z5
G0 X0 Y375
G1 Z0
G1 X148 Y375
G0 Z5
G0 X40.2906582201859 Y0
G1 Z0
G1 X45 Y15
G1 X40.2906582201859 Y30
G1 X45 Y45
G1 X40.2906582201859 Y60
G1 X45 Y75
G1 X40.2906582201859 Y90
G1 X45 Y105
G1 X40.2906582201859 Y120
G1 X45 Y135
G1 X40.2906582201859 Y150
G1 X45 Y165
G1 X40.2906582201859 Y180
G1 X45 Y195
G1 X40.2906582201859 Y210
G1 X45 Y225
G1 X40.2906582201859 Y240
G1 X45 Y255
G1 X40.2906582201859 Y270
G1 X45 Y285
G1 X40.2906582201859 Y300
G1 X45 Y315
G1 X40.2906582201859 Y330
G1 X45 Y345
G1 X40.2906582201859 Y360
G1 X45 Y375
G1 X40.2906582201859 Y390
G0 Z5
G0 X107.709341779814 Y0
G1 Z0
G1 X103 Y15
G1 X107.709341779814 Y30
G1 X103 Y45
G1 X107.709341779814 Y60
G1 X103 Y75
G1 X107.709341779814 Y90
G1 X103 Y105
G1 X107.709341779814 Y120
G1 X103 Y135
G1 X107.709341779814 Y150
G1 X103 Y165
G1 X107.709341779814 Y180
G1 X103 Y195
G1 X107.709341779814 Y210
G1 X103 Y225
G1 X107.709341779814 Y240
G1 X103 Y255
G1 X107.709341779814 Y270
G1 X103 Y285
G1 X107.709341779814 Y300
G1 X103 Y315
G1 X107.709341779814 Y330
G1 X103 Y345
G1 X107.709341779814 Y360
G1 X103 Y375
G1 X107.709341779814 Y390
G0 Z5
G0 X0 Y0
G1 Z0
G1 X0 Y390
G1 X148 Y390
G1 X148 Y0
(Step 3 - Flip the bellows sheet and re-align with the template)
G0 Z5
M0
(Holes)
F2500
G0 Z5
G0 X124.5 Y24
G1 Z0
G02 X124.5 Y21 I124.5 J22.5
G02 X124.5 Y24 I124.5 J22.5
G0 Z5
G0 X139.5 Y24
G1 Z0
G02 X139.5 Y21 I139.5 J22.5
G02 X139.5 Y24 I139.5 J22.5
G0 Z5
G0 X139.5 Y9
G1 Z0
G02 X139.5 Y6 I139.5 J7.5
G02 X139.5 Y9 I139.5 J7.5
G0 Z5
G0 X124.5 Y9
G1 Z0
G02 X124.5 Y6 I124.5 J7.5
G02 X124.5 Y9 I124.5 J7.5
G0 Z5
G0 X81.5 Y6.5
G1 Z0
G02 X81.5 Y3.5 I81.5 J5
G02 X81.5 Y6.5 I81.5 J5
G0 Z5
G0 X81.5 Y26.5
G1 Z0
G02 X81.5 Y23.5 I81.5 J25
G02 X81.5 Y26.5 I81.5 J25
G0 Z5
G0 X66.5 Y26.5
G1 Z0
G02 X66.5 Y23.5 I66.5 J25
G02 X66.5 Y26.5 I66.5 J25
G0 Z5
G0 X66.5 Y6.5
G1 Z0
G02 X66.5 Y3.5 I66.5 J5
G02 X66.5 Y6.5 I66.5 J5
G0 Z5
G0 X23.5 Y9
G1 Z0
G02 X23.5 Y6 I23.5 J7.5
G02 X23.5 Y9 I23.5 J7.5
G0 Z5
G0 X8.5 Y9
G1 Z0
G02 X8.5 Y6 I8.5 J7.5
G02 X8.5 Y9 I8.5 J7.5
G0 Z5
G0 X8.5 Y24
G1 Z0
G02 X8.5 Y21 I8.5 J22.5
G02 X8.5 Y24 I8.5 J22.5
G0 Z5
G0 X23.5 Y24
G1 Z0
G02 X23.5 Y21 I23.5 J22.5
G02 X23.5 Y24 I23.5 J22.5
(Lines)
G0 Z5
G0 X0 Y30
G1 Z0
G1 X16.2710187850479 Y30
G0 Z5
G0 X40.2906582201859 Y30
G1 Z0
G1 X107.709341779814 Y30
G0 Z5
G0 X131.728981214952 Y30
G1 Z0
G1 X148 Y30
G0 Z5
G0 X0 Y60
G1 Z0
G1 X16.2710187850479 Y60
G0 Z5
G0 X40.2906582201859 Y60
G1 Z0
G1 X107.709341779814 Y60
G0 Z5
G0 X131.728981214952 Y60
G1 Z0
G1 X148 Y60
G0 Z5
G0 X0 Y90
G1 Z0
G1 X16.2710187850479 Y90
G0 Z5
G0 X40.2906582201859 Y90
G1 Z0
G1 X107.709341779814 Y90
G0 Z5
G0 X131.728981214952 Y90
G1 Z0
G1 X148 Y90
G0 Z5
G0 X0 Y120
G1 Z0
G1 X16.2710187850479 Y120
G0 Z5
G0 X40.2906582201859 Y120
G1 Z0
G1 X107.709341779814 Y120
G0 Z5
G0 X131.728981214952 Y120
G1 Z0
G1 X148 Y120
G0 Z5
G0 X0 Y150
G1 Z0
G1 X16.2710187850479 Y150
G0 Z5
G0 X40.2906582201859 Y150
G1 Z0
G1 X107.709341779814 Y150
G0 Z5
G0 X131.728981214952 Y150
G1 Z0
G1 X148 Y150
G0 Z5
G0 X0 Y180
G1 Z0
G1 X16.2710187850479 Y180
G0 Z5
G0 X40.2906582201859 Y180
G1 Z0
G1 X107.709341779814 Y180
G0 Z5
G0 X131.728981214952 Y180
G1 Z0
G1 X148 Y180
G0 Z5
G0 X0 Y210
G1 Z0
G1 X16.2710187850479 Y210
G0 Z5
G0 X40.2906582201859 Y210
G1 Z0
G1 X107.709341779814 Y210
G0 Z5
G0 X131.728981214952 Y210
G1 Z0
G1 X148 Y210
G0 Z5
G0 X0 Y240
G1 Z0
G1 X16.2710187850479 Y240
G0 Z5
G0 X40.2906582201859 Y240
G1 Z0
G1 X107.709341779814 Y240
G0 Z5
G0 X131.728981214952 Y240
G1 Z0
G1 X148 Y240
G0 Z5
G0 X0 Y270
G1 Z0
G1 X16.2710187850479 Y270
G0 Z5
G0 X40.2906582201859 Y270
G1 Z0
G1 X107.709341779814 Y270
G0 Z5
G0 X131.728981214952 Y270
G1 Z0
G1 X148 Y270
G0 Z5
G0 X0 Y300
G1 Z0
G1 X16.2710187850479 Y300
G0 Z5
G0 X40.2906582201859 Y300
G1 Z0
G1 X107.709341779814 Y300
G0 Z5
G0 X131.728981214952 Y300
G1 Z0
G1 X148 Y300
G0 Z5
G0 X0 Y330
G1 Z0
G1 X16.2710187850479 Y330
G0 Z5
G0 X40.2906582201859 Y330
G1 Z0
G1 X107.709341779814 Y330
G0 Z5
G0 X131.728981214952 Y330
G1 Z0
G1 X148 Y330
G0 Z5
G0 X0 Y360
G1 Z0
G1 X16.2710187850479 Y360
G0 Z5
G0 X40.2906582201859 Y360
G1 Z0
G1 X107.709341779814 Y360
G0 Z5
G0 X131.728981214952 Y360
G1 Z0
G1 X148 Y360
G0 Z5
G0 X0 Y390
G1 Z0
G1 X16.2710187850479 Y390
G0 Z5
G0 X40.2906582201859 Y390
G1 Z0
G1 X107.709341779814 Y390
G0 Z5
G0 X131.728981214952 Y390
G1 Z0
G1 X148 Y390
G0 Z5
G0 X0 Y420
G1 Z0
G1 X16.2710187850479 Y420
G0 Z5
G0 X40.2906582201859 Y420
G1 Z0
G1 X107.709341779814 Y420
G0 Z5
G0 X131.728981214952 Y420
G1 Z0
G1 X148 Y420
G0 Z5
G0 X16.2710187850479 Y0
G1 Z0
G1 X45 Y15
G1 X16.2710187850479 Y30
G1 X45 Y45
G1 X16.2710187850479 Y60
G1 X45 Y75
G1 X16.2710187850479 Y90
G1 X45 Y105
G1 X16.2710187850479 Y120
G1 X45 Y135
G1 X16.2710187850479 Y150
G1 X45 Y165
G1 X16.2710187850479 Y180
G1 X45 Y195
G1 X16.2710187850479 Y210
G1 X45 Y225
G1 X16.2710187850479 Y240
G1 X45 Y255
G1 X16.2710187850479 Y270
G1 X45 Y285
G1 X16.2710187850479 Y300
G1 X45 Y315
G1 X16.2710187850479 Y330
G1 X45 Y345
G1 X16.2710187850479 Y360
G1 X45 Y375
G1 X16.2710187850479 Y390
G1 X45 Y405
G1 X16.2710187850479 Y420
G0 Z5
G0 X131.728981214952 Y0
G1 Z0
G1 X103 Y15
G1 X131.728981214952 Y30
G1 X103 Y45
G1 X131.728981214952 Y60
G1 X103 Y75
G1 X131.728981214952 Y90
G1 X103 Y105
G1 X131.728981214952 Y120
G1 X103 Y135
G1 X131.728981214952 Y150
G1 X103 Y165
G1 X131.728981214952 Y180
G1 X103 Y195
G1 X131.728981214952 Y210
G1 X103 Y225
G1 X131.728981214952 Y240
G1 X103 Y255
G1 X131.728981214952 Y270
G1 X103 Y285
G1 X131.728981214952 Y300
G1 X103 Y315
G1 X131.728981214952 Y330
G1 X103 Y345
G1 X131.728981214952 Y360
G1 X103 Y375
G1 X131.728981214952 Y390
G1 X103 Y405
G1 X131.728981214952 Y420
G0 Z5
G0 X0 Y0
G1 Z0
G1 X0 Y420
G0 Z5
G0 X148 Y420
G1 Z0
G1 X148 Y0
G1 X0 Y0
G0 Z5
M0
(Move the sheet and align stuff)
(Holes)
F2500
G0 Z5
G0 X23.5 Y369
G1 Z0
G02 X23.5 Y366 I23.5 J367.5
G02 X23.5 Y369 I23.5 J367.5
G0 Z5
G0 X8.5 Y369
G1 Z0
G02 X8.5 Y366 I8.5 J367.5
G02 X8.5 Y369 I8.5 J367.5
G0 Z5
G0 X8.5 Y384
G1 Z0
G02 X8.5 Y381 I8.5 J382.5
G02 X8.5 Y384 I8.5 J382.5
G0 Z5
G0 X23.5 Y384
G1 Z0
G02 X23.5 Y381 I23.5 J382.5
G02 X23.5 Y384 I23.5 J382.5
G0 Z5
G0 X66.5 Y369
G1 Z0
G02 X66.5 Y366 I66.5 J367.5
G02 X66.5 Y369 I66.5 J367.5
G0 Z5
G0 X66.5 Y384
G1 Z0
G02 X66.5 Y381 I66.5 J382.5
G02 X66.5 Y384 I66.5 J382.5
G0 Z5
G0 X81.5 Y384
G1 Z0
G02 X81.5 Y381 I81.5 J382.5
G02 X81.5 Y384 I81.5 J382.5
G0 Z5
G0 X81.5 Y369
G1 Z0
G02 X81.5 Y366 I81.5 J367.5
G02 X81.5 Y369 I81.5 J367.5
G0 Z5
G0 X124.5 Y369
G1 Z0
G02 X124.5 Y366 I124.5 J367.5
G02 X124.5 Y369 I124.5 J367.5
G0 Z5
G0 X124.5 Y384
G1 Z0
G02 X124.5 Y381 I124.5 J382.5
G02 X124.5 Y384 I124.5 J382.5
G0 Z5
G0 X139.5 Y384
G1 Z0
G02 X139.5 Y381 I139.5 J382.5
G02 X139.5 Y384 I139.5 J382.5
G0 Z5
G0 X139.5 Y369
G1 Z0
G02 X139.5 Y366 I139.5 J367.5
G02 X139.5 Y369 I139.5 J367.5
(Lines)
G0 Z5
G0 X0 Y30
G1 Z0
G1 X16.2710187850479 Y30
G0 Z5
G0 X40.2906582201859 Y30
G1 Z0
G1 X107.709341779814 Y30
G0 Z5
G0 X131.728981214952 Y30
G1 Z0
G1 X148 Y30
G0 Z5
G0 X0 Y60
G1 Z0
G1 X16.2710187850479 Y60
G0 Z5
G0 X40.2906582201859 Y60
G1 Z0
G1 X107.709341779814 Y60
G0 Z5
G0 X131.728981214952 Y60
G1 Z0
G1 X148 Y60
G0 Z5
G0 X0 Y90
G1 Z0
G1 X16.2710187850479 Y90
G0 Z5
G0 X40.2906582201859 Y90
G1 Z0
G1 X107.709341779814 Y90
G0 Z5
G0 X131.728981214952 Y90
G1 Z0
G1 X148 Y90
G0 Z5
G0 X0 Y120
G1 Z0
G1 X16.2710187850479 Y120
G0 Z5
G0 X40.2906582201859 Y120
G1 Z0
G1 X107.709341779814 Y120
G0 Z5
G0 X131.728981214952 Y120
G1 Z0
G1 X148 Y120
G0 Z5
G0 X0 Y150
G1 Z0
G1 X16.2710187850479 Y150
G0 Z5
G0 X40.2906582201859 Y150
G1 Z0
G1 X107.709341779814 Y150
G0 Z5
G0 X131.728981214952 Y150
G1 Z0
G1 X148 Y150
G0 Z5
G0 X0 Y180
G1 Z0
G1 X16.2710187850479 Y180
G0 Z5
G0 X40.2906582201859 Y180
G1 Z0
G1 X107.709341779814 Y180
G0 Z5
G0 X131.728981214952 Y180
G1 Z0
G1 X148 Y180
G0 Z5
G0 X0 Y210
G1 Z0
G1 X16.2710187850479 Y210
G0 Z5
G0 X40.2906582201859 Y210
G1 Z0
G1 X107.709341779814 Y210
G0 Z5
G0 X131.728981214952 Y210
G1 Z0
G1 X148 Y210
G0 Z5
G0 X0 Y240
G1 Z0
G1 X16.2710187850479 Y240
G0 Z5
G0 X40.2906582201859 Y240
G1 Z0
G1 X107.709341779814 Y240
G0 Z5
G0 X131.728981214952 Y240
G1 Z0
G1 X148 Y240
G0 Z5
G0 X0 Y270
G1 Z0
G1 X16.2710187850479 Y270
G0 Z5
G0 X40.2906582201859 Y270
G1 Z0
G1 X107.709341779814 Y270
G0 Z5
G0 X131.728981214952 Y270
G1 Z0
G1 X148 Y270
G0 Z5
G0 X0 Y300
G1 Z0
G1 X16.2710187850479 Y300
G0 Z5
G0 X40.2906582201859 Y300
G1 Z0
G1 X107.709341779814 Y300
G0 Z5
G0 X131.728981214952 Y300
G1 Z0
G1 X148 Y300
G0 Z5
G0 X0 Y330
G1 Z0
G1 X16.2710187850479 Y330
G0 Z5
G0 X40.2906582201859 Y330
G1 Z0
G1 X107.709341779814 Y330
G0 Z5
G0 X131.728981214952 Y330
G1 Z0
G1 X148 Y330
G0 Z5
G0 X0 Y360
G1 Z0
G1 X16.2710187850479 Y360
G0 Z5
G0 X40.2906582201859 Y360
G1 Z0
G1 X107.709341779814 Y360
G0 Z5
G0 X131.728981214952 Y360
G1 Z0
G1 X148 Y360
G0 Z5
G0 X16.2710187850479 Y0
G1 Z0
G1 X45 Y15
G1 X16.2710187850479 Y30
G1 X45 Y45
G1 X16.2710187850479 Y60
G1 X45 Y75
G1 X16.2710187850479 Y90
G1 X45 Y105
G1 X16.2710187850479 Y120
G1 X45 Y135
G1 X16.2710187850479 Y150
G1 X45 Y165
G1 X16.2710187850479 Y180
G1 X45 Y195
G1 X16.2710187850479 Y210
G1 X45 Y225
G1 X16.2710187850479 Y240
G1 X45 Y255
G1 X16.2710187850479 Y270
G1 X45 Y285
G1 X16.2710187850479 Y300
G1 X45 Y315
G1 X16.2710187850479 Y330
G1 X45 Y345
G1 X16.2710187850479 Y360
G1 X45 Y375
G1 X16.2710187850479 Y390
G0 Z5
G0 X131.728981214952 Y0
G1 Z0
G1 X103 Y15
G1 X131.728981214952 Y30
G1 X103 Y45
G1 X131.728981214952 Y60
G1 X103 Y75
G1 X131.728981214952 Y90
G1 X103 Y105
G1 X131.728981214952 Y120
G1 X103 Y135
G1 X131.728981214952 Y150
G1 X103 Y165
G1 X131.728981214952 Y180
G1 X103 Y195
G1 X131.728981214952 Y210
G1 X103 Y225
G1 X131.728981214952 Y240
G1 X103 Y255
G1 X131.728981214952 Y270
G1 X103 Y285
G1 X131.728981214952 Y300
G1 X103 Y315
G1 X131.728981214952 Y330
G1 X103 Y345
G1 X131.728981214952 Y360
G1 X103 Y375
G1 X131.728981214952 Y390
G0 Z5
G0 X0 Y0
G1 Z0
G1 X0 Y390
G1 X148 Y390
G1 X148 Y0
G0 Z5
M30
