%
G17 G21 G40 G90 G64 P0.1
(2 1/2 Axis Profiling)
(SlotDrill 1/8in 3.175mm Carbide Aluminium Cut)
T6 M06
S24000 M3
G0 Z1.5875
X118.35581 Y27.39279
G1 Z-0.875 F1170.
Y21.39279 F3510.
G17
G03 X124.85581 Y14.89279 I6.5 J0.
G1 X214.56616 F4680.
G03 X233.67058 Y146.25223 I-103.91417 J82.18184
X214.52602 Y179.30721 I-123.01859 J-49.1776
G1 X57.79396
G03 X57.75381 Y14.89279 I103.87403 J-82.23258
G1 X124.85581
G03 X130.85581 Y20.89279 I0. J6. F5000.
G1 Y27.24279
G0 Z1.5875
X118.35581 Y27.39279
G1 Z-1.75 F1170.
Y21.39279 F3510.
G03 X124.85581 Y14.89279 I6.5 J0.
G1 X214.56616 F4680.
G03 X233.67058 Y146.25223 I-103.91417 J82.18184
X214.52602 Y179.30721 I-123.01859 J-49.1776
G1 X57.79396
G03 X57.75381 Y14.89279 I103.87403 J-82.23258
G1 X124.85581
G03 X130.85581 Y20.89279 I0. J6. F5000.
G1 Y27.24279
G0 Z1.5875
X118.35581 Y27.39279
G1 Z-2.625 F1170.
Y21.39279 F3510.
G03 X124.85581 Y14.89279 I6.5 J0.
G1 X214.56616 F4680.
G03 X233.67058 Y146.25223 I-103.91417 J82.18184
X214.52602 Y179.30721 I-123.01859 J-49.1776
G1 X57.79396
G03 X57.75381 Y14.89279 I103.87403 J-82.23258
G1 X124.85581
G03 X130.85581 Y20.89279 I0. J6. F5000.
G1 Y27.24279
G0 Z1.5875
X118.35581 Y27.39279
G1 Z-3.5 F1170.
Y21.39279 F3510.
G03 X124.85581 Y14.89279 I6.5 J0.
G1 X214.56616 F4680.
G03 X233.67058 Y146.25223 I-103.91417 J82.18184
X214.52602 Y179.30721 I-123.01859 J-49.1776
G1 X57.79396
G03 X57.75381 Y14.89279 I103.87403 J-82.23258
G1 X124.85581
G03 X130.85581 Y20.89279 I0. J6. F5000.
G1 Y27.24279
G0 Z1.5875
(2 1/2 Axis Profiling-1)
(SlotDrill 1/8in 3.175mm Carbide Aluminium Cut)
X16.69253 Y4.7356
G1 Z-0.875 F1170.
X21.93432 Y7.65512 F3510.
G03 X24.45011 Y16.49654 I-3.16281 J5.67861
G02 X18.90152 Y206.33021 I180.00837 J100.25934 F4680.
X20.33116 Y207.22758 I1.42964 J-0.69013
G1 X251.98882
G02 X253.42795 Y206.31019 I0. J-1.5875
G1 X255.84626 Y201.11627
G02 X237.00789 Y-0.90654 I-187.98476 J-84.36039
X235.70468 Y-1.5875 I-1.30321 J0.90654
G1 X36.61529
G02 X35.31209 Y-0.90654 I0. J1.5875
X24.45011 Y16.49654 I169.14639 J117.66242
G03 X16.2888 Y18.81881 I-5.24179 J-2.91952 F5000.
G1 X10.74123 Y15.72898
G0 Z1.5875
X16.69253 Y4.7356
G1 Z-1.75 F1170.
X21.93432 Y7.65512 F3510.
G03 X24.45011 Y16.49654 I-3.16281 J5.67861
G02 X18.90152 Y206.33021 I180.00837 J100.25934 F4680.
X20.33116 Y207.22758 I1.42964 J-0.69013
G1 X251.98882
G02 X253.42795 Y206.31019 I0. J-1.5875
G1 X255.84626 Y201.11627
G02 X237.00789 Y-0.90654 I-187.98476 J-84.36039
X235.70468 Y-1.5875 I-1.30321 J0.90654
G1 X36.61529
G02 X35.31209 Y-0.90654 I0. J1.5875
X24.45011 Y16.49654 I169.14639 J117.66242
G03 X16.2888 Y18.81881 I-5.24179 J-2.91952 F5000.
G1 X10.74123 Y15.72898
G0 Z1.5875
X16.69253 Y4.7356
G1 Z-2.625 F1170.
X21.93432 Y7.65512 F3510.
G03 X24.45011 Y16.49654 I-3.16281 J5.67861
G02 X18.90152 Y206.33021 I180.00837 J100.25934 F4680.
X20.33116 Y207.22758 I1.42964 J-0.69013
G1 X251.98882
G02 X253.42795 Y206.31019 I0. J-1.5875
G1 X255.84626 Y201.11627
G02 X237.00789 Y-0.90654 I-187.98476 J-84.36039
X235.70468 Y-1.5875 I-1.30321 J0.90654
G1 X36.61529
G02 X35.31209 Y-0.90654 I0. J1.5875
X24.45011 Y16.49654 I169.14639 J117.66242
G03 X16.2888 Y18.81881 I-5.24179 J-2.91952 F5000.
G1 X10.74123 Y15.72898
G0 Z1.5875
X16.69253 Y4.7356
G1 Z-3.5 F1170.
X21.93432 Y7.65512 F3510.
G03 X24.45011 Y16.49654 I-3.16281 J5.67861
G02 X18.90152 Y206.33021 I180.00837 J100.25934 F4680.
X20.33116 Y207.22758 I1.42964 J-0.69013
G1 X251.98882
G02 X253.42795 Y206.31019 I0. J-1.5875
G1 X255.84626 Y201.11627
G02 X237.00789 Y-0.90654 I-187.98476 J-84.36039
X235.70468 Y-1.5875 I-1.30321 J0.90654
G1 X36.61529
G02 X35.31209 Y-0.90654 I0. J1.5875
X24.45011 Y16.49654 I169.14639 J117.66242
G03 X16.2888 Y18.81881 I-5.24179 J-2.91952 F5000.
G1 X10.74123 Y15.72898
G0 Z1.5875
M30
%
