%
(1001)
(T1  D=2. CR=0. - ZMIN=-7. - FLAT END MILL)
G90 G94 G17 G91.1 G64 P0.1
G21
G53 G0 Z0.
(BORE1)
T1 M6
S24000 M3
G54
B0.
G0 G43 X94.86 Y7.8 Z15. H1
G0 Z1.8
G1 Z0. F1000.
X94.96
X94.985 Y7.793
X95.003 Y7.775
X95.01 Y7.75
X95.002 Y7.711 Z-0.019
X94.98 Y7.678 Z-0.038
X94.946 Y7.657 Z-0.057
X94.907 Y7.65 Z-0.077
X94.868 Y7.659 Z-0.096
X94.836 Y7.683 Z-0.115
X94.816 Y7.717 Z-0.134
X94.81 Y7.756 Z-0.153
X94.821 Y7.795 Z-0.172
X94.845 Y7.826 Z-0.191
X94.88 Y7.845 Z-0.21
X94.919 Y7.85 Z-0.23
X94.958 Y7.838 Z-0.249
X94.988 Y7.813 Z-0.268
X95.006 Y7.777 Z-0.287
X95.009 Y7.737 Z-0.306
X94.996 Y7.7 Z-0.325
X94.97 Y7.67 Z-0.344
X94.934 Y7.653 Z-0.363
X94.894 Y7.651 Z-0.383
X94.857 Y7.665 Z-0.402
X94.828 Y7.693 Z-0.421
X94.812 Y7.729 Z-0.44
Y7.769 Z-0.459
X94.827 Y7.806 Z-0.478
X94.855 Y7.834 Z-0.497
X94.892 Y7.848 Z-0.516
X94.932 Z-0.536
X94.968 Y7.831 Z-0.555
X94.995 Y7.802 Z-0.574
X95.009 Y7.765 Z-0.593
X95.007 Y7.725 Z-0.612
X94.989 Y7.689 Z-0.631
X94.96 Y7.663 Z-0.65
X94.922 Y7.651 Z-0.669
X94.882 Y7.654 Z-0.689
X94.847 Y7.672 Z-0.708
X94.822 Y7.703 Z-0.727
X94.81 Y7.741 Z-0.746
X94.815 Y7.781 Z-0.765
X94.835 Y7.816 Z-0.784
X94.866 Y7.84 Z-0.803
X94.905 Y7.85 Z-0.822
X94.944 Y7.844 Z-0.842
X94.978 Y7.823 Z-0.861
X95.001 Y7.791 Z-0.88
X95.01 Y7.752 Z-0.899
X95.003 Y7.713 Z-0.918
X94.981 Y7.68 Z-0.937
X94.948 Y7.658 Z-0.956
X94.909 Y7.65 Z-0.975
X94.87 Y7.658 Z-0.995
X94.838 Y7.681 Z-1.014
X94.816 Y7.715 Z-1.033
X94.81 Y7.754 Z-1.052
X94.82 Y7.793 Z-1.071
X94.843 Y7.825 Z-1.09
X94.878 Y7.845 Z-1.109
X94.917 Y7.85 Z-1.128
X94.955 Y7.839 Z-1.148
X94.987 Y7.814 Z-1.167
X95.006 Y7.779 Z-1.186
X95.009 Y7.74 Z-1.205
X94.998 Y7.702 Z-1.224
X94.972 Y7.671 Z-1.243
X94.936 Y7.654 Z-1.262
X94.897 Y7.651 Z-1.281
X94.859 Y7.664 Z-1.301
X94.83 Y7.691 Z-1.32
X94.813 Y7.727 Z-1.339
X94.811 Y7.767 Z-1.358
X94.826 Y7.804 Z-1.377
X94.853 Y7.832 Z-1.396
X94.89 Y7.848 Z-1.415
X94.93 Z-1.434
X94.966 Y7.833 Z-1.454
X94.994 Y7.804 Z-1.473
X95.009 Y7.767 Z-1.492
X95.007 Y7.727 Z-1.511
X94.991 Y7.691 Z-1.53
X94.961 Y7.664 Z-1.549
X94.924 Y7.651 Z-1.568
X94.884 Y7.653 Z-1.587
X94.849 Y7.671 Z-1.607
X94.823 Y7.701 Z-1.626
X94.811 Y7.739 Z-1.645
X94.814 Y7.779 Z-1.664
X94.833 Y7.814 Z-1.683
X94.864 Y7.839 Z-1.702
X94.902 Y7.85 Z-1.721
X94.942 Y7.845 Z-1.74
X94.976 Y7.825 Z-1.76
X95. Y7.793 Z-1.779
X95.01 Y7.755 Z-1.798
X95.004 Y7.715 Z-1.817
X94.983 Y7.681 Z-1.836
X94.95 Y7.658 Z-1.855
X94.911 Y7.65 Z-1.874
X94.872 Y7.657 Z-1.893
X94.839 Y7.679 Z-1.913
X94.817 Y7.713 Z-1.932
X94.81 Y7.752 Z-1.951
X94.819 Y7.791 Z-1.97
X94.842 Y7.823 Z-1.989
X94.876 Y7.844 Z-2.008
X94.915 Y7.85 Z-2.027
X94.953 Y7.84 Z-2.046
X94.985 Y7.816 Z-2.066
X95.005 Y7.781 Z-2.085
X95.01 Y7.742 Z-2.104
X94.999 Y7.704 Z-2.123
X94.974 Y7.673 Z-2.142
X94.939 Y7.654 Z-2.161
X94.899 Y7.651 Z-2.18
X94.861 Y7.663 Z-2.199
X94.831 Y7.689 Z-2.219
X94.813 Y7.725 Z-2.238
X94.811 Y7.764 Z-2.257
X94.824 Y7.802 Z-2.276
X94.851 Y7.831 Z-2.295
X94.888 Y7.847 Z-2.314
X94.927 Y7.848 Z-2.333
X94.964 Y7.834 Z-2.352
X94.993 Y7.806 Z-2.372
X95.008 Y7.769 Z-2.391
Y7.73 Z-2.41
X94.992 Y7.693 Z-2.429
X94.963 Y7.665 Z-2.448
X94.926 Y7.651 Z-2.467
X94.886 Y7.653 Z-2.486
X94.85 Y7.67 Z-2.505
X94.824 Y7.699 Z-2.525
X94.811 Y7.737 Z-2.544
X94.814 Y7.777 Z-2.563
X94.832 Y7.812 Z-2.582
X94.862 Y7.838 Z-2.601
X94.9 Y7.849 Z-2.62
X94.94 Y7.846 Z-2.639
X94.975 Y7.826 Z-2.658
X94.999 Y7.795 Z-2.678
X95.01 Y7.757 Z-2.697
X95.005 Y7.717 Z-2.716
X94.984 Y7.683 Z-2.735
X94.952 Y7.659 Z-2.754
X94.914 Y7.65 Z-2.773
X94.874 Y7.657 Z-2.792
X94.841 Y7.678 Z-2.811
X94.818 Y7.71 Z-2.831
X94.81 Y7.749 Z-2.85
X94.818 Y7.788 Z-2.869
X94.84 Y7.821 Z-2.888
X94.873 Y7.843 Z-2.907
X94.913 Y7.85 Z-2.926
X94.951 Y7.841 Z-2.945
X94.984 Y7.818 Z-2.964
X95.004 Y7.784 Z-2.984
X95.01 Y7.744 Z-3.003
X95. Y7.706 Z-3.022
X94.975 Y7.674 Z-3.041
X94.941 Y7.655 Z-3.06
X94.901 Y7.65 Z-3.079
X94.863 Y7.662 Z-3.098
X94.832 Y7.687 Z-3.117
X94.814 Y7.722 Z-3.137
X94.811 Y7.762 Z-3.156
X94.823 Y7.8 Z-3.175
X94.85 Y7.83 Z-3.194
X94.885 Y7.847 Z-3.213
X94.925 Y7.849 Z-3.232
X94.962 Y7.835 Z-3.251
X94.992 Y7.808 Z-3.27
X95.008 Y7.772 Z-3.29
Y7.732 Z-3.309
X94.993 Y7.695 Z-3.328
X94.965 Y7.667 Z-3.347
X94.928 Y7.652 Z-3.366
X94.889 Z-3.385
X94.852 Y7.668 Z-3.404
X94.825 Y7.697 Z-3.423
X94.811 Y7.735 Z-3.443
X94.813 Y7.774 Z-3.462
X94.83 Y7.81 Z-3.481
X94.86 Y7.837 Z-3.5
X94.898 Y7.849 Z-3.519
X94.937 Y7.846 Z-3.538
X94.973 Y7.828 Z-3.557
X94.998 Y7.797 Z-3.577
X95.01 Y7.759 Z-3.596
X95.005 Y7.72 Z-3.615
X94.986 Y7.685 Z-3.634
X94.954 Y7.66 Z-3.653
X94.916 Y7.65 Z-3.672
X94.877 Y7.656 Z-3.691
X94.842 Y7.676 Z-3.71
X94.819 Y7.708 Z-3.73
X94.81 Y7.747 Z-3.749
X94.817 Y7.786 Z-3.768
X94.838 Y7.82 Z-3.787
X94.871 Y7.842 Z-3.806
X94.91 Y7.85 Z-3.825
X94.949 Y7.842 Z-3.844
X94.982 Y7.819 Z-3.863
X95.003 Y7.786 Z-3.883
X95.01 Y7.747 Z-3.902
X95.001 Y7.708 Z-3.921
X94.977 Y7.676 Z-3.94
X94.943 Y7.656 Z-3.959
X94.903 Y7.65 Z-3.978
X94.865 Y7.661 Z-3.997
X94.834 Y7.685 Z-4.016
X94.815 Y7.72 Z-4.036
X94.81 Y7.76 Z-4.055
X94.822 Y7.798 Z-4.074
X94.848 Y7.828 Z-4.093
X94.883 Y7.846 Z-4.112
X94.923 Y7.849 Z-4.131
X94.96 Y7.836 Z-4.15
X94.99 Y7.81 Z-4.169
X95.007 Y7.774 Z-4.189
X95.009 Y7.734 Z-4.208
X94.995 Y7.697 Z-4.227
X94.967 Y7.668 Z-4.246
X94.931 Y7.652 Z-4.265
X94.891 Z-4.284
X94.854 Y7.667 Z-4.303
X94.826 Y7.695 Z-4.322
X94.812 Y7.732 Z-4.342
Y7.772 Z-4.361
X94.829 Y7.808 Z-4.38
X94.858 Y7.835 Z-4.399
X94.895 Y7.849 Z-4.418
X94.935 Y7.847 Z-4.437
X94.971 Y7.829 Z-4.456
X94.997 Y7.799 Z-4.475
X95.009 Y7.761 Z-4.495
X95.006 Y7.722 Z-4.514
X94.987 Y7.687 Z-4.533
X94.956 Y7.661 Z-4.552
X94.918 Y7.65 Z-4.571
X94.879 Y7.655 Z-4.59
X94.844 Y7.675 Z-4.609
X94.82 Y7.706 Z-4.628
X94.81 Y7.745 Z-4.648
X94.816 Y7.784 Z-4.667
X94.837 Y7.818 Z-4.686
X94.869 Y7.841 Z-4.705
X94.908 Y7.85 Z-4.724
X94.947 Y7.843 Z-4.743
X94.98 Y7.821 Z-4.762
X95.003 Y7.788 Z-4.781
X95.01 Y7.749 Z-4.801
X95.002 Y7.71 Z-4.82
X94.979 Y7.677 Z-4.839
X94.945 Y7.656 Z-4.858
X94.906 Y7.65 Z-4.877
X94.867 Y7.66 Z-4.896
X94.835 Y7.684 Z-4.915
X94.815 Y7.718 Z-4.934
X94.81 Y7.757 Z-4.954
X94.821 Y7.796 Z-4.973
X94.846 Y7.827 Z-4.992
X94.881 Y7.846 Z-5.011
X94.921 Y7.849 Z-5.03
X94.959 Y7.837 Z-5.049
X94.989 Y7.812 Z-5.068
X95.007 Y7.776 Z-5.087
X95.009 Y7.736 Z-5.107
X94.996 Y7.699 Z-5.126
X94.969 Y7.669 Z-5.145
X94.933 Y7.653 Z-5.164
X94.893 Y7.651 Z-5.183
X94.856 Y7.666 Z-5.202
X94.828 Y7.693 Z-5.221
X94.812 Y7.73 Z-5.24
Y7.77 Z-5.26
X94.828 Y7.807 Z-5.279
X94.856 Y7.834 Z-5.298
X94.893 Y7.849 Z-5.317
X94.933 Y7.847 Z-5.336
X94.969 Y7.831 Z-5.355
X94.996 Y7.801 Z-5.374
X95.009 Y7.764 Z-5.393
X95.007 Y7.724 Z-5.413
X94.989 Y7.688 Z-5.432
X94.959 Y7.663 Z-5.451
X94.921 Y7.651 Z-5.47
X94.881 Y7.654 Z-5.489
X94.846 Y7.673 Z-5.508
X94.821 Y7.704 Z-5.527
X94.81 Y7.743 Z-5.546
X94.815 Y7.782 Z-5.566
X94.835 Y7.816 Z-5.585
X94.867 Y7.84 Z-5.604
X94.906 Y7.85 Z-5.623
X94.945 Y7.844 Z-5.642
X94.979 Y7.823 Z-5.661
X95.002 Y7.79 Z-5.68
X95.01 Y7.751 Z-5.699
X95.003 Y7.712 Z-5.719
X94.98 Y7.679 Z-5.738
X94.947 Y7.657 Z-5.757
X94.908 Y7.65 Z-5.776
X94.869 Y7.659 Z-5.795
X94.837 Y7.682 Z-5.814
X94.816 Y7.716 Z-5.833
X94.81 Y7.755 Z-5.852
X94.82 Y7.794 Z-5.872
X94.844 Y7.825 Z-5.891
X94.879 Y7.845 Z-5.91
X94.918 Y7.85 Z-5.929
X94.956 Y7.839 Z-5.948
X94.987 Y7.813 Z-5.967
X95.006 Y7.778 Z-5.986
X95.009 Y7.739 Z-6.005
X94.997 Y7.701 Z-6.025
X94.971 Y7.671 Z-6.044
X94.935 Y7.653 Z-6.063
X94.895 Y7.651 Z-6.082
X94.858 Y7.665 Z-6.101
X94.829 Y7.692 Z-6.12
X94.812 Y7.728 Z-6.139
Y7.768 Z-6.158
X94.826 Y7.805 Z-6.178
X94.854 Y7.833 Z-6.197
X94.891 Y7.848 Z-6.216
X94.931 Z-6.235
X94.967 Y7.832 Z-6.254
X94.995 Y7.803 Z-6.273
X95.009 Y7.766 Z-6.292
X95.007 Y7.726 Z-6.311
X94.99 Y7.69 Z-6.331
X94.96 Y7.664 Z-6.35
X94.923 Y7.651 Z-6.369
X94.883 Y7.654 Z-6.388
X94.848 Y7.672 Z-6.407
X94.822 Y7.702 Z-6.426
X94.81 Y7.74 Z-6.445
X94.815 Y7.78 Z-6.464
X94.834 Y7.815 Z-6.484
X94.865 Y7.839 Z-6.503
X94.903 Y7.85 Z-6.522
X94.943 Y7.844 Z-6.541
X94.977 Y7.824 Z-6.56
X95.001 Y7.792 Z-6.579
X95.01 Y7.753 Z-6.598
X95.003 Y7.714 Z-6.617
X94.982 Y7.681 Z-6.637
X94.949 Y7.658 Z-6.656
X94.91 Y7.65 Z-6.675
X94.871 Y7.658 Z-6.694
X94.838 Y7.68 Z-6.713
X94.817 Y7.714 Z-6.732
X94.81 Y7.753 Z-6.751
X94.819 Y7.792 Z-6.77
X94.842 Y7.824 Z-6.79
X94.877 Y7.844 Z-6.809
X94.916 Y7.85 Z-6.828
X94.954 Y7.84 Z-6.847
X94.986 Y7.815 Z-6.866
X95.005 Y7.78 Z-6.885
X95.01 Y7.741 Z-6.904
X94.998 Y7.703 Z-6.923
X94.973 Y7.672 Z-6.943
X94.937 Y7.654 Z-6.962
X94.898 Y7.651 Z-6.981
X94.86 Y7.663 Z-7.
G2 X94.823 Y7.8 R0.1
X94.96 Y7.837 R0.1
X94.997 Y7.7 R0.1
X94.86 Y7.663 R0.1
G1 X94.842 Y7.682
X94.835 Y7.707
X94.842 Y7.732
X94.892 Y7.818
G0 Z5.
X94.86 Y33.3
Z1.8
G1 Z0. F1000.
X94.96
X94.985 Y33.293
X95.003 Y33.275
X95.01 Y33.25
X95.002 Y33.211 Z-0.019
X94.98 Y33.178 Z-0.038
X94.946 Y33.157 Z-0.057
X94.907 Y33.15 Z-0.077
X94.868 Y33.159 Z-0.096
X94.836 Y33.183 Z-0.115
X94.816 Y33.217 Z-0.134
X94.81 Y33.256 Z-0.153
X94.821 Y33.295 Z-0.172
X94.845 Y33.326 Z-0.191
X94.88 Y33.345 Z-0.21
X94.919 Y33.35 Z-0.23
X94.958 Y33.338 Z-0.249
X94.988 Y33.313 Z-0.268
X95.006 Y33.277 Z-0.287
X95.009 Y33.237 Z-0.306
X94.996 Y33.2 Z-0.325
X94.97 Y33.17 Z-0.344
X94.934 Y33.153 Z-0.363
X94.894 Y33.151 Z-0.383
X94.857 Y33.165 Z-0.402
X94.828 Y33.193 Z-0.421
X94.812 Y33.229 Z-0.44
Y33.269 Z-0.459
X94.827 Y33.306 Z-0.478
X94.855 Y33.334 Z-0.497
X94.892 Y33.348 Z-0.516
X94.932 Z-0.536
X94.968 Y33.331 Z-0.555
X94.995 Y33.302 Z-0.574
X95.009 Y33.265 Z-0.593
X95.007 Y33.225 Z-0.612
X94.989 Y33.189 Z-0.631
X94.96 Y33.163 Z-0.65
X94.922 Y33.151 Z-0.669
X94.882 Y33.154 Z-0.689
X94.847 Y33.172 Z-0.708
X94.822 Y33.203 Z-0.727
X94.81 Y33.241 Z-0.746
X94.815 Y33.281 Z-0.765
X94.835 Y33.316 Z-0.784
X94.866 Y33.34 Z-0.803
X94.905 Y33.35 Z-0.822
X94.944 Y33.344 Z-0.842
X94.978 Y33.323 Z-0.861
X95.001 Y33.291 Z-0.88
X95.01 Y33.252 Z-0.899
X95.003 Y33.213 Z-0.918
X94.981 Y33.18 Z-0.937
X94.948 Y33.158 Z-0.956
X94.909 Y33.15 Z-0.975
X94.87 Y33.158 Z-0.995
X94.838 Y33.181 Z-1.014
X94.816 Y33.215 Z-1.033
X94.81 Y33.254 Z-1.052
X94.82 Y33.293 Z-1.071
X94.843 Y33.325 Z-1.09
X94.878 Y33.345 Z-1.109
X94.917 Y33.35 Z-1.128
X94.955 Y33.339 Z-1.148
X94.987 Y33.314 Z-1.167
X95.006 Y33.279 Z-1.186
X95.009 Y33.24 Z-1.205
X94.998 Y33.202 Z-1.224
X94.972 Y33.171 Z-1.243
X94.936 Y33.154 Z-1.262
X94.897 Y33.151 Z-1.281
X94.859 Y33.164 Z-1.301
X94.83 Y33.191 Z-1.32
X94.813 Y33.227 Z-1.339
X94.811 Y33.267 Z-1.358
X94.826 Y33.304 Z-1.377
X94.853 Y33.332 Z-1.396
X94.89 Y33.348 Z-1.415
X94.93 Z-1.434
X94.966 Y33.333 Z-1.454
X94.994 Y33.304 Z-1.473
X95.009 Y33.267 Z-1.492
X95.007 Y33.227 Z-1.511
X94.991 Y33.191 Z-1.53
X94.961 Y33.164 Z-1.549
X94.924 Y33.151 Z-1.568
X94.884 Y33.153 Z-1.587
X94.849 Y33.171 Z-1.607
X94.823 Y33.201 Z-1.626
X94.811 Y33.239 Z-1.645
X94.814 Y33.279 Z-1.664
X94.833 Y33.314 Z-1.683
X94.864 Y33.339 Z-1.702
X94.902 Y33.35 Z-1.721
X94.942 Y33.345 Z-1.74
X94.976 Y33.325 Z-1.76
X95. Y33.293 Z-1.779
X95.01 Y33.255 Z-1.798
X95.004 Y33.215 Z-1.817
X94.983 Y33.181 Z-1.836
X94.95 Y33.158 Z-1.855
X94.911 Y33.15 Z-1.874
X94.872 Y33.157 Z-1.893
X94.839 Y33.179 Z-1.913
X94.817 Y33.213 Z-1.932
X94.81 Y33.252 Z-1.951
X94.819 Y33.291 Z-1.97
X94.842 Y33.323 Z-1.989
X94.876 Y33.344 Z-2.008
X94.915 Y33.35 Z-2.027
X94.953 Y33.34 Z-2.046
X94.985 Y33.316 Z-2.066
X95.005 Y33.281 Z-2.085
X95.01 Y33.242 Z-2.104
X94.999 Y33.204 Z-2.123
X94.974 Y33.173 Z-2.142
X94.938 Y33.154 Z-2.161
X94.899 Y33.151 Z-2.18
X94.861 Y33.163 Z-2.199
X94.831 Y33.189 Z-2.219
X94.813 Y33.225 Z-2.238
X94.811 Y33.264 Z-2.257
X94.824 Y33.302 Z-2.276
X94.851 Y33.331 Z-2.295
X94.888 Y33.347 Z-2.314
X94.927 Y33.348 Z-2.333
X94.964 Y33.334 Z-2.352
X94.993 Y33.306 Z-2.372
X95.008 Y33.269 Z-2.391
Y33.23 Z-2.41
X94.992 Y33.193 Z-2.429
X94.963 Y33.165 Z-2.448
X94.926 Y33.151 Z-2.467
X94.886 Y33.153 Z-2.486
X94.85 Y33.17 Z-2.505
X94.824 Y33.199 Z-2.525
X94.811 Y33.237 Z-2.544
X94.814 Y33.277 Z-2.563
X94.832 Y33.312 Z-2.582
X94.862 Y33.338 Z-2.601
X94.9 Y33.349 Z-2.62
X94.94 Y33.346 Z-2.639
X94.975 Y33.326 Z-2.658
X94.999 Y33.295 Z-2.678
X95.01 Y33.257 Z-2.697
X95.005 Y33.217 Z-2.716
X94.984 Y33.183 Z-2.735
X94.952 Y33.159 Z-2.754
X94.914 Y33.15 Z-2.773
X94.874 Y33.157 Z-2.792
X94.841 Y33.178 Z-2.811
X94.818 Y33.21 Z-2.831
X94.81 Y33.249 Z-2.85
X94.818 Y33.288 Z-2.869
X94.84 Y33.321 Z-2.888
X94.873 Y33.343 Z-2.907
X94.913 Y33.35 Z-2.926
X94.951 Y33.341 Z-2.945
X94.984 Y33.318 Z-2.964
X95.004 Y33.284 Z-2.984
X95.01 Y33.244 Z-3.003
X95. Y33.206 Z-3.022
X94.975 Y33.174 Z-3.041
X94.941 Y33.155 Z-3.06
X94.901 Y33.15 Z-3.079
X94.863 Y33.162 Z-3.098
X94.832 Y33.187 Z-3.117
X94.814 Y33.222 Z-3.137
X94.811 Y33.262 Z-3.156
X94.823 Y33.3 Z-3.175
X94.85 Y33.33 Z-3.194
X94.885 Y33.347 Z-3.213
X94.925 Y33.349 Z-3.232
X94.962 Y33.335 Z-3.251
X94.992 Y33.308 Z-3.27
X95.008 Y33.272 Z-3.29
Y33.232 Z-3.309
X94.993 Y33.195 Z-3.328
X94.965 Y33.167 Z-3.347
X94.928 Y33.152 Z-3.366
X94.889 Z-3.385
X94.852 Y33.168 Z-3.404
X94.825 Y33.197 Z-3.423
X94.811 Y33.235 Z-3.443
X94.813 Y33.274 Z-3.462
X94.83 Y33.31 Z-3.481
X94.86 Y33.337 Z-3.5
X94.898 Y33.349 Z-3.519
X94.937 Y33.346 Z-3.538
X94.973 Y33.328 Z-3.557
X94.998 Y33.297 Z-3.577
X95.01 Y33.259 Z-3.596
X95.005 Y33.22 Z-3.615
X94.986 Y33.185 Z-3.634
X94.954 Y33.16 Z-3.653
X94.916 Y33.15 Z-3.672
X94.877 Y33.156 Z-3.691
X94.842 Y33.176 Z-3.71
X94.819 Y33.208 Z-3.73
X94.81 Y33.247 Z-3.749
X94.817 Y33.286 Z-3.768
X94.838 Y33.32 Z-3.787
X94.871 Y33.342 Z-3.806
X94.91 Y33.35 Z-3.825
X94.949 Y33.342 Z-3.844
X94.982 Y33.319 Z-3.863
X95.003 Y33.286 Z-3.883
X95.01 Y33.247 Z-3.902
X95.001 Y33.208 Z-3.921
X94.977 Y33.176 Z-3.94
X94.943 Y33.156 Z-3.959
X94.903 Y33.15 Z-3.978
X94.865 Y33.161 Z-3.997
X94.834 Y33.185 Z-4.016
X94.815 Y33.22 Z-4.036
X94.81 Y33.26 Z-4.055
X94.822 Y33.298 Z-4.074
X94.848 Y33.328 Z-4.093
X94.883 Y33.346 Z-4.112
X94.923 Y33.349 Z-4.131
X94.96 Y33.336 Z-4.15
X94.99 Y33.31 Z-4.169
X95.007 Y33.274 Z-4.189
X95.009 Y33.234 Z-4.208
X94.995 Y33.197 Z-4.227
X94.967 Y33.168 Z-4.246
X94.931 Y33.152 Z-4.265
X94.891 Z-4.284
X94.854 Y33.167 Z-4.303
X94.826 Y33.195 Z-4.322
X94.812 Y33.232 Z-4.342
Y33.272 Z-4.361
X94.829 Y33.308 Z-4.38
X94.858 Y33.335 Z-4.399
X94.895 Y33.349 Z-4.418
X94.935 Y33.347 Z-4.437
X94.971 Y33.329 Z-4.456
X94.997 Y33.299 Z-4.475
X95.009 Y33.261 Z-4.495
X95.006 Y33.222 Z-4.514
X94.987 Y33.187 Z-4.533
X94.956 Y33.161 Z-4.552
X94.918 Y33.15 Z-4.571
X94.879 Y33.155 Z-4.59
X94.844 Y33.175 Z-4.609
X94.82 Y33.206 Z-4.628
X94.81 Y33.245 Z-4.648
X94.816 Y33.284 Z-4.667
X94.837 Y33.318 Z-4.686
X94.869 Y33.341 Z-4.705
X94.908 Y33.35 Z-4.724
X94.947 Y33.343 Z-4.743
X94.98 Y33.321 Z-4.762
X95.003 Y33.288 Z-4.781
X95.01 Y33.249 Z-4.801
X95.002 Y33.21 Z-4.82
X94.979 Y33.177 Z-4.839
X94.945 Y33.156 Z-4.858
X94.906 Y33.15 Z-4.877
X94.867 Y33.16 Z-4.896
X94.835 Y33.184 Z-4.915
X94.815 Y33.218 Z-4.934
X94.81 Y33.257 Z-4.954
X94.821 Y33.296 Z-4.973
X94.846 Y33.327 Z-4.992
X94.881 Y33.346 Z-5.011
X94.921 Y33.349 Z-5.03
X94.959 Y33.337 Z-5.049
X94.989 Y33.312 Z-5.068
X95.007 Y33.276 Z-5.087
X95.009 Y33.236 Z-5.107
X94.996 Y33.199 Z-5.126
X94.969 Y33.169 Z-5.145
X94.933 Y33.153 Z-5.164
X94.893 Y33.151 Z-5.183
X94.856 Y33.166 Z-5.202
X94.828 Y33.193 Z-5.221
X94.812 Y33.23 Z-5.24
Y33.27 Z-5.26
X94.828 Y33.307 Z-5.279
X94.856 Y33.334 Z-5.298
X94.893 Y33.349 Z-5.317
X94.933 Y33.347 Z-5.336
X94.969 Y33.331 Z-5.355
X94.996 Y33.301 Z-5.374
X95.009 Y33.264 Z-5.393
X95.007 Y33.224 Z-5.413
X94.989 Y33.188 Z-5.432
X94.959 Y33.163 Z-5.451
X94.921 Y33.151 Z-5.47
X94.881 Y33.154 Z-5.489
X94.846 Y33.173 Z-5.508
X94.821 Y33.204 Z-5.527
X94.81 Y33.243 Z-5.546
X94.815 Y33.282 Z-5.566
X94.835 Y33.316 Z-5.585
X94.867 Y33.34 Z-5.604
X94.906 Y33.35 Z-5.623
X94.945 Y33.344 Z-5.642
X94.979 Y33.323 Z-5.661
X95.002 Y33.29 Z-5.68
X95.01 Y33.251 Z-5.699
X95.003 Y33.212 Z-5.719
X94.98 Y33.179 Z-5.738
X94.947 Y33.157 Z-5.757
X94.908 Y33.15 Z-5.776
X94.869 Y33.159 Z-5.795
X94.837 Y33.182 Z-5.814
X94.816 Y33.216 Z-5.833
X94.81 Y33.255 Z-5.852
X94.82 Y33.294 Z-5.872
X94.844 Y33.325 Z-5.891
X94.879 Y33.345 Z-5.91
X94.918 Y33.35 Z-5.929
X94.956 Y33.339 Z-5.948
X94.987 Y33.313 Z-5.967
X95.006 Y33.278 Z-5.986
X95.009 Y33.239 Z-6.005
X94.997 Y33.201 Z-6.025
X94.971 Y33.171 Z-6.044
X94.935 Y33.153 Z-6.063
X94.895 Y33.151 Z-6.082
X94.858 Y33.165 Z-6.101
X94.829 Y33.192 Z-6.12
X94.812 Y33.228 Z-6.139
Y33.268 Z-6.158
X94.826 Y33.305 Z-6.178
X94.854 Y33.333 Z-6.197
X94.891 Y33.348 Z-6.216
X94.931 Z-6.235
X94.967 Y33.332 Z-6.254
X94.995 Y33.303 Z-6.273
X95.009 Y33.266 Z-6.292
X95.007 Y33.226 Z-6.311
X94.99 Y33.19 Z-6.331
X94.96 Y33.164 Z-6.35
X94.923 Y33.151 Z-6.369
X94.883 Y33.154 Z-6.388
X94.848 Y33.172 Z-6.407
X94.822 Y33.202 Z-6.426
X94.81 Y33.24 Z-6.445
X94.815 Y33.28 Z-6.464
X94.834 Y33.315 Z-6.484
X94.865 Y33.339 Z-6.503
X94.903 Y33.35 Z-6.522
X94.943 Y33.344 Z-6.541
X94.977 Y33.324 Z-6.56
X95.001 Y33.292 Z-6.579
X95.01 Y33.253 Z-6.598
X95.003 Y33.214 Z-6.617
X94.982 Y33.181 Z-6.637
X94.949 Y33.158 Z-6.656
X94.91 Y33.15 Z-6.675
X94.871 Y33.158 Z-6.694
X94.838 Y33.18 Z-6.713
X94.817 Y33.214 Z-6.732
X94.81 Y33.253 Z-6.751
X94.819 Y33.292 Z-6.77
X94.842 Y33.324 Z-6.79
X94.877 Y33.344 Z-6.809
X94.916 Y33.35 Z-6.828
X94.954 Y33.34 Z-6.847
X94.986 Y33.315 Z-6.866
X95.005 Y33.28 Z-6.885
X95.01 Y33.241 Z-6.904
X94.998 Y33.203 Z-6.923
X94.973 Y33.172 Z-6.943
X94.937 Y33.154 Z-6.962
X94.898 Y33.151 Z-6.981
X94.86 Y33.163 Z-7.
G2 X94.823 Y33.3 R0.1
X94.96 Y33.337 R0.1
X94.997 Y33.2 R0.1
X94.86 Y33.163 R0.1
G1 X94.842 Y33.182
X94.835 Y33.207
X94.842 Y33.232
X94.892 Y33.318
G0 Z5.
X3.46 Y33.3
Z1.8
G1 Z0. F1000.
X3.56
X3.585 Y33.293
X3.603 Y33.275
X3.61 Y33.25
X3.602 Y33.211 Z-0.019
X3.58 Y33.178 Z-0.038
X3.546 Y33.157 Z-0.057
X3.507 Y33.15 Z-0.077
X3.468 Y33.159 Z-0.096
X3.436 Y33.183 Z-0.115
X3.416 Y33.217 Z-0.134
X3.41 Y33.256 Z-0.153
X3.421 Y33.295 Z-0.172
X3.445 Y33.326 Z-0.191
X3.48 Y33.345 Z-0.21
X3.519 Y33.35 Z-0.23
X3.558 Y33.338 Z-0.249
X3.588 Y33.313 Z-0.268
X3.606 Y33.277 Z-0.287
X3.609 Y33.237 Z-0.306
X3.596 Y33.2 Z-0.325
X3.57 Y33.17 Z-0.344
X3.534 Y33.153 Z-0.363
X3.494 Y33.151 Z-0.383
X3.457 Y33.165 Z-0.402
X3.428 Y33.193 Z-0.421
X3.412 Y33.229 Z-0.44
Y33.269 Z-0.459
X3.427 Y33.306 Z-0.478
X3.455 Y33.334 Z-0.497
X3.492 Y33.348 Z-0.516
X3.532 Z-0.536
X3.568 Y33.331 Z-0.555
X3.595 Y33.302 Z-0.574
X3.609 Y33.265 Z-0.593
X3.607 Y33.225 Z-0.612
X3.589 Y33.189 Z-0.631
X3.56 Y33.163 Z-0.65
X3.522 Y33.151 Z-0.669
X3.482 Y33.154 Z-0.689
X3.447 Y33.172 Z-0.708
X3.422 Y33.203 Z-0.727
X3.41 Y33.241 Z-0.746
X3.415 Y33.281 Z-0.765
X3.435 Y33.316 Z-0.784
X3.466 Y33.34 Z-0.803
X3.505 Y33.35 Z-0.822
X3.544 Y33.344 Z-0.842
X3.578 Y33.323 Z-0.861
X3.601 Y33.291 Z-0.88
X3.61 Y33.252 Z-0.899
X3.603 Y33.213 Z-0.918
X3.581 Y33.18 Z-0.937
X3.548 Y33.158 Z-0.956
X3.509 Y33.15 Z-0.975
X3.47 Y33.158 Z-0.995
X3.438 Y33.181 Z-1.014
X3.416 Y33.215 Z-1.033
X3.41 Y33.254 Z-1.052
X3.42 Y33.293 Z-1.071
X3.443 Y33.325 Z-1.09
X3.478 Y33.345 Z-1.109
X3.517 Y33.35 Z-1.128
X3.555 Y33.339 Z-1.148
X3.587 Y33.314 Z-1.167
X3.606 Y33.279 Z-1.186
X3.609 Y33.24 Z-1.205
X3.598 Y33.202 Z-1.224
X3.572 Y33.171 Z-1.243
X3.536 Y33.154 Z-1.262
X3.497 Y33.151 Z-1.281
X3.459 Y33.164 Z-1.301
X3.43 Y33.191 Z-1.32
X3.413 Y33.227 Z-1.339
X3.411 Y33.267 Z-1.358
X3.426 Y33.304 Z-1.377
X3.453 Y33.332 Z-1.396
X3.49 Y33.348 Z-1.415
X3.53 Z-1.434
X3.566 Y33.333 Z-1.454
X3.594 Y33.304 Z-1.473
X3.609 Y33.267 Z-1.492
X3.607 Y33.227 Z-1.511
X3.591 Y33.191 Z-1.53
X3.561 Y33.164 Z-1.549
X3.524 Y33.151 Z-1.568
X3.484 Y33.153 Z-1.587
X3.449 Y33.171 Z-1.607
X3.423 Y33.201 Z-1.626
X3.411 Y33.239 Z-1.645
X3.414 Y33.279 Z-1.664
X3.433 Y33.314 Z-1.683
X3.464 Y33.339 Z-1.702
X3.502 Y33.35 Z-1.721
X3.542 Y33.345 Z-1.74
X3.576 Y33.325 Z-1.76
X3.6 Y33.293 Z-1.779
X3.61 Y33.255 Z-1.798
X3.604 Y33.215 Z-1.817
X3.583 Y33.181 Z-1.836
X3.55 Y33.158 Z-1.855
X3.511 Y33.15 Z-1.874
X3.472 Y33.157 Z-1.893
X3.439 Y33.179 Z-1.913
X3.417 Y33.213 Z-1.932
X3.41 Y33.252 Z-1.951
X3.419 Y33.291 Z-1.97
X3.442 Y33.323 Z-1.989
X3.476 Y33.344 Z-2.008
X3.515 Y33.35 Z-2.027
X3.553 Y33.34 Z-2.046
X3.585 Y33.316 Z-2.066
X3.605 Y33.281 Z-2.085
X3.61 Y33.242 Z-2.104
X3.599 Y33.204 Z-2.123
X3.574 Y33.173 Z-2.142
X3.538 Y33.154 Z-2.161
X3.499 Y33.151 Z-2.18
X3.461 Y33.163 Z-2.199
X3.431 Y33.189 Z-2.219
X3.413 Y33.225 Z-2.238
X3.411 Y33.264 Z-2.257
X3.424 Y33.302 Z-2.276
X3.451 Y33.331 Z-2.295
X3.488 Y33.347 Z-2.314
X3.527 Y33.348 Z-2.333
X3.564 Y33.334 Z-2.352
X3.593 Y33.306 Z-2.372
X3.608 Y33.269 Z-2.391
Y33.23 Z-2.41
X3.592 Y33.193 Z-2.429
X3.563 Y33.165 Z-2.448
X3.526 Y33.151 Z-2.467
X3.486 Y33.153 Z-2.486
X3.45 Y33.17 Z-2.505
X3.424 Y33.199 Z-2.525
X3.411 Y33.237 Z-2.544
X3.414 Y33.277 Z-2.563
X3.432 Y33.312 Z-2.582
X3.462 Y33.338 Z-2.601
X3.5 Y33.349 Z-2.62
X3.54 Y33.346 Z-2.639
X3.574 Y33.326 Z-2.658
X3.599 Y33.295 Z-2.678
X3.61 Y33.257 Z-2.697
X3.605 Y33.217 Z-2.716
X3.584 Y33.183 Z-2.735
X3.552 Y33.159 Z-2.754
X3.514 Y33.15 Z-2.773
X3.474 Y33.157 Z-2.792
X3.441 Y33.178 Z-2.811
X3.418 Y33.21 Z-2.831
X3.41 Y33.249 Z-2.85
X3.418 Y33.288 Z-2.869
X3.44 Y33.321 Z-2.888
X3.473 Y33.343 Z-2.907
X3.513 Y33.35 Z-2.926
X3.551 Y33.341 Z-2.945
X3.584 Y33.318 Z-2.964
X3.604 Y33.284 Z-2.984
X3.61 Y33.244 Z-3.003
X3.6 Y33.206 Z-3.022
X3.575 Y33.174 Z-3.041
X3.541 Y33.155 Z-3.06
X3.501 Y33.15 Z-3.079
X3.463 Y33.162 Z-3.098
X3.432 Y33.187 Z-3.117
X3.414 Y33.222 Z-3.137
X3.411 Y33.262 Z-3.156
X3.423 Y33.3 Z-3.175
X3.45 Y33.33 Z-3.194
X3.485 Y33.347 Z-3.213
X3.525 Y33.349 Z-3.232
X3.562 Y33.335 Z-3.251
X3.592 Y33.308 Z-3.27
X3.608 Y33.272 Z-3.29
Y33.232 Z-3.309
X3.593 Y33.195 Z-3.328
X3.565 Y33.167 Z-3.347
X3.528 Y33.152 Z-3.366
X3.489 Z-3.385
X3.452 Y33.168 Z-3.404
X3.425 Y33.197 Z-3.423
X3.411 Y33.235 Z-3.443
X3.413 Y33.274 Z-3.462
X3.43 Y33.31 Z-3.481
X3.46 Y33.337 Z-3.5
X3.498 Y33.349 Z-3.519
X3.537 Y33.346 Z-3.538
X3.573 Y33.328 Z-3.557
X3.598 Y33.297 Z-3.577
X3.61 Y33.259 Z-3.596
X3.605 Y33.22 Z-3.615
X3.586 Y33.185 Z-3.634
X3.554 Y33.16 Z-3.653
X3.516 Y33.15 Z-3.672
X3.477 Y33.156 Z-3.691
X3.442 Y33.176 Z-3.71
X3.419 Y33.208 Z-3.73
X3.41 Y33.247 Z-3.749
X3.417 Y33.286 Z-3.768
X3.438 Y33.32 Z-3.787
X3.471 Y33.342 Z-3.806
X3.51 Y33.35 Z-3.825
X3.549 Y33.342 Z-3.844
X3.582 Y33.319 Z-3.863
X3.603 Y33.286 Z-3.883
X3.61 Y33.247 Z-3.902
X3.601 Y33.208 Z-3.921
X3.577 Y33.176 Z-3.94
X3.543 Y33.156 Z-3.959
X3.503 Y33.15 Z-3.978
X3.465 Y33.161 Z-3.997
X3.434 Y33.185 Z-4.016
X3.415 Y33.22 Z-4.036
X3.41 Y33.26 Z-4.055
X3.422 Y33.298 Z-4.074
X3.448 Y33.328 Z-4.093
X3.483 Y33.346 Z-4.112
X3.523 Y33.349 Z-4.131
X3.56 Y33.336 Z-4.15
X3.59 Y33.31 Z-4.169
X3.607 Y33.274 Z-4.189
X3.609 Y33.234 Z-4.208
X3.595 Y33.197 Z-4.227
X3.567 Y33.168 Z-4.246
X3.531 Y33.152 Z-4.265
X3.491 Z-4.284
X3.454 Y33.167 Z-4.303
X3.426 Y33.195 Z-4.322
X3.412 Y33.232 Z-4.342
Y33.272 Z-4.361
X3.429 Y33.308 Z-4.38
X3.458 Y33.335 Z-4.399
X3.495 Y33.349 Z-4.418
X3.535 Y33.347 Z-4.437
X3.571 Y33.329 Z-4.456
X3.597 Y33.299 Z-4.475
X3.609 Y33.261 Z-4.495
X3.606 Y33.222 Z-4.514
X3.587 Y33.187 Z-4.533
X3.556 Y33.161 Z-4.552
X3.518 Y33.15 Z-4.571
X3.479 Y33.155 Z-4.59
X3.444 Y33.175 Z-4.609
X3.42 Y33.206 Z-4.628
X3.41 Y33.245 Z-4.648
X3.416 Y33.284 Z-4.667
X3.437 Y33.318 Z-4.686
X3.469 Y33.341 Z-4.705
X3.508 Y33.35 Z-4.724
X3.547 Y33.343 Z-4.743
X3.58 Y33.321 Z-4.762
X3.603 Y33.288 Z-4.781
X3.61 Y33.249 Z-4.801
X3.602 Y33.21 Z-4.82
X3.579 Y33.177 Z-4.839
X3.545 Y33.156 Z-4.858
X3.506 Y33.15 Z-4.877
X3.467 Y33.16 Z-4.896
X3.435 Y33.184 Z-4.915
X3.415 Y33.218 Z-4.934
X3.41 Y33.257 Z-4.954
X3.421 Y33.296 Z-4.973
X3.446 Y33.327 Z-4.992
X3.481 Y33.346 Z-5.011
X3.521 Y33.349 Z-5.03
X3.559 Y33.337 Z-5.049
X3.589 Y33.312 Z-5.068
X3.607 Y33.276 Z-5.087
X3.609 Y33.236 Z-5.107
X3.596 Y33.199 Z-5.126
X3.569 Y33.169 Z-5.145
X3.533 Y33.153 Z-5.164
X3.493 Y33.151 Z-5.183
X3.456 Y33.166 Z-5.202
X3.428 Y33.193 Z-5.221
X3.412 Y33.23 Z-5.24
Y33.27 Z-5.26
X3.428 Y33.307 Z-5.279
X3.456 Y33.334 Z-5.298
X3.493 Y33.349 Z-5.317
X3.533 Y33.347 Z-5.336
X3.569 Y33.331 Z-5.355
X3.596 Y33.301 Z-5.374
X3.609 Y33.264 Z-5.393
X3.607 Y33.224 Z-5.413
X3.589 Y33.188 Z-5.432
X3.559 Y33.163 Z-5.451
X3.521 Y33.151 Z-5.47
X3.481 Y33.154 Z-5.489
X3.446 Y33.173 Z-5.508
X3.421 Y33.204 Z-5.527
X3.41 Y33.243 Z-5.546
X3.415 Y33.282 Z-5.566
X3.435 Y33.316 Z-5.585
X3.467 Y33.34 Z-5.604
X3.506 Y33.35 Z-5.623
X3.545 Y33.344 Z-5.642
X3.579 Y33.323 Z-5.661
X3.602 Y33.29 Z-5.68
X3.61 Y33.251 Z-5.699
X3.603 Y33.212 Z-5.719
X3.58 Y33.179 Z-5.738
X3.547 Y33.157 Z-5.757
X3.508 Y33.15 Z-5.776
X3.469 Y33.159 Z-5.795
X3.437 Y33.182 Z-5.814
X3.416 Y33.216 Z-5.833
X3.41 Y33.255 Z-5.852
X3.42 Y33.294 Z-5.872
X3.444 Y33.325 Z-5.891
X3.479 Y33.345 Z-5.91
X3.518 Y33.35 Z-5.929
X3.556 Y33.339 Z-5.948
X3.587 Y33.313 Z-5.967
X3.606 Y33.278 Z-5.986
X3.609 Y33.239 Z-6.005
X3.597 Y33.201 Z-6.025
X3.571 Y33.171 Z-6.044
X3.535 Y33.153 Z-6.063
X3.495 Y33.151 Z-6.082
X3.458 Y33.165 Z-6.101
X3.429 Y33.192 Z-6.12
X3.412 Y33.228 Z-6.139
Y33.268 Z-6.158
X3.426 Y33.305 Z-6.178
X3.454 Y33.333 Z-6.197
X3.491 Y33.348 Z-6.216
X3.531 Z-6.235
X3.567 Y33.332 Z-6.254
X3.595 Y33.303 Z-6.273
X3.609 Y33.266 Z-6.292
X3.607 Y33.226 Z-6.311
X3.59 Y33.19 Z-6.331
X3.56 Y33.164 Z-6.35
X3.523 Y33.151 Z-6.369
X3.483 Y33.154 Z-6.388
X3.448 Y33.172 Z-6.407
X3.422 Y33.202 Z-6.426
X3.41 Y33.24 Z-6.445
X3.415 Y33.28 Z-6.464
X3.434 Y33.315 Z-6.484
X3.465 Y33.339 Z-6.503
X3.503 Y33.35 Z-6.522
X3.543 Y33.344 Z-6.541
X3.577 Y33.324 Z-6.56
X3.601 Y33.292 Z-6.579
X3.61 Y33.253 Z-6.598
X3.603 Y33.214 Z-6.617
X3.582 Y33.181 Z-6.637
X3.549 Y33.158 Z-6.656
X3.51 Y33.15 Z-6.675
X3.471 Y33.158 Z-6.694
X3.438 Y33.18 Z-6.713
X3.417 Y33.214 Z-6.732
X3.41 Y33.253 Z-6.751
X3.419 Y33.292 Z-6.77
X3.442 Y33.324 Z-6.79
X3.477 Y33.344 Z-6.809
X3.516 Y33.35 Z-6.828
X3.554 Y33.34 Z-6.847
X3.586 Y33.315 Z-6.866
X3.605 Y33.28 Z-6.885
X3.61 Y33.241 Z-6.904
X3.598 Y33.203 Z-6.923
X3.573 Y33.172 Z-6.943
X3.537 Y33.154 Z-6.962
X3.498 Y33.151 Z-6.981
X3.46 Y33.163 Z-7.
G2 X3.423 Y33.3 R0.1
X3.56 Y33.337 R0.1
X3.597 Y33.2 R0.1
X3.46 Y33.163 R0.1
G1 X3.442 Y33.182
X3.435 Y33.207
X3.442 Y33.232
X3.492 Y33.318
G0 Z5.
X3.46 Y7.8
Z1.8
G1 Z0. F1000.
X3.56
X3.585 Y7.793
X3.603 Y7.775
X3.61 Y7.75
X3.602 Y7.711 Z-0.019
X3.58 Y7.678 Z-0.038
X3.546 Y7.657 Z-0.057
X3.507 Y7.65 Z-0.077
X3.468 Y7.659 Z-0.096
X3.436 Y7.683 Z-0.115
X3.416 Y7.717 Z-0.134
X3.41 Y7.756 Z-0.153
X3.421 Y7.795 Z-0.172
X3.445 Y7.826 Z-0.191
X3.48 Y7.845 Z-0.21
X3.519 Y7.85 Z-0.23
X3.558 Y7.838 Z-0.249
X3.588 Y7.813 Z-0.268
X3.606 Y7.777 Z-0.287
X3.609 Y7.737 Z-0.306
X3.596 Y7.7 Z-0.325
X3.57 Y7.67 Z-0.344
X3.534 Y7.653 Z-0.363
X3.494 Y7.651 Z-0.383
X3.457 Y7.665 Z-0.402
X3.428 Y7.693 Z-0.421
X3.412 Y7.729 Z-0.44
Y7.769 Z-0.459
X3.427 Y7.806 Z-0.478
X3.455 Y7.834 Z-0.497
X3.492 Y7.848 Z-0.516
X3.532 Z-0.536
X3.568 Y7.831 Z-0.555
X3.595 Y7.802 Z-0.574
X3.609 Y7.765 Z-0.593
X3.607 Y7.725 Z-0.612
X3.589 Y7.689 Z-0.631
X3.56 Y7.663 Z-0.65
X3.522 Y7.651 Z-0.669
X3.482 Y7.654 Z-0.689
X3.447 Y7.672 Z-0.708
X3.422 Y7.703 Z-0.727
X3.41 Y7.741 Z-0.746
X3.415 Y7.781 Z-0.765
X3.435 Y7.816 Z-0.784
X3.466 Y7.84 Z-0.803
X3.505 Y7.85 Z-0.822
X3.544 Y7.844 Z-0.842
X3.578 Y7.823 Z-0.861
X3.601 Y7.791 Z-0.88
X3.61 Y7.752 Z-0.899
X3.603 Y7.713 Z-0.918
X3.581 Y7.68 Z-0.937
X3.548 Y7.658 Z-0.956
X3.509 Y7.65 Z-0.975
X3.47 Y7.658 Z-0.995
X3.438 Y7.681 Z-1.014
X3.416 Y7.715 Z-1.033
X3.41 Y7.754 Z-1.052
X3.42 Y7.793 Z-1.071
X3.443 Y7.825 Z-1.09
X3.478 Y7.845 Z-1.109
X3.517 Y7.85 Z-1.128
X3.555 Y7.839 Z-1.148
X3.587 Y7.814 Z-1.167
X3.606 Y7.779 Z-1.186
X3.609 Y7.74 Z-1.205
X3.598 Y7.702 Z-1.224
X3.572 Y7.671 Z-1.243
X3.536 Y7.654 Z-1.262
X3.497 Y7.651 Z-1.281
X3.459 Y7.664 Z-1.301
X3.43 Y7.691 Z-1.32
X3.413 Y7.727 Z-1.339
X3.411 Y7.767 Z-1.358
X3.426 Y7.804 Z-1.377
X3.453 Y7.832 Z-1.396
X3.49 Y7.848 Z-1.415
X3.53 Z-1.434
X3.566 Y7.833 Z-1.454
X3.594 Y7.804 Z-1.473
X3.609 Y7.767 Z-1.492
X3.607 Y7.727 Z-1.511
X3.591 Y7.691 Z-1.53
X3.561 Y7.664 Z-1.549
X3.524 Y7.651 Z-1.568
X3.484 Y7.653 Z-1.587
X3.449 Y7.671 Z-1.607
X3.423 Y7.701 Z-1.626
X3.411 Y7.739 Z-1.645
X3.414 Y7.779 Z-1.664
X3.433 Y7.814 Z-1.683
X3.464 Y7.839 Z-1.702
X3.502 Y7.85 Z-1.721
X3.542 Y7.845 Z-1.74
X3.576 Y7.825 Z-1.76
X3.6 Y7.793 Z-1.779
X3.61 Y7.755 Z-1.798
X3.604 Y7.715 Z-1.817
X3.583 Y7.681 Z-1.836
X3.55 Y7.658 Z-1.855
X3.511 Y7.65 Z-1.874
X3.472 Y7.657 Z-1.893
X3.439 Y7.679 Z-1.913
X3.417 Y7.713 Z-1.932
X3.41 Y7.752 Z-1.951
X3.419 Y7.791 Z-1.97
X3.442 Y7.823 Z-1.989
X3.476 Y7.844 Z-2.008
X3.515 Y7.85 Z-2.027
X3.553 Y7.84 Z-2.046
X3.585 Y7.816 Z-2.066
X3.605 Y7.781 Z-2.085
X3.61 Y7.742 Z-2.104
X3.599 Y7.704 Z-2.123
X3.574 Y7.673 Z-2.142
X3.538 Y7.654 Z-2.161
X3.499 Y7.651 Z-2.18
X3.461 Y7.663 Z-2.199
X3.431 Y7.689 Z-2.219
X3.413 Y7.725 Z-2.238
X3.411 Y7.764 Z-2.257
X3.424 Y7.802 Z-2.276
X3.451 Y7.831 Z-2.295
X3.488 Y7.847 Z-2.314
X3.527 Y7.848 Z-2.333
X3.564 Y7.834 Z-2.352
X3.593 Y7.806 Z-2.372
X3.608 Y7.769 Z-2.391
Y7.73 Z-2.41
X3.592 Y7.693 Z-2.429
X3.563 Y7.665 Z-2.448
X3.526 Y7.651 Z-2.467
X3.486 Y7.653 Z-2.486
X3.45 Y7.67 Z-2.505
X3.424 Y7.699 Z-2.525
X3.411 Y7.737 Z-2.544
X3.414 Y7.777 Z-2.563
X3.432 Y7.812 Z-2.582
X3.462 Y7.838 Z-2.601
X3.5 Y7.849 Z-2.62
X3.54 Y7.846 Z-2.639
X3.574 Y7.826 Z-2.658
X3.599 Y7.795 Z-2.678
X3.61 Y7.757 Z-2.697
X3.605 Y7.717 Z-2.716
X3.584 Y7.683 Z-2.735
X3.552 Y7.659 Z-2.754
X3.514 Y7.65 Z-2.773
X3.474 Y7.657 Z-2.792
X3.441 Y7.678 Z-2.811
X3.418 Y7.71 Z-2.831
X3.41 Y7.749 Z-2.85
X3.418 Y7.788 Z-2.869
X3.44 Y7.821 Z-2.888
X3.473 Y7.843 Z-2.907
X3.513 Y7.85 Z-2.926
X3.551 Y7.841 Z-2.945
X3.584 Y7.818 Z-2.964
X3.604 Y7.784 Z-2.984
X3.61 Y7.744 Z-3.003
X3.6 Y7.706 Z-3.022
X3.575 Y7.674 Z-3.041
X3.541 Y7.655 Z-3.06
X3.501 Y7.65 Z-3.079
X3.463 Y7.662 Z-3.098
X3.432 Y7.687 Z-3.117
X3.414 Y7.722 Z-3.137
X3.411 Y7.762 Z-3.156
X3.423 Y7.8 Z-3.175
X3.45 Y7.83 Z-3.194
X3.485 Y7.847 Z-3.213
X3.525 Y7.849 Z-3.232
X3.562 Y7.835 Z-3.251
X3.592 Y7.808 Z-3.27
X3.608 Y7.772 Z-3.29
Y7.732 Z-3.309
X3.593 Y7.695 Z-3.328
X3.565 Y7.667 Z-3.347
X3.528 Y7.652 Z-3.366
X3.489 Z-3.385
X3.452 Y7.668 Z-3.404
X3.425 Y7.697 Z-3.423
X3.411 Y7.735 Z-3.443
X3.413 Y7.774 Z-3.462
X3.43 Y7.81 Z-3.481
X3.46 Y7.837 Z-3.5
X3.498 Y7.849 Z-3.519
X3.537 Y7.846 Z-3.538
X3.573 Y7.828 Z-3.557
X3.598 Y7.797 Z-3.577
X3.61 Y7.759 Z-3.596
X3.605 Y7.72 Z-3.615
X3.586 Y7.685 Z-3.634
X3.554 Y7.66 Z-3.653
X3.516 Y7.65 Z-3.672
X3.477 Y7.656 Z-3.691
X3.442 Y7.676 Z-3.71
X3.419 Y7.708 Z-3.73
X3.41 Y7.747 Z-3.749
X3.417 Y7.786 Z-3.768
X3.438 Y7.82 Z-3.787
X3.471 Y7.842 Z-3.806
X3.51 Y7.85 Z-3.825
X3.549 Y7.842 Z-3.844
X3.582 Y7.819 Z-3.863
X3.603 Y7.786 Z-3.883
X3.61 Y7.747 Z-3.902
X3.601 Y7.708 Z-3.921
X3.577 Y7.676 Z-3.94
X3.543 Y7.656 Z-3.959
X3.503 Y7.65 Z-3.978
X3.465 Y7.661 Z-3.997
X3.434 Y7.685 Z-4.016
X3.415 Y7.72 Z-4.036
X3.41 Y7.76 Z-4.055
X3.422 Y7.798 Z-4.074
X3.448 Y7.828 Z-4.093
X3.483 Y7.846 Z-4.112
X3.523 Y7.849 Z-4.131
X3.56 Y7.836 Z-4.15
X3.59 Y7.81 Z-4.169
X3.607 Y7.774 Z-4.189
X3.609 Y7.734 Z-4.208
X3.595 Y7.697 Z-4.227
X3.567 Y7.668 Z-4.246
X3.531 Y7.652 Z-4.265
X3.491 Z-4.284
X3.454 Y7.667 Z-4.303
X3.426 Y7.695 Z-4.322
X3.412 Y7.732 Z-4.342
Y7.772 Z-4.361
X3.429 Y7.808 Z-4.38
X3.458 Y7.835 Z-4.399
X3.495 Y7.849 Z-4.418
X3.535 Y7.847 Z-4.437
X3.571 Y7.829 Z-4.456
X3.597 Y7.799 Z-4.475
X3.609 Y7.761 Z-4.495
X3.606 Y7.722 Z-4.514
X3.587 Y7.687 Z-4.533
X3.556 Y7.661 Z-4.552
X3.518 Y7.65 Z-4.571
X3.479 Y7.655 Z-4.59
X3.444 Y7.675 Z-4.609
X3.42 Y7.706 Z-4.628
X3.41 Y7.745 Z-4.648
X3.416 Y7.784 Z-4.667
X3.437 Y7.818 Z-4.686
X3.469 Y7.841 Z-4.705
X3.508 Y7.85 Z-4.724
X3.547 Y7.843 Z-4.743
X3.58 Y7.821 Z-4.762
X3.603 Y7.788 Z-4.781
X3.61 Y7.749 Z-4.801
X3.602 Y7.71 Z-4.82
X3.579 Y7.677 Z-4.839
X3.545 Y7.656 Z-4.858
X3.506 Y7.65 Z-4.877
X3.467 Y7.66 Z-4.896
X3.435 Y7.684 Z-4.915
X3.415 Y7.718 Z-4.934
X3.41 Y7.757 Z-4.954
X3.421 Y7.796 Z-4.973
X3.446 Y7.827 Z-4.992
X3.481 Y7.846 Z-5.011
X3.521 Y7.849 Z-5.03
X3.559 Y7.837 Z-5.049
X3.589 Y7.812 Z-5.068
X3.607 Y7.776 Z-5.087
X3.609 Y7.736 Z-5.107
X3.596 Y7.699 Z-5.126
X3.569 Y7.669 Z-5.145
X3.533 Y7.653 Z-5.164
X3.493 Y7.651 Z-5.183
X3.456 Y7.666 Z-5.202
X3.428 Y7.693 Z-5.221
X3.412 Y7.73 Z-5.24
Y7.77 Z-5.26
X3.428 Y7.807 Z-5.279
X3.456 Y7.834 Z-5.298
X3.493 Y7.849 Z-5.317
X3.533 Y7.847 Z-5.336
X3.569 Y7.831 Z-5.355
X3.596 Y7.801 Z-5.374
X3.609 Y7.764 Z-5.393
X3.607 Y7.724 Z-5.413
X3.589 Y7.688 Z-5.432
X3.559 Y7.663 Z-5.451
X3.521 Y7.651 Z-5.47
X3.481 Y7.654 Z-5.489
X3.446 Y7.673 Z-5.508
X3.421 Y7.704 Z-5.527
X3.41 Y7.743 Z-5.546
X3.415 Y7.782 Z-5.566
X3.435 Y7.816 Z-5.585
X3.467 Y7.84 Z-5.604
X3.506 Y7.85 Z-5.623
X3.545 Y7.844 Z-5.642
X3.579 Y7.823 Z-5.661
X3.602 Y7.79 Z-5.68
X3.61 Y7.751 Z-5.699
X3.603 Y7.712 Z-5.719
X3.58 Y7.679 Z-5.738
X3.547 Y7.657 Z-5.757
X3.508 Y7.65 Z-5.776
X3.469 Y7.659 Z-5.795
X3.437 Y7.682 Z-5.814
X3.416 Y7.716 Z-5.833
X3.41 Y7.755 Z-5.852
X3.42 Y7.794 Z-5.872
X3.444 Y7.825 Z-5.891
X3.479 Y7.845 Z-5.91
X3.518 Y7.85 Z-5.929
X3.556 Y7.839 Z-5.948
X3.587 Y7.813 Z-5.967
X3.606 Y7.778 Z-5.986
X3.609 Y7.739 Z-6.005
X3.597 Y7.701 Z-6.025
X3.571 Y7.671 Z-6.044
X3.535 Y7.653 Z-6.063
X3.495 Y7.651 Z-6.082
X3.458 Y7.665 Z-6.101
X3.429 Y7.692 Z-6.12
X3.412 Y7.728 Z-6.139
Y7.768 Z-6.158
X3.426 Y7.805 Z-6.178
X3.454 Y7.833 Z-6.197
X3.491 Y7.848 Z-6.216
X3.531 Z-6.235
X3.567 Y7.832 Z-6.254
X3.595 Y7.803 Z-6.273
X3.609 Y7.766 Z-6.292
X3.607 Y7.726 Z-6.311
X3.59 Y7.69 Z-6.331
X3.56 Y7.664 Z-6.35
X3.523 Y7.651 Z-6.369
X3.483 Y7.654 Z-6.388
X3.448 Y7.672 Z-6.407
X3.422 Y7.702 Z-6.426
X3.41 Y7.74 Z-6.445
X3.415 Y7.78 Z-6.464
X3.434 Y7.815 Z-6.484
X3.465 Y7.839 Z-6.503
X3.503 Y7.85 Z-6.522
X3.543 Y7.844 Z-6.541
X3.577 Y7.824 Z-6.56
X3.601 Y7.792 Z-6.579
X3.61 Y7.753 Z-6.598
X3.603 Y7.714 Z-6.617
X3.582 Y7.681 Z-6.637
X3.549 Y7.658 Z-6.656
X3.51 Y7.65 Z-6.675
X3.471 Y7.658 Z-6.694
X3.438 Y7.68 Z-6.713
X3.417 Y7.714 Z-6.732
X3.41 Y7.753 Z-6.751
X3.419 Y7.792 Z-6.77
X3.442 Y7.824 Z-6.79
X3.477 Y7.844 Z-6.809
X3.516 Y7.85 Z-6.828
X3.554 Y7.84 Z-6.847
X3.586 Y7.815 Z-6.866
X3.605 Y7.78 Z-6.885
X3.61 Y7.741 Z-6.904
X3.598 Y7.703 Z-6.923
X3.573 Y7.672 Z-6.943
X3.537 Y7.654 Z-6.962
X3.498 Y7.651 Z-6.981
X3.46 Y7.663 Z-7.
G2 X3.423 Y7.8 R0.1
X3.56 Y7.837 R0.1
X3.597 Y7.7 R0.1
X3.46 Y7.663 R0.1
G1 X3.442 Y7.682
X3.435 Y7.707
X3.442 Y7.732
X3.492 Y7.818
G0 Z15.
(2D CONTOUR1)
G0 X2.921 Y39.6
Z15.
Z5.
G1 Z2. F333.33
Z-0.8
G19 G2 Y39.4 Z-1. R0.2
G1 Y39.2 F1000.
G17 G3 X3.121 Y39. R0.2
G1 X102.
G2 X105. Y36. R3.
G1 Y2.
G2 X102. Y-1. R3.
G1 X2.
G2 X-1. Y2. R3.
G1 Y36.
G2 X2. Y39. R3.
G1 X3.121
G3 X3.321 Y39.2 R0.2
G1 Y39.4
G19 G3 Y39.6 Z-0.8 R0.2
G0 Z5.
X2.921
G1 Z1. F333.33
Z-1.8
G2 Y39.4 Z-2. R0.2
G1 Y39.2 F1000.
G17 G3 X3.121 Y39. R0.2
G1 X102.
G2 X105. Y36. R3.
G1 Y2.
G2 X102. Y-1. R3.
G1 X2.
G2 X-1. Y2. R3.
G1 Y36.
G2 X2. Y39. R3.
G1 X3.121
G3 X3.321 Y39.2 R0.2
G1 Y39.4
G19 G3 Y39.6 Z-1.8 R0.2
G0 Z5.
X2.921
G1 Z0. F333.33
Z-2.8
G2 Y39.4 Z-3. R0.2
G1 Y39.2 F1000.
G17 G3 X3.121 Y39. R0.2
G1 X102.
G2 X105. Y36. R3.
G1 Y2.
G2 X102. Y-1. R3.
G1 X2.
G2 X-1. Y2. R3.
G1 Y36.
G2 X2. Y39. R3.
G1 X3.121
G3 X3.321 Y39.2 R0.2
G1 Y39.4
G19 G3 Y39.6 Z-2.8 R0.2
G0 Z5.
X2.921
G1 Z-1. F333.33
Z-3.3
G2 Y39.4 Z-3.5 R0.2
G1 Y39.2 F1000.
G17 G3 X3.121 Y39. R0.2
G1 X25.
Z-3.
X29.
Z-3.5 F333.33
X75. F1000.
Z-3.
X79.
Z-3.5 F333.33
X102. F1000.
G2 X105. Y36. R3.
G1 Y2.
G2 X102. Y-1. R3.
G1 X79.
Z-3.
X75.
Z-3.5 F333.33
X29. F1000.
Z-3.
X25.
Z-3.5 F333.33
X2. F1000.
G2 X-1. Y2. R3.
G1 Y36.
G2 X2. Y39. R3.
G1 X3.121
G3 X3.321 Y39.2 R0.2
G1 Y39.4
G19 G3 Y39.6 Z-3.3 R0.2
G0 Z15.
G17
G53 G0 Z0.
M30
%
