G00 G49 G40.1 G17 G80 G50 G90
G21
(2 1/2 Axis Profiling)
(SlotDrill 2mm Carbide)
M6 T12
M03 S20000
G00 Z1.0000
X187.5370 Y10.2803
G01 Z-2.2300  F1000.0
X187.5413 Y10.2823 Z-2.2308
X187.6328 Y10.3537 Z-2.2513
X187.7054 Y10.4443 Z-2.2718
X187.7552 Y10.5492 Z-2.2923
X187.7794 Y10.6628 Z-2.3127
X187.7767 Y10.7788 Z-2.3332
X187.7474 Y10.8912 Z-2.3537
X187.6930 Y10.9937 Z-2.3741
X187.6163 Y11.0809 Z-2.3946
X187.5217 Y11.1481 Z-2.4151
X187.4141 Y11.1917 Z-2.4355
X187.2993 Y11.2092 Z-2.4560
X187.1836 Y11.1999 Z-2.4765
X187.0732 Y11.1640 Z-2.4970
X186.9740 Y11.1037 Z-2.5174
X186.8913 Y11.0222 Z-2.5379
X186.8298 Y10.9238 Z-2.5584
X186.7925 Y10.8138 Z-2.5788
X186.7817 Y10.6982 Z-2.5993
X186.7978 Y10.5832 Z-2.6198
X186.8399 Y10.4751 Z-2.6402
X186.9059 Y10.3795 Z-2.6607
X186.9921 Y10.3018 Z-2.6812
X187.0940 Y10.2461 Z-2.7017
X187.2059 Y10.2153 Z-2.7221
X187.3219 Y10.2112 Z-2.7426
X187.4358 Y10.2339 Z-2.7631
X187.5413 Y10.2823 Z-2.7835
X187.6328 Y10.3537 Z-2.8040
X187.7054 Y10.4443 Z-2.8245
X187.7552 Y10.5492 Z-2.8450
X187.7794 Y10.6628 Z-2.8654
X187.7767 Y10.7788 Z-2.8859
X187.7474 Y10.8912 Z-2.9064
X187.6930 Y10.9937 Z-2.9268
X187.6163 Y11.0809 Z-2.9473
X187.5217 Y11.1481 Z-2.9678
X187.4141 Y11.1917 Z-2.9882
X187.2993 Y11.2092 Z-3.0087
X187.1836 Y11.1999 Z-3.0292
X187.0732 Y11.1640 Z-3.0497
X186.9740 Y11.1037 Z-3.0701
X186.8913 Y11.0222 Z-3.0906
X186.8298 Y10.9238 Z-3.1111
X186.7925 Y10.8138 Z-3.1315
X186.7817 Y10.6982 Z-3.1520
X186.7978 Y10.5832 Z-3.1725
X186.8399 Y10.4751 Z-3.1929
X186.9059 Y10.3795 Z-3.2134
X186.9921 Y10.3018 Z-3.2339
X187.0940 Y10.2461 Z-3.2544
X187.2059 Y10.2153 Z-3.2748
X187.3219 Y10.2112 Z-3.2953
X187.4358 Y10.2339 Z-3.3158
X187.5413 Y10.2823 Z-3.3362
X187.6328 Y10.3537 Z-3.3567
X187.7054 Y10.4443 Z-3.3772
X187.7552 Y10.5492 Z-3.3976
X187.7794 Y10.6628 Z-3.4181
X187.7767 Y10.7788 Z-3.4386
X187.7474 Y10.8912 Z-3.4591
X187.6930 Y10.9937 Z-3.4795
X187.6163 Y11.0809 Z-3.5000
X187.1273 Y11.1852
X186.7925 Y10.8138
X186.9468 Y10.3382
X187.4358 Y10.2339
X187.7706 Y10.6053
X187.6163 Y11.0809
G00 Z1.0000
X187.1442 Y66.1897
G01 Z-2.2300  F1000.0
X187.1395 Y66.1889 Z-2.2308
X187.0327 Y66.1432 Z-2.2513
X186.9394 Y66.0742 Z-2.2718
X186.8646 Y65.9854 Z-2.2923
X186.8122 Y65.8818 Z-2.3127
X186.7851 Y65.7690 Z-2.3332
X186.7848 Y65.6529 Z-2.3537
X186.8112 Y65.5398 Z-2.3741
X186.8631 Y65.4359 Z-2.3946
X186.9374 Y65.3468 Z-2.4151
X187.0304 Y65.2772 Z-2.4355
X187.1368 Y65.2309 Z-2.4560
X187.2511 Y65.2105 Z-2.4765
X187.3670 Y65.2169 Z-2.4970
X187.4783 Y65.2499 Z-2.5174
X187.5790 Y65.3077 Z-2.5379
X187.6637 Y65.3871 Z-2.5584
X187.7277 Y65.4839 Z-2.5788
X187.7678 Y65.5929 Z-2.5993
X187.7815 Y65.7082 Z-2.6198
X187.7684 Y65.8235 Z-2.6402
X187.7290 Y65.9327 Z-2.6607
X187.6655 Y66.0299 Z-2.6812
X187.5812 Y66.1098 Z-2.7017
X187.4809 Y66.1681 Z-2.7221
X187.3697 Y66.2017 Z-2.7426
X187.2539 Y66.2088 Z-2.7631
X187.1395 Y66.1889 Z-2.7835
X187.0327 Y66.1432 Z-2.8040
X186.9394 Y66.0742 Z-2.8245
X186.8646 Y65.9854 Z-2.8450
X186.8122 Y65.8818 Z-2.8654
X186.7851 Y65.7690 Z-2.8859
X186.7848 Y65.6529 Z-2.9064
X186.8112 Y65.5398 Z-2.9268
X186.8631 Y65.4359 Z-2.9473
X186.9374 Y65.3468 Z-2.9678
X187.0304 Y65.2772 Z-2.9882
X187.1368 Y65.2309 Z-3.0087
X187.2511 Y65.2105 Z-3.0292
X187.3670 Y65.2169 Z-3.0497
X187.4783 Y65.2499 Z-3.0701
X187.5790 Y65.3077 Z-3.0906
X187.6637 Y65.3871 Z-3.1111
X187.7277 Y65.4839 Z-3.1315
X187.7678 Y65.5929 Z-3.1520
X187.7815 Y65.7082 Z-3.1725
X187.7684 Y65.8235 Z-3.1929
X187.7290 Y65.9327 Z-3.2134
X187.6655 Y66.0299 Z-3.2339
X187.5812 Y66.1098 Z-3.2544
X187.4809 Y66.1681 Z-3.2748
X187.3697 Y66.2017 Z-3.2953
X187.2539 Y66.2088 Z-3.3158
X187.1395 Y66.1889 Z-3.3362
X187.0327 Y66.1432 Z-3.3567
X186.9394 Y66.0742 Z-3.3772
X186.8646 Y65.9854 Z-3.3976
X186.8122 Y65.8818 Z-3.4181
X186.7851 Y65.7690 Z-3.4386
X186.7848 Y65.6529 Z-3.4591
X186.8112 Y65.5398 Z-3.4795
X186.8631 Y65.4359 Z-3.5000
X187.3092 Y65.2103
X187.7277 Y65.4839
X187.7000 Y65.9831
X187.2539 Y66.2088
X186.8354 Y65.9352
X186.8631 Y65.4359
G00 Z1.0000
X120.6589 Y98.2118
G01 Z-2.2300  F1000.0
X125.3360 Z-3.0547
X125.5041 Y98.2212 Z-3.0844
X125.6701 Y98.2494 Z-3.1141
X125.8319 Y98.2960 Z-3.1438
X125.9874 Y98.3605 Z-3.1734
X126.1347 Y98.4421 Z-3.2031
X126.2719 Y98.5396 Z-3.2328
X126.3974 Y98.6519 Z-3.2625
X126.5094 Y98.7776 Z-3.2922
X126.6067 Y98.9150 Z-3.3219
X126.6879 Y99.0625 Z-3.3516
X126.7521 Y99.2181 Z-3.3813
X126.7984 Y99.3800 Z-3.4109
X126.8262 Y99.5460 Z-3.4406
X126.8353 Y99.7142 Z-3.4703
X126.8255 Y99.8822 Z-3.5000
X126.8253 Y99.8832
G17
G03X125.3360Y101.2118I-1.4890J-0.1701
G01 X110.3358
G03Y98.2118I0.0000J-1.5000
G01 X125.3360
G03X126.8255Y99.8822I0.0003J1.4989
G00 Z1.0000
X96.4058 Y89.6109
G01 Z-2.2300  F1000.0
X96.2221 Y89.5650 Z-2.2634
X96.0360 Y89.4908 Z-2.2987
X95.8614 Y89.3925 Z-2.3340
X95.7014 Y89.2718 Z-2.3694
X95.5590 Y89.1309 Z-2.4047
X95.4366 Y88.9723 Z-2.4400
X95.3365 Y88.7987 Z-2.4754
X95.2603 Y88.6133 Z-2.5107
X95.2096 Y88.4195 Z-2.5460
X95.1851 Y88.2206 Z-2.5814
X95.1874 Y88.0202 Z-2.6167
X95.2164 Y87.8220 Z-2.6520
X95.2715 Y87.6293 Z-2.6874
X95.3519 Y87.4458 Z-2.7227
X95.4559 Y87.2745 Z-2.7580
X95.5819 Y87.1187 Z-2.7934
X95.7275 Y86.9810 Z-2.8287
X95.8902 Y86.8640 Z-2.8640
X96.0670 Y86.7697 Z-2.8994
X96.2548 Y86.6998 Z-2.9347
X96.4502 Y86.6556 Z-2.9700
X96.6498 Y86.6378 Z-3.0054
X96.8500 Y86.6468 Z-3.0407
X97.0472 Y86.6824 Z-3.0760
X97.2379 Y86.7439 Z-3.1113
X97.4186 Y86.8303 Z-3.1467
X97.5863 Y86.9401 Z-3.1820
X97.7378 Y87.0712 Z-3.2173
X97.8705 Y87.2213 Z-3.2527
X97.9821 Y87.3878 Z-3.2880
X98.0704 Y87.5676 Z-3.3233
X98.1340 Y87.7577 Z-3.3587
X98.1716 Y87.9545 Z-3.3940
X98.1827 Y88.1545 Z-3.4293
X98.1671 Y88.3543 Z-3.4647
X98.1249 Y88.5502 Z-3.5000
G03X95.2407Y87.7247I-1.4421J-0.4127
X98.1249Y88.5502I1.4421J0.4128
G00 Z1.0000
X85.5094 Y89.0708
G01 Z-2.2300  F1000.0
X85.4006 Y88.9159 Z-2.2634
X85.3083 Y88.7380 Z-2.2987
X85.2405 Y88.5495 Z-2.3340
X85.1985 Y88.3535 Z-2.3694
X85.1829 Y88.1538 Z-2.4047
X85.1941 Y87.9537 Z-2.4400
X85.2319 Y87.7569 Z-2.4754
X85.2956 Y87.5669 Z-2.5107
X85.3840 Y87.3871 Z-2.5460
X85.4956 Y87.2207 Z-2.5814
X85.6284 Y87.0706 Z-2.6167
X85.7800 Y86.9396 Z-2.6520
X85.9477 Y86.8300 Z-2.6874
X86.1286 Y86.7436 Z-2.7227
X86.3193 Y86.6822 Z-2.7580
X86.5165 Y86.6467 Z-2.7934
X86.7167 Y86.6378 Z-2.8287
X86.9162 Y86.6557 Z-2.8640
X87.1117 Y86.7001 Z-2.8994
X87.2994 Y86.7701 Z-2.9347
X87.4762 Y86.8644 Z-2.9700
X87.6388 Y86.9815 Z-3.0054
X87.7843 Y87.1193 Z-3.0407
X87.9102 Y87.2752 Z-3.0760
X88.0142 Y87.4464 Z-3.1113
X88.0944 Y87.6301 Z-3.1467
X88.1495 Y87.8227 Z-3.1820
X88.1783 Y88.0210 Z-3.2173
X88.1805 Y88.2214 Z-3.2527
X88.1559 Y88.4203 Z-3.2880
X88.1051 Y88.6141 Z-3.3233
X88.0289 Y88.7994 Z-3.3587
X87.9287 Y88.9729 Z-3.3940
X87.8062 Y89.1315 Z-3.4293
X87.6637 Y89.2724 Z-3.4647
X87.5037 Y89.3930 Z-3.5000
G03X85.8620Y86.8820I-0.8209J-1.2555
X87.5037Y89.3930I0.8208J1.2555
G00 Z1.0000
X94.4675 Y65.2460
G01 Z-2.2300  F1000.0
X94.4721 Y65.2473 Z-2.2308
X94.5736 Y65.3037 Z-2.2513
X94.6593 Y65.3820 Z-2.2718
X94.7247 Y65.4779 Z-2.2923
X94.7661 Y65.5864 Z-2.3127
X94.7815 Y65.7014 Z-2.3332
X94.7699 Y65.8170 Z-2.3537
X94.7319 Y65.9267 Z-2.3741
X94.6697 Y66.0247 Z-2.3946
X94.5866 Y66.1057 Z-2.4151
X94.4870 Y66.1654 Z-2.4355
X94.3763 Y66.2005 Z-2.4560
X94.2606 Y66.2091 Z-2.4765
X94.1459 Y66.1908 Z-2.4970
X94.0386 Y66.1465 Z-2.5174
X93.9444 Y66.0787 Z-2.5379
X93.8683 Y65.9910 Z-2.5584
X93.8145 Y65.8881 Z-2.5788
X93.7859 Y65.7756 Z-2.5993
X93.7841 Y65.6595 Z-2.6198
X93.8090 Y65.5462 Z-2.6402
X93.8594 Y65.4416 Z-2.6607
X93.9326 Y65.3515 Z-2.6812
X94.0246 Y65.2806 Z-2.7017
X94.1304 Y65.2329 Z-2.7221
X94.2444 Y65.2109 Z-2.7426
X94.3604 Y65.2158 Z-2.7631
X94.4721 Y65.2473 Z-2.7835
X94.5736 Y65.3037 Z-2.8040
X94.6593 Y65.3820 Z-2.8245
X94.7247 Y65.4779 Z-2.8450
X94.7661 Y65.5864 Z-2.8654
X94.7815 Y65.7014 Z-2.8859
X94.7699 Y65.8170 Z-2.9064
X94.7319 Y65.9267 Z-2.9268
X94.6697 Y66.0247 Z-2.9473
X94.5866 Y66.1057 Z-2.9678
X94.4870 Y66.1654 Z-2.9882
X94.3763 Y66.2005 Z-3.0087
X94.2606 Y66.2091 Z-3.0292
X94.1459 Y66.1908 Z-3.0497
X94.0386 Y66.1465 Z-3.0701
X93.9444 Y66.0787 Z-3.0906
X93.8683 Y65.9910 Z-3.1111
X93.8145 Y65.8881 Z-3.1315
X93.7859 Y65.7756 Z-3.1520
X93.7841 Y65.6595 Z-3.1725
X93.8090 Y65.5462 Z-3.1929
X93.8594 Y65.4416 Z-3.2134
X93.9326 Y65.3515 Z-3.2339
X94.0246 Y65.2806 Z-3.2544
X94.1304 Y65.2329 Z-3.2748
X94.2444 Y65.2109 Z-3.2953
X94.3604 Y65.2158 Z-3.3158
X94.4721 Y65.2473 Z-3.3362
X94.5736 Y65.3037 Z-3.3567
X94.6593 Y65.3820 Z-3.3772
X94.7247 Y65.4779 Z-3.3976
X94.7661 Y65.5864 Z-3.4181
X94.7815 Y65.7014 Z-3.4386
X94.7699 Y65.8170 Z-3.4591
X94.7319 Y65.9267 Z-3.4795
X94.6697 Y66.0247 Z-3.5000
X94.2027 Y66.2033
X93.8145 Y65.8881
X93.8934 Y65.3944
X94.3604 Y65.2158
X94.7486 Y65.5309
X94.6697 Y66.0247
G00 Z1.0000
X94.6857 Y10.4161
G01 Z-2.2300  F1000.0
X94.6889 Y10.4197 Z-2.2308
X94.7448 Y10.5214 Z-2.2513
X94.7757 Y10.6333 Z-2.2718
X94.7800 Y10.7493 Z-2.2923
X94.7574 Y10.8632 Z-2.3127
X94.7091 Y10.9688 Z-2.3332
X94.6378 Y11.0604 Z-2.3537
X94.5473 Y11.1331 Z-2.3741
X94.4424 Y11.1830 Z-2.3946
X94.3289 Y11.2073 Z-2.4151
X94.2128 Y11.2048 Z-2.4355
X94.1005 Y11.1756 Z-2.4560
X93.9979 Y11.1213 Z-2.4765
X93.9106 Y11.0448 Z-2.4970
X93.8433 Y10.9502 Z-2.5174
X93.7996 Y10.8426 Z-2.5379
X93.7819 Y10.7279 Z-2.5584
X93.7911 Y10.6122 Z-2.5788
X93.8268 Y10.5017 Z-2.5993
X93.8870 Y10.4024 Z-2.6198
X93.9685 Y10.3197 Z-2.6402
X94.0668 Y10.2580 Z-2.6607
X94.1767 Y10.2207 Z-2.6812
X94.2923 Y10.2097 Z-2.7017
X94.4073 Y10.2256 Z-2.7221
X94.5155 Y10.2677 Z-2.7426
X94.6111 Y10.3335 Z-2.7631
X94.6889 Y10.4197 Z-2.7835
X94.7448 Y10.5214 Z-2.8040
X94.7757 Y10.6333 Z-2.8245
X94.7800 Y10.7493 Z-2.8450
X94.7574 Y10.8632 Z-2.8654
X94.7091 Y10.9688 Z-2.8859
X94.6378 Y11.0604 Z-2.9064
X94.5473 Y11.1331 Z-2.9268
X94.4424 Y11.1830 Z-2.9473
X94.3289 Y11.2073 Z-2.9678
X94.2128 Y11.2048 Z-2.9882
X94.1005 Y11.1756 Z-3.0087
X93.9979 Y11.1213 Z-3.0292
X93.9106 Y11.0448 Z-3.0497
X93.8433 Y10.9502 Z-3.0701
X93.7996 Y10.8426 Z-3.0906
X93.7819 Y10.7279 Z-3.1111
X93.7911 Y10.6122 Z-3.1315
X93.8268 Y10.5017 Z-3.1520
X93.8870 Y10.4024 Z-3.1725
X93.9685 Y10.3197 Z-3.1929
X94.0668 Y10.2580 Z-3.2134
X94.1767 Y10.2207 Z-3.2339
X94.2923 Y10.2097 Z-3.2544
X94.4073 Y10.2256 Z-3.2748
X94.5155 Y10.2677 Z-3.2953
X94.6111 Y10.3335 Z-3.3158
X94.6889 Y10.4197 Z-3.3362
X94.7448 Y10.5214 Z-3.3567
X94.7757 Y10.6333 Z-3.3772
X94.7800 Y10.7493 Z-3.3976
X94.7574 Y10.8632 Z-3.4181
X94.7091 Y10.9688 Z-3.4386
X94.6378 Y11.0604 Z-3.4591
X94.5473 Y11.1331 Z-3.4795
X94.4424 Y11.1830 Z-3.5000
X93.9520 Y11.0856
X93.7911 Y10.6122
X94.1207 Y10.2361
X94.6111 Y10.3335
X94.7720 Y10.8069
X94.4424 Y11.1830
G00 Z1.0000
X86.5333 Y119.0416
G01 Z-2.2300  F1000.0
Y125.9701 Z-3.4517
X86.5082 Y126.2430 Z-3.5000
G03X83.5333Y125.9701I-1.4749J-0.2729
G01 Y110.9701
G03X86.5333I1.5000J0.0000
G01 Y125.9701
X86.5082 Y126.2430
G00 Z1.0000
X86.5333 Y163.3712
G01 Z-2.2300  F1000.0
Y169.4734 Z-3.3060
X86.5315 Y169.5467 Z-3.3189
X86.5261 Y169.6199 Z-3.3319
X86.5171 Y169.6927 Z-3.3448
X86.5046 Y169.7650 Z-3.3577
X86.4886 Y169.8366 Z-3.3707
X86.4691 Y169.9073 Z-3.3836
X86.4462 Y169.9770 Z-3.3965
X86.4199 Y170.0454 Z-3.4095
X86.3903 Y170.1125 Z-3.4224
X86.3574 Y170.1781 Z-3.4353
X86.3214 Y170.2420 Z-3.4483
X86.2822 Y170.3041 Z-3.4612
X86.2401 Y170.3641 Z-3.4741
X86.1952 Y170.4221 Z-3.4871
X86.1474 Y170.4777 Z-3.5000
Y170.4778
G03X83.5333Y169.4734I-1.1141J-1.0044
G01 Y154.4734
G03X86.5333I1.5000J0.0000
G01 Y169.4734
G03X86.1474Y170.4777I-1.5000J0.0000
G00 Z1.0000
X107.9779 Y165.6161
G01 Z-2.2300  F1000.0
X107.9826 Y165.6162 Z-2.2308
X108.0951 Y165.6452 Z-2.2513
X108.1978 Y165.6993 Z-2.2718
X108.2852 Y165.7757 Z-2.2923
X108.3527 Y165.8701 Z-2.3127
X108.3966 Y165.9776 Z-2.3332
X108.4145 Y166.0923 Z-2.3537
X108.4055 Y166.2080 Z-2.3741
X108.3700 Y166.3186 Z-2.3946
X108.3100 Y166.4180 Z-2.4151
X108.2287 Y166.5008 Z-2.4355
X108.1305 Y166.5627 Z-2.4560
X108.0206 Y166.6003 Z-2.4765
X107.9051 Y166.6115 Z-2.4970
X107.7900 Y166.5957 Z-2.5174
X107.6817 Y166.5539 Z-2.5379
X107.5860 Y166.4882 Z-2.5584
X107.5080 Y166.4022 Z-2.5788
X107.4520 Y166.3006 Z-2.5993
X107.4209 Y166.1887 Z-2.6198
X107.4164 Y166.0727 Z-2.6402
X107.4388 Y165.9588 Z-2.6607
X107.4868 Y165.8531 Z-2.6812
X107.5580 Y165.7614 Z-2.7017
X107.6484 Y165.6885 Z-2.7221
X107.7531 Y165.6385 Z-2.7426
X107.8666 Y165.6139 Z-2.7631
X107.9826 Y165.6162 Z-2.7835
X108.0951 Y165.6452 Z-2.8040
X108.1978 Y165.6993 Z-2.8245
X108.2852 Y165.7757 Z-2.8450
X108.3527 Y165.8701 Z-2.8654
X108.3966 Y165.9776 Z-2.8859
X108.4145 Y166.0923 Z-2.9064
X108.4055 Y166.2080 Z-2.9268
X108.3700 Y166.3186 Z-2.9473
X108.3100 Y166.4180 Z-2.9678
X108.2287 Y166.5008 Z-2.9882
X108.1305 Y166.5627 Z-3.0087
X108.0206 Y166.6003 Z-3.0292
X107.9051 Y166.6115 Z-3.0497
X107.7900 Y166.5957 Z-3.0701
X107.6817 Y166.5539 Z-3.0906
X107.5860 Y166.4882 Z-3.1111
X107.5080 Y166.4022 Z-3.1315
X107.4520 Y166.3006 Z-3.1520
X107.4209 Y166.1887 Z-3.1725
X107.4164 Y166.0727 Z-3.1929
X107.4388 Y165.9588 Z-3.2134
X107.4868 Y165.8531 Z-3.2339
X107.5580 Y165.7614 Z-3.2544
X107.6484 Y165.6885 Z-3.2748
X107.7531 Y165.6385 Z-3.2953
X107.8666 Y165.6139 Z-3.3158
X107.9826 Y165.6162 Z-3.3362
X108.0951 Y165.6452 Z-3.3567
X108.1978 Y165.6993 Z-3.3772
X108.2852 Y165.7757 Z-3.3976
X108.3527 Y165.8701 Z-3.4181
X108.3966 Y165.9776 Z-3.4386
X108.4145 Y166.0923 Z-3.4591
X108.4055 Y166.2080 Z-3.4795
X108.3700 Y166.3186 Z-3.5000
X107.9632 Y166.6092
X107.5080 Y166.4022
X107.4597 Y165.9046
X107.8666 Y165.6139
X108.3217 Y165.8209
X108.3700 Y166.3186
G00 Z1.0000
X131.0027 Y165.6199
G01 Z-2.2300  F1000.0
X131.0075 Y165.6202 Z-2.2308
X131.1183 Y165.6548 Z-2.2513
X131.2182 Y165.7141 Z-2.2718
X131.3016 Y165.7947 Z-2.2923
X131.3643 Y165.8925 Z-2.3127
X131.4027 Y166.0020 Z-2.3332
X131.4148 Y166.1175 Z-2.3537
X131.4000 Y166.2326 Z-2.3741
X131.3590 Y166.3412 Z-2.3946
X131.2941 Y166.4375 Z-2.4151
X131.2087 Y166.5161 Z-2.4355
X131.1075 Y166.5730 Z-2.4560
X130.9959 Y166.6050 Z-2.4765
X130.8799 Y166.6104 Z-2.4970
X130.7658 Y166.5889 Z-2.5174
X130.6598 Y166.5416 Z-2.5379
X130.5675 Y166.4712 Z-2.5584
X130.4939 Y166.3814 Z-2.5788
X130.4430 Y166.2770 Z-2.5993
X130.4176 Y166.1638 Z-2.6198
X130.4190 Y166.0477 Z-2.6402
X130.4471 Y165.9350 Z-2.6607
X130.5004 Y165.8319 Z-2.6812
X130.5761 Y165.7439 Z-2.7017
X130.6700 Y165.6757 Z-2.7221
X130.7771 Y165.6309 Z-2.7426
X130.8917 Y165.6121 Z-2.7631
X131.0075 Y165.6202 Z-2.7835
X131.1183 Y165.6548 Z-2.8040
X131.2182 Y165.7141 Z-2.8245
X131.3016 Y165.7947 Z-2.8450
X131.3643 Y165.8925 Z-2.8654
X131.4027 Y166.0020 Z-2.8859
X131.4148 Y166.1175 Z-2.9064
X131.4000 Y166.2326 Z-2.9268
X131.3590 Y166.3412 Z-2.9473
X131.2941 Y166.4375 Z-2.9678
X131.2087 Y166.5161 Z-2.9882
X131.1075 Y166.5730 Z-3.0087
X130.9959 Y166.6050 Z-3.0292
X130.8799 Y166.6104 Z-3.0497
X130.7658 Y166.5889 Z-3.0701
X130.6598 Y166.5416 Z-3.0906
X130.5675 Y166.4712 Z-3.1111
X130.4939 Y166.3814 Z-3.1315
X130.4430 Y166.2770 Z-3.1520
X130.4176 Y166.1638 Z-3.1725
X130.4190 Y166.0477 Z-3.1929
X130.4471 Y165.9350 Z-3.2134
X130.5004 Y165.8319 Z-3.2339
X130.5761 Y165.7439 Z-3.2544
X130.6700 Y165.6757 Z-3.2748
X130.7771 Y165.6309 Z-3.2953
X130.8917 Y165.6121 Z-3.3158
X131.0075 Y165.6202 Z-3.3362
X131.1183 Y165.6548 Z-3.3567
X131.2182 Y165.7141 Z-3.3772
X131.3016 Y165.7947 Z-3.3976
X131.3643 Y165.8925 Z-3.4181
X131.4027 Y166.0020 Z-3.4386
X131.4148 Y166.1175 Z-3.4591
X131.4000 Y166.2326 Z-3.4795
X131.3590 Y166.3412 Z-3.5000
X130.9381 Y166.6110
X130.4939 Y166.3814
X130.4707 Y165.8819
X130.8917 Y165.6121
X131.3358 Y165.8418
X131.3590 Y166.3412
G00 Z1.0000
X152.7860 Y163.2937
G01 Z-2.2300  F1000.0
Y169.4734 Z-3.3196
X152.7845 Y169.5416 Z-3.3317
X152.7798 Y169.6096 Z-3.3437
X152.7721 Y169.6773 Z-3.3557
X152.7613 Y169.7447 Z-3.3677
X152.7474 Y169.8114 Z-3.3798
X152.7305 Y169.8775 Z-3.3918
X152.7107 Y169.9427 Z-3.4038
X152.6879 Y170.0070 Z-3.4158
X152.6622 Y170.0702 Z-3.4279
X152.6336 Y170.1321 Z-3.4399
X152.6023 Y170.1926 Z-3.4519
X152.5683 Y170.2517 Z-3.4639
X152.5316 Y170.3092 Z-3.4760
X152.4923 Y170.3649 Z-3.4880
X152.4505 Y170.4188 Z-3.5000
G03X149.7860Y169.4734I-1.1645J-0.9454
G01 Y154.4734
G03X152.7860I1.5000J0.0000
G01 Y169.4734
G03X152.4505Y170.4188I-1.5000J0.0000
G00 Z1.0000
X169.2460 Y164.9614
G01 Z-2.2300  F1000.0
X169.2481 Y165.0621 Z-2.2478
X169.2242 Y165.2255 Z-2.2769
X169.1738 Y165.3828 Z-2.3060
X169.0982 Y165.5296 Z-2.3351
X168.9995 Y165.6620 Z-2.3642
X168.8803 Y165.7764 Z-2.3934
X168.7439 Y165.8695 Z-2.4225
X168.5941 Y165.9389 Z-2.4516
X168.4348 Y165.9828 Z-2.4807
X168.2705 Y165.9998 Z-2.5099
X168.1057 Y165.9895 Z-2.5390
X167.9448 Y165.9523 Z-2.5681
X167.7922 Y165.8891 Z-2.5972
X167.6521 Y165.8016 Z-2.6263
X167.5283 Y165.6923 Z-2.6555
X167.4242 Y165.5640 Z-2.6846
X167.3427 Y165.4204 Z-2.7137
X167.2858 Y165.2654 Z-2.7428
X167.2553 Y165.1030 Z-2.7720
X167.2519 Y164.9379 Z-2.8011
X167.2758 Y164.7745 Z-2.8302
X167.3262 Y164.6172 Z-2.8593
X167.4018 Y164.4704 Z-2.8884
X167.5005 Y164.3380 Z-2.9176
X167.6197 Y164.2236 Z-2.9467
X167.7561 Y164.1305 Z-2.9758
X167.9059 Y164.0611 Z-3.0049
X168.0652 Y164.0172 Z-3.0340
X168.2295 Y164.0002 Z-3.0632
X168.3943 Y164.0105 Z-3.0923
X168.5552 Y164.0477 Z-3.1214
X168.7078 Y164.1109 Z-3.1505
X168.8479 Y164.1984 Z-3.1797
X168.9717 Y164.3077 Z-3.2088
X169.0758 Y164.4360 Z-3.2379
X169.1573 Y164.5796 Z-3.2670
X169.2142 Y164.7346 Z-3.2961
X169.2447 Y164.8970 Z-3.3253
X169.2481 Y165.0621 Z-3.3544
X169.2242 Y165.2255 Z-3.3835
X169.1738 Y165.3828 Z-3.4126
X169.0982 Y165.5296 Z-3.4418
X168.9995 Y165.6620 Z-3.4709
X168.8803 Y165.7764 Z-3.5000
G03X167.6197Y164.2236I-0.6303J-0.7764
X168.8803Y165.7764I0.6303J0.7764
G00 Z1.0000
X182.4956 Y167.0771
G01 Z-2.2300  F1000.0
X182.4313 Y167.1566 Z-2.2480
X182.2252 Y167.3688 Z-2.3002
X182.0005 Y167.5613 Z-2.3524
X181.7593 Y167.7326 Z-2.4045
X181.5035 Y167.8813 Z-2.4567
X181.2353 Y168.0061 Z-2.5089
X180.9568 Y168.1060 Z-2.5610
X180.6704 Y168.1801 Z-2.6132
X180.3785 Y168.2279 Z-2.6654
X180.0834 Y168.2489 Z-2.7175
X179.7876 Y168.2430 Z-2.7697
X179.4936 Y168.2103 Z-2.8219
X179.2037 Y168.1509 Z-2.8740
X178.9205 Y168.0655 Z-2.9262
X178.6462 Y167.9546 Z-2.9783
X178.3831 Y167.8193 Z-3.0305
X178.1335 Y167.6606 Z-3.0827
X177.8993 Y167.4798 Z-3.1348
X177.6825 Y167.2785 Z-3.1870
X177.4849 Y167.0583 Z-3.2392
X177.3081 Y166.8211 Z-3.2913
X177.1537 Y166.5687 Z-3.3435
X177.0228 Y166.3034 Z-3.3957
X176.9166 Y166.0273 Z-3.4478
X176.8360 Y165.7426 Z-3.5000
G03X183.1640Y164.2574I3.1640J-0.7426
X176.8360Y165.7426I-3.1640J0.7426
G00 Z1.0000
X181.4216 Y194.5235
G01 Z-2.2300  F1000.0
X181.4710 Y194.7062 Z-2.2634
X181.4970 Y194.9049 Z-2.2987
X181.4963 Y195.1053 Z-2.3340
X181.4689 Y195.3038 Z-2.3694
X181.4153 Y195.4969 Z-2.4047
X181.3365 Y195.6811 Z-2.4400
X181.2338 Y195.8531 Z-2.4754
X181.1090 Y196.0100 Z-2.5107
X180.9645 Y196.1488 Z-2.5460
X180.8028 Y196.2671 Z-2.5814
X180.6268 Y196.3628 Z-2.6167
X180.4395 Y196.4342 Z-2.6520
X180.2445 Y196.4799 Z-2.6874
X180.0450 Y196.4993 Z-2.7227
X179.8448 Y196.4919 Z-2.7580
X179.6473 Y196.4579 Z-2.7934
X179.4561 Y196.3979 Z-2.8287
X179.2747 Y196.3130 Z-2.8640
X179.1061 Y196.2046 Z-2.8994
X178.9535 Y196.0747 Z-2.9347
X178.8196 Y195.9256 Z-2.9700
X178.7068 Y195.7600 Z-3.0054
X178.6170 Y195.5809 Z-3.0407
X178.5520 Y195.3914 Z-3.0760
X178.5127 Y195.1949 Z-3.1113
X178.5000 Y194.9949 Z-3.1467
X178.5141 Y194.7950 Z-3.1820
X178.5547 Y194.5988 Z-3.2173
X178.6210 Y194.4097 Z-3.2527
X178.7120 Y194.2312 Z-3.2880
X178.8260 Y194.0664 Z-3.3233
X178.9609 Y193.9182 Z-3.3587
X179.1143 Y193.7894 Z-3.3940
X179.2836 Y193.6821 Z-3.4293
X179.4657 Y193.5984 Z-3.4647
X179.6572 Y193.5397 Z-3.5000
G03X180.3428Y196.4603I0.3428J1.4603
X179.6572Y193.5397I-0.3428J-1.4603
G00 Z1.0000
X174.2050 Y223.9257
G01 Z-2.2300  F1000.0
X174.1962 Y223.9136 Z-2.2326
X173.9611 Y223.5400 Z-2.3105
X173.7500 Y223.1524 Z-2.3883
Y216.8476 Z-3.5000
G03X186.2500I6.2500J3.1524
G01 Y223.1524
G03X173.7500I-6.2500J-3.1524
G01 Y216.8476
G00 Z1.0000
Y241.9203
G01 Z-2.2300  F1000.0
Y241.8476 Z-2.2428
X173.9632 Y241.4563 Z-2.3214
X174.2009 Y241.0794 Z-2.4000
X174.4621 Y240.7184 Z-2.4785
X174.7458 Y240.3747 Z-2.5571
X175.0507 Y240.0498 Z-2.6357
X175.3757 Y239.7449 Z-2.7143
X175.7195 Y239.4613 Z-2.7928
X176.0805 Y239.2002 Z-2.8714
X176.4575 Y238.9626 Z-2.9500
X176.8488 Y238.7494 Z-3.0286
X177.2529 Y238.5616 Z-3.1071
X177.6682 Y238.3998 Z-3.1857
X178.0928 Y238.2648 Z-3.2643
X178.5252 Y238.1571 Z-3.3429
X178.9636 Y238.0771 Z-3.4214
X179.4062 Y238.0252 Z-3.5000
G03X186.2500Y241.8476I0.5938J6.9748
G01 Y248.1524
G03X173.7500I-6.2500J-3.1524
G01 Y241.8476
G03X179.4062Y238.0252I6.2500J3.1524
G00 Z1.0000
X174.0577 Y273.6935
G01 Z-2.2300  F1000.0
X173.9611 Y273.5400 Z-2.2620
X173.7500 Y273.1524 Z-2.3398
Y266.8577 Z-3.4497
X173.8792 Y266.6035 Z-3.5000
G03X186.2500Y266.8476I6.1208J3.3965
G01 Y273.1524
G03X173.7500I-6.2500J-3.1524
G01 Y266.8577
X173.8792 Y266.6035
G00 Z1.0000
X139.1065 Y258.7649
G01 Z-2.2300  F1000.0
X138.9944 Z-2.2498
X138.7341 Y258.5749 Z-2.3066
X138.4918 Y258.3624 Z-2.3634
X138.2695 Y258.1291 Z-2.4203
X138.0689 Y257.8768 Z-2.4771
X137.8917 Y257.6076 Z-2.5339
X137.7393 Y257.3236 Z-2.5907
X137.6129 Y257.0271 Z-2.6476
X137.5136 Y256.7205 Z-2.7044
X137.4420 Y256.4063 Z-2.7612
X137.3988 Y256.0869 Z-2.8181
X137.3844 Y255.7649 Z-2.8749
X137.3988 Y255.4430 Z-2.9317
X137.4420 Y255.1236 Z-2.9885
X137.5136 Y254.8093 Z-3.0454
X137.6129 Y254.5027 Z-3.1022
X137.7393 Y254.2063 Z-3.1590
X137.8917 Y253.9223 Z-3.2159
X138.0689 Y253.6531 Z-3.2727
X138.2695 Y253.4008 Z-3.3295
X138.4918 Y253.1674 Z-3.3863
X138.7341 Y252.9549 Z-3.4432
X138.9944 Y252.7649 Z-3.5000
X142.9744
G03Y258.7649I-1.9900J3.0000
G01 X138.9944
G03Y252.7649I1.9900J-3.0000
G00 Z1.0000
X72.7381 Y245.1796
G01 Z-2.2300  F1000.0
X73.0989 Y246.6268 Z-2.4930
X73.4414 Y248.4994 Z-2.8287
X73.6643 Y250.3900 Z-3.1643
X73.7670 Y252.2909 Z-3.5000
G03X13.7817Y253.6227I-29.9926J0.6659
X73.7670Y252.2909I29.9927J-0.6659
G00 Z1.0000
X75.9473 Y234.9182
G01 Z-2.2300  F1000.0
X75.9493 Y235.0189 Z-2.2478
X75.9255 Y235.1823 Z-2.2769
X75.8751 Y235.3396 Z-2.3060
X75.7995 Y235.4864 Z-2.3351
X75.7008 Y235.6188 Z-2.3642
X75.5816 Y235.7332 Z-2.3934
X75.4452 Y235.8263 Z-2.4225
X75.2953 Y235.8958 Z-2.4516
X75.1361 Y235.9396 Z-2.4807
X74.9718 Y235.9566 Z-2.5099
X74.8070 Y235.9463 Z-2.5390
X74.6461 Y235.9091 Z-2.5681
X74.4935 Y235.8459 Z-2.5972
X74.3534 Y235.7584 Z-2.6263
X74.2296 Y235.6491 Z-2.6555
X74.1255 Y235.5208 Z-2.6846
X74.0439 Y235.3772 Z-2.7137
X73.9871 Y235.2222 Z-2.7428
X73.9566 Y235.0598 Z-2.7720
X73.9532 Y234.8947 Z-2.8011
X73.9770 Y234.7313 Z-2.8302
X74.0274 Y234.5740 Z-2.8593
X74.1030 Y234.4272 Z-2.8884
X74.2018 Y234.2948 Z-2.9176
X74.3210 Y234.1805 Z-2.9467
X74.4573 Y234.0873 Z-2.9758
X74.6072 Y234.0179 Z-3.0049
X74.7664 Y233.9740 Z-3.0340
X74.9307 Y233.9570 Z-3.0632
X75.0956 Y233.9673 Z-3.0923
X75.2565 Y234.0045 Z-3.1214
X75.4090 Y234.0677 Z-3.1505
X75.5491 Y234.1552 Z-3.1797
X75.6729 Y234.2646 Z-3.2088
X75.7770 Y234.3928 Z-3.2379
X75.8586 Y234.5364 Z-3.2670
X75.9154 Y234.6915 Z-3.2961
X75.9459 Y234.8538 Z-3.3253
X75.9493 Y235.0189 Z-3.3544
X75.9255 Y235.1823 Z-3.3835
X75.8751 Y235.3396 Z-3.4126
X75.7995 Y235.4864 Z-3.4418
X75.7008 Y235.6188 Z-3.4709
X75.5816 Y235.7332 Z-3.5000
G03X74.3210Y234.1805I-0.6303J-0.7764
X75.5816Y235.7332I0.6303J0.7763
G00 Z1.0000
X44.4414 Y288.2162
G01 Z-2.2300  F1000.0
X44.5150 Y288.2849 Z-2.2478
X44.6155 Y288.4160 Z-2.2769
X44.6930 Y288.5618 Z-2.3060
X44.7455 Y288.7184 Z-2.3351
X44.7715 Y288.8815 Z-2.3642
X44.7703 Y289.0467 Z-2.3934
X44.7419 Y289.2094 Z-2.4225
X44.6872 Y289.3652 Z-2.4516
X44.6075 Y289.5099 Z-2.4807
X44.5051 Y289.6394 Z-2.5099
X44.3828 Y289.7504 Z-2.5390
X44.2439 Y289.8397 Z-2.5681
X44.0921 Y289.9050 Z-2.5972
X43.9317 Y289.9443 Z-2.6263
X43.7670 Y289.9568 Z-2.6555
X43.6026 Y289.9419 Z-2.6846
X43.4428 Y289.9002 Z-2.7137
X43.2920 Y289.8328 Z-2.7428
X43.1544 Y289.7414 Z-2.7720
X43.0337 Y289.6287 Z-2.8011
X42.9332 Y289.4976 Z-2.8302
X42.8557 Y289.3518 Z-2.8593
X42.8032 Y289.1952 Z-2.8884
X42.7772 Y289.0321 Z-2.9176
X42.7784 Y288.8670 Z-2.9467
X42.8068 Y288.7043 Z-2.9758
X42.8615 Y288.5484 Z-3.0049
X42.9412 Y288.4038 Z-3.0340
X43.0436 Y288.2742 Z-3.0632
X43.1659 Y288.1632 Z-3.0923
X43.3048 Y288.0739 Z-3.1214
X43.4566 Y288.0086 Z-3.1505
X43.6170 Y287.9693 Z-3.1797
X43.7817 Y287.9568 Z-3.2088
X43.9461 Y287.9717 Z-3.2379
X44.1060 Y288.0134 Z-3.2670
X44.2567 Y288.0808 Z-3.2961
X44.3943 Y288.1722 Z-3.3253
X44.5150 Y288.2849 Z-3.3544
X44.6155 Y288.4160 Z-3.3835
X44.6930 Y288.5618 Z-3.4126
X44.7455 Y288.7184 Z-3.4418
X44.7715 Y288.8815 Z-3.4709
X44.7703 Y289.0467 Z-3.5000
G03X42.7784Y288.8670I-0.9959J-0.0899
X44.7703Y289.0467I0.9960J0.0898
G00 Z1.0000
X12.7121 Y233.9667
G01 Z-2.2300  F1000.0
X12.8119 Y233.9801 Z-2.2478
X12.9697 Y234.0287 Z-2.2769
X13.1174 Y234.1026 Z-2.3060
X13.2509 Y234.1999 Z-2.3351
X13.3666 Y234.3177 Z-2.3642
X13.4613 Y234.4531 Z-2.3934
X13.5324 Y234.6021 Z-2.4225
X13.5780 Y234.7608 Z-2.4516
X13.5969 Y234.9249 Z-2.4807
X13.5885 Y235.0899 Z-2.5099
X13.5531 Y235.2512 Z-2.5390
X13.4916 Y235.4045 Z-2.5681
X13.4058 Y235.5455 Z-2.5972
X13.2978 Y235.6706 Z-2.6263
X13.1708 Y235.7761 Z-2.6555
X13.0281 Y235.8593 Z-2.6846
X12.8737 Y235.9179 Z-2.7137
X12.7118 Y235.9503 Z-2.7428
X12.5467 Y235.9555 Z-2.7720
X12.3830 Y235.9335 Z-2.8011
X12.2252 Y235.8849 Z-2.8302
X12.0775 Y235.8110 Z-2.8593
X11.9440 Y235.7138 Z-2.8884
X11.8283 Y235.5959 Z-2.9176
X11.7336 Y235.4606 Z-2.9467
X11.6625 Y235.3115 Z-2.9758
X11.6168 Y235.1528 Z-3.0049
X11.5979 Y234.9887 Z-3.0341
X11.6063 Y234.8238 Z-3.0632
X11.6417 Y234.6624 Z-3.0923
X11.7032 Y234.5092 Z-3.1214
X11.7891 Y234.3681 Z-3.1505
X11.8970 Y234.2431 Z-3.1797
X12.0241 Y234.1375 Z-3.2088
X12.1667 Y234.0543 Z-3.2379
X12.3212 Y233.9957 Z-3.2670
X12.4831 Y233.9634 Z-3.2961
X12.6482 Y233.9581 Z-3.3253
X12.8119 Y233.9801 Z-3.3544
X12.9697 Y234.0287 Z-3.3835
X13.1174 Y234.1026 Z-3.4126
X13.2509 Y234.1999 Z-3.4418
X13.3666 Y234.3177 Z-3.4709
X13.4613 Y234.4531 Z-3.5000
G03X11.7336Y235.4606I-0.8639J0.5037
X13.4613Y234.4531I0.8638J-0.5038
G00 Z1.0000
X152.7860 Y121.9279
G01 Z-2.2300  F1000.0
Y125.9702 Z-2.9428
X152.7712 Y126.1804 Z-2.9799
X152.7272 Y126.3864 Z-3.0171
X152.6546 Y126.5842 Z-3.0542
X152.5551 Y126.7699 Z-3.0914
X152.4305 Y126.9398 Z-3.1285
X152.2834 Y127.0905 Z-3.1657
X152.1165 Y127.2192 Z-3.2028
X151.9333 Y127.3232 Z-3.2400
X151.7373 Y127.4005 Z-3.2771
X151.5324 Y127.4496 Z-3.3143
X151.3227 Y127.4694 Z-3.3514
X151.1122 Y127.4597 Z-3.3886
X150.9052 Y127.4206 Z-3.4257
X150.7057 Y127.3528 Z-3.4629
X150.5177 Y127.2578 Z-3.5000
X150.5170 Y127.2574
G03X149.7860Y125.9703I0.7671J-1.2869
G01 Y110.9701
G03X152.7860I1.5000J0.0000
G01 Y125.9702
G03X150.5177Y127.2578I-1.4995J0.0002
G00 Z1.0000
(2 1/2 Axis Profiling)
(SlotDrill 2mm Carbide)
X201.0000 Y140.4782
G01 Z-1.7500  F1000.0
Y0.0000
X200.9659 Y-0.2588
X200.8660 Y-0.5000
X200.7071 Y-0.7071
X200.5000 Y-0.8660
X200.2588 Y-0.9659
X200.0000 Y-1.0000
X0.0000
X-0.2588 Y-0.9659
X-0.5000 Y-0.8660
X-0.7071 Y-0.7071
X-0.8660 Y-0.5000
X-0.9659 Y-0.2588
X-1.0000 Y0.0000
Y300.0000
X-0.9659 Y300.2588
X-0.8660 Y300.5000
X-0.7071 Y300.7071
X-0.5000 Y300.8660
X-0.2588 Y300.9659
X0.0000 Y301.0000
X200.0000
X200.2588 Y300.9659
X200.5000 Y300.8660
X200.7071 Y300.7071
X200.8660 Y300.5000
X200.9659 Y300.2588
X201.0000 Y300.0000
Y140.4782
Z-3.5000
Y0.0000
X200.9659 Y-0.2588
X200.8660 Y-0.5000
X200.7071 Y-0.7071
X200.5000 Y-0.8660
X200.2588 Y-0.9659
X200.0000 Y-1.0000
X0.0000
X-0.2588 Y-0.9659
X-0.5000 Y-0.8660
X-0.7071 Y-0.7071
X-0.8660 Y-0.5000
X-0.9659 Y-0.2588
X-1.0000 Y0.0000
Y300.0000
X-0.9659 Y300.2588
X-0.8660 Y300.5000
X-0.7071 Y300.7071
X-0.5000 Y300.8660
X-0.2588 Y300.9659
X0.0000 Y301.0000
X200.0000
X200.2588 Y300.9659
X200.5000 Y300.8660
X200.7071 Y300.7071
X200.8660 Y300.5000
X200.9659 Y300.2588
X201.0000 Y300.0000
Y140.4782
G00 Z1.0000
M5 M9
M30
