G00 G49 G40.1 G17 G80 G50 G90
G21
(Face Top)
(SlotDrill 1/8in 3.175mm Carbide Aluminium Cut)
M6 T6
M03 S20000
G00 Z12.1375
X7.1979 Y16.9394
G01 Z10.6500  F250.0
Z10.0500  F250.0
G17
G02X-16.4841Y-7.0119I-7.0157J-16.7467 F500.0
X16.2745Y-6.1855I16.2128J7.0119
X-7.1843Y15.3281I-16.0852J6.0071
X-5.3886Y-15.5172I7.1642J-15.0578
X14.1965Y7.2302I5.2079J15.3210
X-14.7420Y4.6100I-13.9356J-7.2036
X7.1680Y-13.1083I14.5309J-4.4373
X3.6954Y13.9753I-7.1421J12.8487
X-11.9546Y-7.2123I-3.5419J-13.7574
X13.1400Y-2.9185I11.6870J7.1745
X-7.2496Y10.7661I-12.9266J2.7720
X-2.1466Y-12.2908I7.1886J-10.5022
X9.6124Y7.1587I2.0014J12.0694
X-11.3912Y1.5623I-9.3589J-7.0877
X6.7358Y-8.6853I11.1548J-1.4245
X1.0135Y10.4593I-6.6688J8.4342
X-7.6044Y-6.5139I-0.8972J-10.2189
X9.5053Y-0.4094I7.3485J6.4334
X-6.3189Y6.4562I-9.2696J0.3039
X0.1237Y-8.5299I6.2116J-6.2074
X5.4182Y5.9425I-0.2253J8.2871
X-7.5387Y-0.4749I-5.1834J-5.8234
X5.3824Y-4.5511I7.2813J0.5634
X-0.7712Y6.5222I-5.2646J4.3209
X-3.5529Y-4.9248I0.8296J-6.2631
X5.4702Y1.0836I3.3231J4.7890
X-4.2946Y2.7397I-5.2148J-1.1315
X1.0890Y-4.4584I4.1350J-2.5196
X1.9129Y3.6341I-1.1302J4.2033
X-3.4168Y-1.1899I-1.7193J-3.4567
X2.8719Y-1.2143I3.1491J1.2078
X-1.1686Y2.3708I-2.6933J1.0340
X-0.6033Y-2.0583I1.1383J-2.1053
X1.3847Y0.9127I0.4354J1.8593
X-1.1663Y0.1689I-1.1334J-0.8593
X0.4491Y-0.5110I0.9374J-0.0317
G01 X0.4190 Y-0.5281
X0.3883 Y-0.5434
X0.3571 Y-0.5571
X0.3255 Y-0.5690
X0.2937 Y-0.5791
X0.2617 Y-0.5876
X0.2295 Y-0.5943
X0.1974 Y-0.5993
X0.1654 Y-0.6025
X0.1336 Y-0.6041
X0.1020
X0.0708 Y-0.6024
X0.0400 Y-0.5992
X0.0097 Y-0.5944
X-0.0200 Y-0.5881
X-0.0490 Y-0.5804
X-0.0773 Y-0.5712
X-0.1048 Y-0.5607
X-0.1314 Y-0.5489
X-0.1571 Y-0.5358
X-0.1818 Y-0.5216
X-0.2054 Y-0.5063
X-0.2280 Y-0.4899
X-0.2495 Y-0.4726
X-0.2698 Y-0.4544
X-0.2889 Y-0.4353
X-0.3067 Y-0.4155
X-0.3234 Y-0.3951
X-0.3387 Y-0.3740
X-0.3527 Y-0.3524
X-0.3654 Y-0.3303
X-0.3768 Y-0.3079
X-0.3868 Y-0.2852
X-0.3956 Y-0.2623
X-0.4030 Y-0.2392
X-0.4091 Y-0.2161
X-0.4139 Y-0.1929
X-0.4174 Y-0.1699
X-0.4196 Y-0.1469
X-0.4206 Y-0.1242
X-0.4203 Y-0.1018
X-0.4189 Y-0.0798
X-0.4163 Y-0.0581
X-0.4126 Y-0.0369
X-0.4079 Y-0.0162
X-0.4021 Y0.0039
X-0.3953 Y0.0233
X-0.3876 Y0.0421
X-0.3790 Y0.0602
X-0.3695 Y0.0775
X-0.3593 Y0.0940
X-0.3483 Y0.1097
X-0.3367 Y0.1245
X-0.3245 Y0.1385
X-0.3117 Y0.1515
X-0.2984 Y0.1636
X-0.2847 Y0.1747
X-0.2707 Y0.1849
X-0.2563 Y0.1941
X-0.2417 Y0.2023
X-0.2269 Y0.2095
X-0.2119 Y0.2158
X-0.1969 Y0.2211
X-0.1820 Y0.2255
X-0.1670 Y0.2289
X-0.1522 Y0.2314
X-0.1375 Y0.2330
X-0.1230 Y0.2337
X-0.1088 Y0.2336
X-0.0950 Y0.2326
X-0.0814 Y0.2308
X-0.0683 Y0.2282
X-0.0557 Y0.2250
X-0.0435 Y0.2210
X-0.0318 Y0.2164
X-0.0207 Y0.2112
X-0.0102 Y0.2054
X-0.0003 Y0.1991
X0.0089 Y0.1923
X0.0175 Y0.1851
X0.0254 Y0.1776
X0.0326 Y0.1697
X0.0392 Y0.1615
X0.0450 Y0.1532
X0.0500 Y0.1446
X0.0544 Y0.1359
X0.0580 Y0.1272
X0.0609 Y0.1184
X0.0632 Y0.1097
X0.0647 Y0.1011
X0.0655 Y0.0925
X0.0657 Y0.0842
X0.0652 Y0.0760
X0.0641 Y0.0681
X0.0624 Y0.0606
X0.0601 Y0.0533
X0.0573 Y0.0465
X0.0539 Y0.0400
X0.0501 Y0.0340
X0.0459 Y0.0285
X0.0412 Y0.0235
X0.0362 Y0.0190
X0.0309 Y0.0150
X0.0253 Y0.0116
X0.0195 Y0.0089
X0.0135 Y0.0067
X0.0073 Y0.0051
X0.0011 Y0.0042
G00 Z12.1375
X7.1979 Y16.9394
G01 Z9.5500  F250.0
G02X-16.4841Y-7.0119I-7.0157J-16.7467 F500.0
X16.2745Y-6.1855I16.2128J7.0119
X-7.1843Y15.3281I-16.0852J6.0071
X-5.3886Y-15.5172I7.1642J-15.0578
X14.1965Y7.2302I5.2079J15.3210
X-14.7420Y4.6100I-13.9356J-7.2036
X7.1680Y-13.1083I14.5309J-4.4373
X3.6954Y13.9753I-7.1421J12.8487
X-11.9546Y-7.2123I-3.5419J-13.7574
X13.1400Y-2.9185I11.6870J7.1745
X-7.2496Y10.7661I-12.9266J2.7720
X-2.1466Y-12.2908I7.1886J-10.5022
X9.6124Y7.1587I2.0014J12.0694
X-11.3912Y1.5623I-9.3589J-7.0877
X6.7358Y-8.6853I11.1548J-1.4245
X1.0135Y10.4593I-6.6688J8.4342
X-7.6044Y-6.5139I-0.8972J-10.2189
X9.5053Y-0.4094I7.3485J6.4334
X-6.3189Y6.4562I-9.2696J0.3039
X0.1237Y-8.5299I6.2116J-6.2074
X5.4182Y5.9425I-0.2253J8.2871
X-7.5387Y-0.4749I-5.1834J-5.8234
X5.3824Y-4.5511I7.2813J0.5634
X-0.7712Y6.5222I-5.2646J4.3209
X-3.5529Y-4.9248I0.8296J-6.2631
X5.4702Y1.0836I3.3231J4.7890
X-4.2946Y2.7397I-5.2148J-1.1315
X1.0890Y-4.4584I4.1350J-2.5196
X1.9129Y3.6341I-1.1302J4.2033
X-3.4168Y-1.1899I-1.7193J-3.4567
X2.8719Y-1.2143I3.1491J1.2078
X-1.1686Y2.3708I-2.6933J1.0340
X-0.6033Y-2.0583I1.1383J-2.1053
X1.3847Y0.9127I0.4354J1.8593
X-1.1663Y0.1689I-1.1334J-0.8593
X0.4491Y-0.5110I0.9374J-0.0317
G01 X0.4190 Y-0.5281
X0.3883 Y-0.5434
X0.3571 Y-0.5571
X0.3255 Y-0.5690
X0.2937 Y-0.5791
X0.2617 Y-0.5876
X0.2295 Y-0.5943
X0.1974 Y-0.5993
X0.1654 Y-0.6025
X0.1336 Y-0.6041
X0.1020
X0.0708 Y-0.6024
X0.0400 Y-0.5992
X0.0097 Y-0.5944
X-0.0200 Y-0.5881
X-0.0490 Y-0.5804
X-0.0773 Y-0.5712
X-0.1048 Y-0.5607
X-0.1314 Y-0.5489
X-0.1571 Y-0.5358
X-0.1818 Y-0.5216
X-0.2054 Y-0.5063
X-0.2280 Y-0.4899
X-0.2495 Y-0.4726
X-0.2698 Y-0.4544
X-0.2889 Y-0.4353
X-0.3067 Y-0.4155
X-0.3234 Y-0.3951
X-0.3387 Y-0.3740
X-0.3527 Y-0.3524
X-0.3654 Y-0.3303
X-0.3768 Y-0.3079
X-0.3868 Y-0.2852
X-0.3956 Y-0.2623
X-0.4030 Y-0.2392
X-0.4091 Y-0.2161
X-0.4139 Y-0.1929
X-0.4174 Y-0.1699
X-0.4196 Y-0.1469
X-0.4206 Y-0.1242
X-0.4203 Y-0.1018
X-0.4189 Y-0.0798
X-0.4163 Y-0.0581
X-0.4126 Y-0.0369
X-0.4079 Y-0.0162
X-0.4021 Y0.0039
X-0.3953 Y0.0233
X-0.3876 Y0.0421
X-0.3790 Y0.0602
X-0.3695 Y0.0775
X-0.3593 Y0.0940
X-0.3483 Y0.1097
X-0.3367 Y0.1245
X-0.3245 Y0.1385
X-0.3117 Y0.1515
X-0.2984 Y0.1636
X-0.2847 Y0.1747
X-0.2707 Y0.1849
X-0.2563 Y0.1941
X-0.2417 Y0.2023
X-0.2269 Y0.2095
X-0.2119 Y0.2158
X-0.1969 Y0.2211
X-0.1820 Y0.2255
X-0.1670 Y0.2289
X-0.1522 Y0.2314
X-0.1375 Y0.2330
X-0.1230 Y0.2337
X-0.1088 Y0.2336
X-0.0950 Y0.2326
X-0.0814 Y0.2308
X-0.0683 Y0.2282
X-0.0557 Y0.2250
X-0.0435 Y0.2210
X-0.0318 Y0.2164
X-0.0207 Y0.2112
X-0.0102 Y0.2054
X-0.0003 Y0.1991
X0.0089 Y0.1923
X0.0175 Y0.1851
X0.0254 Y0.1776
X0.0326 Y0.1697
X0.0392 Y0.1615
X0.0450 Y0.1532
X0.0500 Y0.1446
X0.0544 Y0.1359
X0.0580 Y0.1272
X0.0609 Y0.1184
X0.0632 Y0.1097
X0.0647 Y0.1011
X0.0655 Y0.0925
X0.0657 Y0.0842
X0.0652 Y0.0760
X0.0641 Y0.0681
X0.0624 Y0.0606
X0.0601 Y0.0533
X0.0573 Y0.0465
X0.0539 Y0.0400
X0.0501 Y0.0340
X0.0459 Y0.0285
X0.0412 Y0.0235
X0.0362 Y0.0190
X0.0309 Y0.0150
X0.0253 Y0.0116
X0.0195 Y0.0089
X0.0135 Y0.0067
X0.0073 Y0.0051
X0.0011 Y0.0042
G00 Z12.1375
X7.1979 Y16.9394
G01 Z9.0500  F250.0
G02X-16.4841Y-7.0119I-7.0157J-16.7467 F500.0
X16.2745Y-6.1855I16.2128J7.0119
X-7.1843Y15.3281I-16.0852J6.0071
X-5.3886Y-15.5172I7.1642J-15.0578
X14.1965Y7.2302I5.2079J15.3210
X-14.7420Y4.6100I-13.9356J-7.2036
X7.1680Y-13.1083I14.5309J-4.4373
X3.6954Y13.9753I-7.1421J12.8487
X-11.9546Y-7.2123I-3.5419J-13.7574
X13.1400Y-2.9185I11.6870J7.1745
X-7.2496Y10.7661I-12.9266J2.7720
X-2.1466Y-12.2908I7.1886J-10.5022
X9.6124Y7.1587I2.0014J12.0694
X-11.3912Y1.5623I-9.3589J-7.0877
X6.7358Y-8.6853I11.1548J-1.4245
X1.0135Y10.4593I-6.6688J8.4342
X-7.6044Y-6.5139I-0.8972J-10.2189
X9.5053Y-0.4094I7.3485J6.4334
X-6.3189Y6.4562I-9.2696J0.3039
X0.1237Y-8.5299I6.2116J-6.2074
X5.4182Y5.9425I-0.2253J8.2871
X-7.5387Y-0.4749I-5.1834J-5.8234
X5.3824Y-4.5511I7.2813J0.5634
X-0.7712Y6.5222I-5.2646J4.3209
X-3.5529Y-4.9248I0.8296J-6.2631
X5.4702Y1.0836I3.3231J4.7890
X-4.2946Y2.7397I-5.2148J-1.1315
X1.0890Y-4.4584I4.1350J-2.5196
X1.9129Y3.6341I-1.1302J4.2033
X-3.4168Y-1.1899I-1.7193J-3.4567
X2.8719Y-1.2143I3.1491J1.2078
X-1.1686Y2.3708I-2.6933J1.0340
X-0.6033Y-2.0583I1.1383J-2.1053
X1.3847Y0.9127I0.4354J1.8593
X-1.1663Y0.1689I-1.1334J-0.8593
X0.4491Y-0.5110I0.9374J-0.0317
G01 X0.4190 Y-0.5281
X0.3883 Y-0.5434
X0.3571 Y-0.5571
X0.3255 Y-0.5690
X0.2937 Y-0.5791
X0.2617 Y-0.5876
X0.2295 Y-0.5943
X0.1974 Y-0.5993
X0.1654 Y-0.6025
X0.1336 Y-0.6041
X0.1020
X0.0708 Y-0.6024
X0.0400 Y-0.5992
X0.0097 Y-0.5944
X-0.0200 Y-0.5881
X-0.0490 Y-0.5804
X-0.0773 Y-0.5712
X-0.1048 Y-0.5607
X-0.1314 Y-0.5489
X-0.1571 Y-0.5358
X-0.1818 Y-0.5216
X-0.2054 Y-0.5063
X-0.2280 Y-0.4899
X-0.2495 Y-0.4726
X-0.2698 Y-0.4544
X-0.2889 Y-0.4353
X-0.3067 Y-0.4155
X-0.3234 Y-0.3951
X-0.3387 Y-0.3740
X-0.3527 Y-0.3524
X-0.3654 Y-0.3303
X-0.3768 Y-0.3079
X-0.3868 Y-0.2852
X-0.3956 Y-0.2623
X-0.4030 Y-0.2392
X-0.4091 Y-0.2161
X-0.4139 Y-0.1929
X-0.4174 Y-0.1699
X-0.4196 Y-0.1469
X-0.4206 Y-0.1242
X-0.4203 Y-0.1018
X-0.4189 Y-0.0798
X-0.4163 Y-0.0581
X-0.4126 Y-0.0369
X-0.4079 Y-0.0162
X-0.4021 Y0.0039
X-0.3953 Y0.0233
X-0.3876 Y0.0421
X-0.3790 Y0.0602
X-0.3695 Y0.0775
X-0.3593 Y0.0940
X-0.3483 Y0.1097
X-0.3367 Y0.1245
X-0.3245 Y0.1385
X-0.3117 Y0.1515
X-0.2984 Y0.1636
X-0.2847 Y0.1747
X-0.2707 Y0.1849
X-0.2563 Y0.1941
X-0.2417 Y0.2023
X-0.2269 Y0.2095
X-0.2119 Y0.2158
X-0.1969 Y0.2211
X-0.1820 Y0.2255
X-0.1670 Y0.2289
X-0.1522 Y0.2314
X-0.1375 Y0.2330
X-0.1230 Y0.2337
X-0.1088 Y0.2336
X-0.0950 Y0.2326
X-0.0814 Y0.2308
X-0.0683 Y0.2282
X-0.0557 Y0.2250
X-0.0435 Y0.2210
X-0.0318 Y0.2164
X-0.0207 Y0.2112
X-0.0102 Y0.2054
X-0.0003 Y0.1991
X0.0089 Y0.1923
X0.0175 Y0.1851
X0.0254 Y0.1776
X0.0326 Y0.1697
X0.0392 Y0.1615
X0.0450 Y0.1532
X0.0500 Y0.1446
X0.0544 Y0.1359
X0.0580 Y0.1272
X0.0609 Y0.1184
X0.0632 Y0.1097
X0.0647 Y0.1011
X0.0655 Y0.0925
X0.0657 Y0.0842
X0.0652 Y0.0760
X0.0641 Y0.0681
X0.0624 Y0.0606
X0.0601 Y0.0533
X0.0573 Y0.0465
X0.0539 Y0.0400
X0.0501 Y0.0340
X0.0459 Y0.0285
X0.0412 Y0.0235
X0.0362 Y0.0190
X0.0309 Y0.0150
X0.0253 Y0.0116
X0.0195 Y0.0089
X0.0135 Y0.0067
X0.0073 Y0.0051
X0.0011 Y0.0042
G00 Z12.1375
X7.1979 Y16.9394
G01 Z8.5500  F250.0
G02X-16.4841Y-7.0119I-7.0157J-16.7467 F500.0
X16.2745Y-6.1855I16.2128J7.0119
X-7.1843Y15.3281I-16.0852J6.0071
X-5.3886Y-15.5172I7.1642J-15.0578
X14.1965Y7.2302I5.2079J15.3210
X-14.7420Y4.6100I-13.9356J-7.2036
X7.1680Y-13.1083I14.5309J-4.4373
X3.6954Y13.9753I-7.1421J12.8487
X-11.9546Y-7.2123I-3.5419J-13.7574
X13.1400Y-2.9185I11.6870J7.1745
X-7.2496Y10.7661I-12.9266J2.7720
X-2.1466Y-12.2908I7.1886J-10.5022
X9.6124Y7.1587I2.0014J12.0694
X-11.3912Y1.5623I-9.3589J-7.0877
X6.7358Y-8.6853I11.1548J-1.4245
X1.0135Y10.4593I-6.6688J8.4342
X-7.6044Y-6.5139I-0.8972J-10.2189
X9.5053Y-0.4094I7.3485J6.4334
X-6.3189Y6.4562I-9.2696J0.3039
X0.1237Y-8.5299I6.2116J-6.2074
X5.4182Y5.9425I-0.2253J8.2871
X-7.5387Y-0.4749I-5.1834J-5.8234
X5.3824Y-4.5511I7.2813J0.5634
X-0.7712Y6.5222I-5.2646J4.3209
X-3.5529Y-4.9248I0.8296J-6.2631
X5.4702Y1.0836I3.3231J4.7890
X-4.2946Y2.7397I-5.2148J-1.1315
X1.0890Y-4.4584I4.1350J-2.5196
X1.9129Y3.6341I-1.1302J4.2033
X-3.4168Y-1.1899I-1.7193J-3.4567
X2.8719Y-1.2143I3.1491J1.2078
X-1.1686Y2.3708I-2.6933J1.0340
X-0.6033Y-2.0583I1.1383J-2.1053
X1.3847Y0.9127I0.4354J1.8593
X-1.1663Y0.1689I-1.1334J-0.8593
X0.4491Y-0.5110I0.9374J-0.0317
G01 X0.4190 Y-0.5281
X0.3883 Y-0.5434
X0.3571 Y-0.5571
X0.3255 Y-0.5690
X0.2937 Y-0.5791
X0.2617 Y-0.5876
X0.2295 Y-0.5943
X0.1974 Y-0.5993
X0.1654 Y-0.6025
X0.1336 Y-0.6041
X0.1020
X0.0708 Y-0.6024
X0.0400 Y-0.5992
X0.0097 Y-0.5944
X-0.0200 Y-0.5881
X-0.0490 Y-0.5804
X-0.0773 Y-0.5712
X-0.1048 Y-0.5607
X-0.1314 Y-0.5489
X-0.1571 Y-0.5358
X-0.1818 Y-0.5216
X-0.2054 Y-0.5063
X-0.2280 Y-0.4899
X-0.2495 Y-0.4726
X-0.2698 Y-0.4544
X-0.2889 Y-0.4353
X-0.3067 Y-0.4155
X-0.3234 Y-0.3951
X-0.3387 Y-0.3740
X-0.3527 Y-0.3524
X-0.3654 Y-0.3303
X-0.3768 Y-0.3079
X-0.3868 Y-0.2852
X-0.3956 Y-0.2623
X-0.4030 Y-0.2392
X-0.4091 Y-0.2161
X-0.4139 Y-0.1929
X-0.4174 Y-0.1699
X-0.4196 Y-0.1469
X-0.4206 Y-0.1242
X-0.4203 Y-0.1018
X-0.4189 Y-0.0798
X-0.4163 Y-0.0581
X-0.4126 Y-0.0369
X-0.4079 Y-0.0162
X-0.4021 Y0.0039
X-0.3953 Y0.0233
X-0.3876 Y0.0421
X-0.3790 Y0.0602
X-0.3695 Y0.0775
X-0.3593 Y0.0940
X-0.3483 Y0.1097
X-0.3367 Y0.1245
X-0.3245 Y0.1385
X-0.3117 Y0.1515
X-0.2984 Y0.1636
X-0.2847 Y0.1747
X-0.2707 Y0.1849
X-0.2563 Y0.1941
X-0.2417 Y0.2023
X-0.2269 Y0.2095
X-0.2119 Y0.2158
X-0.1969 Y0.2211
X-0.1820 Y0.2255
X-0.1670 Y0.2289
X-0.1522 Y0.2314
X-0.1375 Y0.2330
X-0.1230 Y0.2337
X-0.1088 Y0.2336
X-0.0950 Y0.2326
X-0.0814 Y0.2308
X-0.0683 Y0.2282
X-0.0557 Y0.2250
X-0.0435 Y0.2210
X-0.0318 Y0.2164
X-0.0207 Y0.2112
X-0.0102 Y0.2054
X-0.0003 Y0.1991
X0.0089 Y0.1923
X0.0175 Y0.1851
X0.0254 Y0.1776
X0.0326 Y0.1697
X0.0392 Y0.1615
X0.0450 Y0.1532
X0.0500 Y0.1446
X0.0544 Y0.1359
X0.0580 Y0.1272
X0.0609 Y0.1184
X0.0632 Y0.1097
X0.0647 Y0.1011
X0.0655 Y0.0925
X0.0657 Y0.0842
X0.0652 Y0.0760
X0.0641 Y0.0681
X0.0624 Y0.0606
X0.0601 Y0.0533
X0.0573 Y0.0465
X0.0539 Y0.0400
X0.0501 Y0.0340
X0.0459 Y0.0285
X0.0412 Y0.0235
X0.0362 Y0.0190
X0.0309 Y0.0150
X0.0253 Y0.0116
X0.0195 Y0.0089
X0.0135 Y0.0067
X0.0073 Y0.0051
X0.0011 Y0.0042
X-1.0583 Y-0.0487 Z9.6107  F2000.0
Z10.2107
G00 Z12.1375
(Machine Edge - Rough)
(SlotDrill 1/8in 3.175mm Carbide Aluminium Cut)
Z9.8875
X18.6448 Y-0.3689
G01 Z8.5625  F250.0
Z7.9625  F250.0
G02X11.0368Y-15.0306I-18.6500J0.3728 F500.0
G03X12.3059Y-10.4396I-2.5674J3.1806
Y10.4396I-12.3059J10.4396
X5.8928Y15.0231I-3.8365J1.4104
X1.8056Y16.0362I-5.8928J-15.0231
X-1.8056I-1.8056J-16.0362
X-5.8928Y15.0231I1.8056J-16.0362
X-12.3059Y10.4396I-2.5766J-3.1731
X-15.4310Y4.7225I12.3059J-10.4396
X-12.3059Y-10.4396I15.4310J-4.7225
X-5.8928Y-15.0231I3.8365J-1.4104
X5.8928I5.8928J15.0231
X10.6484Y-15.3083I2.5766J3.1731
G02X18.6448Y-0.3689I-10.6536J15.3122
G01 X17.8512 Y-0.3530
G03X13.3507Y11.8613I-17.8564J0.3569
G02X13.1915Y10.6137I-4.8813J-0.0113
Y-10.6137I-13.1915J-10.6137
X13.3507Y-11.8536I-4.7221J-1.2363
G03X17.8512Y-0.3530I-13.3559J11.8575
G00 Z9.8875
X5.5003 Y-15.1712
G01 Z7.9625  F250.0
X5.7708 Y-15.9174  F500.0
G02X-5.7708I-5.7708J15.9174
X-6.8994Y-16.4718I-2.6986J4.0674
G03X6.8936Y-16.4699I6.8942J16.4757
G02X5.7708Y-15.9174I1.5758J4.6199
G00 Z9.8875
X-12.5731 Y-10.1161
G01 Z7.9625  F250.0
X-13.1915 Y-10.6137  F500.0
G02X-16.1900Y4.9548I13.1915J10.6137
X-13.1915Y10.6137I16.1900J-4.9548
X-13.3506Y11.8731I4.7221J1.2363
G03X-13.3507Y-11.8653I13.3454J-11.8692
G02X-13.1915Y-10.6137I4.8813J0.0153
G00 Z9.8875
X-1.8056 Y16.0362
G01 Z7.9625  F250.0
X-1.8944 Y16.8249  F500.0
G02X1.8944I1.8944J-16.8249
X5.7708Y15.9174I-1.8944J-16.8249
X6.9038Y16.4734I2.6986J-4.0674
G03X-6.9096Y16.4753I-6.9090J-16.4695
G02X-5.7708Y15.9174I-1.5598J-4.6253
X-1.8944Y16.8249I5.7708J-15.9174
G00 Z9.8875
X18.6448 Y-0.3689
G01 Z7.6250  F250.0
G02X11.0368Y-15.0306I-18.6500J0.3728 F500.0
G03X12.3059Y-10.4396I-2.5674J3.1806
Y10.4396I-12.3059J10.4396
X5.8928Y15.0231I-3.8365J1.4104
X1.8056Y16.0362I-5.8928J-15.0231
X-1.8056I-1.8056J-16.0362
X-5.8928Y15.0231I1.8056J-16.0362
X-12.3059Y10.4396I-2.5766J-3.1731
X-15.4310Y4.7225I12.3059J-10.4396
X-12.3059Y-10.4396I15.4310J-4.7225
X-5.8928Y-15.0231I3.8365J-1.4104
X5.8928I5.8928J15.0231
X10.6484Y-15.3083I2.5766J3.1731
G02X18.6448Y-0.3689I-10.6536J15.3122
G01 X17.8512 Y-0.3530
G03X13.3507Y11.8613I-17.8564J0.3569
G02X13.1915Y10.6137I-4.8813J-0.0113
Y-10.6137I-13.1915J-10.6137
X13.3507Y-11.8536I-4.7221J-1.2363
G03X17.8512Y-0.3530I-13.3559J11.8575
G00 Z9.8875
X5.5003 Y-15.1712
G01 Z7.6250  F250.0
X5.7708 Y-15.9174  F500.0
G02X-5.7708I-5.7708J15.9174
X-6.8994Y-16.4718I-2.6986J4.0674
G03X6.8936Y-16.4699I6.8942J16.4757
G02X5.7708Y-15.9174I1.5758J4.6199
G00 Z9.8875
X-12.5731 Y-10.1161
G01 Z7.6250  F250.0
X-13.1915 Y-10.6137  F500.0
G02X-16.1900Y4.9548I13.1915J10.6137
X-13.1915Y10.6137I16.1900J-4.9548
X-13.3506Y11.8731I4.7221J1.2363
G03X-13.3507Y-11.8653I13.3454J-11.8692
G02X-13.1915Y-10.6137I4.8813J0.0153
G00 Z9.8875
X-1.8056 Y16.0362
G01 Z7.6250  F250.0
X-1.8944 Y16.8249  F500.0
G02X1.8944I1.8944J-16.8249
X5.7708Y15.9174I-1.8944J-16.8249
X6.9038Y16.4734I2.6986J-4.0674
G03X-6.9096Y16.4753I-6.9090J-16.4695
G02X-5.7708Y15.9174I-1.5598J-4.6253
X-1.8944Y16.8249I5.7708J-15.9174
G00 Z9.8875
X18.6448 Y-0.3689
G01 Z7.2875  F250.0
G02X11.0368Y-15.0306I-18.6500J0.3728 F500.0
G03X12.3059Y-10.4396I-2.5674J3.1806
Y10.4396I-12.3059J10.4396
X5.8928Y15.0231I-3.8365J1.4104
X1.8056Y16.0362I-5.8928J-15.0231
X-1.8056I-1.8056J-16.0362
X-5.8928Y15.0231I1.8056J-16.0362
X-12.3059Y10.4396I-2.5766J-3.1731
X-15.4310Y4.7225I12.3059J-10.4396
X-12.3059Y-10.4396I15.4310J-4.7225
X-5.8928Y-15.0231I3.8365J-1.4104
X5.8928I5.8928J15.0231
X10.6484Y-15.3083I2.5766J3.1731
G02X18.6448Y-0.3689I-10.6536J15.3122
G01 X17.8512 Y-0.3530
G03X13.3507Y11.8613I-17.8564J0.3569
G02X13.1915Y10.6137I-4.8813J-0.0113
Y-10.6137I-13.1915J-10.6137
X13.3507Y-11.8536I-4.7221J-1.2363
G03X17.8512Y-0.3530I-13.3559J11.8575
G00 Z9.8875
X5.5003 Y-15.1712
G01 Z7.2875  F250.0
X5.7708 Y-15.9174  F500.0
G02X-5.7708I-5.7708J15.9174
X-6.8994Y-16.4718I-2.6986J4.0674
G03X6.8936Y-16.4699I6.8942J16.4757
G02X5.7708Y-15.9174I1.5758J4.6199
G00 Z9.8875
X-12.5731 Y-10.1161
G01 Z7.2875  F250.0
X-13.1915 Y-10.6137  F500.0
G02X-16.1900Y4.9548I13.1915J10.6137
X-13.1915Y10.6137I16.1900J-4.9548
X-13.3506Y11.8731I4.7221J1.2363
G03X-13.3507Y-11.8653I13.3454J-11.8692
G02X-13.1915Y-10.6137I4.8813J0.0153
G00 Z9.8875
X-1.8056 Y16.0362
G01 Z7.2875  F250.0
X-1.8944 Y16.8249  F500.0
G02X1.8944I1.8944J-16.8249
X5.7708Y15.9174I-1.8944J-16.8249
X6.9038Y16.4734I2.6986J-4.0674
G03X-6.9096Y16.4753I-6.9090J-16.4695
G02X-5.7708Y15.9174I-1.5598J-4.6253
X-1.8944Y16.8249I5.7708J-15.9174
G00 Z9.8875
X18.6448 Y-0.3689
G01 Z6.9500  F250.0
G02X11.0368Y-15.0306I-18.6500J0.3728 F500.0
G03X12.3059Y-10.4396I-2.5674J3.1806
Y10.4396I-12.3059J10.4396
X5.8928Y15.0231I-3.8365J1.4104
X1.8056Y16.0362I-5.8928J-15.0231
X-1.8056I-1.8056J-16.0362
X-5.8928Y15.0231I1.8056J-16.0362
X-12.3059Y10.4396I-2.5766J-3.1731
X-15.4310Y4.7225I12.3059J-10.4396
X-12.3059Y-10.4396I15.4310J-4.7225
X-5.8928Y-15.0231I3.8365J-1.4104
X5.8928I5.8928J15.0231
X10.6484Y-15.3083I2.5766J3.1731
G02X18.6448Y-0.3689I-10.6536J15.3122
G01 X17.8512 Y-0.3530
G03X13.3507Y11.8613I-17.8564J0.3569
G02X13.1915Y10.6137I-4.8813J-0.0113
Y-10.6137I-13.1915J-10.6137
X13.3507Y-11.8536I-4.7221J-1.2363
G03X17.8512Y-0.3530I-13.3559J11.8575
G01 X16.7908 Y-0.3318 Z8.0107  F2000.0
Z8.6107
G00 Z9.8875
X5.5003 Y-15.1712
G01 Z6.9500  F250.0
X5.7708 Y-15.9174  F500.0
G02X-5.7708I-5.7708J15.9174
X-6.8994Y-16.4718I-2.6986J4.0674
G03X6.8936Y-16.4699I6.8942J16.4757
G02X5.7708Y-15.9174I1.5758J4.6199
G01 Z7.5500  F2000.0
G00 Z9.8875
X-12.5731 Y-10.1161
G01 Z6.9500  F250.0
X-13.1915 Y-10.6137  F500.0
G02X-16.1900Y4.9548I13.1915J10.6137
X-13.1915Y10.6137I16.1900J-4.9548
X-13.3506Y11.8731I4.7221J1.2363
G03X-13.3507Y-11.8653I13.3454J-11.8692
G02X-13.1915Y-10.6137I4.8813J0.0153
G01 Z7.5500  F2000.0
G00 Z9.8875
X-1.8056 Y16.0362
G01 Z6.9500  F250.0
X-1.8944 Y16.8249  F500.0
G02X1.8944I1.8944J-16.8249
X5.7708Y15.9174I-1.8944J-16.8249
X6.9038Y16.4734I2.6986J-4.0674
G03X-6.9096Y16.4753I-6.9090J-16.4695
G02X-5.7708Y15.9174I-1.5598J-4.6253
X-1.8944Y16.8249I5.7708J-15.9174
G01 Z7.5500  F2000.0
G00 Z9.8875
(Cable Slot)
(SlotDrill 1/8in 3.175mm Carbide Aluminium Cut)
X0.0125 Y14.7598
G01 Z9.0357  F250.0
Z8.4357  F250.0
Y18.1626 Z7.8357
X-0.0125  F500.0
Y-4.1363
G03X2.4062Y-5.5327I1.6125J0.0000
G01 X12.0163 Y0.0157
X12.0226 Y0.0265
X12.0163 Y0.0373
X12.0038
X3.1437 Y-5.0781
G02X0.0125Y-3.2702I-1.0437J1.8079
G01 Y18.1626
Z7.3714
X-0.0125
Y-4.1363
G03X2.4062Y-5.5327I1.6125J0.0000
G01 X12.0163 Y0.0157
X12.0226 Y0.0265
X12.0163 Y0.0373
X12.0038
X3.1437 Y-5.0781
G02X0.0125Y-3.2702I-1.0437J1.8079
G01 Y18.1626
Z6.9071
X-0.0125
Y-4.1363
G03X2.4062Y-5.5327I1.6125J0.0000
G01 X12.0163 Y0.0157
X12.0226 Y0.0265
X12.0163 Y0.0373
X12.0038
X3.1437 Y-5.0781
G02X0.0125Y-3.2702I-1.0437J1.8079
G01 Y18.1626
Z6.4429
X-0.0125
Y-4.1363
G03X2.4062Y-5.5327I1.6125J0.0000
G01 X12.0163 Y0.0157
X12.0226 Y0.0265
X12.0163 Y0.0373
X12.0038
X3.1437 Y-5.0781
G02X0.0125Y-3.2702I-1.0437J1.8079
G01 Y18.1626
Z5.9786
X-0.0125
Y-4.1363
G03X2.4062Y-5.5327I1.6125J0.0000
G01 X12.0163 Y0.0157
X12.0226 Y0.0265
X12.0163 Y0.0373
X12.0038
X3.1437 Y-5.0781
G02X0.0125Y-3.2702I-1.0437J1.8079
G01 Y18.1626
Z5.5143
X-0.0125
Y-4.1363
G03X2.4062Y-5.5327I1.6125J0.0000
G01 X12.0163 Y0.0157
X12.0226 Y0.0265
X12.0163 Y0.0373
X12.0038
X3.1437 Y-5.0781
G02X0.0125Y-3.2702I-1.0437J1.8079
G01 Y18.1626
Z5.0500
X-0.0125
Y-4.1363
G03X2.4062Y-5.5327I1.6125J0.0000
G01 X12.0163 Y0.0157
X12.0226 Y0.0265
X12.0163 Y0.0373
X12.0038
X3.1437 Y-5.0781
G02X0.0125Y-3.2702I-1.0437J1.8079
G01 Y18.1626
Z4.8000
X-0.0125
Y-4.1363
G03X2.4062Y-5.5327I1.6125J0.0000
G01 X12.0163 Y0.0157
X12.0226 Y0.0265
X12.0163 Y0.0373
X12.0038
X3.1437 Y-5.0781
G02X0.0125Y-3.2702I-1.0437J1.8079
G01 Y18.1626
X-1.0482 Z5.8607  F2000.0
Z6.4607
G00 Z9.8875
(Cable Slot part 2)
(SlotDrill 1/8in 3.175mm Carbide Aluminium Cut)
X0.0125 Y18.4104
G01 Z4.5000  F250.0
X0.0000 Y18.4109  F500.0
X-0.0125 Y18.4104
Y11.6903
X0.0125
Y18.4104
Z4.0000
X0.0000 Y18.4109
X-0.0125 Y18.4104
Y11.6903
X0.0125
Y18.4104
Z3.5000
X0.0000 Y18.4109
X-0.0125 Y18.4104
Y11.6903
X0.0125
Y18.4104
Z3.0000
X0.0000 Y18.4109
X-0.0125 Y18.4104
Y11.6903
X0.0125
Y18.4104
Z2.5000
X0.0000 Y18.4109
X-0.0125 Y18.4104
Y11.6903
X0.0125
Y18.4104
Z2.0000
X0.0000 Y18.4109
X-0.0125 Y18.4104
Y11.6903
X0.0125
Y18.4104
G00 Z9.8875
(Face Top - Finish)
(SlotDrill 1/8in 3.175mm Carbide Aluminium Cut)
X7.1979 Y16.9394
G01 Z8.9000  F250.0
Z8.3000
G02X-16.4841Y-7.0119I-7.0157J-16.7467
X16.2745Y-6.1855I16.2128J7.0119
X-7.1843Y15.3281I-16.0852J6.0071
X-5.3886Y-15.5172I7.1642J-15.0578
X14.1965Y7.2302I5.2079J15.3210
X-14.7420Y4.6100I-13.9356J-7.2036
X7.1680Y-13.1083I14.5309J-4.4373
X3.6954Y13.9753I-7.1421J12.8487
X-11.9546Y-7.2123I-3.5419J-13.7574
X13.1400Y-2.9185I11.6870J7.1745
X-7.2496Y10.7661I-12.9266J2.7720
X-2.1466Y-12.2908I7.1886J-10.5022
X9.6124Y7.1587I2.0014J12.0694
X-11.3912Y1.5623I-9.3589J-7.0877
X6.7358Y-8.6853I11.1548J-1.4245
X1.0135Y10.4593I-6.6688J8.4342
X-7.6044Y-6.5139I-0.8972J-10.2189
X9.5053Y-0.4094I7.3485J6.4334
X-6.3189Y6.4562I-9.2696J0.3039
X0.1237Y-8.5299I6.2116J-6.2074
X5.4182Y5.9425I-0.2253J8.2871
X-7.5387Y-0.4749I-5.1834J-5.8234
X5.3824Y-4.5511I7.2813J0.5634
X-0.7712Y6.5222I-5.2646J4.3209
X-3.5529Y-4.9248I0.8296J-6.2631
X5.4702Y1.0836I3.3231J4.7890
X-4.2946Y2.7397I-5.2148J-1.1315
X1.0890Y-4.4584I4.1350J-2.5196
X1.9129Y3.6341I-1.1302J4.2033
X-3.4168Y-1.1899I-1.7193J-3.4567
X2.8719Y-1.2143I3.1491J1.2078
X-1.1686Y2.3708I-2.6933J1.0340
X-0.6033Y-2.0583I1.1383J-2.1053
X1.3847Y0.9127I0.4354J1.8593
X-1.1663Y0.1689I-1.1334J-0.8593
X0.4491Y-0.5110I0.9374J-0.0317
G01 X0.4190 Y-0.5281
X0.3883 Y-0.5434
X0.3571 Y-0.5571
X0.3255 Y-0.5690
X0.2937 Y-0.5791
X0.2617 Y-0.5876
X0.2295 Y-0.5943
X0.1974 Y-0.5993
X0.1654 Y-0.6025
X0.1336 Y-0.6041
X0.1020
X0.0708 Y-0.6024
X0.0400 Y-0.5992
X0.0097 Y-0.5944
X-0.0200 Y-0.5881
X-0.0490 Y-0.5804
X-0.0773 Y-0.5712
X-0.1048 Y-0.5607
X-0.1314 Y-0.5489
X-0.1571 Y-0.5358
X-0.1818 Y-0.5216
X-0.2054 Y-0.5063
X-0.2280 Y-0.4899
X-0.2495 Y-0.4726
X-0.2698 Y-0.4544
X-0.2889 Y-0.4353
X-0.3067 Y-0.4155
X-0.3234 Y-0.3951
X-0.3387 Y-0.3740
X-0.3527 Y-0.3524
X-0.3654 Y-0.3303
X-0.3768 Y-0.3079
X-0.3868 Y-0.2852
X-0.3956 Y-0.2623
X-0.4030 Y-0.2392
X-0.4091 Y-0.2161
X-0.4139 Y-0.1929
X-0.4174 Y-0.1699
X-0.4196 Y-0.1469
X-0.4206 Y-0.1242
X-0.4203 Y-0.1018
X-0.4189 Y-0.0798
X-0.4163 Y-0.0581
X-0.4126 Y-0.0369
X-0.4079 Y-0.0162
X-0.4021 Y0.0039
X-0.3953 Y0.0233
X-0.3876 Y0.0421
X-0.3790 Y0.0602
X-0.3695 Y0.0775
X-0.3593 Y0.0940
X-0.3483 Y0.1097
X-0.3367 Y0.1245
X-0.3245 Y0.1385
X-0.3117 Y0.1515
X-0.2984 Y0.1636
X-0.2847 Y0.1747
X-0.2707 Y0.1849
X-0.2563 Y0.1941
X-0.2417 Y0.2023
X-0.2269 Y0.2095
X-0.2119 Y0.2158
X-0.1969 Y0.2211
X-0.1820 Y0.2255
X-0.1670 Y0.2289
X-0.1522 Y0.2314
X-0.1375 Y0.2330
X-0.1230 Y0.2337
X-0.1088 Y0.2336
X-0.0950 Y0.2326
X-0.0814 Y0.2308
X-0.0683 Y0.2282
X-0.0557 Y0.2250
X-0.0435 Y0.2210
X-0.0318 Y0.2164
X-0.0207 Y0.2112
X-0.0102 Y0.2054
X-0.0003 Y0.1991
X0.0089 Y0.1923
X0.0175 Y0.1851
X0.0254 Y0.1776
X0.0326 Y0.1697
X0.0392 Y0.1615
X0.0450 Y0.1532
X0.0500 Y0.1446
X0.0544 Y0.1359
X0.0580 Y0.1272
X0.0609 Y0.1184
X0.0632 Y0.1097
X0.0647 Y0.1011
X0.0655 Y0.0925
X0.0657 Y0.0842
X0.0652 Y0.0760
X0.0641 Y0.0681
X0.0624 Y0.0606
X0.0601 Y0.0533
X0.0573 Y0.0465
X0.0539 Y0.0400
X0.0501 Y0.0340
X0.0459 Y0.0285
X0.0412 Y0.0235
X0.0362 Y0.0190
X0.0309 Y0.0150
X0.0253 Y0.0116
X0.0195 Y0.0089
X0.0135 Y0.0067
X0.0073 Y0.0051
X0.0011 Y0.0042
X-1.0583 Y-0.0487 Z9.3607  F2000.0
Z9.9607
G00 Z9.8875
(Machine Edge - Finish)
(SlotDrill 1/8in 3.175mm Carbide Aluminium Cut)
X18.8947 Y-0.3739
G01 Z8.3419  F250.0
Z7.7419
X18.8637 Y-0.9731 Z7.6377
X18.8947 Y-0.3739 Z7.5335
X18.8637 Y-0.9731 Z7.4293
X18.8947 Y-0.3739 Z7.3251
X18.8637 Y-0.9731 Z7.2209
X18.8947 Y-0.3739 Z7.1168
X18.8637 Y-0.9731 Z7.0126
X18.8947 Y-0.3739 Z6.9084
X18.8637 Y-0.9731 Z6.8042
X18.8947 Y-0.3739 Z6.7000
G02X-18.9052Y0.3816I-18.8999J0.3778
X18.8947Y-0.3739I18.9000J-0.3777
G01 X18.1012 Y-0.3580
G02X11.8290Y-13.7046I-18.1064J0.3619
G03X12.0186Y-10.3906I-3.3596J1.8546
Y10.3906I-12.0186J10.3906
X11.8208Y13.7195I-3.5492J1.4594
G02X18.1012Y-0.3580I-11.8260J-13.7156
G01 X17.3076 Y-0.3422
G02X13.0731Y-11.3455I-17.3128J0.3461
G03X12.9163Y-10.5562I-4.6037J-0.5045
Y10.5562I-12.9163J10.5562
X13.0739Y11.3524I-4.4469J1.2938
G02X17.3076Y-0.3422I-13.0791J-11.3485
G01 X16.2471 Y-0.3210 Z7.7607  F2000.0
Z8.3607
G00 Z9.8875
X1.4931 Y-15.8171
G01 Z8.3000  F250.0
Z7.7000
X1.5348 Y-15.8132 Z7.6926
X1.6572 Y-15.8008 Z7.6709
X1.7794 Y-15.7875 Z7.6492
X1.9016 Y-15.7733 Z7.6276
X2.0236 Y-15.7581 Z7.6059
X2.1455 Y-15.7420 Z7.5842
X2.2673 Y-15.7249 Z7.5625
X2.3890 Y-15.7069 Z7.5408
X2.5105 Y-15.6879 Z7.5191
X2.6318 Y-15.6680 Z7.4975
X2.7530 Y-15.6472 Z7.4758
X2.8741 Y-15.6254 Z7.4541
X2.9949 Y-15.6027 Z7.4324
X3.1156 Y-15.5790 Z7.4107
X3.2361 Y-15.5544 Z7.3890
X3.3564 Y-15.5289 Z7.3674
X3.4765 Y-15.5025 Z7.3457
X3.5964 Y-15.4751 Z7.3240
X3.7161 Y-15.4468 Z7.3023
X3.8355 Y-15.4176 Z7.2806
X3.9547 Y-15.3874 Z7.2589
X4.0737 Y-15.3563 Z7.2372
X4.1925 Y-15.3244 Z7.2156
X4.3110 Y-15.2914 Z7.1939
X4.4292 Y-15.2576 Z7.1722
X4.5472 Y-15.2229 Z7.1505
X4.6649 Y-15.1872 Z7.1288
X4.7823 Y-15.1507 Z7.1071
X4.8994 Y-15.1132 Z7.0855
X5.0163 Y-15.0748 Z7.0638
X5.1328 Y-15.0355 Z7.0421
X5.2490 Y-14.9953 Z7.0204
X5.3649 Y-14.9543 Z6.9987
X5.4805 Y-14.9123 Z6.9770
X5.5958 Y-14.8694 Z6.9553
X5.7107 Y-14.8257 Z6.9337
X5.8253 Y-14.7810 Z6.9120
X5.9395 Y-14.7355 Z6.8903
X5.9849 Y-14.7747 Z6.8797
X6.0309 Y-14.8131 Z6.8692
X6.0775 Y-14.8509 Z6.8586
X6.1247 Y-14.8879 Z6.8480
X6.1724 Y-14.9241 Z6.8374
X6.2207 Y-14.9596 Z6.8269
X6.2696 Y-14.9944 Z6.8163
X6.3190 Y-15.0284 Z6.8057
X6.3689 Y-15.0616 Z6.7951
X6.4194 Y-15.0940 Z6.7846
X6.4703 Y-15.1256 Z6.7740
X6.5217 Y-15.1565 Z6.7634
X6.5736 Y-15.1865 Z6.7529
X6.6260 Y-15.2157 Z6.7423
X6.6788 Y-15.2441 Z6.7317
X6.7320 Y-15.2717 Z6.7211
X6.7857 Y-15.2984 Z6.7106
X6.8398 Y-15.3243 Z6.7000
G03X9.1374Y-15.6289I1.6296J3.4743
G02X-9.1524Y-15.6262I-9.1426J15.6328
G03X-5.9395Y-14.7355I0.6830J3.7762
X5.9395I5.9395J14.7355
X6.8398Y-15.3243I2.5299J2.8855
G01 X6.5027 Y-16.0429
G02X-6.5075Y-16.0452I-6.5079J16.0468
G03X-5.8055Y-15.6384I-1.9619J4.1952
X5.8055I5.8055J15.6384
X6.5027Y-16.0429I2.6639J3.7884
G01 X6.1041 Y-15.0600 Z7.7607  F2000.0
Z8.3607
G00 Z9.8875
X-12.7075 Y9.5357
G01 Z8.3000  F250.0
Z7.7000
X-12.7692 Y9.4530 Z7.6818
X-12.8403 Y9.3562 Z7.6606
X-12.9107 Y9.2588 Z7.6394
X-12.9804 Y9.1609 Z7.6183
X-13.0493 Y9.0625 Z7.5971
X-13.1174 Y8.9636 Z7.5759
X-13.1848 Y8.8642 Z7.5547
X-13.2515 Y8.7642 Z7.5335
X-13.3174 Y8.6637 Z7.5123
X-13.3825 Y8.5628 Z7.4912
X-13.4469 Y8.4614 Z7.4700
X-13.5105 Y8.3594 Z7.4488
X-13.5733 Y8.2570 Z7.4276
X-13.6353 Y8.1542 Z7.4064
X-13.6966 Y8.0508 Z7.3853
X-13.7571 Y7.9470 Z7.3641
X-13.8168 Y7.8428 Z7.3429
X-13.8757 Y7.7381 Z7.3217
X-13.9338 Y7.6329 Z7.3005
X-13.9911 Y7.5274 Z7.2793
X-14.0476 Y7.4213 Z7.2582
X-14.1034 Y7.3149 Z7.2370
X-14.1583 Y7.2081 Z7.2158
X-14.2124 Y7.1008 Z7.1946
X-14.2657 Y6.9931 Z7.1734
X-14.3181 Y6.8851 Z7.1522
X-14.3698 Y6.7766 Z7.1311
X-14.4206 Y6.6677 Z7.1099
X-14.4706 Y6.5585 Z7.0887
X-14.5198 Y6.4489 Z7.0675
X-14.5681 Y6.3389 Z7.0463
X-14.6157 Y6.2286 Z7.0251
X-14.6623 Y6.1179 Z7.0040
X-14.7082 Y6.0068 Z6.9828
X-14.7532 Y5.8955 Z6.9616
X-14.7973 Y5.7837 Z6.9404
X-14.8406 Y5.6717 Z6.9192
X-14.8831 Y5.5593 Z6.8980
X-14.9247 Y5.4466 Z6.8769
X-14.9655 Y5.3336 Z6.8557
X-15.0054 Y5.2203 Z6.8345
X-15.0444 Y5.1067 Z6.8133
X-15.0826 Y4.9927 Z6.7921
X-15.1199 Y4.8786 Z6.7709
X-15.1564 Y4.7641 Z6.7498
X-15.1920 Y4.6493 Z6.7286
X-15.2386 Y4.4941 Z6.7000
X-15.1920 Y4.6493
G03X-12.0186Y-10.3906I15.1920J-4.6493
X-11.8195Y-13.7218I3.5492J-1.4594
G02X-11.8110Y13.7368I11.8143J13.7257
G03X-12.0186Y10.3906I3.3416J-1.8868
X-15.1920Y4.6493I12.0186J-10.3906
G01 X-15.9510 Y4.8816
G03X-12.9163Y-10.5562I15.9510J-4.8816
X-13.0743Y-11.3562I4.4469J-1.2938
G02X-13.0750Y11.3631I13.0691J11.3601
G03X-12.9163Y10.5562I4.6056J0.4869
X-15.9510Y4.8816I12.9163J-10.5562
G01 X-14.9367 Y4.5714 Z7.7607  F2000.0
Z8.3607
G00 Z9.8875
X6.1687 Y17.0290
G01 Z8.3000  F250.0
Z7.7000
X6.1740 Y17.0270 Z7.6990
X6.3561 Y16.9598 Z7.6648
X6.5375 Y16.8907 Z7.6305
X6.7181 Y16.8196 Z7.5963
X6.8980 Y16.7466 Z7.5621
X7.0770 Y16.6716 Z7.5279
X7.2553 Y16.5947 Z7.4936
X7.4327 Y16.5160 Z7.4594
X7.6092 Y16.4353 Z7.4252
X7.7849 Y16.3527 Z7.3910
X7.9597 Y16.2683 Z7.3567
X8.1336 Y16.1820 Z7.3225
X8.3065 Y16.0938 Z7.2883
X8.4785 Y16.0038 Z7.2540
X8.6495 Y15.9120 Z7.2198
X8.8195 Y15.8183 Z7.1856
X8.9885 Y15.7228 Z7.1514
X9.1565 Y15.6255 Z7.1171
X9.0982 Y15.6356 Z7.1067
X9.0398 Y15.6449 Z7.0963
X8.9812 Y15.6532 Z7.0859
X8.9226 Y15.6607 Z7.0754
X8.8638 Y15.6672 Z7.0650
X8.8049 Y15.6728 Z7.0546
X8.7459 Y15.6775 Z7.0441
X8.6869 Y15.6813 Z7.0337
X8.6279 Y15.6842 Z7.0233
X8.5687 Y15.6862 Z7.0129
X8.5096 Y15.6873 Z7.0024
X8.4505 Y15.6875 Z6.9920
X8.3913 Y15.6867 Z6.9816
X8.3322 Y15.6850 Z6.9711
X8.2731 Y15.6825 Z6.9607
X8.2141 Y15.6790 Z6.9503
X8.1551 Y15.6746 Z6.9399
X8.0962 Y15.6693 Z6.9294
X8.0374 Y15.6631 Z6.9190
X7.9787 Y15.6560 Z6.9086
X7.9201 Y15.6480 Z6.8981
X7.8616 Y15.6391 Z6.8877
X7.8033 Y15.6292 Z6.8773
X7.7451 Y15.6185 Z6.8669
X7.6871 Y15.6069 Z6.8564
X7.6293 Y15.5944 Z6.8460
X7.5717 Y15.5810 Z6.8356
X7.5143 Y15.5667 Z6.8251
X7.4571 Y15.5516 Z6.8147
X7.4002 Y15.5355 Z6.8043
X7.3435 Y15.5186 Z6.7939
X7.2871 Y15.5008 Z6.7834
X7.2310 Y15.4822 Z6.7730
X7.1752 Y15.4627 Z6.7626
X7.1197 Y15.4423 Z6.7521
X7.0645 Y15.4211 Z6.7417
X7.0096 Y15.3990 Z6.7313
X6.9551 Y15.3761 Z6.7209
X6.9009 Y15.3523 Z6.7104
X6.8471 Y15.3277 Z6.7000
G03X5.9395Y14.7355I1.6223J-3.4777
X1.7776Y15.7877I-5.9395J-14.7355
X-1.7776I-1.7776J-15.7877
X-5.9395Y14.7355I1.7776J-15.7877
X-9.1716Y15.6227I-2.5299J-2.8855
G02X9.1565Y15.6255I9.1664J-15.6188
G03X6.8471Y15.3277I-0.6871J-3.7755
G01 X6.5116 Y16.0471
G03X5.8055Y15.6384I1.9578J-4.1971
X1.8664Y16.5765I-5.8055J-15.6384
X-1.8664I-1.8664J-16.5765
X-5.8055Y15.6384I1.8664J-16.5765
X-6.5164Y16.0493I-2.6639J-3.7884
G02X6.5116Y16.0471I6.5112J-16.0454
G01 X6.1124 Y15.0644 Z7.7607  F2000.0
Z8.3607
G00 Z9.8875
X-11.1076 Y14.6364
G01 Z8.3000  F250.0
Z7.7000
X-11.0638 Y14.6777 Z7.6894
X-10.9863 Y14.7469 Z7.6711
X-10.9069 Y14.8140 Z7.6527
X-10.8258 Y14.8789 Z7.6344
X-10.7429 Y14.9416 Z7.6161
X-10.6584 Y15.0020 Z7.5978
X-10.5722 Y15.0601 Z7.5795
X-10.4845 Y15.1158 Z7.5611
X-10.3954 Y15.1692 Z7.5428
X-10.3048 Y15.2201 Z7.5245
X-10.2129 Y15.2686 Z7.5062
X-10.1197 Y15.3145 Z7.4878
X-10.0253 Y15.3580 Z7.4695
X-9.9297 Y15.3988 Z7.4512
X-9.8331 Y15.4370 Z7.4329
X-9.7355 Y15.4726 Z7.4146
X-9.6369 Y15.5056 Z7.3962
X-9.5375 Y15.5359 Z7.3779
X-9.4374 Y15.5634 Z7.3596
X-9.3365 Y15.5883 Z7.3413
X-9.2349 Y15.6104 Z7.3229
X-9.1328 Y15.6297 Z7.3046
X-9.0303 Y15.6463 Z7.2863
X-8.9273 Y15.6601 Z7.2680
X-8.8239 Y15.6711 Z7.2497
X-8.7204 Y15.6793 Z7.2313
X-8.6166 Y15.6847 Z7.2130
X-8.5127 Y15.6873 Z7.1947
X-8.4088 Y15.6870 Z7.1764
X-8.3049 Y15.6840 Z7.1580
X-8.2012 Y15.6781 Z7.1397
X-8.0977 Y15.6694 Z7.1214
X-7.9944 Y15.6580 Z7.1031
X-7.8915 Y15.6437 Z7.0848
X-7.7890 Y15.6267 Z7.0664
X-7.6869 Y15.6069 Z7.0481
X-7.5855 Y15.5843 Z7.0298
X-7.4847 Y15.5590 Z7.0115
X-7.3847 Y15.5310 Z6.9932
X-7.2854 Y15.5003 Z6.9748
X-7.1870 Y15.4669 Z6.9565
X-7.0896 Y15.4308 Z6.9382
X-6.9931 Y15.3922 Z6.9199
X-6.8978 Y15.3509 Z6.9015
X-6.8035 Y15.3071 Z6.8832
X-6.7106 Y15.2607 Z6.8649
X-6.6189 Y15.2118 Z6.8466
X-6.5285 Y15.1605 Z6.8283
X-6.4396 Y15.1067 Z6.8099
X-6.3522 Y15.0506 Z6.7916
X-6.2663 Y14.9921 Z6.7733
X-6.1820 Y14.9313 Z6.7550
X-6.0994 Y14.8682 Z6.7366
X-6.0186 Y14.8029 Z6.7183
X-5.9395 Y14.7355 Z6.7000
G02X-1.7776Y15.7877I5.9395J-14.7355
X1.7776I1.7776J-15.7877
X5.9395Y14.7355I-1.7776J-15.7877
X12.0186Y10.3906I2.5299J-2.8855
Y-10.3906I-12.0186J-10.3906
X5.9395Y-14.7355I-3.5492J-1.4594
X-5.9395I-5.9395J14.7355
X-12.0186Y-10.3906I-2.5299J2.8855
X-15.1920Y4.6493I12.0186J10.3906
X-12.0186Y10.3906I15.1920J-4.6493
X-5.9395Y14.7355I3.5492J1.4594
G01 X-6.2685 Y15.7438 Z7.7607  F2000.0
Z8.3607
G00 Z9.8875
(Drill tap holes)
(1/8in Carbide Drill)
M6 T24
M03 S12000
Z12.0500
X-7.0711 Y7.0711
G73 X-7.0711 Y7.0711 Z1.5783 R10.8 Q1. F125.0
G80
G00 Z12.0500
X7.0711 Y-7.0711
G73 X7.0711 Y-7.0711 Z1.5783 R10.8 Q1. F125.0
G80
G00 Z12.0500
(Breakchip Drill )
(1/8in Carbide Drill)
M6 T25
M03 S20000
Z11.6000
X8.4694 Y11.8500
G73 X8.4694 Y11.8500 Z-2.1619 R10.8 Q1. F75.0
G80
G00 Z11.6000
X-8.4694 Y11.8500
G73 X-8.4694 Y11.8500 Z-2.1619 R10.8 Q1. F75.0
G80
G00 Z11.6000
X8.4694 Y-11.8500
G73 X8.4694 Y-11.8500 Z-2.1619 R10.8 Q1. F75.0
G80
G00 Z11.6000
X-8.4694 Y-11.8500
G73 X-8.4694 Y-11.8500 Z-2.1619 R10.8 Q1. F75.0
G80
G00 Z11.6000
(Chamfering)
(Chamfer 90 deg)
M6 T14
M03 S20000
Z9.8875
X1.6000 Y11.8427
G01 Z8.0500  F250.0
Y14.2102  F500.0
G02X6.4197Y12.7780I-1.6000J-14.2102
X10.0111Y10.2112I2.0497J-0.9280
Y-10.2112I-10.0111J-10.2112
X6.4197Y-12.7780I-1.5417J-1.6388
X-6.4197I-6.4197J12.7780
X-10.0111Y-10.2112I-2.0497J0.9280
Y10.2112I10.0111J10.2112
X-6.4197Y12.7780I1.5417J1.6388
X-1.6000Y14.2102I6.4197J-12.7780
G01 Y-4.1363
G03X3.2000Y-6.9075I3.2000J0.0000
G01 X12.8101 Y-1.3592
G03X11.2101Y1.4121I-0.8000J1.3857
G01 X2.3500 Y-3.7032
X2.0132 Y-3.7626
X1.7170 Y-3.5916
X1.6000 Y-3.2702
Y11.8427
G00 Z9.8875
X1.3500
G01 Z7.8000  F250.0
G02X1.3563Y14.2658I10.7566J1.1837 F500.0
G01 X1.3640 Y14.2928
X1.3748 Y14.3187
X1.3883 Y14.3432
X1.4045 Y14.3661
X1.4232 Y14.3870
X1.4441 Y14.4057
X1.4670 Y14.4219
X1.4915 Y14.4354
X1.5174 Y14.4462
X1.5444 Y14.4539
X1.5720 Y14.4586
X1.6000 Y14.4602
X1.6280 Y14.4586
G02X6.3104Y13.1104I-1.6280J-14.4586
X10.3610Y10.2153I2.1590J-1.2604
Y-10.2153I-10.3610J-10.2153
X6.3104Y-13.1104I-1.8916J-1.6347
X-6.3104I-6.3104J13.1104
X-10.3610Y-10.2153I-2.1590J1.2604
Y10.2153I10.3610J10.2153
X-6.3104Y13.1104I1.8916J1.6347
X-1.6280Y14.4586I6.3104J-13.1104
G01 X-1.6000 Y14.4602
X-1.5720 Y14.4586
X-1.5444 Y14.4539
X-1.5174 Y14.4462
X-1.4915 Y14.4354
X-1.4670 Y14.4219
X-1.4441 Y14.4057
X-1.4232 Y14.3870
X-1.4045 Y14.3661
X-1.3883 Y14.3432
X-1.3748 Y14.3187
X-1.3640 Y14.2928
X-1.3563 Y14.2658
X-1.3516 Y14.2382
X-1.3500 Y14.2102
Y-4.1363
G03X3.0750Y-6.6910I2.9500J0.0000
G01 X12.6851 Y-1.1427
G03X11.3351Y1.1956I-0.6750J1.1692
G01 X2.4750 Y-3.9197
G02X1.3500Y-3.2702I-0.3750J0.6495
G01 Y11.8427
G00 Z9.8875
X17.9824 Y-0.3557
G01 Z6.4500  F250.0
G02X-17.9928Y0.3634I-17.9876J0.3596 F500.0
X17.9824Y-0.3557I17.9876J-0.3595
G00 Z9.8875
X18.2324 Y-0.3607
G01 Z6.2000  F250.0
G02X-18.2428Y0.3684I-18.2376J0.3646 F500.0
X18.2324Y-0.3607I18.2376J-0.3645
G00 Z9.8875
(Thread Milling)
M6 T26
M03 S12000
Z9.6000
X-7.0677 Y7.0343
G01 Z4.8000  F250.0
X-6.8711 Y7.0711  F500.0
X-6.8846 Y7.1433 Z4.8292
X-6.9233 Y7.2058 Z4.8585
X-6.9819 Y7.2501 Z4.8877
X-7.0526 Y7.2702 Z4.9170
X-7.1258 Y7.2634 Z4.9462
X-7.1916 Y7.2307 Z4.9755
X-7.2411 Y7.1764 Z5.0047
X-7.2677 Y7.1078 Z5.0340
Y7.0343 Z5.0632
X-7.2411 Y6.9658 Z5.0924
X-7.1916 Y6.9115 Z5.1217
X-7.1258 Y6.8787 Z5.1509
X-7.0526 Y6.8719 Z5.1802
X-6.9819 Y6.8920 Z5.2094
X-6.9233 Y6.9363 Z5.2387
X-6.8846 Y6.9988 Z5.2679
X-6.8711 Y7.0711 Z5.2972
X-6.8846 Y7.1433 Z5.3264
X-6.9233 Y7.2058 Z5.3556
X-6.9819 Y7.2501 Z5.3849
X-7.0526 Y7.2702 Z5.4141
X-7.1258 Y7.2634 Z5.4434
X-7.1916 Y7.2307 Z5.4726
X-7.2411 Y7.1764 Z5.5019
X-7.2677 Y7.1078 Z5.5311
Y7.0343 Z5.5604
X-7.2411 Y6.9658 Z5.5896
X-7.1916 Y6.9115 Z5.6188
X-7.1258 Y6.8787 Z5.6481
X-7.0526 Y6.8719 Z5.6773
X-6.9819 Y6.8920 Z5.7066
X-6.9233 Y6.9363 Z5.7358
X-6.8846 Y6.9988 Z5.7651
X-6.8711 Y7.0711 Z5.7943
X-6.8737 Y7.0851 Z5.8000
X-7.0703 Y7.0484
G00 Z9.6000
X7.0745 Y-7.1078
G01 Z4.8000  F250.0
X7.2711 Y-7.0711  F500.0
X7.2576 Y-6.9988 Z4.8292
X7.2189 Y-6.9363 Z4.8585
X7.1602 Y-6.8920 Z4.8877
X7.0895 Y-6.8719 Z4.9170
X7.0163 Y-6.8787 Z4.9462
X6.9505 Y-6.9115 Z4.9755
X6.9010 Y-6.9658 Z5.0047
X6.8745 Y-7.0343 Z5.0340
Y-7.1078 Z5.0632
X6.9010 Y-7.1764 Z5.0924
X6.9505 Y-7.2307 Z5.1217
X7.0163 Y-7.2634 Z5.1509
X7.0895 Y-7.2702 Z5.1802
X7.1602 Y-7.2501 Z5.2094
X7.2189 Y-7.2058 Z5.2387
X7.2576 Y-7.1433 Z5.2679
X7.2711 Y-7.0711 Z5.2972
X7.2576 Y-6.9988 Z5.3264
X7.2189 Y-6.9363 Z5.3556
X7.1602 Y-6.8920 Z5.3849
X7.0895 Y-6.8719 Z5.4141
X7.0163 Y-6.8787 Z5.4434
X6.9505 Y-6.9115 Z5.4726
X6.9010 Y-6.9658 Z5.5019
X6.8745 Y-7.0343 Z5.5311
Y-7.1078 Z5.5604
X6.9010 Y-7.1764 Z5.5896
X6.9505 Y-7.2307 Z5.6188
X7.0163 Y-7.2634 Z5.6481
X7.0895 Y-7.2702 Z5.6773
X7.1602 Y-7.2501 Z5.7066
X7.2189 Y-7.2058 Z5.7358
X7.2576 Y-7.1433 Z5.7651
X7.2711 Y-7.0711 Z5.7943
X7.2684 Y-7.0570 Z5.8000
X7.0718 Y-7.0938
G00 Z9.6000
M5 M9
M30
