G00 G49 G40.1 G17 G80 G50 G90
G21
(Rough Face Top)
(Endmill 1/4in 6.35mm Carbide)
M6 T22
M03 S13500
G00 Z3.1750
X-6.1199 Y-35.5494
G01 Z6.7250  F450.0
Z1.7250  F450.0
X-6.0448 Y-35.5630 Z1.7183
X-5.7818 Y-35.6086 Z1.6950
X-5.5184 Y-35.6523 Z1.6716
X-5.2546 Y-35.6940 Z1.6482
X-4.9906 Y-35.7338 Z1.6249
X-4.7262 Y-35.7716 Z1.6015
X-4.4616 Y-35.8074 Z1.5782
X-4.1967 Y-35.8413 Z1.5548
X-3.9316 Y-35.8732 Z1.5314
X-3.6662 Y-35.9032 Z1.5081
X-3.4005 Y-35.9312 Z1.4847
X-3.1347 Y-35.9573 Z1.4613
X-2.8686 Y-35.9814 Z1.4380
X-2.6024 Y-36.0035 Z1.4146
X-2.3360 Y-36.0236 Z1.3912
X-2.0695 Y-36.0418 Z1.3678
X-1.8028 Y-36.0580 Z1.3445
X-1.5359 Y-36.0722 Z1.3211
X-1.2690 Y-36.0844 Z1.2977
X-1.0020 Y-36.0947 Z1.2743
X-0.7349 Y-36.1030 Z1.2509
X-0.4677 Y-36.1093 Z1.2276
X-0.2005 Y-36.1137 Z1.2042
X0.0668 Y-36.1160 Z1.1808
X0.3341 Y-36.1164 Z1.1574
X0.6014 Y-36.1148 Z1.1340
X0.7045 Y-36.1134 Z1.1250
G17
G02X4.4929Y35.0024I-0.7285J35.6976 F900.0
X-9.0763Y-33.2440I-4.4128J-34.5948
X13.5273Y30.7892I8.9356J32.8518
X-17.1281Y-27.9748I-13.3353J-30.4214
X20.5084Y24.5264I16.8835J27.6376
X-23.2080Y-20.7636I-20.2189J-24.2274
X25.2359Y16.7898I22.8774J20.5111
X-26.6782Y-12.5432I-24.8728J-16.5855
X27.4281Y8.2745I26.2883J12.3966
X-27.5370Y-3.9379I-27.0204J-8.1861
X26.9875Y0.0000I27.1219J3.9119
X-25.9113Y3.5911I-26.5734J-0.0309
X24.3807Y-6.8717I25.5055J-3.5036
X-22.3611Y10.0113I-23.9900J6.7273
X19.9542Y-12.7301I21.9957J-9.8113
X-17.2538Y14.9631I-19.6221J12.4788
X14.3182Y-16.7123I16.9610J-14.6666
X-11.2755Y17.9247I-14.0735J16.3751
X8.3032Y-18.5755I11.0801J-17.5577
X-5.3520Y18.7689I-8.1647J18.1833
X2.5735Y-18.5100I5.2661J-18.3623
X0.0914Y17.8578I-2.5495J18.0946
X-2.1782Y-16.8934I-0.0661J-17.4454
X4.2776Y15.6296I2.0927J16.4868
X-5.8853Y-14.2083I-4.1443J-15.2381
X7.3226Y12.5744I5.6963J13.8390
X-8.4292Y-10.8298I-7.0906J-12.2306
X9.1732Y9.0655I8.1503J10.5236
X-9.6383Y-7.2646I-8.8583J-8.7957
X9.7887Y5.5294I9.2884J7.0424
X-9.7132Y-3.7497I-9.4110J-5.3540
X9.3086Y2.2893I9.3161J3.6332
X-8.7119Y-0.8859I-8.8982J-2.2235
X7.9325Y-0.1259I8.2994J0.8789
X-7.0545Y0.9003I-7.5227J0.0871
X6.0954Y-1.5420I6.6507J-0.8135
X-5.1088Y1.9395I-5.7064J1.4051
X4.0900Y-2.1878I4.7370J-1.7570
X-3.1895Y2.1047I-3.7483J1.9623
X2.2373Y-1.9859I2.8676J-1.8407
X-1.5809Y1.5131I-1.9613J1.6925
X0.8668Y-1.0538I1.3184J-1.1933
X-0.4473Y0.4095I-0.6610J0.7281
G01 X-0.4262 Y0.4188
X-0.4051 Y0.4271
X-0.3838 Y0.4344
X-0.3626 Y0.4408
X-0.3414 Y0.4463
X-0.3203 Y0.4508
X-0.2992 Y0.4543
X-0.2784 Y0.4570
X-0.2577 Y0.4588
X-0.2373 Y0.4596
X-0.2171 Y0.4597
X-0.1972 Y0.4588
X-0.1777 Y0.4572
X-0.1585 Y0.4548
X-0.1397 Y0.4516
X-0.1213 Y0.4476
X-0.1034 Y0.4429
X-0.0860 Y0.4375
X-0.0691 Y0.4315
X-0.0528 Y0.4248
X-0.0369 Y0.4175
X-0.0217 Y0.4097
X-0.0071 Y0.4013
X0.0069 Y0.3924
X0.0203 Y0.3830
X0.0330 Y0.3731
X0.0451 Y0.3629
X0.0564 Y0.3522
X0.0671 Y0.3413
X0.0771 Y0.3300
X0.0863 Y0.3185
X0.0949 Y0.3067
X0.1027 Y0.2948
X0.1098 Y0.2826
X0.1162 Y0.2704
X0.1219 Y0.2581
X0.1268 Y0.2457
X0.1310 Y0.2333
X0.1346 Y0.2209
X0.1374 Y0.2085
X0.1395 Y0.1963
X0.1409 Y0.1842
X0.1416 Y0.1722
X0.1417 Y0.1604
X0.1412 Y0.1488
X0.1400 Y0.1375
X0.1381 Y0.1265
X0.1357 Y0.1157
X0.1327 Y0.1053
X0.1292 Y0.0953
X0.1251 Y0.0856
X0.1205 Y0.0764
X0.1155 Y0.0676
X0.1099 Y0.0592
X0.1039 Y0.0514
X0.0976 Y0.0440
X0.0908 Y0.0371
X0.0837 Y0.0308
X0.0762 Y0.0251
X0.0685 Y0.0199
X0.0605 Y0.0153
X0.0523 Y0.0112
X0.0439 Y0.0078
X0.0353 Y0.0050
X0.0266 Y0.0028
X0.0178 Y0.0013
X0.0089 Y0.0003
X-1.0511 Y-0.0371 Z2.1857
Z2.7857
G00 Z3.1750
X-6.1199 Y-35.5494
G01 Z5.8500  F450.0
Z0.8500  F450.0
X-6.0448 Y-35.5630 Z0.8433
X-5.7818 Y-35.6086 Z0.8200
X-5.5184 Y-35.6523 Z0.7966
X-5.2546 Y-35.6940 Z0.7732
X-4.9906 Y-35.7338 Z0.7499
X-4.7262 Y-35.7716 Z0.7265
X-4.4616 Y-35.8074 Z0.7032
X-4.1967 Y-35.8413 Z0.6798
X-3.9316 Y-35.8732 Z0.6564
X-3.6662 Y-35.9032 Z0.6331
X-3.4005 Y-35.9312 Z0.6097
X-3.1347 Y-35.9573 Z0.5863
X-2.8686 Y-35.9814 Z0.5630
X-2.6024 Y-36.0035 Z0.5396
X-2.3360 Y-36.0236 Z0.5162
X-2.0695 Y-36.0418 Z0.4928
X-1.8028 Y-36.0580 Z0.4695
X-1.5359 Y-36.0722 Z0.4461
X-1.2690 Y-36.0844 Z0.4227
X-1.0020 Y-36.0947 Z0.3993
X-0.7349 Y-36.1030 Z0.3759
X-0.4677 Y-36.1093 Z0.3526
X-0.2005 Y-36.1137 Z0.3292
X0.0668 Y-36.1160 Z0.3058
X0.3341 Y-36.1164 Z0.2824
X0.6014 Y-36.1148 Z0.2590
X0.7045 Y-36.1134 Z0.2500
G02X4.4929Y35.0024I-0.7285J35.6976 F900.0
X-9.0763Y-33.2440I-4.4128J-34.5948
X13.5273Y30.7892I8.9356J32.8518
X-17.1281Y-27.9748I-13.3353J-30.4214
X20.5084Y24.5264I16.8835J27.6376
X-23.2080Y-20.7636I-20.2189J-24.2274
X25.2359Y16.7898I22.8774J20.5111
X-26.6782Y-12.5432I-24.8728J-16.5855
X27.4281Y8.2745I26.2883J12.3966
X-27.5370Y-3.9379I-27.0204J-8.1861
X26.9875Y0.0000I27.1219J3.9119
X-25.9113Y3.5911I-26.5734J-0.0309
X24.3807Y-6.8717I25.5055J-3.5036
X-22.3611Y10.0113I-23.9900J6.7273
X19.9542Y-12.7301I21.9957J-9.8113
X-17.2538Y14.9631I-19.6221J12.4788
X14.3182Y-16.7123I16.9610J-14.6666
X-11.2755Y17.9247I-14.0735J16.3751
X8.3032Y-18.5755I11.0801J-17.5577
X-5.3520Y18.7689I-8.1647J18.1833
X2.5735Y-18.5100I5.2661J-18.3623
X0.0914Y17.8578I-2.5495J18.0946
X-2.1782Y-16.8934I-0.0661J-17.4454
X4.2776Y15.6296I2.0927J16.4868
X-5.8853Y-14.2083I-4.1443J-15.2381
X7.3226Y12.5744I5.6963J13.8390
X-8.4292Y-10.8298I-7.0906J-12.2306
X9.1732Y9.0655I8.1503J10.5236
X-9.6383Y-7.2646I-8.8583J-8.7957
X9.7887Y5.5294I9.2884J7.0424
X-9.7132Y-3.7497I-9.4110J-5.3540
X9.3086Y2.2893I9.3161J3.6332
X-8.7119Y-0.8859I-8.8982J-2.2235
X7.9325Y-0.1259I8.2994J0.8789
X-7.0545Y0.9003I-7.5227J0.0871
X6.0954Y-1.5420I6.6507J-0.8135
X-5.1088Y1.9395I-5.7064J1.4051
X4.0900Y-2.1878I4.7370J-1.7570
X-3.1895Y2.1047I-3.7483J1.9623
X2.2373Y-1.9859I2.8676J-1.8407
X-1.5809Y1.5131I-1.9613J1.6925
X0.8668Y-1.0538I1.3184J-1.1933
X-0.4473Y0.4095I-0.6610J0.7281
G01 X-0.4262 Y0.4188
X-0.4051 Y0.4271
X-0.3838 Y0.4344
X-0.3626 Y0.4408
X-0.3414 Y0.4463
X-0.3203 Y0.4508
X-0.2992 Y0.4543
X-0.2784 Y0.4570
X-0.2577 Y0.4588
X-0.2373 Y0.4596
X-0.2171 Y0.4597
X-0.1972 Y0.4588
X-0.1777 Y0.4572
X-0.1585 Y0.4548
X-0.1397 Y0.4516
X-0.1213 Y0.4476
X-0.1034 Y0.4429
X-0.0860 Y0.4375
X-0.0691 Y0.4315
X-0.0528 Y0.4248
X-0.0369 Y0.4175
X-0.0217 Y0.4097
X-0.0071 Y0.4013
X0.0069 Y0.3924
X0.0203 Y0.3830
X0.0330 Y0.3731
X0.0451 Y0.3629
X0.0564 Y0.3522
X0.0671 Y0.3413
X0.0771 Y0.3300
X0.0863 Y0.3185
X0.0949 Y0.3067
X0.1027 Y0.2948
X0.1098 Y0.2826
X0.1162 Y0.2704
X0.1219 Y0.2581
X0.1268 Y0.2457
X0.1310 Y0.2333
X0.1346 Y0.2209
X0.1374 Y0.2085
X0.1395 Y0.1963
X0.1409 Y0.1842
X0.1416 Y0.1722
X0.1417 Y0.1604
X0.1412 Y0.1488
X0.1400 Y0.1375
X0.1381 Y0.1265
X0.1357 Y0.1157
X0.1327 Y0.1053
X0.1292 Y0.0953
X0.1251 Y0.0856
X0.1205 Y0.0764
X0.1155 Y0.0676
X0.1099 Y0.0592
X0.1039 Y0.0514
X0.0976 Y0.0440
X0.0908 Y0.0371
X0.0837 Y0.0308
X0.0762 Y0.0251
X0.0685 Y0.0199
X0.0605 Y0.0153
X0.0523 Y0.0112
X0.0439 Y0.0078
X0.0353 Y0.0050
X0.0266 Y0.0028
X0.0178 Y0.0013
X0.0089 Y0.0003
X-1.0511 Y-0.0371 Z1.3107
Z1.9107
G00 Z3.1750
(Rough Hole)
(Endmill 1/4in 6.35mm Carbide)
M03 S5500
X-6.2516 Y1.7458
G01 Z4.8000  F450.0
Z-0.2000  F450.0
X-6.2372 Y1.7295 Z-0.2019
X-6.1881 Y1.6754 Z-0.2083
X-6.1383 Y1.6219 Z-0.2147
X-6.0880 Y1.5690 Z-0.2211
X-6.0369 Y1.5167 Z-0.2275
X-5.9853 Y1.4650 Z-0.2339
X-5.9330 Y1.4140 Z-0.2403
X-5.8801 Y1.3636 Z-0.2466
X-5.8266 Y1.3139 Z-0.2530
X-5.7724 Y1.2648 Z-0.2594
X-5.7177 Y1.2164 Z-0.2658
X-5.6624 Y1.1686 Z-0.2722
X-5.6066 Y1.1216 Z-0.2786
X-5.5501 Y1.0752 Z-0.2850
X-5.4931 Y1.0295 Z-0.2914
X-5.4356 Y0.9845 Z-0.2978
X-5.3775 Y0.9402 Z-0.3042
X-5.3188 Y0.8966 Z-0.3106
X-5.2597 Y0.8537 Z-0.3170
X-5.2000 Y0.8115 Z-0.3233
X-5.1398 Y0.7701 Z-0.3297
X-5.0791 Y0.7294 Z-0.3361
X-5.0180 Y0.6895 Z-0.3425
X-4.9563 Y0.6503 Z-0.3489
X-4.8942 Y0.6119 Z-0.3553
X-4.8316 Y0.5742 Z-0.3617
X-4.7685 Y0.5373 Z-0.3681
X-4.7050 Y0.5011 Z-0.3745
X-4.6411 Y0.4658 Z-0.3809
X-4.5768 Y0.4312 Z-0.3873
X-4.5120 Y0.3974 Z-0.3937
X-4.4468 Y0.3644 Z-0.4000
X-4.3812 Y0.3322 Z-0.4064
X-4.3153 Y0.3007 Z-0.4128
X-4.2489 Y0.2701 Z-0.4192
X-4.1822 Y0.2403 Z-0.4256
X-4.1152 Y0.2114 Z-0.4320
X-4.0477 Y0.1832 Z-0.4384
X-3.9800 Y0.1559 Z-0.4448
X-3.9119 Y0.1293 Z-0.4512
X-3.8435 Y0.1037 Z-0.4576
X-3.7748 Y0.0788 Z-0.4640
X-3.7058 Y0.0548 Z-0.4704
X-3.6365 Y0.0316 Z-0.4768
X-3.5670 Y0.0093 Z-0.4831
X-3.4971 Y-0.0122 Z-0.4895
X-3.4270 Y-0.0328 Z-0.4959
X-3.3567 Y-0.0526 Z-0.5023
X-3.2861 Y-0.0715 Z-0.5087
X-3.2153 Y-0.0895 Z-0.5151
X-3.1443 Y-0.1067 Z-0.5215
X-3.0731 Y-0.1230 Z-0.5279
X-3.0017 Y-0.1385 Z-0.5343
X-2.9301 Y-0.1531 Z-0.5407
X-2.8584 Y-0.1668 Z-0.5471
X-2.7864 Y-0.1796 Z-0.5535
X-2.7144 Y-0.1915 Z-0.5598
X-2.6421 Y-0.2026 Z-0.5662
X-2.5698 Y-0.2128 Z-0.5726
X-2.4973 Y-0.2221 Z-0.5790
X-2.4248 Y-0.2306 Z-0.5854
X-2.3521 Y-0.2381 Z-0.5918
X-2.2793 Y-0.2448 Z-0.5982
X-2.2065 Y-0.2506 Z-0.6046
X-2.1336 Y-0.2554 Z-0.6110
X-2.0607 Y-0.2594 Z-0.6174
X-1.9877 Y-0.2626 Z-0.6238
X-1.9146 Y-0.2648 Z-0.6302
X-1.8416 Y-0.2661 Z-0.6365
X-1.7685 Y-0.2666 Z-0.6429
X-1.6955 Y-0.2661 Z-0.6493
X-1.6224 Y-0.2648 Z-0.6557
X-1.5494 Y-0.2626 Z-0.6621
X-1.4764 Y-0.2594 Z-0.6685
X-1.4035 Y-0.2554 Z-0.6749
X-1.3306 Y-0.2506 Z-0.6813
X-1.2577 Y-0.2448 Z-0.6877
X-1.1850 Y-0.2381 Z-0.6941
X-1.1123 Y-0.2306 Z-0.7005
X-1.0397 Y-0.2221 Z-0.7069
X-0.9673 Y-0.2128 Z-0.7133
X-0.8949 Y-0.2026 Z-0.7196
X-0.8227 Y-0.1915 Z-0.7260
X-0.7506 Y-0.1796 Z-0.7324
X-0.6787 Y-0.1668 Z-0.7388
X-0.6069 Y-0.1531 Z-0.7452
X-0.5354 Y-0.1385 Z-0.7516
X-0.4639 Y-0.1230 Z-0.7580
X-0.3927 Y-0.1067 Z-0.7644
X-0.3217 Y-0.0895 Z-0.7708
X-0.2509 Y-0.0715 Z-0.7772
X-0.1804 Y-0.0526 Z-0.7836
X-0.1100 Y-0.0328 Z-0.7900
X-0.0399 Y-0.0122 Z-0.7963
X0.0000 Y0.0001 Z-0.8000
Y0.0000
X0.1040 Y0.3137  F900.0
X-0.1383 Y0.5385
X-0.4433 Y0.4113
G03X0.4695Y-1.1963I0.5556J-0.7474
X-0.2484Y2.0002I-0.5813J1.5483
X0.4458Y-2.7828I0.2725J-2.4023
X-0.6530Y3.5583I-0.5154J3.1764
X1.0699Y-4.2961I0.7192J-3.9584
X-1.7119Y4.9561I-1.1847J4.6881
X2.4971Y-5.5221I1.8500J-5.3413
X-3.6177Y5.8598I-2.6886J5.8891
X4.7762Y-6.0517I3.8450J-6.2037
X-6.1798Y5.8925I-5.0532J6.3618
X7.5411Y-5.5524I6.4910J-6.1653
X-8.9841Y4.8178I-7.8900J5.7788
X10.3070Y-3.9024I9.3580J-4.9963
X-11.5621Y2.5983I-10.7035J4.0276
X12.6206Y-1.1870I11.9698J-2.6696
X-13.4950Y-0.4233I-13.0337J1.2075
X14.1079Y2.5258I13.9096J0.4627
X3.3982Y14.2247I-14.2885J-2.3288
X-3.3982Y-14.2247I-3.3982J-14.2247
X3.3982Y14.2247I3.3982J14.2247
G01 X2.8679 Y13.3062 Z0.2607
Z0.8607
G00 Z3.1750
X-6.2516 Y1.7458
G01 Z3.8000  F450.0
Z-1.2000  F450.0
X-6.2372 Y1.7295 Z-1.2019
X-6.1881 Y1.6754 Z-1.2083
X-6.1383 Y1.6219 Z-1.2147
X-6.0880 Y1.5690 Z-1.2211
X-6.0369 Y1.5167 Z-1.2275
X-5.9853 Y1.4650 Z-1.2339
X-5.9330 Y1.4140 Z-1.2403
X-5.8801 Y1.3636 Z-1.2466
X-5.8266 Y1.3139 Z-1.2530
X-5.7724 Y1.2648 Z-1.2594
X-5.7177 Y1.2164 Z-1.2658
X-5.6624 Y1.1686 Z-1.2722
X-5.6066 Y1.1216 Z-1.2786
X-5.5501 Y1.0752 Z-1.2850
X-5.4931 Y1.0295 Z-1.2914
X-5.4356 Y0.9845 Z-1.2978
X-5.3775 Y0.9402 Z-1.3042
X-5.3188 Y0.8966 Z-1.3106
X-5.2597 Y0.8537 Z-1.3170
X-5.2000 Y0.8115 Z-1.3233
X-5.1398 Y0.7701 Z-1.3297
X-5.0791 Y0.7294 Z-1.3361
X-5.0180 Y0.6895 Z-1.3425
X-4.9563 Y0.6503 Z-1.3489
X-4.8942 Y0.6119 Z-1.3553
X-4.8316 Y0.5742 Z-1.3617
X-4.7685 Y0.5373 Z-1.3681
X-4.7050 Y0.5011 Z-1.3745
X-4.6411 Y0.4658 Z-1.3809
X-4.5768 Y0.4312 Z-1.3873
X-4.5120 Y0.3974 Z-1.3937
X-4.4468 Y0.3644 Z-1.4000
X-4.3812 Y0.3322 Z-1.4064
X-4.3153 Y0.3007 Z-1.4128
X-4.2489 Y0.2701 Z-1.4192
X-4.1822 Y0.2403 Z-1.4256
X-4.1152 Y0.2114 Z-1.4320
X-4.0477 Y0.1832 Z-1.4384
X-3.9800 Y0.1559 Z-1.4448
X-3.9119 Y0.1293 Z-1.4512
X-3.8435 Y0.1037 Z-1.4576
X-3.7748 Y0.0788 Z-1.4640
X-3.7058 Y0.0548 Z-1.4704
X-3.6365 Y0.0316 Z-1.4768
X-3.5670 Y0.0093 Z-1.4831
X-3.4971 Y-0.0122 Z-1.4895
X-3.4270 Y-0.0328 Z-1.4959
X-3.3567 Y-0.0526 Z-1.5023
X-3.2861 Y-0.0715 Z-1.5087
X-3.2153 Y-0.0895 Z-1.5151
X-3.1443 Y-0.1067 Z-1.5215
X-3.0731 Y-0.1230 Z-1.5279
X-3.0017 Y-0.1385 Z-1.5343
X-2.9301 Y-0.1531 Z-1.5407
X-2.8584 Y-0.1668 Z-1.5471
X-2.7864 Y-0.1796 Z-1.5535
X-2.7144 Y-0.1915 Z-1.5598
X-2.6421 Y-0.2026 Z-1.5662
X-2.5698 Y-0.2128 Z-1.5726
X-2.4973 Y-0.2221 Z-1.5790
X-2.4248 Y-0.2306 Z-1.5854
X-2.3521 Y-0.2381 Z-1.5918
X-2.2793 Y-0.2448 Z-1.5982
X-2.2065 Y-0.2506 Z-1.6046
X-2.1336 Y-0.2554 Z-1.6110
X-2.0607 Y-0.2594 Z-1.6174
X-1.9877 Y-0.2626 Z-1.6238
X-1.9146 Y-0.2648 Z-1.6302
X-1.8416 Y-0.2661 Z-1.6366
X-1.7685 Y-0.2666 Z-1.6429
X-1.6955 Y-0.2661 Z-1.6493
X-1.6224 Y-0.2648 Z-1.6557
X-1.5494 Y-0.2626 Z-1.6621
X-1.4764 Y-0.2594 Z-1.6685
X-1.4035 Y-0.2554 Z-1.6749
X-1.3306 Y-0.2506 Z-1.6813
X-1.2577 Y-0.2448 Z-1.6877
X-1.1850 Y-0.2381 Z-1.6941
X-1.1123 Y-0.2306 Z-1.7005
X-1.0397 Y-0.2221 Z-1.7069
X-0.9673 Y-0.2128 Z-1.7133
X-0.8949 Y-0.2026 Z-1.7196
X-0.8227 Y-0.1915 Z-1.7260
X-0.7506 Y-0.1796 Z-1.7324
X-0.6787 Y-0.1668 Z-1.7388
X-0.6069 Y-0.1531 Z-1.7452
X-0.5354 Y-0.1385 Z-1.7516
X-0.4639 Y-0.1230 Z-1.7580
X-0.3927 Y-0.1067 Z-1.7644
X-0.3217 Y-0.0895 Z-1.7708
X-0.2509 Y-0.0715 Z-1.7772
X-0.1804 Y-0.0526 Z-1.7836
X-0.1100 Y-0.0328 Z-1.7900
X-0.0399 Y-0.0122 Z-1.7963
X0.0000 Y0.0001 Z-1.8000
Y0.0000
X0.1040 Y0.3137  F900.0
X-0.1383 Y0.5385
X-0.4433 Y0.4113
G03X0.4695Y-1.1963I0.5556J-0.7474
X-0.2484Y2.0002I-0.5813J1.5483
X0.4458Y-2.7828I0.2725J-2.4023
X-0.6530Y3.5583I-0.5154J3.1764
X1.0699Y-4.2961I0.7192J-3.9584
X-1.7119Y4.9561I-1.1847J4.6881
X2.4971Y-5.5221I1.8500J-5.3413
X-3.6177Y5.8598I-2.6886J5.8891
X4.7762Y-6.0517I3.8450J-6.2037
X-6.1798Y5.8925I-5.0532J6.3618
X7.5411Y-5.5524I6.4910J-6.1653
X-8.9841Y4.8178I-7.8900J5.7788
X10.3070Y-3.9024I9.3580J-4.9963
X-11.5621Y2.5983I-10.7035J4.0276
X12.6206Y-1.1870I11.9698J-2.6696
X-13.4950Y-0.4233I-13.0337J1.2075
X14.1079Y2.5258I13.9096J0.4627
X3.3982Y14.2247I-14.2885J-2.3288
X-3.3982Y-14.2247I-3.3982J-14.2247
X3.3982Y14.2247I3.3982J14.2247
G01 X2.8679 Y13.3062 Z-0.7393
Z-0.1393
G00 Z3.1750
X-6.2516 Y1.7458
G01 Z2.8000  F450.0
Z-2.2000  F450.0
X-6.2372 Y1.7295 Z-2.2019
X-6.1881 Y1.6754 Z-2.2083
X-6.1383 Y1.6219 Z-2.2147
X-6.0880 Y1.5690 Z-2.2211
X-6.0369 Y1.5167 Z-2.2275
X-5.9853 Y1.4650 Z-2.2339
X-5.9330 Y1.4140 Z-2.2403
X-5.8801 Y1.3636 Z-2.2466
X-5.8266 Y1.3139 Z-2.2530
X-5.7724 Y1.2648 Z-2.2594
X-5.7177 Y1.2164 Z-2.2658
X-5.6624 Y1.1686 Z-2.2722
X-5.6066 Y1.1216 Z-2.2786
X-5.5501 Y1.0752 Z-2.2850
X-5.4931 Y1.0295 Z-2.2914
X-5.4356 Y0.9845 Z-2.2978
X-5.3775 Y0.9402 Z-2.3042
X-5.3188 Y0.8966 Z-2.3106
X-5.2597 Y0.8537 Z-2.3170
X-5.2000 Y0.8115 Z-2.3233
X-5.1398 Y0.7701 Z-2.3297
X-5.0791 Y0.7294 Z-2.3361
X-5.0180 Y0.6895 Z-2.3425
X-4.9563 Y0.6503 Z-2.3489
X-4.8942 Y0.6119 Z-2.3553
X-4.8316 Y0.5742 Z-2.3617
X-4.7685 Y0.5373 Z-2.3681
X-4.7050 Y0.5011 Z-2.3745
X-4.6411 Y0.4658 Z-2.3809
X-4.5768 Y0.4312 Z-2.3873
X-4.5120 Y0.3974 Z-2.3937
X-4.4468 Y0.3644 Z-2.4000
X-4.3812 Y0.3322 Z-2.4064
X-4.3153 Y0.3007 Z-2.4128
X-4.2489 Y0.2701 Z-2.4192
X-4.1822 Y0.2403 Z-2.4256
X-4.1152 Y0.2114 Z-2.4320
X-4.0477 Y0.1832 Z-2.4384
X-3.9800 Y0.1559 Z-2.4448
X-3.9119 Y0.1293 Z-2.4512
X-3.8435 Y0.1037 Z-2.4576
X-3.7748 Y0.0788 Z-2.4640
X-3.7058 Y0.0548 Z-2.4704
X-3.6365 Y0.0316 Z-2.4768
X-3.5670 Y0.0093 Z-2.4831
X-3.4971 Y-0.0122 Z-2.4895
X-3.4270 Y-0.0328 Z-2.4959
X-3.3567 Y-0.0526 Z-2.5023
X-3.2861 Y-0.0715 Z-2.5087
X-3.2153 Y-0.0895 Z-2.5151
X-3.1443 Y-0.1067 Z-2.5215
X-3.0731 Y-0.1230 Z-2.5279
X-3.0017 Y-0.1385 Z-2.5343
X-2.9301 Y-0.1531 Z-2.5407
X-2.8584 Y-0.1668 Z-2.5471
X-2.7864 Y-0.1796 Z-2.5535
X-2.7144 Y-0.1915 Z-2.5598
X-2.6421 Y-0.2026 Z-2.5662
X-2.5698 Y-0.2128 Z-2.5726
X-2.4973 Y-0.2221 Z-2.5790
X-2.4248 Y-0.2306 Z-2.5854
X-2.3521 Y-0.2381 Z-2.5918
X-2.2793 Y-0.2448 Z-2.5982
X-2.2065 Y-0.2506 Z-2.6046
X-2.1336 Y-0.2554 Z-2.6110
X-2.0607 Y-0.2594 Z-2.6174
X-1.9877 Y-0.2626 Z-2.6238
X-1.9146 Y-0.2648 Z-2.6302
X-1.8416 Y-0.2661 Z-2.6366
X-1.7685 Y-0.2666 Z-2.6429
X-1.6955 Y-0.2661 Z-2.6493
X-1.6224 Y-0.2648 Z-2.6557
X-1.5494 Y-0.2626 Z-2.6621
X-1.4764 Y-0.2594 Z-2.6685
X-1.4035 Y-0.2554 Z-2.6749
X-1.3306 Y-0.2506 Z-2.6813
X-1.2577 Y-0.2448 Z-2.6877
X-1.1850 Y-0.2381 Z-2.6941
X-1.1123 Y-0.2306 Z-2.7005
X-1.0397 Y-0.2221 Z-2.7069
X-0.9673 Y-0.2128 Z-2.7133
X-0.8949 Y-0.2026 Z-2.7196
X-0.8227 Y-0.1915 Z-2.7260
X-0.7506 Y-0.1796 Z-2.7324
X-0.6787 Y-0.1668 Z-2.7388
X-0.6069 Y-0.1531 Z-2.7452
X-0.5354 Y-0.1385 Z-2.7516
X-0.4639 Y-0.1230 Z-2.7580
X-0.3927 Y-0.1067 Z-2.7644
X-0.3217 Y-0.0895 Z-2.7708
X-0.2509 Y-0.0715 Z-2.7772
X-0.1804 Y-0.0526 Z-2.7836
X-0.1100 Y-0.0328 Z-2.7900
X-0.0399 Y-0.0122 Z-2.7963
X0.0000 Y0.0001 Z-2.8000
Y0.0000
X0.1040 Y0.3137  F900.0
X-0.1383 Y0.5385
X-0.4433 Y0.4113
G03X0.4695Y-1.1963I0.5556J-0.7474
X-0.2484Y2.0002I-0.5813J1.5483
X0.4458Y-2.7828I0.2725J-2.4023
X-0.6530Y3.5583I-0.5154J3.1764
X1.0699Y-4.2961I0.7192J-3.9584
X-1.7119Y4.9561I-1.1847J4.6881
X2.4971Y-5.5221I1.8500J-5.3413
X-3.6177Y5.8598I-2.6886J5.8891
X4.7762Y-6.0517I3.8450J-6.2037
X-6.1798Y5.8925I-5.0532J6.3618
X7.5411Y-5.5524I6.4910J-6.1653
X-8.9841Y4.8178I-7.8900J5.7788
X10.3070Y-3.9024I9.3580J-4.9963
X-11.5621Y2.5983I-10.7035J4.0276
X12.6206Y-1.1870I11.9698J-2.6696
X-13.4950Y-0.4233I-13.0337J1.2075
X14.1079Y2.5258I13.9096J0.4627
X3.3982Y14.2247I-14.2885J-2.3288
X-3.3982Y-14.2247I-3.3982J-14.2247
X3.3982Y14.2247I3.3982J14.2247
G01 X2.8679 Y13.3062 Z-1.7393
Z-1.1393
G00 Z3.1750
X-6.2516 Y1.7458
G01 Z1.8000  F450.0
Z-3.2000  F450.0
X-6.2372 Y1.7295 Z-3.2019
X-6.1881 Y1.6754 Z-3.2083
X-6.1383 Y1.6219 Z-3.2147
X-6.0880 Y1.5690 Z-3.2211
X-6.0369 Y1.5167 Z-3.2275
X-5.9853 Y1.4650 Z-3.2339
X-5.9330 Y1.4140 Z-3.2403
X-5.8801 Y1.3636 Z-3.2466
X-5.8266 Y1.3139 Z-3.2530
X-5.7724 Y1.2648 Z-3.2594
X-5.7177 Y1.2164 Z-3.2658
X-5.6624 Y1.1686 Z-3.2722
X-5.6066 Y1.1216 Z-3.2786
X-5.5501 Y1.0752 Z-3.2850
X-5.4931 Y1.0295 Z-3.2914
X-5.4356 Y0.9845 Z-3.2978
X-5.3775 Y0.9402 Z-3.3042
X-5.3188 Y0.8966 Z-3.3106
X-5.2597 Y0.8537 Z-3.3170
X-5.2000 Y0.8115 Z-3.3233
X-5.1398 Y0.7701 Z-3.3297
X-5.0791 Y0.7294 Z-3.3361
X-5.0180 Y0.6895 Z-3.3425
X-4.9563 Y0.6503 Z-3.3489
X-4.8942 Y0.6119 Z-3.3553
X-4.8316 Y0.5742 Z-3.3617
X-4.7685 Y0.5373 Z-3.3681
X-4.7050 Y0.5011 Z-3.3745
X-4.6411 Y0.4658 Z-3.3809
X-4.5768 Y0.4312 Z-3.3873
X-4.5120 Y0.3974 Z-3.3937
X-4.4468 Y0.3644 Z-3.4000
X-4.3812 Y0.3322 Z-3.4064
X-4.3153 Y0.3007 Z-3.4128
X-4.2489 Y0.2701 Z-3.4192
X-4.1822 Y0.2403 Z-3.4256
X-4.1152 Y0.2114 Z-3.4320
X-4.0477 Y0.1832 Z-3.4384
X-3.9800 Y0.1559 Z-3.4448
X-3.9119 Y0.1293 Z-3.4512
X-3.8435 Y0.1037 Z-3.4576
X-3.7748 Y0.0788 Z-3.4640
X-3.7058 Y0.0548 Z-3.4704
X-3.6365 Y0.0316 Z-3.4768
X-3.5670 Y0.0093 Z-3.4831
X-3.4971 Y-0.0122 Z-3.4895
X-3.4270 Y-0.0328 Z-3.4959
X-3.3567 Y-0.0526 Z-3.5023
X-3.2861 Y-0.0715 Z-3.5087
X-3.2153 Y-0.0895 Z-3.5151
X-3.1443 Y-0.1067 Z-3.5215
X-3.0731 Y-0.1230 Z-3.5279
X-3.0017 Y-0.1385 Z-3.5343
X-2.9301 Y-0.1531 Z-3.5407
X-2.8584 Y-0.1668 Z-3.5471
X-2.7864 Y-0.1796 Z-3.5535
X-2.7144 Y-0.1915 Z-3.5598
X-2.6421 Y-0.2026 Z-3.5662
X-2.5698 Y-0.2128 Z-3.5726
X-2.4973 Y-0.2221 Z-3.5790
X-2.4248 Y-0.2306 Z-3.5854
X-2.3521 Y-0.2381 Z-3.5918
X-2.2793 Y-0.2448 Z-3.5982
X-2.2065 Y-0.2506 Z-3.6046
X-2.1336 Y-0.2554 Z-3.6110
X-2.0607 Y-0.2594 Z-3.6174
X-1.9877 Y-0.2626 Z-3.6238
X-1.9146 Y-0.2648 Z-3.6302
X-1.8416 Y-0.2661 Z-3.6366
X-1.7685 Y-0.2666 Z-3.6429
X-1.6955 Y-0.2661 Z-3.6493
X-1.6224 Y-0.2648 Z-3.6557
X-1.5494 Y-0.2626 Z-3.6621
X-1.4764 Y-0.2594 Z-3.6685
X-1.4035 Y-0.2554 Z-3.6749
X-1.3306 Y-0.2506 Z-3.6813
X-1.2577 Y-0.2448 Z-3.6877
X-1.1850 Y-0.2381 Z-3.6941
X-1.1123 Y-0.2306 Z-3.7005
X-1.0397 Y-0.2221 Z-3.7069
X-0.9673 Y-0.2128 Z-3.7133
X-0.8949 Y-0.2026 Z-3.7196
X-0.8227 Y-0.1915 Z-3.7260
X-0.7506 Y-0.1796 Z-3.7324
X-0.6787 Y-0.1668 Z-3.7388
X-0.6069 Y-0.1531 Z-3.7452
X-0.5354 Y-0.1385 Z-3.7516
X-0.4639 Y-0.1230 Z-3.7580
X-0.3927 Y-0.1067 Z-3.7644
X-0.3217 Y-0.0895 Z-3.7708
X-0.2509 Y-0.0715 Z-3.7772
X-0.1804 Y-0.0526 Z-3.7836
X-0.1100 Y-0.0328 Z-3.7900
X-0.0399 Y-0.0122 Z-3.7963
X0.0000 Y0.0001 Z-3.8000
Y0.0000
X0.1040 Y0.3137  F900.0
X-0.1383 Y0.5385
X-0.4433 Y0.4113
G03X0.4695Y-1.1963I0.5556J-0.7474
X-0.2484Y2.0002I-0.5813J1.5483
X0.4458Y-2.7828I0.2725J-2.4023
X-0.6530Y3.5583I-0.5154J3.1764
X1.0699Y-4.2961I0.7192J-3.9584
X-1.7119Y4.9561I-1.1847J4.6881
X2.4971Y-5.5221I1.8500J-5.3413
X-3.6177Y5.8598I-2.6886J5.8891
X4.7762Y-6.0517I3.8450J-6.2037
X-6.1798Y5.8925I-5.0532J6.3618
X7.5411Y-5.5524I6.4910J-6.1653
X-8.9841Y4.8178I-7.8900J5.7788
X10.3070Y-3.9024I9.3580J-4.9963
X-11.5621Y2.5983I-10.7035J4.0276
X12.6206Y-1.1870I11.9698J-2.6696
X-13.4950Y-0.4233I-13.0337J1.2075
X14.1079Y2.5258I13.9096J0.4627
X3.3982Y14.2247I-14.2885J-2.3288
X-3.3982Y-14.2247I-3.3982J-14.2247
X3.3982Y14.2247I3.3982J14.2247
G01 X2.8679 Y13.3062 Z-2.7393
Z-2.1393
G00 Z3.1750
X-6.2516 Y1.7458
G01 Z0.8000  F450.0
Z-4.2000  F450.0
X-6.2372 Y1.7295 Z-4.2019
X-6.1881 Y1.6754 Z-4.2083
X-6.1383 Y1.6219 Z-4.2147
X-6.0880 Y1.5690 Z-4.2211
X-6.0369 Y1.5167 Z-4.2275
X-5.9853 Y1.4650 Z-4.2339
X-5.9330 Y1.4140 Z-4.2403
X-5.8801 Y1.3636 Z-4.2466
X-5.8266 Y1.3139 Z-4.2530
X-5.7724 Y1.2648 Z-4.2594
X-5.7177 Y1.2164 Z-4.2658
X-5.6624 Y1.1686 Z-4.2722
X-5.6066 Y1.1216 Z-4.2786
X-5.5501 Y1.0752 Z-4.2850
X-5.4931 Y1.0295 Z-4.2914
X-5.4356 Y0.9845 Z-4.2978
X-5.3775 Y0.9402 Z-4.3042
X-5.3188 Y0.8966 Z-4.3106
X-5.2597 Y0.8537 Z-4.3170
X-5.2000 Y0.8115 Z-4.3233
X-5.1398 Y0.7701 Z-4.3297
X-5.0791 Y0.7294 Z-4.3361
X-5.0180 Y0.6895 Z-4.3425
X-4.9563 Y0.6503 Z-4.3489
X-4.8942 Y0.6119 Z-4.3553
X-4.8316 Y0.5742 Z-4.3617
X-4.7685 Y0.5373 Z-4.3681
X-4.7050 Y0.5011 Z-4.3745
X-4.6411 Y0.4658 Z-4.3809
X-4.5768 Y0.4312 Z-4.3873
X-4.5120 Y0.3974 Z-4.3937
X-4.4468 Y0.3644 Z-4.4000
X-4.3812 Y0.3322 Z-4.4064
X-4.3153 Y0.3007 Z-4.4128
X-4.2489 Y0.2701 Z-4.4192
X-4.1822 Y0.2403 Z-4.4256
X-4.1152 Y0.2114 Z-4.4320
X-4.0477 Y0.1832 Z-4.4384
X-3.9800 Y0.1559 Z-4.4448
X-3.9119 Y0.1293 Z-4.4512
X-3.8435 Y0.1037 Z-4.4576
X-3.7748 Y0.0788 Z-4.4640
X-3.7058 Y0.0548 Z-4.4704
X-3.6365 Y0.0316 Z-4.4768
X-3.5670 Y0.0093 Z-4.4831
X-3.4971 Y-0.0122 Z-4.4895
X-3.4270 Y-0.0328 Z-4.4959
X-3.3567 Y-0.0526 Z-4.5023
X-3.2861 Y-0.0715 Z-4.5087
X-3.2153 Y-0.0895 Z-4.5151
X-3.1443 Y-0.1067 Z-4.5215
X-3.0731 Y-0.1230 Z-4.5279
X-3.0017 Y-0.1385 Z-4.5343
X-2.9301 Y-0.1531 Z-4.5407
X-2.8584 Y-0.1668 Z-4.5471
X-2.7864 Y-0.1796 Z-4.5535
X-2.7144 Y-0.1915 Z-4.5598
X-2.6421 Y-0.2026 Z-4.5662
X-2.5698 Y-0.2128 Z-4.5726
X-2.4973 Y-0.2221 Z-4.5790
X-2.4248 Y-0.2306 Z-4.5854
X-2.3521 Y-0.2381 Z-4.5918
X-2.2793 Y-0.2448 Z-4.5982
X-2.2065 Y-0.2506 Z-4.6046
X-2.1336 Y-0.2554 Z-4.6110
X-2.0607 Y-0.2594 Z-4.6174
X-1.9877 Y-0.2626 Z-4.6238
X-1.9146 Y-0.2648 Z-4.6302
X-1.8416 Y-0.2661 Z-4.6365
X-1.7685 Y-0.2666 Z-4.6429
X-1.6955 Y-0.2661 Z-4.6493
X-1.6224 Y-0.2648 Z-4.6557
X-1.5494 Y-0.2626 Z-4.6621
X-1.4764 Y-0.2594 Z-4.6685
X-1.4035 Y-0.2554 Z-4.6749
X-1.3306 Y-0.2506 Z-4.6813
X-1.2577 Y-0.2448 Z-4.6877
X-1.1850 Y-0.2381 Z-4.6941
X-1.1123 Y-0.2306 Z-4.7005
X-1.0397 Y-0.2221 Z-4.7069
X-0.9673 Y-0.2128 Z-4.7133
X-0.8949 Y-0.2026 Z-4.7196
X-0.8227 Y-0.1915 Z-4.7260
X-0.7506 Y-0.1796 Z-4.7324
X-0.6787 Y-0.1668 Z-4.7388
X-0.6069 Y-0.1531 Z-4.7452
X-0.5354 Y-0.1385 Z-4.7516
X-0.4639 Y-0.1230 Z-4.7580
X-0.3927 Y-0.1067 Z-4.7644
X-0.3217 Y-0.0895 Z-4.7708
X-0.2509 Y-0.0715 Z-4.7772
X-0.1804 Y-0.0526 Z-4.7836
X-0.1100 Y-0.0328 Z-4.7900
X-0.0399 Y-0.0122 Z-4.7963
X0.0000 Y0.0001 Z-4.8000
Y0.0000
X0.1040 Y0.3137  F900.0
X-0.1383 Y0.5385
X-0.4433 Y0.4113
G03X0.4695Y-1.1963I0.5556J-0.7474
X-0.2484Y2.0002I-0.5813J1.5483
X0.4458Y-2.7828I0.2725J-2.4023
X-0.6530Y3.5583I-0.5154J3.1764
X1.0699Y-4.2961I0.7192J-3.9584
X-1.7119Y4.9561I-1.1847J4.6881
X2.4971Y-5.5221I1.8500J-5.3413
X-3.6177Y5.8598I-2.6886J5.8891
X4.7762Y-6.0517I3.8450J-6.2037
X-6.1798Y5.8925I-5.0532J6.3618
X7.5411Y-5.5524I6.4910J-6.1653
X-8.9841Y4.8178I-7.8900J5.7788
X10.3070Y-3.9024I9.3580J-4.9963
X-11.5621Y2.5983I-10.7035J4.0276
X12.6206Y-1.1870I11.9698J-2.6696
X-13.4950Y-0.4233I-13.0337J1.2075
X14.1079Y2.5258I13.9096J0.4627
X3.3982Y14.2247I-14.2885J-2.3288
X-3.3982Y-14.2247I-3.3982J-14.2247
X3.3982Y14.2247I3.3982J14.2247
G01 X2.8679 Y13.3062 Z-3.7393
Z-3.1393
G00 Z3.1750
X-6.2516 Y1.7458
G01 Z-0.2000  F450.0
Z-5.2000  F450.0
X-6.2372 Y1.7295 Z-5.2019
X-6.1881 Y1.6754 Z-5.2083
X-6.1383 Y1.6219 Z-5.2147
X-6.0880 Y1.5690 Z-5.2211
X-6.0369 Y1.5167 Z-5.2275
X-5.9853 Y1.4650 Z-5.2339
X-5.9330 Y1.4140 Z-5.2403
X-5.8801 Y1.3636 Z-5.2466
X-5.8266 Y1.3139 Z-5.2530
X-5.7724 Y1.2648 Z-5.2594
X-5.7177 Y1.2164 Z-5.2658
X-5.6624 Y1.1686 Z-5.2722
X-5.6066 Y1.1216 Z-5.2786
X-5.5501 Y1.0752 Z-5.2850
X-5.4931 Y1.0295 Z-5.2914
X-5.4356 Y0.9845 Z-5.2978
X-5.3775 Y0.9402 Z-5.3042
X-5.3188 Y0.8966 Z-5.3106
X-5.2597 Y0.8537 Z-5.3170
X-5.2000 Y0.8115 Z-5.3233
X-5.1398 Y0.7701 Z-5.3297
X-5.0791 Y0.7294 Z-5.3361
X-5.0180 Y0.6895 Z-5.3425
X-4.9563 Y0.6503 Z-5.3489
X-4.8942 Y0.6119 Z-5.3553
X-4.8316 Y0.5742 Z-5.3617
X-4.7685 Y0.5373 Z-5.3681
X-4.7050 Y0.5011 Z-5.3745
X-4.6411 Y0.4658 Z-5.3809
X-4.5768 Y0.4312 Z-5.3873
X-4.5120 Y0.3974 Z-5.3937
X-4.4468 Y0.3644 Z-5.4000
X-4.3812 Y0.3322 Z-5.4064
X-4.3153 Y0.3007 Z-5.4128
X-4.2489 Y0.2701 Z-5.4192
X-4.1822 Y0.2403 Z-5.4256
X-4.1152 Y0.2114 Z-5.4320
X-4.0477 Y0.1832 Z-5.4384
X-3.9800 Y0.1559 Z-5.4448
X-3.9119 Y0.1293 Z-5.4512
X-3.8435 Y0.1037 Z-5.4576
X-3.7748 Y0.0788 Z-5.4640
X-3.7058 Y0.0548 Z-5.4704
X-3.6365 Y0.0316 Z-5.4768
X-3.5670 Y0.0093 Z-5.4831
X-3.4971 Y-0.0122 Z-5.4895
X-3.4270 Y-0.0328 Z-5.4959
X-3.3567 Y-0.0526 Z-5.5023
X-3.2861 Y-0.0715 Z-5.5087
X-3.2153 Y-0.0895 Z-5.5151
X-3.1443 Y-0.1067 Z-5.5215
X-3.0731 Y-0.1230 Z-5.5279
X-3.0017 Y-0.1385 Z-5.5343
X-2.9301 Y-0.1531 Z-5.5407
X-2.8584 Y-0.1668 Z-5.5471
X-2.7864 Y-0.1796 Z-5.5535
X-2.7144 Y-0.1915 Z-5.5598
X-2.6421 Y-0.2026 Z-5.5662
X-2.5698 Y-0.2128 Z-5.5726
X-2.4973 Y-0.2221 Z-5.5790
X-2.4248 Y-0.2306 Z-5.5854
X-2.3521 Y-0.2381 Z-5.5918
X-2.2793 Y-0.2448 Z-5.5982
X-2.2065 Y-0.2506 Z-5.6046
X-2.1336 Y-0.2554 Z-5.6110
X-2.0607 Y-0.2594 Z-5.6174
X-1.9877 Y-0.2626 Z-5.6238
X-1.9146 Y-0.2648 Z-5.6302
X-1.8416 Y-0.2661 Z-5.6365
X-1.7685 Y-0.2666 Z-5.6429
X-1.6955 Y-0.2661 Z-5.6493
X-1.6224 Y-0.2648 Z-5.6557
X-1.5494 Y-0.2626 Z-5.6621
X-1.4764 Y-0.2594 Z-5.6685
X-1.4035 Y-0.2554 Z-5.6749
X-1.3306 Y-0.2506 Z-5.6813
X-1.2577 Y-0.2448 Z-5.6877
X-1.1850 Y-0.2381 Z-5.6941
X-1.1123 Y-0.2306 Z-5.7005
X-1.0397 Y-0.2221 Z-5.7069
X-0.9673 Y-0.2128 Z-5.7133
X-0.8949 Y-0.2026 Z-5.7196
X-0.8227 Y-0.1915 Z-5.7260
X-0.7506 Y-0.1796 Z-5.7324
X-0.6787 Y-0.1668 Z-5.7388
X-0.6069 Y-0.1531 Z-5.7452
X-0.5354 Y-0.1385 Z-5.7516
X-0.4639 Y-0.1230 Z-5.7580
X-0.3927 Y-0.1067 Z-5.7644
X-0.3217 Y-0.0895 Z-5.7708
X-0.2509 Y-0.0715 Z-5.7772
X-0.1804 Y-0.0526 Z-5.7836
X-0.1100 Y-0.0328 Z-5.7900
X-0.0399 Y-0.0122 Z-5.7963
X0.0000 Y0.0001 Z-5.8000
Y0.0000
X0.1040 Y0.3137  F900.0
X-0.1383 Y0.5385
X-0.4433 Y0.4113
G03X0.4695Y-1.1963I0.5556J-0.7474
X-0.2484Y2.0002I-0.5813J1.5483
X0.4458Y-2.7828I0.2725J-2.4023
X-0.6530Y3.5583I-0.5154J3.1764
X1.0699Y-4.2961I0.7192J-3.9584
X-1.7119Y4.9561I-1.1847J4.6881
X2.4971Y-5.5221I1.8500J-5.3413
X-3.6177Y5.8598I-2.6886J5.8891
X4.7762Y-6.0517I3.8450J-6.2037
X-6.1798Y5.8925I-5.0532J6.3618
X7.5411Y-5.5524I6.4910J-6.1653
X-8.9841Y4.8178I-7.8900J5.7788
X10.3070Y-3.9024I9.3580J-4.9963
X-11.5621Y2.5983I-10.7035J4.0276
X12.6206Y-1.1870I11.9698J-2.6696
X-13.4950Y-0.4233I-13.0337J1.2075
X14.1079Y2.5258I13.9096J0.4627
X3.3982Y14.2247I-14.2885J-2.3288
X-3.3982Y-14.2247I-3.3982J-14.2247
X3.3982Y14.2247I3.3982J14.2247
G01 X2.8679 Y13.3062 Z-4.7393
Z-4.1393
G00 Z3.1750
(Slot)
(Endmill 1/4in 6.35mm Carbide)
X0.0000 Y15.7114
G01 Z-1.0000  F450.0
Y24.2964  F900.0
G00 Z3.1750
Y15.7114
G01 Z-2.0000  F450.0
Y24.2964  F900.0
G00 Z3.1750
Y15.7114
G01 Z-3.0000  F450.0
Y24.2964  F900.0
G00 Z3.1750
Y15.7114
G01 Z-4.0000  F450.0
Y24.2964  F900.0
G00 Z3.1750
Y15.7114
G01 Z-5.0000  F450.0
Y24.2964  F900.0
G00 Z3.1750
(Bolt Hole)
(Endmill 1/4in 6.35mm Carbide)
X-23.3915 Y-17.5537
G01 Z2.5011  F450.0
Z0.5011  F450.0
Y-25.1060 Z-0.1596
X-27.2693 Z-0.4989
X-30.4443  F900.0
Y-13.1750
X-23.3915
Y-25.1060
X-27.2693
Y-23.5185
X-24.9790
Y-14.7625
X-28.8568
Y-23.5185
X-27.2693
Y-21.9310
Y-16.3500
X-26.5665
Y-21.9310
X-27.2693
G00 Z3.1750
Y-25.1060
G01 Z-0.9977  F450.0
X-30.4443  F900.0
Y-13.1750
X-23.3915
Y-25.1060
X-27.2693
Y-23.5185
X-24.9790
Y-14.7625
X-28.8568
Y-23.5185
X-27.2693
Y-21.9310
Y-16.3500
X-26.5665
Y-21.9310
X-27.2693
G00 Z3.1750
Y-25.1060
G01 Z-1.4966  F450.0
X-30.4443  F900.0
Y-13.1750
X-23.3915
Y-25.1060
X-27.2693
Y-23.5185
X-24.9790
Y-14.7625
X-28.8568
Y-23.5185
X-27.2693
Y-21.9310
Y-16.3500
X-26.5665
Y-21.9310
X-27.2693
G00 Z3.1750
Y-25.1060
G01 Z-1.9954  F450.0
X-30.4443  F900.0
Y-13.1750
X-23.3915
Y-25.1060
X-27.2693
Y-23.5185
X-24.9790
Y-14.7625
X-28.8568
Y-23.5185
X-27.2693
Y-21.9310
Y-16.3500
X-26.5665
Y-21.9310
X-27.2693
G00 Z3.1750
Y-25.1060
G01 Z-2.4943  F450.0
X-30.4443  F900.0
Y-13.1750
X-23.3915
Y-25.1060
X-27.2693
Y-23.5185
X-24.9790
Y-14.7625
X-28.8568
Y-23.5185
X-27.2693
Y-21.9310
Y-16.3500
X-26.5665
Y-21.9310
X-27.2693
G00 Z3.1750
Y-25.1060
G01 Z-2.9932  F450.0
X-30.4443  F900.0
Y-13.1750
X-23.3915
Y-25.1060
X-27.2693
Y-23.5185
X-24.9790
Y-14.7625
X-28.8568
Y-23.5185
X-27.2693
Y-21.9310
Y-16.3500
X-26.5665
Y-21.9310
X-27.2693
G00 Z3.1750
Y-25.1060
G01 Z-3.4920  F450.0
X-30.4443  F900.0
Y-13.1750
X-23.3915
Y-25.1060
X-27.2693
Y-23.5185
X-24.9790
Y-14.7625
X-28.8568
Y-23.5185
X-27.2693
Y-21.9310
Y-16.3500
X-26.5665
Y-21.9310
X-27.2693
G00 Z3.1750
Y-25.1060
G01 Z-3.9909  F450.0
X-30.4443  F900.0
Y-13.1750
X-23.3915
Y-25.1060
X-27.2693
Y-23.5185
X-24.9790
Y-14.7625
X-28.8568
Y-23.5185
X-27.2693
Y-21.9310
Y-16.3500
X-26.5665
Y-21.9310
X-27.2693
G00 Z3.1750
Y-25.1060
G01 Z-4.4898  F450.0
X-30.4443  F900.0
Y-13.1750
X-23.3915
Y-25.1060
X-27.2693
Y-23.5185
X-24.9790
Y-14.7625
X-28.8568
Y-23.5185
X-27.2693
Y-21.9310
Y-16.3500
X-26.5665
Y-21.9310
X-27.2693
G00 Z3.1750
Y-25.1060
G01 Z-4.9886  F450.0
X-30.4443  F900.0
Y-13.1750
X-23.3915
Y-25.1060
X-27.2693
Y-23.5185
X-24.9790
Y-14.7625
X-28.8568
Y-23.5185
X-27.2693
Y-21.9310
Y-16.3500
X-26.5665
Y-21.9310
X-27.2693
G00 Z3.1750
Y-25.1060
G01 Z-5.4875  F450.0
X-30.4443  F900.0
Y-13.1750
X-23.3915
Y-25.1060
X-27.2693
Y-23.5185
X-24.9790
Y-14.7625
X-28.8568
Y-23.5185
X-27.2693
Y-21.9310
Y-16.3500
X-26.5665
Y-21.9310
X-27.2693
G00 Z3.1750
Y-25.1060
G01 Z-5.9863  F450.0
X-30.4443  F900.0
Y-13.1750
X-23.3915
Y-25.1060
X-27.2693
Y-23.5185
X-24.9790
Y-14.7625
X-28.8568
Y-23.5185
X-27.2693
Y-21.9310
Y-16.3500
X-26.5665
Y-21.9310
X-27.2693
G00 Z3.1750
Y-25.1060
G01 Z-6.4852  F450.0
X-30.4443  F900.0
Y-13.1750
X-23.3915
Y-25.1060
X-27.2693
Y-23.5185
X-24.9790
Y-14.7625
X-28.8568
Y-23.5185
X-27.2693
Y-21.9310
Y-16.3500
X-26.5665
Y-21.9310
X-27.2693
G00 Z3.1750
Y-25.1060
G01 Z-6.9841  F450.0
X-30.4443  F900.0
Y-13.1750
X-23.3915
Y-25.1060
X-27.2693
Y-23.5185
X-24.9790
Y-14.7625
X-28.8568
Y-23.5185
X-27.2693
Y-21.9310
Y-16.3500
X-26.5665
Y-21.9310
X-27.2693
G00 Z3.1750
Y-25.1060
G01 Z-7.4829  F450.0
X-30.4443  F900.0
Y-13.1750
X-23.3915
Y-25.1060
X-27.2693
Y-23.5185
X-24.9790
Y-14.7625
X-28.8568
Y-23.5185
X-27.2693
Y-21.9310
Y-16.3500
X-26.5665
Y-21.9310
X-27.2693
Y-20.8704 Z-6.4223
Z-5.8223
G00 Z3.1750
(Finish Face Top)
M0
(Endmill 1/4in 6.35mm Carbide)
M03 S13500
X21.1378 Y-29.4771
G01 Z5.6000  F450.0
Z0.6000  F450.0
X21.1794 Y-29.4478 Z0.5955
X21.3979 Y-29.2918 Z0.5721
X21.6152 Y-29.1341 Z0.5486
X21.8313 Y-28.9749 Z0.5251
X22.0463 Y-28.8140 Z0.5016
X22.2601 Y-28.6515 Z0.4781
X22.4727 Y-28.4875 Z0.4546
X22.6840 Y-28.3218 Z0.4311
X22.8942 Y-28.1546 Z0.4076
X23.1031 Y-27.9859 Z0.3841
X23.3108 Y-27.8156 Z0.3606
X23.5172 Y-27.6437 Z0.3371
X23.7224 Y-27.4703 Z0.3136
X23.9263 Y-27.2954 Z0.2901
X24.1289 Y-27.1190 Z0.2666
X24.3302 Y-26.9411 Z0.2431
X24.5301 Y-26.7617 Z0.2196
X24.7288 Y-26.5808 Z0.1961
X24.9261 Y-26.3984 Z0.1726
X25.1221 Y-26.2145 Z0.1491
X25.3167 Y-26.0292 Z0.1256
X25.5100 Y-25.8425 Z0.1021
X25.7018 Y-25.6543 Z0.0785
X25.8923 Y-25.4647 Z0.0550
X26.0814 Y-25.2737 Z0.0315
X26.2691 Y-25.0813 Z0.0080
X26.3325 Y-25.0153 Z0.0000
G02X-21.8772Y27.9447I-26.0535J24.7062 F900.0
X17.2161Y-30.0813I21.6459J-27.5987
X-12.3079Y31.5100I-17.0379J29.7047
X7.3426Y-32.1700I12.1860J-31.1115
X-2.4865Y32.0702I-7.2818J31.7579
X-1.9875Y-31.2740I2.4837J-31.6545
X6.4844Y29.8081I1.9278J30.8612
X-10.1754Y-27.8783I-6.3695J-29.4093
X13.7403Y25.3638I10.0018J27.4997
X-16.6195Y-22.5562I-13.5182J-25.0128
X19.0636Y19.3848I16.3479J22.2412
X-21.0533Y-15.8569I-18.7499J-19.1105
X22.3068Y12.4137I20.7039J15.6325
X-23.1232Y-8.6750I-21.9279J-12.2399
X23.3285Y5.0379I22.7229J8.5601
X-22.9876Y-1.4759I-22.9155J-4.9819
X22.1421Y-1.6819I22.5721J1.4817
X-20.8471Y4.7211I-21.7306J1.6170
X19.2008Y-7.3110I20.4501J-4.5975
X-17.2415Y9.5627I-18.8253J7.1321
X14.9772Y-11.5026I16.8942J-9.3322
X-12.6022Y12.9288I-14.6686J11.2236
X10.1543Y-13.9136I12.3355J-12.6096
X-7.7387Y14.4549I-9.9366J13.5597
X5.4705Y-14.5761I7.5690J-14.0767
X-3.2802Y14.3715I-5.3563J14.1773
X1.3127Y-13.8524I3.2153J-13.9625
X0.4636Y13.0797I-1.3055J13.4383
X-1.8010Y-12.1330I-0.4278J-12.6696
X3.1507Y10.9964I1.7076J11.7292
X-4.1196Y-9.7829I-3.0149J-10.6067
X4.9134Y8.4666I3.9280J9.4160
X-5.3845Y-7.1683I-4.6847J-8.1232
X5.6098Y5.9015I5.1120J6.8589
X-5.6784Y-4.6132I-5.3037J-5.6228
X5.4634Y3.5111I5.3390J4.3802
X-5.1414Y-2.3806I-5.0962J-3.3171
X4.5759Y1.5996I4.7565J2.2396
X-3.9305Y-0.8579I-4.1755J-1.4977
X3.1783Y0.4585I3.5271J0.8057
X-2.3924Y-0.1499I-2.7706J-0.4387
X1.5933Y0.0399I1.9893J0.1701
X-0.8159Y-0.0867I-1.2040J-0.0753
G01 X-0.8096 Y-0.0572
X-0.8022 Y-0.0283
X-0.7938 Y0.0000
X-0.7843 Y0.0277
X-0.7740 Y0.0547
X-0.7627 Y0.0811
X-0.7505 Y0.1067
X-0.7375 Y0.1315
X-0.7237 Y0.1556
X-0.7091 Y0.1789
X-0.6938 Y0.2013
X-0.6778 Y0.2229
X-0.6611 Y0.2436
X-0.6439 Y0.2634
X-0.6260 Y0.2823
X-0.6077 Y0.3002
X-0.5889 Y0.3173
X-0.5696 Y0.3333
X-0.5499 Y0.3485
X-0.5299 Y0.3626
X-0.5096 Y0.3758
X-0.4891 Y0.3880
X-0.4683 Y0.3992
X-0.4473 Y0.4095
X-0.4262 Y0.4188
X-0.4051 Y0.4271
X-0.3838 Y0.4344
X-0.3626 Y0.4408
X-0.3414 Y0.4463
X-0.3203 Y0.4508
X-0.2992 Y0.4543
X-0.2784 Y0.4570
X-0.2577 Y0.4588
X-0.2373 Y0.4596
X-0.2171 Y0.4597
X-0.1972 Y0.4588
X-0.1777 Y0.4572
X-0.1585 Y0.4548
X-0.1397 Y0.4516
X-0.1213 Y0.4476
X-0.1034 Y0.4429
X-0.0860 Y0.4375
X-0.0691 Y0.4315
X-0.0528 Y0.4248
X-0.0369 Y0.4175
X-0.0217 Y0.4097
X-0.0071 Y0.4013
X0.0069 Y0.3924
X0.0203 Y0.3830
X0.0330 Y0.3731
X0.0451 Y0.3629
X0.0564 Y0.3522
X0.0671 Y0.3413
X0.0771 Y0.3300
X0.0863 Y0.3185
X0.0949 Y0.3067
X0.1027 Y0.2948
X0.1098 Y0.2826
X0.1162 Y0.2704
X0.1219 Y0.2581
X0.1268 Y0.2457
X0.1310 Y0.2333
X0.1346 Y0.2209
X0.1374 Y0.2085
X0.1395 Y0.1963
X0.1409 Y0.1842
X0.1416 Y0.1722
X0.1417 Y0.1604
X0.1412 Y0.1488
X0.1400 Y0.1375
X0.1381 Y0.1265
X0.1357 Y0.1157
X0.1327 Y0.1053
X0.1292 Y0.0953
X0.1251 Y0.0856
X0.1205 Y0.0764
X0.1155 Y0.0676
X0.1099 Y0.0592
X0.1039 Y0.0514
X0.0976 Y0.0440
X0.0908 Y0.0371
X0.0837 Y0.0308
X0.0762 Y0.0251
X0.0685 Y0.0199
X0.0605 Y0.0153
X0.0523 Y0.0112
X0.0439 Y0.0078
X0.0353 Y0.0050
X0.0266 Y0.0028
X0.0178 Y0.0013
X0.0089 Y0.0003
X-1.0511 Y-0.0371 Z1.0607
Z1.6607
G00 Z3.1750
(Finish Hole)
(Endmill 1/4in 6.35mm Carbide)
M03 S5500
X-6.2516 Y1.7458
G01 Z-0.4000  F450.0
Z-5.4000  F450.0
X-6.2372 Y1.7295 Z-5.4019
X-6.1881 Y1.6754 Z-5.4083
X-6.1383 Y1.6219 Z-5.4147
X-6.0880 Y1.5690 Z-5.4211
X-6.0369 Y1.5167 Z-5.4275
X-5.9853 Y1.4650 Z-5.4339
X-5.9330 Y1.4140 Z-5.4403
X-5.8801 Y1.3636 Z-5.4466
X-5.8266 Y1.3139 Z-5.4530
X-5.7724 Y1.2648 Z-5.4594
X-5.7177 Y1.2164 Z-5.4658
X-5.6624 Y1.1686 Z-5.4722
X-5.6066 Y1.1216 Z-5.4786
X-5.5501 Y1.0752 Z-5.4850
X-5.4931 Y1.0295 Z-5.4914
X-5.4356 Y0.9845 Z-5.4978
X-5.3775 Y0.9402 Z-5.5042
X-5.3188 Y0.8966 Z-5.5106
X-5.2597 Y0.8537 Z-5.5170
X-5.2000 Y0.8115 Z-5.5233
X-5.1398 Y0.7701 Z-5.5297
X-5.0791 Y0.7294 Z-5.5361
X-5.0180 Y0.6895 Z-5.5425
X-4.9563 Y0.6503 Z-5.5489
X-4.8942 Y0.6119 Z-5.5553
X-4.8316 Y0.5742 Z-5.5617
X-4.7685 Y0.5373 Z-5.5681
X-4.7050 Y0.5011 Z-5.5745
X-4.6411 Y0.4658 Z-5.5809
X-4.5768 Y0.4312 Z-5.5873
X-4.5120 Y0.3974 Z-5.5937
X-4.4468 Y0.3644 Z-5.6000
X-4.3812 Y0.3322 Z-5.6064
X-4.3153 Y0.3007 Z-5.6128
X-4.2489 Y0.2701 Z-5.6192
X-4.1822 Y0.2403 Z-5.6256
X-4.1152 Y0.2114 Z-5.6320
X-4.0477 Y0.1832 Z-5.6384
X-3.9800 Y0.1559 Z-5.6448
X-3.9119 Y0.1293 Z-5.6512
X-3.8435 Y0.1037 Z-5.6576
X-3.7748 Y0.0788 Z-5.6640
X-3.7058 Y0.0548 Z-5.6704
X-3.6365 Y0.0316 Z-5.6768
X-3.5670 Y0.0093 Z-5.6831
X-3.4971 Y-0.0122 Z-5.6895
X-3.4270 Y-0.0328 Z-5.6959
X-3.3567 Y-0.0526 Z-5.7023
X-3.2861 Y-0.0715 Z-5.7087
X-3.2153 Y-0.0895 Z-5.7151
X-3.1443 Y-0.1067 Z-5.7215
X-3.0731 Y-0.1230 Z-5.7279
X-3.0017 Y-0.1385 Z-5.7343
X-2.9301 Y-0.1531 Z-5.7407
X-2.8584 Y-0.1668 Z-5.7471
X-2.7864 Y-0.1796 Z-5.7535
X-2.7144 Y-0.1915 Z-5.7598
X-2.6421 Y-0.2026 Z-5.7662
X-2.5698 Y-0.2128 Z-5.7726
X-2.4973 Y-0.2221 Z-5.7790
X-2.4248 Y-0.2306 Z-5.7854
X-2.3521 Y-0.2381 Z-5.7918
X-2.2793 Y-0.2448 Z-5.7982
X-2.2065 Y-0.2506 Z-5.8046
X-2.1336 Y-0.2554 Z-5.8110
X-2.0607 Y-0.2594 Z-5.8174
X-1.9877 Y-0.2626 Z-5.8238
X-1.9146 Y-0.2648 Z-5.8302
X-1.8416 Y-0.2661 Z-5.8365
X-1.7685 Y-0.2666 Z-5.8429
X-1.6955 Y-0.2661 Z-5.8493
X-1.6224 Y-0.2648 Z-5.8557
X-1.5494 Y-0.2626 Z-5.8621
X-1.4764 Y-0.2594 Z-5.8685
X-1.4035 Y-0.2554 Z-5.8749
X-1.3306 Y-0.2506 Z-5.8813
X-1.2577 Y-0.2448 Z-5.8877
X-1.1850 Y-0.2381 Z-5.8941
X-1.1123 Y-0.2306 Z-5.9005
X-1.0397 Y-0.2221 Z-5.9069
X-0.9673 Y-0.2128 Z-5.9133
X-0.8949 Y-0.2026 Z-5.9196
X-0.8227 Y-0.1915 Z-5.9260
X-0.7506 Y-0.1796 Z-5.9324
X-0.6787 Y-0.1668 Z-5.9388
X-0.6069 Y-0.1531 Z-5.9452
X-0.5354 Y-0.1385 Z-5.9516
X-0.4639 Y-0.1230 Z-5.9580
X-0.3927 Y-0.1067 Z-5.9644
X-0.3217 Y-0.0895 Z-5.9708
X-0.2509 Y-0.0715 Z-5.9772
X-0.1804 Y-0.0526 Z-5.9836
X-0.1100 Y-0.0328 Z-5.9900
X-0.0399 Y-0.0122 Z-5.9963
X0.0000 Y0.0001 Z-6.0000
Y0.0000
X0.0433 Y0.0134  F900.0
X0.0750 Y0.0511
X0.0848 Y0.1064
X0.0663 Y0.1689
X0.0169 Y0.2262
X-0.0606 Y0.2653
X-0.1588 Y0.2750
X-0.2660 Y0.2468
X-0.3678 Y0.1771
G03X0.7120Y-0.4855I0.5421J-0.3277
X-1.4204Y0.0647I-0.9872J0.5810
X1.7231Y0.9825I1.7065J-0.0024
X-1.2928Y-2.1845I-1.9388J-1.1732
X0.0408Y3.0934I1.3625J2.4632
X1.8824Y-3.1317I0.0264J-3.3772
X-3.8506Y1.7320I-2.1033J3.3314
X4.7352Y0.6831I4.1398J-1.7774
X-4.0676Y-3.4687I-5.0046J-0.7970
X1.6363Y5.6796I4.2263J3.7172
X1.7917Y-6.2190I-1.6413J-5.9717
X-5.3780Y4.5391I-1.9515J6.4676
X7.5459Y-0.9188I5.6458J-4.6615
X-7.3399Y-3.5767I-7.8363J0.8745
X4.3275Y7.5842I7.5558J3.7802
X0.5667Y-9.2788I-4.3976J-7.8701
X-6.0372Y7.7994I-0.6714J9.5563
X9.9047Y-3.2659I6.2772J-7.9728
X-10.5984Y-2.9250I-10.1999J3.2760
X7.4289Y8.8600I10.8489J3.0852
X-1.3209Y-12.0557I-7.5473J-9.1307
X-6.0669Y11.1528I1.2634J12.3479
X11.7488Y-6.1516I6.2759J-11.3619
X-13.7443Y-1.5182I-12.0391J6.2090
X10.8194Y9.4977I14.0172J1.6384
X-13.6224Y-5.8490I-11.0037J-9.6120
X13.6224Y5.8490I13.6224J5.8490
X-13.6224Y-5.8490I-13.6224J-5.8490
G01 X-11.1319 Y-1.5354 Z-5.5642
Z-0.5642
G00 Z3.1750
(Standard Drill )
(1/8in Carbide Drill)
M6 T31
M03 S5500
Z3.2500
X8.4694 Y-11.8500
G73 X8.4694 Y-11.8500 Z-11.433 R-3.5 Q1.5 F100.0
G80
G00 Z3.2500
X-8.4694 Y11.8500
G73 X-8.4694 Y11.8500 Z-11.433 R-3.5 Q1.5 F100.0
G80
G00 Z3.2500
X8.4694 Y11.8500
G73 X8.4694 Y11.8500 Z-11.433 R-3.5 Q1.5 F100.0
G80
G00 Z3.2500
X-8.4694 Y-11.8500
G73 X-8.4694 Y-11.8500 Z-11.433 R-3.5 Q1.5 F100.0
G80
G00 Z3.2500
M5 M9
M30
