G00 G49 G40.1 G17 G80 G50 G90
G21
(Hole Pocketing)
(SlotDrill 1/8in 3.175mm Carbide Aluminium Cut)
M6 T6
M03 S20000
G00 Z1.5875
X97.3408 Y114.0140
G01 Z0.6350  F1000.0
X97.2539 Y114.0190 Z0.6073
X97.1396 Y113.9989 Z0.5704
X97.0330 Y113.9529 Z0.5334
X96.9399 Y113.8836 Z0.4964
X96.8653 Y113.7946 Z0.4595
X96.8132 Y113.6909 Z0.4225
X96.7864 Y113.5779 Z0.3856
Y113.4618 Z0.3486
X96.8132 Y113.3489 Z0.3117
X96.8653 Y113.2451 Z0.2747
X96.9399 Y113.1562 Z0.2378
X97.0330 Y113.0869 Z0.2008
X97.1396 Y113.0409 Z0.1639
X97.2539 Y113.0207 Z0.1269
X97.3698 Y113.0275 Z0.0900
X97.4811 Y113.0608 Z0.0530
X97.5816 Y113.1188 Z0.0160
X97.6660 Y113.1985 Z-0.0209
X97.7298 Y113.2955 Z-0.0579
X97.7695 Y113.4046 Z-0.0948
X97.7830 Y113.5199 Z-0.1318
X97.7695 Y113.6352 Z-0.1687
X97.7298 Y113.7443 Z-0.2057
X97.6660 Y113.8413 Z-0.2426
X97.5816 Y113.9209 Z-0.2796
X97.4811 Y113.9790 Z-0.3165
X97.3698 Y114.0123 Z-0.3535
X97.2539 Y114.0190 Z-0.3904
X97.1396 Y113.9989 Z-0.4274
X97.0330 Y113.9529 Z-0.4643
X96.9399 Y113.8836 Z-0.5013
X96.8653 Y113.7946 Z-0.5383
X96.8132 Y113.6909 Z-0.5752
X96.7864 Y113.5779 Z-0.6122
Y113.4618 Z-0.6491
X96.8132 Y113.3489 Z-0.6861
X96.8653 Y113.2451 Z-0.7230
X96.9399 Y113.1562 Z-0.7600
X97.0330 Y113.0869 Z-0.7969
X97.1396 Y113.0409 Z-0.8339
X97.2539 Y113.0207 Z-0.8708
X97.3698 Y113.0275 Z-0.9078
X97.4811 Y113.0608 Z-0.9447
X97.5816 Y113.1188 Z-0.9817
X97.6660 Y113.1985 Z-1.0186
X97.7298 Y113.2955 Z-1.0556
X97.7695 Y113.4046 Z-1.0926
X97.7830 Y113.5199 Z-1.1295
X97.7695 Y113.6352 Z-1.1665
X97.7298 Y113.7443 Z-1.2034
X97.6660 Y113.8413 Z-1.2404
X97.5816 Y113.9209 Z-1.2773
X97.4811 Y113.9790 Z-1.3143
X97.3698 Y114.0123 Z-1.3512
X97.2539 Y114.0190 Z-1.3882
X97.1396 Y113.9989 Z-1.4251
X97.0330 Y113.9529 Z-1.4621
X96.9399 Y113.8836 Z-1.4990
X96.8653 Y113.7946 Z-1.5360
X96.8132 Y113.6909 Z-1.5730
X96.7864 Y113.5779 Z-1.6099
Y113.4618 Z-1.6469
X96.8132 Y113.3489 Z-1.6838
X96.8653 Y113.2451 Z-1.7208
X96.9399 Y113.1562 Z-1.7577
X97.0330 Y113.0869 Z-1.7947
X97.1396 Y113.0409 Z-1.8316
X97.2539 Y113.0207 Z-1.8686
X97.3698 Y113.0275 Z-1.9055
X97.4811 Y113.0608 Z-1.9425
X97.5816 Y113.1188 Z-1.9794
X97.6660 Y113.1985 Z-2.0164
X97.7298 Y113.2955 Z-2.0533
X97.7695 Y113.4046 Z-2.0903
X97.7830 Y113.5199 Z-2.1273
X97.7695 Y113.6352 Z-2.1642
X97.7298 Y113.7443 Z-2.2012
X97.6660 Y113.8413 Z-2.2381
X97.5816 Y113.9209 Z-2.2751
X97.4811 Y113.9790 Z-2.3120
X97.3698 Y114.0123 Z-2.3490
X97.2539 Y114.0190 Z-2.3859
X97.1396 Y113.9989 Z-2.4229
X97.0330 Y113.9529 Z-2.4598
X96.9399 Y113.8836 Z-2.4968
X96.8653 Y113.7946 Z-2.5337
X96.8132 Y113.6909 Z-2.5707
X96.7864 Y113.5779 Z-2.6077
Y113.4618 Z-2.6446
X96.8132 Y113.3489 Z-2.6816
X96.8653 Y113.2451 Z-2.7185
X96.9399 Y113.1562 Z-2.7555
X97.0330 Y113.0869 Z-2.7924
X97.1396 Y113.0409 Z-2.8294
X97.2539 Y113.0207 Z-2.8663
X97.3698 Y113.0275 Z-2.9033
X97.4811 Y113.0608 Z-2.9402
X97.5816 Y113.1188 Z-2.9772
X97.6660 Y113.1985 Z-3.0141
X97.7298 Y113.2955 Z-3.0511
X97.7695 Y113.4046 Z-3.0880
X97.7830 Y113.5199 Z-3.1250
X97.7798 Y113.7806
X97.6364 Y114.0319
X97.3654 Y114.1981
X97.0191 Y114.2158
X96.6802 Y114.0539
X96.4418 Y113.7272
X96.3826 Y113.2979
X96.5431 Y112.8644
X96.9108 Y112.5386
X97.4169 Y112.4174
X97.9486 Y112.5556
X98.3745 Y112.9470
X98.5768 Y113.5199
X98.5554 Y113.9124
X98.4144 Y114.2913
X98.1604 Y114.6200
X97.8109 Y114.8649
X97.3938 Y114.9985
X96.9447 Y115.0023
X96.5038 Y114.8694
X96.1209 Y114.5981
G17
G03X98.4451Y112.4416I1.1621J-1.0782
X96.1209Y114.5981I-1.1621J1.0783
G01 X97.7830 Y113.5199
X97.6183 Y113.1534
X97.6660 Y113.1985 Z-3.1459
X97.7298 Y113.2955 Z-3.1829
X97.7695 Y113.4046 Z-3.2198
X97.7830 Y113.5199 Z-3.2568
X97.7695 Y113.6352 Z-3.2937
X97.7298 Y113.7443 Z-3.3307
X97.6660 Y113.8413 Z-3.3676
X97.5816 Y113.9209 Z-3.4046
X97.4811 Y113.9790 Z-3.4415
X97.3698 Y114.0123 Z-3.4785
X97.2539 Y114.0190 Z-3.5154
X97.1396 Y113.9989 Z-3.5524
X97.0330 Y113.9529 Z-3.5893
X96.9399 Y113.8836 Z-3.6263
X96.8653 Y113.7946 Z-3.6633
X96.8132 Y113.6909 Z-3.7002
X96.7864 Y113.5779 Z-3.7372
Y113.4618 Z-3.7741
X96.8132 Y113.3489 Z-3.8111
X96.8653 Y113.2451 Z-3.8480
X96.9399 Y113.1562 Z-3.8850
X97.0330 Y113.0869 Z-3.9219
X97.1396 Y113.0409 Z-3.9589
X97.2539 Y113.0207 Z-3.9958
X97.3698 Y113.0275 Z-4.0328
X97.4811 Y113.0608 Z-4.0697
X97.5816 Y113.1188 Z-4.1067
X97.6660 Y113.1985 Z-4.1436
X97.7298 Y113.2955 Z-4.1806
X97.7695 Y113.4046 Z-4.2176
X97.7830 Y113.5199 Z-4.2545
X97.7695 Y113.6352 Z-4.2915
X97.7298 Y113.7443 Z-4.3284
X97.6660 Y113.8413 Z-4.3654
X97.5816 Y113.9209 Z-4.4023
X97.4811 Y113.9790 Z-4.4393
X97.3698 Y114.0123 Z-4.4762
X97.2539 Y114.0190 Z-4.5132
X97.1396 Y113.9989 Z-4.5501
X97.0330 Y113.9529 Z-4.5871
X96.9399 Y113.8836 Z-4.6240
X96.8653 Y113.7946 Z-4.6610
X96.8132 Y113.6909 Z-4.6980
X96.7864 Y113.5779 Z-4.7349
Y113.4618 Z-4.7719
X96.8132 Y113.3489 Z-4.8088
X96.8653 Y113.2451 Z-4.8458
X96.9399 Y113.1562 Z-4.8827
X97.0330 Y113.0869 Z-4.9197
X97.1396 Y113.0409 Z-4.9566
X97.2539 Y113.0207 Z-4.9936
X97.3698 Y113.0275 Z-5.0305
X97.4811 Y113.0608 Z-5.0675
X97.5816 Y113.1188 Z-5.1044
X97.6660 Y113.1985 Z-5.1414
X97.7298 Y113.2955 Z-5.1783
X97.7695 Y113.4046 Z-5.2153
X97.7830 Y113.5199 Z-5.2523
X97.7695 Y113.6352 Z-5.2892
X97.7298 Y113.7443 Z-5.3262
X97.6660 Y113.8413 Z-5.3631
X97.5816 Y113.9209 Z-5.4001
X97.4811 Y113.9790 Z-5.4370
X97.3698 Y114.0123 Z-5.4740
X97.2539 Y114.0190 Z-5.5109
X97.1396 Y113.9989 Z-5.5479
X97.0330 Y113.9529 Z-5.5848
X96.9399 Y113.8836 Z-5.6218
X96.8653 Y113.7946 Z-5.6587
X96.8132 Y113.6909 Z-5.6957
X96.7864 Y113.5779 Z-5.7327
Y113.4618 Z-5.7696
X96.8132 Y113.3489 Z-5.8066
X96.8653 Y113.2451 Z-5.8435
X96.9399 Y113.1562 Z-5.8805
X97.0330 Y113.0869 Z-5.9174
X97.1396 Y113.0409 Z-5.9544
X97.2539 Y113.0207 Z-5.9913
X97.3698 Y113.0275 Z-6.0283
X97.4811 Y113.0608 Z-6.0652
X97.5816 Y113.1188 Z-6.1022
X97.6660 Y113.1985 Z-6.1391
X97.7298 Y113.2955 Z-6.1761
X97.7695 Y113.4046 Z-6.2130
X97.7830 Y113.5199 Z-6.2500
X97.7798 Y113.7806
X97.6364 Y114.0319
X97.3654 Y114.1981
X97.0191 Y114.2158
X96.6802 Y114.0539
X96.4418 Y113.7272
X96.3826 Y113.2979
X96.5431 Y112.8644
X96.9108 Y112.5386
X97.4169 Y112.4174
X97.9486 Y112.5556
X98.3745 Y112.9470
X98.5768 Y113.5199
X98.5554 Y113.9124
X98.4144 Y114.2913
X98.1604 Y114.6200
X97.8109 Y114.8649
X97.3938 Y114.9985
X96.9447 Y115.0023
X96.5038 Y114.8694
X96.1209 Y114.5981
G03X98.4451Y112.4416I1.1621J-1.0782
X96.1209Y114.5981I-1.1621J1.0783
G01 X97.7830 Y113.5199
X97.6183 Y113.1534
X97.6660 Y113.1985 Z-6.2709
X97.7298 Y113.2955 Z-6.3079
X97.7695 Y113.4046 Z-6.3448
X97.7830 Y113.5199 Z-6.3818
X97.7695 Y113.6352 Z-6.4187
X97.7298 Y113.7443 Z-6.4557
X97.6660 Y113.8413 Z-6.4926
X97.5816 Y113.9209 Z-6.5296
X97.4811 Y113.9790 Z-6.5665
X97.3698 Y114.0123 Z-6.6035
X97.2539 Y114.0190 Z-6.6404
X97.1396 Y113.9989 Z-6.6774
X97.0330 Y113.9529 Z-6.7143
X96.9399 Y113.8836 Z-6.7513
X96.8653 Y113.7946 Z-6.7883
X96.8132 Y113.6909 Z-6.8252
X96.7864 Y113.5779 Z-6.8622
Y113.4618 Z-6.8991
X96.8132 Y113.3489 Z-6.9361
X96.8653 Y113.2451 Z-6.9730
X96.9399 Y113.1562 Z-7.0100
X97.0330 Y113.0869 Z-7.0469
X97.1396 Y113.0409 Z-7.0839
X97.2539 Y113.0207 Z-7.1208
X97.3698 Y113.0275 Z-7.1578
X97.4811 Y113.0608 Z-7.1947
X97.5816 Y113.1188 Z-7.2317
X97.6660 Y113.1985 Z-7.2686
X97.7298 Y113.2955 Z-7.3056
X97.7695 Y113.4046 Z-7.3426
X97.7830 Y113.5199 Z-7.3795
X97.7695 Y113.6352 Z-7.4165
X97.7298 Y113.7443 Z-7.4534
X97.6660 Y113.8413 Z-7.4904
X97.5816 Y113.9209 Z-7.5273
X97.4811 Y113.9790 Z-7.5643
X97.3698 Y114.0123 Z-7.6012
X97.2539 Y114.0190 Z-7.6382
X97.1396 Y113.9989 Z-7.6751
X97.0330 Y113.9529 Z-7.7121
X96.9399 Y113.8836 Z-7.7490
X96.8653 Y113.7946 Z-7.7860
X96.8132 Y113.6909 Z-7.8230
X96.7864 Y113.5779 Z-7.8599
Y113.4618 Z-7.8969
X96.8132 Y113.3489 Z-7.9338
X96.8653 Y113.2451 Z-7.9708
X96.9399 Y113.1562 Z-8.0077
X97.0330 Y113.0869 Z-8.0447
X97.1396 Y113.0409 Z-8.0816
X97.2539 Y113.0207 Z-8.1186
X97.3698 Y113.0275 Z-8.1555
X97.4811 Y113.0608 Z-8.1925
X97.5816 Y113.1188 Z-8.2294
X97.6660 Y113.1985 Z-8.2664
X97.7298 Y113.2955 Z-8.3033
X97.7695 Y113.4046 Z-8.3403
X97.7830 Y113.5199 Z-8.3773
X97.7695 Y113.6352 Z-8.4142
X97.7298 Y113.7443 Z-8.4512
X97.6660 Y113.8413 Z-8.4881
X97.5816 Y113.9209 Z-8.5251
X97.4811 Y113.9790 Z-8.5620
X97.3698 Y114.0123 Z-8.5990
X97.2539 Y114.0190 Z-8.6359
X97.1396 Y113.9989 Z-8.6729
X97.0330 Y113.9529 Z-8.7098
X96.9399 Y113.8836 Z-8.7468
X96.8653 Y113.7946 Z-8.7837
X96.8132 Y113.6909 Z-8.8207
X96.7864 Y113.5779 Z-8.8577
Y113.4618 Z-8.8946
X96.8132 Y113.3489 Z-8.9316
X96.8653 Y113.2451 Z-8.9685
X96.9399 Y113.1562 Z-9.0055
X97.0330 Y113.0869 Z-9.0424
X97.1396 Y113.0409 Z-9.0794
X97.2539 Y113.0207 Z-9.1163
X97.3698 Y113.0275 Z-9.1533
X97.4811 Y113.0608 Z-9.1902
X97.5816 Y113.1188 Z-9.2272
X97.6660 Y113.1985 Z-9.2641
X97.7298 Y113.2955 Z-9.3011
X97.7695 Y113.4046 Z-9.3380
X97.7830 Y113.5199 Z-9.3750
X97.7798 Y113.7806
X97.6364 Y114.0319
X97.3654 Y114.1981
X97.0191 Y114.2158
X96.6802 Y114.0539
X96.4418 Y113.7272
X96.3826 Y113.2979
X96.5431 Y112.8644
X96.9108 Y112.5386
X97.4169 Y112.4174
X97.9486 Y112.5556
X98.3745 Y112.9470
X98.5768 Y113.5199
X98.5554 Y113.9124
X98.4144 Y114.2913
X98.1604 Y114.6200
X97.8109 Y114.8649
X97.3938 Y114.9985
X96.9447 Y115.0023
X96.5038 Y114.8694
X96.1209 Y114.5981
G03X98.4451Y112.4416I1.1621J-1.0782
X96.1209Y114.5981I-1.1621J1.0783
G01 X97.7830 Y113.5199
X97.6183 Y113.1534
X97.6660 Y113.1985 Z-9.3959
X97.7298 Y113.2955 Z-9.4329
X97.7695 Y113.4046 Z-9.4698
X97.7830 Y113.5199 Z-9.5068
X97.7695 Y113.6352 Z-9.5437
X97.7298 Y113.7443 Z-9.5807
X97.6660 Y113.8413 Z-9.6176
X97.5816 Y113.9209 Z-9.6546
X97.4811 Y113.9790 Z-9.6915
X97.3698 Y114.0123 Z-9.7285
X97.2539 Y114.0190 Z-9.7654
X97.1396 Y113.9989 Z-9.8024
X97.0330 Y113.9529 Z-9.8393
X96.9399 Y113.8836 Z-9.8763
X96.8653 Y113.7946 Z-9.9133
X96.8132 Y113.6909 Z-9.9502
X96.7864 Y113.5779 Z-9.9872
Y113.4618 Z-10.0241
X96.8132 Y113.3489 Z-10.0611
X96.8653 Y113.2451 Z-10.0980
X96.9399 Y113.1562 Z-10.1350
X97.0330 Y113.0869 Z-10.1719
X97.1396 Y113.0409 Z-10.2089
X97.2539 Y113.0207 Z-10.2458
X97.3698 Y113.0275 Z-10.2828
X97.4811 Y113.0608 Z-10.3197
X97.5816 Y113.1188 Z-10.3567
X97.6660 Y113.1985 Z-10.3936
X97.7298 Y113.2955 Z-10.4306
X97.7695 Y113.4046 Z-10.4676
X97.7830 Y113.5199 Z-10.5045
X97.7695 Y113.6352 Z-10.5415
X97.7298 Y113.7443 Z-10.5784
X97.6660 Y113.8413 Z-10.6154
X97.5816 Y113.9209 Z-10.6523
X97.4811 Y113.9790 Z-10.6893
X97.3698 Y114.0123 Z-10.7262
X97.2539 Y114.0190 Z-10.7632
X97.1396 Y113.9989 Z-10.8001
X97.0330 Y113.9529 Z-10.8371
X96.9399 Y113.8836 Z-10.8740
X96.8653 Y113.7946 Z-10.9110
X96.8132 Y113.6909 Z-10.9480
X96.7864 Y113.5779 Z-10.9849
Y113.4618 Z-11.0219
X96.8132 Y113.3489 Z-11.0588
X96.8653 Y113.2451 Z-11.0958
X96.9399 Y113.1562 Z-11.1327
X97.0330 Y113.0869 Z-11.1697
X97.1396 Y113.0409 Z-11.2066
X97.2539 Y113.0207 Z-11.2436
X97.3698 Y113.0275 Z-11.2805
X97.4811 Y113.0608 Z-11.3175
X97.5816 Y113.1188 Z-11.3544
X97.6660 Y113.1985 Z-11.3914
X97.7298 Y113.2955 Z-11.4283
X97.7695 Y113.4046 Z-11.4653
X97.7830 Y113.5199 Z-11.5023
X97.7695 Y113.6352 Z-11.5392
X97.7298 Y113.7443 Z-11.5762
X97.6660 Y113.8413 Z-11.6131
X97.5816 Y113.9209 Z-11.6501
X97.4811 Y113.9790 Z-11.6870
X97.3698 Y114.0123 Z-11.7240
X97.2539 Y114.0190 Z-11.7609
X97.1396 Y113.9989 Z-11.7979
X97.0330 Y113.9529 Z-11.8348
X96.9399 Y113.8836 Z-11.8718
X96.8653 Y113.7946 Z-11.9087
X96.8132 Y113.6909 Z-11.9457
X96.7864 Y113.5779 Z-11.9827
Y113.4618 Z-12.0196
X96.8132 Y113.3489 Z-12.0566
X96.8653 Y113.2451 Z-12.0935
X96.9399 Y113.1562 Z-12.1305
X97.0330 Y113.0869 Z-12.1674
X97.1396 Y113.0409 Z-12.2044
X97.2539 Y113.0207 Z-12.2413
X97.3698 Y113.0275 Z-12.2783
X97.4811 Y113.0608 Z-12.3152
X97.5816 Y113.1188 Z-12.3522
X97.6660 Y113.1985 Z-12.3891
X97.7298 Y113.2955 Z-12.4261
X97.7695 Y113.4046 Z-12.4630
X97.7830 Y113.5199 Z-12.5000
X97.7798 Y113.7806
X97.6364 Y114.0319
X97.3654 Y114.1981
X97.0191 Y114.2158
X96.6802 Y114.0539
X96.4418 Y113.7272
X96.3826 Y113.2979
X96.5431 Y112.8644
X96.9108 Y112.5386
X97.4169 Y112.4174
X97.9486 Y112.5556
X98.3745 Y112.9470
X98.5768 Y113.5199
X98.5554 Y113.9124
X98.4144 Y114.2913
X98.1604 Y114.6200
X97.8109 Y114.8649
X97.3938 Y114.9985
X96.9447 Y115.0023
X96.5038 Y114.8694
X96.1209 Y114.5981
G03X98.4451Y112.4416I1.1621J-1.0782
X96.1209Y114.5981I-1.1621J1.0783
G01 X97.7830 Y113.5199
X97.2830
G00 Z1.5875
X125.0578 Y125.4941
G01 Z0.6350  F1000.0
X124.9709 Y125.4992 Z0.6073
X124.8566 Y125.4790 Z0.5704
X124.7500 Y125.4330 Z0.5334
X124.6569 Y125.3637 Z0.4964
X124.5823 Y125.2748 Z0.4595
X124.5302 Y125.1710 Z0.4225
X124.5034 Y125.0580 Z0.3856
Y124.9420 Z0.3486
X124.5302 Y124.8290 Z0.3117
X124.5823 Y124.7252 Z0.2747
X124.6569 Y124.6363 Z0.2378
X124.7500 Y124.5670 Z0.2008
X124.8566 Y124.5210 Z0.1639
X124.9709 Y124.5008 Z0.1269
X125.0868 Y124.5076 Z0.0900
X125.1980 Y124.5409 Z0.0530
X125.2986 Y124.5989 Z0.0160
X125.3830 Y124.6786 Z-0.0209
X125.4468 Y124.7756 Z-0.0579
X125.4865 Y124.8847 Z-0.0948
X125.5000 Y125.0000 Z-0.1318
X125.4865 Y125.1153 Z-0.1687
X125.4468 Y125.2244 Z-0.2057
X125.3830 Y125.3214 Z-0.2426
X125.2986 Y125.4011 Z-0.2796
X125.1980 Y125.4591 Z-0.3165
X125.0868 Y125.4924 Z-0.3535
X124.9709 Y125.4992 Z-0.3904
X124.8566 Y125.4790 Z-0.4274
X124.7500 Y125.4330 Z-0.4643
X124.6569 Y125.3637 Z-0.5013
X124.5823 Y125.2748 Z-0.5383
X124.5302 Y125.1710 Z-0.5752
X124.5034 Y125.0580 Z-0.6122
Y124.9420 Z-0.6491
X124.5302 Y124.8290 Z-0.6861
X124.5823 Y124.7252 Z-0.7230
X124.6569 Y124.6363 Z-0.7600
X124.7500 Y124.5670 Z-0.7969
X124.8566 Y124.5210 Z-0.8339
X124.9709 Y124.5008 Z-0.8708
X125.0868 Y124.5076 Z-0.9078
X125.1980 Y124.5409 Z-0.9447
X125.2986 Y124.5989 Z-0.9817
X125.3830 Y124.6786 Z-1.0186
X125.4468 Y124.7756 Z-1.0556
X125.4865 Y124.8847 Z-1.0926
X125.5000 Y125.0000 Z-1.1295
X125.4865 Y125.1153 Z-1.1665
X125.4468 Y125.2244 Z-1.2034
X125.3830 Y125.3214 Z-1.2404
X125.2986 Y125.4011 Z-1.2773
X125.1980 Y125.4591 Z-1.3143
X125.0868 Y125.4924 Z-1.3512
X124.9709 Y125.4992 Z-1.3882
X124.8566 Y125.4790 Z-1.4251
X124.7500 Y125.4330 Z-1.4621
X124.6569 Y125.3637 Z-1.4990
X124.5823 Y125.2748 Z-1.5360
X124.5302 Y125.1710 Z-1.5730
X124.5034 Y125.0580 Z-1.6099
Y124.9420 Z-1.6469
X124.5302 Y124.8290 Z-1.6838
X124.5823 Y124.7252 Z-1.7208
X124.6569 Y124.6363 Z-1.7577
X124.7500 Y124.5670 Z-1.7947
X124.8566 Y124.5210 Z-1.8316
X124.9709 Y124.5008 Z-1.8686
X125.0868 Y124.5076 Z-1.9055
X125.1980 Y124.5409 Z-1.9425
X125.2986 Y124.5989 Z-1.9794
X125.3830 Y124.6786 Z-2.0164
X125.4468 Y124.7756 Z-2.0533
X125.4865 Y124.8847 Z-2.0903
X125.5000 Y125.0000 Z-2.1273
X125.4865 Y125.1153 Z-2.1642
X125.4468 Y125.2244 Z-2.2012
X125.3830 Y125.3214 Z-2.2381
X125.2986 Y125.4011 Z-2.2751
X125.1980 Y125.4591 Z-2.3120
X125.0868 Y125.4924 Z-2.3490
X124.9709 Y125.4992 Z-2.3859
X124.8566 Y125.4790 Z-2.4229
X124.7500 Y125.4330 Z-2.4598
X124.6569 Y125.3637 Z-2.4968
X124.5823 Y125.2748 Z-2.5337
X124.5302 Y125.1710 Z-2.5707
X124.5034 Y125.0580 Z-2.6077
Y124.9420 Z-2.6446
X124.5302 Y124.8290 Z-2.6816
X124.5823 Y124.7252 Z-2.7185
X124.6569 Y124.6363 Z-2.7555
X124.7500 Y124.5670 Z-2.7924
X124.8566 Y124.5210 Z-2.8294
X124.9709 Y124.5008 Z-2.8663
X125.0868 Y124.5076 Z-2.9033
X125.1980 Y124.5409 Z-2.9402
X125.2986 Y124.5989 Z-2.9772
X125.3830 Y124.6786 Z-3.0141
X125.4468 Y124.7756 Z-3.0511
X125.4865 Y124.8847 Z-3.0880
X125.5000 Y125.0000 Z-3.1250
X125.4968 Y125.2607
X125.3534 Y125.5120
X125.0823 Y125.6782
X124.7361 Y125.6959
X124.3972 Y125.5340
X124.1588 Y125.2073
X124.0995 Y124.7781
X124.2601 Y124.3445
X124.6278 Y124.0187
X125.1339 Y123.8975
X125.6656 Y124.0358
X126.0915 Y124.4271
X126.2937 Y125.0000
X126.2724 Y125.3925
X126.1314 Y125.7714
X125.8773 Y126.1001
X125.5279 Y126.3451
X125.1108 Y126.4786
X124.6616 Y126.4824
X124.2208 Y126.3496
X123.8300 Y126.0856
X123.5279 Y125.7089
X123.3469 Y125.2492
X123.3096 Y124.7452
X123.4257 Y124.2419
X123.6914 Y123.7858
X124.0885 Y123.4213
X124.5860 Y123.1859
X125.1419 Y123.1068
X125.7074 Y123.1975
X126.2308 Y123.4566
X126.6623 Y123.8667
X126.9586 Y124.3958
X127.0875 Y125.0000
X127.0598 Y125.4882
X126.9180 Y125.9633
X126.6667 Y126.3985
X126.3168 Y126.7688
X125.8850 Y127.0517
X125.3931 Y127.2295
X124.8667 Y127.2894
X124.3338 Y127.2251
X123.8240 Y127.0370
X123.3657 Y126.7322
X122.9857 Y126.3248
X122.7069 Y125.8346
X122.5470 Y125.2867
X122.5178 Y124.7099
X122.6240 Y124.1352
X122.8629 Y123.5944
X123.2245 Y123.1181
X123.6917 Y122.7339
X124.2411 Y122.4651
X124.8444 Y122.3291
X125.4697 Y122.3362
X126.0830 Y122.4894
X126.6503 Y122.7832
X127.1396 Y123.2047
X127.5222 Y123.7333
X127.7750 Y124.3423
X127.8812 Y125.0000
X127.8474 Y125.5851
X127.6948 Y126.1564
X127.4279 Y126.6898
X127.0556 Y127.1625
X126.5918 Y127.5538
X126.0540 Y127.8460
X125.4634 Y128.0252
X124.8437 Y128.0821
X124.2200 Y128.0124
X123.6184 Y127.8167
X123.0640 Y127.5011
X122.5807 Y127.0769
X122.1898 Y126.5598
X121.9089 Y125.9699
X121.7514 Y125.3303
X121.7260 Y124.6671
X121.8356 Y124.0072
X122.0778 Y123.3781
X122.4447 Y122.8063
X122.9229 Y122.3166
X123.4943 Y121.9304
X124.1366 Y121.6654
X124.8242 Y121.5343
X125.5294 Y121.5445
X126.2230 Y121.6978
X126.8762 Y121.9899
X127.4614 Y122.4106
X127.9533 Y122.9445
X128.3301 Y123.5709
X128.5747 Y124.2654
X128.6750 Y125.0000
X128.6383 Y125.6602
X128.4831 Y126.3072
X128.2132 Y126.9198
X127.8359 Y127.4776
X127.3620 Y127.9619
X126.8059 Y128.3560
X126.1847 Y128.6461
X125.5177 Y128.8215
X124.8260 Y128.8752
X124.1318 Y128.8040
X123.4576 Y128.6087
X122.8255 Y128.2942
X122.2566 Y127.8694
X121.7700 Y127.3467
X121.3824 Y126.7421
X121.1077 Y126.0742
X120.9558 Y125.3640
X120.9332 Y124.6340
X121.0421 Y123.9077
X121.2803 Y123.2087
X121.6416 Y122.5600
X122.1156 Y121.9831
X122.6881 Y121.4976
X123.3417 Y121.1202
X124.0561 Y120.8644
X124.8087 Y120.7397
X125.5755 Y120.7515
X126.3319 Y120.9009
X127.0531 Y121.1847
X127.7155 Y121.5948
X128.2970 Y122.1195
X128.7778 Y122.7429
X129.1413 Y123.4457
X129.3746 Y124.2061
X129.4687 Y125.0000
X129.4310 Y125.7201
X129.2774 Y126.4280
X129.0109 Y127.1051
X128.6376 Y127.7335
X128.1661 Y128.2963
X127.6079 Y128.7782
X126.9768 Y129.1660
X126.2886 Y129.4487
X125.5607 Y129.6180
X124.8119 Y129.6685
X124.0614 Y129.5978
X123.3288 Y129.4067
X122.6333 Y129.0992
X121.9936 Y128.6822
X121.4266 Y128.1658
X120.9478 Y127.5624
X120.5705 Y126.8872
X120.3054 Y126.1571
X120.1603 Y125.3907
X120.1400 Y124.6077
X120.2461 Y123.8283
X120.4769 Y123.0729
X120.8274 Y122.3614
X121.2895 Y121.7128
X121.8520 Y121.1444
X122.5010 Y120.6717
X123.2205 Y120.3078
X123.9921 Y120.0632
X124.7963 Y119.9451
X125.6122 Y119.9577
X126.4188 Y120.1017
X127.1949 Y120.3743
X127.9201 Y120.7695
X128.5750 Y121.2781
X129.1420 Y121.8875
X129.6056 Y122.5828
X129.9531 Y123.3464
X130.1743 Y124.1591
X130.2625 Y125.0000
X130.2224 Y125.7872
X130.0648 Y126.5623
X129.7924 Y127.3079
X129.4105 Y128.0071
X128.9270 Y128.6437
X128.3518 Y129.2030
X127.6974 Y129.6720
X126.9778 Y130.0395
X126.2089 Y130.2964
X125.4074 Y130.4362
X124.5912 Y130.4551
X123.7785 Y130.3517
X122.9876 Y130.1274
X122.2365 Y129.7866
X121.5421 Y129.3360
X120.9207 Y128.7851
X120.3865 Y128.1455
X119.9522 Y127.4309
X119.6282 Y126.6570
X119.4225 Y125.8407
X119.3406 Y125.0000
X119.3851 Y124.1537
X119.5559 Y123.3207
X119.8500 Y122.5199
X120.2615 Y121.7694
X120.7821 Y121.0864
X121.4007 Y120.4867
X122.1042 Y119.9843
X122.8772 Y119.5911
X123.7028 Y119.3167
X124.5630 Y119.1680
X125.4385 Y119.1491
X126.3098 Y119.2614
X127.1574 Y119.5031
X127.9550 Y119.8818
G03X122.0450Y130.1182I-2.9550J5.1182
X127.9550Y119.8818I2.9550J-5.1182
G01 X125.5000 Y125.0000
X125.3353 Y124.6335
X125.3830 Y124.6786 Z-3.1459
X125.4468 Y124.7756 Z-3.1829
X125.4865 Y124.8847 Z-3.2198
X125.5000 Y125.0000 Z-3.2568
X125.4865 Y125.1153 Z-3.2937
X125.4468 Y125.2244 Z-3.3307
X125.3830 Y125.3214 Z-3.3676
X125.2986 Y125.4011 Z-3.4046
X125.1980 Y125.4591 Z-3.4415
X125.0868 Y125.4924 Z-3.4785
X124.9709 Y125.4992 Z-3.5154
X124.8566 Y125.4790 Z-3.5524
X124.7500 Y125.4330 Z-3.5893
X124.6569 Y125.3637 Z-3.6263
X124.5823 Y125.2748 Z-3.6633
X124.5302 Y125.1710 Z-3.7002
X124.5034 Y125.0580 Z-3.7372
Y124.9420 Z-3.7741
X124.5302 Y124.8290 Z-3.8111
X124.5823 Y124.7252 Z-3.8480
X124.6569 Y124.6363 Z-3.8850
X124.7500 Y124.5670 Z-3.9219
X124.8566 Y124.5210 Z-3.9589
X124.9709 Y124.5008 Z-3.9958
X125.0868 Y124.5076 Z-4.0328
X125.1980 Y124.5409 Z-4.0697
X125.2986 Y124.5989 Z-4.1067
X125.3830 Y124.6786 Z-4.1436
X125.4468 Y124.7756 Z-4.1806
X125.4865 Y124.8847 Z-4.2176
X125.5000 Y125.0000 Z-4.2545
X125.4865 Y125.1153 Z-4.2915
X125.4468 Y125.2244 Z-4.3284
X125.3830 Y125.3214 Z-4.3654
X125.2986 Y125.4011 Z-4.4023
X125.1980 Y125.4591 Z-4.4393
X125.0868 Y125.4924 Z-4.4762
X124.9709 Y125.4992 Z-4.5132
X124.8566 Y125.4790 Z-4.5501
X124.7500 Y125.4330 Z-4.5871
X124.6569 Y125.3637 Z-4.6240
X124.5823 Y125.2748 Z-4.6610
X124.5302 Y125.1710 Z-4.6980
X124.5034 Y125.0580 Z-4.7349
Y124.9420 Z-4.7719
X124.5302 Y124.8290 Z-4.8088
X124.5823 Y124.7252 Z-4.8458
X124.6569 Y124.6363 Z-4.8827
X124.7500 Y124.5670 Z-4.9197
X124.8566 Y124.5210 Z-4.9566
X124.9709 Y124.5008 Z-4.9936
X125.0868 Y124.5076 Z-5.0305
X125.1980 Y124.5409 Z-5.0675
X125.2986 Y124.5989 Z-5.1044
X125.3830 Y124.6786 Z-5.1414
X125.4468 Y124.7756 Z-5.1783
X125.4865 Y124.8847 Z-5.2153
X125.5000 Y125.0000 Z-5.2523
X125.4865 Y125.1153 Z-5.2892
X125.4468 Y125.2244 Z-5.3262
X125.3830 Y125.3214 Z-5.3631
X125.2986 Y125.4011 Z-5.4001
X125.1980 Y125.4591 Z-5.4370
X125.0868 Y125.4924 Z-5.4740
X124.9709 Y125.4992 Z-5.5109
X124.8566 Y125.4790 Z-5.5479
X124.7500 Y125.4330 Z-5.5848
X124.6569 Y125.3637 Z-5.6218
X124.5823 Y125.2748 Z-5.6587
X124.5302 Y125.1710 Z-5.6957
X124.5034 Y125.0580 Z-5.7327
Y124.9420 Z-5.7696
X124.5302 Y124.8290 Z-5.8066
X124.5823 Y124.7252 Z-5.8435
X124.6569 Y124.6363 Z-5.8805
X124.7500 Y124.5670 Z-5.9174
X124.8566 Y124.5210 Z-5.9544
X124.9709 Y124.5008 Z-5.9913
X125.0868 Y124.5076 Z-6.0283
X125.1980 Y124.5409 Z-6.0652
X125.2986 Y124.5989 Z-6.1022
X125.3830 Y124.6786 Z-6.1391
X125.4468 Y124.7756 Z-6.1761
X125.4865 Y124.8847 Z-6.2130
X125.5000 Y125.0000 Z-6.2500
X125.4968 Y125.2607
X125.3534 Y125.5120
X125.0823 Y125.6782
X124.7361 Y125.6959
X124.3972 Y125.5340
X124.1588 Y125.2073
X124.0995 Y124.7781
X124.2601 Y124.3445
X124.6278 Y124.0187
X125.1339 Y123.8975
X125.6656 Y124.0358
X126.0915 Y124.4271
X126.2937 Y125.0000
X126.2724 Y125.3925
X126.1314 Y125.7714
X125.8773 Y126.1001
X125.5279 Y126.3451
X125.1108 Y126.4786
X124.6616 Y126.4824
X124.2208 Y126.3496
X123.8300 Y126.0856
X123.5279 Y125.7089
X123.3469 Y125.2492
X123.3096 Y124.7452
X123.4257 Y124.2419
X123.6914 Y123.7858
X124.0885 Y123.4213
X124.5860 Y123.1859
X125.1419 Y123.1068
X125.7074 Y123.1975
X126.2308 Y123.4566
X126.6623 Y123.8667
X126.9586 Y124.3958
X127.0875 Y125.0000
X127.0598 Y125.4882
X126.9180 Y125.9633
X126.6667 Y126.3985
X126.3168 Y126.7688
X125.8850 Y127.0517
X125.3931 Y127.2295
X124.8667 Y127.2894
X124.3338 Y127.2251
X123.8240 Y127.0370
X123.3657 Y126.7322
X122.9857 Y126.3248
X122.7069 Y125.8346
X122.5470 Y125.2867
X122.5178 Y124.7099
X122.6240 Y124.1352
X122.8629 Y123.5944
X123.2245 Y123.1181
X123.6917 Y122.7339
X124.2411 Y122.4651
X124.8444 Y122.3291
X125.4697 Y122.3362
X126.0830 Y122.4894
X126.6503 Y122.7832
X127.1396 Y123.2047
X127.5222 Y123.7333
X127.7750 Y124.3423
X127.8812 Y125.0000
X127.8474 Y125.5851
X127.6948 Y126.1564
X127.4279 Y126.6898
X127.0556 Y127.1625
X126.5918 Y127.5538
X126.0540 Y127.8460
X125.4634 Y128.0252
X124.8437 Y128.0821
X124.2200 Y128.0124
X123.6184 Y127.8167
X123.0640 Y127.5011
X122.5807 Y127.0769
X122.1898 Y126.5598
X121.9089 Y125.9699
X121.7514 Y125.3303
X121.7260 Y124.6671
X121.8356 Y124.0072
X122.0778 Y123.3781
X122.4447 Y122.8063
X122.9229 Y122.3166
X123.4943 Y121.9304
X124.1366 Y121.6654
X124.8242 Y121.5343
X125.5294 Y121.5445
X126.2230 Y121.6978
X126.8762 Y121.9899
X127.4614 Y122.4106
X127.9533 Y122.9445
X128.3301 Y123.5709
X128.5747 Y124.2654
X128.6750 Y125.0000
X128.6383 Y125.6602
X128.4831 Y126.3072
X128.2132 Y126.9198
X127.8359 Y127.4776
X127.3620 Y127.9619
X126.8059 Y128.3560
X126.1847 Y128.6461
X125.5177 Y128.8215
X124.8260 Y128.8752
X124.1318 Y128.8040
X123.4576 Y128.6087
X122.8255 Y128.2942
X122.2566 Y127.8694
X121.7700 Y127.3467
X121.3824 Y126.7421
X121.1077 Y126.0742
X120.9558 Y125.3640
X120.9332 Y124.6340
X121.0421 Y123.9077
X121.2803 Y123.2087
X121.6416 Y122.5600
X122.1156 Y121.9831
X122.6881 Y121.4976
X123.3417 Y121.1202
X124.0561 Y120.8644
X124.8087 Y120.7397
X125.5755 Y120.7515
X126.3319 Y120.9009
X127.0531 Y121.1847
X127.7155 Y121.5948
X128.2970 Y122.1195
X128.7778 Y122.7429
X129.1413 Y123.4457
X129.3746 Y124.2061
X129.4687 Y125.0000
X129.4310 Y125.7201
X129.2774 Y126.4280
X129.0109 Y127.1051
X128.6376 Y127.7335
X128.1661 Y128.2963
X127.6079 Y128.7782
X126.9768 Y129.1660
X126.2886 Y129.4487
X125.5607 Y129.6180
X124.8119 Y129.6685
X124.0614 Y129.5978
X123.3288 Y129.4067
X122.6333 Y129.0992
X121.9936 Y128.6822
X121.4266 Y128.1658
X120.9478 Y127.5624
X120.5705 Y126.8872
X120.3054 Y126.1571
X120.1603 Y125.3907
X120.1400 Y124.6077
X120.2461 Y123.8283
X120.4769 Y123.0729
X120.8274 Y122.3614
X121.2895 Y121.7128
X121.8520 Y121.1444
X122.5010 Y120.6717
X123.2205 Y120.3078
X123.9921 Y120.0632
X124.7963 Y119.9451
X125.6122 Y119.9577
X126.4188 Y120.1017
X127.1949 Y120.3743
X127.9201 Y120.7695
X128.5750 Y121.2781
X129.1420 Y121.8875
X129.6056 Y122.5828
X129.9531 Y123.3464
X130.1743 Y124.1591
X130.2625 Y125.0000
X130.2224 Y125.7872
X130.0648 Y126.5623
X129.7924 Y127.3079
X129.4105 Y128.0071
X128.9270 Y128.6437
X128.3518 Y129.2030
X127.6974 Y129.6720
X126.9778 Y130.0395
X126.2089 Y130.2964
X125.4074 Y130.4362
X124.5912 Y130.4551
X123.7785 Y130.3517
X122.9876 Y130.1274
X122.2365 Y129.7866
X121.5421 Y129.3360
X120.9207 Y128.7851
X120.3865 Y128.1455
X119.9522 Y127.4309
X119.6282 Y126.6570
X119.4225 Y125.8407
X119.3406 Y125.0000
X119.3851 Y124.1537
X119.5559 Y123.3207
X119.8500 Y122.5199
X120.2615 Y121.7694
X120.7821 Y121.0864
X121.4007 Y120.4867
X122.1042 Y119.9843
X122.8772 Y119.5911
X123.7028 Y119.3167
X124.5630 Y119.1680
X125.4385 Y119.1491
X126.3098 Y119.2614
X127.1574 Y119.5031
X127.9550 Y119.8818
G03X122.0450Y130.1182I-2.9550J5.1182
X127.9550Y119.8818I2.9550J-5.1182
G01 X125.5000 Y125.0000
X125.3353 Y124.6335
X125.3830 Y124.6786 Z-6.2709
X125.4468 Y124.7756 Z-6.3079
X125.4865 Y124.8847 Z-6.3448
X125.5000 Y125.0000 Z-6.3818
X125.4865 Y125.1153 Z-6.4187
X125.4468 Y125.2244 Z-6.4557
X125.3830 Y125.3214 Z-6.4926
X125.2986 Y125.4011 Z-6.5296
X125.1980 Y125.4591 Z-6.5665
X125.0868 Y125.4924 Z-6.6035
X124.9709 Y125.4992 Z-6.6404
X124.8566 Y125.4790 Z-6.6774
X124.7500 Y125.4330 Z-6.7143
X124.6569 Y125.3637 Z-6.7513
X124.5823 Y125.2748 Z-6.7883
X124.5302 Y125.1710 Z-6.8252
X124.5034 Y125.0580 Z-6.8622
Y124.9420 Z-6.8991
X124.5302 Y124.8290 Z-6.9361
X124.5823 Y124.7252 Z-6.9730
X124.6569 Y124.6363 Z-7.0100
X124.7500 Y124.5670 Z-7.0469
X124.8566 Y124.5210 Z-7.0839
X124.9709 Y124.5008 Z-7.1208
X125.0868 Y124.5076 Z-7.1578
X125.1980 Y124.5409 Z-7.1947
X125.2986 Y124.5989 Z-7.2317
X125.3830 Y124.6786 Z-7.2686
X125.4468 Y124.7756 Z-7.3056
X125.4865 Y124.8847 Z-7.3426
X125.5000 Y125.0000 Z-7.3795
X125.4865 Y125.1153 Z-7.4165
X125.4468 Y125.2244 Z-7.4534
X125.3830 Y125.3214 Z-7.4904
X125.2986 Y125.4011 Z-7.5273
X125.1980 Y125.4591 Z-7.5643
X125.0868 Y125.4924 Z-7.6012
X124.9709 Y125.4992 Z-7.6382
X124.8566 Y125.4790 Z-7.6751
X124.7500 Y125.4330 Z-7.7121
X124.6569 Y125.3637 Z-7.7490
X124.5823 Y125.2748 Z-7.7860
X124.5302 Y125.1710 Z-7.8230
X124.5034 Y125.0580 Z-7.8599
Y124.9420 Z-7.8969
X124.5302 Y124.8290 Z-7.9338
X124.5823 Y124.7252 Z-7.9708
X124.6569 Y124.6363 Z-8.0077
X124.7500 Y124.5670 Z-8.0447
X124.8566 Y124.5210 Z-8.0816
X124.9709 Y124.5008 Z-8.1186
X125.0868 Y124.5076 Z-8.1555
X125.1980 Y124.5409 Z-8.1925
X125.2986 Y124.5989 Z-8.2294
X125.3830 Y124.6786 Z-8.2664
X125.4468 Y124.7756 Z-8.3033
X125.4865 Y124.8847 Z-8.3403
X125.5000 Y125.0000 Z-8.3773
X125.4865 Y125.1153 Z-8.4142
X125.4468 Y125.2244 Z-8.4512
X125.3830 Y125.3214 Z-8.4881
X125.2986 Y125.4011 Z-8.5251
X125.1980 Y125.4591 Z-8.5620
X125.0868 Y125.4924 Z-8.5990
X124.9709 Y125.4992 Z-8.6359
X124.8566 Y125.4790 Z-8.6729
X124.7500 Y125.4330 Z-8.7098
X124.6569 Y125.3637 Z-8.7468
X124.5823 Y125.2748 Z-8.7837
X124.5302 Y125.1710 Z-8.8207
X124.5034 Y125.0580 Z-8.8577
Y124.9420 Z-8.8946
X124.5302 Y124.8290 Z-8.9316
X124.5823 Y124.7252 Z-8.9685
X124.6569 Y124.6363 Z-9.0055
X124.7500 Y124.5670 Z-9.0424
X124.8566 Y124.5210 Z-9.0794
X124.9709 Y124.5008 Z-9.1163
X125.0868 Y124.5076 Z-9.1533
X125.1980 Y124.5409 Z-9.1902
X125.2986 Y124.5989 Z-9.2272
X125.3830 Y124.6786 Z-9.2641
X125.4468 Y124.7756 Z-9.3011
X125.4865 Y124.8847 Z-9.3380
X125.5000 Y125.0000 Z-9.3750
X125.4968 Y125.2607
X125.3534 Y125.5120
X125.0823 Y125.6782
X124.7361 Y125.6959
X124.3972 Y125.5340
X124.1588 Y125.2073
X124.0995 Y124.7781
X124.2601 Y124.3445
X124.6278 Y124.0187
X125.1339 Y123.8975
X125.6656 Y124.0358
X126.0915 Y124.4271
X126.2937 Y125.0000
X126.2724 Y125.3925
X126.1314 Y125.7714
X125.8773 Y126.1001
X125.5279 Y126.3451
X125.1108 Y126.4786
X124.6616 Y126.4824
X124.2208 Y126.3496
X123.8300 Y126.0856
X123.5279 Y125.7089
X123.3469 Y125.2492
X123.3096 Y124.7452
X123.4257 Y124.2419
X123.6914 Y123.7858
X124.0885 Y123.4213
X124.5860 Y123.1859
X125.1419 Y123.1068
X125.7074 Y123.1975
X126.2308 Y123.4566
X126.6623 Y123.8667
X126.9586 Y124.3958
X127.0875 Y125.0000
X127.0598 Y125.4882
X126.9180 Y125.9633
X126.6667 Y126.3985
X126.3168 Y126.7688
X125.8850 Y127.0517
X125.3931 Y127.2295
X124.8667 Y127.2894
X124.3338 Y127.2251
X123.8240 Y127.0370
X123.3657 Y126.7322
X122.9857 Y126.3248
X122.7069 Y125.8346
X122.5470 Y125.2867
X122.5178 Y124.7099
X122.6240 Y124.1352
X122.8629 Y123.5944
X123.2245 Y123.1181
X123.6917 Y122.7339
X124.2411 Y122.4651
X124.8444 Y122.3291
X125.4697 Y122.3362
X126.0830 Y122.4894
X126.6503 Y122.7832
X127.1396 Y123.2047
X127.5222 Y123.7333
X127.7750 Y124.3423
X127.8812 Y125.0000
X127.8474 Y125.5851
X127.6948 Y126.1564
X127.4279 Y126.6898
X127.0556 Y127.1625
X126.5918 Y127.5538
X126.0540 Y127.8460
X125.4634 Y128.0252
X124.8437 Y128.0821
X124.2200 Y128.0124
X123.6184 Y127.8167
X123.0640 Y127.5011
X122.5807 Y127.0769
X122.1898 Y126.5598
X121.9089 Y125.9699
X121.7514 Y125.3303
X121.7260 Y124.6671
X121.8356 Y124.0072
X122.0778 Y123.3781
X122.4447 Y122.8063
X122.9229 Y122.3166
X123.4943 Y121.9304
X124.1366 Y121.6654
X124.8242 Y121.5343
X125.5294 Y121.5445
X126.2230 Y121.6978
X126.8762 Y121.9899
X127.4614 Y122.4106
X127.9533 Y122.9445
X128.3301 Y123.5709
X128.5747 Y124.2654
X128.6750 Y125.0000
X128.6383 Y125.6602
X128.4831 Y126.3072
X128.2132 Y126.9198
X127.8359 Y127.4776
X127.3620 Y127.9619
X126.8059 Y128.3560
X126.1847 Y128.6461
X125.5177 Y128.8215
X124.8260 Y128.8752
X124.1318 Y128.8040
X123.4576 Y128.6087
X122.8255 Y128.2942
X122.2566 Y127.8694
X121.7700 Y127.3467
X121.3824 Y126.7421
X121.1077 Y126.0742
X120.9558 Y125.3640
X120.9332 Y124.6340
X121.0421 Y123.9077
X121.2803 Y123.2087
X121.6416 Y122.5600
X122.1156 Y121.9831
X122.6881 Y121.4976
X123.3417 Y121.1202
X124.0561 Y120.8644
X124.8087 Y120.7397
X125.5755 Y120.7515
X126.3319 Y120.9009
X127.0531 Y121.1847
X127.7155 Y121.5948
X128.2970 Y122.1195
X128.7778 Y122.7429
X129.1413 Y123.4457
X129.3746 Y124.2061
X129.4687 Y125.0000
X129.4310 Y125.7201
X129.2774 Y126.4280
X129.0109 Y127.1051
X128.6376 Y127.7335
X128.1661 Y128.2963
X127.6079 Y128.7782
X126.9768 Y129.1660
X126.2886 Y129.4487
X125.5607 Y129.6180
X124.8119 Y129.6685
X124.0614 Y129.5978
X123.3288 Y129.4067
X122.6333 Y129.0992
X121.9936 Y128.6822
X121.4266 Y128.1658
X120.9478 Y127.5624
X120.5705 Y126.8872
X120.3054 Y126.1571
X120.1603 Y125.3907
X120.1400 Y124.6077
X120.2461 Y123.8283
X120.4769 Y123.0729
X120.8274 Y122.3614
X121.2895 Y121.7128
X121.8520 Y121.1444
X122.5010 Y120.6717
X123.2205 Y120.3078
X123.9921 Y120.0632
X124.7963 Y119.9451
X125.6122 Y119.9577
X126.4188 Y120.1017
X127.1949 Y120.3743
X127.9201 Y120.7695
X128.5750 Y121.2781
X129.1420 Y121.8875
X129.6056 Y122.5828
X129.9531 Y123.3464
X130.1743 Y124.1591
X130.2625 Y125.0000
X130.2224 Y125.7872
X130.0648 Y126.5623
X129.7924 Y127.3079
X129.4105 Y128.0071
X128.9270 Y128.6437
X128.3518 Y129.2030
X127.6974 Y129.6720
X126.9778 Y130.0395
X126.2089 Y130.2964
X125.4074 Y130.4362
X124.5912 Y130.4551
X123.7785 Y130.3517
X122.9876 Y130.1274
X122.2365 Y129.7866
X121.5421 Y129.3360
X120.9207 Y128.7851
X120.3865 Y128.1455
X119.9522 Y127.4309
X119.6282 Y126.6570
X119.4225 Y125.8407
X119.3406 Y125.0000
X119.3851 Y124.1537
X119.5559 Y123.3207
X119.8500 Y122.5199
X120.2615 Y121.7694
X120.7821 Y121.0864
X121.4007 Y120.4867
X122.1042 Y119.9843
X122.8772 Y119.5911
X123.7028 Y119.3167
X124.5630 Y119.1680
X125.4385 Y119.1491
X126.3098 Y119.2614
X127.1574 Y119.5031
X127.9550 Y119.8818
G03X122.0450Y130.1182I-2.9550J5.1182
X127.9550Y119.8818I2.9550J-5.1182
G01 X125.5000 Y125.0000
X125.3353 Y124.6335
X125.3830 Y124.6786 Z-9.3959
X125.4468 Y124.7756 Z-9.4329
X125.4865 Y124.8847 Z-9.4698
X125.5000 Y125.0000 Z-9.5068
X125.4865 Y125.1153 Z-9.5437
X125.4468 Y125.2244 Z-9.5807
X125.3830 Y125.3214 Z-9.6176
X125.2986 Y125.4011 Z-9.6546
X125.1980 Y125.4591 Z-9.6915
X125.0868 Y125.4924 Z-9.7285
X124.9709 Y125.4992 Z-9.7654
X124.8566 Y125.4790 Z-9.8024
X124.7500 Y125.4330 Z-9.8393
X124.6569 Y125.3637 Z-9.8763
X124.5823 Y125.2748 Z-9.9133
X124.5302 Y125.1710 Z-9.9502
X124.5034 Y125.0580 Z-9.9872
Y124.9420 Z-10.0241
X124.5302 Y124.8290 Z-10.0611
X124.5823 Y124.7252 Z-10.0980
X124.6569 Y124.6363 Z-10.1350
X124.7500 Y124.5670 Z-10.1719
X124.8566 Y124.5210 Z-10.2089
X124.9709 Y124.5008 Z-10.2458
X125.0868 Y124.5076 Z-10.2828
X125.1980 Y124.5409 Z-10.3197
X125.2986 Y124.5989 Z-10.3567
X125.3830 Y124.6786 Z-10.3936
X125.4468 Y124.7756 Z-10.4306
X125.4865 Y124.8847 Z-10.4676
X125.5000 Y125.0000 Z-10.5045
X125.4865 Y125.1153 Z-10.5415
X125.4468 Y125.2244 Z-10.5784
X125.3830 Y125.3214 Z-10.6154
X125.2986 Y125.4011 Z-10.6523
X125.1980 Y125.4591 Z-10.6893
X125.0868 Y125.4924 Z-10.7262
X124.9709 Y125.4992 Z-10.7632
X124.8566 Y125.4790 Z-10.8001
X124.7500 Y125.4330 Z-10.8371
X124.6569 Y125.3637 Z-10.8740
X124.5823 Y125.2748 Z-10.9110
X124.5302 Y125.1710 Z-10.9480
X124.5034 Y125.0580 Z-10.9849
Y124.9420 Z-11.0219
X124.5302 Y124.8290 Z-11.0588
X124.5823 Y124.7252 Z-11.0958
X124.6569 Y124.6363 Z-11.1327
X124.7500 Y124.5670 Z-11.1697
X124.8566 Y124.5210 Z-11.2066
X124.9709 Y124.5008 Z-11.2436
X125.0868 Y124.5076 Z-11.2805
X125.1980 Y124.5409 Z-11.3175
X125.2986 Y124.5989 Z-11.3544
X125.3830 Y124.6786 Z-11.3914
X125.4468 Y124.7756 Z-11.4283
X125.4865 Y124.8847 Z-11.4653
X125.5000 Y125.0000 Z-11.5023
X125.4865 Y125.1153 Z-11.5392
X125.4468 Y125.2244 Z-11.5762
X125.3830 Y125.3214 Z-11.6131
X125.2986 Y125.4011 Z-11.6501
X125.1980 Y125.4591 Z-11.6870
X125.0868 Y125.4924 Z-11.7240
X124.9709 Y125.4992 Z-11.7609
X124.8566 Y125.4790 Z-11.7979
X124.7500 Y125.4330 Z-11.8348
X124.6569 Y125.3637 Z-11.8718
X124.5823 Y125.2748 Z-11.9087
X124.5302 Y125.1710 Z-11.9457
X124.5034 Y125.0580 Z-11.9827
Y124.9420 Z-12.0196
X124.5302 Y124.8290 Z-12.0566
X124.5823 Y124.7252 Z-12.0935
X124.6569 Y124.6363 Z-12.1305
X124.7500 Y124.5670 Z-12.1674
X124.8566 Y124.5210 Z-12.2044
X124.9709 Y124.5008 Z-12.2413
X125.0868 Y124.5076 Z-12.2783
X125.1980 Y124.5409 Z-12.3152
X125.2986 Y124.5989 Z-12.3522
X125.3830 Y124.6786 Z-12.3891
X125.4468 Y124.7756 Z-12.4261
X125.4865 Y124.8847 Z-12.4630
X125.5000 Y125.0000 Z-12.5000
X125.4968 Y125.2607
X125.3534 Y125.5120
X125.0823 Y125.6782
X124.7361 Y125.6959
X124.3972 Y125.5340
X124.1588 Y125.2073
X124.0995 Y124.7781
X124.2601 Y124.3445
X124.6278 Y124.0187
X125.1339 Y123.8975
X125.6656 Y124.0358
X126.0915 Y124.4271
X126.2937 Y125.0000
X126.2724 Y125.3925
X126.1314 Y125.7714
X125.8773 Y126.1001
X125.5279 Y126.3451
X125.1108 Y126.4786
X124.6616 Y126.4824
X124.2208 Y126.3496
X123.8300 Y126.0856
X123.5279 Y125.7089
X123.3469 Y125.2492
X123.3096 Y124.7452
X123.4257 Y124.2419
X123.6914 Y123.7858
X124.0885 Y123.4213
X124.5860 Y123.1859
X125.1419 Y123.1068
X125.7074 Y123.1975
X126.2308 Y123.4566
X126.6623 Y123.8667
X126.9586 Y124.3958
X127.0875 Y125.0000
X127.0598 Y125.4882
X126.9180 Y125.9633
X126.6667 Y126.3985
X126.3168 Y126.7688
X125.8850 Y127.0517
X125.3931 Y127.2295
X124.8667 Y127.2894
X124.3338 Y127.2251
X123.8240 Y127.0370
X123.3657 Y126.7322
X122.9857 Y126.3248
X122.7069 Y125.8346
X122.5470 Y125.2867
X122.5178 Y124.7099
X122.6240 Y124.1352
X122.8629 Y123.5944
X123.2245 Y123.1181
X123.6917 Y122.7339
X124.2411 Y122.4651
X124.8444 Y122.3291
X125.4697 Y122.3362
X126.0830 Y122.4894
X126.6503 Y122.7832
X127.1396 Y123.2047
X127.5222 Y123.7333
X127.7750 Y124.3423
X127.8812 Y125.0000
X127.8474 Y125.5851
X127.6948 Y126.1564
X127.4279 Y126.6898
X127.0556 Y127.1625
X126.5918 Y127.5538
X126.0540 Y127.8460
X125.4634 Y128.0252
X124.8437 Y128.0821
X124.2200 Y128.0124
X123.6184 Y127.8167
X123.0640 Y127.5011
X122.5807 Y127.0769
X122.1898 Y126.5598
X121.9089 Y125.9699
X121.7514 Y125.3303
X121.7260 Y124.6671
X121.8356 Y124.0072
X122.0778 Y123.3781
X122.4447 Y122.8063
X122.9229 Y122.3166
X123.4943 Y121.9304
X124.1366 Y121.6654
X124.8242 Y121.5343
X125.5294 Y121.5445
X126.2230 Y121.6978
X126.8762 Y121.9899
X127.4614 Y122.4106
X127.9533 Y122.9445
X128.3301 Y123.5709
X128.5747 Y124.2654
X128.6750 Y125.0000
X128.6383 Y125.6602
X128.4831 Y126.3072
X128.2132 Y126.9198
X127.8359 Y127.4776
X127.3620 Y127.9619
X126.8059 Y128.3560
X126.1847 Y128.6461
X125.5177 Y128.8215
X124.8260 Y128.8752
X124.1318 Y128.8040
X123.4576 Y128.6087
X122.8255 Y128.2942
X122.2566 Y127.8694
X121.7700 Y127.3467
X121.3824 Y126.7421
X121.1077 Y126.0742
X120.9558 Y125.3640
X120.9332 Y124.6340
X121.0421 Y123.9077
X121.2803 Y123.2087
X121.6416 Y122.5600
X122.1156 Y121.9831
X122.6881 Y121.4976
X123.3417 Y121.1202
X124.0561 Y120.8644
X124.8087 Y120.7397
X125.5755 Y120.7515
X126.3319 Y120.9009
X127.0531 Y121.1847
X127.7155 Y121.5948
X128.2970 Y122.1195
X128.7778 Y122.7429
X129.1413 Y123.4457
X129.3746 Y124.2061
X129.4687 Y125.0000
X129.4310 Y125.7201
X129.2774 Y126.4280
X129.0109 Y127.1051
X128.6376 Y127.7335
X128.1661 Y128.2963
X127.6079 Y128.7782
X126.9768 Y129.1660
X126.2886 Y129.4487
X125.5607 Y129.6180
X124.8119 Y129.6685
X124.0614 Y129.5978
X123.3288 Y129.4067
X122.6333 Y129.0992
X121.9936 Y128.6822
X121.4266 Y128.1658
X120.9478 Y127.5624
X120.5705 Y126.8872
X120.3054 Y126.1571
X120.1603 Y125.3907
X120.1400 Y124.6077
X120.2461 Y123.8283
X120.4769 Y123.0729
X120.8274 Y122.3614
X121.2895 Y121.7128
X121.8520 Y121.1444
X122.5010 Y120.6717
X123.2205 Y120.3078
X123.9921 Y120.0632
X124.7963 Y119.9451
X125.6122 Y119.9577
X126.4188 Y120.1017
X127.1949 Y120.3743
X127.9201 Y120.7695
X128.5750 Y121.2781
X129.1420 Y121.8875
X129.6056 Y122.5828
X129.9531 Y123.3464
X130.1743 Y124.1591
X130.2625 Y125.0000
X130.2224 Y125.7872
X130.0648 Y126.5623
X129.7924 Y127.3079
X129.4105 Y128.0071
X128.9270 Y128.6437
X128.3518 Y129.2030
X127.6974 Y129.6720
X126.9778 Y130.0395
X126.2089 Y130.2964
X125.4074 Y130.4362
X124.5912 Y130.4551
X123.7785 Y130.3517
X122.9876 Y130.1274
X122.2365 Y129.7866
X121.5421 Y129.3360
X120.9207 Y128.7851
X120.3865 Y128.1455
X119.9522 Y127.4309
X119.6282 Y126.6570
X119.4225 Y125.8407
X119.3406 Y125.0000
X119.3851 Y124.1537
X119.5559 Y123.3207
X119.8500 Y122.5199
X120.2615 Y121.7694
X120.7821 Y121.0864
X121.4007 Y120.4867
X122.1042 Y119.9843
X122.8772 Y119.5911
X123.7028 Y119.3167
X124.5630 Y119.1680
X125.4385 Y119.1491
X126.3098 Y119.2614
X127.1574 Y119.5031
X127.9550 Y119.8818
G03X122.0450Y130.1182I-2.9550J5.1182
X127.9550Y119.8818I2.9550J-5.1182
G01 X125.5000 Y125.0000
X125.0000
G00 Z1.5875
X152.7742 Y136.9746
G01 Z0.6350  F1000.0
X152.6873 Y136.9797 Z0.6073
X152.5730 Y136.9595 Z0.5704
X152.4664 Y136.9135 Z0.5334
X152.3733 Y136.8442 Z0.4964
X152.2986 Y136.7553 Z0.4595
X152.2465 Y136.6515 Z0.4225
X152.2198 Y136.5385 Z0.3856
Y136.4225 Z0.3486
X152.2465 Y136.3095 Z0.3117
X152.2986 Y136.2057 Z0.2747
X152.3733 Y136.1168 Z0.2378
X152.4664 Y136.0475 Z0.2008
X152.5730 Y136.0015 Z0.1639
X152.6873 Y135.9813 Z0.1269
X152.8032 Y135.9881 Z0.0900
X152.9144 Y136.0214 Z0.0530
X153.0150 Y136.0794 Z0.0160
X153.0994 Y136.1591 Z-0.0209
X153.1632 Y136.2561 Z-0.0579
X153.2029 Y136.3652 Z-0.0948
X153.2164 Y136.4805 Z-0.1318
X153.2029 Y136.5958 Z-0.1687
X153.1632 Y136.7049 Z-0.2057
X153.0994 Y136.8019 Z-0.2426
X153.0150 Y136.8816 Z-0.2796
X152.9144 Y136.9396 Z-0.3165
X152.8032 Y136.9729 Z-0.3535
X152.6873 Y136.9797 Z-0.3904
X152.5730 Y136.9595 Z-0.4274
X152.4664 Y136.9135 Z-0.4643
X152.3733 Y136.8442 Z-0.5013
X152.2986 Y136.7553 Z-0.5383
X152.2465 Y136.6515 Z-0.5752
X152.2198 Y136.5385 Z-0.6122
Y136.4225 Z-0.6491
X152.2465 Y136.3095 Z-0.6861
X152.2986 Y136.2057 Z-0.7230
X152.3733 Y136.1168 Z-0.7600
X152.4664 Y136.0475 Z-0.7969
X152.5730 Y136.0015 Z-0.8339
X152.6873 Y135.9813 Z-0.8708
X152.8032 Y135.9881 Z-0.9078
X152.9144 Y136.0214 Z-0.9447
X153.0150 Y136.0794 Z-0.9817
X153.0994 Y136.1591 Z-1.0186
X153.1632 Y136.2561 Z-1.0556
X153.2029 Y136.3652 Z-1.0926
X153.2164 Y136.4805 Z-1.1295
X153.2029 Y136.5958 Z-1.1665
X153.1632 Y136.7049 Z-1.2034
X153.0994 Y136.8019 Z-1.2404
X153.0150 Y136.8816 Z-1.2773
X152.9144 Y136.9396 Z-1.3143
X152.8032 Y136.9729 Z-1.3512
X152.6873 Y136.9797 Z-1.3882
X152.5730 Y136.9595 Z-1.4251
X152.4664 Y136.9135 Z-1.4621
X152.3733 Y136.8442 Z-1.4990
X152.2986 Y136.7553 Z-1.5360
X152.2465 Y136.6515 Z-1.5730
X152.2198 Y136.5385 Z-1.6099
Y136.4225 Z-1.6469
X152.2465 Y136.3095 Z-1.6838
X152.2986 Y136.2057 Z-1.7208
X152.3733 Y136.1168 Z-1.7577
X152.4664 Y136.0475 Z-1.7947
X152.5730 Y136.0015 Z-1.8316
X152.6873 Y135.9813 Z-1.8686
X152.8032 Y135.9881 Z-1.9055
X152.9144 Y136.0214 Z-1.9425
X153.0150 Y136.0794 Z-1.9794
X153.0994 Y136.1591 Z-2.0164
X153.1632 Y136.2561 Z-2.0533
X153.2029 Y136.3652 Z-2.0903
X153.2164 Y136.4805 Z-2.1273
X153.2029 Y136.5958 Z-2.1642
X153.1632 Y136.7049 Z-2.2012
X153.0994 Y136.8019 Z-2.2381
X153.0150 Y136.8816 Z-2.2751
X152.9144 Y136.9396 Z-2.3120
X152.8032 Y136.9729 Z-2.3490
X152.6873 Y136.9797 Z-2.3859
X152.5730 Y136.9595 Z-2.4229
X152.4664 Y136.9135 Z-2.4598
X152.3733 Y136.8442 Z-2.4968
X152.2986 Y136.7553 Z-2.5337
X152.2465 Y136.6515 Z-2.5707
X152.2198 Y136.5385 Z-2.6077
Y136.4225 Z-2.6446
X152.2465 Y136.3095 Z-2.6816
X152.2986 Y136.2057 Z-2.7185
X152.3733 Y136.1168 Z-2.7555
X152.4664 Y136.0475 Z-2.7924
X152.5730 Y136.0015 Z-2.8294
X152.6873 Y135.9813 Z-2.8663
X152.8032 Y135.9881 Z-2.9033
X152.9144 Y136.0214 Z-2.9402
X153.0150 Y136.0794 Z-2.9772
X153.0994 Y136.1591 Z-3.0141
X153.1632 Y136.2561 Z-3.0511
X153.2029 Y136.3652 Z-3.0880
X153.2164 Y136.4805 Z-3.1250
X153.2132 Y136.7412
X153.0698 Y136.9925
X152.7987 Y137.1587
X152.4525 Y137.1764
X152.1136 Y137.0145
X151.8752 Y136.6878
X151.8159 Y136.2586
X151.9765 Y135.8250
X152.3442 Y135.4992
X152.8503 Y135.3780
X153.3820 Y135.5163
X153.8079 Y135.9076
X154.0101 Y136.4805
X153.9888 Y136.8730
X153.8478 Y137.2519
X153.5937 Y137.5807
X153.2443 Y137.8256
X152.8272 Y137.9591
X152.3780 Y137.9629
X151.9372 Y137.8301
X151.5543 Y137.5587
G03X153.8785Y135.4023I1.1621J-1.0782
X151.5543Y137.5587I-1.1621J1.0782
G01 X153.2164 Y136.4805
X153.0516 Y136.1140
X153.0994 Y136.1591 Z-3.1459
X153.1632 Y136.2561 Z-3.1829
X153.2029 Y136.3652 Z-3.2198
X153.2164 Y136.4805 Z-3.2568
X153.2029 Y136.5958 Z-3.2937
X153.1632 Y136.7049 Z-3.3307
X153.0994 Y136.8019 Z-3.3676
X153.0150 Y136.8816 Z-3.4046
X152.9144 Y136.9396 Z-3.4415
X152.8032 Y136.9729 Z-3.4785
X152.6873 Y136.9797 Z-3.5154
X152.5730 Y136.9595 Z-3.5524
X152.4664 Y136.9135 Z-3.5893
X152.3733 Y136.8442 Z-3.6263
X152.2986 Y136.7553 Z-3.6633
X152.2465 Y136.6515 Z-3.7002
X152.2198 Y136.5385 Z-3.7372
Y136.4225 Z-3.7741
X152.2465 Y136.3095 Z-3.8111
X152.2986 Y136.2057 Z-3.8480
X152.3733 Y136.1168 Z-3.8850
X152.4664 Y136.0475 Z-3.9219
X152.5730 Y136.0015 Z-3.9589
X152.6873 Y135.9813 Z-3.9958
X152.8032 Y135.9881 Z-4.0328
X152.9144 Y136.0214 Z-4.0697
X153.0150 Y136.0794 Z-4.1067
X153.0994 Y136.1591 Z-4.1436
X153.1632 Y136.2561 Z-4.1806
X153.2029 Y136.3652 Z-4.2176
X153.2164 Y136.4805 Z-4.2545
X153.2029 Y136.5958 Z-4.2915
X153.1632 Y136.7049 Z-4.3284
X153.0994 Y136.8019 Z-4.3654
X153.0150 Y136.8816 Z-4.4023
X152.9144 Y136.9396 Z-4.4393
X152.8032 Y136.9729 Z-4.4762
X152.6873 Y136.9797 Z-4.5132
X152.5730 Y136.9595 Z-4.5501
X152.4664 Y136.9135 Z-4.5871
X152.3733 Y136.8442 Z-4.6240
X152.2986 Y136.7553 Z-4.6610
X152.2465 Y136.6515 Z-4.6980
X152.2198 Y136.5385 Z-4.7349
Y136.4225 Z-4.7719
X152.2465 Y136.3095 Z-4.8088
X152.2986 Y136.2057 Z-4.8458
X152.3733 Y136.1168 Z-4.8827
X152.4664 Y136.0475 Z-4.9197
X152.5730 Y136.0015 Z-4.9566
X152.6873 Y135.9813 Z-4.9936
X152.8032 Y135.9881 Z-5.0305
X152.9144 Y136.0214 Z-5.0675
X153.0150 Y136.0794 Z-5.1044
X153.0994 Y136.1591 Z-5.1414
X153.1632 Y136.2561 Z-5.1783
X153.2029 Y136.3652 Z-5.2153
X153.2164 Y136.4805 Z-5.2523
X153.2029 Y136.5958 Z-5.2892
X153.1632 Y136.7049 Z-5.3262
X153.0994 Y136.8019 Z-5.3631
X153.0150 Y136.8816 Z-5.4001
X152.9144 Y136.9396 Z-5.4370
X152.8032 Y136.9729 Z-5.4740
X152.6873 Y136.9797 Z-5.5109
X152.5730 Y136.9595 Z-5.5479
X152.4664 Y136.9135 Z-5.5848
X152.3733 Y136.8442 Z-5.6218
X152.2986 Y136.7553 Z-5.6587
X152.2465 Y136.6515 Z-5.6957
X152.2198 Y136.5385 Z-5.7327
Y136.4225 Z-5.7696
X152.2465 Y136.3095 Z-5.8066
X152.2986 Y136.2057 Z-5.8435
X152.3733 Y136.1168 Z-5.8805
X152.4664 Y136.0475 Z-5.9174
X152.5730 Y136.0015 Z-5.9544
X152.6873 Y135.9813 Z-5.9913
X152.8032 Y135.9881 Z-6.0283
X152.9144 Y136.0214 Z-6.0652
X153.0150 Y136.0794 Z-6.1022
X153.0994 Y136.1591 Z-6.1391
X153.1632 Y136.2561 Z-6.1761
X153.2029 Y136.3652 Z-6.2130
X153.2164 Y136.4805 Z-6.2500
X153.2132 Y136.7412
X153.0698 Y136.9925
X152.7987 Y137.1587
X152.4525 Y137.1764
X152.1136 Y137.0145
X151.8752 Y136.6878
X151.8159 Y136.2586
X151.9765 Y135.8250
X152.3442 Y135.4992
X152.8503 Y135.3780
X153.3820 Y135.5163
X153.8079 Y135.9076
X154.0101 Y136.4805
X153.9888 Y136.8730
X153.8478 Y137.2519
X153.5937 Y137.5807
X153.2443 Y137.8256
X152.8272 Y137.9591
X152.3780 Y137.9629
X151.9372 Y137.8301
X151.5543 Y137.5587
G03X153.8785Y135.4023I1.1621J-1.0782
X151.5543Y137.5587I-1.1621J1.0782
G01 X153.2164 Y136.4805
X153.0516 Y136.1140
X153.0994 Y136.1591 Z-6.2709
X153.1632 Y136.2561 Z-6.3079
X153.2029 Y136.3652 Z-6.3448
X153.2164 Y136.4805 Z-6.3818
X153.2029 Y136.5958 Z-6.4187
X153.1632 Y136.7049 Z-6.4557
X153.0994 Y136.8019 Z-6.4926
X153.0150 Y136.8816 Z-6.5296
X152.9144 Y136.9396 Z-6.5665
X152.8032 Y136.9729 Z-6.6035
X152.6873 Y136.9797 Z-6.6404
X152.5730 Y136.9595 Z-6.6774
X152.4664 Y136.9135 Z-6.7143
X152.3733 Y136.8442 Z-6.7513
X152.2986 Y136.7553 Z-6.7883
X152.2465 Y136.6515 Z-6.8252
X152.2198 Y136.5385 Z-6.8622
Y136.4225 Z-6.8991
X152.2465 Y136.3095 Z-6.9361
X152.2986 Y136.2057 Z-6.9730
X152.3733 Y136.1168 Z-7.0100
X152.4664 Y136.0475 Z-7.0469
X152.5730 Y136.0015 Z-7.0839
X152.6873 Y135.9813 Z-7.1208
X152.8032 Y135.9881 Z-7.1578
X152.9144 Y136.0214 Z-7.1947
X153.0150 Y136.0794 Z-7.2317
X153.0994 Y136.1591 Z-7.2686
X153.1632 Y136.2561 Z-7.3056
X153.2029 Y136.3652 Z-7.3426
X153.2164 Y136.4805 Z-7.3795
X153.2029 Y136.5958 Z-7.4165
X153.1632 Y136.7049 Z-7.4534
X153.0994 Y136.8019 Z-7.4904
X153.0150 Y136.8816 Z-7.5273
X152.9144 Y136.9396 Z-7.5643
X152.8032 Y136.9729 Z-7.6012
X152.6873 Y136.9797 Z-7.6382
X152.5730 Y136.9595 Z-7.6751
X152.4664 Y136.9135 Z-7.7121
X152.3733 Y136.8442 Z-7.7490
X152.2986 Y136.7553 Z-7.7860
X152.2465 Y136.6515 Z-7.8230
X152.2198 Y136.5385 Z-7.8599
Y136.4225 Z-7.8969
X152.2465 Y136.3095 Z-7.9338
X152.2986 Y136.2057 Z-7.9708
X152.3733 Y136.1168 Z-8.0077
X152.4664 Y136.0475 Z-8.0447
X152.5730 Y136.0015 Z-8.0816
X152.6873 Y135.9813 Z-8.1186
X152.8032 Y135.9881 Z-8.1555
X152.9144 Y136.0214 Z-8.1925
X153.0150 Y136.0794 Z-8.2294
X153.0994 Y136.1591 Z-8.2664
X153.1632 Y136.2561 Z-8.3033
X153.2029 Y136.3652 Z-8.3403
X153.2164 Y136.4805 Z-8.3773
X153.2029 Y136.5958 Z-8.4142
X153.1632 Y136.7049 Z-8.4512
X153.0994 Y136.8019 Z-8.4881
X153.0150 Y136.8816 Z-8.5251
X152.9144 Y136.9396 Z-8.5620
X152.8032 Y136.9729 Z-8.5990
X152.6873 Y136.9797 Z-8.6359
X152.5730 Y136.9595 Z-8.6729
X152.4664 Y136.9135 Z-8.7098
X152.3733 Y136.8442 Z-8.7468
X152.2986 Y136.7553 Z-8.7837
X152.2465 Y136.6515 Z-8.8207
X152.2198 Y136.5385 Z-8.8577
Y136.4225 Z-8.8946
X152.2465 Y136.3095 Z-8.9316
X152.2986 Y136.2057 Z-8.9685
X152.3733 Y136.1168 Z-9.0055
X152.4664 Y136.0475 Z-9.0424
X152.5730 Y136.0015 Z-9.0794
X152.6873 Y135.9813 Z-9.1163
X152.8032 Y135.9881 Z-9.1533
X152.9144 Y136.0214 Z-9.1902
X153.0150 Y136.0794 Z-9.2272
X153.0994 Y136.1591 Z-9.2641
X153.1632 Y136.2561 Z-9.3011
X153.2029 Y136.3652 Z-9.3380
X153.2164 Y136.4805 Z-9.3750
X153.2132 Y136.7412
X153.0698 Y136.9925
X152.7987 Y137.1587
X152.4525 Y137.1764
X152.1136 Y137.0145
X151.8752 Y136.6878
X151.8159 Y136.2586
X151.9765 Y135.8250
X152.3442 Y135.4992
X152.8503 Y135.3780
X153.3820 Y135.5163
X153.8079 Y135.9076
X154.0101 Y136.4805
X153.9888 Y136.8730
X153.8478 Y137.2519
X153.5937 Y137.5807
X153.2443 Y137.8256
X152.8272 Y137.9591
X152.3780 Y137.9629
X151.9372 Y137.8301
X151.5543 Y137.5587
G03X153.8785Y135.4023I1.1621J-1.0782
X151.5543Y137.5587I-1.1621J1.0782
G01 X153.2164 Y136.4805
X153.0516 Y136.1140
X153.0994 Y136.1591 Z-9.3959
X153.1632 Y136.2561 Z-9.4329
X153.2029 Y136.3652 Z-9.4698
X153.2164 Y136.4805 Z-9.5068
X153.2029 Y136.5958 Z-9.5437
X153.1632 Y136.7049 Z-9.5807
X153.0994 Y136.8019 Z-9.6176
X153.0150 Y136.8816 Z-9.6546
X152.9144 Y136.9396 Z-9.6915
X152.8032 Y136.9729 Z-9.7285
X152.6873 Y136.9797 Z-9.7654
X152.5730 Y136.9595 Z-9.8024
X152.4664 Y136.9135 Z-9.8393
X152.3733 Y136.8442 Z-9.8763
X152.2986 Y136.7553 Z-9.9133
X152.2465 Y136.6515 Z-9.9502
X152.2198 Y136.5385 Z-9.9872
Y136.4225 Z-10.0241
X152.2465 Y136.3095 Z-10.0611
X152.2986 Y136.2057 Z-10.0980
X152.3733 Y136.1168 Z-10.1350
X152.4664 Y136.0475 Z-10.1719
X152.5730 Y136.0015 Z-10.2089
X152.6873 Y135.9813 Z-10.2458
X152.8032 Y135.9881 Z-10.2828
X152.9144 Y136.0214 Z-10.3197
X153.0150 Y136.0794 Z-10.3567
X153.0994 Y136.1591 Z-10.3936
X153.1632 Y136.2561 Z-10.4306
X153.2029 Y136.3652 Z-10.4676
X153.2164 Y136.4805 Z-10.5045
X153.2029 Y136.5958 Z-10.5415
X153.1632 Y136.7049 Z-10.5784
X153.0994 Y136.8019 Z-10.6154
X153.0150 Y136.8816 Z-10.6523
X152.9144 Y136.9396 Z-10.6893
X152.8032 Y136.9729 Z-10.7262
X152.6873 Y136.9797 Z-10.7632
X152.5730 Y136.9595 Z-10.8001
X152.4664 Y136.9135 Z-10.8371
X152.3733 Y136.8442 Z-10.8740
X152.2986 Y136.7553 Z-10.9110
X152.2465 Y136.6515 Z-10.9480
X152.2198 Y136.5385 Z-10.9849
Y136.4225 Z-11.0219
X152.2465 Y136.3095 Z-11.0588
X152.2986 Y136.2057 Z-11.0958
X152.3733 Y136.1168 Z-11.1327
X152.4664 Y136.0475 Z-11.1697
X152.5730 Y136.0015 Z-11.2066
X152.6873 Y135.9813 Z-11.2436
X152.8032 Y135.9881 Z-11.2805
X152.9144 Y136.0214 Z-11.3175
X153.0150 Y136.0794 Z-11.3544
X153.0994 Y136.1591 Z-11.3914
X153.1632 Y136.2561 Z-11.4283
X153.2029 Y136.3652 Z-11.4653
X153.2164 Y136.4805 Z-11.5023
X153.2029 Y136.5958 Z-11.5392
X153.1632 Y136.7049 Z-11.5762
X153.0994 Y136.8019 Z-11.6131
X153.0150 Y136.8816 Z-11.6501
X152.9144 Y136.9396 Z-11.6870
X152.8032 Y136.9729 Z-11.7240
X152.6873 Y136.9797 Z-11.7609
X152.5730 Y136.9595 Z-11.7979
X152.4664 Y136.9135 Z-11.8348
X152.3733 Y136.8442 Z-11.8718
X152.2986 Y136.7553 Z-11.9087
X152.2465 Y136.6515 Z-11.9457
X152.2198 Y136.5385 Z-11.9827
Y136.4225 Z-12.0196
X152.2465 Y136.3095 Z-12.0566
X152.2986 Y136.2057 Z-12.0935
X152.3733 Y136.1168 Z-12.1305
X152.4664 Y136.0475 Z-12.1674
X152.5730 Y136.0015 Z-12.2044
X152.6873 Y135.9813 Z-12.2413
X152.8032 Y135.9881 Z-12.2783
X152.9144 Y136.0214 Z-12.3152
X153.0150 Y136.0794 Z-12.3522
X153.0994 Y136.1591 Z-12.3891
X153.1632 Y136.2561 Z-12.4261
X153.2029 Y136.3652 Z-12.4630
X153.2164 Y136.4805 Z-12.5000
X153.2132 Y136.7412
X153.0698 Y136.9925
X152.7987 Y137.1587
X152.4525 Y137.1764
X152.1136 Y137.0145
X151.8752 Y136.6878
X151.8159 Y136.2586
X151.9765 Y135.8250
X152.3442 Y135.4992
X152.8503 Y135.3780
X153.3820 Y135.5163
X153.8079 Y135.9076
X154.0101 Y136.4805
X153.9888 Y136.8730
X153.8478 Y137.2519
X153.5937 Y137.5807
X153.2443 Y137.8256
X152.8272 Y137.9591
X152.3780 Y137.9629
X151.9372 Y137.8301
X151.5543 Y137.5587
G03X153.8785Y135.4023I1.1621J-1.0782
X151.5543Y137.5587I-1.1621J1.0782
G01 X153.2164 Y136.4805
X152.7164
G00 Z1.5875
X113.5773 Y153.2105
G01 Z0.6350  F1000.0
X113.4904 Y153.2155 Z0.6073
X113.3761 Y153.1954 Z0.5704
X113.2695 Y153.1494 Z0.5334
X113.1764 Y153.0801 Z0.4964
X113.1018 Y152.9911 Z0.4595
X113.0496 Y152.8874 Z0.4225
X113.0229 Y152.7744 Z0.3856
Y152.6583 Z0.3486
X113.0496 Y152.5454 Z0.3117
X113.1018 Y152.4416 Z0.2747
X113.1764 Y152.3527 Z0.2378
X113.2695 Y152.2834 Z0.2008
X113.3761 Y152.2374 Z0.1639
X113.4904 Y152.2172 Z0.1269
X113.6063 Y152.2240 Z0.0900
X113.7175 Y152.2573 Z0.0530
X113.8181 Y152.3153 Z0.0160
X113.9025 Y152.3950 Z-0.0209
X113.9663 Y152.4920 Z-0.0579
X114.0060 Y152.6011 Z-0.0948
X114.0195 Y152.7164 Z-0.1318
X114.0060 Y152.8317 Z-0.1687
X113.9663 Y152.9408 Z-0.2057
X113.9025 Y153.0378 Z-0.2426
X113.8181 Y153.1174 Z-0.2796
X113.7175 Y153.1755 Z-0.3165
X113.6063 Y153.2088 Z-0.3535
X113.4904 Y153.2155 Z-0.3904
X113.3761 Y153.1954 Z-0.4274
X113.2695 Y153.1494 Z-0.4643
X113.1764 Y153.0801 Z-0.5013
X113.1018 Y152.9911 Z-0.5383
X113.0496 Y152.8874 Z-0.5752
X113.0229 Y152.7744 Z-0.6122
Y152.6583 Z-0.6491
X113.0496 Y152.5454 Z-0.6861
X113.1018 Y152.4416 Z-0.7230
X113.1764 Y152.3527 Z-0.7600
X113.2695 Y152.2834 Z-0.7969
X113.3761 Y152.2374 Z-0.8339
X113.4904 Y152.2172 Z-0.8708
X113.6063 Y152.2240 Z-0.9078
X113.7175 Y152.2573 Z-0.9447
X113.8181 Y152.3153 Z-0.9817
X113.9025 Y152.3950 Z-1.0186
X113.9663 Y152.4920 Z-1.0556
X114.0060 Y152.6011 Z-1.0926
X114.0195 Y152.7164 Z-1.1295
X114.0060 Y152.8317 Z-1.1665
X113.9663 Y152.9408 Z-1.2034
X113.9025 Y153.0378 Z-1.2404
X113.8181 Y153.1174 Z-1.2773
X113.7175 Y153.1755 Z-1.3143
X113.6063 Y153.2088 Z-1.3512
X113.4904 Y153.2155 Z-1.3882
X113.3761 Y153.1954 Z-1.4251
X113.2695 Y153.1494 Z-1.4621
X113.1764 Y153.0801 Z-1.4990
X113.1018 Y152.9911 Z-1.5360
X113.0496 Y152.8874 Z-1.5730
X113.0229 Y152.7744 Z-1.6099
Y152.6583 Z-1.6469
X113.0496 Y152.5454 Z-1.6838
X113.1018 Y152.4416 Z-1.7208
X113.1764 Y152.3527 Z-1.7577
X113.2695 Y152.2834 Z-1.7947
X113.3761 Y152.2374 Z-1.8316
X113.4904 Y152.2172 Z-1.8686
X113.6063 Y152.2240 Z-1.9055
X113.7175 Y152.2573 Z-1.9425
X113.8181 Y152.3153 Z-1.9794
X113.9025 Y152.3950 Z-2.0164
X113.9663 Y152.4920 Z-2.0533
X114.0060 Y152.6011 Z-2.0903
X114.0195 Y152.7164 Z-2.1273
X114.0060 Y152.8317 Z-2.1642
X113.9663 Y152.9408 Z-2.2012
X113.9025 Y153.0378 Z-2.2381
X113.8181 Y153.1174 Z-2.2751
X113.7175 Y153.1755 Z-2.3120
X113.6063 Y153.2088 Z-2.3490
X113.4904 Y153.2155 Z-2.3859
X113.3761 Y153.1954 Z-2.4229
X113.2695 Y153.1494 Z-2.4598
X113.1764 Y153.0801 Z-2.4968
X113.1018 Y152.9911 Z-2.5337
X113.0496 Y152.8874 Z-2.5707
X113.0229 Y152.7744 Z-2.6077
Y152.6583 Z-2.6446
X113.0496 Y152.5454 Z-2.6816
X113.1018 Y152.4416 Z-2.7185
X113.1764 Y152.3527 Z-2.7555
X113.2695 Y152.2834 Z-2.7924
X113.3761 Y152.2374 Z-2.8294
X113.4904 Y152.2172 Z-2.8663
X113.6063 Y152.2240 Z-2.9033
X113.7175 Y152.2573 Z-2.9402
X113.8181 Y152.3153 Z-2.9772
X113.9025 Y152.3950 Z-3.0141
X113.9663 Y152.4920 Z-3.0511
X114.0060 Y152.6011 Z-3.0880
X114.0195 Y152.7164 Z-3.1250
X114.0163 Y152.9771
X113.8729 Y153.2284
X113.6018 Y153.3946
X113.2556 Y153.4123
X112.9167 Y153.2504
X112.6783 Y152.9237
X112.6190 Y152.4944
X112.7796 Y152.0609
X113.1473 Y151.7351
X113.6534 Y151.6139
X114.1851 Y151.7521
X114.6110 Y152.1435
X114.8132 Y152.7164
X114.7919 Y153.1089
X114.6509 Y153.4878
X114.3968 Y153.8165
X114.0474 Y154.0614
X113.6303 Y154.1950
X113.1811 Y154.1988
X112.7403 Y154.0659
X112.3574 Y153.7946
G03X114.6816Y151.6381I1.1621J-1.0782
X112.3574Y153.7946I-1.1621J1.0783
G01 X114.0195 Y152.7164
X113.8547 Y152.3499
X113.9025 Y152.3950 Z-3.1459
X113.9663 Y152.4920 Z-3.1829
X114.0060 Y152.6011 Z-3.2198
X114.0195 Y152.7164 Z-3.2568
X114.0060 Y152.8317 Z-3.2937
X113.9663 Y152.9408 Z-3.3307
X113.9025 Y153.0378 Z-3.3676
X113.8181 Y153.1174 Z-3.4046
X113.7175 Y153.1755 Z-3.4415
X113.6063 Y153.2088 Z-3.4785
X113.4904 Y153.2155 Z-3.5154
X113.3761 Y153.1954 Z-3.5524
X113.2695 Y153.1494 Z-3.5893
X113.1764 Y153.0801 Z-3.6263
X113.1018 Y152.9911 Z-3.6633
X113.0496 Y152.8874 Z-3.7002
X113.0229 Y152.7744 Z-3.7372
Y152.6583 Z-3.7741
X113.0496 Y152.5454 Z-3.8111
X113.1018 Y152.4416 Z-3.8480
X113.1764 Y152.3527 Z-3.8850
X113.2695 Y152.2834 Z-3.9219
X113.3761 Y152.2374 Z-3.9589
X113.4904 Y152.2172 Z-3.9958
X113.6063 Y152.2240 Z-4.0328
X113.7175 Y152.2573 Z-4.0697
X113.8181 Y152.3153 Z-4.1067
X113.9025 Y152.3950 Z-4.1436
X113.9663 Y152.4920 Z-4.1806
X114.0060 Y152.6011 Z-4.2176
X114.0195 Y152.7164 Z-4.2545
X114.0060 Y152.8317 Z-4.2915
X113.9663 Y152.9408 Z-4.3284
X113.9025 Y153.0378 Z-4.3654
X113.8181 Y153.1174 Z-4.4023
X113.7175 Y153.1755 Z-4.4393
X113.6063 Y153.2088 Z-4.4762
X113.4904 Y153.2155 Z-4.5132
X113.3761 Y153.1954 Z-4.5501
X113.2695 Y153.1494 Z-4.5871
X113.1764 Y153.0801 Z-4.6240
X113.1018 Y152.9911 Z-4.6610
X113.0496 Y152.8874 Z-4.6980
X113.0229 Y152.7744 Z-4.7349
Y152.6583 Z-4.7719
X113.0496 Y152.5454 Z-4.8088
X113.1018 Y152.4416 Z-4.8458
X113.1764 Y152.3527 Z-4.8827
X113.2695 Y152.2834 Z-4.9197
X113.3761 Y152.2374 Z-4.9566
X113.4904 Y152.2172 Z-4.9936
X113.6063 Y152.2240 Z-5.0305
X113.7175 Y152.2573 Z-5.0675
X113.8181 Y152.3153 Z-5.1044
X113.9025 Y152.3950 Z-5.1414
X113.9663 Y152.4920 Z-5.1783
X114.0060 Y152.6011 Z-5.2153
X114.0195 Y152.7164 Z-5.2523
X114.0060 Y152.8317 Z-5.2892
X113.9663 Y152.9408 Z-5.3262
X113.9025 Y153.0378 Z-5.3631
X113.8181 Y153.1174 Z-5.4001
X113.7175 Y153.1755 Z-5.4370
X113.6063 Y153.2088 Z-5.4740
X113.4904 Y153.2155 Z-5.5109
X113.3761 Y153.1954 Z-5.5479
X113.2695 Y153.1494 Z-5.5848
X113.1764 Y153.0801 Z-5.6218
X113.1018 Y152.9911 Z-5.6587
X113.0496 Y152.8874 Z-5.6957
X113.0229 Y152.7744 Z-5.7327
Y152.6583 Z-5.7696
X113.0496 Y152.5454 Z-5.8066
X113.1018 Y152.4416 Z-5.8435
X113.1764 Y152.3527 Z-5.8805
X113.2695 Y152.2834 Z-5.9174
X113.3761 Y152.2374 Z-5.9544
X113.4904 Y152.2172 Z-5.9913
X113.6063 Y152.2240 Z-6.0283
X113.7175 Y152.2573 Z-6.0652
X113.8181 Y152.3153 Z-6.1022
X113.9025 Y152.3950 Z-6.1391
X113.9663 Y152.4920 Z-6.1761
X114.0060 Y152.6011 Z-6.2130
X114.0195 Y152.7164 Z-6.2500
X114.0163 Y152.9771
X113.8729 Y153.2284
X113.6018 Y153.3946
X113.2556 Y153.4123
X112.9167 Y153.2504
X112.6783 Y152.9237
X112.6190 Y152.4944
X112.7796 Y152.0609
X113.1473 Y151.7351
X113.6534 Y151.6139
X114.1851 Y151.7521
X114.6110 Y152.1435
X114.8132 Y152.7164
X114.7919 Y153.1089
X114.6509 Y153.4878
X114.3968 Y153.8165
X114.0474 Y154.0614
X113.6303 Y154.1950
X113.1811 Y154.1988
X112.7403 Y154.0659
X112.3574 Y153.7946
G03X114.6816Y151.6381I1.1621J-1.0782
X112.3574Y153.7946I-1.1621J1.0783
G01 X114.0195 Y152.7164
X113.8547 Y152.3499
X113.9025 Y152.3950 Z-6.2709
X113.9663 Y152.4920 Z-6.3079
X114.0060 Y152.6011 Z-6.3448
X114.0195 Y152.7164 Z-6.3818
X114.0060 Y152.8317 Z-6.4187
X113.9663 Y152.9408 Z-6.4557
X113.9025 Y153.0378 Z-6.4926
X113.8181 Y153.1174 Z-6.5296
X113.7175 Y153.1755 Z-6.5665
X113.6063 Y153.2088 Z-6.6035
X113.4904 Y153.2155 Z-6.6404
X113.3761 Y153.1954 Z-6.6774
X113.2695 Y153.1494 Z-6.7143
X113.1764 Y153.0801 Z-6.7513
X113.1018 Y152.9911 Z-6.7883
X113.0496 Y152.8874 Z-6.8252
X113.0229 Y152.7744 Z-6.8622
Y152.6583 Z-6.8991
X113.0496 Y152.5454 Z-6.9361
X113.1018 Y152.4416 Z-6.9730
X113.1764 Y152.3527 Z-7.0100
X113.2695 Y152.2834 Z-7.0469
X113.3761 Y152.2374 Z-7.0839
X113.4904 Y152.2172 Z-7.1208
X113.6063 Y152.2240 Z-7.1578
X113.7175 Y152.2573 Z-7.1947
X113.8181 Y152.3153 Z-7.2317
X113.9025 Y152.3950 Z-7.2686
X113.9663 Y152.4920 Z-7.3056
X114.0060 Y152.6011 Z-7.3426
X114.0195 Y152.7164 Z-7.3795
X114.0060 Y152.8317 Z-7.4165
X113.9663 Y152.9408 Z-7.4534
X113.9025 Y153.0378 Z-7.4904
X113.8181 Y153.1174 Z-7.5273
X113.7175 Y153.1755 Z-7.5643
X113.6063 Y153.2088 Z-7.6012
X113.4904 Y153.2155 Z-7.6382
X113.3761 Y153.1954 Z-7.6751
X113.2695 Y153.1494 Z-7.7121
X113.1764 Y153.0801 Z-7.7490
X113.1018 Y152.9911 Z-7.7860
X113.0496 Y152.8874 Z-7.8230
X113.0229 Y152.7744 Z-7.8599
Y152.6583 Z-7.8969
X113.0496 Y152.5454 Z-7.9338
X113.1018 Y152.4416 Z-7.9708
X113.1764 Y152.3527 Z-8.0077
X113.2695 Y152.2834 Z-8.0447
X113.3761 Y152.2374 Z-8.0816
X113.4904 Y152.2172 Z-8.1186
X113.6063 Y152.2240 Z-8.1555
X113.7175 Y152.2573 Z-8.1925
X113.8181 Y152.3153 Z-8.2294
X113.9025 Y152.3950 Z-8.2664
X113.9663 Y152.4920 Z-8.3033
X114.0060 Y152.6011 Z-8.3403
X114.0195 Y152.7164 Z-8.3773
X114.0060 Y152.8317 Z-8.4142
X113.9663 Y152.9408 Z-8.4512
X113.9025 Y153.0378 Z-8.4881
X113.8181 Y153.1174 Z-8.5251
X113.7175 Y153.1755 Z-8.5620
X113.6063 Y153.2088 Z-8.5990
X113.4904 Y153.2155 Z-8.6359
X113.3761 Y153.1954 Z-8.6729
X113.2695 Y153.1494 Z-8.7098
X113.1764 Y153.0801 Z-8.7468
X113.1018 Y152.9911 Z-8.7837
X113.0496 Y152.8874 Z-8.8207
X113.0229 Y152.7744 Z-8.8577
Y152.6583 Z-8.8946
X113.0496 Y152.5454 Z-8.9316
X113.1018 Y152.4416 Z-8.9685
X113.1764 Y152.3527 Z-9.0055
X113.2695 Y152.2834 Z-9.0424
X113.3761 Y152.2374 Z-9.0794
X113.4904 Y152.2172 Z-9.1163
X113.6063 Y152.2240 Z-9.1533
X113.7175 Y152.2573 Z-9.1902
X113.8181 Y152.3153 Z-9.2272
X113.9025 Y152.3950 Z-9.2641
X113.9663 Y152.4920 Z-9.3011
X114.0060 Y152.6011 Z-9.3380
X114.0195 Y152.7164 Z-9.3750
X114.0163 Y152.9771
X113.8729 Y153.2284
X113.6018 Y153.3946
X113.2556 Y153.4123
X112.9167 Y153.2504
X112.6783 Y152.9237
X112.6190 Y152.4944
X112.7796 Y152.0609
X113.1473 Y151.7351
X113.6534 Y151.6139
X114.1851 Y151.7521
X114.6110 Y152.1435
X114.8132 Y152.7164
X114.7919 Y153.1089
X114.6509 Y153.4878
X114.3968 Y153.8165
X114.0474 Y154.0614
X113.6303 Y154.1950
X113.1811 Y154.1988
X112.7403 Y154.0659
X112.3574 Y153.7946
G03X114.6816Y151.6381I1.1621J-1.0782
X112.3574Y153.7946I-1.1621J1.0783
G01 X114.0195 Y152.7164
X113.8547 Y152.3499
X113.9025 Y152.3950 Z-9.3959
X113.9663 Y152.4920 Z-9.4329
X114.0060 Y152.6011 Z-9.4698
X114.0195 Y152.7164 Z-9.5068
X114.0060 Y152.8317 Z-9.5437
X113.9663 Y152.9408 Z-9.5807
X113.9025 Y153.0378 Z-9.6176
X113.8181 Y153.1174 Z-9.6546
X113.7175 Y153.1755 Z-9.6915
X113.6063 Y153.2088 Z-9.7285
X113.4904 Y153.2155 Z-9.7654
X113.3761 Y153.1954 Z-9.8024
X113.2695 Y153.1494 Z-9.8393
X113.1764 Y153.0801 Z-9.8763
X113.1018 Y152.9911 Z-9.9133
X113.0496 Y152.8874 Z-9.9502
X113.0229 Y152.7744 Z-9.9872
Y152.6583 Z-10.0241
X113.0496 Y152.5454 Z-10.0611
X113.1018 Y152.4416 Z-10.0980
X113.1764 Y152.3527 Z-10.1350
X113.2695 Y152.2834 Z-10.1719
X113.3761 Y152.2374 Z-10.2089
X113.4904 Y152.2172 Z-10.2458
X113.6063 Y152.2240 Z-10.2828
X113.7175 Y152.2573 Z-10.3197
X113.8181 Y152.3153 Z-10.3567
X113.9025 Y152.3950 Z-10.3936
X113.9663 Y152.4920 Z-10.4306
X114.0060 Y152.6011 Z-10.4676
X114.0195 Y152.7164 Z-10.5045
X114.0060 Y152.8317 Z-10.5415
X113.9663 Y152.9408 Z-10.5784
X113.9025 Y153.0378 Z-10.6154
X113.8181 Y153.1174 Z-10.6523
X113.7175 Y153.1755 Z-10.6893
X113.6063 Y153.2088 Z-10.7262
X113.4904 Y153.2155 Z-10.7632
X113.3761 Y153.1954 Z-10.8001
X113.2695 Y153.1494 Z-10.8371
X113.1764 Y153.0801 Z-10.8740
X113.1018 Y152.9911 Z-10.9110
X113.0496 Y152.8874 Z-10.9480
X113.0229 Y152.7744 Z-10.9849
Y152.6583 Z-11.0219
X113.0496 Y152.5454 Z-11.0588
X113.1018 Y152.4416 Z-11.0958
X113.1764 Y152.3527 Z-11.1327
X113.2695 Y152.2834 Z-11.1697
X113.3761 Y152.2374 Z-11.2066
X113.4904 Y152.2172 Z-11.2436
X113.6063 Y152.2240 Z-11.2805
X113.7175 Y152.2573 Z-11.3175
X113.8181 Y152.3153 Z-11.3544
X113.9025 Y152.3950 Z-11.3914
X113.9663 Y152.4920 Z-11.4283
X114.0060 Y152.6011 Z-11.4653
X114.0195 Y152.7164 Z-11.5023
X114.0060 Y152.8317 Z-11.5392
X113.9663 Y152.9408 Z-11.5762
X113.9025 Y153.0378 Z-11.6131
X113.8181 Y153.1174 Z-11.6501
X113.7175 Y153.1755 Z-11.6870
X113.6063 Y153.2088 Z-11.7240
X113.4904 Y153.2155 Z-11.7609
X113.3761 Y153.1954 Z-11.7979
X113.2695 Y153.1494 Z-11.8348
X113.1764 Y153.0801 Z-11.8718
X113.1018 Y152.9911 Z-11.9087
X113.0496 Y152.8874 Z-11.9457
X113.0229 Y152.7744 Z-11.9827
Y152.6583 Z-12.0196
X113.0496 Y152.5454 Z-12.0566
X113.1018 Y152.4416 Z-12.0935
X113.1764 Y152.3527 Z-12.1305
X113.2695 Y152.2834 Z-12.1674
X113.3761 Y152.2374 Z-12.2044
X113.4904 Y152.2172 Z-12.2413
X113.6063 Y152.2240 Z-12.2783
X113.7175 Y152.2573 Z-12.3152
X113.8181 Y152.3153 Z-12.3522
X113.9025 Y152.3950 Z-12.3891
X113.9663 Y152.4920 Z-12.4261
X114.0060 Y152.6011 Z-12.4630
X114.0195 Y152.7164 Z-12.5000
X114.0163 Y152.9771
X113.8729 Y153.2284
X113.6018 Y153.3946
X113.2556 Y153.4123
X112.9167 Y153.2504
X112.6783 Y152.9237
X112.6190 Y152.4944
X112.7796 Y152.0609
X113.1473 Y151.7351
X113.6534 Y151.6139
X114.1851 Y151.7521
X114.6110 Y152.1435
X114.8132 Y152.7164
X114.7919 Y153.1089
X114.6509 Y153.4878
X114.3968 Y153.8165
X114.0474 Y154.0614
X113.6303 Y154.1950
X113.1811 Y154.1988
X112.7403 Y154.0659
X112.3574 Y153.7946
G03X114.6816Y151.6381I1.1621J-1.0782
X112.3574Y153.7946I-1.1621J1.0783
G01 X114.0195 Y152.7164
X113.5195
G00 Z1.5875
X136.5383 Y97.7777
G01 Z0.6350  F1000.0
X136.4514 Y97.7828 Z0.6073
X136.3371 Y97.7626 Z0.5704
X136.2305 Y97.7166 Z0.5334
X136.1374 Y97.6473 Z0.4964
X136.0628 Y97.5584 Z0.4595
X136.0107 Y97.4546 Z0.4225
X135.9839 Y97.3417 Z0.3856
Y97.2256 Z0.3486
X136.0107 Y97.1126 Z0.3117
X136.0628 Y97.0089 Z0.2747
X136.1374 Y96.9199 Z0.2378
X136.2305 Y96.8506 Z0.2008
X136.3371 Y96.8046 Z0.1639
X136.4514 Y96.7845 Z0.1269
X136.5673 Y96.7912 Z0.0900
X136.6785 Y96.8245 Z0.0530
X136.7791 Y96.8826 Z0.0160
X136.8635 Y96.9622 Z-0.0209
X136.9273 Y97.0592 Z-0.0579
X136.9670 Y97.1683 Z-0.0948
X136.9805 Y97.2836 Z-0.1318
X136.9670 Y97.3989 Z-0.1687
X136.9273 Y97.5080 Z-0.2057
X136.8635 Y97.6050 Z-0.2426
X136.7791 Y97.6847 Z-0.2796
X136.6785 Y97.7427 Z-0.3165
X136.5673 Y97.7760 Z-0.3535
X136.4514 Y97.7828 Z-0.3904
X136.3371 Y97.7626 Z-0.4274
X136.2305 Y97.7166 Z-0.4643
X136.1374 Y97.6473 Z-0.5013
X136.0628 Y97.5584 Z-0.5383
X136.0107 Y97.4546 Z-0.5752
X135.9839 Y97.3417 Z-0.6122
Y97.2256 Z-0.6491
X136.0107 Y97.1126 Z-0.6861
X136.0628 Y97.0089 Z-0.7230
X136.1374 Y96.9199 Z-0.7600
X136.2305 Y96.8506 Z-0.7969
X136.3371 Y96.8046 Z-0.8339
X136.4514 Y96.7845 Z-0.8708
X136.5673 Y96.7912 Z-0.9078
X136.6785 Y96.8245 Z-0.9447
X136.7791 Y96.8826 Z-0.9817
X136.8635 Y96.9622 Z-1.0186
X136.9273 Y97.0592 Z-1.0556
X136.9670 Y97.1683 Z-1.0926
X136.9805 Y97.2836 Z-1.1295
X136.9670 Y97.3989 Z-1.1665
X136.9273 Y97.5080 Z-1.2034
X136.8635 Y97.6050 Z-1.2404
X136.7791 Y97.6847 Z-1.2773
X136.6785 Y97.7427 Z-1.3143
X136.5673 Y97.7760 Z-1.3512
X136.4514 Y97.7828 Z-1.3882
X136.3371 Y97.7626 Z-1.4251
X136.2305 Y97.7166 Z-1.4621
X136.1374 Y97.6473 Z-1.4990
X136.0628 Y97.5584 Z-1.5360
X136.0107 Y97.4546 Z-1.5730
X135.9839 Y97.3417 Z-1.6099
Y97.2256 Z-1.6469
X136.0107 Y97.1126 Z-1.6838
X136.0628 Y97.0089 Z-1.7208
X136.1374 Y96.9199 Z-1.7577
X136.2305 Y96.8506 Z-1.7947
X136.3371 Y96.8046 Z-1.8316
X136.4514 Y96.7845 Z-1.8686
X136.5673 Y96.7912 Z-1.9055
X136.6785 Y96.8245 Z-1.9425
X136.7791 Y96.8826 Z-1.9794
X136.8635 Y96.9622 Z-2.0164
X136.9273 Y97.0592 Z-2.0533
X136.9670 Y97.1683 Z-2.0903
X136.9805 Y97.2836 Z-2.1273
X136.9670 Y97.3989 Z-2.1642
X136.9273 Y97.5080 Z-2.2012
X136.8635 Y97.6050 Z-2.2381
X136.7791 Y97.6847 Z-2.2751
X136.6785 Y97.7427 Z-2.3120
X136.5673 Y97.7760 Z-2.3490
X136.4514 Y97.7828 Z-2.3859
X136.3371 Y97.7626 Z-2.4229
X136.2305 Y97.7166 Z-2.4598
X136.1374 Y97.6473 Z-2.4968
X136.0628 Y97.5584 Z-2.5337
X136.0107 Y97.4546 Z-2.5707
X135.9839 Y97.3417 Z-2.6077
Y97.2256 Z-2.6446
X136.0107 Y97.1126 Z-2.6816
X136.0628 Y97.0089 Z-2.7185
X136.1374 Y96.9199 Z-2.7555
X136.2305 Y96.8506 Z-2.7924
X136.3371 Y96.8046 Z-2.8294
X136.4514 Y96.7845 Z-2.8663
X136.5673 Y96.7912 Z-2.9033
X136.6785 Y96.8245 Z-2.9402
X136.7791 Y96.8826 Z-2.9772
X136.8635 Y96.9622 Z-3.0141
X136.9273 Y97.0592 Z-3.0511
X136.9670 Y97.1683 Z-3.0880
X136.9805 Y97.2836 Z-3.1250
X136.9773 Y97.5443
X136.8339 Y97.7956
X136.5628 Y97.9618
X136.2166 Y97.9795
X135.8777 Y97.8176
X135.6393 Y97.4909
X135.5800 Y97.0617
X135.7406 Y96.6281
X136.1083 Y96.3023
X136.6144 Y96.1811
X137.1461 Y96.3194
X137.5720 Y96.7108
X137.7743 Y97.2836
X137.7529 Y97.6761
X137.6119 Y98.0550
X137.3578 Y98.3838
X137.0084 Y98.6287
X136.5913 Y98.7622
X136.1421 Y98.7660
X135.7013 Y98.6332
X135.3184 Y98.3619
G03X137.6426Y96.2054I1.1621J-1.0783
X135.3184Y98.3619I-1.1621J1.0782
G01 X136.9805 Y97.2836
X136.8158 Y96.9172
X136.8635 Y96.9622 Z-3.1459
X136.9273 Y97.0592 Z-3.1829
X136.9670 Y97.1683 Z-3.2198
X136.9805 Y97.2836 Z-3.2568
X136.9670 Y97.3989 Z-3.2937
X136.9273 Y97.5080 Z-3.3307
X136.8635 Y97.6050 Z-3.3676
X136.7791 Y97.6847 Z-3.4046
X136.6785 Y97.7427 Z-3.4415
X136.5673 Y97.7760 Z-3.4785
X136.4514 Y97.7828 Z-3.5154
X136.3371 Y97.7626 Z-3.5524
X136.2305 Y97.7166 Z-3.5893
X136.1374 Y97.6473 Z-3.6263
X136.0628 Y97.5584 Z-3.6633
X136.0107 Y97.4546 Z-3.7002
X135.9839 Y97.3417 Z-3.7372
Y97.2256 Z-3.7741
X136.0107 Y97.1126 Z-3.8111
X136.0628 Y97.0089 Z-3.8480
X136.1374 Y96.9199 Z-3.8850
X136.2305 Y96.8506 Z-3.9219
X136.3371 Y96.8046 Z-3.9589
X136.4514 Y96.7845 Z-3.9958
X136.5673 Y96.7912 Z-4.0328
X136.6785 Y96.8245 Z-4.0697
X136.7791 Y96.8826 Z-4.1067
X136.8635 Y96.9622 Z-4.1436
X136.9273 Y97.0592 Z-4.1806
X136.9670 Y97.1683 Z-4.2176
X136.9805 Y97.2836 Z-4.2545
X136.9670 Y97.3989 Z-4.2915
X136.9273 Y97.5080 Z-4.3284
X136.8635 Y97.6050 Z-4.3654
X136.7791 Y97.6847 Z-4.4023
X136.6785 Y97.7427 Z-4.4393
X136.5673 Y97.7760 Z-4.4762
X136.4514 Y97.7828 Z-4.5132
X136.3371 Y97.7626 Z-4.5501
X136.2305 Y97.7166 Z-4.5871
X136.1374 Y97.6473 Z-4.6240
X136.0628 Y97.5584 Z-4.6610
X136.0107 Y97.4546 Z-4.6980
X135.9839 Y97.3417 Z-4.7349
Y97.2256 Z-4.7719
X136.0107 Y97.1126 Z-4.8088
X136.0628 Y97.0089 Z-4.8458
X136.1374 Y96.9199 Z-4.8827
X136.2305 Y96.8506 Z-4.9197
X136.3371 Y96.8046 Z-4.9566
X136.4514 Y96.7845 Z-4.9936
X136.5673 Y96.7912 Z-5.0305
X136.6785 Y96.8245 Z-5.0675
X136.7791 Y96.8826 Z-5.1044
X136.8635 Y96.9622 Z-5.1414
X136.9273 Y97.0592 Z-5.1783
X136.9670 Y97.1683 Z-5.2153
X136.9805 Y97.2836 Z-5.2523
X136.9670 Y97.3989 Z-5.2892
X136.9273 Y97.5080 Z-5.3262
X136.8635 Y97.6050 Z-5.3631
X136.7791 Y97.6847 Z-5.4001
X136.6785 Y97.7427 Z-5.4370
X136.5673 Y97.7760 Z-5.4740
X136.4514 Y97.7828 Z-5.5109
X136.3371 Y97.7626 Z-5.5479
X136.2305 Y97.7166 Z-5.5848
X136.1374 Y97.6473 Z-5.6218
X136.0628 Y97.5584 Z-5.6587
X136.0107 Y97.4546 Z-5.6957
X135.9839 Y97.3417 Z-5.7327
Y97.2256 Z-5.7696
X136.0107 Y97.1126 Z-5.8066
X136.0628 Y97.0089 Z-5.8435
X136.1374 Y96.9199 Z-5.8805
X136.2305 Y96.8506 Z-5.9174
X136.3371 Y96.8046 Z-5.9544
X136.4514 Y96.7845 Z-5.9913
X136.5673 Y96.7912 Z-6.0283
X136.6785 Y96.8245 Z-6.0652
X136.7791 Y96.8826 Z-6.1022
X136.8635 Y96.9622 Z-6.1391
X136.9273 Y97.0592 Z-6.1761
X136.9670 Y97.1683 Z-6.2130
X136.9805 Y97.2836 Z-6.2500
X136.9773 Y97.5443
X136.8339 Y97.7956
X136.5628 Y97.9618
X136.2166 Y97.9795
X135.8777 Y97.8176
X135.6393 Y97.4909
X135.5800 Y97.0617
X135.7406 Y96.6281
X136.1083 Y96.3023
X136.6144 Y96.1811
X137.1461 Y96.3194
X137.5720 Y96.7108
X137.7743 Y97.2836
X137.7529 Y97.6761
X137.6119 Y98.0550
X137.3578 Y98.3838
X137.0084 Y98.6287
X136.5913 Y98.7622
X136.1421 Y98.7660
X135.7013 Y98.6332
X135.3184 Y98.3619
G03X137.6426Y96.2054I1.1621J-1.0783
X135.3184Y98.3619I-1.1621J1.0782
G01 X136.9805 Y97.2836
X136.8158 Y96.9172
X136.8635 Y96.9622 Z-6.2709
X136.9273 Y97.0592 Z-6.3079
X136.9670 Y97.1683 Z-6.3448
X136.9805 Y97.2836 Z-6.3818
X136.9670 Y97.3989 Z-6.4187
X136.9273 Y97.5080 Z-6.4557
X136.8635 Y97.6050 Z-6.4926
X136.7791 Y97.6847 Z-6.5296
X136.6785 Y97.7427 Z-6.5665
X136.5673 Y97.7760 Z-6.6035
X136.4514 Y97.7828 Z-6.6404
X136.3371 Y97.7626 Z-6.6774
X136.2305 Y97.7166 Z-6.7143
X136.1374 Y97.6473 Z-6.7513
X136.0628 Y97.5584 Z-6.7883
X136.0107 Y97.4546 Z-6.8252
X135.9839 Y97.3417 Z-6.8622
Y97.2256 Z-6.8991
X136.0107 Y97.1126 Z-6.9361
X136.0628 Y97.0089 Z-6.9730
X136.1374 Y96.9199 Z-7.0100
X136.2305 Y96.8506 Z-7.0469
X136.3371 Y96.8046 Z-7.0839
X136.4514 Y96.7845 Z-7.1208
X136.5673 Y96.7912 Z-7.1578
X136.6785 Y96.8245 Z-7.1947
X136.7791 Y96.8826 Z-7.2317
X136.8635 Y96.9622 Z-7.2686
X136.9273 Y97.0592 Z-7.3056
X136.9670 Y97.1683 Z-7.3426
X136.9805 Y97.2836 Z-7.3795
X136.9670 Y97.3989 Z-7.4165
X136.9273 Y97.5080 Z-7.4534
X136.8635 Y97.6050 Z-7.4904
X136.7791 Y97.6847 Z-7.5273
X136.6785 Y97.7427 Z-7.5643
X136.5673 Y97.7760 Z-7.6012
X136.4514 Y97.7828 Z-7.6382
X136.3371 Y97.7626 Z-7.6751
X136.2305 Y97.7166 Z-7.7121
X136.1374 Y97.6473 Z-7.7490
X136.0628 Y97.5584 Z-7.7860
X136.0107 Y97.4546 Z-7.8230
X135.9839 Y97.3417 Z-7.8599
Y97.2256 Z-7.8969
X136.0107 Y97.1126 Z-7.9338
X136.0628 Y97.0089 Z-7.9708
X136.1374 Y96.9199 Z-8.0077
X136.2305 Y96.8506 Z-8.0447
X136.3371 Y96.8046 Z-8.0816
X136.4514 Y96.7845 Z-8.1186
X136.5673 Y96.7912 Z-8.1555
X136.6785 Y96.8245 Z-8.1925
X136.7791 Y96.8826 Z-8.2294
X136.8635 Y96.9622 Z-8.2664
X136.9273 Y97.0592 Z-8.3033
X136.9670 Y97.1683 Z-8.3403
X136.9805 Y97.2836 Z-8.3773
X136.9670 Y97.3989 Z-8.4142
X136.9273 Y97.5080 Z-8.4512
X136.8635 Y97.6050 Z-8.4881
X136.7791 Y97.6847 Z-8.5251
X136.6785 Y97.7427 Z-8.5620
X136.5673 Y97.7760 Z-8.5990
X136.4514 Y97.7828 Z-8.6359
X136.3371 Y97.7626 Z-8.6729
X136.2305 Y97.7166 Z-8.7098
X136.1374 Y97.6473 Z-8.7468
X136.0628 Y97.5584 Z-8.7837
X136.0107 Y97.4546 Z-8.8207
X135.9839 Y97.3417 Z-8.8577
Y97.2256 Z-8.8946
X136.0107 Y97.1126 Z-8.9316
X136.0628 Y97.0089 Z-8.9685
X136.1374 Y96.9199 Z-9.0055
X136.2305 Y96.8506 Z-9.0424
X136.3371 Y96.8046 Z-9.0794
X136.4514 Y96.7845 Z-9.1163
X136.5673 Y96.7912 Z-9.1533
X136.6785 Y96.8245 Z-9.1902
X136.7791 Y96.8826 Z-9.2272
X136.8635 Y96.9622 Z-9.2641
X136.9273 Y97.0592 Z-9.3011
X136.9670 Y97.1683 Z-9.3380
X136.9805 Y97.2836 Z-9.3750
X136.9773 Y97.5443
X136.8339 Y97.7956
X136.5628 Y97.9618
X136.2166 Y97.9795
X135.8777 Y97.8176
X135.6393 Y97.4909
X135.5800 Y97.0617
X135.7406 Y96.6281
X136.1083 Y96.3023
X136.6144 Y96.1811
X137.1461 Y96.3194
X137.5720 Y96.7108
X137.7743 Y97.2836
X137.7529 Y97.6761
X137.6119 Y98.0550
X137.3578 Y98.3838
X137.0084 Y98.6287
X136.5913 Y98.7622
X136.1421 Y98.7660
X135.7013 Y98.6332
X135.3184 Y98.3619
G03X137.6426Y96.2054I1.1621J-1.0783
X135.3184Y98.3619I-1.1621J1.0782
G01 X136.9805 Y97.2836
X136.8158 Y96.9172
X136.8635 Y96.9622 Z-9.3959
X136.9273 Y97.0592 Z-9.4329
X136.9670 Y97.1683 Z-9.4698
X136.9805 Y97.2836 Z-9.5068
X136.9670 Y97.3989 Z-9.5437
X136.9273 Y97.5080 Z-9.5807
X136.8635 Y97.6050 Z-9.6176
X136.7791 Y97.6847 Z-9.6546
X136.6785 Y97.7427 Z-9.6915
X136.5673 Y97.7760 Z-9.7285
X136.4514 Y97.7828 Z-9.7654
X136.3371 Y97.7626 Z-9.8024
X136.2305 Y97.7166 Z-9.8393
X136.1374 Y97.6473 Z-9.8763
X136.0628 Y97.5584 Z-9.9133
X136.0107 Y97.4546 Z-9.9502
X135.9839 Y97.3417 Z-9.9872
Y97.2256 Z-10.0241
X136.0107 Y97.1126 Z-10.0611
X136.0628 Y97.0089 Z-10.0980
X136.1374 Y96.9199 Z-10.1350
X136.2305 Y96.8506 Z-10.1719
X136.3371 Y96.8046 Z-10.2089
X136.4514 Y96.7845 Z-10.2458
X136.5673 Y96.7912 Z-10.2828
X136.6785 Y96.8245 Z-10.3197
X136.7791 Y96.8826 Z-10.3567
X136.8635 Y96.9622 Z-10.3936
X136.9273 Y97.0592 Z-10.4306
X136.9670 Y97.1683 Z-10.4676
X136.9805 Y97.2836 Z-10.5045
X136.9670 Y97.3989 Z-10.5415
X136.9273 Y97.5080 Z-10.5784
X136.8635 Y97.6050 Z-10.6154
X136.7791 Y97.6847 Z-10.6523
X136.6785 Y97.7427 Z-10.6893
X136.5673 Y97.7760 Z-10.7262
X136.4514 Y97.7828 Z-10.7632
X136.3371 Y97.7626 Z-10.8001
X136.2305 Y97.7166 Z-10.8371
X136.1374 Y97.6473 Z-10.8740
X136.0628 Y97.5584 Z-10.9110
X136.0107 Y97.4546 Z-10.9480
X135.9839 Y97.3417 Z-10.9849
Y97.2256 Z-11.0219
X136.0107 Y97.1126 Z-11.0588
X136.0628 Y97.0089 Z-11.0958
X136.1374 Y96.9199 Z-11.1327
X136.2305 Y96.8506 Z-11.1697
X136.3371 Y96.8046 Z-11.2066
X136.4514 Y96.7845 Z-11.2436
X136.5673 Y96.7912 Z-11.2805
X136.6785 Y96.8245 Z-11.3175
X136.7791 Y96.8826 Z-11.3544
X136.8635 Y96.9622 Z-11.3914
X136.9273 Y97.0592 Z-11.4283
X136.9670 Y97.1683 Z-11.4653
X136.9805 Y97.2836 Z-11.5023
X136.9670 Y97.3989 Z-11.5392
X136.9273 Y97.5080 Z-11.5762
X136.8635 Y97.6050 Z-11.6131
X136.7791 Y97.6847 Z-11.6501
X136.6785 Y97.7427 Z-11.6870
X136.5673 Y97.7760 Z-11.7240
X136.4514 Y97.7828 Z-11.7609
X136.3371 Y97.7626 Z-11.7979
X136.2305 Y97.7166 Z-11.8348
X136.1374 Y97.6473 Z-11.8718
X136.0628 Y97.5584 Z-11.9087
X136.0107 Y97.4546 Z-11.9457
X135.9839 Y97.3417 Z-11.9827
Y97.2256 Z-12.0196
X136.0107 Y97.1126 Z-12.0566
X136.0628 Y97.0089 Z-12.0935
X136.1374 Y96.9199 Z-12.1305
X136.2305 Y96.8506 Z-12.1674
X136.3371 Y96.8046 Z-12.2044
X136.4514 Y96.7845 Z-12.2413
X136.5673 Y96.7912 Z-12.2783
X136.6785 Y96.8245 Z-12.3152
X136.7791 Y96.8826 Z-12.3522
X136.8635 Y96.9622 Z-12.3891
X136.9273 Y97.0592 Z-12.4261
X136.9670 Y97.1683 Z-12.4630
X136.9805 Y97.2836 Z-12.5000
X136.9773 Y97.5443
X136.8339 Y97.7956
X136.5628 Y97.9618
X136.2166 Y97.9795
X135.8777 Y97.8176
X135.6393 Y97.4909
X135.5800 Y97.0617
X135.7406 Y96.6281
X136.1083 Y96.3023
X136.6144 Y96.1811
X137.1461 Y96.3194
X137.5720 Y96.7108
X137.7743 Y97.2836
X137.7529 Y97.6761
X137.6119 Y98.0550
X137.3578 Y98.3838
X137.0084 Y98.6287
X136.5913 Y98.7622
X136.1421 Y98.7660
X135.7013 Y98.6332
X135.3184 Y98.3619
G03X137.6426Y96.2054I1.1621J-1.0783
X135.3184Y98.3619I-1.1621J1.0782
G01 X136.9805 Y97.2836
X136.4805
G00 Z1.5875
(2 1/2 Axis Pocketing)
(SlotDrill 1/8in 3.175mm Carbide Aluminium Cut)
X101.4691 Y93.4208
G01 Z-0.3000  F1000.0
Z-0.9000
X103.4774 Y91.4124 Z-1.4008  F500.0
X103.0797 Y91.0147 Z-1.5000
X91.0147 Y103.0797  F1000.0
X91.4124 Y103.4774
X103.4774 Y91.4124
X103.0797 Y91.0147
X103.6410 Y90.4534
X104.6000 Y91.4124
X91.4124 Y104.6000
X89.8921 Y103.0797
X103.0797 Y89.8921
X103.6410 Y90.4534
X104.2022 Y89.8921
X103.0797 Y88.7696
X88.7696 Y103.0797
X91.4124 Y105.7225
X105.7225 Y91.4124
X104.2022 Y89.8921
X104.7635 Y89.3309
X106.8450 Y91.4124
X91.4124 Y106.8450
X87.6471 Y103.0797
X103.0797 Y87.6471
X104.7635 Y89.3309
G00 Z1.5875
X103.0797 Y91.0147
G01 Z-3.0000  F1000.0
X91.0147 Y103.0797
X91.4124 Y103.4774
X103.4774 Y91.4124
X103.0797 Y91.0147
X103.6410 Y90.4534
X104.6000 Y91.4124
X91.4124 Y104.6000
X89.8921 Y103.0797
X103.0797 Y89.8921
X103.6410 Y90.4534
X104.2022 Y89.8921
X103.0797 Y88.7696
X88.7696 Y103.0797
X91.4124 Y105.7225
X105.7225 Y91.4124
X104.2022 Y89.8921
X104.7635 Y89.3309
X106.8450 Y91.4124
X91.4124 Y106.8450
X87.6471 Y103.0797
X103.0797 Y87.6471
X104.7635 Y89.3309
X104.0135 Y90.0809 Z-1.9393
Z-1.3393
G00 Z1.5875
X130.1285 Y86.0312
G01 Z-0.3000  F1000.0
Z-0.9000
X133.5312 Z-1.5000  F500.0
Y85.4687  F1000.0
X116.4687
Y86.0312
X133.5312
X134.3250
Y86.8250
X115.6750
Y84.6750
X134.3250
Y86.0312
X135.1187
Y83.8812
X114.8812
Y87.6187
X135.1187
Y86.0312
X135.9125
Y88.4125
X114.0875
Y83.0875
X135.9125
Y86.0312
G00 Z1.5875
X133.5312
G01 Z-3.0000  F1000.0
Y85.4687
X116.4687
Y86.0312
X133.5312
X134.3250
Y86.8250
X115.6750
Y84.6750
X134.3250
Y86.0312
X135.1187
Y83.8812
X114.8812
Y87.6187
X135.1187
Y86.0312
X135.9125
Y88.4125
X114.0875
Y83.0875
X135.9125
Y86.0312
X134.8518 Z-1.9393
Z-1.3393
G00 Z1.5875
X156.1815 Y101.0713
G01 Z-0.3000  F1000.0
Z-0.9000
X158.5876 Y103.4774 Z-1.5000  F500.0
X158.9853 Y103.0797  F1000.0
X146.9203 Y91.0147
X146.5226 Y91.4124
X158.5876 Y103.4774
X158.0263 Y104.0387
X145.4000 Y91.4124
X146.9203 Y89.8921
X160.1079 Y103.0797
X158.5876 Y104.6000
X158.0263 Y104.0387
X157.4650 Y104.6000
X158.5876 Y105.7225
X161.2304 Y103.0797
X146.9203 Y88.7696
X144.2775 Y91.4124
X157.4650 Y104.6000
X156.9038 Y105.1612
X143.1550 Y91.4124
X146.9203 Y87.6471
X162.3529 Y103.0797
X158.5876 Y106.8450
X156.9038 Y105.1612
G00 Z1.5875
X158.5876 Y103.4774
G01 Z-3.0000  F1000.0
X158.9853 Y103.0797
X146.9203 Y91.0147
X146.5226 Y91.4124
X158.5876 Y103.4774
X158.0263 Y104.0387
X145.4000 Y91.4124
X146.9203 Y89.8921
X160.1079 Y103.0797
X158.5876 Y104.6000
X158.0263 Y104.0387
X157.4650 Y104.6000
X158.5876 Y105.7225
X161.2304 Y103.0797
X146.9203 Y88.7696
X144.2775 Y91.4124
X157.4650 Y104.6000
X156.9038 Y105.1612
X143.1550 Y91.4124
X146.9203 Y87.6471
X162.3529 Y103.0797
X158.5876 Y106.8450
X156.9038 Y105.1612
X157.6538 Y104.4112 Z-1.9393
Z-1.3393
G00 Z1.5875
X163.9687 Y130.1285
G01 Z-0.3000  F1000.0
Z-0.9000
Y133.5312 Z-1.5000  F500.0
X164.5312  F1000.0
Y116.4687
X163.9687
Y133.5312
Y134.3250
X163.1750
Y115.6750
X165.3250
Y134.3250
X163.9687
Y135.1187
X166.1187
Y114.8812
X162.3812
Y135.1187
X163.9687
Y135.9125
X161.5875
Y114.0875
X166.9125
Y135.9125
X163.9687
G00 Z1.5875
Y133.5312
G01 Z-3.0000  F1000.0
X164.5312
Y116.4687
X163.9687
Y133.5312
Y134.3250
X163.1750
Y115.6750
X165.3250
Y134.3250
X163.9687
Y135.1187
X166.1187
Y114.8812
X162.3812
Y135.1187
X163.9687
Y135.9125
X161.5875
Y114.0875
X166.9125
Y135.9125
X163.9687
Y134.8518 Z-1.9393
Z-1.3393
G00 Z1.5875
X148.5309 Y156.5792
G01 Z-0.3000  F1000.0
Z-0.9000
X146.5226 Y158.5876 Z-1.4008  F500.0
X146.9203 Y158.9853 Z-1.5000
X158.9853 Y146.9203  F1000.0
X158.5876 Y146.5226
X146.5226 Y158.5876
X146.9203 Y158.9853
X146.3590 Y159.5466
X145.4000 Y158.5876
X158.5876 Y145.4000
X160.1079 Y146.9203
X146.9203 Y160.1079
X146.3590 Y159.5466
X145.7978 Y160.1079
X146.9203 Y161.2304
X161.2304 Y146.9203
X158.5876 Y144.2775
X144.2775 Y158.5876
X145.7978 Y160.1079
X145.2365 Y160.6691
X143.1550 Y158.5876
X158.5876 Y143.1550
X162.3529 Y146.9203
X146.9203 Y162.3529
X145.2365 Y160.6691
G00 Z1.5875
X146.9203 Y158.9853
G01 Z-3.0000  F1000.0
X158.9853 Y146.9203
X158.5876 Y146.5226
X146.5226 Y158.5876
X146.9203 Y158.9853
X146.3590 Y159.5466
X145.4000 Y158.5876
X158.5876 Y145.4000
X160.1079 Y146.9203
X146.9203 Y160.1079
X146.3590 Y159.5466
X145.7978 Y160.1079
X146.9203 Y161.2304
X161.2304 Y146.9203
X158.5876 Y144.2775
X144.2775 Y158.5876
X145.7978 Y160.1079
X145.2365 Y160.6691
X143.1550 Y158.5876
X158.5876 Y143.1550
X162.3529 Y146.9203
X146.9203 Y162.3529
X145.2365 Y160.6691
X145.9865 Y159.9191 Z-1.9393
Z-1.3393
G00 Z1.5875
X130.1285 Y164.5312
G01 Z-0.3000  F1000.0
Z-0.9000
X133.5312 Z-1.5000  F500.0
Y163.9687  F1000.0
X116.4687
Y164.5312
X133.5312
Y165.3250
X115.6750
Y163.1750
X134.3250
Y165.3250
X133.5312
Y166.1187
X135.1187
Y162.3812
X114.8812
Y166.1187
X133.5312
Y166.9125
X114.0875
Y161.5875
X135.9125
Y166.9125
X133.5312
G00 Z1.5875
Y164.5312
G01 Z-3.0000  F1000.0
Y163.9687
X116.4687
Y164.5312
X133.5312
Y165.3250
X115.6750
Y163.1750
X134.3250
Y165.3250
X133.5312
Y166.1187
X135.1187
Y162.3812
X114.8812
Y166.1187
X133.5312
Y166.9125
X114.0875
Y161.5875
X135.9125
Y166.9125
X133.5312
Y165.8518 Z-1.9393
Z-1.3393
G00 Z1.5875
X100.6736 Y156.5792
G01 Z-0.3000  F1000.0
Z-0.9000
X103.0797 Y158.9853 Z-1.5000  F500.0
X103.4774 Y158.5876  F1000.0
X91.4124 Y146.5226
X91.0147 Y146.9203
X103.0797 Y158.9853
X103.6410 Y159.5466
X103.0797 Y160.1079
X89.8921 Y146.9203
X91.4124 Y145.4000
X104.6000 Y158.5876
X103.6410 Y159.5466
X104.2022 Y160.1079
X105.7225 Y158.5876
X91.4124 Y144.2775
X88.7696 Y146.9203
X103.0797 Y161.2304
X104.2022 Y160.1079
X104.7635 Y160.6691
X103.0797 Y162.3529
X87.6471 Y146.9203
X91.4124 Y143.1550
X106.8450 Y158.5876
X104.7635 Y160.6691
G00 Z1.5875
X103.0797 Y158.9853
G01 Z-3.0000  F1000.0
X103.4774 Y158.5876
X91.4124 Y146.5226
X91.0147 Y146.9203
X103.0797 Y158.9853
X103.6410 Y159.5466
X103.0797 Y160.1079
X89.8921 Y146.9203
X91.4124 Y145.4000
X104.6000 Y158.5876
X103.6410 Y159.5466
X104.2022 Y160.1079
X105.7225 Y158.5876
X91.4124 Y144.2775
X88.7696 Y146.9203
X103.0797 Y161.2304
X104.2022 Y160.1079
X104.7635 Y160.6691
X103.0797 Y162.3529
X87.6471 Y146.9203
X91.4124 Y143.1550
X106.8450 Y158.5876
X104.7635 Y160.6691
X104.0135 Y159.9191 Z-1.9393
Z-1.3393
G00 Z1.5875
X85.4687 Y130.6910
G01 Z-0.3000  F1000.0
Z-0.9000
Y133.5312 Z-1.4008  F500.0
X86.0312 Z-1.5000
Y116.4687  F1000.0
X85.4687
Y133.5312
X86.0312
Y134.3250
X84.6750
Y115.6750
X86.8250
Y134.3250
X86.0312
Y135.1187
X87.6187
Y114.8812
X83.8812
Y135.1187
X86.0312
Y135.9125
X83.0875
Y114.0875
X88.4125
Y135.9125
X86.0312
G00 Z1.5875
Y133.5312
G01 Z-3.0000  F1000.0
Y116.4687
X85.4687
Y133.5312
X86.0312
Y134.3250
X84.6750
Y115.6750
X86.8250
Y134.3250
X86.0312
Y135.1187
X87.6187
Y114.8812
X83.8812
Y135.1187
X86.0312
Y135.9125
X83.0875
Y114.0875
X88.4125
Y135.9125
X86.0312
Y134.8518 Z-1.9393
Z-1.3393
G00 Z1.5875
(2 1/2 Axis Profiling)
(SlotDrill 1/8in 3.175mm Carbide Aluminium Cut)
X225.3584 Y202.1142
G01 Z-1.2300  F1000.0
X229.6017 Y196.2943 Z-2.5000  F500.0
G02X20.3983Y53.7057I-104.6017J-71.2943 F1000.0
X229.6017Y196.2943I104.6017J71.2943
G00 Z1.5875
X225.3584 Y202.1142
G01 Z-3.7300  F1000.0
X229.6017 Y196.2943 Z-5.0000  F500.0
G02X20.3983Y53.7057I-104.6017J-71.2943 F1000.0
X229.6017Y196.2943I104.6017J71.2943
G00 Z1.5875
X225.3584 Y202.1142
G01 Z-6.2300  F1000.0
X229.6017 Y196.2943 Z-7.5000  F500.0
G02X20.3983Y53.7057I-104.6017J-71.2943 F1000.0
X229.6017Y196.2943I104.6017J71.2943
G00 Z1.5875
X225.3584 Y202.1142
G01 Z-8.7300  F1000.0
X229.6017 Y196.2943 Z-10.0000  F500.0
G02X20.3983Y53.7057I-104.6017J-71.2943 F1000.0
X229.6017Y196.2943I104.6017J71.2943
G00 Z1.5875
X225.3584 Y202.1142
G01 Z-11.2300  F1000.0
X229.6017 Y196.2943 Z-12.5000  F500.0
G02X20.3983Y53.7057I-104.6017J-71.2943 F1000.0
X229.6017Y196.2943I104.6017J71.2943
G00 Z1.5875
M5 M9
M30
