G00 G49 G40.1 G17 G80 G50 G90
G21
(2 1/2 Axis Profiling)
(SlotDrill 2mm Carbide)
M6 T12
M03 S20000
G00 Z1.0000
X14.0745 Y15.8956
G01 Z0.7700  F1000.0
X14.1203 Y15.8287 Z0.7629  F25.4
X14.2150 Y15.6970 Z0.7487
X14.3127 Y15.5676 Z0.7345
X14.4134 Y15.4404 Z0.7203
X14.5171 Y15.3157 Z0.7061
X14.6236 Y15.1933 Z0.6920
X14.7328 Y15.0735 Z0.6778
X14.8449 Y14.9562 Z0.6636
X14.9596 Y14.8416 Z0.6494
X15.0770 Y14.7296 Z0.6352
X15.1969 Y14.6204 Z0.6210
X15.3193 Y14.5140 Z0.6068
X15.4441 Y14.4104 Z0.5926
X15.5713 Y14.3098 Z0.5784
X15.7008 Y14.2122 Z0.5642
X15.8326 Y14.1176 Z0.5501
X15.9665 Y14.0260 Z0.5359
X16.1024 Y13.9376 Z0.5217
X16.2404 Y13.8524 Z0.5075
X16.3804 Y13.7704 Z0.4933
X16.5221 Y13.6916 Z0.4791
X16.6657 Y13.6162 Z0.4649
X16.8110 Y13.5441 Z0.4507
X16.9579 Y13.4753 Z0.4365
X17.1064 Y13.4101 Z0.4223
X17.2563 Y13.3482 Z0.4082
X17.4077 Y13.2899 Z0.3940
X17.5603 Y13.2350 Z0.3798
X17.7142 Y13.1838 Z0.3656
X17.8692 Y13.1361 Z0.3514
X18.0253 Y13.0920 Z0.3372
X18.1823 Y13.0515 Z0.3230
X18.3403 Y13.0147 Z0.3088
X18.4991 Y12.9816 Z0.2946
X18.6586 Y12.9521 Z0.2804
X18.8187 Y12.9264 Z0.2663
X18.9794 Y12.9043 Z0.2521
X19.1405 Y12.8860 Z0.2379
X19.3021 Y12.8715 Z0.2237
X19.4639 Y12.8607 Z0.2095
X19.6259 Y12.8536 Z0.1953
X19.7881 Y12.8503 Z0.1811
X19.9503 Y12.8507 Z0.1669
X20.1124 Y12.8549 Z0.1527
X20.2744 Y12.8629 Z0.1385
X20.4362 Y12.8746 Z0.1244
X20.5976 Y12.8901 Z0.1102
X20.7587 Y12.9093 Z0.0960
X20.9193 Y12.9322 Z0.0818
X21.0793 Y12.9588 Z0.0676
X21.2386 Y12.9891 Z0.0534
X21.3972 Y13.0232 Z0.0392
X21.5549 Y13.0608 Z0.0250
X21.7118 Y13.1022 Z0.0108
X21.8676 Y13.1471 Z-0.0034
X22.0223 Y13.1957 Z-0.0175
X22.1759 Y13.2478 Z-0.0317
X22.3283 Y13.3034 Z-0.0459
X22.4793 Y13.3626 Z-0.0601
X22.6289 Y13.4253 Z-0.0743
X22.7770 Y13.4914 Z-0.0885
X22.9235 Y13.5609 Z-0.1027
X23.0684 Y13.6338 Z-0.1169
X23.2116 Y13.7101 Z-0.1311
X23.3529 Y13.7896 Z-0.1453
X23.4924 Y13.8724 Z-0.1594
X23.6299 Y13.9584 Z-0.1736
X23.7654 Y14.0476 Z-0.1878
X23.8988 Y14.1398 Z-0.2020
X24.0300 Y14.2352 Z-0.2162
X24.1589 Y14.3335 Z-0.2304
X24.2856 Y14.4348 Z-0.2446
X24.4099 Y14.5391 Z-0.2588
X24.5317 Y14.6461 Z-0.2730
X24.6510 Y14.7560 Z-0.2872
X24.7677 Y14.8686 Z-0.3013
X24.8818 Y14.9839 Z-0.3155
X24.9932 Y15.1018 Z-0.3297
X25.1018 Y15.2222 Z-0.3439
X25.2076 Y15.3452 Z-0.3581
X25.3106 Y15.4705 Z-0.3723
X25.4106 Y15.5982 Z-0.3865
X25.5076 Y15.7282 Z-0.4007
X25.6016 Y15.8604 Z-0.4149
X25.6925 Y15.9947 Z-0.4291
X25.7802 Y16.1311 Z-0.4432
X25.8648 Y16.2695 Z-0.4574
X25.9461 Y16.4098 Z-0.4716
X26.0242 Y16.5520 Z-0.4858
X26.0989 Y16.6959 Z-0.5000
X26.0992 Y16.6965  F100.0
G17
G03X26.3500Y17.2519I-6.1935J3.1311
G01 Y22.4481
G03X13.3500I-6.5000J-2.5981
G01 Y17.2519
G03X26.0989Y16.6959I6.4999J2.5979
G00 Z1.0000
X14.0745 Y15.8956
G01 Z0.2700  F1000.0
X14.1203 Y15.8287 Z0.2629  F25.4
X14.2150 Y15.6970 Z0.2487
X14.3127 Y15.5676 Z0.2345
X14.4134 Y15.4404 Z0.2203
X14.5171 Y15.3157 Z0.2061
X14.6236 Y15.1933 Z0.1920
X14.7328 Y15.0735 Z0.1778
X14.8449 Y14.9562 Z0.1636
X14.9596 Y14.8416 Z0.1494
X15.0770 Y14.7296 Z0.1352
X15.1969 Y14.6204 Z0.1210
X15.3193 Y14.5140 Z0.1068
X15.4441 Y14.4104 Z0.0926
X15.5713 Y14.3098 Z0.0784
X15.7008 Y14.2122 Z0.0642
X15.8326 Y14.1176 Z0.0501
X15.9665 Y14.0260 Z0.0359
X16.1024 Y13.9376 Z0.0217
X16.2404 Y13.8524 Z0.0075
X16.3804 Y13.7704 Z-0.0067
X16.5221 Y13.6916 Z-0.0209
X16.6657 Y13.6162 Z-0.0351
X16.8110 Y13.5441 Z-0.0493
X16.9579 Y13.4753 Z-0.0635
X17.1064 Y13.4101 Z-0.0777
X17.2563 Y13.3482 Z-0.0918
X17.4077 Y13.2899 Z-0.1060
X17.5603 Y13.2350 Z-0.1202
X17.7142 Y13.1838 Z-0.1344
X17.8692 Y13.1361 Z-0.1486
X18.0253 Y13.0920 Z-0.1628
X18.1823 Y13.0515 Z-0.1770
X18.3403 Y13.0147 Z-0.1912
X18.4991 Y12.9816 Z-0.2054
X18.6586 Y12.9521 Z-0.2196
X18.8187 Y12.9264 Z-0.2337
X18.9794 Y12.9043 Z-0.2479
X19.1405 Y12.8860 Z-0.2621
X19.3021 Y12.8715 Z-0.2763
X19.4639 Y12.8607 Z-0.2905
X19.6259 Y12.8536 Z-0.3047
X19.7881 Y12.8503 Z-0.3189
X19.9503 Y12.8507 Z-0.3331
X20.1124 Y12.8549 Z-0.3473
X20.2744 Y12.8629 Z-0.3615
X20.4362 Y12.8746 Z-0.3756
X20.5976 Y12.8901 Z-0.3898
X20.7587 Y12.9093 Z-0.4040
X20.9193 Y12.9322 Z-0.4182
X21.0793 Y12.9588 Z-0.4324
X21.2386 Y12.9891 Z-0.4466
X21.3972 Y13.0232 Z-0.4608
X21.5549 Y13.0608 Z-0.4750
X21.7118 Y13.1022 Z-0.4892
X21.8676 Y13.1471 Z-0.5034
X22.0223 Y13.1957 Z-0.5175
X22.1759 Y13.2478 Z-0.5317
X22.3283 Y13.3034 Z-0.5459
X22.4793 Y13.3626 Z-0.5601
X22.6289 Y13.4253 Z-0.5743
X22.7770 Y13.4914 Z-0.5885
X22.9235 Y13.5609 Z-0.6027
X23.0684 Y13.6338 Z-0.6169
X23.2116 Y13.7101 Z-0.6311
X23.3529 Y13.7896 Z-0.6453
X23.4924 Y13.8724 Z-0.6594
X23.6299 Y13.9584 Z-0.6736
X23.7654 Y14.0476 Z-0.6878
X23.8988 Y14.1398 Z-0.7020
X24.0300 Y14.2352 Z-0.7162
X24.1589 Y14.3335 Z-0.7304
X24.2856 Y14.4348 Z-0.7446
X24.4099 Y14.5391 Z-0.7588
X24.5317 Y14.6461 Z-0.7730
X24.6510 Y14.7560 Z-0.7872
X24.7677 Y14.8686 Z-0.8013
X24.8818 Y14.9839 Z-0.8155
X24.9932 Y15.1018 Z-0.8297
X25.1018 Y15.2222 Z-0.8439
X25.2076 Y15.3452 Z-0.8581
X25.3106 Y15.4705 Z-0.8723
X25.4106 Y15.5982 Z-0.8865
X25.5076 Y15.7282 Z-0.9007
X25.6016 Y15.8604 Z-0.9149
X25.6925 Y15.9947 Z-0.9291
X25.7802 Y16.1311 Z-0.9432
X25.8648 Y16.2695 Z-0.9574
X25.9461 Y16.4098 Z-0.9716
X26.0242 Y16.5520 Z-0.9858
X26.0989 Y16.6959 Z-1.0000
X26.0992 Y16.6965  F100.0
G03X26.3500Y17.2519I-6.1935J3.1311
G01 Y22.4481
G03X13.3500I-6.5000J-2.5981
G01 Y17.2519
G03X26.0989Y16.6959I6.4999J2.5979
G00 Z1.0000
X14.0745 Y15.8956
G01 Z-0.2300  F1000.0
X14.1203 Y15.8287 Z-0.2371  F25.4
X14.2150 Y15.6970 Z-0.2513
X14.3127 Y15.5676 Z-0.2655
X14.4134 Y15.4404 Z-0.2797
X14.5171 Y15.3157 Z-0.2939
X14.6236 Y15.1933 Z-0.3080
X14.7328 Y15.0735 Z-0.3222
X14.8449 Y14.9562 Z-0.3364
X14.9596 Y14.8416 Z-0.3506
X15.0770 Y14.7296 Z-0.3648
X15.1969 Y14.6204 Z-0.3790
X15.3193 Y14.5140 Z-0.3932
X15.4441 Y14.4104 Z-0.4074
X15.5713 Y14.3098 Z-0.4216
X15.7008 Y14.2122 Z-0.4358
X15.8326 Y14.1176 Z-0.4499
X15.9665 Y14.0260 Z-0.4641
X16.1024 Y13.9376 Z-0.4783
X16.2404 Y13.8524 Z-0.4925
X16.3804 Y13.7704 Z-0.5067
X16.5221 Y13.6916 Z-0.5209
X16.6657 Y13.6162 Z-0.5351
X16.8110 Y13.5441 Z-0.5493
X16.9579 Y13.4753 Z-0.5635
X17.1064 Y13.4101 Z-0.5777
X17.2563 Y13.3482 Z-0.5918
X17.4077 Y13.2899 Z-0.6060
X17.5603 Y13.2350 Z-0.6202
X17.7142 Y13.1838 Z-0.6344
X17.8692 Y13.1361 Z-0.6486
X18.0253 Y13.0920 Z-0.6628
X18.1823 Y13.0515 Z-0.6770
X18.3403 Y13.0147 Z-0.6912
X18.4991 Y12.9816 Z-0.7054
X18.6586 Y12.9521 Z-0.7196
X18.8187 Y12.9264 Z-0.7337
X18.9794 Y12.9043 Z-0.7479
X19.1405 Y12.8860 Z-0.7621
X19.3021 Y12.8715 Z-0.7763
X19.4639 Y12.8607 Z-0.7905
X19.6259 Y12.8536 Z-0.8047
X19.7881 Y12.8503 Z-0.8189
X19.9503 Y12.8507 Z-0.8331
X20.1124 Y12.8549 Z-0.8473
X20.2744 Y12.8629 Z-0.8615
X20.4362 Y12.8746 Z-0.8756
X20.5976 Y12.8901 Z-0.8898
X20.7587 Y12.9093 Z-0.9040
X20.9193 Y12.9322 Z-0.9182
X21.0793 Y12.9588 Z-0.9324
X21.2386 Y12.9891 Z-0.9466
X21.3972 Y13.0232 Z-0.9608
X21.5549 Y13.0608 Z-0.9750
X21.7118 Y13.1022 Z-0.9892
X21.8676 Y13.1471 Z-1.0034
X22.0223 Y13.1957 Z-1.0175
X22.1759 Y13.2478 Z-1.0317
X22.3283 Y13.3034 Z-1.0459
X22.4793 Y13.3626 Z-1.0601
X22.6289 Y13.4253 Z-1.0743
X22.7770 Y13.4914 Z-1.0885
X22.9235 Y13.5609 Z-1.1027
X23.0684 Y13.6338 Z-1.1169
X23.2116 Y13.7101 Z-1.1311
X23.3529 Y13.7896 Z-1.1453
X23.4924 Y13.8724 Z-1.1594
X23.6299 Y13.9584 Z-1.1736
X23.7654 Y14.0476 Z-1.1878
X23.8988 Y14.1398 Z-1.2020
X24.0300 Y14.2352 Z-1.2162
X24.1589 Y14.3335 Z-1.2304
X24.2856 Y14.4348 Z-1.2446
X24.4099 Y14.5391 Z-1.2588
X24.5317 Y14.6461 Z-1.2730
X24.6510 Y14.7560 Z-1.2872
X24.7677 Y14.8686 Z-1.3013
X24.8818 Y14.9839 Z-1.3155
X24.9932 Y15.1018 Z-1.3297
X25.1018 Y15.2222 Z-1.3439
X25.2076 Y15.3452 Z-1.3581
X25.3106 Y15.4705 Z-1.3723
X25.4106 Y15.5982 Z-1.3865
X25.5076 Y15.7282 Z-1.4007
X25.6016 Y15.8604 Z-1.4149
X25.6925 Y15.9947 Z-1.4291
X25.7802 Y16.1311 Z-1.4432
X25.8648 Y16.2695 Z-1.4574
X25.9461 Y16.4098 Z-1.4716
X26.0242 Y16.5520 Z-1.4858
X26.0989 Y16.6959 Z-1.5000
X26.0992 Y16.6965  F100.0
G03X26.3500Y17.2519I-6.1935J3.1311
G01 Y22.4481
G03X13.3500I-6.5000J-2.5981
G01 Y17.2519
G03X26.0989Y16.6959I6.4999J2.5979
G00 Z1.0000
X14.0745 Y15.8956
G01 Z-0.7300  F1000.0
X14.1203 Y15.8287 Z-0.7371  F25.4
X14.2150 Y15.6970 Z-0.7513
X14.3127 Y15.5676 Z-0.7655
X14.4134 Y15.4404 Z-0.7797
X14.5171 Y15.3157 Z-0.7939
X14.6236 Y15.1933 Z-0.8080
X14.7328 Y15.0735 Z-0.8222
X14.8449 Y14.9562 Z-0.8364
X14.9596 Y14.8416 Z-0.8506
X15.0770 Y14.7296 Z-0.8648
X15.1969 Y14.6204 Z-0.8790
X15.3193 Y14.5140 Z-0.8932
X15.4441 Y14.4104 Z-0.9074
X15.5713 Y14.3098 Z-0.9216
X15.7008 Y14.2122 Z-0.9358
X15.8326 Y14.1176 Z-0.9499
X15.9665 Y14.0260 Z-0.9641
X16.1024 Y13.9376 Z-0.9783
X16.2404 Y13.8524 Z-0.9925
X16.3804 Y13.7704 Z-1.0067
X16.5221 Y13.6916 Z-1.0209
X16.6657 Y13.6162 Z-1.0351
X16.8110 Y13.5441 Z-1.0493
X16.9579 Y13.4753 Z-1.0635
X17.1064 Y13.4101 Z-1.0777
X17.2563 Y13.3482 Z-1.0918
X17.4077 Y13.2899 Z-1.1060
X17.5603 Y13.2350 Z-1.1202
X17.7142 Y13.1838 Z-1.1344
X17.8692 Y13.1361 Z-1.1486
X18.0253 Y13.0920 Z-1.1628
X18.1823 Y13.0515 Z-1.1770
X18.3403 Y13.0147 Z-1.1912
X18.4991 Y12.9816 Z-1.2054
X18.6586 Y12.9521 Z-1.2196
X18.8187 Y12.9264 Z-1.2337
X18.9794 Y12.9043 Z-1.2479
X19.1405 Y12.8860 Z-1.2621
X19.3021 Y12.8715 Z-1.2763
X19.4639 Y12.8607 Z-1.2905
X19.6259 Y12.8536 Z-1.3047
X19.7881 Y12.8503 Z-1.3189
X19.9503 Y12.8507 Z-1.3331
X20.1124 Y12.8549 Z-1.3473
X20.2744 Y12.8629 Z-1.3615
X20.4362 Y12.8746 Z-1.3756
X20.5976 Y12.8901 Z-1.3898
X20.7587 Y12.9093 Z-1.4040
X20.9193 Y12.9322 Z-1.4182
X21.0793 Y12.9588 Z-1.4324
X21.2386 Y12.9891 Z-1.4466
X21.3972 Y13.0232 Z-1.4608
X21.5549 Y13.0608 Z-1.4750
X21.7118 Y13.1022 Z-1.4892
X21.8676 Y13.1471 Z-1.5034
X22.0223 Y13.1957 Z-1.5175
X22.1759 Y13.2478 Z-1.5317
X22.3283 Y13.3034 Z-1.5459
X22.4793 Y13.3626 Z-1.5601
X22.6289 Y13.4253 Z-1.5743
X22.7770 Y13.4914 Z-1.5885
X22.9235 Y13.5609 Z-1.6027
X23.0684 Y13.6338 Z-1.6169
X23.2116 Y13.7101 Z-1.6311
X23.3529 Y13.7896 Z-1.6453
X23.4924 Y13.8724 Z-1.6594
X23.6299 Y13.9584 Z-1.6736
X23.7654 Y14.0476 Z-1.6878
X23.8988 Y14.1398 Z-1.7020
X24.0300 Y14.2352 Z-1.7162
X24.1589 Y14.3335 Z-1.7304
X24.2856 Y14.4348 Z-1.7446
X24.4099 Y14.5391 Z-1.7588
X24.5317 Y14.6461 Z-1.7730
X24.6510 Y14.7560 Z-1.7872
X24.7677 Y14.8686 Z-1.8013
X24.8818 Y14.9839 Z-1.8155
X24.9932 Y15.1018 Z-1.8297
X25.1018 Y15.2222 Z-1.8439
X25.2076 Y15.3452 Z-1.8581
X25.3106 Y15.4705 Z-1.8723
X25.4106 Y15.5982 Z-1.8865
X25.5076 Y15.7282 Z-1.9007
X25.6016 Y15.8604 Z-1.9149
X25.6925 Y15.9947 Z-1.9291
X25.7802 Y16.1311 Z-1.9432
X25.8648 Y16.2695 Z-1.9574
X25.9461 Y16.4098 Z-1.9716
X26.0242 Y16.5520 Z-1.9858
X26.0989 Y16.6959 Z-2.0000
X26.0992 Y16.6965  F100.0
G03X26.3500Y17.2519I-6.1935J3.1311
G01 Y22.4481
G03X13.3500I-6.5000J-2.5981
G01 Y17.2519
G03X26.0989Y16.6959I6.4999J2.5979
G00 Z1.0000
X14.0745 Y15.8956
G01 Z-1.2300  F1000.0
X14.1203 Y15.8287 Z-1.2371  F25.4
X14.2150 Y15.6970 Z-1.2513
X14.3127 Y15.5676 Z-1.2655
X14.4134 Y15.4404 Z-1.2797
X14.5171 Y15.3157 Z-1.2939
X14.6236 Y15.1933 Z-1.3080
X14.7328 Y15.0735 Z-1.3222
X14.8449 Y14.9562 Z-1.3364
X14.9596 Y14.8416 Z-1.3506
X15.0770 Y14.7296 Z-1.3648
X15.1969 Y14.6204 Z-1.3790
X15.3193 Y14.5140 Z-1.3932
X15.4441 Y14.4104 Z-1.4074
X15.5713 Y14.3098 Z-1.4216
X15.7008 Y14.2122 Z-1.4358
X15.8326 Y14.1176 Z-1.4499
X15.9665 Y14.0260 Z-1.4641
X16.1024 Y13.9376 Z-1.4783
X16.2404 Y13.8524 Z-1.4925
X16.3804 Y13.7704 Z-1.5067
X16.5221 Y13.6916 Z-1.5209
X16.6657 Y13.6162 Z-1.5351
X16.8110 Y13.5441 Z-1.5493
X16.9579 Y13.4753 Z-1.5635
X17.1064 Y13.4101 Z-1.5777
X17.2563 Y13.3482 Z-1.5918
X17.4077 Y13.2899 Z-1.6060
X17.5603 Y13.2350 Z-1.6202
X17.7142 Y13.1838 Z-1.6344
X17.8692 Y13.1361 Z-1.6486
X18.0253 Y13.0920 Z-1.6628
X18.1823 Y13.0515 Z-1.6770
X18.3403 Y13.0147 Z-1.6912
X18.4991 Y12.9816 Z-1.7054
X18.6586 Y12.9521 Z-1.7196
X18.8187 Y12.9264 Z-1.7337
X18.9794 Y12.9043 Z-1.7479
X19.1405 Y12.8860 Z-1.7621
X19.3021 Y12.8715 Z-1.7763
X19.4639 Y12.8607 Z-1.7905
X19.6259 Y12.8536 Z-1.8047
X19.7881 Y12.8503 Z-1.8189
X19.9503 Y12.8507 Z-1.8331
X20.1124 Y12.8549 Z-1.8473
X20.2744 Y12.8629 Z-1.8615
X20.4362 Y12.8746 Z-1.8756
X20.5976 Y12.8901 Z-1.8898
X20.7587 Y12.9093 Z-1.9040
X20.9193 Y12.9322 Z-1.9182
X21.0793 Y12.9588 Z-1.9324
X21.2386 Y12.9891 Z-1.9466
X21.3972 Y13.0232 Z-1.9608
X21.5549 Y13.0608 Z-1.9750
X21.7118 Y13.1022 Z-1.9892
X21.8676 Y13.1471 Z-2.0034
X22.0223 Y13.1957 Z-2.0175
X22.1759 Y13.2478 Z-2.0317
X22.3283 Y13.3034 Z-2.0459
X22.4793 Y13.3626 Z-2.0601
X22.6289 Y13.4253 Z-2.0743
X22.7770 Y13.4914 Z-2.0885
X22.9235 Y13.5609 Z-2.1027
X23.0684 Y13.6338 Z-2.1169
X23.2116 Y13.7101 Z-2.1311
X23.3529 Y13.7896 Z-2.1453
X23.4924 Y13.8724 Z-2.1594
X23.6299 Y13.9584 Z-2.1736
X23.7654 Y14.0476 Z-2.1878
X23.8988 Y14.1398 Z-2.2020
X24.0300 Y14.2352 Z-2.2162
X24.1589 Y14.3335 Z-2.2304
X24.2856 Y14.4348 Z-2.2446
X24.4099 Y14.5391 Z-2.2588
X24.5317 Y14.6461 Z-2.2730
X24.6510 Y14.7560 Z-2.2872
X24.7677 Y14.8686 Z-2.3013
X24.8818 Y14.9839 Z-2.3155
X24.9932 Y15.1018 Z-2.3297
X25.1018 Y15.2222 Z-2.3439
X25.2076 Y15.3452 Z-2.3581
X25.3106 Y15.4705 Z-2.3723
X25.4106 Y15.5982 Z-2.3865
X25.5076 Y15.7282 Z-2.4007
X25.6016 Y15.8604 Z-2.4149
X25.6925 Y15.9947 Z-2.4291
X25.7802 Y16.1311 Z-2.4432
X25.8648 Y16.2695 Z-2.4574
X25.9461 Y16.4098 Z-2.4716
X26.0242 Y16.5520 Z-2.4858
X26.0989 Y16.6959 Z-2.5000
X26.0992 Y16.6965  F100.0
G03X26.3500Y17.2519I-6.1935J3.1311
G01 Y22.4481
G03X13.3500I-6.5000J-2.5981
G01 Y17.2519
G03X26.0989Y16.6959I6.4999J2.5979
G00 Z1.0000
X14.0745 Y15.8956
G01 Z-1.7300  F1000.0
X14.1203 Y15.8287 Z-1.7371  F25.4
X14.2150 Y15.6970 Z-1.7513
X14.3127 Y15.5676 Z-1.7655
X14.4134 Y15.4404 Z-1.7797
X14.5171 Y15.3157 Z-1.7939
X14.6236 Y15.1933 Z-1.8080
X14.7328 Y15.0735 Z-1.8222
X14.8449 Y14.9562 Z-1.8364
X14.9596 Y14.8416 Z-1.8506
X15.0770 Y14.7296 Z-1.8648
X15.1969 Y14.6204 Z-1.8790
X15.3193 Y14.5140 Z-1.8932
X15.4441 Y14.4104 Z-1.9074
X15.5713 Y14.3098 Z-1.9216
X15.7008 Y14.2122 Z-1.9358
X15.8326 Y14.1176 Z-1.9499
X15.9665 Y14.0260 Z-1.9641
X16.1024 Y13.9376 Z-1.9783
X16.2404 Y13.8524 Z-1.9925
X16.3804 Y13.7704 Z-2.0067
X16.5221 Y13.6916 Z-2.0209
X16.6657 Y13.6162 Z-2.0351
X16.8110 Y13.5441 Z-2.0493
X16.9579 Y13.4753 Z-2.0635
X17.1064 Y13.4101 Z-2.0777
X17.2563 Y13.3482 Z-2.0918
X17.4077 Y13.2899 Z-2.1060
X17.5603 Y13.2350 Z-2.1202
X17.7142 Y13.1838 Z-2.1344
X17.8692 Y13.1361 Z-2.1486
X18.0253 Y13.0920 Z-2.1628
X18.1823 Y13.0515 Z-2.1770
X18.3403 Y13.0147 Z-2.1912
X18.4991 Y12.9816 Z-2.2054
X18.6586 Y12.9521 Z-2.2196
X18.8187 Y12.9264 Z-2.2337
X18.9794 Y12.9043 Z-2.2479
X19.1405 Y12.8860 Z-2.2621
X19.3021 Y12.8715 Z-2.2763
X19.4639 Y12.8607 Z-2.2905
X19.6259 Y12.8536 Z-2.3047
X19.7881 Y12.8503 Z-2.3189
X19.9503 Y12.8507 Z-2.3331
X20.1124 Y12.8549 Z-2.3473
X20.2744 Y12.8629 Z-2.3615
X20.4362 Y12.8746 Z-2.3756
X20.5976 Y12.8901 Z-2.3898
X20.7587 Y12.9093 Z-2.4040
X20.9193 Y12.9322 Z-2.4182
X21.0793 Y12.9588 Z-2.4324
X21.2386 Y12.9891 Z-2.4466
X21.3972 Y13.0232 Z-2.4608
X21.5549 Y13.0608 Z-2.4750
X21.7118 Y13.1022 Z-2.4892
X21.8676 Y13.1471 Z-2.5034
X22.0223 Y13.1957 Z-2.5175
X22.1759 Y13.2478 Z-2.5317
X22.3283 Y13.3034 Z-2.5459
X22.4793 Y13.3626 Z-2.5601
X22.6289 Y13.4253 Z-2.5743
X22.7770 Y13.4914 Z-2.5885
X22.9235 Y13.5609 Z-2.6027
X23.0684 Y13.6338 Z-2.6169
X23.2116 Y13.7101 Z-2.6311
X23.3529 Y13.7896 Z-2.6453
X23.4924 Y13.8724 Z-2.6594
X23.6299 Y13.9584 Z-2.6736
X23.7654 Y14.0476 Z-2.6878
X23.8988 Y14.1398 Z-2.7020
X24.0300 Y14.2352 Z-2.7162
X24.1589 Y14.3335 Z-2.7304
X24.2856 Y14.4348 Z-2.7446
X24.4099 Y14.5391 Z-2.7588
X24.5317 Y14.6461 Z-2.7730
X24.6510 Y14.7560 Z-2.7872
X24.7677 Y14.8686 Z-2.8013
X24.8818 Y14.9839 Z-2.8155
X24.9932 Y15.1018 Z-2.8297
X25.1018 Y15.2222 Z-2.8439
X25.2076 Y15.3452 Z-2.8581
X25.3106 Y15.4705 Z-2.8723
X25.4106 Y15.5982 Z-2.8865
X25.5076 Y15.7282 Z-2.9007
X25.6016 Y15.8604 Z-2.9149
X25.6925 Y15.9947 Z-2.9291
X25.7802 Y16.1311 Z-2.9432
X25.8648 Y16.2695 Z-2.9574
X25.9461 Y16.4098 Z-2.9716
X26.0242 Y16.5520 Z-2.9858
X26.0989 Y16.6959 Z-3.0000
X26.0992 Y16.6965  F100.0
G03X26.3500Y17.2519I-6.1935J3.1311
G01 Y22.4481
G03X13.3500I-6.5000J-2.5981
G01 Y17.2519
G03X26.0989Y16.6959I6.4999J2.5979
G00 Z1.0000
X69.0689 Y26.8060
G01 Z0.7700  F1000.0
X68.9267 Y26.7888 Z0.7575  F25.4
X68.7601 Y26.7646 Z0.7427
X68.5941 Y26.7364 Z0.7280
X68.4289 Y26.7042 Z0.7133
X68.2645 Y26.6681 Z0.6986
X68.1010 Y26.6280 Z0.6838
X67.9385 Y26.5839 Z0.6691
X67.7771 Y26.5360 Z0.6544
X67.6169 Y26.4842 Z0.6396
X67.4580 Y26.4286 Z0.6249
X67.3004 Y26.3692 Z0.6102
X67.1444 Y26.3060 Z0.5954
X66.9899 Y26.2391 Z0.5807
X66.8371 Y26.1684 Z0.5660
X66.6860 Y26.0941 Z0.5513
X66.5368 Y26.0162 Z0.5365
X66.3894 Y25.9348 Z0.5218
X66.2441 Y25.8498 Z0.5071
X66.1009 Y25.7613 Z0.4923
X65.9598 Y25.6695 Z0.4776
X65.8210 Y25.5742 Z0.4629
X65.6845 Y25.4757 Z0.4482
X65.5504 Y25.3739 Z0.4334
X65.4188 Y25.2689 Z0.4187
X65.2897 Y25.1607 Z0.4040
X65.1633 Y25.0495 Z0.3892
X65.0396 Y24.9353 Z0.3745
X64.9187 Y24.8182 Z0.3598
X64.8007 Y24.6981 Z0.3451
X64.6855 Y24.5753 Z0.3303
X64.5734 Y24.4497 Z0.3156
X64.4643 Y24.3215 Z0.3009
X64.3583 Y24.1907 Z0.2861
X64.2555 Y24.0574 Z0.2714
X64.1560 Y23.9216 Z0.2567
X64.0597 Y23.7835 Z0.2419
X63.9668 Y23.6431 Z0.2272
X63.8773 Y23.5005 Z0.2125
X63.7912 Y23.3558 Z0.1978
X63.7086 Y23.2091 Z0.1830
X63.6296 Y23.0604 Z0.1683
X63.5542 Y22.9099 Z0.1536
X63.4824 Y22.7576 Z0.1388
X63.4144 Y22.6036 Z0.1241
X63.3500 Y22.4481 Z0.1094
Y17.2519 Z-0.3452
X63.3947 Y17.1428 Z-0.3555
X63.4412 Y17.0344 Z-0.3659
X63.4896 Y16.9268 Z-0.3762
X63.5397 Y16.8201 Z-0.3865
X63.5917 Y16.7142 Z-0.3968
X63.6454 Y16.6092 Z-0.4071
X63.7009 Y16.5051 Z-0.4175
X63.7581 Y16.4020 Z-0.4278
X63.8171 Y16.2998 Z-0.4381
X63.8777 Y16.1987 Z-0.4484
X63.9401 Y16.0986 Z-0.4587
X64.0041 Y15.9995 Z-0.4690
X64.0699 Y15.9016 Z-0.4794
X64.1372 Y15.8048 Z-0.4897
X64.2062 Y15.7091 Z-0.5000
G03X76.3500Y17.2519I5.6438J4.1409 F100.0
G01 Y22.4481
G03X63.3500I-6.5000J-2.5981
G01 Y17.2519
G03X64.2062Y15.7091I6.4999J2.5981
G00 Z1.0000
X69.0689 Y26.8060
G01 Z0.2700  F1000.0
X68.9267 Y26.7888 Z0.2575  F25.4
X68.7601 Y26.7646 Z0.2427
X68.5941 Y26.7364 Z0.2280
X68.4289 Y26.7042 Z0.2133
X68.2645 Y26.6681 Z0.1986
X68.1010 Y26.6280 Z0.1838
X67.9385 Y26.5839 Z0.1691
X67.7771 Y26.5360 Z0.1544
X67.6169 Y26.4842 Z0.1396
X67.4580 Y26.4286 Z0.1249
X67.3004 Y26.3692 Z0.1102
X67.1444 Y26.3060 Z0.0954
X66.9899 Y26.2391 Z0.0807
X66.8371 Y26.1684 Z0.0660
X66.6860 Y26.0941 Z0.0513
X66.5368 Y26.0162 Z0.0365
X66.3894 Y25.9348 Z0.0218
X66.2441 Y25.8498 Z0.0071
X66.1009 Y25.7613 Z-0.0077
X65.9598 Y25.6695 Z-0.0224
X65.8210 Y25.5742 Z-0.0371
X65.6845 Y25.4757 Z-0.0518
X65.5504 Y25.3739 Z-0.0666
X65.4188 Y25.2689 Z-0.0813
X65.2897 Y25.1607 Z-0.0960
X65.1633 Y25.0495 Z-0.1108
X65.0396 Y24.9353 Z-0.1255
X64.9187 Y24.8182 Z-0.1402
X64.8007 Y24.6981 Z-0.1549
X64.6855 Y24.5753 Z-0.1697
X64.5734 Y24.4497 Z-0.1844
X64.4643 Y24.3215 Z-0.1991
X64.3583 Y24.1907 Z-0.2139
X64.2555 Y24.0574 Z-0.2286
X64.1560 Y23.9216 Z-0.2433
X64.0597 Y23.7835 Z-0.2581
X63.9668 Y23.6431 Z-0.2728
X63.8773 Y23.5005 Z-0.2875
X63.7912 Y23.3558 Z-0.3022
X63.7086 Y23.2091 Z-0.3170
X63.6296 Y23.0604 Z-0.3317
X63.5542 Y22.9099 Z-0.3464
X63.4824 Y22.7576 Z-0.3612
X63.4144 Y22.6036 Z-0.3759
X63.3500 Y22.4481 Z-0.3906
Y17.2519 Z-0.8452
X63.3947 Y17.1428 Z-0.8555
X63.4412 Y17.0344 Z-0.8659
X63.4896 Y16.9268 Z-0.8762
X63.5397 Y16.8201 Z-0.8865
X63.5917 Y16.7142 Z-0.8968
X63.6454 Y16.6092 Z-0.9071
X63.7009 Y16.5051 Z-0.9175
X63.7581 Y16.4020 Z-0.9278
X63.8171 Y16.2998 Z-0.9381
X63.8777 Y16.1987 Z-0.9484
X63.9401 Y16.0986 Z-0.9587
X64.0041 Y15.9995 Z-0.9690
X64.0699 Y15.9016 Z-0.9794
X64.1372 Y15.8048 Z-0.9897
X64.2062 Y15.7091 Z-1.0000
G03X76.3500Y17.2519I5.6438J4.1409 F100.0
G01 Y22.4481
G03X63.3500I-6.5000J-2.5981
G01 Y17.2519
G03X64.2062Y15.7091I6.4999J2.5981
G00 Z1.0000
X69.0689 Y26.8060
G01 Z-0.2300  F1000.0
X68.9267 Y26.7888 Z-0.2425  F25.4
X68.7601 Y26.7646 Z-0.2573
X68.5941 Y26.7364 Z-0.2720
X68.4289 Y26.7042 Z-0.2867
X68.2645 Y26.6681 Z-0.3014
X68.1010 Y26.6280 Z-0.3162
X67.9385 Y26.5839 Z-0.3309
X67.7771 Y26.5360 Z-0.3456
X67.6169 Y26.4842 Z-0.3604
X67.4580 Y26.4286 Z-0.3751
X67.3004 Y26.3692 Z-0.3898
X67.1444 Y26.3060 Z-0.4046
X66.9899 Y26.2391 Z-0.4193
X66.8371 Y26.1684 Z-0.4340
X66.6860 Y26.0941 Z-0.4487
X66.5368 Y26.0162 Z-0.4635
X66.3894 Y25.9348 Z-0.4782
X66.2441 Y25.8498 Z-0.4929
X66.1009 Y25.7613 Z-0.5077
X65.9598 Y25.6695 Z-0.5224
X65.8210 Y25.5742 Z-0.5371
X65.6845 Y25.4757 Z-0.5518
X65.5504 Y25.3739 Z-0.5666
X65.4188 Y25.2689 Z-0.5813
X65.2897 Y25.1607 Z-0.5960
X65.1633 Y25.0495 Z-0.6108
X65.0396 Y24.9353 Z-0.6255
X64.9187 Y24.8182 Z-0.6402
X64.8007 Y24.6981 Z-0.6549
X64.6855 Y24.5753 Z-0.6697
X64.5734 Y24.4497 Z-0.6844
X64.4643 Y24.3215 Z-0.6991
X64.3583 Y24.1907 Z-0.7139
X64.2555 Y24.0574 Z-0.7286
X64.1560 Y23.9216 Z-0.7433
X64.0597 Y23.7835 Z-0.7581
X63.9668 Y23.6431 Z-0.7728
X63.8773 Y23.5005 Z-0.7875
X63.7912 Y23.3558 Z-0.8022
X63.7086 Y23.2091 Z-0.8170
X63.6296 Y23.0604 Z-0.8317
X63.5542 Y22.9099 Z-0.8464
X63.4824 Y22.7576 Z-0.8612
X63.4144 Y22.6036 Z-0.8759
X63.3500 Y22.4481 Z-0.8906
Y17.2519 Z-1.3452
X63.3947 Y17.1428 Z-1.3555
X63.4412 Y17.0344 Z-1.3659
X63.4896 Y16.9268 Z-1.3762
X63.5397 Y16.8201 Z-1.3865
X63.5917 Y16.7142 Z-1.3968
X63.6454 Y16.6092 Z-1.4071
X63.7009 Y16.5051 Z-1.4175
X63.7581 Y16.4020 Z-1.4278
X63.8171 Y16.2998 Z-1.4381
X63.8777 Y16.1987 Z-1.4484
X63.9401 Y16.0986 Z-1.4587
X64.0041 Y15.9995 Z-1.4690
X64.0699 Y15.9016 Z-1.4794
X64.1372 Y15.8048 Z-1.4897
X64.2062 Y15.7091 Z-1.5000
G03X76.3500Y17.2519I5.6438J4.1409 F100.0
G01 Y22.4481
G03X63.3500I-6.5000J-2.5981
G01 Y17.2519
G03X64.2062Y15.7091I6.4999J2.5981
G00 Z1.0000
X69.0689 Y26.8060
G01 Z-0.7300  F1000.0
X68.9267 Y26.7888 Z-0.7425  F25.4
X68.7601 Y26.7646 Z-0.7573
X68.5941 Y26.7364 Z-0.7720
X68.4289 Y26.7042 Z-0.7867
X68.2645 Y26.6681 Z-0.8014
X68.1010 Y26.6280 Z-0.8162
X67.9385 Y26.5839 Z-0.8309
X67.7771 Y26.5360 Z-0.8456
X67.6169 Y26.4842 Z-0.8604
X67.4580 Y26.4286 Z-0.8751
X67.3004 Y26.3692 Z-0.8898
X67.1444 Y26.3060 Z-0.9046
X66.9899 Y26.2391 Z-0.9193
X66.8371 Y26.1684 Z-0.9340
X66.6860 Y26.0941 Z-0.9487
X66.5368 Y26.0162 Z-0.9635
X66.3894 Y25.9348 Z-0.9782
X66.2441 Y25.8498 Z-0.9929
X66.1009 Y25.7613 Z-1.0077
X65.9598 Y25.6695 Z-1.0224
X65.8210 Y25.5742 Z-1.0371
X65.6845 Y25.4757 Z-1.0518
X65.5504 Y25.3739 Z-1.0666
X65.4188 Y25.2689 Z-1.0813
X65.2897 Y25.1607 Z-1.0960
X65.1633 Y25.0495 Z-1.1108
X65.0396 Y24.9353 Z-1.1255
X64.9187 Y24.8182 Z-1.1402
X64.8007 Y24.6981 Z-1.1549
X64.6855 Y24.5753 Z-1.1697
X64.5734 Y24.4497 Z-1.1844
X64.4643 Y24.3215 Z-1.1991
X64.3583 Y24.1907 Z-1.2139
X64.2555 Y24.0574 Z-1.2286
X64.1560 Y23.9216 Z-1.2433
X64.0597 Y23.7835 Z-1.2581
X63.9668 Y23.6431 Z-1.2728
X63.8773 Y23.5005 Z-1.2875
X63.7912 Y23.3558 Z-1.3022
X63.7086 Y23.2091 Z-1.3170
X63.6296 Y23.0604 Z-1.3317
X63.5542 Y22.9099 Z-1.3464
X63.4824 Y22.7576 Z-1.3612
X63.4144 Y22.6036 Z-1.3759
X63.3500 Y22.4481 Z-1.3906
Y17.2519 Z-1.8452
X63.3947 Y17.1428 Z-1.8555
X63.4412 Y17.0344 Z-1.8659
X63.4896 Y16.9268 Z-1.8762
X63.5397 Y16.8201 Z-1.8865
X63.5917 Y16.7142 Z-1.8968
X63.6454 Y16.6092 Z-1.9071
X63.7009 Y16.5051 Z-1.9175
X63.7581 Y16.4020 Z-1.9278
X63.8171 Y16.2998 Z-1.9381
X63.8777 Y16.1987 Z-1.9484
X63.9401 Y16.0986 Z-1.9587
X64.0041 Y15.9995 Z-1.9690
X64.0699 Y15.9016 Z-1.9794
X64.1372 Y15.8048 Z-1.9897
X64.2062 Y15.7091 Z-2.0000
G03X76.3500Y17.2519I5.6438J4.1409 F100.0
G01 Y22.4481
G03X63.3500I-6.5000J-2.5981
G01 Y17.2519
G03X64.2062Y15.7091I6.4999J2.5981
G00 Z1.0000
X69.0689 Y26.8060
G01 Z-1.2300  F1000.0
X68.9267 Y26.7888 Z-1.2425  F25.4
X68.7601 Y26.7646 Z-1.2573
X68.5941 Y26.7364 Z-1.2720
X68.4289 Y26.7042 Z-1.2867
X68.2645 Y26.6681 Z-1.3014
X68.1010 Y26.6280 Z-1.3162
X67.9385 Y26.5839 Z-1.3309
X67.7771 Y26.5360 Z-1.3456
X67.6169 Y26.4842 Z-1.3604
X67.4580 Y26.4286 Z-1.3751
X67.3004 Y26.3692 Z-1.3898
X67.1444 Y26.3060 Z-1.4046
X66.9899 Y26.2391 Z-1.4193
X66.8371 Y26.1684 Z-1.4340
X66.6860 Y26.0941 Z-1.4487
X66.5368 Y26.0162 Z-1.4635
X66.3894 Y25.9348 Z-1.4782
X66.2441 Y25.8498 Z-1.4929
X66.1009 Y25.7613 Z-1.5077
X65.9598 Y25.6695 Z-1.5224
X65.8210 Y25.5742 Z-1.5371
X65.6845 Y25.4757 Z-1.5518
X65.5504 Y25.3739 Z-1.5666
X65.4188 Y25.2689 Z-1.5813
X65.2897 Y25.1607 Z-1.5960
X65.1633 Y25.0495 Z-1.6108
X65.0396 Y24.9353 Z-1.6255
X64.9187 Y24.8182 Z-1.6402
X64.8007 Y24.6981 Z-1.6549
X64.6855 Y24.5753 Z-1.6697
X64.5734 Y24.4497 Z-1.6844
X64.4643 Y24.3215 Z-1.6991
X64.3583 Y24.1907 Z-1.7139
X64.2555 Y24.0574 Z-1.7286
X64.1560 Y23.9216 Z-1.7433
X64.0597 Y23.7835 Z-1.7581
X63.9668 Y23.6431 Z-1.7728
X63.8773 Y23.5005 Z-1.7875
X63.7912 Y23.3558 Z-1.8022
X63.7086 Y23.2091 Z-1.8170
X63.6296 Y23.0604 Z-1.8317
X63.5542 Y22.9099 Z-1.8464
X63.4824 Y22.7576 Z-1.8612
X63.4144 Y22.6036 Z-1.8759
X63.3500 Y22.4481 Z-1.8906
Y17.2519 Z-2.3452
X63.3947 Y17.1428 Z-2.3555
X63.4412 Y17.0344 Z-2.3659
X63.4896 Y16.9268 Z-2.3762
X63.5397 Y16.8201 Z-2.3865
X63.5917 Y16.7142 Z-2.3968
X63.6454 Y16.6092 Z-2.4071
X63.7009 Y16.5051 Z-2.4175
X63.7581 Y16.4020 Z-2.4278
X63.8171 Y16.2998 Z-2.4381
X63.8777 Y16.1987 Z-2.4484
X63.9401 Y16.0986 Z-2.4587
X64.0041 Y15.9995 Z-2.4690
X64.0699 Y15.9016 Z-2.4794
X64.1372 Y15.8048 Z-2.4897
X64.2062 Y15.7091 Z-2.5000
G03X76.3500Y17.2519I5.6438J4.1409 F100.0
G01 Y22.4481
G03X63.3500I-6.5000J-2.5981
G01 Y17.2519
G03X64.2062Y15.7091I6.4999J2.5981
G00 Z1.0000
X69.0689 Y26.8060
G01 Z-1.7300  F1000.0
X68.9267 Y26.7888 Z-1.7425  F25.4
X68.7601 Y26.7646 Z-1.7573
X68.5941 Y26.7364 Z-1.7720
X68.4289 Y26.7042 Z-1.7867
X68.2645 Y26.6681 Z-1.8014
X68.1010 Y26.6280 Z-1.8162
X67.9385 Y26.5839 Z-1.8309
X67.7771 Y26.5360 Z-1.8456
X67.6169 Y26.4842 Z-1.8604
X67.4580 Y26.4286 Z-1.8751
X67.3004 Y26.3692 Z-1.8898
X67.1444 Y26.3060 Z-1.9046
X66.9899 Y26.2391 Z-1.9193
X66.8371 Y26.1684 Z-1.9340
X66.6860 Y26.0941 Z-1.9487
X66.5368 Y26.0162 Z-1.9635
X66.3894 Y25.9348 Z-1.9782
X66.2441 Y25.8498 Z-1.9929
X66.1009 Y25.7613 Z-2.0077
X65.9598 Y25.6695 Z-2.0224
X65.8210 Y25.5742 Z-2.0371
X65.6845 Y25.4757 Z-2.0518
X65.5504 Y25.3739 Z-2.0666
X65.4188 Y25.2689 Z-2.0813
X65.2897 Y25.1607 Z-2.0960
X65.1633 Y25.0495 Z-2.1108
X65.0396 Y24.9353 Z-2.1255
X64.9187 Y24.8182 Z-2.1402
X64.8007 Y24.6981 Z-2.1549
X64.6855 Y24.5753 Z-2.1697
X64.5734 Y24.4497 Z-2.1844
X64.4643 Y24.3215 Z-2.1991
X64.3583 Y24.1907 Z-2.2139
X64.2555 Y24.0574 Z-2.2286
X64.1560 Y23.9216 Z-2.2433
X64.0597 Y23.7835 Z-2.2581
X63.9668 Y23.6431 Z-2.2728
X63.8773 Y23.5005 Z-2.2875
X63.7912 Y23.3558 Z-2.3022
X63.7086 Y23.2091 Z-2.3170
X63.6296 Y23.0604 Z-2.3317
X63.5542 Y22.9099 Z-2.3464
X63.4824 Y22.7576 Z-2.3612
X63.4144 Y22.6036 Z-2.3759
X63.3500 Y22.4481 Z-2.3906
Y17.2519 Z-2.8452
X63.3947 Y17.1428 Z-2.8555
X63.4412 Y17.0344 Z-2.8659
X63.4896 Y16.9268 Z-2.8762
X63.5397 Y16.8201 Z-2.8865
X63.5917 Y16.7142 Z-2.8968
X63.6454 Y16.6092 Z-2.9071
X63.7009 Y16.5051 Z-2.9175
X63.7581 Y16.4020 Z-2.9278
X63.8171 Y16.2998 Z-2.9381
X63.8777 Y16.1987 Z-2.9484
X63.9401 Y16.0986 Z-2.9587
X64.0041 Y15.9995 Z-2.9690
X64.0699 Y15.9016 Z-2.9794
X64.1372 Y15.8048 Z-2.9897
X64.2062 Y15.7091 Z-3.0000
G03X76.3500Y17.2519I5.6438J4.1409 F100.0
G01 Y22.4481
G03X63.3500I-6.5000J-2.5981
G01 Y17.2519
G03X64.2062Y15.7091I6.4999J2.5981
G00 Z1.0000
X70.3734 Y49.3299
G01 Z0.7700  F1000.0
X70.2706 Y49.3374 Z0.7610  F25.4
X70.1025 Y49.3454 Z0.7463
X69.9342 Y49.3495 Z0.7315
X69.7658 Z0.7168
X69.5975 Y49.3454 Z0.7021
X69.4294 Y49.3374 Z0.6873
X69.2614 Y49.3252 Z0.6726
X69.0939 Y49.3090 Z0.6579
X68.9267 Y49.2888 Z0.6432
X68.7601 Y49.2646 Z0.6284
X68.5941 Y49.2364 Z0.6137
X68.4289 Y49.2042 Z0.5990
X68.2645 Y49.1681 Z0.5842
X68.1010 Y49.1280 Z0.5695
X67.9385 Y49.0839 Z0.5548
X67.7771 Y49.0360 Z0.5400
X67.6169 Y48.9842 Z0.5253
X67.4580 Y48.9286 Z0.5106
X67.3004 Y48.8692 Z0.4959
X67.1444 Y48.8060 Z0.4811
X66.9899 Y48.7391 Z0.4664
X66.8371 Y48.6684 Z0.4517
X66.6860 Y48.5941 Z0.4369
X66.5368 Y48.5162 Z0.4222
X66.3894 Y48.4348 Z0.4075
X66.2441 Y48.3498 Z0.3928
X66.1009 Y48.2613 Z0.3780
X65.9598 Y48.1695 Z0.3633
X65.8210 Y48.0742 Z0.3486
X65.6845 Y47.9757 Z0.3338
X65.5504 Y47.8739 Z0.3191
X65.4188 Y47.7689 Z0.3044
X65.2897 Y47.6607 Z0.2896
X65.1633 Y47.5495 Z0.2749
X65.0396 Y47.4353 Z0.2602
X64.9187 Y47.3182 Z0.2455
X64.8007 Y47.1981 Z0.2307
X64.6855 Y47.0753 Z0.2160
X64.5734 Y46.9497 Z0.2013
X64.4643 Y46.8215 Z0.1865
X64.3583 Y46.6907 Z0.1718
X64.2555 Y46.5574 Z0.1571
X64.1560 Y46.4216 Z0.1424
X64.0597 Y46.2835 Z0.1276
X63.9668 Y46.1431 Z0.1129
X63.8773 Y46.0005 Z0.0982
X63.7912 Y45.8558 Z0.0834
X63.7086 Y45.7091 Z0.0687
X63.6296 Y45.5604 Z0.0540
X63.5542 Y45.4099 Z0.0393
X63.4824 Y45.2576 Z0.0245
X63.4144 Y45.1036 Z0.0098
X63.3500 Y44.9481 Z-0.0049
Y39.7519 Z-0.4595
X63.3615 Y39.7233 Z-0.4622
X63.3731 Y39.6948 Z-0.4649
X63.3849 Y39.6663 Z-0.4676
X63.3968 Y39.6378 Z-0.4703
X63.4088 Y39.6094 Z-0.4730
X63.4209 Y39.5811 Z-0.4757
X63.4332 Y39.5528 Z-0.4784
X63.4456 Y39.5245 Z-0.4811
X63.4581 Y39.4964 Z-0.4838
X63.4707 Y39.4682 Z-0.4865
X63.4835 Y39.4402 Z-0.4892
X63.4963 Y39.4122 Z-0.4919
X63.5094 Y39.3842 Z-0.4946
X63.5225 Y39.3563 Z-0.4973
X63.5357 Y39.3285 Z-0.5000
X63.5358 Y39.3283  F100.0
G03X76.3500Y39.7519I6.3142J3.0217
G01 Y44.9481
G03X63.3500I-6.5000J-2.5981
G01 Y39.7519
G03X63.5357Y39.3285I6.4804J2.5902
G00 Z1.0000
X70.3734 Y49.3299
G01 Z0.2700  F1000.0
X70.2706 Y49.3374 Z0.2610  F25.4
X70.1025 Y49.3454 Z0.2463
X69.9342 Y49.3495 Z0.2315
X69.7658 Z0.2168
X69.5975 Y49.3454 Z0.2021
X69.4294 Y49.3374 Z0.1873
X69.2614 Y49.3252 Z0.1726
X69.0939 Y49.3090 Z0.1579
X68.9267 Y49.2888 Z0.1432
X68.7601 Y49.2646 Z0.1284
X68.5941 Y49.2364 Z0.1137
X68.4289 Y49.2042 Z0.0990
X68.2645 Y49.1681 Z0.0842
X68.1010 Y49.1280 Z0.0695
X67.9385 Y49.0839 Z0.0548
X67.7771 Y49.0360 Z0.0400
X67.6169 Y48.9842 Z0.0253
X67.4580 Y48.9286 Z0.0106
X67.3004 Y48.8692 Z-0.0041
X67.1444 Y48.8060 Z-0.0189
X66.9899 Y48.7391 Z-0.0336
X66.8371 Y48.6684 Z-0.0483
X66.6860 Y48.5941 Z-0.0631
X66.5368 Y48.5162 Z-0.0778
X66.3894 Y48.4348 Z-0.0925
X66.2441 Y48.3498 Z-0.1072
X66.1009 Y48.2613 Z-0.1220
X65.9598 Y48.1695 Z-0.1367
X65.8210 Y48.0742 Z-0.1514
X65.6845 Y47.9757 Z-0.1662
X65.5504 Y47.8739 Z-0.1809
X65.4188 Y47.7689 Z-0.1956
X65.2897 Y47.6607 Z-0.2104
X65.1633 Y47.5495 Z-0.2251
X65.0396 Y47.4353 Z-0.2398
X64.9187 Y47.3182 Z-0.2545
X64.8007 Y47.1981 Z-0.2693
X64.6855 Y47.0753 Z-0.2840
X64.5734 Y46.9497 Z-0.2987
X64.4643 Y46.8215 Z-0.3135
X64.3583 Y46.6907 Z-0.3282
X64.2555 Y46.5574 Z-0.3429
X64.1560 Y46.4216 Z-0.3576
X64.0597 Y46.2835 Z-0.3724
X63.9668 Y46.1431 Z-0.3871
X63.8773 Y46.0005 Z-0.4018
X63.7912 Y45.8558 Z-0.4166
X63.7086 Y45.7091 Z-0.4313
X63.6296 Y45.5604 Z-0.4460
X63.5542 Y45.4099 Z-0.4607
X63.4824 Y45.2576 Z-0.4755
X63.4144 Y45.1036 Z-0.4902
X63.3500 Y44.9481 Z-0.5049
Y39.7519 Z-0.9595
X63.3615 Y39.7233 Z-0.9622
X63.3731 Y39.6948 Z-0.9649
X63.3849 Y39.6663 Z-0.9676
X63.3968 Y39.6378 Z-0.9703
X63.4088 Y39.6094 Z-0.9730
X63.4209 Y39.5811 Z-0.9757
X63.4332 Y39.5528 Z-0.9784
X63.4456 Y39.5245 Z-0.9811
X63.4581 Y39.4964 Z-0.9838
X63.4707 Y39.4682 Z-0.9865
X63.4835 Y39.4402 Z-0.9892
X63.4963 Y39.4122 Z-0.9919
X63.5094 Y39.3842 Z-0.9946
X63.5225 Y39.3563 Z-0.9973
X63.5357 Y39.3285 Z-1.0000
X63.5358 Y39.3283  F100.0
G03X76.3500Y39.7519I6.3142J3.0217
G01 Y44.9481
G03X63.3500I-6.5000J-2.5981
G01 Y39.7519
G03X63.5357Y39.3285I6.4804J2.5902
G00 Z1.0000
X70.3734 Y49.3299
G01 Z-0.2300  F1000.0
X70.2706 Y49.3374 Z-0.2390  F25.4
X70.1025 Y49.3454 Z-0.2537
X69.9342 Y49.3495 Z-0.2685
X69.7658 Z-0.2832
X69.5975 Y49.3454 Z-0.2979
X69.4294 Y49.3374 Z-0.3127
X69.2614 Y49.3252 Z-0.3274
X69.0939 Y49.3090 Z-0.3421
X68.9267 Y49.2888 Z-0.3568
X68.7601 Y49.2646 Z-0.3716
X68.5941 Y49.2364 Z-0.3863
X68.4289 Y49.2042 Z-0.4010
X68.2645 Y49.1681 Z-0.4158
X68.1010 Y49.1280 Z-0.4305
X67.9385 Y49.0839 Z-0.4452
X67.7771 Y49.0360 Z-0.4600
X67.6169 Y48.9842 Z-0.4747
X67.4580 Y48.9286 Z-0.4894
X67.3004 Y48.8692 Z-0.5041
X67.1444 Y48.8060 Z-0.5189
X66.9899 Y48.7391 Z-0.5336
X66.8371 Y48.6684 Z-0.5483
X66.6860 Y48.5941 Z-0.5631
X66.5368 Y48.5162 Z-0.5778
X66.3894 Y48.4348 Z-0.5925
X66.2441 Y48.3498 Z-0.6072
X66.1009 Y48.2613 Z-0.6220
X65.9598 Y48.1695 Z-0.6367
X65.8210 Y48.0742 Z-0.6514
X65.6845 Y47.9757 Z-0.6662
X65.5504 Y47.8739 Z-0.6809
X65.4188 Y47.7689 Z-0.6956
X65.2897 Y47.6607 Z-0.7104
X65.1633 Y47.5495 Z-0.7251
X65.0396 Y47.4353 Z-0.7398
X64.9187 Y47.3182 Z-0.7545
X64.8007 Y47.1981 Z-0.7693
X64.6855 Y47.0753 Z-0.7840
X64.5734 Y46.9497 Z-0.7987
X64.4643 Y46.8215 Z-0.8135
X64.3583 Y46.6907 Z-0.8282
X64.2555 Y46.5574 Z-0.8429
X64.1560 Y46.4216 Z-0.8576
X64.0597 Y46.2835 Z-0.8724
X63.9668 Y46.1431 Z-0.8871
X63.8773 Y46.0005 Z-0.9018
X63.7912 Y45.8558 Z-0.9166
X63.7086 Y45.7091 Z-0.9313
X63.6296 Y45.5604 Z-0.9460
X63.5542 Y45.4099 Z-0.9607
X63.4824 Y45.2576 Z-0.9755
X63.4144 Y45.1036 Z-0.9902
X63.3500 Y44.9481 Z-1.0049
Y39.7519 Z-1.4595
X63.3615 Y39.7233 Z-1.4622
X63.3731 Y39.6948 Z-1.4649
X63.3849 Y39.6663 Z-1.4676
X63.3968 Y39.6378 Z-1.4703
X63.4088 Y39.6094 Z-1.4730
X63.4209 Y39.5811 Z-1.4757
X63.4332 Y39.5528 Z-1.4784
X63.4456 Y39.5245 Z-1.4811
X63.4581 Y39.4964 Z-1.4838
X63.4707 Y39.4682 Z-1.4865
X63.4835 Y39.4402 Z-1.4892
X63.4963 Y39.4122 Z-1.4919
X63.5094 Y39.3842 Z-1.4946
X63.5225 Y39.3563 Z-1.4973
X63.5357 Y39.3285 Z-1.5000
X63.5358 Y39.3283  F100.0
G03X76.3500Y39.7519I6.3142J3.0217
G01 Y44.9481
G03X63.3500I-6.5000J-2.5981
G01 Y39.7519
G03X63.5357Y39.3285I6.4804J2.5902
G00 Z1.0000
X70.3734 Y49.3299
G01 Z-0.7300  F1000.0
X70.2706 Y49.3374 Z-0.7390  F25.4
X70.1025 Y49.3454 Z-0.7537
X69.9342 Y49.3495 Z-0.7685
X69.7658 Z-0.7832
X69.5975 Y49.3454 Z-0.7979
X69.4294 Y49.3374 Z-0.8127
X69.2614 Y49.3252 Z-0.8274
X69.0939 Y49.3090 Z-0.8421
X68.9267 Y49.2888 Z-0.8568
X68.7601 Y49.2646 Z-0.8716
X68.5941 Y49.2364 Z-0.8863
X68.4289 Y49.2042 Z-0.9010
X68.2645 Y49.1681 Z-0.9158
X68.1010 Y49.1280 Z-0.9305
X67.9385 Y49.0839 Z-0.9452
X67.7771 Y49.0360 Z-0.9600
X67.6169 Y48.9842 Z-0.9747
X67.4580 Y48.9286 Z-0.9894
X67.3004 Y48.8692 Z-1.0041
X67.1444 Y48.8060 Z-1.0189
X66.9899 Y48.7391 Z-1.0336
X66.8371 Y48.6684 Z-1.0483
X66.6860 Y48.5941 Z-1.0631
X66.5368 Y48.5162 Z-1.0778
X66.3894 Y48.4348 Z-1.0925
X66.2441 Y48.3498 Z-1.1072
X66.1009 Y48.2613 Z-1.1220
X65.9598 Y48.1695 Z-1.1367
X65.8210 Y48.0742 Z-1.1514
X65.6845 Y47.9757 Z-1.1662
X65.5504 Y47.8739 Z-1.1809
X65.4188 Y47.7689 Z-1.1956
X65.2897 Y47.6607 Z-1.2104
X65.1633 Y47.5495 Z-1.2251
X65.0396 Y47.4353 Z-1.2398
X64.9187 Y47.3182 Z-1.2545
X64.8007 Y47.1981 Z-1.2693
X64.6855 Y47.0753 Z-1.2840
X64.5734 Y46.9497 Z-1.2987
X64.4643 Y46.8215 Z-1.3135
X64.3583 Y46.6907 Z-1.3282
X64.2555 Y46.5574 Z-1.3429
X64.1560 Y46.4216 Z-1.3576
X64.0597 Y46.2835 Z-1.3724
X63.9668 Y46.1431 Z-1.3871
X63.8773 Y46.0005 Z-1.4018
X63.7912 Y45.8558 Z-1.4166
X63.7086 Y45.7091 Z-1.4313
X63.6296 Y45.5604 Z-1.4460
X63.5542 Y45.4099 Z-1.4607
X63.4824 Y45.2576 Z-1.4755
X63.4144 Y45.1036 Z-1.4902
X63.3500 Y44.9481 Z-1.5049
Y39.7519 Z-1.9595
X63.3615 Y39.7233 Z-1.9622
X63.3731 Y39.6948 Z-1.9649
X63.3849 Y39.6663 Z-1.9676
X63.3968 Y39.6378 Z-1.9703
X63.4088 Y39.6094 Z-1.9730
X63.4209 Y39.5811 Z-1.9757
X63.4332 Y39.5528 Z-1.9784
X63.4456 Y39.5245 Z-1.9811
X63.4581 Y39.4964 Z-1.9838
X63.4707 Y39.4682 Z-1.9865
X63.4835 Y39.4402 Z-1.9892
X63.4963 Y39.4122 Z-1.9919
X63.5094 Y39.3842 Z-1.9946
X63.5225 Y39.3563 Z-1.9973
X63.5357 Y39.3285 Z-2.0000
X63.5358 Y39.3283  F100.0
G03X76.3500Y39.7519I6.3142J3.0217
G01 Y44.9481
G03X63.3500I-6.5000J-2.5981
G01 Y39.7519
G03X63.5357Y39.3285I6.4804J2.5902
G00 Z1.0000
X70.3734 Y49.3299
G01 Z-1.2300  F1000.0
X70.2706 Y49.3374 Z-1.2390  F25.4
X70.1025 Y49.3454 Z-1.2537
X69.9342 Y49.3495 Z-1.2685
X69.7658 Z-1.2832
X69.5975 Y49.3454 Z-1.2979
X69.4294 Y49.3374 Z-1.3127
X69.2614 Y49.3252 Z-1.3274
X69.0939 Y49.3090 Z-1.3421
X68.9267 Y49.2888 Z-1.3568
X68.7601 Y49.2646 Z-1.3716
X68.5941 Y49.2364 Z-1.3863
X68.4289 Y49.2042 Z-1.4010
X68.2645 Y49.1681 Z-1.4158
X68.1010 Y49.1280 Z-1.4305
X67.9385 Y49.0839 Z-1.4452
X67.7771 Y49.0360 Z-1.4600
X67.6169 Y48.9842 Z-1.4747
X67.4580 Y48.9286 Z-1.4894
X67.3004 Y48.8692 Z-1.5041
X67.1444 Y48.8060 Z-1.5189
X66.9899 Y48.7391 Z-1.5336
X66.8371 Y48.6684 Z-1.5483
X66.6860 Y48.5941 Z-1.5631
X66.5368 Y48.5162 Z-1.5778
X66.3894 Y48.4348 Z-1.5925
X66.2441 Y48.3498 Z-1.6072
X66.1009 Y48.2613 Z-1.6220
X65.9598 Y48.1695 Z-1.6367
X65.8210 Y48.0742 Z-1.6514
X65.6845 Y47.9757 Z-1.6662
X65.5504 Y47.8739 Z-1.6809
X65.4188 Y47.7689 Z-1.6956
X65.2897 Y47.6607 Z-1.7104
X65.1633 Y47.5495 Z-1.7251
X65.0396 Y47.4353 Z-1.7398
X64.9187 Y47.3182 Z-1.7545
X64.8007 Y47.1981 Z-1.7693
X64.6855 Y47.0753 Z-1.7840
X64.5734 Y46.9497 Z-1.7987
X64.4643 Y46.8215 Z-1.8135
X64.3583 Y46.6907 Z-1.8282
X64.2555 Y46.5574 Z-1.8429
X64.1560 Y46.4216 Z-1.8576
X64.0597 Y46.2835 Z-1.8724
X63.9668 Y46.1431 Z-1.8871
X63.8773 Y46.0005 Z-1.9018
X63.7912 Y45.8558 Z-1.9166
X63.7086 Y45.7091 Z-1.9313
X63.6296 Y45.5604 Z-1.9460
X63.5542 Y45.4099 Z-1.9607
X63.4824 Y45.2576 Z-1.9755
X63.4144 Y45.1036 Z-1.9902
X63.3500 Y44.9481 Z-2.0049
Y39.7519 Z-2.4595
X63.3615 Y39.7233 Z-2.4622
X63.3731 Y39.6948 Z-2.4649
X63.3849 Y39.6663 Z-2.4676
X63.3968 Y39.6378 Z-2.4703
X63.4088 Y39.6094 Z-2.4730
X63.4209 Y39.5811 Z-2.4757
X63.4332 Y39.5528 Z-2.4784
X63.4456 Y39.5245 Z-2.4811
X63.4581 Y39.4964 Z-2.4838
X63.4707 Y39.4682 Z-2.4865
X63.4835 Y39.4402 Z-2.4892
X63.4963 Y39.4122 Z-2.4919
X63.5094 Y39.3842 Z-2.4946
X63.5225 Y39.3563 Z-2.4973
X63.5357 Y39.3285 Z-2.5000
X63.5358 Y39.3283  F100.0
G03X76.3500Y39.7519I6.3142J3.0217
G01 Y44.9481
G03X63.3500I-6.5000J-2.5981
G01 Y39.7519
G03X63.5357Y39.3285I6.4804J2.5902
G00 Z1.0000
X70.3734 Y49.3299
G01 Z-1.7300  F1000.0
X70.2706 Y49.3374 Z-1.7390  F25.4
X70.1025 Y49.3454 Z-1.7537
X69.9342 Y49.3495 Z-1.7685
X69.7658 Z-1.7832
X69.5975 Y49.3454 Z-1.7979
X69.4294 Y49.3374 Z-1.8127
X69.2614 Y49.3252 Z-1.8274
X69.0939 Y49.3090 Z-1.8421
X68.9267 Y49.2888 Z-1.8568
X68.7601 Y49.2646 Z-1.8716
X68.5941 Y49.2364 Z-1.8863
X68.4289 Y49.2042 Z-1.9010
X68.2645 Y49.1681 Z-1.9158
X68.1010 Y49.1280 Z-1.9305
X67.9385 Y49.0839 Z-1.9452
X67.7771 Y49.0360 Z-1.9600
X67.6169 Y48.9842 Z-1.9747
X67.4580 Y48.9286 Z-1.9894
X67.3004 Y48.8692 Z-2.0041
X67.1444 Y48.8060 Z-2.0189
X66.9899 Y48.7391 Z-2.0336
X66.8371 Y48.6684 Z-2.0483
X66.6860 Y48.5941 Z-2.0631
X66.5368 Y48.5162 Z-2.0778
X66.3894 Y48.4348 Z-2.0925
X66.2441 Y48.3498 Z-2.1072
X66.1009 Y48.2613 Z-2.1220
X65.9598 Y48.1695 Z-2.1367
X65.8210 Y48.0742 Z-2.1514
X65.6845 Y47.9757 Z-2.1662
X65.5504 Y47.8739 Z-2.1809
X65.4188 Y47.7689 Z-2.1956
X65.2897 Y47.6607 Z-2.2104
X65.1633 Y47.5495 Z-2.2251
X65.0396 Y47.4353 Z-2.2398
X64.9187 Y47.3182 Z-2.2545
X64.8007 Y47.1981 Z-2.2693
X64.6855 Y47.0753 Z-2.2840
X64.5734 Y46.9497 Z-2.2987
X64.4643 Y46.8215 Z-2.3135
X64.3583 Y46.6907 Z-2.3282
X64.2555 Y46.5574 Z-2.3429
X64.1560 Y46.4216 Z-2.3576
X64.0597 Y46.2835 Z-2.3724
X63.9668 Y46.1431 Z-2.3871
X63.8773 Y46.0005 Z-2.4018
X63.7912 Y45.8558 Z-2.4166
X63.7086 Y45.7091 Z-2.4313
X63.6296 Y45.5604 Z-2.4460
X63.5542 Y45.4099 Z-2.4607
X63.4824 Y45.2576 Z-2.4755
X63.4144 Y45.1036 Z-2.4902
X63.3500 Y44.9481 Z-2.5049
Y39.7519 Z-2.9595
X63.3615 Y39.7233 Z-2.9622
X63.3731 Y39.6948 Z-2.9649
X63.3849 Y39.6663 Z-2.9676
X63.3968 Y39.6378 Z-2.9703
X63.4088 Y39.6094 Z-2.9730
X63.4209 Y39.5811 Z-2.9757
X63.4332 Y39.5528 Z-2.9784
X63.4456 Y39.5245 Z-2.9811
X63.4581 Y39.4964 Z-2.9838
X63.4707 Y39.4682 Z-2.9865
X63.4835 Y39.4402 Z-2.9892
X63.4963 Y39.4122 Z-2.9919
X63.5094 Y39.3842 Z-2.9946
X63.5225 Y39.3563 Z-2.9973
X63.5357 Y39.3285 Z-3.0000
X63.5358 Y39.3283  F100.0
G03X76.3500Y39.7519I6.3142J3.0217
G01 Y44.9481
G03X63.3500I-6.5000J-2.5981
G01 Y39.7519
G03X63.5357Y39.3285I6.4804J2.5902
G00 Z1.0000
X71.9848 Y61.3074
G01 Z0.7700  F1000.0
X71.9983 Y61.2611 Z0.7658  F25.4
X72.0632 Y61.0821 Z0.7491
X72.1392 Y60.9076 Z0.7325
X72.2262 Y60.7383 Z0.7158
X72.3237 Y60.5748 Z0.6992
X72.4314 Y60.4178 Z0.6825
X72.5489 Y60.2680 Z0.6659
X72.6756 Y60.1259 Z0.6492
X72.8111 Y59.9922 Z0.6325
X72.9547 Y59.8673 Z0.6159
X73.1061 Y59.7518 Z0.5992
X73.2644 Y59.6461 Z0.5826
X73.4291 Y59.5506 Z0.5659
X73.5995 Y59.4658 Z0.5493
X73.7750 Y59.3920 Z0.5326
X73.9548 Y59.3295 Z0.5160
X74.1382 Y59.2785 Z0.4993
X74.3245 Y59.2392 Z0.4826
X74.5129 Y59.2118 Z0.4660
X74.7026 Y59.1964 Z0.4493
X74.8930 Y59.1931 Z0.4327
X75.0831 Y59.2019 Z0.4160
X75.2724 Y59.2227 Z0.3994
X75.4599 Y59.2554 Z0.3827
X75.6450 Y59.3000 Z0.3661
X75.8268 Y59.3563 Z0.3494
X76.0048 Y59.4240 Z0.3327
X76.1780 Y59.5028 Z0.3161
X76.3460 Y59.5924 Z0.2994
X76.5079 Y59.6925 Z0.2828
X76.6631 Y59.8027 Z0.2661
X76.8111 Y59.9225 Z0.2495
X76.9511 Y60.0515 Z0.2328
X77.0827 Y60.1890 Z0.2162
X77.2053 Y60.3347 Z0.1995
X77.3184 Y60.4878 Z0.1829
X77.4216 Y60.6478 Z0.1662
X77.5144 Y60.8140 Z0.1495
X77.5965 Y60.9858 Z0.1329
X77.6675 Y61.1624 Z0.1162
X77.7272 Y61.3432 Z0.0996
X77.7753 Y61.5273 Z0.0829
X77.8116 Y61.7142 Z0.0663
X77.8360 Y61.9030 Z0.0496
X77.8483 Y62.0930 Z0.0330
X77.8486 Y62.2833 Z0.0163
X77.8369 Y62.4734 Z-0.0004
X77.8130 Y62.6622 Z-0.0170
X77.7773 Y62.8492 Z-0.0337
X77.7298 Y63.0335 Z-0.0503
X77.6707 Y63.2145 Z-0.0670
X77.6002 Y63.3913 Z-0.0836
X77.5186 Y63.5634 Z-0.1003
X77.4263 Y63.7299 Z-0.1169
X77.3237 Y63.8902 Z-0.1336
X77.2110 Y64.0436 Z-0.1502
X77.0889 Y64.1896 Z-0.1669
X76.9577 Y64.3276 Z-0.1836
X76.8181 Y64.4570 Z-0.2002
X76.6705 Y64.5773 Z-0.2169
X76.5156 Y64.6879 Z-0.2335
X76.3540 Y64.7886 Z-0.2502
X76.1864 Y64.8787 Z-0.2668
X76.0133 Y64.9581 Z-0.2835
X75.8356 Y65.0263 Z-0.3001
X75.6539 Y65.0831 Z-0.3168
X75.4690 Y65.1283 Z-0.3335
X75.2815 Y65.1616 Z-0.3501
X75.0924 Y65.1830 Z-0.3668
X74.9022 Y65.1923 Z-0.3834
X74.7119 Y65.1896 Z-0.4001
X74.5221 Y65.1748 Z-0.4167
X74.3336 Y65.1480 Z-0.4334
X74.1472 Y65.1093 Z-0.4500
X73.9637 Y65.0589 Z-0.4667
X73.7837 Y64.9969 Z-0.4833
X73.6080 Y64.9236 Z-0.5000
G03X76.0920Y59.4620I1.2420J-2.7308 F100.0
X73.6080Y64.9236I-1.2420J2.7308
G00 Z1.0000
X71.9848 Y61.3074
G01 Z0.2700  F1000.0
X71.9983 Y61.2611 Z0.2658  F25.4
X72.0632 Y61.0821 Z0.2491
X72.1392 Y60.9076 Z0.2325
X72.2262 Y60.7383 Z0.2158
X72.3237 Y60.5748 Z0.1992
X72.4314 Y60.4178 Z0.1825
X72.5489 Y60.2680 Z0.1659
X72.6756 Y60.1259 Z0.1492
X72.8111 Y59.9922 Z0.1325
X72.9547 Y59.8673 Z0.1159
X73.1061 Y59.7518 Z0.0992
X73.2644 Y59.6461 Z0.0826
X73.4291 Y59.5506 Z0.0659
X73.5995 Y59.4658 Z0.0493
X73.7750 Y59.3920 Z0.0326
X73.9548 Y59.3295 Z0.0160
X74.1382 Y59.2785 Z-0.0007
X74.3245 Y59.2392 Z-0.0174
X74.5129 Y59.2118 Z-0.0340
X74.7026 Y59.1964 Z-0.0507
X74.8930 Y59.1931 Z-0.0673
X75.0831 Y59.2019 Z-0.0840
X75.2724 Y59.2227 Z-0.1006
X75.4599 Y59.2554 Z-0.1173
X75.6450 Y59.3000 Z-0.1339
X75.8268 Y59.3563 Z-0.1506
X76.0048 Y59.4240 Z-0.1673
X76.1780 Y59.5028 Z-0.1839
X76.3460 Y59.5924 Z-0.2006
X76.5079 Y59.6925 Z-0.2172
X76.6631 Y59.8027 Z-0.2339
X76.8111 Y59.9225 Z-0.2505
X76.9511 Y60.0515 Z-0.2672
X77.0827 Y60.1890 Z-0.2838
X77.2053 Y60.3347 Z-0.3005
X77.3184 Y60.4878 Z-0.3171
X77.4216 Y60.6478 Z-0.3338
X77.5144 Y60.8140 Z-0.3505
X77.5965 Y60.9858 Z-0.3671
X77.6675 Y61.1624 Z-0.3838
X77.7272 Y61.3432 Z-0.4004
X77.7753 Y61.5273 Z-0.4171
X77.8116 Y61.7142 Z-0.4337
X77.8360 Y61.9030 Z-0.4504
X77.8483 Y62.0930 Z-0.4670
X77.8486 Y62.2833 Z-0.4837
X77.8369 Y62.4734 Z-0.5004
X77.8130 Y62.6622 Z-0.5170
X77.7773 Y62.8492 Z-0.5337
X77.7298 Y63.0335 Z-0.5503
X77.6707 Y63.2145 Z-0.5670
X77.6002 Y63.3913 Z-0.5836
X77.5186 Y63.5634 Z-0.6003
X77.4263 Y63.7299 Z-0.6169
X77.3237 Y63.8902 Z-0.6336
X77.2110 Y64.0436 Z-0.6502
X77.0889 Y64.1896 Z-0.6669
X76.9577 Y64.3276 Z-0.6836
X76.8181 Y64.4570 Z-0.7002
X76.6705 Y64.5773 Z-0.7169
X76.5156 Y64.6879 Z-0.7335
X76.3540 Y64.7886 Z-0.7502
X76.1864 Y64.8787 Z-0.7668
X76.0133 Y64.9581 Z-0.7835
X75.8356 Y65.0263 Z-0.8001
X75.6539 Y65.0831 Z-0.8168
X75.4690 Y65.1283 Z-0.8335
X75.2815 Y65.1616 Z-0.8501
X75.0924 Y65.1830 Z-0.8668
X74.9022 Y65.1923 Z-0.8834
X74.7119 Y65.1896 Z-0.9001
X74.5221 Y65.1748 Z-0.9167
X74.3336 Y65.1480 Z-0.9334
X74.1472 Y65.1093 Z-0.9500
X73.9637 Y65.0589 Z-0.9667
X73.7837 Y64.9969 Z-0.9833
X73.6080 Y64.9236 Z-1.0000
G03X76.0920Y59.4620I1.2420J-2.7308 F100.0
X73.6080Y64.9236I-1.2420J2.7308
G00 Z1.0000
X71.9848 Y61.3074
G01 Z-0.2300  F1000.0
X71.9983 Y61.2611 Z-0.2342  F25.4
X72.0632 Y61.0821 Z-0.2509
X72.1392 Y60.9076 Z-0.2675
X72.2262 Y60.7383 Z-0.2842
X72.3237 Y60.5748 Z-0.3008
X72.4314 Y60.4178 Z-0.3175
X72.5489 Y60.2680 Z-0.3342
X72.6756 Y60.1259 Z-0.3508
X72.8111 Y59.9922 Z-0.3675
X72.9547 Y59.8673 Z-0.3841
X73.1061 Y59.7518 Z-0.4008
X73.2644 Y59.6461 Z-0.4174
X73.4291 Y59.5506 Z-0.4341
X73.5995 Y59.4658 Z-0.4507
X73.7750 Y59.3920 Z-0.4674
X73.9548 Y59.3295 Z-0.4840
X74.1382 Y59.2785 Z-0.5007
X74.3245 Y59.2392 Z-0.5174
X74.5129 Y59.2118 Z-0.5340
X74.7026 Y59.1964 Z-0.5507
X74.8930 Y59.1931 Z-0.5673
X75.0831 Y59.2019 Z-0.5840
X75.2724 Y59.2227 Z-0.6006
X75.4599 Y59.2554 Z-0.6173
X75.6450 Y59.3000 Z-0.6339
X75.8268 Y59.3563 Z-0.6506
X76.0048 Y59.4240 Z-0.6673
X76.1780 Y59.5028 Z-0.6839
X76.3460 Y59.5924 Z-0.7006
X76.5079 Y59.6925 Z-0.7172
X76.6631 Y59.8027 Z-0.7339
X76.8111 Y59.9225 Z-0.7505
X76.9511 Y60.0515 Z-0.7672
X77.0827 Y60.1890 Z-0.7838
X77.2053 Y60.3347 Z-0.8005
X77.3184 Y60.4878 Z-0.8171
X77.4216 Y60.6478 Z-0.8338
X77.5144 Y60.8140 Z-0.8505
X77.5965 Y60.9858 Z-0.8671
X77.6675 Y61.1624 Z-0.8838
X77.7272 Y61.3432 Z-0.9004
X77.7753 Y61.5273 Z-0.9171
X77.8116 Y61.7142 Z-0.9337
X77.8360 Y61.9030 Z-0.9504
X77.8483 Y62.0930 Z-0.9670
X77.8486 Y62.2833 Z-0.9837
X77.8369 Y62.4734 Z-1.0004
X77.8130 Y62.6622 Z-1.0170
X77.7773 Y62.8492 Z-1.0337
X77.7298 Y63.0335 Z-1.0503
X77.6707 Y63.2145 Z-1.0670
X77.6002 Y63.3913 Z-1.0836
X77.5186 Y63.5634 Z-1.1003
X77.4263 Y63.7299 Z-1.1169
X77.3237 Y63.8902 Z-1.1336
X77.2110 Y64.0436 Z-1.1502
X77.0889 Y64.1896 Z-1.1669
X76.9577 Y64.3276 Z-1.1836
X76.8181 Y64.4570 Z-1.2002
X76.6705 Y64.5773 Z-1.2169
X76.5156 Y64.6879 Z-1.2335
X76.3540 Y64.7886 Z-1.2502
X76.1864 Y64.8787 Z-1.2668
X76.0133 Y64.9581 Z-1.2835
X75.8356 Y65.0263 Z-1.3001
X75.6539 Y65.0831 Z-1.3168
X75.4690 Y65.1283 Z-1.3335
X75.2815 Y65.1616 Z-1.3501
X75.0924 Y65.1830 Z-1.3668
X74.9022 Y65.1923 Z-1.3834
X74.7119 Y65.1896 Z-1.4001
X74.5221 Y65.1748 Z-1.4167
X74.3336 Y65.1480 Z-1.4334
X74.1472 Y65.1093 Z-1.4500
X73.9637 Y65.0589 Z-1.4667
X73.7837 Y64.9969 Z-1.4833
X73.6080 Y64.9236 Z-1.5000
G03X76.0920Y59.4620I1.2420J-2.7308 F100.0
X73.6080Y64.9236I-1.2420J2.7308
G00 Z1.0000
X71.9848 Y61.3074
G01 Z-0.7300  F1000.0
X71.9983 Y61.2611 Z-0.7342  F25.4
X72.0632 Y61.0821 Z-0.7509
X72.1392 Y60.9076 Z-0.7675
X72.2262 Y60.7383 Z-0.7842
X72.3237 Y60.5748 Z-0.8008
X72.4314 Y60.4178 Z-0.8175
X72.5489 Y60.2680 Z-0.8341
X72.6756 Y60.1259 Z-0.8508
X72.8111 Y59.9922 Z-0.8675
X72.9547 Y59.8673 Z-0.8841
X73.1061 Y59.7518 Z-0.9008
X73.2644 Y59.6461 Z-0.9174
X73.4291 Y59.5506 Z-0.9341
X73.5995 Y59.4658 Z-0.9507
X73.7750 Y59.3920 Z-0.9674
X73.9548 Y59.3295 Z-0.9840
X74.1382 Y59.2785 Z-1.0007
X74.3245 Y59.2392 Z-1.0174
X74.5129 Y59.2118 Z-1.0340
X74.7026 Y59.1964 Z-1.0507
X74.8930 Y59.1931 Z-1.0673
X75.0831 Y59.2019 Z-1.0840
X75.2724 Y59.2227 Z-1.1006
X75.4599 Y59.2554 Z-1.1173
X75.6450 Y59.3000 Z-1.1339
X75.8268 Y59.3563 Z-1.1506
X76.0048 Y59.4240 Z-1.1673
X76.1780 Y59.5028 Z-1.1839
X76.3460 Y59.5924 Z-1.2006
X76.5079 Y59.6925 Z-1.2172
X76.6631 Y59.8027 Z-1.2339
X76.8111 Y59.9225 Z-1.2505
X76.9511 Y60.0515 Z-1.2672
X77.0827 Y60.1890 Z-1.2838
X77.2053 Y60.3347 Z-1.3005
X77.3184 Y60.4878 Z-1.3171
X77.4216 Y60.6478 Z-1.3338
X77.5144 Y60.8140 Z-1.3505
X77.5965 Y60.9858 Z-1.3671
X77.6675 Y61.1624 Z-1.3838
X77.7272 Y61.3432 Z-1.4004
X77.7753 Y61.5273 Z-1.4171
X77.8116 Y61.7142 Z-1.4337
X77.8360 Y61.9030 Z-1.4504
X77.8483 Y62.0930 Z-1.4670
X77.8486 Y62.2833 Z-1.4837
X77.8369 Y62.4734 Z-1.5004
X77.8130 Y62.6622 Z-1.5170
X77.7773 Y62.8492 Z-1.5337
X77.7298 Y63.0335 Z-1.5503
X77.6707 Y63.2145 Z-1.5670
X77.6002 Y63.3913 Z-1.5836
X77.5186 Y63.5634 Z-1.6003
X77.4263 Y63.7299 Z-1.6169
X77.3237 Y63.8902 Z-1.6336
X77.2110 Y64.0436 Z-1.6502
X77.0889 Y64.1896 Z-1.6669
X76.9577 Y64.3276 Z-1.6836
X76.8181 Y64.4570 Z-1.7002
X76.6705 Y64.5773 Z-1.7169
X76.5156 Y64.6879 Z-1.7335
X76.3540 Y64.7886 Z-1.7502
X76.1864 Y64.8787 Z-1.7668
X76.0133 Y64.9581 Z-1.7835
X75.8356 Y65.0263 Z-1.8001
X75.6539 Y65.0831 Z-1.8168
X75.4690 Y65.1283 Z-1.8335
X75.2815 Y65.1616 Z-1.8501
X75.0924 Y65.1830 Z-1.8668
X74.9022 Y65.1923 Z-1.8834
X74.7119 Y65.1896 Z-1.9001
X74.5221 Y65.1748 Z-1.9167
X74.3336 Y65.1480 Z-1.9334
X74.1472 Y65.1093 Z-1.9500
X73.9637 Y65.0589 Z-1.9667
X73.7837 Y64.9969 Z-1.9833
X73.6080 Y64.9236 Z-2.0000
G03X76.0920Y59.4620I1.2420J-2.7308 F100.0
X73.6080Y64.9236I-1.2420J2.7308
G00 Z1.0000
X71.9848 Y61.3074
G01 Z-1.2300  F1000.0
X71.9983 Y61.2611 Z-1.2342  F25.4
X72.0632 Y61.0821 Z-1.2509
X72.1392 Y60.9076 Z-1.2675
X72.2262 Y60.7383 Z-1.2842
X72.3237 Y60.5748 Z-1.3008
X72.4314 Y60.4178 Z-1.3175
X72.5489 Y60.2680 Z-1.3341
X72.6756 Y60.1259 Z-1.3508
X72.8111 Y59.9922 Z-1.3675
X72.9547 Y59.8673 Z-1.3841
X73.1061 Y59.7518 Z-1.4008
X73.2644 Y59.6461 Z-1.4174
X73.4291 Y59.5506 Z-1.4341
X73.5995 Y59.4658 Z-1.4507
X73.7750 Y59.3920 Z-1.4674
X73.9548 Y59.3295 Z-1.4840
X74.1382 Y59.2785 Z-1.5007
X74.3245 Y59.2392 Z-1.5174
X74.5129 Y59.2118 Z-1.5340
X74.7026 Y59.1964 Z-1.5507
X74.8930 Y59.1931 Z-1.5673
X75.0831 Y59.2019 Z-1.5840
X75.2724 Y59.2227 Z-1.6006
X75.4599 Y59.2554 Z-1.6173
X75.6450 Y59.3000 Z-1.6339
X75.8268 Y59.3563 Z-1.6506
X76.0048 Y59.4240 Z-1.6673
X76.1780 Y59.5028 Z-1.6839
X76.3460 Y59.5924 Z-1.7006
X76.5079 Y59.6925 Z-1.7172
X76.6631 Y59.8027 Z-1.7339
X76.8111 Y59.9225 Z-1.7505
X76.9511 Y60.0515 Z-1.7672
X77.0827 Y60.1890 Z-1.7838
X77.2053 Y60.3347 Z-1.8005
X77.3184 Y60.4878 Z-1.8171
X77.4216 Y60.6478 Z-1.8338
X77.5144 Y60.8140 Z-1.8505
X77.5965 Y60.9858 Z-1.8671
X77.6675 Y61.1624 Z-1.8838
X77.7272 Y61.3432 Z-1.9004
X77.7753 Y61.5273 Z-1.9171
X77.8116 Y61.7142 Z-1.9337
X77.8360 Y61.9030 Z-1.9504
X77.8483 Y62.0930 Z-1.9670
X77.8486 Y62.2833 Z-1.9837
X77.8369 Y62.4734 Z-2.0004
X77.8130 Y62.6622 Z-2.0170
X77.7773 Y62.8492 Z-2.0337
X77.7298 Y63.0335 Z-2.0503
X77.6707 Y63.2145 Z-2.0670
X77.6002 Y63.3913 Z-2.0836
X77.5186 Y63.5634 Z-2.1003
X77.4263 Y63.7299 Z-2.1169
X77.3237 Y63.8902 Z-2.1336
X77.2110 Y64.0436 Z-2.1502
X77.0889 Y64.1896 Z-2.1669
X76.9577 Y64.3276 Z-2.1836
X76.8181 Y64.4570 Z-2.2002
X76.6705 Y64.5773 Z-2.2169
X76.5156 Y64.6879 Z-2.2335
X76.3540 Y64.7886 Z-2.2502
X76.1864 Y64.8787 Z-2.2668
X76.0133 Y64.9581 Z-2.2835
X75.8356 Y65.0263 Z-2.3001
X75.6539 Y65.0831 Z-2.3168
X75.4690 Y65.1283 Z-2.3335
X75.2815 Y65.1616 Z-2.3501
X75.0924 Y65.1830 Z-2.3668
X74.9022 Y65.1923 Z-2.3834
X74.7119 Y65.1896 Z-2.4001
X74.5221 Y65.1748 Z-2.4167
X74.3336 Y65.1480 Z-2.4334
X74.1472 Y65.1093 Z-2.4500
X73.9637 Y65.0589 Z-2.4667
X73.7837 Y64.9969 Z-2.4833
X73.6080 Y64.9236 Z-2.5000
G03X76.0920Y59.4620I1.2420J-2.7308 F100.0
X73.6080Y64.9236I-1.2420J2.7308
G00 Z1.0000
X71.9848 Y61.3074
G01 Z-1.7300  F1000.0
X71.9983 Y61.2611 Z-1.7342  F25.4
X72.0632 Y61.0821 Z-1.7509
X72.1392 Y60.9076 Z-1.7675
X72.2262 Y60.7383 Z-1.7842
X72.3237 Y60.5748 Z-1.8008
X72.4314 Y60.4178 Z-1.8175
X72.5489 Y60.2680 Z-1.8342
X72.6756 Y60.1259 Z-1.8508
X72.8111 Y59.9922 Z-1.8675
X72.9547 Y59.8673 Z-1.8841
X73.1061 Y59.7518 Z-1.9008
X73.2644 Y59.6461 Z-1.9174
X73.4291 Y59.5506 Z-1.9341
X73.5995 Y59.4658 Z-1.9507
X73.7750 Y59.3920 Z-1.9674
X73.9548 Y59.3295 Z-1.9840
X74.1382 Y59.2785 Z-2.0007
X74.3245 Y59.2392 Z-2.0174
X74.5129 Y59.2118 Z-2.0340
X74.7026 Y59.1964 Z-2.0507
X74.8930 Y59.1931 Z-2.0673
X75.0831 Y59.2019 Z-2.0840
X75.2724 Y59.2227 Z-2.1006
X75.4599 Y59.2554 Z-2.1173
X75.6450 Y59.3000 Z-2.1339
X75.8268 Y59.3563 Z-2.1506
X76.0048 Y59.4240 Z-2.1673
X76.1780 Y59.5028 Z-2.1839
X76.3460 Y59.5924 Z-2.2006
X76.5079 Y59.6925 Z-2.2172
X76.6631 Y59.8027 Z-2.2339
X76.8111 Y59.9225 Z-2.2505
X76.9511 Y60.0515 Z-2.2672
X77.0827 Y60.1890 Z-2.2838
X77.2053 Y60.3347 Z-2.3005
X77.3184 Y60.4878 Z-2.3171
X77.4216 Y60.6478 Z-2.3338
X77.5144 Y60.8140 Z-2.3505
X77.5965 Y60.9858 Z-2.3671
X77.6675 Y61.1624 Z-2.3838
X77.7272 Y61.3432 Z-2.4004
X77.7753 Y61.5273 Z-2.4171
X77.8116 Y61.7142 Z-2.4337
X77.8360 Y61.9030 Z-2.4504
X77.8483 Y62.0930 Z-2.4670
X77.8486 Y62.2833 Z-2.4837
X77.8369 Y62.4734 Z-2.5004
X77.8130 Y62.6622 Z-2.5170
X77.7773 Y62.8492 Z-2.5337
X77.7298 Y63.0335 Z-2.5503
X77.6707 Y63.2145 Z-2.5670
X77.6002 Y63.3913 Z-2.5836
X77.5186 Y63.5634 Z-2.6003
X77.4263 Y63.7299 Z-2.6169
X77.3237 Y63.8902 Z-2.6336
X77.2110 Y64.0436 Z-2.6502
X77.0889 Y64.1896 Z-2.6669
X76.9577 Y64.3276 Z-2.6836
X76.8181 Y64.4570 Z-2.7002
X76.6705 Y64.5773 Z-2.7169
X76.5156 Y64.6879 Z-2.7335
X76.3540 Y64.7886 Z-2.7502
X76.1864 Y64.8787 Z-2.7668
X76.0133 Y64.9581 Z-2.7835
X75.8356 Y65.0263 Z-2.8001
X75.6539 Y65.0831 Z-2.8168
X75.4690 Y65.1283 Z-2.8335
X75.2815 Y65.1616 Z-2.8501
X75.0924 Y65.1830 Z-2.8668
X74.9022 Y65.1923 Z-2.8834
X74.7119 Y65.1896 Z-2.9001
X74.5221 Y65.1748 Z-2.9167
X74.3336 Y65.1480 Z-2.9334
X74.1472 Y65.1093 Z-2.9500
X73.9637 Y65.0589 Z-2.9667
X73.7837 Y64.9969 Z-2.9833
X73.6080 Y64.9236 Z-3.0000
G03X76.0920Y59.4620I1.2420J-2.7308 F100.0
X73.6080Y64.9236I-1.2420J2.7308
G00 Z1.0000
X74.2815 Y77.7194
G01 Z0.7700  F1000.0
X74.2713 Y77.7195 Z0.7691  F25.4
X74.1573 Y77.7131 Z0.7591
X74.0439 Y77.6995 Z0.7491
X73.9315 Y77.6787 Z0.7391
X73.8208 Y77.6508 Z0.7291
X73.7120 Y77.6160 Z0.7191
X73.6056 Y77.5743 Z0.7092
X73.5021 Y77.5260 Z0.6992
X73.4019 Y77.4712 Z0.6892
X73.3054 Y77.4102 Z0.6792
X73.2129 Y77.3432 Z0.6692
X73.1249 Y77.2704 Z0.6592
X73.0416 Y77.1922 Z0.6492
X72.9635 Y77.1089 Z0.6392
X72.8908 Y77.0207 Z0.6292
X72.8239 Y76.9282 Z0.6192
X72.7629 Y76.8316 Z0.6092
X72.7082 Y76.7313 Z0.5992
X72.6600 Y76.6278 Z0.5892
X72.6184 Y76.5214 Z0.5792
X72.5837 Y76.4126 Z0.5693
X72.5560 Y76.3018 Z0.5593
X72.5353 Y76.1894 Z0.5493
X72.5218 Y76.0760 Z0.5393
X72.5155 Y75.9620 Z0.5293
X72.5165 Y75.8478 Z0.5193
X72.5247 Y75.7338 Z0.5093
X72.5401 Y75.6207 Z0.4993
X72.5626 Y75.5087 Z0.4893
X72.5922 Y75.3984 Z0.4793
X72.6288 Y75.2902 Z0.4693
X72.6721 Y75.1845 Z0.4593
X72.7221 Y75.0818 Z0.4493
X72.7785 Y74.9824 Z0.4393
X72.8410 Y74.8869 Z0.4293
X72.9095 Y74.7955 Z0.4194
X72.9837 Y74.7086 Z0.4094
X73.0632 Y74.6266 Z0.3994
X73.1477 Y74.5498 Z0.3894
X73.2370 Y74.4785 Z0.3794
X73.3306 Y74.4130 Z0.3694
X73.4281 Y74.3536 Z0.3594
X73.5293 Y74.3005 Z0.3494
X73.6336 Y74.2540 Z0.3394
X73.7406 Y74.2141 Z0.3294
X73.8500 Y74.1811 Z0.3194
X73.9612 Y74.1551 Z0.3094
X74.0738 Y74.1362 Z0.2994
X74.1874 Y74.1245 Z0.2894
X74.3016 Y74.1200 Z0.2795
X74.4158 Y74.1228 Z0.2695
X74.5295 Y74.1328 Z0.2595
X74.6425 Y74.1500 Z0.2495
X74.7541 Y74.1744 Z0.2395
X74.8639 Y74.2057 Z0.2295
X74.9715 Y74.2440 Z0.2195
X75.0765 Y74.2890 Z0.2095
X75.1784 Y74.3406 Z0.1995
X75.2768 Y74.3985 Z0.1895
X75.3714 Y74.4626 Z0.1795
X75.4617 Y74.5325 Z0.1695
X75.5474 Y74.6081 Z0.1595
X75.6281 Y74.6889 Z0.1495
X75.7036 Y74.7746 Z0.1396
X75.7734 Y74.8650 Z0.1296
X75.8374 Y74.9596 Z0.1196
X75.8952 Y75.0581 Z0.1096
X75.9467 Y75.1601 Z0.0996
X75.9916 Y75.2651 Z0.0896
X76.0298 Y75.3727 Z0.0796
X76.0610 Y75.4826 Z0.0696
X76.0853 Y75.5942 Z0.0596
X76.1024 Y75.7072 Z0.0496
X76.1123 Y75.8209 Z0.0396
X76.1149 Y75.9351 Z0.0296
X76.1104 Y76.0493 Z0.0196
X76.0985 Y76.1629 Z0.0096
X76.0795 Y76.2755 Z-0.0004
X76.0534 Y76.3867 Z-0.0103
X76.0203 Y76.4960 Z-0.0203
X75.9804 Y76.6030 Z-0.0303
X75.9337 Y76.7073 Z-0.0403
X75.8805 Y76.8083 Z-0.0503
X75.8210 Y76.9059 Z-0.0603
X75.7555 Y76.9994 Z-0.0703
X75.6841 Y77.0886 Z-0.0803
X75.6072 Y77.1731 Z-0.0903
X75.5252 Y77.2525 Z-0.1003
X75.4382 Y77.3266 Z-0.1103
X75.3467 Y77.3950 Z-0.1203
X75.2511 Y77.4574 Z-0.1303
X75.1517 Y77.5137 Z-0.1403
X75.0490 Y77.5636 Z-0.1502
X74.9432 Y77.6068 Z-0.1602
X74.8350 Y77.6433 Z-0.1702
X74.7246 Y77.6728 Z-0.1802
X74.6126 Y77.6952 Z-0.1902
X74.4995 Y77.7105 Z-0.2002
X74.3855 Y77.7186 Z-0.2102
X74.2713 Y77.7195 Z-0.2202
X74.1573 Y77.7131 Z-0.2302
X74.0439 Y77.6995 Z-0.2402
X73.9315 Y77.6787 Z-0.2502
X73.8208 Y77.6508 Z-0.2602
X73.7120 Y77.6160 Z-0.2702
X73.6056 Y77.5743 Z-0.2802
X73.5021 Y77.5260 Z-0.2901
X73.4019 Y77.4712 Z-0.3001
X73.3054 Y77.4102 Z-0.3101
X73.2129 Y77.3432 Z-0.3201
X73.1249 Y77.2704 Z-0.3301
X73.0416 Y77.1922 Z-0.3401
X72.9635 Y77.1089 Z-0.3501
X72.8908 Y77.0207 Z-0.3601
X72.8239 Y76.9282 Z-0.3701
X72.7629 Y76.8316 Z-0.3801
X72.7082 Y76.7313 Z-0.3901
X72.6600 Y76.6278 Z-0.4001
X72.6184 Y76.5214 Z-0.4101
X72.5837 Y76.4126 Z-0.4201
X72.5560 Y76.3018 Z-0.4300
X72.5353 Y76.1894 Z-0.4400
X72.5218 Y76.0760 Z-0.4500
X72.5155 Y75.9620 Z-0.4600
X72.5165 Y75.8478 Z-0.4700
X72.5247 Y75.7338 Z-0.4800
X72.5401 Y75.6207 Z-0.4900
X72.5626 Y75.5087 Z-0.5000
G03X76.0674Y76.3313I1.7524J0.4113 F100.0
X72.5626Y75.5087I-1.7524J-0.4113
G00 Z1.0000
X74.2815 Y77.7194
G01 Z0.2700  F1000.0
X74.2713 Y77.7195 Z0.2691  F25.4
X74.1573 Y77.7131 Z0.2591
X74.0439 Y77.6995 Z0.2491
X73.9315 Y77.6787 Z0.2391
X73.8208 Y77.6508 Z0.2291
X73.7120 Y77.6160 Z0.2191
X73.6056 Y77.5743 Z0.2092
X73.5021 Y77.5260 Z0.1992
X73.4019 Y77.4712 Z0.1892
X73.3054 Y77.4102 Z0.1792
X73.2129 Y77.3432 Z0.1692
X73.1249 Y77.2704 Z0.1592
X73.0416 Y77.1922 Z0.1492
X72.9635 Y77.1089 Z0.1392
X72.8908 Y77.0207 Z0.1292
X72.8239 Y76.9282 Z0.1192
X72.7629 Y76.8316 Z0.1092
X72.7082 Y76.7313 Z0.0992
X72.6600 Y76.6278 Z0.0892
X72.6184 Y76.5214 Z0.0792
X72.5837 Y76.4126 Z0.0693
X72.5560 Y76.3018 Z0.0593
X72.5353 Y76.1894 Z0.0493
X72.5218 Y76.0760 Z0.0393
X72.5155 Y75.9620 Z0.0293
X72.5165 Y75.8478 Z0.0193
X72.5247 Y75.7338 Z0.0093
X72.5401 Y75.6207 Z-0.0007
X72.5626 Y75.5087 Z-0.0107
X72.5922 Y75.3984 Z-0.0207
X72.6288 Y75.2902 Z-0.0307
X72.6721 Y75.1845 Z-0.0407
X72.7221 Y75.0818 Z-0.0507
X72.7785 Y74.9824 Z-0.0607
X72.8410 Y74.8869 Z-0.0707
X72.9095 Y74.7955 Z-0.0806
X72.9837 Y74.7086 Z-0.0906
X73.0632 Y74.6266 Z-0.1006
X73.1477 Y74.5498 Z-0.1106
X73.2370 Y74.4785 Z-0.1206
X73.3306 Y74.4130 Z-0.1306
X73.4281 Y74.3536 Z-0.1406
X73.5293 Y74.3005 Z-0.1506
X73.6336 Y74.2540 Z-0.1606
X73.7406 Y74.2141 Z-0.1706
X73.8500 Y74.1811 Z-0.1806
X73.9612 Y74.1551 Z-0.1906
X74.0738 Y74.1362 Z-0.2006
X74.1874 Y74.1245 Z-0.2106
X74.3016 Y74.1200 Z-0.2205
X74.4158 Y74.1228 Z-0.2305
X74.5295 Y74.1328 Z-0.2405
X74.6425 Y74.1500 Z-0.2505
X74.7541 Y74.1744 Z-0.2605
X74.8639 Y74.2057 Z-0.2705
X74.9715 Y74.2440 Z-0.2805
X75.0765 Y74.2890 Z-0.2905
X75.1784 Y74.3406 Z-0.3005
X75.2768 Y74.3985 Z-0.3105
X75.3714 Y74.4626 Z-0.3205
X75.4617 Y74.5325 Z-0.3305
X75.5474 Y74.6081 Z-0.3405
X75.6281 Y74.6889 Z-0.3505
X75.7036 Y74.7746 Z-0.3604
X75.7734 Y74.8650 Z-0.3704
X75.8374 Y74.9596 Z-0.3804
X75.8952 Y75.0581 Z-0.3904
X75.9467 Y75.1601 Z-0.4004
X75.9916 Y75.2651 Z-0.4104
X76.0298 Y75.3727 Z-0.4204
X76.0610 Y75.4826 Z-0.4304
X76.0853 Y75.5942 Z-0.4404
X76.1024 Y75.7072 Z-0.4504
X76.1123 Y75.8209 Z-0.4604
X76.1149 Y75.9351 Z-0.4704
X76.1104 Y76.0493 Z-0.4804
X76.0985 Y76.1629 Z-0.4904
X76.0795 Y76.2755 Z-0.5004
X76.0534 Y76.3867 Z-0.5103
X76.0203 Y76.4960 Z-0.5203
X75.9804 Y76.6030 Z-0.5303
X75.9337 Y76.7073 Z-0.5403
X75.8805 Y76.8083 Z-0.5503
X75.8210 Y76.9059 Z-0.5603
X75.7555 Y76.9994 Z-0.5703
X75.6841 Y77.0886 Z-0.5803
X75.6072 Y77.1731 Z-0.5903
X75.5252 Y77.2525 Z-0.6003
X75.4382 Y77.3266 Z-0.6103
X75.3467 Y77.3950 Z-0.6203
X75.2511 Y77.4574 Z-0.6303
X75.1517 Y77.5137 Z-0.6403
X75.0490 Y77.5636 Z-0.6502
X74.9432 Y77.6068 Z-0.6602
X74.8350 Y77.6433 Z-0.6702
X74.7246 Y77.6728 Z-0.6802
X74.6126 Y77.6952 Z-0.6902
X74.4995 Y77.7105 Z-0.7002
X74.3855 Y77.7186 Z-0.7102
X74.2713 Y77.7195 Z-0.7202
X74.1573 Y77.7131 Z-0.7302
X74.0439 Y77.6995 Z-0.7402
X73.9315 Y77.6787 Z-0.7502
X73.8208 Y77.6508 Z-0.7602
X73.7120 Y77.6160 Z-0.7702
X73.6056 Y77.5743 Z-0.7802
X73.5021 Y77.5260 Z-0.7901
X73.4019 Y77.4712 Z-0.8001
X73.3054 Y77.4102 Z-0.8101
X73.2129 Y77.3432 Z-0.8201
X73.1249 Y77.2704 Z-0.8301
X73.0416 Y77.1922 Z-0.8401
X72.9635 Y77.1089 Z-0.8501
X72.8908 Y77.0207 Z-0.8601
X72.8239 Y76.9282 Z-0.8701
X72.7629 Y76.8316 Z-0.8801
X72.7082 Y76.7313 Z-0.8901
X72.6600 Y76.6278 Z-0.9001
X72.6184 Y76.5214 Z-0.9101
X72.5837 Y76.4126 Z-0.9201
X72.5560 Y76.3018 Z-0.9300
X72.5353 Y76.1894 Z-0.9400
X72.5218 Y76.0760 Z-0.9500
X72.5155 Y75.9620 Z-0.9600
X72.5165 Y75.8478 Z-0.9700
X72.5247 Y75.7338 Z-0.9800
X72.5401 Y75.6207 Z-0.9900
X72.5626 Y75.5087 Z-1.0000
G03X76.0674Y76.3313I1.7524J0.4113 F100.0
X72.5626Y75.5087I-1.7524J-0.4113
G00 Z1.0000
X74.2815 Y77.7194
G01 Z-0.2300  F1000.0
X74.2713 Y77.7195 Z-0.2309  F25.4
X74.1573 Y77.7131 Z-0.2409
X74.0439 Y77.6995 Z-0.2509
X73.9315 Y77.6787 Z-0.2609
X73.8208 Y77.6508 Z-0.2709
X73.7120 Y77.6160 Z-0.2809
X73.6056 Y77.5743 Z-0.2908
X73.5021 Y77.5260 Z-0.3008
X73.4019 Y77.4712 Z-0.3108
X73.3054 Y77.4102 Z-0.3208
X73.2129 Y77.3432 Z-0.3308
X73.1249 Y77.2704 Z-0.3408
X73.0416 Y77.1922 Z-0.3508
X72.9635 Y77.1089 Z-0.3608
X72.8908 Y77.0207 Z-0.3708
X72.8239 Y76.9282 Z-0.3808
X72.7629 Y76.8316 Z-0.3908
X72.7082 Y76.7313 Z-0.4008
X72.6600 Y76.6278 Z-0.4108
X72.6184 Y76.5214 Z-0.4208
X72.5837 Y76.4126 Z-0.4307
X72.5560 Y76.3018 Z-0.4407
X72.5353 Y76.1894 Z-0.4507
X72.5218 Y76.0760 Z-0.4607
X72.5155 Y75.9620 Z-0.4707
X72.5165 Y75.8478 Z-0.4807
X72.5247 Y75.7338 Z-0.4907
X72.5401 Y75.6207 Z-0.5007
X72.5626 Y75.5087 Z-0.5107
X72.5922 Y75.3984 Z-0.5207
X72.6288 Y75.2902 Z-0.5307
X72.6721 Y75.1845 Z-0.5407
X72.7221 Y75.0818 Z-0.5507
X72.7785 Y74.9824 Z-0.5607
X72.8410 Y74.8869 Z-0.5707
X72.9095 Y74.7955 Z-0.5806
X72.9837 Y74.7086 Z-0.5906
X73.0632 Y74.6266 Z-0.6006
X73.1477 Y74.5498 Z-0.6106
X73.2370 Y74.4785 Z-0.6206
X73.3306 Y74.4130 Z-0.6306
X73.4281 Y74.3536 Z-0.6406
X73.5293 Y74.3005 Z-0.6506
X73.6336 Y74.2540 Z-0.6606
X73.7406 Y74.2141 Z-0.6706
X73.8500 Y74.1811 Z-0.6806
X73.9612 Y74.1551 Z-0.6906
X74.0738 Y74.1362 Z-0.7006
X74.1874 Y74.1245 Z-0.7106
X74.3016 Y74.1200 Z-0.7205
X74.4158 Y74.1228 Z-0.7305
X74.5295 Y74.1328 Z-0.7405
X74.6425 Y74.1500 Z-0.7505
X74.7541 Y74.1744 Z-0.7605
X74.8639 Y74.2057 Z-0.7705
X74.9715 Y74.2440 Z-0.7805
X75.0765 Y74.2890 Z-0.7905
X75.1784 Y74.3406 Z-0.8005
X75.2768 Y74.3985 Z-0.8105
X75.3714 Y74.4626 Z-0.8205
X75.4617 Y74.5325 Z-0.8305
X75.5474 Y74.6081 Z-0.8405
X75.6281 Y74.6889 Z-0.8505
X75.7036 Y74.7746 Z-0.8604
X75.7734 Y74.8650 Z-0.8704
X75.8374 Y74.9596 Z-0.8804
X75.8952 Y75.0581 Z-0.8904
X75.9467 Y75.1601 Z-0.9004
X75.9916 Y75.2651 Z-0.9104
X76.0298 Y75.3727 Z-0.9204
X76.0610 Y75.4826 Z-0.9304
X76.0853 Y75.5942 Z-0.9404
X76.1024 Y75.7072 Z-0.9504
X76.1123 Y75.8209 Z-0.9604
X76.1149 Y75.9351 Z-0.9704
X76.1104 Y76.0493 Z-0.9804
X76.0985 Y76.1629 Z-0.9904
X76.0795 Y76.2755 Z-1.0004
X76.0534 Y76.3867 Z-1.0103
X76.0203 Y76.4960 Z-1.0203
X75.9804 Y76.6030 Z-1.0303
X75.9337 Y76.7073 Z-1.0403
X75.8805 Y76.8083 Z-1.0503
X75.8210 Y76.9059 Z-1.0603
X75.7555 Y76.9994 Z-1.0703
X75.6841 Y77.0886 Z-1.0803
X75.6072 Y77.1731 Z-1.0903
X75.5252 Y77.2525 Z-1.1003
X75.4382 Y77.3266 Z-1.1103
X75.3467 Y77.3950 Z-1.1203
X75.2511 Y77.4574 Z-1.1303
X75.1517 Y77.5137 Z-1.1403
X75.0490 Y77.5636 Z-1.1502
X74.9432 Y77.6068 Z-1.1602
X74.8350 Y77.6433 Z-1.1702
X74.7246 Y77.6728 Z-1.1802
X74.6126 Y77.6952 Z-1.1902
X74.4995 Y77.7105 Z-1.2002
X74.3855 Y77.7186 Z-1.2102
X74.2713 Y77.7195 Z-1.2202
X74.1573 Y77.7131 Z-1.2302
X74.0439 Y77.6995 Z-1.2402
X73.9315 Y77.6787 Z-1.2502
X73.8208 Y77.6508 Z-1.2602
X73.7120 Y77.6160 Z-1.2702
X73.6056 Y77.5743 Z-1.2802
X73.5021 Y77.5260 Z-1.2901
X73.4019 Y77.4712 Z-1.3001
X73.3054 Y77.4102 Z-1.3101
X73.2129 Y77.3432 Z-1.3201
X73.1249 Y77.2704 Z-1.3301
X73.0416 Y77.1922 Z-1.3401
X72.9635 Y77.1089 Z-1.3501
X72.8908 Y77.0207 Z-1.3601
X72.8239 Y76.9282 Z-1.3701
X72.7629 Y76.8316 Z-1.3801
X72.7082 Y76.7313 Z-1.3901
X72.6600 Y76.6278 Z-1.4001
X72.6184 Y76.5214 Z-1.4101
X72.5837 Y76.4126 Z-1.4201
X72.5560 Y76.3018 Z-1.4300
X72.5353 Y76.1894 Z-1.4400
X72.5218 Y76.0760 Z-1.4500
X72.5155 Y75.9620 Z-1.4600
X72.5165 Y75.8478 Z-1.4700
X72.5247 Y75.7338 Z-1.4800
X72.5401 Y75.6207 Z-1.4900
X72.5626 Y75.5087 Z-1.5000
G03X76.0674Y76.3313I1.7524J0.4113 F100.0
X72.5626Y75.5087I-1.7524J-0.4113
G00 Z1.0000
X74.2815 Y77.7194
G01 Z-0.7300  F1000.0
X74.2713 Y77.7195 Z-0.7309  F25.4
X74.1573 Y77.7131 Z-0.7409
X74.0439 Y77.6995 Z-0.7509
X73.9315 Y77.6787 Z-0.7609
X73.8208 Y77.6508 Z-0.7709
X73.7120 Y77.6160 Z-0.7809
X73.6056 Y77.5743 Z-0.7908
X73.5021 Y77.5260 Z-0.8008
X73.4019 Y77.4712 Z-0.8108
X73.3054 Y77.4102 Z-0.8208
X73.2129 Y77.3432 Z-0.8308
X73.1249 Y77.2704 Z-0.8408
X73.0416 Y77.1922 Z-0.8508
X72.9635 Y77.1089 Z-0.8608
X72.8908 Y77.0207 Z-0.8708
X72.8239 Y76.9282 Z-0.8808
X72.7629 Y76.8316 Z-0.8908
X72.7082 Y76.7313 Z-0.9008
X72.6600 Y76.6278 Z-0.9108
X72.6184 Y76.5214 Z-0.9208
X72.5837 Y76.4126 Z-0.9307
X72.5560 Y76.3018 Z-0.9407
X72.5353 Y76.1894 Z-0.9507
X72.5218 Y76.0760 Z-0.9607
X72.5155 Y75.9620 Z-0.9707
X72.5165 Y75.8478 Z-0.9807
X72.5247 Y75.7338 Z-0.9907
X72.5401 Y75.6207 Z-1.0007
X72.5626 Y75.5087 Z-1.0107
X72.5922 Y75.3984 Z-1.0207
X72.6288 Y75.2902 Z-1.0307
X72.6721 Y75.1845 Z-1.0407
X72.7221 Y75.0818 Z-1.0507
X72.7785 Y74.9824 Z-1.0607
X72.8410 Y74.8869 Z-1.0707
X72.9095 Y74.7955 Z-1.0806
X72.9837 Y74.7086 Z-1.0906
X73.0632 Y74.6266 Z-1.1006
X73.1477 Y74.5498 Z-1.1106
X73.2370 Y74.4785 Z-1.1206
X73.3306 Y74.4130 Z-1.1306
X73.4281 Y74.3536 Z-1.1406
X73.5293 Y74.3005 Z-1.1506
X73.6336 Y74.2540 Z-1.1606
X73.7406 Y74.2141 Z-1.1706
X73.8500 Y74.1811 Z-1.1806
X73.9612 Y74.1551 Z-1.1906
X74.0738 Y74.1362 Z-1.2006
X74.1874 Y74.1245 Z-1.2106
X74.3016 Y74.1200 Z-1.2205
X74.4158 Y74.1228 Z-1.2305
X74.5295 Y74.1328 Z-1.2405
X74.6425 Y74.1500 Z-1.2505
X74.7541 Y74.1744 Z-1.2605
X74.8639 Y74.2057 Z-1.2705
X74.9715 Y74.2440 Z-1.2805
X75.0765 Y74.2890 Z-1.2905
X75.1784 Y74.3406 Z-1.3005
X75.2768 Y74.3985 Z-1.3105
X75.3714 Y74.4626 Z-1.3205
X75.4617 Y74.5325 Z-1.3305
X75.5474 Y74.6081 Z-1.3405
X75.6281 Y74.6889 Z-1.3505
X75.7036 Y74.7746 Z-1.3604
X75.7734 Y74.8650 Z-1.3704
X75.8374 Y74.9596 Z-1.3804
X75.8952 Y75.0581 Z-1.3904
X75.9467 Y75.1601 Z-1.4004
X75.9916 Y75.2651 Z-1.4104
X76.0298 Y75.3727 Z-1.4204
X76.0610 Y75.4826 Z-1.4304
X76.0853 Y75.5942 Z-1.4404
X76.1024 Y75.7072 Z-1.4504
X76.1123 Y75.8209 Z-1.4604
X76.1149 Y75.9351 Z-1.4704
X76.1104 Y76.0493 Z-1.4804
X76.0985 Y76.1629 Z-1.4904
X76.0795 Y76.2755 Z-1.5004
X76.0534 Y76.3867 Z-1.5103
X76.0203 Y76.4960 Z-1.5203
X75.9804 Y76.6030 Z-1.5303
X75.9337 Y76.7073 Z-1.5403
X75.8805 Y76.8083 Z-1.5503
X75.8210 Y76.9059 Z-1.5603
X75.7555 Y76.9994 Z-1.5703
X75.6841 Y77.0886 Z-1.5803
X75.6072 Y77.1731 Z-1.5903
X75.5252 Y77.2525 Z-1.6003
X75.4382 Y77.3266 Z-1.6103
X75.3467 Y77.3950 Z-1.6203
X75.2511 Y77.4574 Z-1.6303
X75.1517 Y77.5137 Z-1.6403
X75.0490 Y77.5636 Z-1.6502
X74.9432 Y77.6068 Z-1.6602
X74.8350 Y77.6433 Z-1.6702
X74.7246 Y77.6728 Z-1.6802
X74.6126 Y77.6952 Z-1.6902
X74.4995 Y77.7105 Z-1.7002
X74.3855 Y77.7186 Z-1.7102
X74.2713 Y77.7195 Z-1.7202
X74.1573 Y77.7131 Z-1.7302
X74.0439 Y77.6995 Z-1.7402
X73.9315 Y77.6787 Z-1.7502
X73.8208 Y77.6508 Z-1.7602
X73.7120 Y77.6160 Z-1.7702
X73.6056 Y77.5743 Z-1.7802
X73.5021 Y77.5260 Z-1.7901
X73.4019 Y77.4712 Z-1.8001
X73.3054 Y77.4102 Z-1.8101
X73.2129 Y77.3432 Z-1.8201
X73.1249 Y77.2704 Z-1.8301
X73.0416 Y77.1922 Z-1.8401
X72.9635 Y77.1089 Z-1.8501
X72.8908 Y77.0207 Z-1.8601
X72.8239 Y76.9282 Z-1.8701
X72.7629 Y76.8316 Z-1.8801
X72.7082 Y76.7313 Z-1.8901
X72.6600 Y76.6278 Z-1.9001
X72.6184 Y76.5214 Z-1.9101
X72.5837 Y76.4126 Z-1.9201
X72.5560 Y76.3018 Z-1.9300
X72.5353 Y76.1894 Z-1.9400
X72.5218 Y76.0760 Z-1.9500
X72.5155 Y75.9620 Z-1.9600
X72.5165 Y75.8478 Z-1.9700
X72.5247 Y75.7338 Z-1.9800
X72.5401 Y75.6207 Z-1.9900
X72.5626 Y75.5087 Z-2.0000
G03X76.0674Y76.3313I1.7524J0.4113 F100.0
X72.5626Y75.5087I-1.7524J-0.4113
G00 Z1.0000
X74.2815 Y77.7194
G01 Z-1.2300  F1000.0
X74.2713 Y77.7195 Z-1.2309  F25.4
X74.1573 Y77.7131 Z-1.2409
X74.0439 Y77.6995 Z-1.2509
X73.9315 Y77.6787 Z-1.2609
X73.8208 Y77.6508 Z-1.2709
X73.7120 Y77.6160 Z-1.2809
X73.6056 Y77.5743 Z-1.2908
X73.5021 Y77.5260 Z-1.3008
X73.4019 Y77.4712 Z-1.3108
X73.3054 Y77.4102 Z-1.3208
X73.2129 Y77.3432 Z-1.3308
X73.1249 Y77.2704 Z-1.3408
X73.0416 Y77.1922 Z-1.3508
X72.9635 Y77.1089 Z-1.3608
X72.8908 Y77.0207 Z-1.3708
X72.8239 Y76.9282 Z-1.3808
X72.7629 Y76.8316 Z-1.3908
X72.7082 Y76.7313 Z-1.4008
X72.6600 Y76.6278 Z-1.4108
X72.6184 Y76.5214 Z-1.4208
X72.5837 Y76.4126 Z-1.4307
X72.5560 Y76.3018 Z-1.4407
X72.5353 Y76.1894 Z-1.4507
X72.5218 Y76.0760 Z-1.4607
X72.5155 Y75.9620 Z-1.4707
X72.5165 Y75.8478 Z-1.4807
X72.5247 Y75.7338 Z-1.4907
X72.5401 Y75.6207 Z-1.5007
X72.5626 Y75.5087 Z-1.5107
X72.5922 Y75.3984 Z-1.5207
X72.6288 Y75.2902 Z-1.5307
X72.6721 Y75.1845 Z-1.5407
X72.7221 Y75.0818 Z-1.5507
X72.7785 Y74.9824 Z-1.5607
X72.8410 Y74.8869 Z-1.5707
X72.9095 Y74.7955 Z-1.5806
X72.9837 Y74.7086 Z-1.5906
X73.0632 Y74.6266 Z-1.6006
X73.1477 Y74.5498 Z-1.6106
X73.2370 Y74.4785 Z-1.6206
X73.3306 Y74.4130 Z-1.6306
X73.4281 Y74.3536 Z-1.6406
X73.5293 Y74.3005 Z-1.6506
X73.6336 Y74.2540 Z-1.6606
X73.7406 Y74.2141 Z-1.6706
X73.8500 Y74.1811 Z-1.6806
X73.9612 Y74.1551 Z-1.6906
X74.0738 Y74.1362 Z-1.7006
X74.1874 Y74.1245 Z-1.7106
X74.3016 Y74.1200 Z-1.7205
X74.4158 Y74.1228 Z-1.7305
X74.5295 Y74.1328 Z-1.7405
X74.6425 Y74.1500 Z-1.7505
X74.7541 Y74.1744 Z-1.7605
X74.8639 Y74.2057 Z-1.7705
X74.9715 Y74.2440 Z-1.7805
X75.0765 Y74.2890 Z-1.7905
X75.1784 Y74.3406 Z-1.8005
X75.2768 Y74.3985 Z-1.8105
X75.3714 Y74.4626 Z-1.8205
X75.4617 Y74.5325 Z-1.8305
X75.5474 Y74.6081 Z-1.8405
X75.6281 Y74.6889 Z-1.8505
X75.7036 Y74.7746 Z-1.8604
X75.7734 Y74.8650 Z-1.8704
X75.8374 Y74.9596 Z-1.8804
X75.8952 Y75.0581 Z-1.8904
X75.9467 Y75.1601 Z-1.9004
X75.9916 Y75.2651 Z-1.9104
X76.0298 Y75.3727 Z-1.9204
X76.0610 Y75.4826 Z-1.9304
X76.0853 Y75.5942 Z-1.9404
X76.1024 Y75.7072 Z-1.9504
X76.1123 Y75.8209 Z-1.9604
X76.1149 Y75.9351 Z-1.9704
X76.1104 Y76.0493 Z-1.9804
X76.0985 Y76.1629 Z-1.9904
X76.0795 Y76.2755 Z-2.0004
X76.0534 Y76.3867 Z-2.0103
X76.0203 Y76.4960 Z-2.0203
X75.9804 Y76.6030 Z-2.0303
X75.9337 Y76.7073 Z-2.0403
X75.8805 Y76.8083 Z-2.0503
X75.8210 Y76.9059 Z-2.0603
X75.7555 Y76.9994 Z-2.0703
X75.6841 Y77.0886 Z-2.0803
X75.6072 Y77.1731 Z-2.0903
X75.5252 Y77.2525 Z-2.1003
X75.4382 Y77.3266 Z-2.1103
X75.3467 Y77.3950 Z-2.1203
X75.2511 Y77.4574 Z-2.1303
X75.1517 Y77.5137 Z-2.1403
X75.0490 Y77.5636 Z-2.1502
X74.9432 Y77.6068 Z-2.1602
X74.8350 Y77.6433 Z-2.1702
X74.7246 Y77.6728 Z-2.1802
X74.6126 Y77.6952 Z-2.1902
X74.4995 Y77.7105 Z-2.2002
X74.3855 Y77.7186 Z-2.2102
X74.2713 Y77.7195 Z-2.2202
X74.1573 Y77.7131 Z-2.2302
X74.0439 Y77.6995 Z-2.2402
X73.9315 Y77.6787 Z-2.2502
X73.8208 Y77.6508 Z-2.2602
X73.7120 Y77.6160 Z-2.2702
X73.6056 Y77.5743 Z-2.2802
X73.5021 Y77.5260 Z-2.2901
X73.4019 Y77.4712 Z-2.3001
X73.3054 Y77.4102 Z-2.3101
X73.2129 Y77.3432 Z-2.3201
X73.1249 Y77.2704 Z-2.3301
X73.0416 Y77.1922 Z-2.3401
X72.9635 Y77.1089 Z-2.3501
X72.8908 Y77.0207 Z-2.3601
X72.8239 Y76.9282 Z-2.3701
X72.7629 Y76.8316 Z-2.3801
X72.7082 Y76.7313 Z-2.3901
X72.6600 Y76.6278 Z-2.4001
X72.6184 Y76.5214 Z-2.4101
X72.5837 Y76.4126 Z-2.4201
X72.5560 Y76.3018 Z-2.4300
X72.5353 Y76.1894 Z-2.4400
X72.5218 Y76.0760 Z-2.4500
X72.5155 Y75.9620 Z-2.4600
X72.5165 Y75.8478 Z-2.4700
X72.5247 Y75.7338 Z-2.4800
X72.5401 Y75.6207 Z-2.4900
X72.5626 Y75.5087 Z-2.5000
G03X76.0674Y76.3313I1.7524J0.4113 F100.0
X72.5626Y75.5087I-1.7524J-0.4113
G00 Z1.0000
X74.2815 Y77.7194
G01 Z-1.7300  F1000.0
X74.2713 Y77.7195 Z-1.7309  F25.4
X74.1573 Y77.7131 Z-1.7409
X74.0439 Y77.6995 Z-1.7509
X73.9315 Y77.6787 Z-1.7609
X73.8208 Y77.6508 Z-1.7709
X73.7120 Y77.6160 Z-1.7809
X73.6056 Y77.5743 Z-1.7908
X73.5021 Y77.5260 Z-1.8008
X73.4019 Y77.4712 Z-1.8108
X73.3054 Y77.4102 Z-1.8208
X73.2129 Y77.3432 Z-1.8308
X73.1249 Y77.2704 Z-1.8408
X73.0416 Y77.1922 Z-1.8508
X72.9635 Y77.1089 Z-1.8608
X72.8908 Y77.0207 Z-1.8708
X72.8239 Y76.9282 Z-1.8808
X72.7629 Y76.8316 Z-1.8908
X72.7082 Y76.7313 Z-1.9008
X72.6600 Y76.6278 Z-1.9108
X72.6184 Y76.5214 Z-1.9208
X72.5837 Y76.4126 Z-1.9307
X72.5560 Y76.3018 Z-1.9407
X72.5353 Y76.1894 Z-1.9507
X72.5218 Y76.0760 Z-1.9607
X72.5155 Y75.9620 Z-1.9707
X72.5165 Y75.8478 Z-1.9807
X72.5247 Y75.7338 Z-1.9907
X72.5401 Y75.6207 Z-2.0007
X72.5626 Y75.5087 Z-2.0107
X72.5922 Y75.3984 Z-2.0207
X72.6288 Y75.2902 Z-2.0307
X72.6721 Y75.1845 Z-2.0407
X72.7221 Y75.0818 Z-2.0507
X72.7785 Y74.9824 Z-2.0607
X72.8410 Y74.8869 Z-2.0707
X72.9095 Y74.7955 Z-2.0806
X72.9837 Y74.7086 Z-2.0906
X73.0632 Y74.6266 Z-2.1006
X73.1477 Y74.5498 Z-2.1106
X73.2370 Y74.4785 Z-2.1206
X73.3306 Y74.4130 Z-2.1306
X73.4281 Y74.3536 Z-2.1406
X73.5293 Y74.3005 Z-2.1506
X73.6336 Y74.2540 Z-2.1606
X73.7406 Y74.2141 Z-2.1706
X73.8500 Y74.1811 Z-2.1806
X73.9612 Y74.1551 Z-2.1906
X74.0738 Y74.1362 Z-2.2006
X74.1874 Y74.1245 Z-2.2106
X74.3016 Y74.1200 Z-2.2205
X74.4158 Y74.1228 Z-2.2305
X74.5295 Y74.1328 Z-2.2405
X74.6425 Y74.1500 Z-2.2505
X74.7541 Y74.1744 Z-2.2605
X74.8639 Y74.2057 Z-2.2705
X74.9715 Y74.2440 Z-2.2805
X75.0765 Y74.2890 Z-2.2905
X75.1784 Y74.3406 Z-2.3005
X75.2768 Y74.3985 Z-2.3105
X75.3714 Y74.4626 Z-2.3205
X75.4617 Y74.5325 Z-2.3305
X75.5474 Y74.6081 Z-2.3405
X75.6281 Y74.6889 Z-2.3505
X75.7036 Y74.7746 Z-2.3604
X75.7734 Y74.8650 Z-2.3704
X75.8374 Y74.9596 Z-2.3804
X75.8952 Y75.0581 Z-2.3904
X75.9467 Y75.1601 Z-2.4004
X75.9916 Y75.2651 Z-2.4104
X76.0298 Y75.3727 Z-2.4204
X76.0610 Y75.4826 Z-2.4304
X76.0853 Y75.5942 Z-2.4404
X76.1024 Y75.7072 Z-2.4504
X76.1123 Y75.8209 Z-2.4604
X76.1149 Y75.9351 Z-2.4704
X76.1104 Y76.0493 Z-2.4804
X76.0985 Y76.1629 Z-2.4904
X76.0795 Y76.2755 Z-2.5004
X76.0534 Y76.3867 Z-2.5103
X76.0203 Y76.4960 Z-2.5203
X75.9804 Y76.6030 Z-2.5303
X75.9337 Y76.7073 Z-2.5403
X75.8805 Y76.8083 Z-2.5503
X75.8210 Y76.9059 Z-2.5603
X75.7555 Y76.9994 Z-2.5703
X75.6841 Y77.0886 Z-2.5803
X75.6072 Y77.1731 Z-2.5903
X75.5252 Y77.2525 Z-2.6003
X75.4382 Y77.3266 Z-2.6103
X75.3467 Y77.3950 Z-2.6203
X75.2511 Y77.4574 Z-2.6303
X75.1517 Y77.5137 Z-2.6403
X75.0490 Y77.5636 Z-2.6502
X74.9432 Y77.6068 Z-2.6602
X74.8350 Y77.6433 Z-2.6702
X74.7246 Y77.6728 Z-2.6802
X74.6126 Y77.6952 Z-2.6902
X74.4995 Y77.7105 Z-2.7002
X74.3855 Y77.7186 Z-2.7102
X74.2713 Y77.7195 Z-2.7202
X74.1573 Y77.7131 Z-2.7302
X74.0439 Y77.6995 Z-2.7402
X73.9315 Y77.6787 Z-2.7502
X73.8208 Y77.6508 Z-2.7602
X73.7120 Y77.6160 Z-2.7702
X73.6056 Y77.5743 Z-2.7802
X73.5021 Y77.5260 Z-2.7901
X73.4019 Y77.4712 Z-2.8001
X73.3054 Y77.4102 Z-2.8101
X73.2129 Y77.3432 Z-2.8201
X73.1249 Y77.2704 Z-2.8301
X73.0416 Y77.1922 Z-2.8401
X72.9635 Y77.1089 Z-2.8501
X72.8908 Y77.0207 Z-2.8601
X72.8239 Y76.9282 Z-2.8701
X72.7629 Y76.8316 Z-2.8801
X72.7082 Y76.7313 Z-2.8901
X72.6600 Y76.6278 Z-2.9001
X72.6184 Y76.5214 Z-2.9101
X72.5837 Y76.4126 Z-2.9201
X72.5560 Y76.3018 Z-2.9300
X72.5353 Y76.1894 Z-2.9400
X72.5218 Y76.0760 Z-2.9500
X72.5155 Y75.9620 Z-2.9600
X72.5165 Y75.8478 Z-2.9700
X72.5247 Y75.7338 Z-2.9800
X72.5401 Y75.6207 Z-2.9900
X72.5626 Y75.5087 Z-3.0000
G03X76.0674Y76.3313I1.7524J0.4113 F100.0
X72.5626Y75.5087I-1.7524J-0.4113
G00 Z1.0000
X44.6205 Y78.0650
G01 Z0.7700  F1000.0
X59.1367 Z-0.5000  F25.4
X69.8850  F100.0
Y96.6350
X19.8150
Y78.0650
X59.1367
G00 Z1.0000
X44.6205
G01 Z0.2700  F1000.0
X59.1367 Z-1.0000  F25.4
X69.8850  F100.0
Y96.6350
X19.8150
Y78.0650
X59.1367
G00 Z1.0000
X44.6205
G01 Z-0.2300  F1000.0
X59.1367 Z-1.5000  F25.4
X69.8850  F100.0
Y96.6350
X19.8150
Y78.0650
X59.1367
G00 Z1.0000
X44.6205
G01 Z-0.7300  F1000.0
X59.1367 Z-2.0000  F25.4
X69.8850  F100.0
Y96.6350
X19.8150
Y78.0650
X59.1367
G00 Z1.0000
X44.6205
G01 Z-1.2300  F1000.0
X59.1367 Z-2.5000  F25.4
X69.8850  F100.0
Y96.6350
X19.8150
Y78.0650
X59.1367
G00 Z1.0000
X44.6205
G01 Z-1.7300  F1000.0
X59.1367 Z-3.0000  F25.4
X69.8850  F100.0
Y96.6350
X19.8150
Y78.0650
X59.1367
G00 Z1.0000
X74.4731 Y98.4127
G01 Z0.7700  F1000.0
X74.4758 Y98.4137 Z0.7698  F25.4
X74.5055 Y98.4283 Z0.7669
X74.5339 Y98.4452 Z0.7640
X74.5608 Y98.4644 Z0.7611
X74.5860 Y98.4858 Z0.7582
X74.6094 Y98.5092 Z0.7553
X74.6307 Y98.5344 Z0.7524
X74.6499 Y98.5613 Z0.7495
X74.6668 Y98.5897 Z0.7466
X74.6814 Y98.6194 Z0.7437
X74.6934 Y98.6502 Z0.7408
X74.7028 Y98.6819 Z0.7379
X74.7096 Y98.7143 Z0.7350
X74.7136 Y98.7471 Z0.7321
X74.7150 Y98.7801 Z0.7293
X74.7136 Y98.8132 Z0.7264
X74.7095 Y98.8460 Z0.7235
X74.7027 Y98.8783 Z0.7206
X74.6933 Y98.9100 Z0.7177
X74.6813 Y98.9408 Z0.7148
X74.6667 Y98.9705 Z0.7119
X74.6498 Y98.9989 Z0.7090
X74.6306 Y99.0258 Z0.7061
X74.6092 Y99.0510 Z0.7032
X74.5858 Y99.0744 Z0.7003
X74.5606 Y99.0957 Z0.6974
X74.5337 Y99.1149 Z0.6945
X74.5053 Y99.1318 Z0.6917
X74.4756 Y99.1464 Z0.6888
X74.4448 Y99.1584 Z0.6859
X74.4131 Y99.1678 Z0.6830
X74.3807 Y99.1746 Z0.6801
X74.3479 Y99.1786 Z0.6772
X74.3149 Y99.1800 Z0.6743
X74.2818 Y99.1786 Z0.6714
X74.2490 Y99.1745 Z0.6685
X74.2167 Y99.1677 Z0.6656
X74.1850 Y99.1583 Z0.6627
X74.1542 Y99.1463 Z0.6598
X74.1245 Y99.1317 Z0.6569
X74.0961 Y99.1148 Z0.6541
X74.0692 Y99.0956 Z0.6512
X74.0440 Y99.0742 Z0.6483
X74.0206 Y99.0508 Z0.6454
X73.9993 Y99.0256 Z0.6425
X73.9801 Y98.9987 Z0.6396
X73.9632 Y98.9703 Z0.6367
X73.9486 Y98.9406 Z0.6338
X73.9366 Y98.9098 Z0.6309
X73.9272 Y98.8781 Z0.6280
X73.9204 Y98.8457 Z0.6251
X73.9164 Y98.8129 Z0.6222
X73.9150 Y98.7799 Z0.6193
X73.9164 Y98.7468 Z0.6165
X73.9205 Y98.7140 Z0.6136
X73.9273 Y98.6817 Z0.6107
X73.9367 Y98.6500 Z0.6078
X73.9487 Y98.6192 Z0.6049
X73.9633 Y98.5895 Z0.6020
X73.9802 Y98.5611 Z0.5991
X73.9994 Y98.5342 Z0.5962
X74.0208 Y98.5090 Z0.5933
X74.0442 Y98.4856 Z0.5904
X74.0694 Y98.4643 Z0.5875
X74.0963 Y98.4451 Z0.5846
X74.1247 Y98.4282 Z0.5817
X74.1544 Y98.4136 Z0.5789
X74.1852 Y98.4016 Z0.5760
X74.2169 Y98.3922 Z0.5731
X74.2493 Y98.3854 Z0.5702
X74.2821 Y98.3814 Z0.5673
X74.3151 Y98.3800 Z0.5644
X74.3482 Y98.3814 Z0.5615
X74.3810 Y98.3855 Z0.5586
X74.4133 Y98.3923 Z0.5557
X74.4450 Y98.4017 Z0.5528
X74.4758 Y98.4137 Z0.5499
X74.5055 Y98.4283 Z0.5470
X74.5339 Y98.4452 Z0.5441
X74.5608 Y98.4644 Z0.5413
X74.5860 Y98.4858 Z0.5384
X74.6094 Y98.5092 Z0.5355
X74.6307 Y98.5344 Z0.5326
X74.6499 Y98.5613 Z0.5297
X74.6668 Y98.5897 Z0.5268
X74.6814 Y98.6194 Z0.5239
X74.6934 Y98.6502 Z0.5210
X74.7028 Y98.6819 Z0.5181
X74.7096 Y98.7143 Z0.5152
X74.7136 Y98.7471 Z0.5123
X74.7150 Y98.7801 Z0.5094
X74.7136 Y98.8132 Z0.5065
X74.7095 Y98.8460 Z0.5037
X74.7027 Y98.8783 Z0.5008
X74.6933 Y98.9100 Z0.4979
X74.6813 Y98.9408 Z0.4950
X74.6667 Y98.9705 Z0.4921
X74.6498 Y98.9989 Z0.4892
X74.6306 Y99.0258 Z0.4863
X74.6092 Y99.0510 Z0.4834
X74.5858 Y99.0744 Z0.4805
X74.5606 Y99.0957 Z0.4776
X74.5337 Y99.1149 Z0.4747
X74.5053 Y99.1318 Z0.4718
X74.4756 Y99.1464 Z0.4689
X74.4448 Y99.1584 Z0.4661
X74.4131 Y99.1678 Z0.4632
X74.3807 Y99.1746 Z0.4603
X74.3479 Y99.1786 Z0.4574
X74.3149 Y99.1800 Z0.4545
X74.2818 Y99.1786 Z0.4516
X74.2490 Y99.1745 Z0.4487
X74.2167 Y99.1677 Z0.4458
X74.1850 Y99.1583 Z0.4429
X74.1542 Y99.1463 Z0.4400
X74.1245 Y99.1317 Z0.4371
X74.0961 Y99.1148 Z0.4342
X74.0692 Y99.0956 Z0.4313
X74.0440 Y99.0742 Z0.4285
X74.0206 Y99.0508 Z0.4256
X73.9993 Y99.0256 Z0.4227
X73.9801 Y98.9987 Z0.4198
X73.9632 Y98.9703 Z0.4169
X73.9486 Y98.9406 Z0.4140
X73.9366 Y98.9098 Z0.4111
X73.9272 Y98.8781 Z0.4082
X73.9204 Y98.8457 Z0.4053
X73.9164 Y98.8129 Z0.4024
X73.9150 Y98.7799 Z0.3995
X73.9164 Y98.7468 Z0.3966
X73.9205 Y98.7140 Z0.3937
X73.9273 Y98.6817 Z0.3908
X73.9367 Y98.6500 Z0.3880
X73.9487 Y98.6192 Z0.3851
X73.9633 Y98.5895 Z0.3822
X73.9802 Y98.5611 Z0.3793
X73.9994 Y98.5342 Z0.3764
X74.0208 Y98.5090 Z0.3735
X74.0442 Y98.4856 Z0.3706
X74.0694 Y98.4643 Z0.3677
X74.0963 Y98.4451 Z0.3648
X74.1247 Y98.4282 Z0.3619
X74.1544 Y98.4136 Z0.3590
X74.1852 Y98.4016 Z0.3561
X74.2169 Y98.3922 Z0.3532
X74.2493 Y98.3854 Z0.3504
X74.2821 Y98.3814 Z0.3475
X74.3151 Y98.3800 Z0.3446
X74.3482 Y98.3814 Z0.3417
X74.3810 Y98.3855 Z0.3388
X74.4133 Y98.3923 Z0.3359
X74.4450 Y98.4017 Z0.3330
X74.4758 Y98.4137 Z0.3301
X74.5055 Y98.4283 Z0.3272
X74.5339 Y98.4452 Z0.3243
X74.5608 Y98.4644 Z0.3214
X74.5860 Y98.4858 Z0.3185
X74.6094 Y98.5092 Z0.3156
X74.6307 Y98.5344 Z0.3128
X74.6499 Y98.5613 Z0.3099
X74.6668 Y98.5897 Z0.3070
X74.6814 Y98.6194 Z0.3041
X74.6934 Y98.6502 Z0.3012
X74.7028 Y98.6819 Z0.2983
X74.7096 Y98.7143 Z0.2954
X74.7136 Y98.7471 Z0.2925
X74.7150 Y98.7801 Z0.2896
X74.7136 Y98.8132 Z0.2867
X74.7095 Y98.8460 Z0.2838
X74.7027 Y98.8783 Z0.2809
X74.6933 Y98.9100 Z0.2780
X74.6813 Y98.9408 Z0.2752
X74.6667 Y98.9705 Z0.2723
X74.6498 Y98.9989 Z0.2694
X74.6306 Y99.0258 Z0.2665
X74.6092 Y99.0510 Z0.2636
X74.5858 Y99.0744 Z0.2607
X74.5606 Y99.0957 Z0.2578
X74.5337 Y99.1149 Z0.2549
X74.5053 Y99.1318 Z0.2520
X74.4756 Y99.1464 Z0.2491
X74.4448 Y99.1584 Z0.2462
X74.4131 Y99.1678 Z0.2433
X74.3807 Y99.1746 Z0.2404
X74.3479 Y99.1786 Z0.2376
X74.3149 Y99.1800 Z0.2347
X74.2818 Y99.1786 Z0.2318
X74.2490 Y99.1745 Z0.2289
X74.2167 Y99.1677 Z0.2260
X74.1850 Y99.1583 Z0.2231
X74.1542 Y99.1463 Z0.2202
X74.1245 Y99.1317 Z0.2173
X74.0961 Y99.1148 Z0.2144
X74.0692 Y99.0956 Z0.2115
X74.0440 Y99.0742 Z0.2086
X74.0206 Y99.0508 Z0.2057
X73.9993 Y99.0256 Z0.2028
X73.9801 Y98.9987 Z0.2000
X73.9632 Y98.9703 Z0.1971
X73.9486 Y98.9406 Z0.1942
X73.9366 Y98.9098 Z0.1913
X73.9272 Y98.8781 Z0.1884
X73.9204 Y98.8457 Z0.1855
X73.9164 Y98.8129 Z0.1826
X73.9150 Y98.7799 Z0.1797
X73.9164 Y98.7468 Z0.1768
X73.9205 Y98.7140 Z0.1739
X73.9273 Y98.6817 Z0.1710
X73.9367 Y98.6500 Z0.1681
X73.9487 Y98.6192 Z0.1652
X73.9633 Y98.5895 Z0.1624
X73.9802 Y98.5611 Z0.1595
X73.9994 Y98.5342 Z0.1566
X74.0208 Y98.5090 Z0.1537
X74.0442 Y98.4856 Z0.1508
X74.0694 Y98.4643 Z0.1479
X74.0963 Y98.4451 Z0.1450
X74.1247 Y98.4282 Z0.1421
X74.1544 Y98.4136 Z0.1392
X74.1852 Y98.4016 Z0.1363
X74.2169 Y98.3922 Z0.1334
X74.2493 Y98.3854 Z0.1305
X74.2821 Y98.3814 Z0.1276
X74.3151 Y98.3800 Z0.1248
X74.3482 Y98.3814 Z0.1219
X74.3810 Y98.3855 Z0.1190
X74.4133 Y98.3923 Z0.1161
X74.4450 Y98.4017 Z0.1132
X74.4758 Y98.4137 Z0.1103
X74.5055 Y98.4283 Z0.1074
X74.5339 Y98.4452 Z0.1045
X74.5608 Y98.4644 Z0.1016
X74.5860 Y98.4858 Z0.0987
X74.6094 Y98.5092 Z0.0958
X74.6307 Y98.5344 Z0.0929
X74.6499 Y98.5613 Z0.0900
X74.6668 Y98.5897 Z0.0872
X74.6814 Y98.6194 Z0.0843
X74.6934 Y98.6502 Z0.0814
X74.7028 Y98.6819 Z0.0785
X74.7096 Y98.7143 Z0.0756
X74.7136 Y98.7471 Z0.0727
X74.7150 Y98.7801 Z0.0698
X74.7136 Y98.8132 Z0.0669
X74.7095 Y98.8460 Z0.0640
X74.7027 Y98.8783 Z0.0611
X74.6933 Y98.9100 Z0.0582
X74.6813 Y98.9408 Z0.0553
X74.6667 Y98.9705 Z0.0524
X74.6498 Y98.9989 Z0.0495
X74.6306 Y99.0258 Z0.0467
X74.6092 Y99.0510 Z0.0438
X74.5858 Y99.0744 Z0.0409
X74.5606 Y99.0957 Z0.0380
X74.5337 Y99.1149 Z0.0351
X74.5053 Y99.1318 Z0.0322
X74.4756 Y99.1464 Z0.0293
X74.4448 Y99.1584 Z0.0264
X74.4131 Y99.1678 Z0.0235
X74.3807 Y99.1746 Z0.0206
X74.3479 Y99.1786 Z0.0177
X74.3149 Y99.1800 Z0.0148
X74.2818 Y99.1786 Z0.0120
X74.2490 Y99.1745 Z0.0091
X74.2167 Y99.1677 Z0.0062
X74.1850 Y99.1583 Z0.0033
X74.1542 Y99.1463 Z0.0004
X74.1245 Y99.1317 Z-0.0025
X74.0961 Y99.1148 Z-0.0054
X74.0692 Y99.0956 Z-0.0083
X74.0440 Y99.0742 Z-0.0112
X74.0206 Y99.0508 Z-0.0141
X73.9993 Y99.0256 Z-0.0170
X73.9801 Y98.9987 Z-0.0199
X73.9632 Y98.9703 Z-0.0228
X73.9486 Y98.9406 Z-0.0257
X73.9366 Y98.9098 Z-0.0285
X73.9272 Y98.8781 Z-0.0314
X73.9204 Y98.8457 Z-0.0343
X73.9164 Y98.8129 Z-0.0372
X73.9150 Y98.7799 Z-0.0401
X73.9164 Y98.7468 Z-0.0430
X73.9205 Y98.7140 Z-0.0459
X73.9273 Y98.6817 Z-0.0488
X73.9367 Y98.6500 Z-0.0517
X73.9487 Y98.6192 Z-0.0546
X73.9633 Y98.5895 Z-0.0575
X73.9802 Y98.5611 Z-0.0604
X73.9994 Y98.5342 Z-0.0633
X74.0208 Y98.5090 Z-0.0661
X74.0442 Y98.4856 Z-0.0690
X74.0694 Y98.4643 Z-0.0719
X74.0963 Y98.4451 Z-0.0748
X74.1247 Y98.4282 Z-0.0777
X74.1544 Y98.4136 Z-0.0806
X74.1852 Y98.4016 Z-0.0835
X74.2169 Y98.3922 Z-0.0864
X74.2493 Y98.3854 Z-0.0893
X74.2821 Y98.3814 Z-0.0922
X74.3151 Y98.3800 Z-0.0951
X74.3482 Y98.3814 Z-0.0980
X74.3810 Y98.3855 Z-0.1009
X74.4133 Y98.3923 Z-0.1037
X74.4450 Y98.4017 Z-0.1066
X74.4758 Y98.4137 Z-0.1095
X74.5055 Y98.4283 Z-0.1124
X74.5339 Y98.4452 Z-0.1153
X74.5608 Y98.4644 Z-0.1182
X74.5860 Y98.4858 Z-0.1211
X74.6094 Y98.5092 Z-0.1240
X74.6307 Y98.5344 Z-0.1269
X74.6499 Y98.5613 Z-0.1298
X74.6668 Y98.5897 Z-0.1327
X74.6814 Y98.6194 Z-0.1356
X74.6934 Y98.6502 Z-0.1385
X74.7028 Y98.6819 Z-0.1413
X74.7096 Y98.7143 Z-0.1442
X74.7136 Y98.7471 Z-0.1471
X74.7150 Y98.7801 Z-0.1500
X74.7136 Y98.8132 Z-0.1529
X74.7095 Y98.8460 Z-0.1558
X74.7027 Y98.8783 Z-0.1587
X74.6933 Y98.9100 Z-0.1616
X74.6813 Y98.9408 Z-0.1645
X74.6667 Y98.9705 Z-0.1674
X74.6498 Y98.9989 Z-0.1703
X74.6306 Y99.0258 Z-0.1732
X74.6092 Y99.0510 Z-0.1761
X74.5858 Y99.0744 Z-0.1789
X74.5606 Y99.0957 Z-0.1818
X74.5337 Y99.1149 Z-0.1847
X74.5053 Y99.1318 Z-0.1876
X74.4756 Y99.1464 Z-0.1905
X74.4448 Y99.1584 Z-0.1934
X74.4131 Y99.1678 Z-0.1963
X74.3807 Y99.1746 Z-0.1992
X74.3479 Y99.1786 Z-0.2021
X74.3149 Y99.1800 Z-0.2050
X74.2818 Y99.1786 Z-0.2079
X74.2490 Y99.1745 Z-0.2108
X74.2167 Y99.1677 Z-0.2137
X74.1850 Y99.1583 Z-0.2165
X74.1542 Y99.1463 Z-0.2194
X74.1245 Y99.1317 Z-0.2223
X74.0961 Y99.1148 Z-0.2252
X74.0692 Y99.0956 Z-0.2281
X74.0440 Y99.0742 Z-0.2310
X74.0206 Y99.0508 Z-0.2339
X73.9993 Y99.0256 Z-0.2368
X73.9801 Y98.9987 Z-0.2397
X73.9632 Y98.9703 Z-0.2426
X73.9486 Y98.9406 Z-0.2455
X73.9366 Y98.9098 Z-0.2484
X73.9272 Y98.8781 Z-0.2513
X73.9204 Y98.8457 Z-0.2541
X73.9164 Y98.8129 Z-0.2570
X73.9150 Y98.7799 Z-0.2599
X73.9164 Y98.7468 Z-0.2628
X73.9205 Y98.7140 Z-0.2657
X73.9273 Y98.6817 Z-0.2686
X73.9367 Y98.6500 Z-0.2715
X73.9487 Y98.6192 Z-0.2744
X73.9633 Y98.5895 Z-0.2773
X73.9802 Y98.5611 Z-0.2802
X73.9994 Y98.5342 Z-0.2831
X74.0208 Y98.5090 Z-0.2860
X74.0442 Y98.4856 Z-0.2889
X74.0694 Y98.4643 Z-0.2917
X74.0963 Y98.4451 Z-0.2946
X74.1247 Y98.4282 Z-0.2975
X74.1544 Y98.4136 Z-0.3004
X74.1852 Y98.4016 Z-0.3033
X74.2169 Y98.3922 Z-0.3062
X74.2493 Y98.3854 Z-0.3091
X74.2821 Y98.3814 Z-0.3120
X74.3151 Y98.3800 Z-0.3149
X74.3482 Y98.3814 Z-0.3178
X74.3810 Y98.3855 Z-0.3207
X74.4133 Y98.3923 Z-0.3236
X74.4450 Y98.4017 Z-0.3265
X74.4758 Y98.4137 Z-0.3294
X74.5055 Y98.4283 Z-0.3322
X74.5339 Y98.4452 Z-0.3351
X74.5608 Y98.4644 Z-0.3380
X74.5860 Y98.4858 Z-0.3409
X74.6094 Y98.5092 Z-0.3438
X74.6307 Y98.5344 Z-0.3467
X74.6499 Y98.5613 Z-0.3496
X74.6668 Y98.5897 Z-0.3525
X74.6814 Y98.6194 Z-0.3554
X74.6934 Y98.6502 Z-0.3583
X74.7028 Y98.6819 Z-0.3612
X74.7096 Y98.7143 Z-0.3641
X74.7136 Y98.7471 Z-0.3670
X74.7150 Y98.7801 Z-0.3698
X74.7136 Y98.8132 Z-0.3727
X74.7095 Y98.8460 Z-0.3756
X74.7027 Y98.8783 Z-0.3785
X74.6933 Y98.9100 Z-0.3814
X74.6813 Y98.9408 Z-0.3843
X74.6667 Y98.9705 Z-0.3872
X74.6498 Y98.9989 Z-0.3901
X74.6306 Y99.0258 Z-0.3930
X74.6092 Y99.0510 Z-0.3959
X74.5858 Y99.0744 Z-0.3988
X74.5606 Y99.0957 Z-0.4017
X74.5337 Y99.1149 Z-0.4046
X74.5053 Y99.1318 Z-0.4074
X74.4756 Y99.1464 Z-0.4103
X74.4448 Y99.1584 Z-0.4132
X74.4131 Y99.1678 Z-0.4161
X74.3807 Y99.1746 Z-0.4190
X74.3479 Y99.1786 Z-0.4219
X74.3149 Y99.1800 Z-0.4248
X74.2818 Y99.1786 Z-0.4277
X74.2490 Y99.1745 Z-0.4306
X74.2167 Y99.1677 Z-0.4335
X74.1850 Y99.1583 Z-0.4364
X74.1542 Y99.1463 Z-0.4393
X74.1245 Y99.1317 Z-0.4422
X74.0961 Y99.1148 Z-0.4450
X74.0692 Y99.0956 Z-0.4479
X74.0440 Y99.0742 Z-0.4508
X74.0206 Y99.0508 Z-0.4537
X73.9993 Y99.0256 Z-0.4566
X73.9801 Y98.9987 Z-0.4595
X73.9632 Y98.9703 Z-0.4624
X73.9486 Y98.9406 Z-0.4653
X73.9366 Y98.9098 Z-0.4682
X73.9272 Y98.8781 Z-0.4711
X73.9204 Y98.8457 Z-0.4740
X73.9164 Y98.8129 Z-0.4769
X73.9150 Y98.7799 Z-0.4798
X73.9164 Y98.7468 Z-0.4826
X73.9205 Y98.7140 Z-0.4855
X73.9273 Y98.6817 Z-0.4884
X73.9367 Y98.6500 Z-0.4913
X73.9487 Y98.6192 Z-0.4942
X73.9633 Y98.5895 Z-0.4971
X73.9802 Y98.5611 Z-0.5000
X74.3372 Y98.3806  F100.0
X74.6720 Y98.5995
X74.6498 Y98.9989
X74.2928 Y99.1794
X73.9580 Y98.9605
X73.9802 Y98.5611
G00 Z1.0000
X74.4731 Y98.4127
G01 Z0.2700  F1000.0
X74.4758 Y98.4137 Z0.2698  F25.4
X74.5055 Y98.4283 Z0.2669
X74.5339 Y98.4452 Z0.2640
X74.5608 Y98.4644 Z0.2611
X74.5860 Y98.4858 Z0.2582
X74.6094 Y98.5092 Z0.2553
X74.6307 Y98.5344 Z0.2524
X74.6499 Y98.5613 Z0.2495
X74.6668 Y98.5897 Z0.2466
X74.6814 Y98.6194 Z0.2437
X74.6934 Y98.6502 Z0.2408
X74.7028 Y98.6819 Z0.2379
X74.7096 Y98.7143 Z0.2350
X74.7136 Y98.7471 Z0.2321
X74.7150 Y98.7801 Z0.2293
X74.7136 Y98.8132 Z0.2264
X74.7095 Y98.8460 Z0.2235
X74.7027 Y98.8783 Z0.2206
X74.6933 Y98.9100 Z0.2177
X74.6813 Y98.9408 Z0.2148
X74.6667 Y98.9705 Z0.2119
X74.6498 Y98.9989 Z0.2090
X74.6306 Y99.0258 Z0.2061
X74.6092 Y99.0510 Z0.2032
X74.5858 Y99.0744 Z0.2003
X74.5606 Y99.0957 Z0.1974
X74.5337 Y99.1149 Z0.1945
X74.5053 Y99.1318 Z0.1917
X74.4756 Y99.1464 Z0.1888
X74.4448 Y99.1584 Z0.1859
X74.4131 Y99.1678 Z0.1830
X74.3807 Y99.1746 Z0.1801
X74.3479 Y99.1786 Z0.1772
X74.3149 Y99.1800 Z0.1743
X74.2818 Y99.1786 Z0.1714
X74.2490 Y99.1745 Z0.1685
X74.2167 Y99.1677 Z0.1656
X74.1850 Y99.1583 Z0.1627
X74.1542 Y99.1463 Z0.1598
X74.1245 Y99.1317 Z0.1569
X74.0961 Y99.1148 Z0.1541
X74.0692 Y99.0956 Z0.1512
X74.0440 Y99.0742 Z0.1483
X74.0206 Y99.0508 Z0.1454
X73.9993 Y99.0256 Z0.1425
X73.9801 Y98.9987 Z0.1396
X73.9632 Y98.9703 Z0.1367
X73.9486 Y98.9406 Z0.1338
X73.9366 Y98.9098 Z0.1309
X73.9272 Y98.8781 Z0.1280
X73.9204 Y98.8457 Z0.1251
X73.9164 Y98.8129 Z0.1222
X73.9150 Y98.7799 Z0.1193
X73.9164 Y98.7468 Z0.1165
X73.9205 Y98.7140 Z0.1136
X73.9273 Y98.6817 Z0.1107
X73.9367 Y98.6500 Z0.1078
X73.9487 Y98.6192 Z0.1049
X73.9633 Y98.5895 Z0.1020
X73.9802 Y98.5611 Z0.0991
X73.9994 Y98.5342 Z0.0962
X74.0208 Y98.5090 Z0.0933
X74.0442 Y98.4856 Z0.0904
X74.0694 Y98.4643 Z0.0875
X74.0963 Y98.4451 Z0.0846
X74.1247 Y98.4282 Z0.0817
X74.1544 Y98.4136 Z0.0789
X74.1852 Y98.4016 Z0.0760
X74.2169 Y98.3922 Z0.0731
X74.2493 Y98.3854 Z0.0702
X74.2821 Y98.3814 Z0.0673
X74.3151 Y98.3800 Z0.0644
X74.3482 Y98.3814 Z0.0615
X74.3810 Y98.3855 Z0.0586
X74.4133 Y98.3923 Z0.0557
X74.4450 Y98.4017 Z0.0528
X74.4758 Y98.4137 Z0.0499
X74.5055 Y98.4283 Z0.0470
X74.5339 Y98.4452 Z0.0441
X74.5608 Y98.4644 Z0.0413
X74.5860 Y98.4858 Z0.0384
X74.6094 Y98.5092 Z0.0355
X74.6307 Y98.5344 Z0.0326
X74.6499 Y98.5613 Z0.0297
X74.6668 Y98.5897 Z0.0268
X74.6814 Y98.6194 Z0.0239
X74.6934 Y98.6502 Z0.0210
X74.7028 Y98.6819 Z0.0181
X74.7096 Y98.7143 Z0.0152
X74.7136 Y98.7471 Z0.0123
X74.7150 Y98.7801 Z0.0094
X74.7136 Y98.8132 Z0.0065
X74.7095 Y98.8460 Z0.0037
X74.7027 Y98.8783 Z0.0008
X74.6933 Y98.9100 Z-0.0021
X74.6813 Y98.9408 Z-0.0050
X74.6667 Y98.9705 Z-0.0079
X74.6498 Y98.9989 Z-0.0108
X74.6306 Y99.0258 Z-0.0137
X74.6092 Y99.0510 Z-0.0166
X74.5858 Y99.0744 Z-0.0195
X74.5606 Y99.0957 Z-0.0224
X74.5337 Y99.1149 Z-0.0253
X74.5053 Y99.1318 Z-0.0282
X74.4756 Y99.1464 Z-0.0311
X74.4448 Y99.1584 Z-0.0339
X74.4131 Y99.1678 Z-0.0368
X74.3807 Y99.1746 Z-0.0397
X74.3479 Y99.1786 Z-0.0426
X74.3149 Y99.1800 Z-0.0455
X74.2818 Y99.1786 Z-0.0484
X74.2490 Y99.1745 Z-0.0513
X74.2167 Y99.1677 Z-0.0542
X74.1850 Y99.1583 Z-0.0571
X74.1542 Y99.1463 Z-0.0600
X74.1245 Y99.1317 Z-0.0629
X74.0961 Y99.1148 Z-0.0658
X74.0692 Y99.0956 Z-0.0687
X74.0440 Y99.0742 Z-0.0715
X74.0206 Y99.0508 Z-0.0744
X73.9993 Y99.0256 Z-0.0773
X73.9801 Y98.9987 Z-0.0802
X73.9632 Y98.9703 Z-0.0831
X73.9486 Y98.9406 Z-0.0860
X73.9366 Y98.9098 Z-0.0889
X73.9272 Y98.8781 Z-0.0918
X73.9204 Y98.8457 Z-0.0947
X73.9164 Y98.8129 Z-0.0976
X73.9150 Y98.7799 Z-0.1005
X73.9164 Y98.7468 Z-0.1034
X73.9205 Y98.7140 Z-0.1063
X73.9273 Y98.6817 Z-0.1092
X73.9367 Y98.6500 Z-0.1120
X73.9487 Y98.6192 Z-0.1149
X73.9633 Y98.5895 Z-0.1178
X73.9802 Y98.5611 Z-0.1207
X73.9994 Y98.5342 Z-0.1236
X74.0208 Y98.5090 Z-0.1265
X74.0442 Y98.4856 Z-0.1294
X74.0694 Y98.4643 Z-0.1323
X74.0963 Y98.4451 Z-0.1352
X74.1247 Y98.4282 Z-0.1381
X74.1544 Y98.4136 Z-0.1410
X74.1852 Y98.4016 Z-0.1439
X74.2169 Y98.3922 Z-0.1468
X74.2493 Y98.3854 Z-0.1496
X74.2821 Y98.3814 Z-0.1525
X74.3151 Y98.3800 Z-0.1554
X74.3482 Y98.3814 Z-0.1583
X74.3810 Y98.3855 Z-0.1612
X74.4133 Y98.3923 Z-0.1641
X74.4450 Y98.4017 Z-0.1670
X74.4758 Y98.4137 Z-0.1699
X74.5055 Y98.4283 Z-0.1728
X74.5339 Y98.4452 Z-0.1757
X74.5608 Y98.4644 Z-0.1786
X74.5860 Y98.4858 Z-0.1815
X74.6094 Y98.5092 Z-0.1844
X74.6307 Y98.5344 Z-0.1872
X74.6499 Y98.5613 Z-0.1901
X74.6668 Y98.5897 Z-0.1930
X74.6814 Y98.6194 Z-0.1959
X74.6934 Y98.6502 Z-0.1988
X74.7028 Y98.6819 Z-0.2017
X74.7096 Y98.7143 Z-0.2046
X74.7136 Y98.7471 Z-0.2075
X74.7150 Y98.7801 Z-0.2104
X74.7136 Y98.8132 Z-0.2133
X74.7095 Y98.8460 Z-0.2162
X74.7027 Y98.8783 Z-0.2191
X74.6933 Y98.9100 Z-0.2220
X74.6813 Y98.9408 Z-0.2248
X74.6667 Y98.9705 Z-0.2277
X74.6498 Y98.9989 Z-0.2306
X74.6306 Y99.0258 Z-0.2335
X74.6092 Y99.0510 Z-0.2364
X74.5858 Y99.0744 Z-0.2393
X74.5606 Y99.0957 Z-0.2422
X74.5337 Y99.1149 Z-0.2451
X74.5053 Y99.1318 Z-0.2480
X74.4756 Y99.1464 Z-0.2509
X74.4448 Y99.1584 Z-0.2538
X74.4131 Y99.1678 Z-0.2567
X74.3807 Y99.1746 Z-0.2596
X74.3479 Y99.1786 Z-0.2624
X74.3149 Y99.1800 Z-0.2653
X74.2818 Y99.1786 Z-0.2682
X74.2490 Y99.1745 Z-0.2711
X74.2167 Y99.1677 Z-0.2740
X74.1850 Y99.1583 Z-0.2769
X74.1542 Y99.1463 Z-0.2798
X74.1245 Y99.1317 Z-0.2827
X74.0961 Y99.1148 Z-0.2856
X74.0692 Y99.0956 Z-0.2885
X74.0440 Y99.0742 Z-0.2914
X74.0206 Y99.0508 Z-0.2943
X73.9993 Y99.0256 Z-0.2972
X73.9801 Y98.9987 Z-0.3000
X73.9632 Y98.9703 Z-0.3029
X73.9486 Y98.9406 Z-0.3058
X73.9366 Y98.9098 Z-0.3087
X73.9272 Y98.8781 Z-0.3116
X73.9204 Y98.8457 Z-0.3145
X73.9164 Y98.8129 Z-0.3174
X73.9150 Y98.7799 Z-0.3203
X73.9164 Y98.7468 Z-0.3232
X73.9205 Y98.7140 Z-0.3261
X73.9273 Y98.6817 Z-0.3290
X73.9367 Y98.6500 Z-0.3319
X73.9487 Y98.6192 Z-0.3348
X73.9633 Y98.5895 Z-0.3376
X73.9802 Y98.5611 Z-0.3405
X73.9994 Y98.5342 Z-0.3434
X74.0208 Y98.5090 Z-0.3463
X74.0442 Y98.4856 Z-0.3492
X74.0694 Y98.4643 Z-0.3521
X74.0963 Y98.4451 Z-0.3550
X74.1247 Y98.4282 Z-0.3579
X74.1544 Y98.4136 Z-0.3608
X74.1852 Y98.4016 Z-0.3637
X74.2169 Y98.3922 Z-0.3666
X74.2493 Y98.3854 Z-0.3695
X74.2821 Y98.3814 Z-0.3724
X74.3151 Y98.3800 Z-0.3752
X74.3482 Y98.3814 Z-0.3781
X74.3810 Y98.3855 Z-0.3810
X74.4133 Y98.3923 Z-0.3839
X74.4450 Y98.4017 Z-0.3868
X74.4758 Y98.4137 Z-0.3897
X74.5055 Y98.4283 Z-0.3926
X74.5339 Y98.4452 Z-0.3955
X74.5608 Y98.4644 Z-0.3984
X74.5860 Y98.4858 Z-0.4013
X74.6094 Y98.5092 Z-0.4042
X74.6307 Y98.5344 Z-0.4071
X74.6499 Y98.5613 Z-0.4100
X74.6668 Y98.5897 Z-0.4128
X74.6814 Y98.6194 Z-0.4157
X74.6934 Y98.6502 Z-0.4186
X74.7028 Y98.6819 Z-0.4215
X74.7096 Y98.7143 Z-0.4244
X74.7136 Y98.7471 Z-0.4273
X74.7150 Y98.7801 Z-0.4302
X74.7136 Y98.8132 Z-0.4331
X74.7095 Y98.8460 Z-0.4360
X74.7027 Y98.8783 Z-0.4389
X74.6933 Y98.9100 Z-0.4418
X74.6813 Y98.9408 Z-0.4447
X74.6667 Y98.9705 Z-0.4476
X74.6498 Y98.9989 Z-0.4505
X74.6306 Y99.0258 Z-0.4533
X74.6092 Y99.0510 Z-0.4562
X74.5858 Y99.0744 Z-0.4591
X74.5606 Y99.0957 Z-0.4620
X74.5337 Y99.1149 Z-0.4649
X74.5053 Y99.1318 Z-0.4678
X74.4756 Y99.1464 Z-0.4707
X74.4448 Y99.1584 Z-0.4736
X74.4131 Y99.1678 Z-0.4765
X74.3807 Y99.1746 Z-0.4794
X74.3479 Y99.1786 Z-0.4823
X74.3149 Y99.1800 Z-0.4852
X74.2818 Y99.1786 Z-0.4881
X74.2490 Y99.1745 Z-0.4909
X74.2167 Y99.1677 Z-0.4938
X74.1850 Y99.1583 Z-0.4967
X74.1542 Y99.1463 Z-0.4996
X74.1245 Y99.1317 Z-0.5025
X74.0961 Y99.1148 Z-0.5054
X74.0692 Y99.0956 Z-0.5083
X74.0440 Y99.0742 Z-0.5112
X74.0206 Y99.0508 Z-0.5141
X73.9993 Y99.0256 Z-0.5170
X73.9801 Y98.9987 Z-0.5199
X73.9632 Y98.9703 Z-0.5228
X73.9486 Y98.9406 Z-0.5257
X73.9366 Y98.9098 Z-0.5285
X73.9272 Y98.8781 Z-0.5314
X73.9204 Y98.8457 Z-0.5343
X73.9164 Y98.8129 Z-0.5372
X73.9150 Y98.7799 Z-0.5401
X73.9164 Y98.7468 Z-0.5430
X73.9205 Y98.7140 Z-0.5459
X73.9273 Y98.6817 Z-0.5488
X73.9367 Y98.6500 Z-0.5517
X73.9487 Y98.6192 Z-0.5546
X73.9633 Y98.5895 Z-0.5575
X73.9802 Y98.5611 Z-0.5604
X73.9994 Y98.5342 Z-0.5633
X74.0208 Y98.5090 Z-0.5661
X74.0442 Y98.4856 Z-0.5690
X74.0694 Y98.4643 Z-0.5719
X74.0963 Y98.4451 Z-0.5748
X74.1247 Y98.4282 Z-0.5777
X74.1544 Y98.4136 Z-0.5806
X74.1852 Y98.4016 Z-0.5835
X74.2169 Y98.3922 Z-0.5864
X74.2493 Y98.3854 Z-0.5893
X74.2821 Y98.3814 Z-0.5922
X74.3151 Y98.3800 Z-0.5951
X74.3482 Y98.3814 Z-0.5980
X74.3810 Y98.3855 Z-0.6009
X74.4133 Y98.3923 Z-0.6037
X74.4450 Y98.4017 Z-0.6066
X74.4758 Y98.4137 Z-0.6095
X74.5055 Y98.4283 Z-0.6124
X74.5339 Y98.4452 Z-0.6153
X74.5608 Y98.4644 Z-0.6182
X74.5860 Y98.4858 Z-0.6211
X74.6094 Y98.5092 Z-0.6240
X74.6307 Y98.5344 Z-0.6269
X74.6499 Y98.5613 Z-0.6298
X74.6668 Y98.5897 Z-0.6327
X74.6814 Y98.6194 Z-0.6356
X74.6934 Y98.6502 Z-0.6385
X74.7028 Y98.6819 Z-0.6413
X74.7096 Y98.7143 Z-0.6442
X74.7136 Y98.7471 Z-0.6471
X74.7150 Y98.7801 Z-0.6500
X74.7136 Y98.8132 Z-0.6529
X74.7095 Y98.8460 Z-0.6558
X74.7027 Y98.8783 Z-0.6587
X74.6933 Y98.9100 Z-0.6616
X74.6813 Y98.9408 Z-0.6645
X74.6667 Y98.9705 Z-0.6674
X74.6498 Y98.9989 Z-0.6703
X74.6306 Y99.0258 Z-0.6732
X74.6092 Y99.0510 Z-0.6761
X74.5858 Y99.0744 Z-0.6789
X74.5606 Y99.0957 Z-0.6818
X74.5337 Y99.1149 Z-0.6847
X74.5053 Y99.1318 Z-0.6876
X74.4756 Y99.1464 Z-0.6905
X74.4448 Y99.1584 Z-0.6934
X74.4131 Y99.1678 Z-0.6963
X74.3807 Y99.1746 Z-0.6992
X74.3479 Y99.1786 Z-0.7021
X74.3149 Y99.1800 Z-0.7050
X74.2818 Y99.1786 Z-0.7079
X74.2490 Y99.1745 Z-0.7108
X74.2167 Y99.1677 Z-0.7137
X74.1850 Y99.1583 Z-0.7165
X74.1542 Y99.1463 Z-0.7194
X74.1245 Y99.1317 Z-0.7223
X74.0961 Y99.1148 Z-0.7252
X74.0692 Y99.0956 Z-0.7281
X74.0440 Y99.0742 Z-0.7310
X74.0206 Y99.0508 Z-0.7339
X73.9993 Y99.0256 Z-0.7368
X73.9801 Y98.9987 Z-0.7397
X73.9632 Y98.9703 Z-0.7426
X73.9486 Y98.9406 Z-0.7455
X73.9366 Y98.9098 Z-0.7484
X73.9272 Y98.8781 Z-0.7513
X73.9204 Y98.8457 Z-0.7541
X73.9164 Y98.8129 Z-0.7570
X73.9150 Y98.7799 Z-0.7599
X73.9164 Y98.7468 Z-0.7628
X73.9205 Y98.7140 Z-0.7657
X73.9273 Y98.6817 Z-0.7686
X73.9367 Y98.6500 Z-0.7715
X73.9487 Y98.6192 Z-0.7744
X73.9633 Y98.5895 Z-0.7773
X73.9802 Y98.5611 Z-0.7802
X73.9994 Y98.5342 Z-0.7831
X74.0208 Y98.5090 Z-0.7860
X74.0442 Y98.4856 Z-0.7889
X74.0694 Y98.4643 Z-0.7917
X74.0963 Y98.4451 Z-0.7946
X74.1247 Y98.4282 Z-0.7975
X74.1544 Y98.4136 Z-0.8004
X74.1852 Y98.4016 Z-0.8033
X74.2169 Y98.3922 Z-0.8062
X74.2493 Y98.3854 Z-0.8091
X74.2821 Y98.3814 Z-0.8120
X74.3151 Y98.3800 Z-0.8149
X74.3482 Y98.3814 Z-0.8178
X74.3810 Y98.3855 Z-0.8207
X74.4133 Y98.3923 Z-0.8236
