G00 G49 G40.1 G17 G80 G50 G90
G21
(Hole Pocketing)
(SlotDrill 2mm Carbide)
M6 T12
M03 S20000
G00 Z1.0000
X13.2426 Y14.6458
G01 Z0.6350  F1000.0
X13.2413 Y14.6469 Z0.6345  F100.0
X13.2250 Y14.6619 Z0.6281
X13.2093 Y14.6776 Z0.6217
X13.1943 Y14.6939 Z0.6153
X13.1800 Y14.7108 Z0.6089
X13.1663 Y14.7282 Z0.6025
X13.1534 Y14.7462 Z0.5960
X13.1412 Y14.7646 Z0.5896
X13.1297 Y14.7836 Z0.5832
X13.1190 Y14.8030 Z0.5768
X13.1091 Y14.8228 Z0.5704
X13.1000 Y14.8430 Z0.5640
X13.0918 Y14.8636 Z0.5576
X13.0843 Y14.8844 Z0.5512
X13.0777 Y14.9056 Z0.5448
X13.0720 Y14.9270 Z0.5384
X13.0671 Y14.9486 Z0.5319
X13.0631 Y14.9704 Z0.5255
X13.0600 Y14.9923 Z0.5191
X13.0578 Y15.0143 Z0.5127
X13.0565 Y15.0365 Z0.5063
X13.0560 Y15.0586 Z0.4999
X13.0565 Y15.0807 Z0.4935
X13.0578 Y15.1029 Z0.4871
X13.0600 Y15.1249 Z0.4807
X13.0631 Y15.1468 Z0.4743
X13.0671 Y15.1686 Z0.4678
X13.0720 Y15.1902 Z0.4614
X13.0777 Y15.2116 Z0.4550
X13.0843 Y15.2328 Z0.4486
X13.0918 Y15.2536 Z0.4422
X13.1000 Y15.2742 Z0.4358
X13.1091 Y15.2944 Z0.4294
X13.1190 Y15.3142 Z0.4230
X13.1297 Y15.3336 Z0.4166
X13.1412 Y15.3526 Z0.4102
X13.1534 Y15.3710 Z0.4038
X13.1663 Y15.3890 Z0.3973
X13.1800 Y15.4064 Z0.3909
X13.1943 Y15.4233 Z0.3845
X13.2093 Y15.4396 Z0.3781
X13.2250 Y15.4553 Z0.3717
X13.2413 Y15.4703 Z0.3653
X13.2582 Y15.4846 Z0.3589
X13.2756 Y15.4983 Z0.3525
X13.2936 Y15.5112 Z0.3461
X13.3121 Y15.5235 Z0.3397
X13.3310 Y15.5349 Z0.3332
X13.3504 Y15.5456 Z0.3268
X13.3702 Y15.5555 Z0.3204
X13.3904 Y15.5646 Z0.3140
X13.4110 Y15.5729 Z0.3076
X13.4318 Y15.5803 Z0.3012
X13.4530 Y15.5869 Z0.2948
X13.4744 Y15.5926 Z0.2884
X13.4960 Y15.5975 Z0.2820
X13.5178 Y15.6015 Z0.2756
X13.5397 Y15.6046 Z0.2691
X13.5618 Y15.6068 Z0.2627
X13.5839 Y15.6082 Z0.2563
X13.6060 Y15.6086 Z0.2499
X13.6282 Y15.6082 Z0.2435
X13.6503 Y15.6068 Z0.2371
X13.6723 Y15.6046 Z0.2307
X13.6942 Y15.6015 Z0.2243
X13.7160 Y15.5975 Z0.2179
X13.7376 Y15.5926 Z0.2115
X13.7590 Y15.5869 Z0.2050
X13.7802 Y15.5803 Z0.1986
X13.8010 Y15.5729 Z0.1922
X13.8216 Y15.5646 Z0.1858
X13.8418 Y15.5555 Z0.1794
X13.8616 Y15.5456 Z0.1730
X13.8810 Y15.5349 Z0.1666
X13.9000 Y15.5235 Z0.1602
X13.9184 Y15.5112 Z0.1538
X13.9364 Y15.4983 Z0.1474
X13.9539 Y15.4846 Z0.1409
X13.9707 Y15.4703 Z0.1345
X13.9870 Y15.4553 Z0.1281
X14.0027 Y15.4396 Z0.1217
X14.0177 Y15.4233 Z0.1153
X14.0320 Y15.4064 Z0.1089
X14.0457 Y15.3890 Z0.1025
X14.0587 Y15.3710 Z0.0961
X14.0709 Y15.3526 Z0.0897
X14.0823 Y15.3336 Z0.0833
X14.0930 Y15.3142 Z0.0769
X14.1029 Y15.2944 Z0.0704
X14.1120 Y15.2742 Z0.0640
X14.1203 Y15.2536 Z0.0576
X14.1277 Y15.2328 Z0.0512
X14.1343 Y15.2116 Z0.0448
X14.1400 Y15.1902 Z0.0384
X14.1449 Y15.1686 Z0.0320
X14.1489 Y15.1468 Z0.0256
X14.1520 Y15.1249 Z0.0192
X14.1542 Y15.1029 Z0.0128
X14.1556 Y15.0807 Z0.0063
X14.1560 Y15.0586 Z-0.0001
X14.1556 Y15.0365 Z-0.0065
X14.1542 Y15.0143 Z-0.0129
X14.1520 Y14.9923 Z-0.0193
X14.1489 Y14.9704 Z-0.0257
X14.1449 Y14.9486 Z-0.0321
X14.1400 Y14.9270 Z-0.0385
X14.1343 Y14.9056 Z-0.0449
X14.1277 Y14.8844 Z-0.0513
X14.1203 Y14.8636 Z-0.0578
X14.1120 Y14.8430 Z-0.0642
X14.1029 Y14.8228 Z-0.0706
X14.0930 Y14.8030 Z-0.0770
X14.0823 Y14.7836 Z-0.0834
X14.0709 Y14.7646 Z-0.0898
X14.0587 Y14.7462 Z-0.0962
X14.0457 Y14.7282 Z-0.1026
X14.0320 Y14.7108 Z-0.1090
X14.0177 Y14.6939 Z-0.1154
X14.0027 Y14.6776 Z-0.1219
X13.9870 Y14.6619 Z-0.1283
X13.9707 Y14.6469 Z-0.1347
X13.9539 Y14.6326 Z-0.1411
X13.9364 Y14.6189 Z-0.1475
X13.9184 Y14.6060 Z-0.1539
X13.9000 Y14.5937 Z-0.1603
X13.8810 Y14.5823 Z-0.1667
X13.8616 Y14.5716 Z-0.1731
X13.8418 Y14.5617 Z-0.1795
X13.8216 Y14.5526 Z-0.1860
X13.8010 Y14.5443 Z-0.1924
X13.7802 Y14.5369 Z-0.1988
X13.7590 Y14.5303 Z-0.2052
X13.7376 Y14.5246 Z-0.2116
X13.7160 Y14.5197 Z-0.2180
X13.6942 Y14.5157 Z-0.2244
X13.6723 Y14.5126 Z-0.2308
X13.6503 Y14.5104 Z-0.2372
X13.6282 Y14.5090 Z-0.2436
X13.6060 Y14.5086 Z-0.2500
X13.5839 Y14.5090 Z-0.2565
X13.5618 Y14.5104 Z-0.2629
X13.5397 Y14.5126 Z-0.2693
X13.5178 Y14.5157 Z-0.2757
X13.4960 Y14.5197 Z-0.2821
X13.4744 Y14.5246 Z-0.2885
X13.4530 Y14.5303 Z-0.2949
X13.4318 Y14.5369 Z-0.3013
X13.4110 Y14.5443 Z-0.3077
X13.3904 Y14.5526 Z-0.3141
X13.3702 Y14.5617 Z-0.3206
X13.3504 Y14.5716 Z-0.3270
X13.3310 Y14.5823 Z-0.3334
X13.3121 Y14.5937 Z-0.3398
X13.2936 Y14.6060 Z-0.3462
X13.2756 Y14.6189 Z-0.3526
X13.2582 Y14.6326 Z-0.3590
X13.2413 Y14.6469 Z-0.3654
X13.2250 Y14.6619 Z-0.3718
X13.2093 Y14.6776 Z-0.3782
X13.1943 Y14.6939 Z-0.3847
X13.1800 Y14.7108 Z-0.3911
X13.1663 Y14.7282 Z-0.3975
X13.1534 Y14.7462 Z-0.4039
X13.1412 Y14.7646 Z-0.4103
X13.1297 Y14.7836 Z-0.4167
X13.1190 Y14.8030 Z-0.4231
X13.1091 Y14.8228 Z-0.4295
X13.1000 Y14.8430 Z-0.4359
X13.0918 Y14.8636 Z-0.4423
X13.0843 Y14.8844 Z-0.4488
X13.0777 Y14.9056 Z-0.4552
X13.0720 Y14.9270 Z-0.4616
X13.0671 Y14.9486 Z-0.4680
X13.0631 Y14.9704 Z-0.4744
X13.0600 Y14.9923 Z-0.4808
X13.0578 Y15.0143 Z-0.4872
X13.0565 Y15.0365 Z-0.4936
X13.0560 Y15.0586 Z-0.5000
X13.0565 Y15.0807 Z-0.5064
X13.0578 Y15.1029 Z-0.5129
X13.0600 Y15.1249 Z-0.5193
X13.0631 Y15.1468 Z-0.5257
X13.0671 Y15.1686 Z-0.5321
X13.0720 Y15.1902 Z-0.5385
X13.0777 Y15.2116 Z-0.5449
X13.0843 Y15.2328 Z-0.5513
X13.0918 Y15.2536 Z-0.5577
X13.1000 Y15.2742 Z-0.5641
X13.1091 Y15.2944 Z-0.5705
X13.1190 Y15.3142 Z-0.5770
X13.1297 Y15.3336 Z-0.5834
X13.1412 Y15.3526 Z-0.5898
X13.1534 Y15.3710 Z-0.5962
X13.1663 Y15.3890 Z-0.6026
X13.1800 Y15.4064 Z-0.6090
X13.1943 Y15.4233 Z-0.6154
X13.2093 Y15.4396 Z-0.6218
X13.2250 Y15.4553 Z-0.6282
X13.2413 Y15.4703 Z-0.6346
X13.2582 Y15.4846 Z-0.6410
X13.2756 Y15.4983 Z-0.6475
X13.2936 Y15.5112 Z-0.6539
X13.3121 Y15.5235 Z-0.6603
X13.3310 Y15.5349 Z-0.6667
X13.3504 Y15.5456 Z-0.6731
X13.3702 Y15.5555 Z-0.6795
X13.3904 Y15.5646 Z-0.6859
X13.4110 Y15.5729 Z-0.6923
X13.4318 Y15.5803 Z-0.6987
X13.4530 Y15.5869 Z-0.7051
X13.4744 Y15.5926 Z-0.7116
X13.4960 Y15.5975 Z-0.7180
X13.5178 Y15.6015 Z-0.7244
X13.5397 Y15.6046 Z-0.7308
X13.5618 Y15.6068 Z-0.7372
X13.5839 Y15.6082 Z-0.7436
X13.6060 Y15.6086 Z-0.7500
X13.6282 Y15.6082 Z-0.7564
X13.6503 Y15.6068 Z-0.7628
X13.6723 Y15.6046 Z-0.7692
X13.6942 Y15.6015 Z-0.7757
X13.7160 Y15.5975 Z-0.7821
X13.7376 Y15.5926 Z-0.7885
X13.7590 Y15.5869 Z-0.7949
X13.7802 Y15.5803 Z-0.8013
X13.8010 Y15.5729 Z-0.8077
X13.8216 Y15.5646 Z-0.8141
X13.8418 Y15.5555 Z-0.8205
X13.8616 Y15.5456 Z-0.8269
X13.8810 Y15.5349 Z-0.8333
X13.9000 Y15.5235 Z-0.8398
X13.9184 Y15.5112 Z-0.8462
X13.9364 Y15.4983 Z-0.8526
X13.9539 Y15.4846 Z-0.8590
X13.9707 Y15.4703 Z-0.8654
X13.9870 Y15.4553 Z-0.8718
X14.0027 Y15.4396 Z-0.8782
X14.0177 Y15.4233 Z-0.8846
X14.0320 Y15.4064 Z-0.8910
X14.0457 Y15.3890 Z-0.8974
X14.0587 Y15.3710 Z-0.9039
X14.0709 Y15.3526 Z-0.9103
X14.0823 Y15.3336 Z-0.9167
X14.0930 Y15.3142 Z-0.9231
X14.1029 Y15.2944 Z-0.9295
X14.1120 Y15.2742 Z-0.9359
X14.1203 Y15.2536 Z-0.9423
X14.1277 Y15.2328 Z-0.9487
X14.1343 Y15.2116 Z-0.9551
X14.1400 Y15.1902 Z-0.9615
X14.1449 Y15.1686 Z-0.9679
X14.1489 Y15.1468 Z-0.9744
X14.1520 Y15.1249 Z-0.9808
X14.1542 Y15.1029 Z-0.9872
X14.1556 Y15.0807 Z-0.9936
X14.1560 Y15.0586 Z-1.0000
G17
G02X13.0560I-0.5500J0.0000
X14.1560I0.5500J0.0000
G01 Y15.0588
Y15.0586 Z-1.0001
X14.1556 Y15.0365 Z-1.0065
X14.1542 Y15.0143 Z-1.0129
X14.1520 Y14.9923 Z-1.0193
X14.1489 Y14.9704 Z-1.0257
X14.1449 Y14.9486 Z-1.0321
X14.1400 Y14.9270 Z-1.0385
X14.1343 Y14.9056 Z-1.0449
X14.1277 Y14.8844 Z-1.0513
X14.1203 Y14.8636 Z-1.0578
X14.1120 Y14.8430 Z-1.0642
X14.1029 Y14.8228 Z-1.0706
X14.0930 Y14.8030 Z-1.0770
X14.0823 Y14.7836 Z-1.0834
X14.0709 Y14.7646 Z-1.0898
X14.0587 Y14.7462 Z-1.0962
X14.0457 Y14.7282 Z-1.1026
X14.0320 Y14.7108 Z-1.1090
X14.0177 Y14.6939 Z-1.1154
X14.0027 Y14.6776 Z-1.1219
X13.9870 Y14.6619 Z-1.1283
X13.9707 Y14.6469 Z-1.1347
X13.9539 Y14.6326 Z-1.1411
X13.9364 Y14.6189 Z-1.1475
X13.9184 Y14.6060 Z-1.1539
X13.9000 Y14.5937 Z-1.1603
X13.8810 Y14.5823 Z-1.1667
X13.8616 Y14.5716 Z-1.1731
X13.8418 Y14.5617 Z-1.1795
X13.8216 Y14.5526 Z-1.1860
X13.8010 Y14.5443 Z-1.1924
X13.7802 Y14.5369 Z-1.1988
X13.7590 Y14.5303 Z-1.2052
X13.7376 Y14.5246 Z-1.2116
X13.7160 Y14.5197 Z-1.2180
X13.6942 Y14.5157 Z-1.2244
X13.6723 Y14.5126 Z-1.2308
X13.6503 Y14.5104 Z-1.2372
X13.6282 Y14.5090 Z-1.2436
X13.6060 Y14.5086 Z-1.2501
X13.5839 Y14.5090 Z-1.2565
X13.5618 Y14.5104 Z-1.2629
X13.5397 Y14.5126 Z-1.2693
X13.5178 Y14.5157 Z-1.2757
X13.4960 Y14.5197 Z-1.2821
X13.4744 Y14.5246 Z-1.2885
X13.4530 Y14.5303 Z-1.2949
X13.4318 Y14.5369 Z-1.3013
X13.4110 Y14.5443 Z-1.3077
X13.3904 Y14.5526 Z-1.3141
X13.3702 Y14.5617 Z-1.3206
X13.3504 Y14.5716 Z-1.3270
X13.3310 Y14.5823 Z-1.3334
X13.3121 Y14.5937 Z-1.3398
X13.2936 Y14.6060 Z-1.3462
X13.2756 Y14.6189 Z-1.3526
X13.2582 Y14.6326 Z-1.3590
X13.2413 Y14.6469 Z-1.3654
X13.2250 Y14.6619 Z-1.3718
X13.2093 Y14.6776 Z-1.3782
X13.1943 Y14.6939 Z-1.3847
X13.1800 Y14.7108 Z-1.3911
X13.1663 Y14.7282 Z-1.3975
X13.1534 Y14.7462 Z-1.4039
X13.1412 Y14.7646 Z-1.4103
X13.1297 Y14.7836 Z-1.4167
X13.1190 Y14.8030 Z-1.4231
X13.1091 Y14.8228 Z-1.4295
X13.1000 Y14.8430 Z-1.4359
X13.0918 Y14.8636 Z-1.4423
X13.0843 Y14.8844 Z-1.4488
X13.0777 Y14.9056 Z-1.4552
X13.0720 Y14.9270 Z-1.4616
X13.0671 Y14.9486 Z-1.4680
X13.0631 Y14.9704 Z-1.4744
X13.0600 Y14.9923 Z-1.4808
X13.0578 Y15.0143 Z-1.4872
X13.0565 Y15.0365 Z-1.4936
X13.0560 Y15.0586 Z-1.5000
X13.0565 Y15.0807 Z-1.5064
X13.0578 Y15.1029 Z-1.5129
X13.0600 Y15.1249 Z-1.5193
X13.0631 Y15.1468 Z-1.5257
X13.0671 Y15.1686 Z-1.5321
X13.0720 Y15.1902 Z-1.5385
X13.0777 Y15.2116 Z-1.5449
X13.0843 Y15.2328 Z-1.5513
X13.0918 Y15.2536 Z-1.5577
X13.1000 Y15.2742 Z-1.5641
X13.1091 Y15.2944 Z-1.5705
X13.1190 Y15.3142 Z-1.5770
X13.1297 Y15.3336 Z-1.5834
X13.1412 Y15.3526 Z-1.5898
X13.1534 Y15.3710 Z-1.5962
X13.1663 Y15.3890 Z-1.6026
X13.1800 Y15.4064 Z-1.6090
X13.1943 Y15.4233 Z-1.6154
X13.2093 Y15.4396 Z-1.6218
X13.2250 Y15.4553 Z-1.6282
X13.2413 Y15.4703 Z-1.6346
X13.2582 Y15.4846 Z-1.6410
X13.2756 Y15.4983 Z-1.6475
X13.2936 Y15.5112 Z-1.6539
X13.3121 Y15.5235 Z-1.6603
X13.3310 Y15.5349 Z-1.6667
X13.3504 Y15.5456 Z-1.6731
X13.3702 Y15.5555 Z-1.6795
X13.3904 Y15.5646 Z-1.6859
X13.4110 Y15.5729 Z-1.6923
X13.4318 Y15.5803 Z-1.6987
X13.4530 Y15.5869 Z-1.7051
X13.4744 Y15.5926 Z-1.7116
X13.4960 Y15.5975 Z-1.7180
X13.5178 Y15.6015 Z-1.7244
X13.5397 Y15.6046 Z-1.7308
X13.5618 Y15.6068 Z-1.7372
X13.5839 Y15.6082 Z-1.7436
X13.6060 Y15.6086 Z-1.7500
X13.6282 Y15.6082 Z-1.7564
X13.6503 Y15.6068 Z-1.7628
X13.6723 Y15.6046 Z-1.7692
X13.6942 Y15.6015 Z-1.7757
X13.7160 Y15.5975 Z-1.7821
X13.7376 Y15.5926 Z-1.7885
X13.7590 Y15.5869 Z-1.7949
X13.7802 Y15.5803 Z-1.8013
X13.8010 Y15.5729 Z-1.8077
X13.8216 Y15.5646 Z-1.8141
X13.8418 Y15.5555 Z-1.8205
X13.8616 Y15.5456 Z-1.8269
X13.8810 Y15.5349 Z-1.8333
X13.9000 Y15.5235 Z-1.8398
X13.9184 Y15.5112 Z-1.8462
X13.9364 Y15.4983 Z-1.8526
X13.9539 Y15.4846 Z-1.8590
X13.9707 Y15.4703 Z-1.8654
X13.9870 Y15.4553 Z-1.8718
X14.0027 Y15.4396 Z-1.8782
X14.0177 Y15.4233 Z-1.8846
X14.0320 Y15.4064 Z-1.8910
X14.0457 Y15.3890 Z-1.8974
X14.0587 Y15.3710 Z-1.9039
X14.0709 Y15.3526 Z-1.9103
X14.0823 Y15.3336 Z-1.9167
X14.0930 Y15.3142 Z-1.9231
X14.1029 Y15.2944 Z-1.9295
X14.1120 Y15.2742 Z-1.9359
X14.1203 Y15.2536 Z-1.9423
X14.1277 Y15.2328 Z-1.9487
X14.1343 Y15.2116 Z-1.9551
X14.1400 Y15.1902 Z-1.9615
X14.1449 Y15.1686 Z-1.9680
X14.1489 Y15.1468 Z-1.9744
X14.1520 Y15.1249 Z-1.9808
X14.1542 Y15.1029 Z-1.9872
X14.1556 Y15.0807 Z-1.9936
X14.1560 Y15.0586 Z-2.0000
G02X13.0560I-0.5500J0.0000
X14.1560I0.5500J0.0000
G01 Y15.0588
Y15.0586 Z-2.0001
X14.1556 Y15.0365 Z-2.0065
X14.1542 Y15.0143 Z-2.0129
X14.1520 Y14.9923 Z-2.0193
X14.1489 Y14.9704 Z-2.0257
X14.1449 Y14.9486 Z-2.0321
X14.1400 Y14.9270 Z-2.0385
X14.1343 Y14.9056 Z-2.0449
X14.1277 Y14.8844 Z-2.0513
X14.1203 Y14.8636 Z-2.0578
X14.1120 Y14.8430 Z-2.0642
X14.1029 Y14.8228 Z-2.0706
X14.0930 Y14.8030 Z-2.0770
X14.0823 Y14.7836 Z-2.0834
X14.0709 Y14.7646 Z-2.0898
X14.0587 Y14.7462 Z-2.0962
X14.0457 Y14.7282 Z-2.1026
X14.0320 Y14.7108 Z-2.1090
X14.0177 Y14.6939 Z-2.1154
X14.0027 Y14.6776 Z-2.1219
X13.9870 Y14.6619 Z-2.1283
X13.9707 Y14.6469 Z-2.1347
X13.9539 Y14.6326 Z-2.1411
X13.9364 Y14.6189 Z-2.1475
X13.9184 Y14.6060 Z-2.1539
X13.9000 Y14.5937 Z-2.1603
X13.8810 Y14.5823 Z-2.1667
X13.8616 Y14.5716 Z-2.1731
X13.8418 Y14.5617 Z-2.1795
X13.8216 Y14.5526 Z-2.1860
X13.8010 Y14.5443 Z-2.1924
X13.7802 Y14.5369 Z-2.1988
X13.7590 Y14.5303 Z-2.2052
X13.7376 Y14.5246 Z-2.2116
X13.7160 Y14.5197 Z-2.2180
X13.6942 Y14.5157 Z-2.2244
X13.6723 Y14.5126 Z-2.2308
X13.6503 Y14.5104 Z-2.2372
X13.6282 Y14.5090 Z-2.2436
X13.6060 Y14.5086 Z-2.2501
X13.5839 Y14.5090 Z-2.2565
X13.5618 Y14.5104 Z-2.2629
X13.5397 Y14.5126 Z-2.2693
X13.5178 Y14.5157 Z-2.2757
X13.4960 Y14.5197 Z-2.2821
X13.4744 Y14.5246 Z-2.2885
X13.4530 Y14.5303 Z-2.2949
X13.4318 Y14.5369 Z-2.3013
X13.4110 Y14.5443 Z-2.3077
X13.3904 Y14.5526 Z-2.3141
X13.3702 Y14.5617 Z-2.3206
X13.3504 Y14.5716 Z-2.3270
X13.3310 Y14.5823 Z-2.3334
X13.3121 Y14.5937 Z-2.3398
X13.2936 Y14.6060 Z-2.3462
X13.2756 Y14.6189 Z-2.3526
X13.2582 Y14.6326 Z-2.3590
X13.2413 Y14.6469 Z-2.3654
X13.2250 Y14.6619 Z-2.3718
X13.2093 Y14.6776 Z-2.3782
X13.1943 Y14.6939 Z-2.3847
X13.1800 Y14.7108 Z-2.3911
X13.1663 Y14.7282 Z-2.3975
X13.1534 Y14.7462 Z-2.4039
X13.1412 Y14.7646 Z-2.4103
X13.1297 Y14.7836 Z-2.4167
X13.1190 Y14.8030 Z-2.4231
X13.1091 Y14.8228 Z-2.4295
X13.1000 Y14.8430 Z-2.4359
X13.0918 Y14.8636 Z-2.4423
X13.0843 Y14.8844 Z-2.4488
X13.0777 Y14.9056 Z-2.4552
X13.0720 Y14.9270 Z-2.4616
X13.0671 Y14.9486 Z-2.4680
X13.0631 Y14.9704 Z-2.4744
X13.0600 Y14.9923 Z-2.4808
X13.0578 Y15.0143 Z-2.4872
X13.0565 Y15.0365 Z-2.4936
X13.0560 Y15.0586 Z-2.5000
X13.0565 Y15.0807 Z-2.5064
X13.0578 Y15.1029 Z-2.5129
X13.0600 Y15.1249 Z-2.5193
X13.0631 Y15.1468 Z-2.5257
X13.0671 Y15.1686 Z-2.5321
X13.0720 Y15.1902 Z-2.5385
X13.0777 Y15.2116 Z-2.5449
X13.0843 Y15.2328 Z-2.5513
X13.0918 Y15.2536 Z-2.5577
X13.1000 Y15.2742 Z-2.5641
X13.1091 Y15.2944 Z-2.5705
X13.1190 Y15.3142 Z-2.5770
X13.1297 Y15.3336 Z-2.5834
X13.1412 Y15.3526 Z-2.5898
X13.1534 Y15.3710 Z-2.5962
X13.1663 Y15.3890 Z-2.6026
X13.1800 Y15.4064 Z-2.6090
X13.1943 Y15.4233 Z-2.6154
X13.2093 Y15.4396 Z-2.6218
X13.2250 Y15.4553 Z-2.6282
X13.2413 Y15.4703 Z-2.6346
X13.2582 Y15.4846 Z-2.6410
X13.2756 Y15.4983 Z-2.6475
X13.2936 Y15.5112 Z-2.6539
X13.3121 Y15.5235 Z-2.6603
X13.3310 Y15.5349 Z-2.6667
X13.3504 Y15.5456 Z-2.6731
X13.3702 Y15.5555 Z-2.6795
X13.3904 Y15.5646 Z-2.6859
X13.4110 Y15.5729 Z-2.6923
X13.4318 Y15.5803 Z-2.6987
X13.4530 Y15.5869 Z-2.7051
X13.4744 Y15.5926 Z-2.7116
X13.4960 Y15.5975 Z-2.7180
X13.5178 Y15.6015 Z-2.7244
X13.5397 Y15.6046 Z-2.7308
X13.5618 Y15.6068 Z-2.7372
X13.5839 Y15.6082 Z-2.7436
X13.6060 Y15.6086 Z-2.7500
X13.6282 Y15.6082 Z-2.7564
X13.6503 Y15.6068 Z-2.7628
X13.6723 Y15.6046 Z-2.7692
X13.6942 Y15.6015 Z-2.7757
X13.7160 Y15.5975 Z-2.7821
X13.7376 Y15.5926 Z-2.7885
X13.7590 Y15.5869 Z-2.7949
X13.7802 Y15.5803 Z-2.8013
X13.8010 Y15.5729 Z-2.8077
X13.8216 Y15.5646 Z-2.8141
X13.8418 Y15.5555 Z-2.8205
X13.8616 Y15.5456 Z-2.8269
X13.8810 Y15.5349 Z-2.8333
X13.9000 Y15.5235 Z-2.8398
X13.9184 Y15.5112 Z-2.8462
X13.9364 Y15.4983 Z-2.8526
X13.9539 Y15.4846 Z-2.8590
X13.9707 Y15.4703 Z-2.8654
X13.9870 Y15.4553 Z-2.8718
X14.0027 Y15.4396 Z-2.8782
X14.0177 Y15.4233 Z-2.8846
X14.0320 Y15.4064 Z-2.8910
X14.0457 Y15.3890 Z-2.8974
X14.0587 Y15.3710 Z-2.9039
X14.0709 Y15.3526 Z-2.9103
X14.0823 Y15.3336 Z-2.9167
X14.0930 Y15.3142 Z-2.9231
X14.1029 Y15.2944 Z-2.9295
X14.1120 Y15.2742 Z-2.9359
X14.1203 Y15.2536 Z-2.9423
X14.1277 Y15.2328 Z-2.9487
X14.1343 Y15.2116 Z-2.9551
X14.1400 Y15.1902 Z-2.9615
X14.1449 Y15.1686 Z-2.9680
X14.1489 Y15.1468 Z-2.9744
X14.1520 Y15.1249 Z-2.9808
X14.1542 Y15.1029 Z-2.9872
X14.1556 Y15.0807 Z-2.9936
X14.1560 Y15.0586 Z-3.0000
G02X13.0560I-0.5500J0.0000
X14.1560I0.5500J0.0000
G01 Y15.0588
Y15.0586 Z-3.0001
X14.1556 Y15.0365 Z-3.0065
X14.1542 Y15.0143 Z-3.0129
X14.1520 Y14.9923 Z-3.0193
X14.1489 Y14.9704 Z-3.0257
X14.1449 Y14.9486 Z-3.0321
X14.1400 Y14.9270 Z-3.0385
X14.1343 Y14.9056 Z-3.0449
X14.1277 Y14.8844 Z-3.0513
X14.1203 Y14.8636 Z-3.0578
X14.1120 Y14.8430 Z-3.0642
X14.1029 Y14.8228 Z-3.0706
X14.0930 Y14.8030 Z-3.0770
X14.0823 Y14.7836 Z-3.0834
X14.0709 Y14.7646 Z-3.0898
X14.0587 Y14.7462 Z-3.0962
X14.0457 Y14.7282 Z-3.1026
X14.0320 Y14.7108 Z-3.1090
X14.0177 Y14.6939 Z-3.1154
X14.0027 Y14.6776 Z-3.1219
X13.9870 Y14.6619 Z-3.1283
X13.9707 Y14.6469 Z-3.1347
X13.9539 Y14.6326 Z-3.1411
X13.9364 Y14.6189 Z-3.1475
X13.9184 Y14.6060 Z-3.1539
X13.9000 Y14.5937 Z-3.1603
X13.8810 Y14.5823 Z-3.1667
X13.8616 Y14.5716 Z-3.1731
X13.8418 Y14.5617 Z-3.1795
X13.8216 Y14.5526 Z-3.1860
X13.8010 Y14.5443 Z-3.1924
X13.7802 Y14.5369 Z-3.1988
X13.7590 Y14.5303 Z-3.2052
X13.7376 Y14.5246 Z-3.2116
X13.7160 Y14.5197 Z-3.2180
X13.6942 Y14.5157 Z-3.2244
X13.6723 Y14.5126 Z-3.2308
X13.6503 Y14.5104 Z-3.2372
X13.6282 Y14.5090 Z-3.2436
X13.6060 Y14.5086 Z-3.2501
X13.5839 Y14.5090 Z-3.2565
X13.5618 Y14.5104 Z-3.2629
X13.5397 Y14.5126 Z-3.2693
X13.5178 Y14.5157 Z-3.2757
X13.4960 Y14.5197 Z-3.2821
X13.4744 Y14.5246 Z-3.2885
X13.4530 Y14.5303 Z-3.2949
X13.4318 Y14.5369 Z-3.3013
X13.4110 Y14.5443 Z-3.3077
X13.3904 Y14.5526 Z-3.3141
X13.3702 Y14.5617 Z-3.3206
X13.3504 Y14.5716 Z-3.3270
X13.3310 Y14.5823 Z-3.3334
X13.3121 Y14.5937 Z-3.3398
X13.2936 Y14.6060 Z-3.3462
X13.2756 Y14.6189 Z-3.3526
X13.2582 Y14.6326 Z-3.3590
X13.2413 Y14.6469 Z-3.3654
X13.2250 Y14.6619 Z-3.3718
X13.2093 Y14.6776 Z-3.3782
X13.1943 Y14.6939 Z-3.3847
X13.1800 Y14.7108 Z-3.3911
X13.1663 Y14.7282 Z-3.3975
X13.1534 Y14.7462 Z-3.4039
X13.1412 Y14.7646 Z-3.4103
X13.1297 Y14.7836 Z-3.4167
X13.1190 Y14.8030 Z-3.4231
X13.1091 Y14.8228 Z-3.4295
X13.1000 Y14.8430 Z-3.4359
X13.0918 Y14.8636 Z-3.4423
X13.0843 Y14.8844 Z-3.4488
X13.0777 Y14.9056 Z-3.4552
X13.0720 Y14.9270 Z-3.4616
X13.0671 Y14.9486 Z-3.4680
X13.0631 Y14.9704 Z-3.4744
X13.0600 Y14.9923 Z-3.4808
X13.0578 Y15.0143 Z-3.4872
X13.0565 Y15.0365 Z-3.4936
X13.0560 Y15.0586 Z-3.5000
X13.0565 Y15.0807 Z-3.5064
X13.0578 Y15.1029 Z-3.5129
X13.0600 Y15.1249 Z-3.5193
X13.0631 Y15.1468 Z-3.5257
X13.0671 Y15.1686 Z-3.5321
X13.0720 Y15.1902 Z-3.5385
X13.0777 Y15.2116 Z-3.5449
X13.0843 Y15.2328 Z-3.5513
X13.0918 Y15.2536 Z-3.5577
X13.1000 Y15.2742 Z-3.5641
X13.1091 Y15.2944 Z-3.5705
X13.1190 Y15.3142 Z-3.5770
X13.1297 Y15.3336 Z-3.5834
X13.1412 Y15.3526 Z-3.5898
X13.1534 Y15.3710 Z-3.5962
X13.1663 Y15.3890 Z-3.6026
X13.1800 Y15.4064 Z-3.6090
X13.1943 Y15.4233 Z-3.6154
X13.2093 Y15.4396 Z-3.6218
X13.2250 Y15.4553 Z-3.6282
X13.2413 Y15.4703 Z-3.6346
X13.2582 Y15.4846 Z-3.6410
X13.2756 Y15.4983 Z-3.6475
X13.2936 Y15.5112 Z-3.6539
X13.3121 Y15.5235 Z-3.6603
X13.3310 Y15.5349 Z-3.6667
X13.3504 Y15.5456 Z-3.6731
X13.3702 Y15.5555 Z-3.6795
X13.3904 Y15.5646 Z-3.6859
X13.4110 Y15.5729 Z-3.6923
X13.4318 Y15.5803 Z-3.6987
X13.4530 Y15.5869 Z-3.7051
X13.4744 Y15.5926 Z-3.7116
X13.4960 Y15.5975 Z-3.7180
X13.5178 Y15.6015 Z-3.7244
X13.5397 Y15.6046 Z-3.7308
X13.5618 Y15.6068 Z-3.7372
X13.5839 Y15.6082 Z-3.7436
X13.6060 Y15.6086 Z-3.7500
X13.6282 Y15.6082 Z-3.7564
X13.6503 Y15.6068 Z-3.7628
X13.6723 Y15.6046 Z-3.7692
X13.6942 Y15.6015 Z-3.7757
X13.7160 Y15.5975 Z-3.7821
X13.7376 Y15.5926 Z-3.7885
X13.7590 Y15.5869 Z-3.7949
X13.7802 Y15.5803 Z-3.8013
X13.8010 Y15.5729 Z-3.8077
X13.8216 Y15.5646 Z-3.8141
X13.8418 Y15.5555 Z-3.8205
X13.8616 Y15.5456 Z-3.8269
X13.8810 Y15.5349 Z-3.8333
X13.9000 Y15.5235 Z-3.8398
X13.9184 Y15.5112 Z-3.8462
X13.9364 Y15.4983 Z-3.8526
X13.9539 Y15.4846 Z-3.8590
X13.9707 Y15.4703 Z-3.8654
X13.9870 Y15.4553 Z-3.8718
X14.0027 Y15.4396 Z-3.8782
X14.0177 Y15.4233 Z-3.8846
X14.0320 Y15.4064 Z-3.8910
X14.0457 Y15.3890 Z-3.8974
X14.0587 Y15.3710 Z-3.9039
X14.0709 Y15.3526 Z-3.9103
X14.0823 Y15.3336 Z-3.9167
X14.0930 Y15.3142 Z-3.9231
X14.1029 Y15.2944 Z-3.9295
X14.1120 Y15.2742 Z-3.9359
X14.1203 Y15.2536 Z-3.9423
X14.1277 Y15.2328 Z-3.9487
X14.1343 Y15.2116 Z-3.9551
X14.1400 Y15.1902 Z-3.9615
X14.1449 Y15.1686 Z-3.9680
X14.1489 Y15.1468 Z-3.9744
X14.1520 Y15.1249 Z-3.9808
X14.1542 Y15.1029 Z-3.9872
X14.1556 Y15.0807 Z-3.9936
X14.1560 Y15.0586 Z-4.0000
G02X13.0560I-0.5500J0.0000
X14.1560I0.5500J0.0000
G01 Y15.0588
Y15.0586 Z-4.0001
X14.1556 Y15.0365 Z-4.0065
X14.1542 Y15.0143 Z-4.0129
X14.1520 Y14.9923 Z-4.0193
X14.1489 Y14.9704 Z-4.0257
X14.1449 Y14.9486 Z-4.0321
X14.1400 Y14.9270 Z-4.0385
X14.1343 Y14.9056 Z-4.0449
X14.1277 Y14.8844 Z-4.0513
X14.1203 Y14.8636 Z-4.0578
X14.1120 Y14.8430 Z-4.0642
X14.1029 Y14.8228 Z-4.0706
X14.0930 Y14.8030 Z-4.0770
X14.0823 Y14.7836 Z-4.0834
X14.0709 Y14.7646 Z-4.0898
X14.0587 Y14.7462 Z-4.0962
X14.0457 Y14.7282 Z-4.1026
X14.0320 Y14.7108 Z-4.1090
X14.0177 Y14.6939 Z-4.1154
X14.0027 Y14.6776 Z-4.1219
X13.9870 Y14.6619 Z-4.1283
X13.9707 Y14.6469 Z-4.1347
X13.9539 Y14.6326 Z-4.1411
X13.9364 Y14.6189 Z-4.1475
X13.9184 Y14.6060 Z-4.1539
X13.9000 Y14.5937 Z-4.1603
X13.8810 Y14.5823 Z-4.1667
X13.8616 Y14.5716 Z-4.1731
X13.8418 Y14.5617 Z-4.1795
X13.8216 Y14.5526 Z-4.1860
X13.8010 Y14.5443 Z-4.1924
X13.7802 Y14.5369 Z-4.1988
X13.7590 Y14.5303 Z-4.2052
X13.7376 Y14.5246 Z-4.2116
X13.7160 Y14.5197 Z-4.2180
X13.6942 Y14.5157 Z-4.2244
X13.6723 Y14.5126 Z-4.2308
X13.6503 Y14.5104 Z-4.2372
X13.6282 Y14.5090 Z-4.2436
X13.6060 Y14.5086 Z-4.2501
X13.5839 Y14.5090 Z-4.2565
X13.5618 Y14.5104 Z-4.2629
X13.5397 Y14.5126 Z-4.2693
X13.5178 Y14.5157 Z-4.2757
X13.4960 Y14.5197 Z-4.2821
X13.4744 Y14.5246 Z-4.2885
X13.4530 Y14.5303 Z-4.2949
X13.4318 Y14.5369 Z-4.3013
X13.4110 Y14.5443 Z-4.3077
X13.3904 Y14.5526 Z-4.3141
X13.3702 Y14.5617 Z-4.3206
X13.3504 Y14.5716 Z-4.3270
X13.3310 Y14.5823 Z-4.3334
X13.3121 Y14.5937 Z-4.3398
X13.2936 Y14.6060 Z-4.3462
X13.2756 Y14.6189 Z-4.3526
X13.2582 Y14.6326 Z-4.3590
X13.2413 Y14.6469 Z-4.3654
X13.2250 Y14.6619 Z-4.3718
X13.2093 Y14.6776 Z-4.3782
X13.1943 Y14.6939 Z-4.3847
X13.1800 Y14.7108 Z-4.3911
X13.1663 Y14.7282 Z-4.3975
X13.1534 Y14.7462 Z-4.4039
X13.1412 Y14.7646 Z-4.4103
X13.1297 Y14.7836 Z-4.4167
X13.1190 Y14.8030 Z-4.4231
X13.1091 Y14.8228 Z-4.4295
X13.1000 Y14.8430 Z-4.4359
X13.0918 Y14.8636 Z-4.4423
X13.0843 Y14.8844 Z-4.4488
X13.0777 Y14.9056 Z-4.4552
X13.0720 Y14.9270 Z-4.4616
X13.0671 Y14.9486 Z-4.4680
X13.0631 Y14.9704 Z-4.4744
X13.0600 Y14.9923 Z-4.4808
X13.0578 Y15.0143 Z-4.4872
X13.0565 Y15.0365 Z-4.4936
X13.0560 Y15.0586 Z-4.5000
X13.0565 Y15.0807 Z-4.5064
X13.0578 Y15.1029 Z-4.5129
X13.0600 Y15.1249 Z-4.5193
X13.0631 Y15.1468 Z-4.5257
X13.0671 Y15.1686 Z-4.5321
X13.0720 Y15.1902 Z-4.5385
X13.0777 Y15.2116 Z-4.5449
X13.0843 Y15.2328 Z-4.5513
X13.0918 Y15.2536 Z-4.5577
X13.1000 Y15.2742 Z-4.5641
X13.1091 Y15.2944 Z-4.5705
X13.1190 Y15.3142 Z-4.5770
X13.1297 Y15.3336 Z-4.5834
X13.1412 Y15.3526 Z-4.5898
X13.1534 Y15.3710 Z-4.5962
X13.1663 Y15.3890 Z-4.6026
X13.1800 Y15.4064 Z-4.6090
X13.1943 Y15.4233 Z-4.6154
X13.2093 Y15.4396 Z-4.6218
X13.2250 Y15.4553 Z-4.6282
X13.2413 Y15.4703 Z-4.6346
X13.2582 Y15.4846 Z-4.6410
X13.2756 Y15.4983 Z-4.6475
X13.2936 Y15.5112 Z-4.6539
X13.3121 Y15.5235 Z-4.6603
X13.3310 Y15.5349 Z-4.6667
X13.3504 Y15.5456 Z-4.6731
X13.3702 Y15.5555 Z-4.6795
X13.3904 Y15.5646 Z-4.6859
X13.4110 Y15.5729 Z-4.6923
X13.4318 Y15.5803 Z-4.6987
X13.4530 Y15.5869 Z-4.7051
X13.4744 Y15.5926 Z-4.7116
X13.4960 Y15.5975 Z-4.7180
X13.5178 Y15.6015 Z-4.7244
X13.5397 Y15.6046 Z-4.7308
X13.5618 Y15.6068 Z-4.7372
X13.5839 Y15.6082 Z-4.7436
X13.6060 Y15.6086 Z-4.7500
X13.6282 Y15.6082 Z-4.7564
X13.6503 Y15.6068 Z-4.7628
X13.6723 Y15.6046 Z-4.7692
X13.6942 Y15.6015 Z-4.7757
X13.7160 Y15.5975 Z-4.7821
X13.7376 Y15.5926 Z-4.7885
X13.7590 Y15.5869 Z-4.7949
X13.7802 Y15.5803 Z-4.8013
X13.8010 Y15.5729 Z-4.8077
X13.8216 Y15.5646 Z-4.8141
X13.8418 Y15.5555 Z-4.8205
X13.8616 Y15.5456 Z-4.8269
X13.8810 Y15.5349 Z-4.8333
X13.9000 Y15.5235 Z-4.8398
X13.9184 Y15.5112 Z-4.8462
X13.9364 Y15.4983 Z-4.8526
X13.9539 Y15.4846 Z-4.8590
X13.9707 Y15.4703 Z-4.8654
X13.9870 Y15.4553 Z-4.8718
X14.0027 Y15.4396 Z-4.8782
X14.0177 Y15.4233 Z-4.8846
X14.0320 Y15.4064 Z-4.8910
X14.0457 Y15.3890 Z-4.8974
X14.0587 Y15.3710 Z-4.9039
X14.0709 Y15.3526 Z-4.9103
X14.0823 Y15.3336 Z-4.9167
X14.0930 Y15.3142 Z-4.9231
X14.1029 Y15.2944 Z-4.9295
X14.1120 Y15.2742 Z-4.9359
X14.1203 Y15.2536 Z-4.9423
X14.1277 Y15.2328 Z-4.9487
X14.1343 Y15.2116 Z-4.9551
X14.1400 Y15.1902 Z-4.9615
X14.1449 Y15.1686 Z-4.9680
X14.1489 Y15.1468 Z-4.9744
X14.1520 Y15.1249 Z-4.9808
X14.1542 Y15.1029 Z-4.9872
X14.1556 Y15.0807 Z-4.9936
X14.1560 Y15.0586 Z-5.0000
G02X13.0560I-0.5500J0.0000
X14.1560I0.5500J0.0000
G01 X13.6060
G00 Z1.0000
X13.2426 Y79.1618
G01 Z0.6350  F1000.0
X13.2413 Y79.1629 Z0.6345  F100.0
X13.2250 Y79.1779 Z0.6281
X13.2094 Y79.1936 Z0.6217
X13.1943 Y79.2099 Z0.6153
X13.1800 Y79.2268 Z0.6089
X13.1663 Y79.2442 Z0.6025
X13.1534 Y79.2622 Z0.5960
X13.1412 Y79.2806 Z0.5896
X13.1297 Y79.2996 Z0.5832
X13.1190 Y79.3190 Z0.5768
X13.1091 Y79.3388 Z0.5704
X13.1000 Y79.3590 Z0.5640
X13.0918 Y79.3796 Z0.5576
X13.0843 Y79.4004 Z0.5512
X13.0777 Y79.4216 Z0.5448
X13.0720 Y79.4430 Z0.5384
X13.0671 Y79.4646 Z0.5319
X13.0631 Y79.4864 Z0.5255
X13.0600 Y79.5083 Z0.5191
X13.0578 Y79.5303 Z0.5127
X13.0565 Y79.5525 Z0.5063
X13.0560 Y79.5746 Z0.4999
X13.0565 Y79.5967 Z0.4935
X13.0578 Y79.6189 Z0.4871
X13.0600 Y79.6409 Z0.4807
X13.0631 Y79.6628 Z0.4743
X13.0671 Y79.6846 Z0.4678
X13.0720 Y79.7062 Z0.4614
X13.0777 Y79.7276 Z0.4550
X13.0843 Y79.7488 Z0.4486
X13.0918 Y79.7696 Z0.4422
X13.1000 Y79.7902 Z0.4358
X13.1091 Y79.8104 Z0.4294
X13.1190 Y79.8302 Z0.4230
X13.1297 Y79.8496 Z0.4166
X13.1412 Y79.8686 Z0.4102
X13.1534 Y79.8870 Z0.4038
X13.1663 Y79.9050 Z0.3973
X13.1800 Y79.9224 Z0.3909
X13.1943 Y79.9393 Z0.3845
X13.2094 Y79.9556 Z0.3781
X13.2250 Y79.9713 Z0.3717
X13.2413 Y79.9863 Z0.3653
X13.2582 Y80.0006 Z0.3589
X13.2756 Y80.0143 Z0.3525
X13.2936 Y80.0272 Z0.3461
X13.3121 Y80.0395 Z0.3397
X13.3310 Y80.0509 Z0.3332
X13.3504 Y80.0616 Z0.3268
X13.3702 Y80.0715 Z0.3204
X13.3904 Y80.0806 Z0.3140
X13.4110 Y80.0889 Z0.3076
X13.4318 Y80.0963 Z0.3012
X13.4530 Y80.1029 Z0.2948
X13.4744 Y80.1086 Z0.2884
X13.4960 Y80.1135 Z0.2820
X13.5178 Y80.1175 Z0.2756
X13.5397 Y80.1206 Z0.2691
X13.5618 Y80.1228 Z0.2627
X13.5839 Y80.1242 Z0.2563
X13.6060 Y80.1246 Z0.2499
X13.6282 Y80.1242 Z0.2435
X13.6503 Y80.1228 Z0.2371
X13.6723 Y80.1206 Z0.2307
X13.6942 Y80.1175 Z0.2243
X13.7160 Y80.1135 Z0.2179
X13.7376 Y80.1086 Z0.2115
X13.7590 Y80.1029 Z0.2050
X13.7802 Y80.0963 Z0.1986
X13.8010 Y80.0889 Z0.1922
X13.8216 Y80.0806 Z0.1858
X13.8418 Y80.0715 Z0.1794
X13.8616 Y80.0616 Z0.1730
X13.8810 Y80.0509 Z0.1666
X13.9000 Y80.0395 Z0.1602
X13.9184 Y80.0272 Z0.1538
X13.9364 Y80.0143 Z0.1474
X13.9539 Y80.0006 Z0.1409
X13.9707 Y79.9863 Z0.1345
X13.9870 Y79.9713 Z0.1281
X14.0027 Y79.9556 Z0.1217
X14.0177 Y79.9393 Z0.1153
X14.0320 Y79.9224 Z0.1089
X14.0457 Y79.9050 Z0.1025
X14.0587 Y79.8870 Z0.0961
X14.0709 Y79.8686 Z0.0897
X14.0823 Y79.8496 Z0.0833
X14.0930 Y79.8302 Z0.0769
X14.1029 Y79.8104 Z0.0704
X14.1120 Y79.7902 Z0.0640
X14.1203 Y79.7696 Z0.0576
X14.1277 Y79.7488 Z0.0512
X14.1343 Y79.7276 Z0.0448
X14.1400 Y79.7062 Z0.0384
X14.1449 Y79.6846 Z0.0320
X14.1489 Y79.6628 Z0.0256
X14.1520 Y79.6409 Z0.0192
X14.1542 Y79.6189 Z0.0128
X14.1556 Y79.5967 Z0.0063
X14.1560 Y79.5746 Z-0.0001
X14.1556 Y79.5525 Z-0.0065
X14.1542 Y79.5303 Z-0.0129
X14.1520 Y79.5083 Z-0.0193
X14.1489 Y79.4864 Z-0.0257
X14.1449 Y79.4646 Z-0.0321
X14.1400 Y79.4430 Z-0.0385
X14.1343 Y79.4216 Z-0.0449
X14.1277 Y79.4004 Z-0.0513
X14.1203 Y79.3796 Z-0.0578
X14.1120 Y79.3590 Z-0.0642
X14.1029 Y79.3388 Z-0.0706
X14.0930 Y79.3190 Z-0.0770
X14.0823 Y79.2996 Z-0.0834
X14.0709 Y79.2806 Z-0.0898
X14.0587 Y79.2622 Z-0.0962
X14.0457 Y79.2442 Z-0.1026
X14.0320 Y79.2268 Z-0.1090
X14.0177 Y79.2099 Z-0.1154
X14.0027 Y79.1936 Z-0.1219
X13.9870 Y79.1779 Z-0.1283
X13.9707 Y79.1629 Z-0.1347
X13.9539 Y79.1486 Z-0.1411
X13.9364 Y79.1349 Z-0.1475
X13.9184 Y79.1220 Z-0.1539
X13.9000 Y79.1097 Z-0.1603
X13.8810 Y79.0983 Z-0.1667
X13.8616 Y79.0876 Z-0.1731
X13.8418 Y79.0777 Z-0.1795
X13.8216 Y79.0686 Z-0.1860
X13.8010 Y79.0603 Z-0.1924
X13.7802 Y79.0529 Z-0.1988
X13.7590 Y79.0463 Z-0.2052
X13.7376 Y79.0406 Z-0.2116
X13.7160 Y79.0357 Z-0.2180
X13.6942 Y79.0317 Z-0.2244
X13.6723 Y79.0286 Z-0.2308
X13.6503 Y79.0264 Z-0.2372
X13.6282 Y79.0250 Z-0.2436
X13.6060 Y79.0246 Z-0.2500
X13.5839 Y79.0250 Z-0.2565
X13.5618 Y79.0264 Z-0.2629
X13.5397 Y79.0286 Z-0.2693
X13.5178 Y79.0317 Z-0.2757
X13.4960 Y79.0357 Z-0.2821
X13.4744 Y79.0406 Z-0.2885
X13.4530 Y79.0463 Z-0.2949
X13.4318 Y79.0529 Z-0.3013
X13.4110 Y79.0603 Z-0.3077
X13.3904 Y79.0686 Z-0.3141
X13.3702 Y79.0777 Z-0.3206
X13.3504 Y79.0876 Z-0.3270
X13.3310 Y79.0983 Z-0.3334
X13.3121 Y79.1097 Z-0.3398
X13.2936 Y79.1220 Z-0.3462
X13.2756 Y79.1349 Z-0.3526
X13.2582 Y79.1486 Z-0.3590
X13.2413 Y79.1629 Z-0.3654
X13.2250 Y79.1779 Z-0.3718
X13.2094 Y79.1936 Z-0.3782
X13.1943 Y79.2099 Z-0.3847
X13.1800 Y79.2268 Z-0.3911
X13.1663 Y79.2442 Z-0.3975
X13.1534 Y79.2622 Z-0.4039
X13.1412 Y79.2806 Z-0.4103
X13.1297 Y79.2996 Z-0.4167
X13.1190 Y79.3190 Z-0.4231
X13.1091 Y79.3388 Z-0.4295
X13.1000 Y79.3590 Z-0.4359
X13.0918 Y79.3796 Z-0.4423
X13.0843 Y79.4004 Z-0.4488
X13.0777 Y79.4216 Z-0.4552
X13.0720 Y79.4430 Z-0.4616
X13.0671 Y79.4646 Z-0.4680
X13.0631 Y79.4864 Z-0.4744
X13.0600 Y79.5083 Z-0.4808
X13.0578 Y79.5303 Z-0.4872
X13.0565 Y79.5525 Z-0.4936
X13.0560 Y79.5746 Z-0.5000
X13.0565 Y79.5967 Z-0.5064
X13.0578 Y79.6189 Z-0.5129
X13.0600 Y79.6409 Z-0.5193
X13.0631 Y79.6628 Z-0.5257
X13.0671 Y79.6846 Z-0.5321
X13.0720 Y79.7062 Z-0.5385
X13.0777 Y79.7276 Z-0.5449
X13.0843 Y79.7488 Z-0.5513
X13.0918 Y79.7696 Z-0.5577
X13.1000 Y79.7902 Z-0.5641
X13.1091 Y79.8104 Z-0.5705
X13.1190 Y79.8302 Z-0.5770
X13.1297 Y79.8496 Z-0.5834
X13.1412 Y79.8686 Z-0.5898
X13.1534 Y79.8870 Z-0.5962
X13.1663 Y79.9050 Z-0.6026
X13.1800 Y79.9224 Z-0.6090
X13.1943 Y79.9393 Z-0.6154
X13.2094 Y79.9556 Z-0.6218
X13.2250 Y79.9713 Z-0.6282
X13.2413 Y79.9863 Z-0.6346
X13.2582 Y80.0006 Z-0.6410
X13.2756 Y80.0143 Z-0.6475
X13.2936 Y80.0272 Z-0.6539
X13.3121 Y80.0395 Z-0.6603
X13.3310 Y80.0509 Z-0.6667
X13.3504 Y80.0616 Z-0.6731
X13.3702 Y80.0715 Z-0.6795
X13.3904 Y80.0806 Z-0.6859
X13.4110 Y80.0889 Z-0.6923
X13.4318 Y80.0963 Z-0.6987
X13.4530 Y80.1029 Z-0.7051
X13.4744 Y80.1086 Z-0.7116
X13.4960 Y80.1135 Z-0.7180
X13.5178 Y80.1175 Z-0.7244
X13.5397 Y80.1206 Z-0.7308
X13.5618 Y80.1228 Z-0.7372
X13.5839 Y80.1242 Z-0.7436
X13.6060 Y80.1246 Z-0.7500
X13.6282 Y80.1242 Z-0.7564
X13.6503 Y80.1228 Z-0.7628
X13.6723 Y80.1206 Z-0.7692
X13.6942 Y80.1175 Z-0.7757
X13.7160 Y80.1135 Z-0.7821
X13.7376 Y80.1086 Z-0.7885
X13.7590 Y80.1029 Z-0.7949
X13.7802 Y80.0963 Z-0.8013
X13.8010 Y80.0889 Z-0.8077
X13.8216 Y80.0806 Z-0.8141
X13.8418 Y80.0715 Z-0.8205
X13.8616 Y80.0616 Z-0.8269
X13.8810 Y80.0509 Z-0.8333
X13.9000 Y80.0395 Z-0.8398
X13.9184 Y80.0272 Z-0.8462
X13.9364 Y80.0143 Z-0.8526
X13.9539 Y80.0006 Z-0.8590
X13.9707 Y79.9863 Z-0.8654
X13.9870 Y79.9713 Z-0.8718
X14.0027 Y79.9556 Z-0.8782
X14.0177 Y79.9393 Z-0.8846
X14.0320 Y79.9224 Z-0.8910
X14.0457 Y79.9050 Z-0.8974
X14.0587 Y79.8870 Z-0.9039
X14.0709 Y79.8686 Z-0.9103
X14.0823 Y79.8496 Z-0.9167
X14.0930 Y79.8302 Z-0.9231
X14.1029 Y79.8104 Z-0.9295
X14.1120 Y79.7902 Z-0.9359
X14.1203 Y79.7696 Z-0.9423
X14.1277 Y79.7488 Z-0.9487
X14.1343 Y79.7276 Z-0.9551
X14.1400 Y79.7062 Z-0.9615
X14.1449 Y79.6846 Z-0.9679
X14.1489 Y79.6628 Z-0.9744
X14.1520 Y79.6409 Z-0.9808
X14.1542 Y79.6189 Z-0.9872
X14.1556 Y79.5967 Z-0.9936
X14.1560 Y79.5746 Z-1.0000
G02X13.0560I-0.5500J0.0000
X14.1560I0.5500J0.0000
G01 Y79.5748
Y79.5746 Z-1.0001
X14.1556 Y79.5525 Z-1.0065
X14.1542 Y79.5303 Z-1.0129
X14.1520 Y79.5083 Z-1.0193
X14.1489 Y79.4864 Z-1.0257
X14.1449 Y79.4646 Z-1.0321
X14.1400 Y79.4430 Z-1.0385
X14.1343 Y79.4216 Z-1.0449
X14.1277 Y79.4004 Z-1.0513
X14.1203 Y79.3796 Z-1.0578
X14.1120 Y79.3590 Z-1.0642
X14.1029 Y79.3388 Z-1.0706
X14.0930 Y79.3190 Z-1.0770
X14.0823 Y79.2996 Z-1.0834
X14.0709 Y79.2806 Z-1.0898
X14.0587 Y79.2622 Z-1.0962
X14.0457 Y79.2442 Z-1.1026
X14.0320 Y79.2268 Z-1.1090
X14.0177 Y79.2099 Z-1.1154
X14.0027 Y79.1936 Z-1.1219
X13.9870 Y79.1779 Z-1.1283
X13.9707 Y79.1629 Z-1.1347
X13.9539 Y79.1486 Z-1.1411
X13.9364 Y79.1349 Z-1.1475
X13.9184 Y79.1220 Z-1.1539
X13.9000 Y79.1097 Z-1.1603
X13.8810 Y79.0983 Z-1.1667
X13.8616 Y79.0876 Z-1.1731
X13.8418 Y79.0777 Z-1.1795
X13.8216 Y79.0686 Z-1.1860
X13.8010 Y79.0603 Z-1.1924
X13.7802 Y79.0529 Z-1.1988
X13.7590 Y79.0463 Z-1.2052
X13.7376 Y79.0406 Z-1.2116
X13.7160 Y79.0357 Z-1.2180
X13.6942 Y79.0317 Z-1.2244
X13.6723 Y79.0286 Z-1.2308
X13.6503 Y79.0264 Z-1.2372
X13.6282 Y79.0250 Z-1.2436
X13.6060 Y79.0246 Z-1.2501
X13.5839 Y79.0250 Z-1.2565
X13.5618 Y79.0264 Z-1.2629
X13.5397 Y79.0286 Z-1.2693
X13.5178 Y79.0317 Z-1.2757
X13.4960 Y79.0357 Z-1.2821
X13.4744 Y79.0406 Z-1.2885
X13.4530 Y79.0463 Z-1.2949
X13.4318 Y79.0529 Z-1.3013
X13.4110 Y79.0603 Z-1.3077
X13.3904 Y79.0686 Z-1.3141
X13.3702 Y79.0777 Z-1.3206
X13.3504 Y79.0876 Z-1.3270
X13.3310 Y79.0983 Z-1.3334
X13.3121 Y79.1097 Z-1.3398
X13.2936 Y79.1220 Z-1.3462
X13.2756 Y79.1349 Z-1.3526
X13.2582 Y79.1486 Z-1.3590
X13.2413 Y79.1629 Z-1.3654
X13.2250 Y79.1779 Z-1.3718
X13.2094 Y79.1936 Z-1.3782
X13.1943 Y79.2099 Z-1.3847
X13.1800 Y79.2268 Z-1.3911
X13.1663 Y79.2442 Z-1.3975
X13.1534 Y79.2622 Z-1.4039
X13.1412 Y79.2806 Z-1.4103
X13.1297 Y79.2996 Z-1.4167
X13.1190 Y79.3190 Z-1.4231
X13.1091 Y79.3388 Z-1.4295
X13.1000 Y79.3590 Z-1.4359
X13.0918 Y79.3796 Z-1.4423
X13.0843 Y79.4004 Z-1.4488
X13.0777 Y79.4216 Z-1.4552
X13.0720 Y79.4430 Z-1.4616
X13.0671 Y79.4646 Z-1.4680
X13.0631 Y79.4864 Z-1.4744
X13.0600 Y79.5083 Z-1.4808
X13.0578 Y79.5303 Z-1.4872
X13.0565 Y79.5525 Z-1.4936
X13.0560 Y79.5746 Z-1.5000
X13.0565 Y79.5967 Z-1.5064
X13.0578 Y79.6189 Z-1.5129
X13.0600 Y79.6409 Z-1.5193
X13.0631 Y79.6628 Z-1.5257
X13.0671 Y79.6846 Z-1.5321
X13.0720 Y79.7062 Z-1.5385
X13.0777 Y79.7276 Z-1.5449
X13.0843 Y79.7488 Z-1.5513
X13.0918 Y79.7696 Z-1.5577
X13.1000 Y79.7902 Z-1.5641
X13.1091 Y79.8104 Z-1.5705
X13.1190 Y79.8302 Z-1.5770
X13.1297 Y79.8496 Z-1.5834
X13.1412 Y79.8686 Z-1.5898
X13.1534 Y79.8870 Z-1.5962
X13.1663 Y79.9050 Z-1.6026
X13.1800 Y79.9224 Z-1.6090
X13.1943 Y79.9393 Z-1.6154
X13.2094 Y79.9556 Z-1.6218
X13.2250 Y79.9713 Z-1.6282
X13.2413 Y79.9863 Z-1.6346
X13.2582 Y80.0006 Z-1.6410
X13.2756 Y80.0143 Z-1.6475
X13.2936 Y80.0272 Z-1.6539
X13.3121 Y80.0395 Z-1.6603
X13.3310 Y80.0509 Z-1.6667
X13.3504 Y80.0616 Z-1.6731
X13.3702 Y80.0715 Z-1.6795
X13.3904 Y80.0806 Z-1.6859
X13.4110 Y80.0889 Z-1.6923
X13.4318 Y80.0963 Z-1.6987
X13.4530 Y80.1029 Z-1.7051
X13.4744 Y80.1086 Z-1.7116
X13.4960 Y80.1135 Z-1.7180
X13.5178 Y80.1175 Z-1.7244
X13.5397 Y80.1206 Z-1.7308
X13.5618 Y80.1228 Z-1.7372
X13.5839 Y80.1242 Z-1.7436
X13.6060 Y80.1246 Z-1.7500
X13.6282 Y80.1242 Z-1.7564
X13.6503 Y80.1228 Z-1.7628
X13.6723 Y80.1206 Z-1.7692
X13.6942 Y80.1175 Z-1.7757
X13.7160 Y80.1135 Z-1.7821
X13.7376 Y80.1086 Z-1.7885
X13.7590 Y80.1029 Z-1.7949
X13.7802 Y80.0963 Z-1.8013
X13.8010 Y80.0889 Z-1.8077
X13.8216 Y80.0806 Z-1.8141
X13.8418 Y80.0715 Z-1.8205
X13.8616 Y80.0616 Z-1.8269
X13.8810 Y80.0509 Z-1.8333
X13.9000 Y80.0395 Z-1.8398
X13.9184 Y80.0272 Z-1.8462
X13.9364 Y80.0143 Z-1.8526
X13.9539 Y80.0006 Z-1.8590
X13.9707 Y79.9863 Z-1.8654
X13.9870 Y79.9713 Z-1.8718
X14.0027 Y79.9556 Z-1.8782
X14.0177 Y79.9393 Z-1.8846
X14.0320 Y79.9224 Z-1.8910
X14.0457 Y79.9050 Z-1.8974
X14.0587 Y79.8870 Z-1.9039
X14.0709 Y79.8686 Z-1.9103
X14.0823 Y79.8496 Z-1.9167
X14.0930 Y79.8302 Z-1.9231
X14.1029 Y79.8104 Z-1.9295
X14.1120 Y79.7902 Z-1.9359
X14.1203 Y79.7696 Z-1.9423
X14.1277 Y79.7488 Z-1.9487
X14.1343 Y79.7276 Z-1.9551
X14.1400 Y79.7062 Z-1.9615
X14.1449 Y79.6846 Z-1.9680
X14.1489 Y79.6628 Z-1.9744
X14.1520 Y79.6409 Z-1.9808
X14.1542 Y79.6189 Z-1.9872
X14.1556 Y79.5967 Z-1.9936
X14.1560 Y79.5746 Z-2.0000
G02X13.0560I-0.5500J0.0000
X14.1560I0.5500J0.0000
G01 Y79.5748
Y79.5746 Z-2.0001
X14.1556 Y79.5525 Z-2.0065
X14.1542 Y79.5303 Z-2.0129
X14.1520 Y79.5083 Z-2.0193
X14.1489 Y79.4864 Z-2.0257
X14.1449 Y79.4646 Z-2.0321
X14.1400 Y79.4430 Z-2.0385
X14.1343 Y79.4216 Z-2.0449
X14.1277 Y79.4004 Z-2.0513
X14.1203 Y79.3796 Z-2.0578
X14.1120 Y79.3590 Z-2.0642
X14.1029 Y79.3388 Z-2.0706
X14.0930 Y79.3190 Z-2.0770
X14.0823 Y79.2996 Z-2.0834
X14.0709 Y79.2806 Z-2.0898
X14.0587 Y79.2622 Z-2.0962
X14.0457 Y79.2442 Z-2.1026
X14.0320 Y79.2268 Z-2.1090
X14.0177 Y79.2099 Z-2.1154
X14.0027 Y79.1936 Z-2.1219
X13.9870 Y79.1779 Z-2.1283
X13.9707 Y79.1629 Z-2.1347
X13.9539 Y79.1486 Z-2.1411
X13.9364 Y79.1349 Z-2.1475
X13.9184 Y79.1220 Z-2.1539
X13.9000 Y79.1097 Z-2.1603
X13.8810 Y79.0983 Z-2.1667
X13.8616 Y79.0876 Z-2.1731
X13.8418 Y79.0777 Z-2.1795
X13.8216 Y79.0686 Z-2.1860
X13.8010 Y79.0603 Z-2.1924
X13.7802 Y79.0529 Z-2.1988
X13.7590 Y79.0463 Z-2.2052
X13.7376 Y79.0406 Z-2.2116
X13.7160 Y79.0357 Z-2.2180
X13.6942 Y79.0317 Z-2.2244
X13.6723 Y79.0286 Z-2.2308
X13.6503 Y79.0264 Z-2.2372
X13.6282 Y79.0250 Z-2.2436
X13.6060 Y79.0246 Z-2.2501
X13.5839 Y79.0250 Z-2.2565
X13.5618 Y79.0264 Z-2.2629
X13.5397 Y79.0286 Z-2.2693
X13.5178 Y79.0317 Z-2.2757
X13.4960 Y79.0357 Z-2.2821
X13.4744 Y79.0406 Z-2.2885
X13.4530 Y79.0463 Z-2.2949
X13.4318 Y79.0529 Z-2.3013
X13.4110 Y79.0603 Z-2.3077
X13.3904 Y79.0686 Z-2.3141
X13.3702 Y79.0777 Z-2.3206
X13.3504 Y79.0876 Z-2.3270
X13.3310 Y79.0983 Z-2.3334
X13.3121 Y79.1097 Z-2.3398
X13.2936 Y79.1220 Z-2.3462
X13.2756 Y79.1349 Z-2.3526
X13.2582 Y79.1486 Z-2.3590
X13.2413 Y79.1629 Z-2.3654
X13.2250 Y79.1779 Z-2.3718
X13.2094 Y79.1936 Z-2.3782
X13.1943 Y79.2099 Z-2.3847
X13.1800 Y79.2268 Z-2.3911
X13.1663 Y79.2442 Z-2.3975
X13.1534 Y79.2622 Z-2.4039
X13.1412 Y79.2806 Z-2.4103
X13.1297 Y79.2996 Z-2.4167
X13.1190 Y79.3190 Z-2.4231
X13.1091 Y79.3388 Z-2.4295
X13.1000 Y79.3590 Z-2.4359
X13.0918 Y79.3796 Z-2.4423
X13.0843 Y79.4004 Z-2.4488
X13.0777 Y79.4216 Z-2.4552
X13.0720 Y79.4430 Z-2.4616
X13.0671 Y79.4646 Z-2.4680
X13.0631 Y79.4864 Z-2.4744
X13.0600 Y79.5083 Z-2.4808
X13.0578 Y79.5303 Z-2.4872
X13.0565 Y79.5525 Z-2.4936
X13.0560 Y79.5746 Z-2.5000
X13.0565 Y79.5967 Z-2.5064
X13.0578 Y79.6189 Z-2.5129
X13.0600 Y79.6409 Z-2.5193
X13.0631 Y79.6628 Z-2.5257
X13.0671 Y79.6846 Z-2.5321
X13.0720 Y79.7062 Z-2.5385
X13.0777 Y79.7276 Z-2.5449
X13.0843 Y79.7488 Z-2.5513
X13.0918 Y79.7696 Z-2.5577
X13.1000 Y79.7902 Z-2.5641
X13.1091 Y79.8104 Z-2.5705
X13.1190 Y79.8302 Z-2.5770
X13.1297 Y79.8496 Z-2.5834
X13.1412 Y79.8686 Z-2.5898
X13.1534 Y79.8870 Z-2.5962
X13.1663 Y79.9050 Z-2.6026
X13.1800 Y79.9224 Z-2.6090
X13.1943 Y79.9393 Z-2.6154
X13.2094 Y79.9556 Z-2.6218
X13.2250 Y79.9713 Z-2.6282
X13.2413 Y79.9863 Z-2.6346
X13.2582 Y80.0006 Z-2.6410
X13.2756 Y80.0143 Z-2.6475
X13.2936 Y80.0272 Z-2.6539
X13.3121 Y80.0395 Z-2.6603
X13.3310 Y80.0509 Z-2.6667
X13.3504 Y80.0616 Z-2.6731
X13.3702 Y80.0715 Z-2.6795
X13.3904 Y80.0806 Z-2.6859
X13.4110 Y80.0889 Z-2.6923
X13.4318 Y80.0963 Z-2.6987
X13.4530 Y80.1029 Z-2.7051
X13.4744 Y80.1086 Z-2.7116
X13.4960 Y80.1135 Z-2.7180
X13.5178 Y80.1175 Z-2.7244
X13.5397 Y80.1206 Z-2.7308
X13.5618 Y80.1228 Z-2.7372
X13.5839 Y80.1242 Z-2.7436
X13.6060 Y80.1246 Z-2.7500
X13.6282 Y80.1242 Z-2.7564
X13.6503 Y80.1228 Z-2.7628
X13.6723 Y80.1206 Z-2.7692
X13.6942 Y80.1175 Z-2.7757
X13.7160 Y80.1135 Z-2.7821
X13.7376 Y80.1086 Z-2.7885
X13.7590 Y80.1029 Z-2.7949
X13.7802 Y80.0963 Z-2.8013
X13.8010 Y80.0889 Z-2.8077
X13.8216 Y80.0806 Z-2.8141
X13.8418 Y80.0715 Z-2.8205
X13.8616 Y80.0616 Z-2.8269
X13.8810 Y80.0509 Z-2.8333
X13.9000 Y80.0395 Z-2.8398
X13.9184 Y80.0272 Z-2.8462
X13.9364 Y80.0143 Z-2.8526
X13.9539 Y80.0006 Z-2.8590
X13.9707 Y79.9863 Z-2.8654
X13.9870 Y79.9713 Z-2.8718
X14.0027 Y79.9556 Z-2.8782
X14.0177 Y79.9393 Z-2.8846
X14.0320 Y79.9224 Z-2.8910
X14.0457 Y79.9050 Z-2.8974
X14.0587 Y79.8870 Z-2.9039
X14.0709 Y79.8686 Z-2.9103
X14.0823 Y79.8496 Z-2.9167
X14.0930 Y79.8302 Z-2.9231
X14.1029 Y79.8104 Z-2.9295
X14.1120 Y79.7902 Z-2.9359
X14.1203 Y79.7696 Z-2.9423
X14.1277 Y79.7488 Z-2.9487
X14.1343 Y79.7276 Z-2.9551
X14.1400 Y79.7062 Z-2.9615
X14.1449 Y79.6846 Z-2.9680
X14.1489 Y79.6628 Z-2.9744
X14.1520 Y79.6409 Z-2.9808
X14.1542 Y79.6189 Z-2.9872
X14.1556 Y79.5967 Z-2.9936
X14.1560 Y79.5746 Z-3.0000
G02X13.0560I-0.5500J0.0000
X14.1560I0.5500J0.0000
G01 Y79.5748
Y79.5746 Z-3.0001
X14.1556 Y79.5525 Z-3.0065
X14.1542 Y79.5303 Z-3.0129
X14.1520 Y79.5083 Z-3.0193
X14.1489 Y79.4864 Z-3.0257
X14.1449 Y79.4646 Z-3.0321
X14.1400 Y79.4430 Z-3.0385
X14.1343 Y79.4216 Z-3.0449
X14.1277 Y79.4004 Z-3.0513
X14.1203 Y79.3796 Z-3.0578
X14.1120 Y79.3590 Z-3.0642
X14.1029 Y79.3388 Z-3.0706
X14.0930 Y79.3190 Z-3.0770
X14.0823 Y79.2996 Z-3.0834
X14.0709 Y79.2806 Z-3.0898
X14.0587 Y79.2622 Z-3.0962
X14.0457 Y79.2442 Z-3.1026
X14.0320 Y79.2268 Z-3.1090
X14.0177 Y79.2099 Z-3.1154
X14.0027 Y79.1936 Z-3.1219
X13.9870 Y79.1779 Z-3.1283
X13.9707 Y79.1629 Z-3.1347
X13.9539 Y79.1486 Z-3.1411
X13.9364 Y79.1349 Z-3.1475
X13.9184 Y79.1220 Z-3.1539
X13.9000 Y79.1097 Z-3.1603
X13.8810 Y79.0983 Z-3.1667
X13.8616 Y79.0876 Z-3.1731
X13.8418 Y79.0777 Z-3.1795
X13.8216 Y79.0686 Z-3.1860
X13.8010 Y79.0603 Z-3.1924
X13.7802 Y79.0529 Z-3.1988
X13.7590 Y79.0463 Z-3.2052
X13.7376 Y79.0406 Z-3.2116
X13.7160 Y79.0357 Z-3.2180
X13.6942 Y79.0317 Z-3.2244
X13.6723 Y79.0286 Z-3.2308
X13.6503 Y79.0264 Z-3.2372
X13.6282 Y79.0250 Z-3.2436
X13.6060 Y79.0246 Z-3.2501
X13.5839 Y79.0250 Z-3.2565
X13.5618 Y79.0264 Z-3.2629
X13.5397 Y79.0286 Z-3.2693
X13.5178 Y79.0317 Z-3.2757
X13.4960 Y79.0357 Z-3.2821
X13.4744 Y79.0406 Z-3.2885
X13.4530 Y79.0463 Z-3.2949
X13.4318 Y79.0529 Z-3.3013
X13.4110 Y79.0603 Z-3.3077
X13.3904 Y79.0686 Z-3.3141
X13.3702 Y79.0777 Z-3.3206
X13.3504 Y79.0876 Z-3.3270
X13.3310 Y79.0983 Z-3.3334
X13.3121 Y79.1097 Z-3.3398
X13.2936 Y79.1220 Z-3.3462
X13.2756 Y79.1349 Z-3.3526
X13.2582 Y79.1486 Z-3.3590
X13.2413 Y79.1629 Z-3.3654
X13.2250 Y79.1779 Z-3.3718
X13.2094 Y79.1936 Z-3.3782
X13.1943 Y79.2099 Z-3.3847
X13.1800 Y79.2268 Z-3.3911
X13.1663 Y79.2442 Z-3.3975
X13.1534 Y79.2622 Z-3.4039
X13.1412 Y79.2806 Z-3.4103
X13.1297 Y79.2996 Z-3.4167
X13.1190 Y79.3190 Z-3.4231
X13.1091 Y79.3388 Z-3.4295
X13.1000 Y79.3590 Z-3.4359
X13.0918 Y79.3796 Z-3.4423
X13.0843 Y79.4004 Z-3.4488
X13.0777 Y79.4216 Z-3.4552
X13.0720 Y79.4430 Z-3.4616
X13.0671 Y79.4646 Z-3.4680
X13.0631 Y79.4864 Z-3.4744
X13.0600 Y79.5083 Z-3.4808
X13.0578 Y79.5303 Z-3.4872
X13.0565 Y79.5525 Z-3.4936
X13.0560 Y79.5746 Z-3.5000
X13.0565 Y79.5967 Z-3.5064
X13.0578 Y79.6189 Z-3.5129
X13.0600 Y79.6409 Z-3.5193
X13.0631 Y79.6628 Z-3.5257
X13.0671 Y79.6846 Z-3.5321
X13.0720 Y79.7062 Z-3.5385
X13.0777 Y79.7276 Z-3.5449
X13.0843 Y79.7488 Z-3.5513
X13.0918 Y79.7696 Z-3.5577
X13.1000 Y79.7902 Z-3.5641
X13.1091 Y79.8104 Z-3.5705
X13.1190 Y79.8302 Z-3.5770
X13.1297 Y79.8496 Z-3.5834
X13.1412 Y79.8686 Z-3.5898
X13.1534 Y79.8870 Z-3.5962
X13.1663 Y79.9050 Z-3.6026
X13.1800 Y79.9224 Z-3.6090
X13.1943 Y79.9393 Z-3.6154
X13.2094 Y79.9556 Z-3.6218
X13.2250 Y79.9713 Z-3.6282
X13.2413 Y79.9863 Z-3.6346
X13.2582 Y80.0006 Z-3.6410
X13.2756 Y80.0143 Z-3.6475
X13.2936 Y80.0272 Z-3.6539
X13.3121 Y80.0395 Z-3.6603
X13.3310 Y80.0509 Z-3.6667
X13.3504 Y80.0616 Z-3.6731
X13.3702 Y80.0715 Z-3.6795
X13.3904 Y80.0806 Z-3.6859
X13.4110 Y80.0889 Z-3.6923
X13.4318 Y80.0963 Z-3.6987
X13.4530 Y80.1029 Z-3.7051
X13.4744 Y80.1086 Z-3.7116
X13.4960 Y80.1135 Z-3.7180
X13.5178 Y80.1175 Z-3.7244
X13.5397 Y80.1206 Z-3.7308
X13.5618 Y80.1228 Z-3.7372
X13.5839 Y80.1242 Z-3.7436
X13.6060 Y80.1246 Z-3.7500
X13.6282 Y80.1242 Z-3.7564
X13.6503 Y80.1228 Z-3.7628
X13.6723 Y80.1206 Z-3.7692
X13.6942 Y80.1175 Z-3.7757
X13.7160 Y80.1135 Z-3.7821
X13.7376 Y80.1086 Z-3.7885
X13.7590 Y80.1029 Z-3.7949
X13.7802 Y80.0963 Z-3.8013
X13.8010 Y80.0889 Z-3.8077
X13.8216 Y80.0806 Z-3.8141
X13.8418 Y80.0715 Z-3.8205
X13.8616 Y80.0616 Z-3.8269
X13.8810 Y80.0509 Z-3.8333
X13.9000 Y80.0395 Z-3.8398
X13.9184 Y80.0272 Z-3.8462
X13.9364 Y80.0143 Z-3.8526
X13.9539 Y80.0006 Z-3.8590
X13.9707 Y79.9863 Z-3.8654
X13.9870 Y79.9713 Z-3.8718
X14.0027 Y79.9556 Z-3.8782
X14.0177 Y79.9393 Z-3.8846
X14.0320 Y79.9224 Z-3.8910
X14.0457 Y79.9050 Z-3.8974
X14.0587 Y79.8870 Z-3.9039
X14.0709 Y79.8686 Z-3.9103
X14.0823 Y79.8496 Z-3.9167
X14.0930 Y79.8302 Z-3.9231
X14.1029 Y79.8104 Z-3.9295
X14.1120 Y79.7902 Z-3.9359
X14.1203 Y79.7696 Z-3.9423
X14.1277 Y79.7488 Z-3.9487
X14.1343 Y79.7276 Z-3.9551
X14.1400 Y79.7062 Z-3.9615
X14.1449 Y79.6846 Z-3.9680
X14.1489 Y79.6628 Z-3.9744
X14.1520 Y79.6409 Z-3.9808
X14.1542 Y79.6189 Z-3.9872
X14.1556 Y79.5967 Z-3.9936
X14.1560 Y79.5746 Z-4.0000
G02X13.0560I-0.5500J0.0000
X14.1560I0.5500J0.0000
G01 Y79.5748
Y79.5746 Z-4.0001
X14.1556 Y79.5525 Z-4.0065
X14.1542 Y79.5303 Z-4.0129
X14.1520 Y79.5083 Z-4.0193
X14.1489 Y79.4864 Z-4.0257
X14.1449 Y79.4646 Z-4.0321
X14.1400 Y79.4430 Z-4.0385
X14.1343 Y79.4216 Z-4.0449
X14.1277 Y79.4004 Z-4.0513
X14.1203 Y79.3796 Z-4.0578
X14.1120 Y79.3590 Z-4.0642
X14.1029 Y79.3388 Z-4.0706
X14.0930 Y79.3190 Z-4.0770
X14.0823 Y79.2996 Z-4.0834
X14.0709 Y79.2806 Z-4.0898
X14.0587 Y79.2622 Z-4.0962
X14.0457 Y79.2442 Z-4.1026
X14.0320 Y79.2268 Z-4.1090
X14.0177 Y79.2099 Z-4.1154
X14.0027 Y79.1936 Z-4.1219
X13.9870 Y79.1779 Z-4.1283
X13.9707 Y79.1629 Z-4.1347
X13.9539 Y79.1486 Z-4.1411
X13.9364 Y79.1349 Z-4.1475
X13.9184 Y79.1220 Z-4.1539
X13.9000 Y79.1097 Z-4.1603
X13.8810 Y79.0983 Z-4.1667
X13.8616 Y79.0876 Z-4.1731
X13.8418 Y79.0777 Z-4.1795
X13.8216 Y79.0686 Z-4.1860
X13.8010 Y79.0603 Z-4.1924
X13.7802 Y79.0529 Z-4.1988
X13.7590 Y79.0463 Z-4.2052
X13.7376 Y79.0406 Z-4.2116
X13.7160 Y79.0357 Z-4.2180
X13.6942 Y79.0317 Z-4.2244
X13.6723 Y79.0286 Z-4.2308
X13.6503 Y79.0264 Z-4.2372
X13.6282 Y79.0250 Z-4.2436
X13.6060 Y79.0246 Z-4.2501
X13.5839 Y79.0250 Z-4.2565
X13.5618 Y79.0264 Z-4.2629
X13.5397 Y79.0286 Z-4.2693
X13.5178 Y79.0317 Z-4.2757
X13.4960 Y79.0357 Z-4.2821
X13.4744 Y79.0406 Z-4.2885
X13.4530 Y79.0463 Z-4.2949
X13.4318 Y79.0529 Z-4.3013
X13.4110 Y79.0603 Z-4.3077
X13.3904 Y79.0686 Z-4.3141
X13.3702 Y79.0777 Z-4.3206
X13.3504 Y79.0876 Z-4.3270
X13.3310 Y79.0983 Z-4.3334
X13.3121 Y79.1097 Z-4.3398
X13.2936 Y79.1220 Z-4.3462
X13.2756 Y79.1349 Z-4.3526
X13.2582 Y79.1486 Z-4.3590
X13.2413 Y79.1629 Z-4.3654
X13.2250 Y79.1779 Z-4.3718
X13.2094 Y79.1936 Z-4.3782
X13.1943 Y79.2099 Z-4.3847
X13.1800 Y79.2268 Z-4.3911
X13.1663 Y79.2442 Z-4.3975
X13.1534 Y79.2622 Z-4.4039
X13.1412 Y79.2806 Z-4.4103
X13.1297 Y79.2996 Z-4.4167
X13.1190 Y79.3190 Z-4.4231
X13.1091 Y79.3388 Z-4.4295
X13.1000 Y79.3590 Z-4.4359
X13.0918 Y79.3796 Z-4.4423
X13.0843 Y79.4004 Z-4.4488
X13.0777 Y79.4216 Z-4.4552
X13.0720 Y79.4430 Z-4.4616
X13.0671 Y79.4646 Z-4.4680
X13.0631 Y79.4864 Z-4.4744
X13.0600 Y79.5083 Z-4.4808
X13.0578 Y79.5303 Z-4.4872
X13.0565 Y79.5525 Z-4.4936
X13.0560 Y79.5746 Z-4.5000
X13.0565 Y79.5967 Z-4.5064
X13.0578 Y79.6189 Z-4.5129
X13.0600 Y79.6409 Z-4.5193
X13.0631 Y79.6628 Z-4.5257
X13.0671 Y79.6846 Z-4.5321
X13.0720 Y79.7062 Z-4.5385
X13.0777 Y79.7276 Z-4.5449
X13.0843 Y79.7488 Z-4.5513
X13.0918 Y79.7696 Z-4.5577
X13.1000 Y79.7902 Z-4.5641
X13.1091 Y79.8104 Z-4.5705
X13.1190 Y79.8302 Z-4.5770
X13.1297 Y79.8496 Z-4.5834
X13.1412 Y79.8686 Z-4.5898
X13.1534 Y79.8870 Z-4.5962
X13.1663 Y79.9050 Z-4.6026
X13.1800 Y79.9224 Z-4.6090
X13.1943 Y79.9393 Z-4.6154
X13.2094 Y79.9556 Z-4.6218
X13.2250 Y79.9713 Z-4.6282
X13.2413 Y79.9863 Z-4.6346
X13.2582 Y80.0006 Z-4.6410
X13.2756 Y80.0143 Z-4.6475
X13.2936 Y80.0272 Z-4.6539
X13.3121 Y80.0395 Z-4.6603
X13.3310 Y80.0509 Z-4.6667
X13.3504 Y80.0616 Z-4.6731
X13.3702 Y80.0715 Z-4.6795
X13.3904 Y80.0806 Z-4.6859
X13.4110 Y80.0889 Z-4.6923
X13.4318 Y80.0963 Z-4.6987
X13.4530 Y80.1029 Z-4.7051
X13.4744 Y80.1086 Z-4.7116
X13.4960 Y80.1135 Z-4.7180
X13.5178 Y80.1175 Z-4.7244
X13.5397 Y80.1206 Z-4.7308
X13.5618 Y80.1228 Z-4.7372
X13.5839 Y80.1242 Z-4.7436
X13.6060 Y80.1246 Z-4.7500
X13.6282 Y80.1242 Z-4.7564
X13.6503 Y80.1228 Z-4.7628
X13.6723 Y80.1206 Z-4.7692
X13.6942 Y80.1175 Z-4.7757
X13.7160 Y80.1135 Z-4.7821
X13.7376 Y80.1086 Z-4.7885
X13.7590 Y80.1029 Z-4.7949
X13.7802 Y80.0963 Z-4.8013
X13.8010 Y80.0889 Z-4.8077
X13.8216 Y80.0806 Z-4.8141
X13.8418 Y80.0715 Z-4.8205
X13.8616 Y80.0616 Z-4.8269
X13.8810 Y80.0509 Z-4.8333
X13.9000 Y80.0395 Z-4.8398
X13.9184 Y80.0272 Z-4.8462
X13.9364 Y80.0143 Z-4.8526
X13.9539 Y80.0006 Z-4.8590
X13.9707 Y79.9863 Z-4.8654
X13.9870 Y79.9713 Z-4.8718
X14.0027 Y79.9556 Z-4.8782
X14.0177 Y79.9393 Z-4.8846
X14.0320 Y79.9224 Z-4.8910
X14.0457 Y79.9050 Z-4.8974
X14.0587 Y79.8870 Z-4.9039
X14.0709 Y79.8686 Z-4.9103
X14.0823 Y79.8496 Z-4.9167
X14.0930 Y79.8302 Z-4.9231
X14.1029 Y79.8104 Z-4.9295
X14.1120 Y79.7902 Z-4.9359
X14.1203 Y79.7696 Z-4.9423
X14.1277 Y79.7488 Z-4.9487
X14.1343 Y79.7276 Z-4.9551
X14.1400 Y79.7062 Z-4.9615
X14.1449 Y79.6846 Z-4.9680
X14.1489 Y79.6628 Z-4.9744
X14.1520 Y79.6409 Z-4.9808
X14.1542 Y79.6189 Z-4.9872
X14.1556 Y79.5967 Z-4.9936
X14.1560 Y79.5746 Z-5.0000
G02X13.0560I-0.5500J0.0000
X14.1560I0.5500J0.0000
G01 X13.6060
G00 Z1.0000
X75.7266 Y79.1618
G01 Z0.6350  F1000.0
X75.7253 Y79.1629 Z0.6345  F100.0
X75.7090 Y79.1779 Z0.6281
X75.6934 Y79.1936 Z0.6217
X75.6783 Y79.2099 Z0.6153
X75.6640 Y79.2268 Z0.6089
X75.6503 Y79.2442 Z0.6025
X75.6374 Y79.2622 Z0.5960
X75.6252 Y79.2806 Z0.5896
X75.6137 Y79.2996 Z0.5832
X75.6030 Y79.3190 Z0.5768
X75.5931 Y79.3388 Z0.5704
X75.5840 Y79.3590 Z0.5640
X75.5758 Y79.3796 Z0.5576
X75.5683 Y79.4004 Z0.5512
X75.5617 Y79.4216 Z0.5448
X75.5560 Y79.4430 Z0.5384
X75.5511 Y79.4646 Z0.5319
X75.5471 Y79.4864 Z0.5255
X75.5440 Y79.5083 Z0.5191
X75.5418 Y79.5303 Z0.5127
X75.5405 Y79.5525 Z0.5063
X75.5400 Y79.5746 Z0.4999
X75.5405 Y79.5967 Z0.4935
X75.5418 Y79.6189 Z0.4871
X75.5440 Y79.6409 Z0.4807
X75.5471 Y79.6628 Z0.4743
X75.5511 Y79.6846 Z0.4678
X75.5560 Y79.7062 Z0.4614
X75.5617 Y79.7276 Z0.4550
X75.5683 Y79.7488 Z0.4486
X75.5758 Y79.7696 Z0.4422
X75.5840 Y79.7902 Z0.4358
X75.5931 Y79.8104 Z0.4294
X75.6030 Y79.8302 Z0.4230
X75.6137 Y79.8496 Z0.4166
X75.6252 Y79.8686 Z0.4102
X75.6374 Y79.8870 Z0.4038
X75.6503 Y79.9050 Z0.3973
X75.6640 Y79.9224 Z0.3909
X75.6783 Y79.9393 Z0.3845
X75.6934 Y79.9556 Z0.3781
X75.7090 Y79.9713 Z0.3717
X75.7253 Y79.9863 Z0.3653
X75.7422 Y80.0006 Z0.3589
X75.7596 Y80.0143 Z0.3525
X75.7776 Y80.0272 Z0.3461
X75.7961 Y80.0395 Z0.3397
X75.8150 Y80.0509 Z0.3332
X75.8344 Y80.0616 Z0.3268
X75.8542 Y80.0715 Z0.3204
X75.8744 Y80.0806 Z0.3140
X75.8950 Y80.0889 Z0.3076
X75.9158 Y80.0963 Z0.3012
X75.9370 Y80.1029 Z0.2948
X75.9584 Y80.1086 Z0.2884
X75.9800 Y80.1135 Z0.2820
X76.0018 Y80.1175 Z0.2756
X76.0237 Y80.1206 Z0.2691
X76.0458 Y80.1228 Z0.2627
X76.0679 Y80.1242 Z0.2563
X76.0900 Y80.1246 Z0.2499
X76.1122 Y80.1242 Z0.2435
X76.1343 Y80.1228 Z0.2371
X76.1563 Y80.1206 Z0.2307
X76.1782 Y80.1175 Z0.2243
X76.2000 Y80.1135 Z0.2179
X76.2216 Y80.1086 Z0.2115
X76.2430 Y80.1029 Z0.2050
X76.2642 Y80.0963 Z0.1986
X76.2850 Y80.0889 Z0.1922
X76.3056 Y80.0806 Z0.1858
X76.3258 Y80.0715 Z0.1794
X76.3456 Y80.0616 Z0.1730
X76.3650 Y80.0509 Z0.1666
X76.3840 Y80.0395 Z0.1602
X76.4024 Y80.0272 Z0.1538
X76.4204 Y80.0143 Z0.1474
X76.4379 Y80.0006 Z0.1409
X76.4547 Y79.9863 Z0.1345
X76.4710 Y79.9713 Z0.1281
X76.4867 Y79.9556 Z0.1217
X76.5017 Y79.9393 Z0.1153
X76.5160 Y79.9224 Z0.1089
X76.5297 Y79.9050 Z0.1025
X76.5427 Y79.8870 Z0.0961
X76.5549 Y79.8686 Z0.0897
X76.5663 Y79.8496 Z0.0833
X76.5770 Y79.8302 Z0.0769
X76.5869 Y79.8104 Z0.0704
X76.5960 Y79.7902 Z0.0640
X76.6043 Y79.7696 Z0.0576
X76.6117 Y79.7488 Z0.0512
X76.6183 Y79.7276 Z0.0448
X76.6240 Y79.7062 Z0.0384
X76.6289 Y79.6846 Z0.0320
X76.6329 Y79.6628 Z0.0256
X76.6360 Y79.6409 Z0.0192
X76.6382 Y79.6189 Z0.0128
X76.6396 Y79.5967 Z0.0063
X76.6400 Y79.5746 Z-0.0001
X76.6396 Y79.5525 Z-0.0065
X76.6382 Y79.5303 Z-0.0129
X76.6360 Y79.5083 Z-0.0193
X76.6329 Y79.4864 Z-0.0257
X76.6289 Y79.4646 Z-0.0321
X76.6240 Y79.4430 Z-0.0385
X76.6183 Y79.4216 Z-0.0449
X76.6117 Y79.4004 Z-0.0513
X76.6043 Y79.3796 Z-0.0578
X76.5960 Y79.3590 Z-0.0642
X76.5869 Y79.3388 Z-0.0706
X76.5770 Y79.3190 Z-0.0770
X76.5663 Y79.2996 Z-0.0834
X76.5549 Y79.2806 Z-0.0898
X76.5427 Y79.2622 Z-0.0962
X76.5297 Y79.2442 Z-0.1026
X76.5160 Y79.2268 Z-0.1090
X76.5017 Y79.2099 Z-0.1154
X76.4867 Y79.1936 Z-0.1219
X76.4710 Y79.1779 Z-0.1283
X76.4547 Y79.1629 Z-0.1347
X76.4379 Y79.1486 Z-0.1411
X76.4204 Y79.1349 Z-0.1475
X76.4024 Y79.1220 Z-0.1539
X76.3840 Y79.1097 Z-0.1603
X76.3650 Y79.0983 Z-0.1667
X76.3456 Y79.0876 Z-0.1731
X76.3258 Y79.0777 Z-0.1795
X76.3056 Y79.0686 Z-0.1860
X76.2850 Y79.0603 Z-0.1924
X76.2642 Y79.0529 Z-0.1988
X76.2430 Y79.0463 Z-0.2052
X76.2216 Y79.0406 Z-0.2116
X76.2000 Y79.0357 Z-0.2180
X76.1782 Y79.0317 Z-0.2244
X76.1563 Y79.0286 Z-0.2308
X76.1343 Y79.0264 Z-0.2372
X76.1122 Y79.0250 Z-0.2436
X76.0900 Y79.0246 Z-0.2500
X76.0679 Y79.0250 Z-0.2565
X76.0458 Y79.0264 Z-0.2629
X76.0237 Y79.0286 Z-0.2693
X76.0018 Y79.0317 Z-0.2757
X75.9800 Y79.0357 Z-0.2821
X75.9584 Y79.0406 Z-0.2885
X75.9370 Y79.0463 Z-0.2949
X75.9158 Y79.0529 Z-0.3013
X75.8950 Y79.0603 Z-0.3077
X75.8744 Y79.0686 Z-0.3141
X75.8542 Y79.0777 Z-0.3206
X75.8344 Y79.0876 Z-0.3270
X75.8150 Y79.0983 Z-0.3334
X75.7961 Y79.1097 Z-0.3398
X75.7776 Y79.1220 Z-0.3462
X75.7596 Y79.1349 Z-0.3526
X75.7422 Y79.1486 Z-0.3590
X75.7253 Y79.1629 Z-0.3654
X75.7090 Y79.1779 Z-0.3718
X75.6934 Y79.1936 Z-0.3782
X75.6783 Y79.2099 Z-0.3847
X75.6640 Y79.2268 Z-0.3911
X75.6503 Y79.2442 Z-0.3975
X75.6374 Y79.2622 Z-0.4039
X75.6252 Y79.2806 Z-0.4103
X75.6137 Y79.2996 Z-0.4167
X75.6030 Y79.3190 Z-0.4231
X75.5931 Y79.3388 Z-0.4295
X75.5840 Y79.3590 Z-0.4359
X75.5758 Y79.3796 Z-0.4423
X75.5683 Y79.4004 Z-0.4488
X75.5617 Y79.4216 Z-0.4552
X75.5560 Y79.4430 Z-0.4616
X75.5511 Y79.4646 Z-0.4680
X75.5471 Y79.4864 Z-0.4744
X75.5440 Y79.5083 Z-0.4808
X75.5418 Y79.5303 Z-0.4872
X75.5405 Y79.5525 Z-0.4936
X75.5400 Y79.5746 Z-0.5000
X75.5405 Y79.5967 Z-0.5064
X75.5418 Y79.6189 Z-0.5129
X75.5440 Y79.6409 Z-0.5193
X75.5471 Y79.6628 Z-0.5257
X75.5511 Y79.6846 Z-0.5321
X75.5560 Y79.7062 Z-0.5385
X75.5617 Y79.7276 Z-0.5449
X75.5683 Y79.7488 Z-0.5513
X75.5758 Y79.7696 Z-0.5577
X75.5840 Y79.7902 Z-0.5641
X75.5931 Y79.8104 Z-0.5705
X75.6030 Y79.8302 Z-0.5770
X75.6137 Y79.8496 Z-0.5834
X75.6252 Y79.8686 Z-0.5898
X75.6374 Y79.8870 Z-0.5962
X75.6503 Y79.9050 Z-0.6026
X75.6640 Y79.9224 Z-0.6090
X75.6783 Y79.9393 Z-0.6154
X75.6934 Y79.9556 Z-0.6218
X75.7090 Y79.9713 Z-0.6282
X75.7253 Y79.9863 Z-0.6346
X75.7422 Y80.0006 Z-0.6410
X75.7596 Y80.0143 Z-0.6475
X75.7776 Y80.0272 Z-0.6539
X75.7961 Y80.0395 Z-0.6603
X75.8150 Y80.0509 Z-0.6667
X75.8344 Y80.0616 Z-0.6731
X75.8542 Y80.0715 Z-0.6795
X75.8744 Y80.0806 Z-0.6859
X75.8950 Y80.0889 Z-0.6923
X75.9158 Y80.0963 Z-0.6987
X75.9370 Y80.1029 Z-0.7051
X75.9584 Y80.1086 Z-0.7116
X75.9800 Y80.1135 Z-0.7180
X76.0018 Y80.1175 Z-0.7244
X76.0237 Y80.1206 Z-0.7308
X76.0458 Y80.1228 Z-0.7372
X76.0679 Y80.1242 Z-0.7436
X76.0900 Y80.1246 Z-0.7500
X76.1122 Y80.1242 Z-0.7564
X76.1343 Y80.1228 Z-0.7628
X76.1563 Y80.1206 Z-0.7692
X76.1782 Y80.1175 Z-0.7757
X76.2000 Y80.1135 Z-0.7821
X76.2216 Y80.1086 Z-0.7885
X76.2430 Y80.1029 Z-0.7949
X76.2642 Y80.0963 Z-0.8013
X76.2850 Y80.0889 Z-0.8077
X76.3056 Y80.0806 Z-0.8141
X76.3258 Y80.0715 Z-0.8205
X76.3456 Y80.0616 Z-0.8269
X76.3650 Y80.0509 Z-0.8333
X76.3840 Y80.0395 Z-0.8398
X76.4024 Y80.0272 Z-0.8462
X76.4204 Y80.0143 Z-0.8526
X76.4379 Y80.0006 Z-0.8590
X76.4547 Y79.9863 Z-0.8654
X76.4710 Y79.9713 Z-0.8718
X76.4867 Y79.9556 Z-0.8782
X76.5017 Y79.9393 Z-0.8846
X76.5160 Y79.9224 Z-0.8910
X76.5297 Y79.9050 Z-0.8974
X76.5427 Y79.8870 Z-0.9039
X76.5549 Y79.8686 Z-0.9103
X76.5663 Y79.8496 Z-0.9167
X76.5770 Y79.8302 Z-0.9231
X76.5869 Y79.8104 Z-0.9295
X76.5960 Y79.7902 Z-0.9359
X76.6043 Y79.7696 Z-0.9423
X76.6117 Y79.7488 Z-0.9487
X76.6183 Y79.7276 Z-0.9551
X76.6240 Y79.7062 Z-0.9615
X76.6289 Y79.6846 Z-0.9679
X76.6329 Y79.6628 Z-0.9744
X76.6360 Y79.6409 Z-0.9808
X76.6382 Y79.6189 Z-0.9872
X76.6396 Y79.5967 Z-0.9936
X76.6400 Y79.5746 Z-1.0000
G02X75.5400I-0.5500J0.0000
X76.6400I0.5500J0.0000
G01 Y79.5748
Y79.5746 Z-1.0001
X76.6396 Y79.5525 Z-1.0065
X76.6382 Y79.5303 Z-1.0129
X76.6360 Y79.5083 Z-1.0193
X76.6329 Y79.4864 Z-1.0257
X76.6289 Y79.4646 Z-1.0321
X76.6240 Y79.4430 Z-1.0385
X76.6183 Y79.4216 Z-1.0449
X76.6117 Y79.4004 Z-1.0513
X76.6043 Y79.3796 Z-1.0578
X76.5960 Y79.3590 Z-1.0642
X76.5869 Y79.3388 Z-1.0706
X76.5770 Y79.3190 Z-1.0770
X76.5663 Y79.2996 Z-1.0834
X76.5549 Y79.2806 Z-1.0898
X76.5427 Y79.2622 Z-1.0962
X76.5297 Y79.2442 Z-1.1026
X76.5160 Y79.2268 Z-1.1090
X76.5017 Y79.2099 Z-1.1154
X76.4867 Y79.1936 Z-1.1219
X76.4710 Y79.1779 Z-1.1283
X76.4547 Y79.1629 Z-1.1347
X76.4379 Y79.1486 Z-1.1411
X76.4204 Y79.1349 Z-1.1475
X76.4024 Y79.1220 Z-1.1539
X76.3840 Y79.1097 Z-1.1603
X76.3650 Y79.0983 Z-1.1667
X76.3456 Y79.0876 Z-1.1731
X76.3258 Y79.0777 Z-1.1795
X76.3056 Y79.0686 Z-1.1860
X76.2850 Y79.0603 Z-1.1924
X76.2642 Y79.0529 Z-1.1988
X76.2430 Y79.0463 Z-1.2052
X76.2216 Y79.0406 Z-1.2116
X76.2000 Y79.0357 Z-1.2180
X76.1782 Y79.0317 Z-1.2244
X76.1563 Y79.0286 Z-1.2308
X76.1343 Y79.0264 Z-1.2372
X76.1122 Y79.0250 Z-1.2436
X76.0900 Y79.0246 Z-1.2501
X76.0679 Y79.0250 Z-1.2565
X76.0458 Y79.0264 Z-1.2629
X76.0237 Y79.0286 Z-1.2693
X76.0018 Y79.0317 Z-1.2757
X75.9800 Y79.0357 Z-1.2821
X75.9584 Y79.0406 Z-1.2885
X75.9370 Y79.0463 Z-1.2949
X75.9158 Y79.0529 Z-1.3013
X75.8950 Y79.0603 Z-1.3077
X75.8744 Y79.0686 Z-1.3141
X75.8542 Y79.0777 Z-1.3206
X75.8344 Y79.0876 Z-1.3270
X75.8150 Y79.0983 Z-1.3334
X75.7961 Y79.1097 Z-1.3398
X75.7776 Y79.1220 Z-1.3462
X75.7596 Y79.1349 Z-1.3526
X75.7422 Y79.1486 Z-1.3590
X75.7253 Y79.1629 Z-1.3654
X75.7090 Y79.1779 Z-1.3718
X75.6934 Y79.1936 Z-1.3782
X75.6783 Y79.2099 Z-1.3847
X75.6640 Y79.2268 Z-1.3911
X75.6503 Y79.2442 Z-1.3975
X75.6374 Y79.2622 Z-1.4039
X75.6252 Y79.2806 Z-1.4103
X75.6137 Y79.2996 Z-1.4167
X75.6030 Y79.3190 Z-1.4231
X75.5931 Y79.3388 Z-1.4295
X75.5840 Y79.3590 Z-1.4359
X75.5758 Y79.3796 Z-1.4423
X75.5683 Y79.4004 Z-1.4488
X75.5617 Y79.4216 Z-1.4552
X75.5560 Y79.4430 Z-1.4616
X75.5511 Y79.4646 Z-1.4680
X75.5471 Y79.4864 Z-1.4744
X75.5440 Y79.5083 Z-1.4808
X75.5418 Y79.5303 Z-1.4872
X75.5405 Y79.5525 Z-1.4936
X75.5400 Y79.5746 Z-1.5000
X75.5405 Y79.5967 Z-1.5064
X75.5418 Y79.6189 Z-1.5129
X75.5440 Y79.6409 Z-1.5193
X75.5471 Y79.6628 Z-1.5257
X75.5511 Y79.6846 Z-1.5321
X75.5560 Y79.7062 Z-1.5385
X75.5617 Y79.7276 Z-1.5449
X75.5683 Y79.7488 Z-1.5513
X75.5758 Y79.7696 Z-1.5577
X75.5840 Y79.7902 Z-1.5641
X75.5931 Y79.8104 Z-1.5705
X75.6030 Y79.8302 Z-1.5770
X75.6137 Y79.8496 Z-1.5834
X75.6252 Y79.8686 Z-1.5898
X75.6374 Y79.8870 Z-1.5962
X75.6503 Y79.9050 Z-1.6026
X75.6640 Y79.9224 Z-1.6090
X75.6783 Y79.9393 Z-1.6154
X75.6934 Y79.9556 Z-1.6218
X75.7090 Y79.9713 Z-1.6282
X75.7253 Y79.9863 Z-1.6346
X75.7422 Y80.0006 Z-1.6410
X75.7596 Y80.0143 Z-1.6475
X75.7776 Y80.0272 Z-1.6539
X75.7961 Y80.0395 Z-1.6603
X75.8150 Y80.0509 Z-1.6667
X75.8344 Y80.0616 Z-1.6731
X75.8542 Y80.0715 Z-1.6795
X75.8744 Y80.0806 Z-1.6859
X75.8950 Y80.0889 Z-1.6923
X75.9158 Y80.0963 Z-1.6987
X75.9370 Y80.1029 Z-1.7051
X75.9584 Y80.1086 Z-1.7116
X75.9800 Y80.1135 Z-1.7180
X76.0018 Y80.1175 Z-1.7244
X76.0237 Y80.1206 Z-1.7308
X76.0458 Y80.1228 Z-1.7372
X76.0679 Y80.1242 Z-1.7436
X76.0900 Y80.1246 Z-1.7500
X76.1122 Y80.1242 Z-1.7564
X76.1343 Y80.1228 Z-1.7628
X76.1563 Y80.1206 Z-1.7692
X76.1782 Y80.1175 Z-1.7757
X76.2000 Y80.1135 Z-1.7821
X76.2216 Y80.1086 Z-1.7885
X76.2430 Y80.1029 Z-1.7949
X76.2642 Y80.0963 Z-1.8013
X76.2850 Y80.0889 Z-1.8077
X76.3056 Y80.0806 Z-1.8141
X76.3258 Y80.0715 Z-1.8205
X76.3456 Y80.0616 Z-1.8269
X76.3650 Y80.0509 Z-1.8333
X76.3840 Y80.0395 Z-1.8398
X76.4024 Y80.0272 Z-1.8462
X76.4204 Y80.0143 Z-1.8526
X76.4379 Y80.0006 Z-1.8590
X76.4547 Y79.9863 Z-1.8654
X76.4710 Y79.9713 Z-1.8718
X76.4867 Y79.9556 Z-1.8782
X76.5017 Y79.9393 Z-1.8846
X76.5160 Y79.9224 Z-1.8910
X76.5297 Y79.9050 Z-1.8974
X76.5427 Y79.8870 Z-1.9039
X76.5549 Y79.8686 Z-1.9103
X76.5663 Y79.8496 Z-1.9167
X76.5770 Y79.8302 Z-1.9231
X76.5869 Y79.8104 Z-1.9295
X76.5960 Y79.7902 Z-1.9359
X76.6043 Y79.7696 Z-1.9423
X76.6117 Y79.7488 Z-1.9487
X76.6183 Y79.7276 Z-1.9551
X76.6240 Y79.7062 Z-1.9615
X76.6289 Y79.6846 Z-1.9680
X76.6329 Y79.6628 Z-1.9744
X76.6360 Y79.6409 Z-1.9808
X76.6382 Y79.6189 Z-1.9872
X76.6396 Y79.5967 Z-1.9936
X76.6400 Y79.5746 Z-2.0000
G02X75.5400I-0.5500J0.0000
X76.6400I0.5500J0.0000
G01 Y79.5748
Y79.5746 Z-2.0001
X76.6396 Y79.5525 Z-2.0065
X76.6382 Y79.5303 Z-2.0129
X76.6360 Y79.5083 Z-2.0193
X76.6329 Y79.4864 Z-2.0257
X76.6289 Y79.4646 Z-2.0321
X76.6240 Y79.4430 Z-2.0385
X76.6183 Y79.4216 Z-2.0449
X76.6117 Y79.4004 Z-2.0513
X76.6043 Y79.3796 Z-2.0578
X76.5960 Y79.3590 Z-2.0642
X76.5869 Y79.3388 Z-2.0706
X76.5770 Y79.3190 Z-2.0770
X76.5663 Y79.2996 Z-2.0834
X76.5549 Y79.2806 Z-2.0898
X76.5427 Y79.2622 Z-2.0962
X76.5297 Y79.2442 Z-2.1026
X76.5160 Y79.2268 Z-2.1090
X76.5017 Y79.2099 Z-2.1154
X76.4867 Y79.1936 Z-2.1219
X76.4710 Y79.1779 Z-2.1283
X76.4547 Y79.1629 Z-2.1347
X76.4379 Y79.1486 Z-2.1411
X76.4204 Y79.1349 Z-2.1475
X76.4024 Y79.1220 Z-2.1539
X76.3840 Y79.1097 Z-2.1603
X76.3650 Y79.0983 Z-2.1667
X76.3456 Y79.0876 Z-2.1731
X76.3258 Y79.0777 Z-2.1795
X76.3056 Y79.0686 Z-2.1860
X76.2850 Y79.0603 Z-2.1924
X76.2642 Y79.0529 Z-2.1988
X76.2430 Y79.0463 Z-2.2052
X76.2216 Y79.0406 Z-2.2116
X76.2000 Y79.0357 Z-2.2180
X76.1782 Y79.0317 Z-2.2244
X76.1563 Y79.0286 Z-2.2308
X76.1343 Y79.0264 Z-2.2372
X76.1122 Y79.0250 Z-2.2436
X76.0900 Y79.0246 Z-2.2501
X76.0679 Y79.0250 Z-2.2565
X76.0458 Y79.0264 Z-2.2629
X76.0237 Y79.0286 Z-2.2693
X76.0018 Y79.0317 Z-2.2757
X75.9800 Y79.0357 Z-2.2821
X75.9584 Y79.0406 Z-2.2885
X75.9370 Y79.0463 Z-2.2949
X75.9158 Y79.0529 Z-2.3013
X75.8950 Y79.0603 Z-2.3077
X75.8744 Y79.0686 Z-2.3141
X75.8542 Y79.0777 Z-2.3206
X75.8344 Y79.0876 Z-2.3270
X75.8150 Y79.0983 Z-2.3334
X75.7961 Y79.1097 Z-2.3398
X75.7776 Y79.1220 Z-2.3462
X75.7596 Y79.1349 Z-2.3526
X75.7422 Y79.1486 Z-2.3590
X75.7253 Y79.1629 Z-2.3654
X75.7090 Y79.1779 Z-2.3718
X75.6934 Y79.1936 Z-2.3782
X75.6783 Y79.2099 Z-2.3847
X75.6640 Y79.2268 Z-2.3911
X75.6503 Y79.2442 Z-2.3975
X75.6374 Y79.2622 Z-2.4039
X75.6252 Y79.2806 Z-2.4103
X75.6137 Y79.2996 Z-2.4167
X75.6030 Y79.3190 Z-2.4231
X75.5931 Y79.3388 Z-2.4295
X75.5840 Y79.3590 Z-2.4359
X75.5758 Y79.3796 Z-2.4423
X75.5683 Y79.4004 Z-2.4488
X75.5617 Y79.4216 Z-2.4552
X75.5560 Y79.4430 Z-2.4616
X75.5511 Y79.4646 Z-2.4680
X75.5471 Y79.4864 Z-2.4744
X75.5440 Y79.5083 Z-2.4808
X75.5418 Y79.5303 Z-2.4872
X75.5405 Y79.5525 Z-2.4936
X75.5400 Y79.5746 Z-2.5000
X75.5405 Y79.5967 Z-2.5064
X75.5418 Y79.6189 Z-2.5129
X75.5440 Y79.6409 Z-2.5193
X75.5471 Y79.6628 Z-2.5257
X75.5511 Y79.6846 Z-2.5321
X75.5560 Y79.7062 Z-2.5385
X75.5617 Y79.7276 Z-2.5449
X75.5683 Y79.7488 Z-2.5513
X75.5758 Y79.7696 Z-2.5577
X75.5840 Y79.7902 Z-2.5641
X75.5931 Y79.8104 Z-2.5705
X75.6030 Y79.8302 Z-2.5770
X75.6137 Y79.8496 Z-2.5834
X75.6252 Y79.8686 Z-2.5898
X75.6374 Y79.8870 Z-2.5962
X75.6503 Y79.9050 Z-2.6026
X75.6640 Y79.9224 Z-2.6090
X75.6783 Y79.9393 Z-2.6154
X75.6934 Y79.9556 Z-2.6218
X75.7090 Y79.9713 Z-2.6282
X75.7253 Y79.9863 Z-2.6346
X75.7422 Y80.0006 Z-2.6410
X75.7596 Y80.0143 Z-2.6475
X75.7776 Y80.0272 Z-2.6539
X75.7961 Y80.0395 Z-2.6603
X75.8150 Y80.0509 Z-2.6667
X75.8344 Y80.0616 Z-2.6731
X75.8542 Y80.0715 Z-2.6795
X75.8744 Y80.0806 Z-2.6859
X75.8950 Y80.0889 Z-2.6923
X75.9158 Y80.0963 Z-2.6987
X75.9370 Y80.1029 Z-2.7051
X75.9584 Y80.1086 Z-2.7116
X75.9800 Y80.1135 Z-2.7180
X76.0018 Y80.1175 Z-2.7244
X76.0237 Y80.1206 Z-2.7308
X76.0458 Y80.1228 Z-2.7372
X76.0679 Y80.1242 Z-2.7436
X76.0900 Y80.1246 Z-2.7500
X76.1122 Y80.1242 Z-2.7564
X76.1343 Y80.1228 Z-2.7628
X76.1563 Y80.1206 Z-2.7692
X76.1782 Y80.1175 Z-2.7757
X76.2000 Y80.1135 Z-2.7821
X76.2216 Y80.1086 Z-2.7885
X76.2430 Y80.1029 Z-2.7949
X76.2642 Y80.0963 Z-2.8013
X76.2850 Y80.0889 Z-2.8077
X76.3056 Y80.0806 Z-2.8141
X76.3258 Y80.0715 Z-2.8205
X76.3456 Y80.0616 Z-2.8269
X76.3650 Y80.0509 Z-2.8333
X76.3840 Y80.0395 Z-2.8398
X76.4024 Y80.0272 Z-2.8462
X76.4204 Y80.0143 Z-2.8526
X76.4379 Y80.0006 Z-2.8590
X76.4547 Y79.9863 Z-2.8654
X76.4710 Y79.9713 Z-2.8718
X76.4867 Y79.9556 Z-2.8782
X76.5017 Y79.9393 Z-2.8846
X76.5160 Y79.9224 Z-2.8910
X76.5297 Y79.9050 Z-2.8974
X76.5427 Y79.8870 Z-2.9039
X76.5549 Y79.8686 Z-2.9103
X76.5663 Y79.8496 Z-2.9167
X76.5770 Y79.8302 Z-2.9231
X76.5869 Y79.8104 Z-2.9295
X76.5960 Y79.7902 Z-2.9359
X76.6043 Y79.7696 Z-2.9423
X76.6117 Y79.7488 Z-2.9487
X76.6183 Y79.7276 Z-2.9551
X76.6240 Y79.7062 Z-2.9615
X76.6289 Y79.6846 Z-2.9680
X76.6329 Y79.6628 Z-2.9744
X76.6360 Y79.6409 Z-2.9808
X76.6382 Y79.6189 Z-2.9872
X76.6396 Y79.5967 Z-2.9936
X76.6400 Y79.5746 Z-3.0000
G02X75.5400I-0.5500J0.0000
X76.6400I0.5500J0.0000
G01 Y79.5748
Y79.5746 Z-3.0001
X76.6396 Y79.5525 Z-3.0065
X76.6382 Y79.5303 Z-3.0129
X76.6360 Y79.5083 Z-3.0193
X76.6329 Y79.4864 Z-3.0257
X76.6289 Y79.4646 Z-3.0321
X76.6240 Y79.4430 Z-3.0385
X76.6183 Y79.4216 Z-3.0449
X76.6117 Y79.4004 Z-3.0513
X76.6043 Y79.3796 Z-3.0578
X76.5960 Y79.3590 Z-3.0642
X76.5869 Y79.3388 Z-3.0706
X76.5770 Y79.3190 Z-3.0770
X76.5663 Y79.2996 Z-3.0834
X76.5549 Y79.2806 Z-3.0898
X76.5427 Y79.2622 Z-3.0962
X76.5297 Y79.2442 Z-3.1026
X76.5160 Y79.2268 Z-3.1090
X76.5017 Y79.2099 Z-3.1154
X76.4867 Y79.1936 Z-3.1219
X76.4710 Y79.1779 Z-3.1283
X76.4547 Y79.1629 Z-3.1347
X76.4379 Y79.1486 Z-3.1411
X76.4204 Y79.1349 Z-3.1475
X76.4024 Y79.1220 Z-3.1539
X76.3840 Y79.1097 Z-3.1603
X76.3650 Y79.0983 Z-3.1667
X76.3456 Y79.0876 Z-3.1731
X76.3258 Y79.0777 Z-3.1795
X76.3056 Y79.0686 Z-3.1860
X76.2850 Y79.0603 Z-3.1924
X76.2642 Y79.0529 Z-3.1988
X76.2430 Y79.0463 Z-3.2052
X76.2216 Y79.0406 Z-3.2116
X76.2000 Y79.0357 Z-3.2180
X76.1782 Y79.0317 Z-3.2244
X76.1563 Y79.0286 Z-3.2308
X76.1343 Y79.0264 Z-3.2372
X76.1122 Y79.0250 Z-3.2436
X76.0900 Y79.0246 Z-3.2501
X76.0679 Y79.0250 Z-3.2565
X76.0458 Y79.0264 Z-3.2629
X76.0237 Y79.0286 Z-3.2693
X76.0018 Y79.0317 Z-3.2757
X75.9800 Y79.0357 Z-3.2821
X75.9584 Y79.0406 Z-3.2885
X75.9370 Y79.0463 Z-3.2949
X75.9158 Y79.0529 Z-3.3013
X75.8950 Y79.0603 Z-3.3077
X75.8744 Y79.0686 Z-3.3141
X75.8542 Y79.0777 Z-3.3206
X75.8344 Y79.0876 Z-3.3270
X75.8150 Y79.0983 Z-3.3334
X75.7961 Y79.1097 Z-3.3398
X75.7776 Y79.1220 Z-3.3462
X75.7596 Y79.1349 Z-3.3526
X75.7422 Y79.1486 Z-3.3590
X75.7253 Y79.1629 Z-3.3654
X75.7090 Y79.1779 Z-3.3718
X75.6934 Y79.1936 Z-3.3782
X75.6783 Y79.2099 Z-3.3847
X75.6640 Y79.2268 Z-3.3911
X75.6503 Y79.2442 Z-3.3975
X75.6374 Y79.2622 Z-3.4039
X75.6252 Y79.2806 Z-3.4103
X75.6137 Y79.2996 Z-3.4167
X75.6030 Y79.3190 Z-3.4231
X75.5931 Y79.3388 Z-3.4295
X75.5840 Y79.3590 Z-3.4359
X75.5758 Y79.3796 Z-3.4423
X75.5683 Y79.4004 Z-3.4488
X75.5617 Y79.4216 Z-3.4552
X75.5560 Y79.4430 Z-3.4616
X75.5511 Y79.4646 Z-3.4680
X75.5471 Y79.4864 Z-3.4744
X75.5440 Y79.5083 Z-3.4808
X75.5418 Y79.5303 Z-3.4872
X75.5405 Y79.5525 Z-3.4936
X75.5400 Y79.5746 Z-3.5000
X75.5405 Y79.5967 Z-3.5064
X75.5418 Y79.6189 Z-3.5129
X75.5440 Y79.6409 Z-3.5193
X75.5471 Y79.6628 Z-3.5257
X75.5511 Y79.6846 Z-3.5321
X75.5560 Y79.7062 Z-3.5385
X75.5617 Y79.7276 Z-3.5449
X75.5683 Y79.7488 Z-3.5513
X75.5758 Y79.7696 Z-3.5577
X75.5840 Y79.7902 Z-3.5641
X75.5931 Y79.8104 Z-3.5705
X75.6030 Y79.8302 Z-3.5770
X75.6137 Y79.8496 Z-3.5834
X75.6252 Y79.8686 Z-3.5898
X75.6374 Y79.8870 Z-3.5962
X75.6503 Y79.9050 Z-3.6026
X75.6640 Y79.9224 Z-3.6090
X75.6783 Y79.9393 Z-3.6154
X75.6934 Y79.9556 Z-3.6218
X75.7090 Y79.9713 Z-3.6282
X75.7253 Y79.9863 Z-3.6346
X75.7422 Y80.0006 Z-3.6410
X75.7596 Y80.0143 Z-3.6475
X75.7776 Y80.0272 Z-3.6539
X75.7961 Y80.0395 Z-3.6603
X75.8150 Y80.0509 Z-3.6667
X75.8344 Y80.0616 Z-3.6731
X75.8542 Y80.0715 Z-3.6795
X75.8744 Y80.0806 Z-3.6859
X75.8950 Y80.0889 Z-3.6923
X75.9158 Y80.0963 Z-3.6987
X75.9370 Y80.1029 Z-3.7051
X75.9584 Y80.1086 Z-3.7116
X75.9800 Y80.1135 Z-3.7180
X76.0018 Y80.1175 Z-3.7244
X76.0237 Y80.1206 Z-3.7308
X76.0458 Y80.1228 Z-3.7372
X76.0679 Y80.1242 Z-3.7436
X76.0900 Y80.1246 Z-3.7500
X76.1122 Y80.1242 Z-3.7564
X76.1343 Y80.1228 Z-3.7628
X76.1563 Y80.1206 Z-3.7692
X76.1782 Y80.1175 Z-3.7757
X76.2000 Y80.1135 Z-3.7821
X76.2216 Y80.1086 Z-3.7885
X76.2430 Y80.1029 Z-3.7949
X76.2642 Y80.0963 Z-3.8013
X76.2850 Y80.0889 Z-3.8077
X76.3056 Y80.0806 Z-3.8141
X76.3258 Y80.0715 Z-3.8205
X76.3456 Y80.0616 Z-3.8269
X76.3650 Y80.0509 Z-3.8333
X76.3840 Y80.0395 Z-3.8398
X76.4024 Y80.0272 Z-3.8462
X76.4204 Y80.0143 Z-3.8526
X76.4379 Y80.0006 Z-3.8590
X76.4547 Y79.9863 Z-3.8654
X76.4710 Y79.9713 Z-3.8718
X76.4867 Y79.9556 Z-3.8782
X76.5017 Y79.9393 Z-3.8846
X76.5160 Y79.9224 Z-3.8910
X76.5297 Y79.9050 Z-3.8974
X76.5427 Y79.8870 Z-3.9039
X76.5549 Y79.8686 Z-3.9103
X76.5663 Y79.8496 Z-3.9167
X76.5770 Y79.8302 Z-3.9231
X76.5869 Y79.8104 Z-3.9295
X76.5960 Y79.7902 Z-3.9359
X76.6043 Y79.7696 Z-3.9423
X76.6117 Y79.7488 Z-3.9487
X76.6183 Y79.7276 Z-3.9551
X76.6240 Y79.7062 Z-3.9615
X76.6289 Y79.6846 Z-3.9680
X76.6329 Y79.6628 Z-3.9744
X76.6360 Y79.6409 Z-3.9808
X76.6382 Y79.6189 Z-3.9872
X76.6396 Y79.5967 Z-3.9936
X76.6400 Y79.5746 Z-4.0000
G02X75.5400I-0.5500J0.0000
X76.6400I0.5500J0.0000
G01 Y79.5748
Y79.5746 Z-4.0001
X76.6396 Y79.5525 Z-4.0065
X76.6382 Y79.5303 Z-4.0129
X76.6360 Y79.5083 Z-4.0193
X76.6329 Y79.4864 Z-4.0257
X76.6289 Y79.4646 Z-4.0321
X76.6240 Y79.4430 Z-4.0385
X76.6183 Y79.4216 Z-4.0449
X76.6117 Y79.4004 Z-4.0513
X76.6043 Y79.3796 Z-4.0578
X76.5960 Y79.3590 Z-4.0642
X76.5869 Y79.3388 Z-4.0706
X76.5770 Y79.3190 Z-4.0770
X76.5663 Y79.2996 Z-4.0834
X76.5549 Y79.2806 Z-4.0898
X76.5427 Y79.2622 Z-4.0962
X76.5297 Y79.2442 Z-4.1026
X76.5160 Y79.2268 Z-4.1090
X76.5017 Y79.2099 Z-4.1154
X76.4867 Y79.1936 Z-4.1219
X76.4710 Y79.1779 Z-4.1283
X76.4547 Y79.1629 Z-4.1347
X76.4379 Y79.1486 Z-4.1411
X76.4204 Y79.1349 Z-4.1475
X76.4024 Y79.1220 Z-4.1539
X76.3840 Y79.1097 Z-4.1603
X76.3650 Y79.0983 Z-4.1667
X76.3456 Y79.0876 Z-4.1731
X76.3258 Y79.0777 Z-4.1795
X76.3056 Y79.0686 Z-4.1860
X76.2850 Y79.0603 Z-4.1924
X76.2642 Y79.0529 Z-4.1988
X76.2430 Y79.0463 Z-4.2052
X76.2216 Y79.0406 Z-4.2116
X76.2000 Y79.0357 Z-4.2180
X76.1782 Y79.0317 Z-4.2244
X76.1563 Y79.0286 Z-4.2308
X76.1343 Y79.0264 Z-4.2372
X76.1122 Y79.0250 Z-4.2436
X76.0900 Y79.0246 Z-4.2501
X76.0679 Y79.0250 Z-4.2565
X76.0458 Y79.0264 Z-4.2629
X76.0237 Y79.0286 Z-4.2693
X76.0018 Y79.0317 Z-4.2757
X75.9800 Y79.0357 Z-4.2821
X75.9584 Y79.0406 Z-4.2885
X75.9370 Y79.0463 Z-4.2949
X75.9158 Y79.0529 Z-4.3013
X75.8950 Y79.0603 Z-4.3077
X75.8744 Y79.0686 Z-4.3141
X75.8542 Y79.0777 Z-4.3206
X75.8344 Y79.0876 Z-4.3270
X75.8150 Y79.0983 Z-4.3334
X75.7961 Y79.1097 Z-4.3398
X75.7776 Y79.1220 Z-4.3462
X75.7596 Y79.1349 Z-4.3526
X75.7422 Y79.1486 Z-4.3590
X75.7253 Y79.1629 Z-4.3654
X75.7090 Y79.1779 Z-4.3718
X75.6934 Y79.1936 Z-4.3782
X75.6783 Y79.2099 Z-4.3847
X75.6640 Y79.2268 Z-4.3911
X75.6503 Y79.2442 Z-4.3975
X75.6374 Y79.2622 Z-4.4039
X75.6252 Y79.2806 Z-4.4103
X75.6137 Y79.2996 Z-4.4167
X75.6030 Y79.3190 Z-4.4231
X75.5931 Y79.3388 Z-4.4295
X75.5840 Y79.3590 Z-4.4359
X75.5758 Y79.3796 Z-4.4423
X75.5683 Y79.4004 Z-4.4488
X75.5617 Y79.4216 Z-4.4552
X75.5560 Y79.4430 Z-4.4616
X75.5511 Y79.4646 Z-4.4680
X75.5471 Y79.4864 Z-4.4744
X75.5440 Y79.5083 Z-4.4808
X75.5418 Y79.5303 Z-4.4872
X75.5405 Y79.5525 Z-4.4936
X75.5400 Y79.5746 Z-4.5000
X75.5405 Y79.5967 Z-4.5064
X75.5418 Y79.6189 Z-4.5129
X75.5440 Y79.6409 Z-4.5193
X75.5471 Y79.6628 Z-4.5257
X75.5511 Y79.6846 Z-4.5321
X75.5560 Y79.7062 Z-4.5385
X75.5617 Y79.7276 Z-4.5449
X75.5683 Y79.7488 Z-4.5513
X75.5758 Y79.7696 Z-4.5577
X75.5840 Y79.7902 Z-4.5641
X75.5931 Y79.8104 Z-4.5705
X75.6030 Y79.8302 Z-4.5770
X75.6137 Y79.8496 Z-4.5834
X75.6252 Y79.8686 Z-4.5898
X75.6374 Y79.8870 Z-4.5962
X75.6503 Y79.9050 Z-4.6026
X75.6640 Y79.9224 Z-4.6090
X75.6783 Y79.9393 Z-4.6154
X75.6934 Y79.9556 Z-4.6218
X75.7090 Y79.9713 Z-4.6282
X75.7253 Y79.9863 Z-4.6346
X75.7422 Y80.0006 Z-4.6410
X75.7596 Y80.0143 Z-4.6475
X75.7776 Y80.0272 Z-4.6539
X75.7961 Y80.0395 Z-4.6603
X75.8150 Y80.0509 Z-4.6667
X75.8344 Y80.0616 Z-4.6731
X75.8542 Y80.0715 Z-4.6795
X75.8744 Y80.0806 Z-4.6859
X75.8950 Y80.0889 Z-4.6923
X75.9158 Y80.0963 Z-4.6987
X75.9370 Y80.1029 Z-4.7051
X75.9584 Y80.1086 Z-4.7116
X75.9800 Y80.1135 Z-4.7180
X76.0018 Y80.1175 Z-4.7244
X76.0237 Y80.1206 Z-4.7308
X76.0458 Y80.1228 Z-4.7372
X76.0679 Y80.1242 Z-4.7436
X76.0900 Y80.1246 Z-4.7500
X76.1122 Y80.1242 Z-4.7564
X76.1343 Y80.1228 Z-4.7628
X76.1563 Y80.1206 Z-4.7692
X76.1782 Y80.1175 Z-4.7757
X76.2000 Y80.1135 Z-4.7821
X76.2216 Y80.1086 Z-4.7885
X76.2430 Y80.1029 Z-4.7949
X76.2642 Y80.0963 Z-4.8013
X76.2850 Y80.0889 Z-4.8077
X76.3056 Y80.0806 Z-4.8141
X76.3258 Y80.0715 Z-4.8205
X76.3456 Y80.0616 Z-4.8269
X76.3650 Y80.0509 Z-4.8333
X76.3840 Y80.0395 Z-4.8398
X76.4024 Y80.0272 Z-4.8462
X76.4204 Y80.0143 Z-4.8526
X76.4379 Y80.0006 Z-4.8590
X76.4547 Y79.9863 Z-4.8654
X76.4710 Y79.9713 Z-4.8718
X76.4867 Y79.9556 Z-4.8782
X76.5017 Y79.9393 Z-4.8846
X76.5160 Y79.9224 Z-4.8910
X76.5297 Y79.9050 Z-4.8974
X76.5427 Y79.8870 Z-4.9039
X76.5549 Y79.8686 Z-4.9103
X76.5663 Y79.8496 Z-4.9167
X76.5770 Y79.8302 Z-4.9231
X76.5869 Y79.8104 Z-4.9295
X76.5960 Y79.7902 Z-4.9359
X76.6043 Y79.7696 Z-4.9423
X76.6117 Y79.7488 Z-4.9487
X76.6183 Y79.7276 Z-4.9551
X76.6240 Y79.7062 Z-4.9615
X76.6289 Y79.6846 Z-4.9680
X76.6329 Y79.6628 Z-4.9744
X76.6360 Y79.6409 Z-4.9808
X76.6382 Y79.6189 Z-4.9872
X76.6396 Y79.5967 Z-4.9936
X76.6400 Y79.5746 Z-5.0000
G02X75.5400I-0.5500J0.0000
X76.6400I0.5500J0.0000
G01 X76.0900
G00 Z1.0000
X75.7266 Y14.6458
G01 Z0.6350  F1000.0
X75.7253 Y14.6469 Z0.6345  F100.0
X75.7090 Y14.6619 Z0.6281
X75.6934 Y14.6776 Z0.6217
X75.6783 Y14.6939 Z0.6153
X75.6640 Y14.7108 Z0.6089
X75.6503 Y14.7282 Z0.6025
X75.6374 Y14.7462 Z0.5960
X75.6252 Y14.7646 Z0.5896
X75.6137 Y14.7836 Z0.5832
X75.6030 Y14.8030 Z0.5768
X75.5931 Y14.8228 Z0.5704
X75.5840 Y14.8430 Z0.5640
X75.5758 Y14.8636 Z0.5576
X75.5683 Y14.8844 Z0.5512
X75.5617 Y14.9056 Z0.5448
X75.5560 Y14.9270 Z0.5384
X75.5511 Y14.9486 Z0.5319
X75.5471 Y14.9704 Z0.5255
X75.5440 Y14.9923 Z0.5191
X75.5418 Y15.0143 Z0.5127
X75.5405 Y15.0365 Z0.5063
X75.5400 Y15.0586 Z0.4999
X75.5405 Y15.0807 Z0.4935
X75.5418 Y15.1029 Z0.4871
X75.5440 Y15.1249 Z0.4807
X75.5471 Y15.1468 Z0.4743
X75.5511 Y15.1686 Z0.4678
X75.5560 Y15.1902 Z0.4614
X75.5617 Y15.2116 Z0.4550
X75.5683 Y15.2328 Z0.4486
X75.5758 Y15.2536 Z0.4422
X75.5840 Y15.2742 Z0.4358
X75.5931 Y15.2944 Z0.4294
X75.6030 Y15.3142 Z0.4230
X75.6137 Y15.3336 Z0.4166
X75.6252 Y15.3526 Z0.4102
X75.6374 Y15.3710 Z0.4038
X75.6503 Y15.3890 Z0.3973
X75.6640 Y15.4064 Z0.3909
X75.6783 Y15.4233 Z0.3845
X75.6934 Y15.4396 Z0.3781
X75.7090 Y15.4553 Z0.3717
X75.7253 Y15.4703 Z0.3653
X75.7422 Y15.4846 Z0.3589
X75.7596 Y15.4983 Z0.3525
X75.7776 Y15.5112 Z0.3461
X75.7961 Y15.5235 Z0.3397
X75.8150 Y15.5349 Z0.3332
X75.8344 Y15.5456 Z0.3268
X75.8542 Y15.5555 Z0.3204
X75.8744 Y15.5646 Z0.3140
X75.8950 Y15.5729 Z0.3076
X75.9158 Y15.5803 Z0.3012
X75.9370 Y15.5869 Z0.2948
X75.9584 Y15.5926 Z0.2884
X75.9800 Y15.5975 Z0.2820
X76.0018 Y15.6015 Z0.2756
X76.0237 Y15.6046 Z0.2691
X76.0458 Y15.6068 Z0.2627
X76.0679 Y15.6082 Z0.2563
X76.0900 Y15.6086 Z0.2499
X76.1122 Y15.6082 Z0.2435
X76.1343 Y15.6068 Z0.2371
X76.1563 Y15.6046 Z0.2307
X76.1782 Y15.6015 Z0.2243
X76.2000 Y15.5975 Z0.2179
X76.2216 Y15.5926 Z0.2115
X76.2430 Y15.5869 Z0.2050
X76.2642 Y15.5803 Z0.1986
X76.2850 Y15.5729 Z0.1922
X76.3056 Y15.5646 Z0.1858
X76.3258 Y15.5555 Z0.1794
X76.3456 Y15.5456 Z0.1730
X76.3650 Y15.5349 Z0.1666
X76.3840 Y15.5235 Z0.1602
X76.4024 Y15.5112 Z0.1538
X76.4204 Y15.4983 Z0.1474
X76.4379 Y15.4846 Z0.1409
X76.4547 Y15.4703 Z0.1345
X76.4710 Y15.4553 Z0.1281
X76.4867 Y15.4396 Z0.1217
X76.5017 Y15.4233 Z0.1153
X76.5160 Y15.4064 Z0.1089
X76.5297 Y15.3890 Z0.1025
X76.5427 Y15.3710 Z0.0961
X76.5549 Y15.3526 Z0.0897
X76.5663 Y15.3336 Z0.0833
X76.5770 Y15.3142 Z0.0769
X76.5869 Y15.2944 Z0.0704
X76.5960 Y15.2742 Z0.0640
X76.6043 Y15.2536 Z0.0576
X76.6117 Y15.2328 Z0.0512
X76.6183 Y15.2116 Z0.0448
X76.6240 Y15.1902 Z0.0384
X76.6289 Y15.1686 Z0.0320
X76.6329 Y15.1468 Z0.0256
X76.6360 Y15.1249 Z0.0192
X76.6382 Y15.1029 Z0.0128
X76.6396 Y15.0807 Z0.0063
X76.6400 Y15.0586 Z-0.0001
X76.6396 Y15.0365 Z-0.0065
X76.6382 Y15.0143 Z-0.0129
X76.6360 Y14.9923 Z-0.0193
X76.6329 Y14.9704 Z-0.0257
X76.6289 Y14.9486 Z-0.0321
X76.6240 Y14.9270 Z-0.0385
X76.6183 Y14.9056 Z-0.0449
X76.6117 Y14.8844 Z-0.0513
X76.6043 Y14.8636 Z-0.0578
X76.5960 Y14.8430 Z-0.0642
X76.5869 Y14.8228 Z-0.0706
X76.5770 Y14.8030 Z-0.0770
X76.5663 Y14.7836 Z-0.0834
X76.5549 Y14.7646 Z-0.0898
X76.5427 Y14.7462 Z-0.0962
X76.5297 Y14.7282 Z-0.1026
X76.5160 Y14.7108 Z-0.1090
X76.5017 Y14.6939 Z-0.1154
X76.4867 Y14.6776 Z-0.1219
X76.4710 Y14.6619 Z-0.1283
X76.4547 Y14.6469 Z-0.1347
X76.4379 Y14.6326 Z-0.1411
X76.4204 Y14.6189 Z-0.1475
X76.4024 Y14.6060 Z-0.1539
X76.3840 Y14.5937 Z-0.1603
X76.3650 Y14.5823 Z-0.1667
X76.3456 Y14.5716 Z-0.1731
X76.3258 Y14.5617 Z-0.1795
X76.3056 Y14.5526 Z-0.1860
X76.2850 Y14.5443 Z-0.1924
X76.2642 Y14.5369 Z-0.1988
X76.2430 Y14.5303 Z-0.2052
X76.2216 Y14.5246 Z-0.2116
X76.2000 Y14.5197 Z-0.2180
X76.1782 Y14.5157 Z-0.2244
X76.1563 Y14.5126 Z-0.2308
X76.1343 Y14.5104 Z-0.2372
X76.1122 Y14.5090 Z-0.2436
X76.0900 Y14.5086 Z-0.2500
X76.0679 Y14.5090 Z-0.2565
X76.0458 Y14.5104 Z-0.2629
X76.0237 Y14.5126 Z-0.2693
X76.0018 Y14.5157 Z-0.2757
X75.9800 Y14.5197 Z-0.2821
X75.9584 Y14.5246 Z-0.2885
X75.9370 Y14.5303 Z-0.2949
X75.9158 Y14.5369 Z-0.3013
X75.8950 Y14.5443 Z-0.3077
X75.8744 Y14.5526 Z-0.3141
X75.8542 Y14.5617 Z-0.3206
X75.8344 Y14.5716 Z-0.3270
X75.8150 Y14.5823 Z-0.3334
X75.7961 Y14.5937 Z-0.3398
X75.7776 Y14.6060 Z-0.3462
X75.7596 Y14.6189 Z-0.3526
X75.7422 Y14.6326 Z-0.3590
X75.7253 Y14.6469 Z-0.3654
X75.7090 Y14.6619 Z-0.3718
X75.6934 Y14.6776 Z-0.3782
X75.6783 Y14.6939 Z-0.3847
X75.6640 Y14.7108 Z-0.3911
X75.6503 Y14.7282 Z-0.3975
X75.6374 Y14.7462 Z-0.4039
X75.6252 Y14.7646 Z-0.4103
X75.6137 Y14.7836 Z-0.4167
X75.6030 Y14.8030 Z-0.4231
X75.5931 Y14.8228 Z-0.4295
X75.5840 Y14.8430 Z-0.4359
X75.5758 Y14.8636 Z-0.4423
X75.5683 Y14.8844 Z-0.4488
X75.5617 Y14.9056 Z-0.4552
X75.5560 Y14.9270 Z-0.4616
X75.5511 Y14.9486 Z-0.4680
X75.5471 Y14.9704 Z-0.4744
X75.5440 Y14.9923 Z-0.4808
X75.5418 Y15.0143 Z-0.4872
X75.5405 Y15.0365 Z-0.4936
X75.5400 Y15.0586 Z-0.5000
X75.5405 Y15.0807 Z-0.5064
X75.5418 Y15.1029 Z-0.5129
X75.5440 Y15.1249 Z-0.5193
X75.5471 Y15.1468 Z-0.5257
X75.5511 Y15.1686 Z-0.5321
X75.5560 Y15.1902 Z-0.5385
X75.5617 Y15.2116 Z-0.5449
X75.5683 Y15.2328 Z-0.5513
X75.5758 Y15.2536 Z-0.5577
X75.5840 Y15.2742 Z-0.5641
X75.5931 Y15.2944 Z-0.5705
X75.6030 Y15.3142 Z-0.5770
X75.6137 Y15.3336 Z-0.5834
X75.6252 Y15.3526 Z-0.5898
X75.6374 Y15.3710 Z-0.5962
X75.6503 Y15.3890 Z-0.6026
X75.6640 Y15.4064 Z-0.6090
X75.6783 Y15.4233 Z-0.6154
X75.6934 Y15.4396 Z-0.6218
X75.7090 Y15.4553 Z-0.6282
X75.7253 Y15.4703 Z-0.6346
X75.7422 Y15.4846 Z-0.6410
X75.7596 Y15.4983 Z-0.6475
X75.7776 Y15.5112 Z-0.6539
X75.7961 Y15.5235 Z-0.6603
X75.8150 Y15.5349 Z-0.6667
X75.8344 Y15.5456 Z-0.6731
X75.8542 Y15.5555 Z-0.6795
X75.8744 Y15.5646 Z-0.6859
X75.8950 Y15.5729 Z-0.6923
X75.9158 Y15.5803 Z-0.6987
X75.9370 Y15.5869 Z-0.7051
X75.9584 Y15.5926 Z-0.7116
X75.9800 Y15.5975 Z-0.7180
X76.0018 Y15.6015 Z-0.7244
X76.0237 Y15.6046 Z-0.7308
X76.0458 Y15.6068 Z-0.7372
X76.0679 Y15.6082 Z-0.7436
X76.0900 Y15.6086 Z-0.7500
X76.1122 Y15.6082 Z-0.7564
X76.1343 Y15.6068 Z-0.7628
X76.1563 Y15.6046 Z-0.7692
X76.1782 Y15.6015 Z-0.7757
X76.2000 Y15.5975 Z-0.7821
X76.2216 Y15.5926 Z-0.7885
X76.2430 Y15.5869 Z-0.7949
X76.2642 Y15.5803 Z-0.8013
X76.2850 Y15.5729 Z-0.8077
X76.3056 Y15.5646 Z-0.8141
X76.3258 Y15.5555 Z-0.8205
X76.3456 Y15.5456 Z-0.8269
X76.3650 Y15.5349 Z-0.8333
X76.3840 Y15.5235 Z-0.8398
X76.4024 Y15.5112 Z-0.8462
X76.4204 Y15.4983 Z-0.8526
X76.4379 Y15.4846 Z-0.8590
X76.4547 Y15.4703 Z-0.8654
X76.4710 Y15.4553 Z-0.8718
X76.4867 Y15.4396 Z-0.8782
X76.5017 Y15.4233 Z-0.8846
X76.5160 Y15.4064 Z-0.8910
X76.5297 Y15.3890 Z-0.8974
X76.5427 Y15.3710 Z-0.9039
X76.5549 Y15.3526 Z-0.9103
X76.5663 Y15.3336 Z-0.9167
X76.5770 Y15.3142 Z-0.9231
X76.5869 Y15.2944 Z-0.9295
X76.5960 Y15.2742 Z-0.9359
X76.6043 Y15.2536 Z-0.9423
X76.6117 Y15.2328 Z-0.9487
X76.6183 Y15.2116 Z-0.9551
X76.6240 Y15.1902 Z-0.9615
X76.6289 Y15.1686 Z-0.9679
X76.6329 Y15.1468 Z-0.9744
X76.6360 Y15.1249 Z-0.9808
X76.6382 Y15.1029 Z-0.9872
X76.6396 Y15.0807 Z-0.9936
X76.6400 Y15.0586 Z-1.0000
G02X75.5400I-0.5500J0.0000
X76.6400I0.5500J0.0000
G01 Y15.0588
Y15.0586 Z-1.0001
X76.6396 Y15.0365 Z-1.0065
X76.6382 Y15.0143 Z-1.0129
X76.6360 Y14.9923 Z-1.0193
X76.6329 Y14.9704 Z-1.0257
X76.6289 Y14.9486 Z-1.0321
X76.6240 Y14.9270 Z-1.0385
X76.6183 Y14.9056 Z-1.0449
X76.6117 Y14.8844 Z-1.0513
X76.6043 Y14.8636 Z-1.0578
X76.5960 Y14.8430 Z-1.0642
X76.5869 Y14.8228 Z-1.0706
X76.5770 Y14.8030 Z-1.0770
X76.5663 Y14.7836 Z-1.0834
X76.5549 Y14.7646 Z-1.0898
X76.5427 Y14.7462 Z-1.0962
X76.5297 Y14.7282 Z-1.1026
X76.5160 Y14.7108 Z-1.1090
X76.5017 Y14.6939 Z-1.1154
X76.4867 Y14.6776 Z-1.1219
X76.4710 Y14.6619 Z-1.1283
X76.4547 Y14.6469 Z-1.1347
X76.4379 Y14.6326 Z-1.1411
X76.4204 Y14.6189 Z-1.1475
X76.4024 Y14.6060 Z-1.1539
X76.3840 Y14.5937 Z-1.1603
X76.3650 Y14.5823 Z-1.1667
X76.3456 Y14.5716 Z-1.1731
X76.3258 Y14.5617 Z-1.1795
X76.3056 Y14.5526 Z-1.1860
X76.2850 Y14.5443 Z-1.1924
X76.2642 Y14.5369 Z-1.1988
X76.2430 Y14.5303 Z-1.2052
X76.2216 Y14.5246 Z-1.2116
X76.2000 Y14.5197 Z-1.2180
X76.1782 Y14.5157 Z-1.2244
X76.1563 Y14.5126 Z-1.2308
X76.1343 Y14.5104 Z-1.2372
X76.1122 Y14.5090 Z-1.2436
X76.0900 Y14.5086 Z-1.2501
X76.0679 Y14.5090 Z-1.2565
X76.0458 Y14.5104 Z-1.2629
X76.0237 Y14.5126 Z-1.2693
X76.0018 Y14.5157 Z-1.2757
X75.9800 Y14.5197 Z-1.2821
X75.9584 Y14.5246 Z-1.2885
X75.9370 Y14.5303 Z-1.2949
X75.9158 Y14.5369 Z-1.3013
X75.8950 Y14.5443 Z-1.3077
X75.8744 Y14.5526 Z-1.3141
X75.8542 Y14.5617 Z-1.3206
X75.8344 Y14.5716 Z-1.3270
X75.8150 Y14.5823 Z-1.3334
X75.7961 Y14.5937 Z-1.3398
X75.7776 Y14.6060 Z-1.3462
X75.7596 Y14.6189 Z-1.3526
X75.7422 Y14.6326 Z-1.3590
X75.7253 Y14.6469 Z-1.3654
X75.7090 Y14.6619 Z-1.3718
X75.6934 Y14.6776 Z-1.3782
X75.6783 Y14.6939 Z-1.3847
X75.6640 Y14.7108 Z-1.3911
X75.6503 Y14.7282 Z-1.3975
X75.6374 Y14.7462 Z-1.4039
X75.6252 Y14.7646 Z-1.4103
X75.6137 Y14.7836 Z-1.4167
X75.6030 Y14.8030 Z-1.4231
X75.5931 Y14.8228 Z-1.4295
X75.5840 Y14.8430 Z-1.4359
X75.5758 Y14.8636 Z-1.4423
X75.5683 Y14.8844 Z-1.4488
X75.5617 Y14.9056 Z-1.4552
X75.5560 Y14.9270 Z-1.4616
X75.5511 Y14.9486 Z-1.4680
X75.5471 Y14.9704 Z-1.4744
X75.5440 Y14.9923 Z-1.4808
X75.5418 Y15.0143 Z-1.4872
X75.5405 Y15.0365 Z-1.4936
X75.5400 Y15.0586 Z-1.5000
X75.5405 Y15.0807 Z-1.5064
X75.5418 Y15.1029 Z-1.5129
X75.5440 Y15.1249 Z-1.5193
X75.5471 Y15.1468 Z-1.5257
X75.5511 Y15.1686 Z-1.5321
X75.5560 Y15.1902 Z-1.5385
X75.5617 Y15.2116 Z-1.5449
X75.5683 Y15.2328 Z-1.5513
X75.5758 Y15.2536 Z-1.5577
X75.5840 Y15.2742 Z-1.5641
X75.5931 Y15.2944 Z-1.5705
X75.6030 Y15.3142 Z-1.5770
X75.6137 Y15.3336 Z-1.5834
X75.6252 Y15.3526 Z-1.5898
X75.6374 Y15.3710 Z-1.5962
X75.6503 Y15.3890 Z-1.6026
X75.6640 Y15.4064 Z-1.6090
X75.6783 Y15.4233 Z-1.6154
X75.6934 Y15.4396 Z-1.6218
X75.7090 Y15.4553 Z-1.6282
X75.7253 Y15.4703 Z-1.6346
X75.7422 Y15.4846 Z-1.6410
X75.7596 Y15.4983 Z-1.6475
X75.7776 Y15.5112 Z-1.6539
X75.7961 Y15.5235 Z-1.6603
X75.8150 Y15.5349 Z-1.6667
X75.8344 Y15.5456 Z-1.6731
X75.8542 Y15.5555 Z-1.6795
X75.8744 Y15.5646 Z-1.6859
X75.8950 Y15.5729 Z-1.6923
X75.9158 Y15.5803 Z-1.6987
X75.9370 Y15.5869 Z-1.7051
X75.9584 Y15.5926 Z-1.7116
X75.9800 Y15.5975 Z-1.7180
X76.0018 Y15.6015 Z-1.7244
X76.0237 Y15.6046 Z-1.7308
X76.0458 Y15.6068 Z-1.7372
X76.0679 Y15.6082 Z-1.7436
X76.0900 Y15.6086 Z-1.7500
X76.1122 Y15.6082 Z-1.7564
X76.1343 Y15.6068 Z-1.7628
X76.1563 Y15.6046 Z-1.7692
X76.1782 Y15.6015 Z-1.7757
X76.2000 Y15.5975 Z-1.7821
X76.2216 Y15.5926 Z-1.7885
X76.2430 Y15.5869 Z-1.7949
X76.2642 Y15.5803 Z-1.8013
X76.2850 Y15.5729 Z-1.8077
X76.3056 Y15.5646 Z-1.8141
X76.3258 Y15.5555 Z-1.8205
X76.3456 Y15.5456 Z-1.8269
X76.3650 Y15.5349 Z-1.8333
X76.3840 Y15.5235 Z-1.8398
X76.4024 Y15.5112 Z-1.8462
X76.4204 Y15.4983 Z-1.8526
X76.4379 Y15.4846 Z-1.8590
X76.4547 Y15.4703 Z-1.8654
X76.4710 Y15.4553 Z-1.8718
X76.4867 Y15.4396 Z-1.8782
X76.5017 Y15.4233 Z-1.8846
X76.5160 Y15.4064 Z-1.8910
X76.5297 Y15.3890 Z-1.8974
X76.5427 Y15.3710 Z-1.9039
X76.5549 Y15.3526 Z-1.9103
X76.5663 Y15.3336 Z-1.9167
X76.5770 Y15.3142 Z-1.9231
X76.5869 Y15.2944 Z-1.9295
X76.5960 Y15.2742 Z-1.9359
X76.6043 Y15.2536 Z-1.9423
X76.6117 Y15.2328 Z-1.9487
X76.6183 Y15.2116 Z-1.9551
X76.6240 Y15.1902 Z-1.9615
X76.6289 Y15.1686 Z-1.9680
X76.6329 Y15.1468 Z-1.9744
X76.6360 Y15.1249 Z-1.9808
X76.6382 Y15.1029 Z-1.9872
X76.6396 Y15.0807 Z-1.9936
X76.6400 Y15.0586 Z-2.0000
G02X75.5400I-0.5500J0.0000
X76.6400I0.5500J0.0000
G01 Y15.0588
Y15.0586 Z-2.0001
X76.6396 Y15.0365 Z-2.0065
X76.6382 Y15.0143 Z-2.0129
X76.6360 Y14.9923 Z-2.0193
X76.6329 Y14.9704 Z-2.0257
X76.6289 Y14.9486 Z-2.0321
X76.6240 Y14.9270 Z-2.0385
X76.6183 Y14.9056 Z-2.0449
X76.6117 Y14.8844 Z-2.0513
X76.6043 Y14.8636 Z-2.0578
X76.5960 Y14.8430 Z-2.0642
X76.5869 Y14.8228 Z-2.0706
X76.5770 Y14.8030 Z-2.0770
X76.5663 Y14.7836 Z-2.0834
X76.5549 Y14.7646 Z-2.0898
X76.5427 Y14.7462 Z-2.0962
X76.5297 Y14.7282 Z-2.1026
X76.5160 Y14.7108 Z-2.1090
X76.5017 Y14.6939 Z-2.1154
X76.4867 Y14.6776 Z-2.1219
X76.4710 Y14.6619 Z-2.1283
X76.4547 Y14.6469 Z-2.1347
X76.4379 Y14.6326 Z-2.1411
X76.4204 Y14.6189 Z-2.1475
X76.4024 Y14.6060 Z-2.1539
X76.3840 Y14.5937 Z-2.1603
X76.3650 Y14.5823 Z-2.1667
X76.3456 Y14.5716 Z-2.1731
X76.3258 Y14.5617 Z-2.1795
X76.3056 Y14.5526 Z-2.1860
X76.2850 Y14.5443 Z-2.1924
X76.2642 Y14.5369 Z-2.1988
X76.2430 Y14.5303 Z-2.2052
X76.2216 Y14.5246 Z-2.2116
X76.2000 Y14.5197 Z-2.2180
X76.1782 Y14.5157 Z-2.2244
X76.1563 Y14.5126 Z-2.2308
X76.1343 Y14.5104 Z-2.2372
X76.1122 Y14.5090 Z-2.2436
X76.0900 Y14.5086 Z-2.2501
X76.0679 Y14.5090 Z-2.2565
X76.0458 Y14.5104 Z-2.2629
X76.0237 Y14.5126 Z-2.2693
X76.0018 Y14.5157 Z-2.2757
X75.9800 Y14.5197 Z-2.2821
X75.9584 Y14.5246 Z-2.2885
X75.9370 Y14.5303 Z-2.2949
X75.9158 Y14.5369 Z-2.3013
X75.8950 Y14.5443 Z-2.3077
X75.8744 Y14.5526 Z-2.3141
X75.8542 Y14.5617 Z-2.3206
X75.8344 Y14.5716 Z-2.3270
X75.8150 Y14.5823 Z-2.3334
X75.7961 Y14.5937 Z-2.3398
X75.7776 Y14.6060 Z-2.3462
X75.7596 Y14.6189 Z-2.3526
X75.7422 Y14.6326 Z-2.3590
X75.7253 Y14.6469 Z-2.3654
X75.7090 Y14.6619 Z-2.3718
X75.6934 Y14.6776 Z-2.3782
X75.6783 Y14.6939 Z-2.3847
X75.6640 Y14.7108 Z-2.3911
X75.6503 Y14.7282 Z-2.3975
X75.6374 Y14.7462 Z-2.4039
X75.6252 Y14.7646 Z-2.4103
X75.6137 Y14.7836 Z-2.4167
X75.6030 Y14.8030 Z-2.4231
X75.5931 Y14.8228 Z-2.4295
X75.5840 Y14.8430 Z-2.4359
X75.5758 Y14.8636 Z-2.4423
X75.5683 Y14.8844 Z-2.4488
X75.5617 Y14.9056 Z-2.4552
X75.5560 Y14.9270 Z-2.4616
X75.5511 Y14.9486 Z-2.4680
X75.5471 Y14.9704 Z-2.4744
X75.5440 Y14.9923 Z-2.4808
X75.5418 Y15.0143 Z-2.4872
X75.5405 Y15.0365 Z-2.4936
X75.5400 Y15.0586 Z-2.5000
X75.5405 Y15.0807 Z-2.5064
X75.5418 Y15.1029 Z-2.5129
X75.5440 Y15.1249 Z-2.5193
X75.5471 Y15.1468 Z-2.5257
X75.5511 Y15.1686 Z-2.5321
X75.5560 Y15.1902 Z-2.5385
X75.5617 Y15.2116 Z-2.5449
X75.5683 Y15.2328 Z-2.5513
X75.5758 Y15.2536 Z-2.5577
X75.5840 Y15.2742 Z-2.5641
X75.5931 Y15.2944 Z-2.5705
X75.6030 Y15.3142 Z-2.5770
X75.6137 Y15.3336 Z-2.5834
X75.6252 Y15.3526 Z-2.5898
X75.6374 Y15.3710 Z-2.5962
X75.6503 Y15.3890 Z-2.6026
X75.6640 Y15.4064 Z-2.6090
X75.6783 Y15.4233 Z-2.6154
X75.6934 Y15.4396 Z-2.6218
X75.7090 Y15.4553 Z-2.6282
X75.7253 Y15.4703 Z-2.6346
X75.7422 Y15.4846 Z-2.6410
X75.7596 Y15.4983 Z-2.6475
X75.7776 Y15.5112 Z-2.6539
X75.7961 Y15.5235 Z-2.6603
X75.8150 Y15.5349 Z-2.6667
X75.8344 Y15.5456 Z-2.6731
X75.8542 Y15.5555 Z-2.6795
X75.8744 Y15.5646 Z-2.6859
X75.8950 Y15.5729 Z-2.6923
X75.9158 Y15.5803 Z-2.6987
X75.9370 Y15.5869 Z-2.7051
X75.9584 Y15.5926 Z-2.7116
X75.9800 Y15.5975 Z-2.7180
X76.0018 Y15.6015 Z-2.7244
X76.0237 Y15.6046 Z-2.7308
X76.0458 Y15.6068 Z-2.7372
X76.0679 Y15.6082 Z-2.7436
X76.0900 Y15.6086 Z-2.7500
X76.1122 Y15.6082 Z-2.7564
X76.1343 Y15.6068 Z-2.7628
X76.1563 Y15.6046 Z-2.7692
X76.1782 Y15.6015 Z-2.7757
X76.2000 Y15.5975 Z-2.7821
X76.2216 Y15.5926 Z-2.7885
X76.2430 Y15.5869 Z-2.7949
X76.2642 Y15.5803 Z-2.8013
X76.2850 Y15.5729 Z-2.8077
X76.3056 Y15.5646 Z-2.8141
X76.3258 Y15.5555 Z-2.8205
X76.3456 Y15.5456 Z-2.8269
X76.3650 Y15.5349 Z-2.8333
X76.3840 Y15.5235 Z-2.8398
X76.4024 Y15.5112 Z-2.8462
X76.4204 Y15.4983 Z-2.8526
X76.4379 Y15.4846 Z-2.8590
X76.4547 Y15.4703 Z-2.8654
X76.4710 Y15.4553 Z-2.8718
X76.4867 Y15.4396 Z-2.8782
X76.5017 Y15.4233 Z-2.8846
X76.5160 Y15.4064 Z-2.8910
X76.5297 Y15.3890 Z-2.8974
X76.5427 Y15.3710 Z-2.9039
X76.5549 Y15.3526 Z-2.9103
X76.5663 Y15.3336 Z-2.9167
X76.5770 Y15.3142 Z-2.9231
X76.5869 Y15.2944 Z-2.9295
X76.5960 Y15.2742 Z-2.9359
X76.6043 Y15.2536 Z-2.9423
X76.6117 Y15.2328 Z-2.9487
X76.6183 Y15.2116 Z-2.9551
X76.6240 Y15.1902 Z-2.9615
X76.6289 Y15.1686 Z-2.9680
X76.6329 Y15.1468 Z-2.9744
X76.6360 Y15.1249 Z-2.9808
X76.6382 Y15.1029 Z-2.9872
X76.6396 Y15.0807 Z-2.9936
X76.6400 Y15.0586 Z-3.0000
G02X75.5400I-0.5500J0.0000
X76.6400I0.5500J0.0000
G01 Y15.0588
Y15.0586 Z-3.0001
X76.6396 Y15.0365 Z-3.0065
X76.6382 Y15.0143 Z-3.0129
X76.6360 Y14.9923 Z-3.0193
X76.6329 Y14.9704 Z-3.0257
X76.6289 Y14.9486 Z-3.0321
X76.6240 Y14.9270 Z-3.0385
X76.6183 Y14.9056 Z-3.0449
X76.6117 Y14.8844 Z-3.0513
X76.6043 Y14.8636 Z-3.0578
X76.5960 Y14.8430 Z-3.0642
X76.5869 Y14.8228 Z-3.0706
X76.5770 Y14.8030 Z-3.0770
X76.5663 Y14.7836 Z-3.0834
X76.5549 Y14.7646 Z-3.0898
X76.5427 Y14.7462 Z-3.0962
X76.5297 Y14.7282 Z-3.1026
X76.5160 Y14.7108 Z-3.1090
X76.5017 Y14.6939 Z-3.1154
X76.4867 Y14.6776 Z-3.1219
X76.4710 Y14.6619 Z-3.1283
X76.4547 Y14.6469 Z-3.1347
X76.4379 Y14.6326 Z-3.1411
X76.4204 Y14.6189 Z-3.1475
X76.4024 Y14.6060 Z-3.1539
X76.3840 Y14.5937 Z-3.1603
X76.3650 Y14.5823 Z-3.1667
X76.3456 Y14.5716 Z-3.1731
X76.3258 Y14.5617 Z-3.1795
X76.3056 Y14.5526 Z-3.1860
X76.2850 Y14.5443 Z-3.1924
X76.2642 Y14.5369 Z-3.1988
X76.2430 Y14.5303 Z-3.2052
X76.2216 Y14.5246 Z-3.2116
X76.2000 Y14.5197 Z-3.2180
X76.1782 Y14.5157 Z-3.2244
X76.1563 Y14.5126 Z-3.2308
X76.1343 Y14.5104 Z-3.2372
X76.1122 Y14.5090 Z-3.2436
X76.0900 Y14.5086 Z-3.2501
X76.0679 Y14.5090 Z-3.2565
X76.0458 Y14.5104 Z-3.2629
X76.0237 Y14.5126 Z-3.2693
X76.0018 Y14.5157 Z-3.2757
X75.9800 Y14.5197 Z-3.2821
X75.9584 Y14.5246 Z-3.2885
X75.9370 Y14.5303 Z-3.2949
X75.9158 Y14.5369 Z-3.3013
X75.8950 Y14.5443 Z-3.3077
X75.8744 Y14.5526 Z-3.3141
X75.8542 Y14.5617 Z-3.3206
X75.8344 Y14.5716 Z-3.3270
X75.8150 Y14.5823 Z-3.3334
X75.7961 Y14.5937 Z-3.3398
X75.7776 Y14.6060 Z-3.3462
X75.7596 Y14.6189 Z-3.3526
X75.7422 Y14.6326 Z-3.3590
X75.7253 Y14.6469 Z-3.3654
X75.7090 Y14.6619 Z-3.3718
X75.6934 Y14.6776 Z-3.3782
X75.6783 Y14.6939 Z-3.3847
X75.6640 Y14.7108 Z-3.3911
X75.6503 Y14.7282 Z-3.3975
X75.6374 Y14.7462 Z-3.4039
X75.6252 Y14.7646 Z-3.4103
X75.6137 Y14.7836 Z-3.4167
X75.6030 Y14.8030 Z-3.4231
X75.5931 Y14.8228 Z-3.4295
X75.5840 Y14.8430 Z-3.4359
X75.5758 Y14.8636 Z-3.4423
X75.5683 Y14.8844 Z-3.4488
X75.5617 Y14.9056 Z-3.4552
X75.5560 Y14.9270 Z-3.4616
X75.5511 Y14.9486 Z-3.4680
X75.5471 Y14.9704 Z-3.4744
X75.5440 Y14.9923 Z-3.4808
X75.5418 Y15.0143 Z-3.4872
X75.5405 Y15.0365 Z-3.4936
X75.5400 Y15.0586 Z-3.5000
X75.5405 Y15.0807 Z-3.5064
X75.5418 Y15.1029 Z-3.5129
X75.5440 Y15.1249 Z-3.5193
X75.5471 Y15.1468 Z-3.5257
X75.5511 Y15.1686 Z-3.5321
X75.5560 Y15.1902 Z-3.5385
X75.5617 Y15.2116 Z-3.5449
X75.5683 Y15.2328 Z-3.5513
X75.5758 Y15.2536 Z-3.5577
X75.5840 Y15.2742 Z-3.5641
X75.5931 Y15.2944 Z-3.5705
X75.6030 Y15.3142 Z-3.5770
X75.6137 Y15.3336 Z-3.5834
X75.6252 Y15.3526 Z-3.5898
X75.6374 Y15.3710 Z-3.5962
X75.6503 Y15.3890 Z-3.6026
X75.6640 Y15.4064 Z-3.6090
X75.6783 Y15.4233 Z-3.6154
X75.6934 Y15.4396 Z-3.6218
X75.7090 Y15.4553 Z-3.6282
X75.7253 Y15.4703 Z-3.6346
X75.7422 Y15.4846 Z-3.6410
X75.7596 Y15.4983 Z-3.6475
X75.7776 Y15.5112 Z-3.6539
X75.7961 Y15.5235 Z-3.6603
X75.8150 Y15.5349 Z-3.6667
X75.8344 Y15.5456 Z-3.6731
X75.8542 Y15.5555 Z-3.6795
X75.8744 Y15.5646 Z-3.6859
X75.8950 Y15.5729 Z-3.6923
X75.9158 Y15.5803 Z-3.6987
X75.9370 Y15.5869 Z-3.7051
X75.9584 Y15.5926 Z-3.7116
X75.9800 Y15.5975 Z-3.7180
X76.0018 Y15.6015 Z-3.7244
X76.0237 Y15.6046 Z-3.7308
X76.0458 Y15.6068 Z-3.7372
X76.0679 Y15.6082 Z-3.7436
X76.0900 Y15.6086 Z-3.7500
X76.1122 Y15.6082 Z-3.7564
X76.1343 Y15.6068 Z-3.7628
X76.1563 Y15.6046 Z-3.7692
X76.1782 Y15.6015 Z-3.7757
X76.2000 Y15.5975 Z-3.7821
X76.2216 Y15.5926 Z-3.7885
X76.2430 Y15.5869 Z-3.7949
X76.2642 Y15.5803 Z-3.8013
X76.2850 Y15.5729 Z-3.8077
X76.3056 Y15.5646 Z-3.8141
X76.3258 Y15.5555 Z-3.8205
X76.3456 Y15.5456 Z-3.8269
X76.3650 Y15.5349 Z-3.8333
X76.3840 Y15.5235 Z-3.8398
X76.4024 Y15.5112 Z-3.8462
X76.4204 Y15.4983 Z-3.8526
X76.4379 Y15.4846 Z-3.8590
X76.4547 Y15.4703 Z-3.8654
X76.4710 Y15.4553 Z-3.8718
X76.4867 Y15.4396 Z-3.8782
X76.5017 Y15.4233 Z-3.8846
X76.5160 Y15.4064 Z-3.8910
X76.5297 Y15.3890 Z-3.8974
X76.5427 Y15.3710 Z-3.9039
X76.5549 Y15.3526 Z-3.9103
X76.5663 Y15.3336 Z-3.9167
X76.5770 Y15.3142 Z-3.9231
X76.5869 Y15.2944 Z-3.9295
X76.5960 Y15.2742 Z-3.9359
X76.6043 Y15.2536 Z-3.9423
X76.6117 Y15.2328 Z-3.9487
X76.6183 Y15.2116 Z-3.9551
X76.6240 Y15.1902 Z-3.9615
X76.6289 Y15.1686 Z-3.9680
X76.6329 Y15.1468 Z-3.9744
X76.6360 Y15.1249 Z-3.9808
X76.6382 Y15.1029 Z-3.9872
X76.6396 Y15.0807 Z-3.9936
X76.6400 Y15.0586 Z-4.0000
G02X75.5400I-0.5500J0.0000
X76.6400I0.5500J0.0000
G01 Y15.0588
Y15.0586 Z-4.0001
X76.6396 Y15.0365 Z-4.0065
X76.6382 Y15.0143 Z-4.0129
X76.6360 Y14.9923 Z-4.0193
X76.6329 Y14.9704 Z-4.0257
X76.6289 Y14.9486 Z-4.0321
X76.6240 Y14.9270 Z-4.0385
X76.6183 Y14.9056 Z-4.0449
X76.6117 Y14.8844 Z-4.0513
X76.6043 Y14.8636 Z-4.0578
X76.5960 Y14.8430 Z-4.0642
X76.5869 Y14.8228 Z-4.0706
X76.5770 Y14.8030 Z-4.0770
X76.5663 Y14.7836 Z-4.0834
X76.5549 Y14.7646 Z-4.0898
X76.5427 Y14.7462 Z-4.0962
X76.5297 Y14.7282 Z-4.1026
X76.5160 Y14.7108 Z-4.1090
X76.5017 Y14.6939 Z-4.1154
X76.4867 Y14.6776 Z-4.1219
X76.4710 Y14.6619 Z-4.1283
X76.4547 Y14.6469 Z-4.1347
X76.4379 Y14.6326 Z-4.1411
X76.4204 Y14.6189 Z-4.1475
X76.4024 Y14.6060 Z-4.1539
X76.3840 Y14.5937 Z-4.1603
X76.3650 Y14.5823 Z-4.1667
X76.3456 Y14.5716 Z-4.1731
X76.3258 Y14.5617 Z-4.1795
X76.3056 Y14.5526 Z-4.1860
X76.2850 Y14.5443 Z-4.1924
X76.2642 Y14.5369 Z-4.1988
X76.2430 Y14.5303 Z-4.2052
X76.2216 Y14.5246 Z-4.2116
X76.2000 Y14.5197 Z-4.2180
X76.1782 Y14.5157 Z-4.2244
X76.1563 Y14.5126 Z-4.2308
X76.1343 Y14.5104 Z-4.2372
X76.1122 Y14.5090 Z-4.2436
X76.0900 Y14.5086 Z-4.2501
X76.0679 Y14.5090 Z-4.2565
X76.0458 Y14.5104 Z-4.2629
X76.0237 Y14.5126 Z-4.2693
X76.0018 Y14.5157 Z-4.2757
X75.9800 Y14.5197 Z-4.2821
X75.9584 Y14.5246 Z-4.2885
X75.9370 Y14.5303 Z-4.2949
X75.9158 Y14.5369 Z-4.3013
X75.8950 Y14.5443 Z-4.3077
X75.8744 Y14.5526 Z-4.3141
X75.8542 Y14.5617 Z-4.3206
X75.8344 Y14.5716 Z-4.3270
X75.8150 Y14.5823 Z-4.3334
X75.7961 Y14.5937 Z-4.3398
X75.7776 Y14.6060 Z-4.3462
X75.7596 Y14.6189 Z-4.3526
X75.7422 Y14.6326 Z-4.3590
X75.7253 Y14.6469 Z-4.3654
X75.7090 Y14.6619 Z-4.3718
X75.6934 Y14.6776 Z-4.3782
X75.6783 Y14.6939 Z-4.3847
X75.6640 Y14.7108 Z-4.3911
X75.6503 Y14.7282 Z-4.3975
X75.6374 Y14.7462 Z-4.4039
X75.6252 Y14.7646 Z-4.4103
X75.6137 Y14.7836 Z-4.4167
X75.6030 Y14.8030 Z-4.4231
X75.5931 Y14.8228 Z-4.4295
X75.5840 Y14.8430 Z-4.4359
X75.5758 Y14.8636 Z-4.4423
X75.5683 Y14.8844 Z-4.4488
X75.5617 Y14.9056 Z-4.4552
X75.5560 Y14.9270 Z-4.4616
X75.5511 Y14.9486 Z-4.4680
X75.5471 Y14.9704 Z-4.4744
X75.5440 Y14.9923 Z-4.4808
X75.5418 Y15.0143 Z-4.4872
X75.5405 Y15.0365 Z-4.4936
X75.5400 Y15.0586 Z-4.5000
X75.5405 Y15.0807 Z-4.5064
X75.5418 Y15.1029 Z-4.5129
X75.5440 Y15.1249 Z-4.5193
X75.5471 Y15.1468 Z-4.5257
X75.5511 Y15.1686 Z-4.5321
X75.5560 Y15.1902 Z-4.5385
X75.5617 Y15.2116 Z-4.5449
X75.5683 Y15.2328 Z-4.5513
X75.5758 Y15.2536 Z-4.5577
X75.5840 Y15.2742 Z-4.5641
X75.5931 Y15.2944 Z-4.5705
X75.6030 Y15.3142 Z-4.5770
X75.6137 Y15.3336 Z-4.5834
X75.6252 Y15.3526 Z-4.5898
X75.6374 Y15.3710 Z-4.5962
X75.6503 Y15.3890 Z-4.6026
X75.6640 Y15.4064 Z-4.6090
X75.6783 Y15.4233 Z-4.6154
X75.6934 Y15.4396 Z-4.6218
X75.7090 Y15.4553 Z-4.6282
X75.7253 Y15.4703 Z-4.6346
X75.7422 Y15.4846 Z-4.6410
X75.7596 Y15.4983 Z-4.6475
X75.7776 Y15.5112 Z-4.6539
X75.7961 Y15.5235 Z-4.6603
X75.8150 Y15.5349 Z-4.6667
X75.8344 Y15.5456 Z-4.6731
X75.8542 Y15.5555 Z-4.6795
X75.8744 Y15.5646 Z-4.6859
X75.8950 Y15.5729 Z-4.6923
X75.9158 Y15.5803 Z-4.6987
X75.9370 Y15.5869 Z-4.7051
X75.9584 Y15.5926 Z-4.7116
X75.9800 Y15.5975 Z-4.7180
X76.0018 Y15.6015 Z-4.7244
X76.0237 Y15.6046 Z-4.7308
X76.0458 Y15.6068 Z-4.7372
X76.0679 Y15.6082 Z-4.7436
X76.0900 Y15.6086 Z-4.7500
X76.1122 Y15.6082 Z-4.7564
X76.1343 Y15.6068 Z-4.7628
X76.1563 Y15.6046 Z-4.7692
X76.1782 Y15.6015 Z-4.7757
X76.2000 Y15.5975 Z-4.7821
X76.2216 Y15.5926 Z-4.7885
X76.2430 Y15.5869 Z-4.7949
X76.2642 Y15.5803 Z-4.8013
X76.2850 Y15.5729 Z-4.8077
X76.3056 Y15.5646 Z-4.8141
X76.3258 Y15.5555 Z-4.8205
X76.3456 Y15.5456 Z-4.8269
X76.3650 Y15.5349 Z-4.8333
X76.3840 Y15.5235 Z-4.8398
X76.4024 Y15.5112 Z-4.8462
X76.4204 Y15.4983 Z-4.8526
X76.4379 Y15.4846 Z-4.8590
X76.4547 Y15.4703 Z-4.8654
X76.4710 Y15.4553 Z-4.8718
X76.4867 Y15.4396 Z-4.8782
X76.5017 Y15.4233 Z-4.8846
X76.5160 Y15.4064 Z-4.8910
X76.5297 Y15.3890 Z-4.8974
X76.5427 Y15.3710 Z-4.9039
X76.5549 Y15.3526 Z-4.9103
X76.5663 Y15.3336 Z-4.9167
X76.5770 Y15.3142 Z-4.9231
X76.5869 Y15.2944 Z-4.9295
X76.5960 Y15.2742 Z-4.9359
X76.6043 Y15.2536 Z-4.9423
X76.6117 Y15.2328 Z-4.9487
X76.6183 Y15.2116 Z-4.9551
X76.6240 Y15.1902 Z-4.9615
X76.6289 Y15.1686 Z-4.9680
X76.6329 Y15.1468 Z-4.9744
X76.6360 Y15.1249 Z-4.9808
