G00 G49 G40.1 G17 G80 G50 G90
G21
(2 1/2 Axis Profiling)
(SlotDrill 2mm Carbide)
M6 T12
M03 S20000
G00 Z12.5000
X23.5500 Y-20.1249
G01 Z0.0000  F1000.0
Y-22.3267 Z-0.3882  F25.4
X23.1683 Y-22.8327 Z-0.5000
G17
G02X23.5500Y-17.6633I-3.1683J2.8327 F100.0
G01 Y-22.3267
X23.1683 Y-22.8327
X23.3617 Y-22.9915
X23.8000 Y-22.4104
Y-17.5896
G03X23.3617Y-22.9915I-3.8000J-2.4104
G00 Z12.5000
X23.5500 Y-20.1249
G01 Z-0.5000  F1000.0
Y-22.3267 Z-0.8882  F25.4
X23.1683 Y-22.8327 Z-1.0000
G02X23.5500Y-17.6633I-3.1683J2.8327 F100.0
G01 Y-22.3267
X23.1683 Y-22.8327
X23.3617 Y-22.9915
X23.8000 Y-22.4104
Y-17.5896
G03X23.3617Y-22.9915I-3.8000J-2.4104
G00 Z12.5000
X23.5500 Y-20.1249
G01 Z-1.0000  F1000.0
Y-22.3267 Z-1.3882  F25.4
X23.1683 Y-22.8327 Z-1.5000
G02X23.5500Y-17.6633I-3.1683J2.8327 F100.0
G01 Y-22.3267
X23.1683 Y-22.8327
X23.3617 Y-22.9915
X23.8000 Y-22.4104
Y-17.5896
G03X23.3617Y-22.9915I-3.8000J-2.4104
G00 Z12.5000
X23.5500 Y-20.1249
G01 Z-1.5000  F1000.0
Y-22.3267 Z-1.8882  F25.4
X23.1683 Y-22.8327 Z-2.0000
G02X23.5500Y-17.6633I-3.1683J2.8327 F100.0
G01 Y-22.3267
X23.1683 Y-22.8327
X23.3617 Y-22.9915
X23.8000 Y-22.4104
Y-17.5896
G03X23.3617Y-22.9915I-3.8000J-2.4104
G00 Z12.5000
X23.5500 Y-20.1249
G01 Z-2.0000  F1000.0
Y-22.3267 Z-2.3882  F25.4
X23.1683 Y-22.8327 Z-2.5000
G02X23.5500Y-17.6633I-3.1683J2.8327 F100.0
G01 Y-22.3267
X23.1683 Y-22.8327
X23.3617 Y-22.9915
X23.8000 Y-22.4104
Y-17.5896
G03X23.3617Y-22.9915I-3.8000J-2.4104
G00 Z12.5000
X23.5500 Y-20.1249
G01 Z-2.5000  F1000.0
Y-22.3267 Z-2.8882  F25.4
X23.1683 Y-22.8327 Z-3.0000
G02X23.5500Y-17.6633I-3.1683J2.8327 F100.0
G01 Y-22.3267
X23.1683 Y-22.8327
X23.3617 Y-22.9915
X23.8000 Y-22.4104
Y-17.5896
G03X23.3617Y-22.9915I-3.8000J-2.4104
G00 Z12.5000
X47.1575 Y-32.1477
G01 Z0.0000  F1000.0
X47.1640 Y-32.1019 Z-0.0082  F25.4
X47.2053 Y-32.0112 Z-0.0257
X47.2704 Y-31.9358 Z-0.0433
X47.3541 Y-31.8819 Z-0.0609
X47.4497 Y-31.8536 Z-0.0784
X47.5493 Y-31.8535 Z-0.0960
X47.6449 Y-31.8814 Z-0.1136
X47.7288 Y-31.9351 Z-0.1311
X47.7941 Y-32.0103 Z-0.1487
X47.8357 Y-32.1009 Z-0.1663
X47.8500 Y-32.1995 Z-0.1838
X47.8360 Y-32.2981 Z-0.2014
X47.7947 Y-32.3888 Z-0.2189
X47.7296 Y-32.4642 Z-0.2365
X47.6459 Y-32.5181 Z-0.2541
X47.5503 Y-32.5464 Z-0.2716
X47.4507 Y-32.5465 Z-0.2892
X47.3551 Y-32.5186 Z-0.3068
X47.2712 Y-32.4649 Z-0.3243
X47.2059 Y-32.3897 Z-0.3419
X47.1643 Y-32.2991 Z-0.3595
X47.1500 Y-32.2005 Z-0.3770
X47.1640 Y-32.1019 Z-0.3946
X47.2053 Y-32.0112 Z-0.4122
X47.2704 Y-31.9358 Z-0.4297
X47.3541 Y-31.8819 Z-0.4473
X47.4497 Y-31.8536 Z-0.4649
X47.5493 Y-31.8535 Z-0.4824
X47.6449 Y-31.8814 Z-0.5000
X47.8484 Y-32.1662  F100.0
X47.7035 Y-32.4848
X47.3551 Y-32.5186
X47.1516 Y-32.2338
X47.2965 Y-31.9152
X47.6449 Y-31.8814
X47.7484 Y-31.6538
G03X47.2516Y-32.7462I-0.2484J-0.5462
X47.7484Y-31.6538I0.2484J0.5462
G00 Z12.5000
X47.1575 Y-32.1477
G01 Z-0.5000  F1000.0
X47.1640 Y-32.1019 Z-0.5082  F25.4
X47.2053 Y-32.0112 Z-0.5257
X47.2704 Y-31.9358 Z-0.5433
X47.3541 Y-31.8819 Z-0.5609
X47.4497 Y-31.8536 Z-0.5784
X47.5493 Y-31.8535 Z-0.5960
X47.6449 Y-31.8814 Z-0.6136
X47.7288 Y-31.9351 Z-0.6311
X47.7941 Y-32.0103 Z-0.6487
X47.8357 Y-32.1009 Z-0.6663
X47.8500 Y-32.1995 Z-0.6838
X47.8360 Y-32.2981 Z-0.7014
X47.7947 Y-32.3888 Z-0.7189
X47.7296 Y-32.4642 Z-0.7365
X47.6459 Y-32.5181 Z-0.7541
X47.5503 Y-32.5464 Z-0.7716
X47.4507 Y-32.5465 Z-0.7892
X47.3551 Y-32.5186 Z-0.8068
X47.2712 Y-32.4649 Z-0.8243
X47.2059 Y-32.3897 Z-0.8419
X47.1643 Y-32.2991 Z-0.8595
X47.1500 Y-32.2005 Z-0.8770
X47.1640 Y-32.1019 Z-0.8946
X47.2053 Y-32.0112 Z-0.9122
X47.2704 Y-31.9358 Z-0.9297
X47.3541 Y-31.8819 Z-0.9473
X47.4497 Y-31.8536 Z-0.9649
X47.5493 Y-31.8535 Z-0.9824
X47.6449 Y-31.8814 Z-1.0000
X47.8484 Y-32.1662  F100.0
X47.7035 Y-32.4848
X47.3551 Y-32.5186
X47.1516 Y-32.2338
X47.2965 Y-31.9152
X47.6449 Y-31.8814
X47.7484 Y-31.6538
G03X47.2516Y-32.7462I-0.2484J-0.5462
X47.7484Y-31.6538I0.2484J0.5462
G00 Z12.5000
X47.1575 Y-32.1477
G01 Z-1.0000  F1000.0
X47.1640 Y-32.1019 Z-1.0082  F25.4
X47.2053 Y-32.0112 Z-1.0257
X47.2704 Y-31.9358 Z-1.0433
X47.3541 Y-31.8819 Z-1.0609
X47.4497 Y-31.8536 Z-1.0784
X47.5493 Y-31.8535 Z-1.0960
X47.6449 Y-31.8814 Z-1.1136
X47.7288 Y-31.9351 Z-1.1311
X47.7941 Y-32.0103 Z-1.1487
X47.8357 Y-32.1009 Z-1.1663
X47.8500 Y-32.1995 Z-1.1838
X47.8360 Y-32.2981 Z-1.2014
X47.7947 Y-32.3888 Z-1.2189
X47.7296 Y-32.4642 Z-1.2365
X47.6459 Y-32.5181 Z-1.2541
X47.5503 Y-32.5464 Z-1.2716
X47.4507 Y-32.5465 Z-1.2892
X47.3551 Y-32.5186 Z-1.3068
X47.2712 Y-32.4649 Z-1.3243
X47.2059 Y-32.3897 Z-1.3419
X47.1643 Y-32.2991 Z-1.3595
X47.1500 Y-32.2005 Z-1.3770
X47.1640 Y-32.1019 Z-1.3946
X47.2053 Y-32.0112 Z-1.4122
X47.2704 Y-31.9358 Z-1.4297
X47.3541 Y-31.8819 Z-1.4473
X47.4497 Y-31.8536 Z-1.4649
X47.5493 Y-31.8535 Z-1.4824
X47.6449 Y-31.8814 Z-1.5000
X47.8484 Y-32.1662  F100.0
X47.7035 Y-32.4848
X47.3551 Y-32.5186
X47.1516 Y-32.2338
X47.2965 Y-31.9152
X47.6449 Y-31.8814
X47.7484 Y-31.6538
G03X47.2516Y-32.7462I-0.2484J-0.5462
X47.7484Y-31.6538I0.2484J0.5462
G00 Z12.5000
X47.1575 Y-32.1477
G01 Z-1.5000  F1000.0
X47.1640 Y-32.1019 Z-1.5082  F25.4
X47.2053 Y-32.0112 Z-1.5257
X47.2704 Y-31.9358 Z-1.5433
X47.3541 Y-31.8819 Z-1.5609
X47.4497 Y-31.8536 Z-1.5784
X47.5493 Y-31.8535 Z-1.5960
X47.6449 Y-31.8814 Z-1.6136
X47.7288 Y-31.9351 Z-1.6311
X47.7941 Y-32.0103 Z-1.6487
X47.8357 Y-32.1009 Z-1.6663
X47.8500 Y-32.1995 Z-1.6838
X47.8360 Y-32.2981 Z-1.7014
X47.7947 Y-32.3888 Z-1.7189
X47.7296 Y-32.4642 Z-1.7365
X47.6459 Y-32.5181 Z-1.7541
X47.5503 Y-32.5464 Z-1.7716
X47.4507 Y-32.5465 Z-1.7892
X47.3551 Y-32.5186 Z-1.8068
X47.2712 Y-32.4649 Z-1.8243
X47.2059 Y-32.3897 Z-1.8419
X47.1643 Y-32.2991 Z-1.8595
X47.1500 Y-32.2005 Z-1.8770
X47.1640 Y-32.1019 Z-1.8946
X47.2053 Y-32.0112 Z-1.9122
X47.2704 Y-31.9358 Z-1.9297
X47.3541 Y-31.8819 Z-1.9473
X47.4497 Y-31.8536 Z-1.9649
X47.5493 Y-31.8535 Z-1.9824
X47.6449 Y-31.8814 Z-2.0000
X47.8484 Y-32.1662  F100.0
X47.7035 Y-32.4848
X47.3551 Y-32.5186
X47.1516 Y-32.2338
X47.2965 Y-31.9152
X47.6449 Y-31.8814
X47.7484 Y-31.6538
G03X47.2516Y-32.7462I-0.2484J-0.5462
X47.7484Y-31.6538I0.2484J0.5462
G00 Z12.5000
X47.1575 Y-32.1477
G01 Z-2.0000  F1000.0
X47.1640 Y-32.1019 Z-2.0082  F25.4
X47.2053 Y-32.0112 Z-2.0257
X47.2704 Y-31.9358 Z-2.0433
X47.3541 Y-31.8819 Z-2.0609
X47.4497 Y-31.8536 Z-2.0784
X47.5493 Y-31.8535 Z-2.0960
X47.6449 Y-31.8814 Z-2.1136
X47.7288 Y-31.9351 Z-2.1311
X47.7941 Y-32.0103 Z-2.1487
X47.8357 Y-32.1009 Z-2.1663
X47.8500 Y-32.1995 Z-2.1838
X47.8360 Y-32.2981 Z-2.2014
X47.7947 Y-32.3888 Z-2.2189
X47.7296 Y-32.4642 Z-2.2365
X47.6459 Y-32.5181 Z-2.2541
X47.5503 Y-32.5464 Z-2.2716
X47.4507 Y-32.5465 Z-2.2892
X47.3551 Y-32.5186 Z-2.3068
X47.2712 Y-32.4649 Z-2.3243
X47.2059 Y-32.3897 Z-2.3419
X47.1643 Y-32.2991 Z-2.3595
X47.1500 Y-32.2005 Z-2.3770
X47.1640 Y-32.1019 Z-2.3946
X47.2053 Y-32.0112 Z-2.4122
X47.2704 Y-31.9358 Z-2.4297
X47.3541 Y-31.8819 Z-2.4473
X47.4497 Y-31.8536 Z-2.4649
X47.5493 Y-31.8535 Z-2.4824
X47.6449 Y-31.8814 Z-2.5000
X47.8484 Y-32.1662  F100.0
X47.7035 Y-32.4848
X47.3551 Y-32.5186
X47.1516 Y-32.2338
X47.2965 Y-31.9152
X47.6449 Y-31.8814
X47.7484 Y-31.6538
G03X47.2516Y-32.7462I-0.2484J-0.5462
X47.7484Y-31.6538I0.2484J0.5462
G00 Z12.5000
X47.1575 Y-32.1477
G01 Z-2.5000  F1000.0
X47.1640 Y-32.1019 Z-2.5082  F25.4
X47.2053 Y-32.0112 Z-2.5257
X47.2704 Y-31.9358 Z-2.5433
X47.3541 Y-31.8819 Z-2.5609
X47.4497 Y-31.8536 Z-2.5784
X47.5493 Y-31.8535 Z-2.5960
X47.6449 Y-31.8814 Z-2.6136
X47.7288 Y-31.9351 Z-2.6311
X47.7941 Y-32.0103 Z-2.6487
X47.8357 Y-32.1009 Z-2.6663
X47.8500 Y-32.1995 Z-2.6838
X47.8360 Y-32.2981 Z-2.7014
X47.7947 Y-32.3888 Z-2.7189
X47.7296 Y-32.4642 Z-2.7365
X47.6459 Y-32.5181 Z-2.7541
X47.5503 Y-32.5464 Z-2.7716
X47.4507 Y-32.5465 Z-2.7892
X47.3551 Y-32.5186 Z-2.8068
X47.2712 Y-32.4649 Z-2.8243
X47.2059 Y-32.3897 Z-2.8419
X47.1643 Y-32.2991 Z-2.8595
X47.1500 Y-32.2005 Z-2.8770
X47.1640 Y-32.1019 Z-2.8946
X47.2053 Y-32.0112 Z-2.9122
X47.2704 Y-31.9358 Z-2.9297
X47.3541 Y-31.8819 Z-2.9473
X47.4497 Y-31.8536 Z-2.9649
X47.5493 Y-31.8535 Z-2.9824
X47.6449 Y-31.8814 Z-3.0000
X47.8484 Y-32.1662  F100.0
X47.7035 Y-32.4848
X47.3551 Y-32.5186
X47.1516 Y-32.2338
X47.2965 Y-31.9152
X47.6449 Y-31.8814
X47.7484 Y-31.6538
G03X47.2516Y-32.7462I-0.2484J-0.5462
X47.7484Y-31.6538I0.2484J0.5462
G00 Z12.5000
X54.8290 Y-30.1500
G01 Z0.0000  F1000.0
X51.9933 Z-0.5000  F25.4
X50.9100  F100.0
Y-20.8000
X50.9079 Y-20.7674
X50.8738 Y-20.5085
X50.8569 Y-20.4455
X50.7570 Y-20.2043
X50.7244 Y-20.1478
X50.6109 Y-20.0000
X50.7244 Y-19.8522
X50.7570 Y-19.7957
X50.8569 Y-19.5545
X50.8738 Y-19.4915
X50.9079 Y-19.2326
X50.9100 Y-19.2000
Y-13.3000
X68.4900
Y-19.2000
X68.4921 Y-19.2326
X68.5262 Y-19.4915
X68.5431 Y-19.5545
X68.6430 Y-19.7957
X68.6756 Y-19.8522
X68.7891 Y-20.0000
X68.6756 Y-20.1478
X68.6430 Y-20.2043
X68.5431 Y-20.4455
X68.5262 Y-20.5085
X68.4921 Y-20.7674
X68.4900 Y-20.8000
Y-30.1500
X51.9933
Y-30.4000
X68.7400
Y-20.8000
X68.7741 Y-20.5412
X68.8740 Y-20.3000
X69.0329 Y-20.0929
X69.1540 Y-20.0000
X69.0329 Y-19.9071
X68.8740 Y-19.7000
X68.7741 Y-19.4588
X68.7400 Y-19.2000
Y-13.0500
X50.6600
Y-19.2000
X50.6259 Y-19.4588
X50.5260 Y-19.7000
X50.3671 Y-19.9071
X50.2460 Y-20.0000
X50.3671 Y-20.0929
X50.5260 Y-20.3000
X50.6259 Y-20.5412
X50.6600 Y-20.8000
Y-30.4000
X51.9933
G00 Z12.5000
X54.8290 Y-30.1500
G01 Z-0.5000  F1000.0
X51.9933 Z-1.0000  F25.4
X50.9100  F100.0
Y-20.8000
X50.9079 Y-20.7674
X50.8738 Y-20.5085
X50.8569 Y-20.4455
X50.7570 Y-20.2043
X50.7244 Y-20.1478
X50.6109 Y-20.0000
X50.7244 Y-19.8522
X50.7570 Y-19.7957
X50.8569 Y-19.5545
X50.8738 Y-19.4915
X50.9079 Y-19.2326
X50.9100 Y-19.2000
Y-13.3000
X68.4900
Y-19.2000
X68.4921 Y-19.2326
X68.5262 Y-19.4915
X68.5431 Y-19.5545
X68.6430 Y-19.7957
X68.6756 Y-19.8522
X68.7891 Y-20.0000
X68.6756 Y-20.1478
X68.6430 Y-20.2043
X68.5431 Y-20.4455
X68.5262 Y-20.5085
X68.4921 Y-20.7674
X68.4900 Y-20.8000
Y-30.1500
X51.9933
Y-30.4000
X68.7400
Y-20.8000
X68.7741 Y-20.5412
X68.8740 Y-20.3000
X69.0329 Y-20.0929
X69.1540 Y-20.0000
X69.0329 Y-19.9071
X68.8740 Y-19.7000
X68.7741 Y-19.4588
X68.7400 Y-19.2000
Y-13.0500
X50.6600
Y-19.2000
X50.6259 Y-19.4588
X50.5260 Y-19.7000
X50.3671 Y-19.9071
X50.2460 Y-20.0000
X50.3671 Y-20.0929
X50.5260 Y-20.3000
X50.6259 Y-20.5412
X50.6600 Y-20.8000
Y-30.4000
X51.9933
G00 Z12.5000
X54.8290 Y-30.1500
G01 Z-1.0000  F1000.0
X51.9933 Z-1.5000  F25.4
X50.9100  F100.0
Y-20.8000
X50.9079 Y-20.7674
X50.8738 Y-20.5085
X50.8569 Y-20.4455
X50.7570 Y-20.2043
X50.7244 Y-20.1478
X50.6109 Y-20.0000
X50.7244 Y-19.8522
X50.7570 Y-19.7957
X50.8569 Y-19.5545
X50.8738 Y-19.4915
X50.9079 Y-19.2326
X50.9100 Y-19.2000
Y-13.3000
X68.4900
Y-19.2000
X68.4921 Y-19.2326
X68.5262 Y-19.4915
X68.5431 Y-19.5545
X68.6430 Y-19.7957
X68.6756 Y-19.8522
X68.7891 Y-20.0000
X68.6756 Y-20.1478
X68.6430 Y-20.2043
X68.5431 Y-20.4455
X68.5262 Y-20.5085
X68.4921 Y-20.7674
X68.4900 Y-20.8000
Y-30.1500
X51.9933
Y-30.4000
X68.7400
Y-20.8000
X68.7741 Y-20.5412
X68.8740 Y-20.3000
X69.0329 Y-20.0929
X69.1540 Y-20.0000
X69.0329 Y-19.9071
X68.8740 Y-19.7000
X68.7741 Y-19.4588
X68.7400 Y-19.2000
Y-13.0500
X50.6600
Y-19.2000
X50.6259 Y-19.4588
X50.5260 Y-19.7000
X50.3671 Y-19.9071
X50.2460 Y-20.0000
X50.3671 Y-20.0929
X50.5260 Y-20.3000
X50.6259 Y-20.5412
X50.6600 Y-20.8000
Y-30.4000
X51.9933
G00 Z12.5000
X54.8290 Y-30.1500
G01 Z-1.5000  F1000.0
X51.9933 Z-2.0000  F25.4
X50.9100  F100.0
Y-20.8000
X50.9079 Y-20.7674
X50.8738 Y-20.5085
X50.8569 Y-20.4455
X50.7570 Y-20.2043
X50.7244 Y-20.1478
X50.6109 Y-20.0000
X50.7244 Y-19.8522
X50.7570 Y-19.7957
X50.8569 Y-19.5545
X50.8738 Y-19.4915
X50.9079 Y-19.2326
X50.9100 Y-19.2000
Y-13.3000
X68.4900
Y-19.2000
X68.4921 Y-19.2326
X68.5262 Y-19.4915
X68.5431 Y-19.5545
X68.6430 Y-19.7957
X68.6756 Y-19.8522
X68.7891 Y-20.0000
X68.6756 Y-20.1478
X68.6430 Y-20.2043
X68.5431 Y-20.4455
X68.5262 Y-20.5085
X68.4921 Y-20.7674
X68.4900 Y-20.8000
Y-30.1500
X51.9933
Y-30.4000
X68.7400
Y-20.8000
X68.7741 Y-20.5412
X68.8740 Y-20.3000
X69.0329 Y-20.0929
X69.1540 Y-20.0000
X69.0329 Y-19.9071
X68.8740 Y-19.7000
X68.7741 Y-19.4588
X68.7400 Y-19.2000
Y-13.0500
X50.6600
Y-19.2000
X50.6259 Y-19.4588
X50.5260 Y-19.7000
X50.3671 Y-19.9071
X50.2460 Y-20.0000
X50.3671 Y-20.0929
X50.5260 Y-20.3000
X50.6259 Y-20.5412
X50.6600 Y-20.8000
Y-30.4000
X51.9933
G00 Z12.5000
X54.8290 Y-30.1500
G01 Z-2.0000  F1000.0
X51.9933 Z-2.5000  F25.4
X50.9100  F100.0
Y-20.8000
X50.9079 Y-20.7674
X50.8738 Y-20.5085
X50.8569 Y-20.4455
X50.7570 Y-20.2043
X50.7244 Y-20.1478
X50.6109 Y-20.0000
X50.7244 Y-19.8522
X50.7570 Y-19.7957
X50.8569 Y-19.5545
X50.8738 Y-19.4915
X50.9079 Y-19.2326
X50.9100 Y-19.2000
Y-13.3000
X68.4900
Y-19.2000
X68.4921 Y-19.2326
X68.5262 Y-19.4915
X68.5431 Y-19.5545
X68.6430 Y-19.7957
X68.6756 Y-19.8522
X68.7891 Y-20.0000
X68.6756 Y-20.1478
X68.6430 Y-20.2043
X68.5431 Y-20.4455
X68.5262 Y-20.5085
X68.4921 Y-20.7674
X68.4900 Y-20.8000
Y-30.1500
X51.9933
Y-30.4000
X68.7400
Y-20.8000
X68.7741 Y-20.5412
X68.8740 Y-20.3000
X69.0329 Y-20.0929
X69.1540 Y-20.0000
X69.0329 Y-19.9071
X68.8740 Y-19.7000
X68.7741 Y-19.4588
X68.7400 Y-19.2000
Y-13.0500
X50.6600
Y-19.2000
X50.6259 Y-19.4588
X50.5260 Y-19.7000
X50.3671 Y-19.9071
X50.2460 Y-20.0000
X50.3671 Y-20.0929
X50.5260 Y-20.3000
X50.6259 Y-20.5412
X50.6600 Y-20.8000
Y-30.4000
X51.9933
G00 Z12.5000
X54.8290 Y-30.1500
G01 Z-2.5000  F1000.0
X51.9933 Z-3.0000  F25.4
X50.9100  F100.0
Y-20.8000
X50.9079 Y-20.7674
X50.8738 Y-20.5085
X50.8569 Y-20.4455
X50.7570 Y-20.2043
X50.7244 Y-20.1478
X50.6109 Y-20.0000
X50.7244 Y-19.8522
X50.7570 Y-19.7957
X50.8569 Y-19.5545
X50.8738 Y-19.4915
X50.9079 Y-19.2326
X50.9100 Y-19.2000
Y-13.3000
X68.4900
Y-19.2000
X68.4921 Y-19.2326
X68.5262 Y-19.4915
X68.5431 Y-19.5545
X68.6430 Y-19.7957
X68.6756 Y-19.8522
X68.7891 Y-20.0000
X68.6756 Y-20.1478
X68.6430 Y-20.2043
X68.5431 Y-20.4455
X68.5262 Y-20.5085
X68.4921 Y-20.7674
X68.4900 Y-20.8000
Y-30.1500
X51.9933
Y-30.4000
X68.7400
Y-20.8000
X68.7741 Y-20.5412
X68.8740 Y-20.3000
X69.0329 Y-20.0929
X69.1540 Y-20.0000
X69.0329 Y-19.9071
X68.8740 Y-19.7000
X68.7741 Y-19.4588
X68.7400 Y-19.2000
Y-13.0500
X50.6600
Y-19.2000
X50.6259 Y-19.4588
X50.5260 Y-19.7000
X50.3671 Y-19.9071
X50.2460 Y-20.0000
X50.3671 Y-20.0929
X50.5260 Y-20.3000
X50.6259 Y-20.5412
X50.6600 Y-20.8000
Y-30.4000
X51.9933
G00 Z12.5000
X72.2373 Y-32.1207
G01 Z0.0000  F1000.0
X72.2483 Y-32.1657 Z-0.0082  F25.4
X72.2439 Y-32.2652 Z-0.0257
X72.2116 Y-32.3594 Z-0.0433
X72.1540 Y-32.4408 Z-0.0609
X72.0759 Y-32.5026 Z-0.0784
X71.9835 Y-32.5399 Z-0.0960
X71.8844 Y-32.5497 Z-0.1136
X71.7865 Y-32.5311 Z-0.1311
X71.6978 Y-32.4857 Z-0.1487
X71.6255 Y-32.4172 Z-0.1663
X71.5755 Y-32.3311 Z-0.1838
X71.5517 Y-32.2343 Z-0.2014
X71.5561 Y-32.1348 Z-0.2189
X71.5884 Y-32.0406 Z-0.2365
X71.6460 Y-31.9592 Z-0.2541
X71.7241 Y-31.8974 Z-0.2716
X71.8165 Y-31.8601 Z-0.2892
X71.9156 Y-31.8503 Z-0.3068
X72.0135 Y-31.8689 Z-0.3243
X72.1022 Y-31.9143 Z-0.3419
X72.1745 Y-31.9828 Z-0.3595
X72.2245 Y-32.0689 Z-0.3770
X72.2483 Y-32.1657 Z-0.3946
X72.2439 Y-32.2652 Z-0.4122
X72.2116 Y-32.3594 Z-0.4297
X72.1540 Y-32.4408 Z-0.4473
X72.0759 Y-32.5026 Z-0.4649
X71.9835 Y-32.5399 Z-0.4824
X71.8844 Y-32.5497 Z-0.5000
X71.5894 Y-32.3613  F100.0
X71.6050 Y-32.0117
X71.9156 Y-31.8503
X72.2106 Y-32.0387
X72.1950 Y-32.3883
X71.8844 Y-32.5497
X71.8732 Y-32.7994
G03X71.9267Y-31.6006I0.0268J0.5994
X71.8732Y-32.7994I-0.0267J-0.5994
G00 Z12.5000
X72.2373 Y-32.1207
G01 Z-0.5000  F1000.0
X72.2483 Y-32.1657 Z-0.5082  F25.4
X72.2439 Y-32.2652 Z-0.5257
X72.2116 Y-32.3594 Z-0.5433
X72.1540 Y-32.4408 Z-0.5609
X72.0759 Y-32.5026 Z-0.5784
X71.9835 Y-32.5399 Z-0.5960
X71.8844 Y-32.5497 Z-0.6136
X71.7865 Y-32.5311 Z-0.6311
X71.6978 Y-32.4857 Z-0.6487
X71.6255 Y-32.4172 Z-0.6663
X71.5755 Y-32.3311 Z-0.6838
X71.5517 Y-32.2343 Z-0.7014
X71.5561 Y-32.1348 Z-0.7189
X71.5884 Y-32.0406 Z-0.7365
X71.6460 Y-31.9592 Z-0.7541
X71.7241 Y-31.8974 Z-0.7716
X71.8165 Y-31.8601 Z-0.7892
X71.9156 Y-31.8503 Z-0.8068
X72.0135 Y-31.8689 Z-0.8243
X72.1022 Y-31.9143 Z-0.8419
X72.1745 Y-31.9828 Z-0.8595
X72.2245 Y-32.0689 Z-0.8770
X72.2483 Y-32.1657 Z-0.8946
X72.2439 Y-32.2652 Z-0.9122
X72.2116 Y-32.3594 Z-0.9297
X72.1540 Y-32.4408 Z-0.9473
X72.0759 Y-32.5026 Z-0.9649
X71.9835 Y-32.5399 Z-0.9824
X71.8844 Y-32.5497 Z-1.0000
X71.5894 Y-32.3613  F100.0
X71.6050 Y-32.0117
X71.9156 Y-31.8503
X72.2106 Y-32.0387
X72.1950 Y-32.3883
X71.8844 Y-32.5497
X71.8732 Y-32.7994
G03X71.9267Y-31.6006I0.0268J0.5994
X71.8732Y-32.7994I-0.0267J-0.5994
G00 Z12.5000
X72.2373 Y-32.1207
G01 Z-1.0000  F1000.0
X72.2483 Y-32.1657 Z-1.0082  F25.4
X72.2439 Y-32.2652 Z-1.0257
X72.2116 Y-32.3594 Z-1.0433
X72.1540 Y-32.4408 Z-1.0609
X72.0759 Y-32.5026 Z-1.0784
X71.9835 Y-32.5399 Z-1.0960
X71.8844 Y-32.5497 Z-1.1136
X71.7865 Y-32.5311 Z-1.1311
X71.6978 Y-32.4857 Z-1.1487
X71.6255 Y-32.4172 Z-1.1663
X71.5755 Y-32.3311 Z-1.1838
X71.5517 Y-32.2343 Z-1.2014
X71.5561 Y-32.1348 Z-1.2189
X71.5884 Y-32.0406 Z-1.2365
X71.6460 Y-31.9592 Z-1.2541
X71.7241 Y-31.8974 Z-1.2716
X71.8165 Y-31.8601 Z-1.2892
X71.9156 Y-31.8503 Z-1.3068
X72.0135 Y-31.8689 Z-1.3243
X72.1022 Y-31.9143 Z-1.3419
X72.1745 Y-31.9828 Z-1.3595
X72.2245 Y-32.0689 Z-1.3770
X72.2483 Y-32.1657 Z-1.3946
X72.2439 Y-32.2652 Z-1.4122
X72.2116 Y-32.3594 Z-1.4297
X72.1540 Y-32.4408 Z-1.4473
X72.0759 Y-32.5026 Z-1.4649
X71.9835 Y-32.5399 Z-1.4824
X71.8844 Y-32.5497 Z-1.5000
X71.5894 Y-32.3613  F100.0
X71.6050 Y-32.0117
X71.9156 Y-31.8503
X72.2106 Y-32.0387
X72.1950 Y-32.3883
X71.8844 Y-32.5497
X71.8732 Y-32.7994
G03X71.9267Y-31.6006I0.0268J0.5994
X71.8732Y-32.7994I-0.0267J-0.5994
G00 Z12.5000
X72.2373 Y-32.1207
G01 Z-1.5000  F1000.0
X72.2483 Y-32.1657 Z-1.5082  F25.4
X72.2439 Y-32.2652 Z-1.5257
X72.2116 Y-32.3594 Z-1.5433
X72.1540 Y-32.4408 Z-1.5609
X72.0759 Y-32.5026 Z-1.5784
X71.9835 Y-32.5399 Z-1.5960
X71.8844 Y-32.5497 Z-1.6136
X71.7865 Y-32.5311 Z-1.6311
X71.6978 Y-32.4857 Z-1.6487
X71.6255 Y-32.4172 Z-1.6663
X71.5755 Y-32.3311 Z-1.6838
X71.5517 Y-32.2343 Z-1.7014
X71.5561 Y-32.1348 Z-1.7189
X71.5884 Y-32.0406 Z-1.7365
X71.6460 Y-31.9592 Z-1.7541
X71.7241 Y-31.8974 Z-1.7716
X71.8165 Y-31.8601 Z-1.7892
X71.9156 Y-31.8503 Z-1.8068
X72.0135 Y-31.8689 Z-1.8243
X72.1022 Y-31.9143 Z-1.8419
X72.1745 Y-31.9828 Z-1.8595
X72.2245 Y-32.0689 Z-1.8770
X72.2483 Y-32.1657 Z-1.8946
X72.2439 Y-32.2652 Z-1.9122
X72.2116 Y-32.3594 Z-1.9297
X72.1540 Y-32.4408 Z-1.9473
X72.0759 Y-32.5026 Z-1.9649
X71.9835 Y-32.5399 Z-1.9824
X71.8844 Y-32.5497 Z-2.0000
X71.5894 Y-32.3613  F100.0
X71.6050 Y-32.0117
X71.9156 Y-31.8503
X72.2106 Y-32.0387
X72.1950 Y-32.3883
X71.8844 Y-32.5497
X71.8732 Y-32.7994
G03X71.9267Y-31.6006I0.0268J0.5994
X71.8732Y-32.7994I-0.0267J-0.5994
G00 Z12.5000
X72.2373 Y-32.1207
G01 Z-2.0000  F1000.0
X72.2483 Y-32.1657 Z-2.0082  F25.4
X72.2439 Y-32.2652 Z-2.0257
X72.2116 Y-32.3594 Z-2.0433
X72.1540 Y-32.4408 Z-2.0609
X72.0759 Y-32.5026 Z-2.0784
X71.9835 Y-32.5399 Z-2.0960
X71.8844 Y-32.5497 Z-2.1136
X71.7865 Y-32.5311 Z-2.1311
X71.6978 Y-32.4857 Z-2.1487
X71.6255 Y-32.4172 Z-2.1662
X71.5755 Y-32.3311 Z-2.1838
X71.5517 Y-32.2343 Z-2.2014
X71.5561 Y-32.1348 Z-2.2189
X71.5884 Y-32.0406 Z-2.2365
X71.6460 Y-31.9592 Z-2.2541
X71.7241 Y-31.8974 Z-2.2716
X71.8165 Y-31.8601 Z-2.2892
X71.9156 Y-31.8503 Z-2.3068
X72.0135 Y-31.8689 Z-2.3243
X72.1022 Y-31.9143 Z-2.3419
X72.1745 Y-31.9828 Z-2.3595
X72.2245 Y-32.0689 Z-2.3770
X72.2483 Y-32.1657 Z-2.3946
X72.2439 Y-32.2652 Z-2.4122
X72.2116 Y-32.3594 Z-2.4297
X72.1540 Y-32.4408 Z-2.4473
X72.0759 Y-32.5026 Z-2.4649
X71.9835 Y-32.5399 Z-2.4824
X71.8844 Y-32.5497 Z-2.5000
X71.5894 Y-32.3613  F100.0
X71.6050 Y-32.0117
X71.9156 Y-31.8503
X72.2106 Y-32.0387
X72.1950 Y-32.3883
X71.8844 Y-32.5497
X71.8732 Y-32.7994
G03X71.9267Y-31.6006I0.0268J0.5994
X71.8732Y-32.7994I-0.0267J-0.5994
G00 Z12.5000
X72.2373 Y-32.1207
G01 Z-2.5000  F1000.0
X72.2483 Y-32.1657 Z-2.5082  F25.4
X72.2439 Y-32.2652 Z-2.5257
X72.2116 Y-32.3594 Z-2.5433
X72.1540 Y-32.4408 Z-2.5609
X72.0759 Y-32.5026 Z-2.5784
X71.9835 Y-32.5399 Z-2.5960
X71.8844 Y-32.5497 Z-2.6136
X71.7865 Y-32.5311 Z-2.6311
X71.6978 Y-32.4857 Z-2.6487
X71.6255 Y-32.4172 Z-2.6663
X71.5755 Y-32.3311 Z-2.6838
X71.5517 Y-32.2343 Z-2.7014
X71.5561 Y-32.1348 Z-2.7189
X71.5884 Y-32.0406 Z-2.7365
X71.6460 Y-31.9592 Z-2.7541
X71.7241 Y-31.8974 Z-2.7716
X71.8165 Y-31.8601 Z-2.7892
X71.9156 Y-31.8503 Z-2.8068
X72.0135 Y-31.8689 Z-2.8243
X72.1022 Y-31.9143 Z-2.8419
X72.1745 Y-31.9828 Z-2.8595
X72.2245 Y-32.0689 Z-2.8770
X72.2483 Y-32.1657 Z-2.8946
X72.2439 Y-32.2652 Z-2.9122
X72.2116 Y-32.3594 Z-2.9297
X72.1540 Y-32.4408 Z-2.9473
X72.0759 Y-32.5026 Z-2.9649
X71.9835 Y-32.5399 Z-2.9824
X71.8844 Y-32.5497 Z-3.0000
X71.5894 Y-32.3613  F100.0
X71.6050 Y-32.0117
X71.9156 Y-31.8503
X72.2106 Y-32.0387
X72.1950 Y-32.3883
X71.8844 Y-32.5497
X71.8732 Y-32.7994
G03X71.9267Y-31.6006I0.0268J0.5994
X71.8732Y-32.7994I-0.0267J-0.5994
G00 Z12.5000
X72.0691 Y-7.4976
G01 Z0.0000  F1000.0
X72.1097 Y-7.5198 Z-0.0082  F25.4
X72.1802 Y-7.5903 Z-0.0257
X72.2279 Y-7.6777 Z-0.0433
X72.2491 Y-7.7750 Z-0.0609
X72.2420 Y-7.8744 Z-0.0784
X72.2072 Y-7.9677 Z-0.0960
X72.1475 Y-8.0475 Z-0.1136
X72.0677 Y-8.1072 Z-0.1311
X71.9744 Y-8.1420 Z-0.1487
X71.8750 Y-8.1491 Z-0.1663
X71.7777 Y-8.1279 Z-0.1838
X71.6903 Y-8.0802 Z-0.2014
X71.6198 Y-8.0097 Z-0.2189
X71.5721 Y-7.9223 Z-0.2365
X71.5509 Y-7.8250 Z-0.2541
X71.5580 Y-7.7256 Z-0.2716
X71.5928 Y-7.6323 Z-0.2892
X71.6525 Y-7.5525 Z-0.3068
X71.7323 Y-7.4928 Z-0.3243
X71.8256 Y-7.4580 Z-0.3419
X71.9250 Y-7.4509 Z-0.3595
X72.0223 Y-7.4721 Z-0.3770
X72.1097 Y-7.5198 Z-0.3946
X72.1802 Y-7.5903 Z-0.4122
X72.2279 Y-7.6777 Z-0.4297
X72.2491 Y-7.7750 Z-0.4473
X72.2420 Y-7.8744 Z-0.4649
X72.2072 Y-7.9677 Z-0.4824
X72.1475 Y-8.0475 Z-0.5000
X71.8094 Y-8.1381  F100.0
X71.5619 Y-7.8906
X71.6525 Y-7.5525
X71.9906 Y-7.4619
X72.2381 Y-7.7094
X72.1475 Y-8.0475
X72.3243 Y-8.2243
G03X71.4757Y-7.3757I-0.4243J0.4243
X72.3243Y-8.2243I0.4243J-0.4243
G00 Z12.5000
X72.0691 Y-7.4976
G01 Z-0.5000  F1000.0
X72.1097 Y-7.5198 Z-0.5082  F25.4
X72.1802 Y-7.5903 Z-0.5257
X72.2279 Y-7.6777 Z-0.5433
X72.2491 Y-7.7750 Z-0.5609
X72.2420 Y-7.8744 Z-0.5784
X72.2072 Y-7.9677 Z-0.5960
X72.1475 Y-8.0475 Z-0.6136
X72.0677 Y-8.1072 Z-0.6311
X71.9744 Y-8.1420 Z-0.6487
X71.8750 Y-8.1491 Z-0.6663
X71.7777 Y-8.1279 Z-0.6838
X71.6903 Y-8.0802 Z-0.7014
X71.6198 Y-8.0097 Z-0.7189
X71.5721 Y-7.9223 Z-0.7365
X71.5509 Y-7.8250 Z-0.7541
X71.5580 Y-7.7256 Z-0.7716
X71.5928 Y-7.6323 Z-0.7892
X71.6525 Y-7.5525 Z-0.8068
X71.7323 Y-7.4928 Z-0.8243
X71.8256 Y-7.4580 Z-0.8419
X71.9250 Y-7.4509 Z-0.8595
X72.0223 Y-7.4721 Z-0.8770
X72.1097 Y-7.5198 Z-0.8946
X72.1802 Y-7.5903 Z-0.9122
X72.2279 Y-7.6777 Z-0.9297
X72.2491 Y-7.7750 Z-0.9473
X72.2420 Y-7.8744 Z-0.9649
X72.2072 Y-7.9677 Z-0.9824
X72.1475 Y-8.0475 Z-1.0000
X71.8094 Y-8.1381  F100.0
X71.5619 Y-7.8906
X71.6525 Y-7.5525
X71.9906 Y-7.4619
X72.2381 Y-7.7094
X72.1475 Y-8.0475
X72.3243 Y-8.2243
G03X71.4757Y-7.3757I-0.4243J0.4243
X72.3243Y-8.2243I0.4243J-0.4243
G00 Z12.5000
X72.0691 Y-7.4976
G01 Z-1.0000  F1000.0
X72.1097 Y-7.5198 Z-1.0082  F25.4
X72.1802 Y-7.5903 Z-1.0257
X72.2279 Y-7.6777 Z-1.0433
X72.2491 Y-7.7750 Z-1.0609
X72.2420 Y-7.8744 Z-1.0784
X72.2072 Y-7.9677 Z-1.0960
X72.1475 Y-8.0475 Z-1.1136
X72.0677 Y-8.1072 Z-1.1311
X71.9744 Y-8.1420 Z-1.1487
X71.8750 Y-8.1491 Z-1.1663
X71.7777 Y-8.1279 Z-1.1838
X71.6903 Y-8.0802 Z-1.2014
X71.6198 Y-8.0097 Z-1.2189
X71.5721 Y-7.9223 Z-1.2365
X71.5509 Y-7.8250 Z-1.2541
X71.5580 Y-7.7256 Z-1.2716
X71.5928 Y-7.6323 Z-1.2892
X71.6525 Y-7.5525 Z-1.3068
X71.7323 Y-7.4928 Z-1.3243
X71.8256 Y-7.4580 Z-1.3419
X71.9250 Y-7.4509 Z-1.3595
X72.0223 Y-7.4721 Z-1.3770
X72.1097 Y-7.5198 Z-1.3946
X72.1802 Y-7.5903 Z-1.4122
X72.2279 Y-7.6777 Z-1.4297
X72.2491 Y-7.7750 Z-1.4473
X72.2420 Y-7.8744 Z-1.4649
X72.2072 Y-7.9677 Z-1.4824
X72.1475 Y-8.0475 Z-1.5000
X71.8094 Y-8.1381  F100.0
X71.5619 Y-7.8906
X71.6525 Y-7.5525
X71.9906 Y-7.4619
X72.2381 Y-7.7094
X72.1475 Y-8.0475
X72.3243 Y-8.2243
G03X71.4757Y-7.3757I-0.4243J0.4243
X72.3243Y-8.2243I0.4243J-0.4243
G00 Z12.5000
X72.0691 Y-7.4976
G01 Z-1.5000  F1000.0
X72.1097 Y-7.5198 Z-1.5082  F25.4
X72.1802 Y-7.5903 Z-1.5257
X72.2279 Y-7.6777 Z-1.5433
X72.2491 Y-7.7750 Z-1.5609
X72.2420 Y-7.8744 Z-1.5784
X72.2072 Y-7.9677 Z-1.5960
X72.1475 Y-8.0475 Z-1.6136
X72.0677 Y-8.1072 Z-1.6311
X71.9744 Y-8.1420 Z-1.6487
X71.8750 Y-8.1491 Z-1.6663
X71.7777 Y-8.1279 Z-1.6838
X71.6903 Y-8.0802 Z-1.7014
X71.6198 Y-8.0097 Z-1.7189
X71.5721 Y-7.9223 Z-1.7365
X71.5509 Y-7.8250 Z-1.7541
X71.5580 Y-7.7256 Z-1.7716
X71.5928 Y-7.6323 Z-1.7892
X71.6525 Y-7.5525 Z-1.8068
X71.7323 Y-7.4928 Z-1.8243
X71.8256 Y-7.4580 Z-1.8419
X71.9250 Y-7.4509 Z-1.8595
X72.0223 Y-7.4721 Z-1.8770
X72.1097 Y-7.5198 Z-1.8946
X72.1802 Y-7.5903 Z-1.9122
X72.2279 Y-7.6777 Z-1.9297
X72.2491 Y-7.7750 Z-1.9473
X72.2420 Y-7.8744 Z-1.9649
X72.2072 Y-7.9677 Z-1.9824
X72.1475 Y-8.0475 Z-2.0000
X71.8094 Y-8.1381  F100.0
X71.5619 Y-7.8906
X71.6525 Y-7.5525
X71.9906 Y-7.4619
X72.2381 Y-7.7094
X72.1475 Y-8.0475
X72.3243 Y-8.2243
G03X71.4757Y-7.3757I-0.4243J0.4243
X72.3243Y-8.2243I0.4243J-0.4243
G00 Z12.5000
X72.0691 Y-7.4976
G01 Z-2.0000  F1000.0
X72.1097 Y-7.5198 Z-2.0082  F25.4
X72.1802 Y-7.5903 Z-2.0257
X72.2279 Y-7.6777 Z-2.0433
X72.2491 Y-7.7750 Z-2.0609
X72.2420 Y-7.8744 Z-2.0784
X72.2072 Y-7.9677 Z-2.0960
X72.1475 Y-8.0475 Z-2.1136
X72.0677 Y-8.1072 Z-2.1311
X71.9744 Y-8.1420 Z-2.1487
X71.8750 Y-8.1491 Z-2.1662
X71.7777 Y-8.1279 Z-2.1838
X71.6903 Y-8.0802 Z-2.2014
X71.6198 Y-8.0097 Z-2.2189
X71.5721 Y-7.9223 Z-2.2365
X71.5509 Y-7.8250 Z-2.2541
X71.5580 Y-7.7256 Z-2.2716
X71.5928 Y-7.6323 Z-2.2892
X71.6525 Y-7.5525 Z-2.3068
X71.7323 Y-7.4928 Z-2.3243
X71.8256 Y-7.4580 Z-2.3419
X71.9250 Y-7.4509 Z-2.3595
X72.0223 Y-7.4721 Z-2.3770
X72.1097 Y-7.5198 Z-2.3946
X72.1802 Y-7.5903 Z-2.4122
X72.2279 Y-7.6777 Z-2.4297
X72.2491 Y-7.7750 Z-2.4473
X72.2420 Y-7.8744 Z-2.4649
X72.2072 Y-7.9677 Z-2.4824
X72.1475 Y-8.0475 Z-2.5000
X71.8094 Y-8.1381  F100.0
X71.5619 Y-7.8906
X71.6525 Y-7.5525
X71.9906 Y-7.4619
X72.2381 Y-7.7094
X72.1475 Y-8.0475
X72.3243 Y-8.2243
G03X71.4757Y-7.3757I-0.4243J0.4243
X72.3243Y-8.2243I0.4243J-0.4243
G00 Z12.5000
X72.0691 Y-7.4976
G01 Z-2.5000  F1000.0
X72.1097 Y-7.5198 Z-2.5082  F25.4
X72.1802 Y-7.5903 Z-2.5257
X72.2279 Y-7.6777 Z-2.5433
X72.2491 Y-7.7750 Z-2.5609
X72.2420 Y-7.8744 Z-2.5784
X72.2072 Y-7.9677 Z-2.5960
X72.1475 Y-8.0475 Z-2.6136
X72.0677 Y-8.1072 Z-2.6311
X71.9744 Y-8.1420 Z-2.6487
X71.8750 Y-8.1491 Z-2.6663
X71.7777 Y-8.1279 Z-2.6838
X71.6903 Y-8.0802 Z-2.7014
X71.6198 Y-8.0097 Z-2.7189
X71.5721 Y-7.9223 Z-2.7365
X71.5509 Y-7.8250 Z-2.7541
X71.5580 Y-7.7256 Z-2.7716
X71.5928 Y-7.6323 Z-2.7892
X71.6525 Y-7.5525 Z-2.8068
X71.7323 Y-7.4928 Z-2.8243
X71.8256 Y-7.4580 Z-2.8419
X71.9250 Y-7.4509 Z-2.8595
X72.0223 Y-7.4721 Z-2.8770
X72.1097 Y-7.5198 Z-2.8946
X72.1802 Y-7.5903 Z-2.9122
X72.2279 Y-7.6777 Z-2.9297
X72.2491 Y-7.7750 Z-2.9473
X72.2420 Y-7.8744 Z-2.9649
X72.2072 Y-7.9677 Z-2.9824
X72.1475 Y-8.0475 Z-3.0000
X71.8094 Y-8.1381  F100.0
X71.5619 Y-7.8906
X71.6525 Y-7.5525
X71.9906 Y-7.4619
X72.2381 Y-7.7094
X72.1475 Y-8.0475
X72.3243 Y-8.2243
G03X71.4757Y-7.3757I-0.4243J0.4243
X72.3243Y-8.2243I0.4243J-0.4243
G00 Z12.5000
X47.6384 Y-8.1208
G01 Z0.0000  F1000.0
X47.6246 Y-8.1283 Z-0.0028  F25.4
X47.5294 Y-8.1499 Z-0.0200
X47.4319 Y-8.1443 Z-0.0372
X47.3398 Y-8.1120 Z-0.0544
X47.2602 Y-8.0555 Z-0.0716
X47.1992 Y-7.9793 Z-0.0888
X47.1534 Y-7.8462 Z-0.1137
X47.1545 Y-7.7485 Z-0.1309
X47.1825 Y-7.6550 Z-0.1481
X47.2352 Y-7.5728 Z-0.1653
X47.3086 Y-7.5085 Z-0.1825
X47.3970 Y-7.4669 Z-0.1997
X47.4933 Y-7.4513 Z-0.2169
X47.5903 Y-7.4629 Z-0.2342
X47.6802 Y-7.5009 Z-0.2514
X47.7562 Y-7.5623 Z-0.2686
X47.8122 Y-7.6422 Z-0.2858
X47.8440 Y-7.7345 Z-0.3030
X47.8490 Y-7.8320 Z-0.3202
X47.8269 Y-7.9271 Z-0.3375
X47.7794 Y-8.0124 Z-0.3547
X47.7102 Y-8.0813 Z-0.3719
X47.6246 Y-8.1283 Z-0.3891
X47.5294 Y-8.1499 Z-0.4063
X47.4319 Y-8.1443 Z-0.4235
X47.3398 Y-8.1120 Z-0.4407
X47.2602 Y-8.0555 Z-0.4580
X47.1992 Y-7.9793 Z-0.4752
X47.1534 Y-7.8462 Z-0.5000
X47.5903 Y-7.4629  F100.0
X47.7794 Y-8.0124
X47.1992 Y-7.9793
X47.1534 Y-7.8462
X46.9099 Y-7.9068
X46.9700 Y-8.0814
G03X46.9099Y-7.9068I0.5305J0.2803
G00 Z12.5000
X47.6384 Y-8.1208
G01 Z-0.5000  F1000.0
X47.6246 Y-8.1283 Z-0.5028  F25.4
X47.5294 Y-8.1499 Z-0.5200
X47.4319 Y-8.1443 Z-0.5372
X47.3398 Y-8.1120 Z-0.5544
X47.2602 Y-8.0555 Z-0.5716
X47.1992 Y-7.9793 Z-0.5888
X47.1534 Y-7.8462 Z-0.6137
X47.1545 Y-7.7485 Z-0.6309
X47.1825 Y-7.6550 Z-0.6481
X47.2352 Y-7.5728 Z-0.6653
X47.3086 Y-7.5085 Z-0.6825
X47.3970 Y-7.4669 Z-0.6997
X47.4933 Y-7.4513 Z-0.7169
X47.5903 Y-7.4629 Z-0.7342
X47.6802 Y-7.5009 Z-0.7514
X47.7562 Y-7.5623 Z-0.7686
X47.8122 Y-7.6422 Z-0.7858
X47.8440 Y-7.7345 Z-0.8030
X47.8490 Y-7.8320 Z-0.8202
X47.8269 Y-7.9271 Z-0.8375
X47.7794 Y-8.0124 Z-0.8547
X47.7102 Y-8.0813 Z-0.8719
X47.6246 Y-8.1283 Z-0.8891
X47.5294 Y-8.1499 Z-0.9063
X47.4319 Y-8.1443 Z-0.9235
X47.3398 Y-8.1120 Z-0.9407
X47.2602 Y-8.0555 Z-0.9580
X47.1992 Y-7.9793 Z-0.9752
X47.1534 Y-7.8462 Z-1.0000
X47.5903 Y-7.4629  F100.0
X47.7794 Y-8.0124
X47.1992 Y-7.9793
X47.1534 Y-7.8462
X46.9099 Y-7.9068
X46.9700 Y-8.0814
G03X46.9099Y-7.9068I0.5305J0.2803
G00 Z12.5000
X47.6384 Y-8.1208
G01 Z-1.0000  F1000.0
X47.6246 Y-8.1283 Z-1.0028  F25.4
X47.5294 Y-8.1499 Z-1.0200
X47.4319 Y-8.1443 Z-1.0372
X47.3398 Y-8.1120 Z-1.0544
X47.2602 Y-8.0555 Z-1.0716
X47.1992 Y-7.9793 Z-1.0888
X47.1534 Y-7.8462 Z-1.1137
X47.1545 Y-7.7485 Z-1.1309
X47.1825 Y-7.6550 Z-1.1481
X47.2352 Y-7.5728 Z-1.1653
X47.3086 Y-7.5085 Z-1.1825
X47.3970 Y-7.4669 Z-1.1997
X47.4933 Y-7.4513 Z-1.2169
X47.5903 Y-7.4629 Z-1.2342
X47.6802 Y-7.5009 Z-1.2514
X47.7562 Y-7.5623 Z-1.2686
X47.8122 Y-7.6422 Z-1.2858
X47.8440 Y-7.7345 Z-1.3030
X47.8490 Y-7.8320 Z-1.3202
X47.8269 Y-7.9271 Z-1.3375
X47.7794 Y-8.0124 Z-1.3547
X47.7102 Y-8.0813 Z-1.3719
X47.6246 Y-8.1283 Z-1.3891
X47.5294 Y-8.1499 Z-1.4063
X47.4319 Y-8.1443 Z-1.4235
X47.3398 Y-8.1120 Z-1.4407
X47.2602 Y-8.0555 Z-1.4580
X47.1992 Y-7.9793 Z-1.4752
X47.1534 Y-7.8462 Z-1.5000
X47.5903 Y-7.4629  F100.0
X47.7794 Y-8.0124
X47.1992 Y-7.9793
X47.1534 Y-7.8462
X46.9099 Y-7.9068
X46.9700 Y-8.0814
G03X46.9099Y-7.9068I0.5305J0.2803
G00 Z12.5000
X47.6384 Y-8.1208
G01 Z-1.5000  F1000.0
X47.6246 Y-8.1283 Z-1.5028  F25.4
X47.5294 Y-8.1499 Z-1.5200
X47.4319 Y-8.1443 Z-1.5372
X47.3398 Y-8.1120 Z-1.5544
X47.2602 Y-8.0555 Z-1.5716
X47.1992 Y-7.9793 Z-1.5888
X47.1534 Y-7.8462 Z-1.6137
X47.1545 Y-7.7485 Z-1.6309
X47.1825 Y-7.6550 Z-1.6481
X47.2352 Y-7.5728 Z-1.6653
X47.3086 Y-7.5085 Z-1.6825
X47.3970 Y-7.4669 Z-1.6997
X47.4933 Y-7.4513 Z-1.7169
X47.5903 Y-7.4629 Z-1.7342
X47.6802 Y-7.5009 Z-1.7514
X47.7562 Y-7.5623 Z-1.7686
X47.8122 Y-7.6422 Z-1.7858
X47.8440 Y-7.7345 Z-1.8030
X47.8490 Y-7.8320 Z-1.8202
X47.8269 Y-7.9271 Z-1.8375
X47.7794 Y-8.0124 Z-1.8547
X47.7102 Y-8.0813 Z-1.8719
X47.6246 Y-8.1283 Z-1.8891
X47.5294 Y-8.1499 Z-1.9063
X47.4319 Y-8.1443 Z-1.9235
X47.3398 Y-8.1120 Z-1.9407
X47.2602 Y-8.0555 Z-1.9580
X47.1992 Y-7.9793 Z-1.9752
X47.1534 Y-7.8462 Z-2.0000
X47.5903 Y-7.4629  F100.0
X47.7794 Y-8.0124
X47.1992 Y-7.9793
X47.1534 Y-7.8462
X46.9099 Y-7.9068
X46.9700 Y-8.0814
G03X46.9099Y-7.9068I0.5305J0.2803
G00 Z12.5000
X47.6384 Y-8.1208
G01 Z-2.0000  F1000.0
X47.6246 Y-8.1283 Z-2.0028  F25.4
X47.5294 Y-8.1499 Z-2.0200
X47.4319 Y-8.1443 Z-2.0372
X47.3398 Y-8.1120 Z-2.0544
X47.2602 Y-8.0555 Z-2.0716
X47.1992 Y-7.9793 Z-2.0888
X47.1534 Y-7.8462 Z-2.1137
X47.1545 Y-7.7485 Z-2.1309
X47.1825 Y-7.6550 Z-2.1481
X47.2352 Y-7.5728 Z-2.1653
X47.3086 Y-7.5085 Z-2.1825
X47.3970 Y-7.4669 Z-2.1997
X47.4933 Y-7.4513 Z-2.2169
X47.5903 Y-7.4629 Z-2.2342
X47.6802 Y-7.5009 Z-2.2514
X47.7562 Y-7.5623 Z-2.2686
X47.8122 Y-7.6422 Z-2.2858
X47.8440 Y-7.7345 Z-2.3030
X47.8490 Y-7.8320 Z-2.3202
X47.8269 Y-7.9271 Z-2.3375
X47.7794 Y-8.0124 Z-2.3547
X47.7102 Y-8.0813 Z-2.3719
X47.6246 Y-8.1283 Z-2.3891
X47.5294 Y-8.1499 Z-2.4063
X47.4319 Y-8.1443 Z-2.4235
X47.3398 Y-8.1120 Z-2.4407
X47.2602 Y-8.0555 Z-2.4580
X47.1992 Y-7.9793 Z-2.4752
X47.1534 Y-7.8462 Z-2.5000
X47.5903 Y-7.4629  F100.0
X47.7794 Y-8.0124
X47.1992 Y-7.9793
X47.1534 Y-7.8462
X46.9099 Y-7.9068
X46.9700 Y-8.0814
G03X46.9099Y-7.9068I0.5305J0.2803
G00 Z12.5000
X47.6384 Y-8.1208
G01 Z-2.5000  F1000.0
X47.6246 Y-8.1283 Z-2.5028  F25.4
X47.5294 Y-8.1499 Z-2.5200
X47.4319 Y-8.1443 Z-2.5372
X47.3398 Y-8.1120 Z-2.5544
X47.2602 Y-8.0555 Z-2.5716
X47.1992 Y-7.9793 Z-2.5888
X47.1534 Y-7.8462 Z-2.6137
X47.1545 Y-7.7485 Z-2.6309
X47.1825 Y-7.6550 Z-2.6481
X47.2352 Y-7.5728 Z-2.6653
X47.3086 Y-7.5085 Z-2.6825
X47.3970 Y-7.4669 Z-2.6997
X47.4933 Y-7.4513 Z-2.7169
X47.5903 Y-7.4629 Z-2.7342
X47.6802 Y-7.5009 Z-2.7514
X47.7562 Y-7.5623 Z-2.7686
X47.8122 Y-7.6422 Z-2.7858
X47.8440 Y-7.7345 Z-2.8030
X47.8490 Y-7.8320 Z-2.8202
X47.8269 Y-7.9271 Z-2.8375
X47.7794 Y-8.0124 Z-2.8547
X47.7102 Y-8.0813 Z-2.8719
X47.6246 Y-8.1283 Z-2.8891
X47.5294 Y-8.1499 Z-2.9063
X47.4319 Y-8.1443 Z-2.9235
X47.3398 Y-8.1120 Z-2.9407
X47.2602 Y-8.0555 Z-2.9580
X47.1992 Y-7.9793 Z-2.9752
X47.1534 Y-7.8462 Z-3.0000
X47.5903 Y-7.4629  F100.0
X47.7794 Y-8.0124
X47.1992 Y-7.9793
X47.1534 Y-7.8462
X46.9099 Y-7.9068
X46.9700 Y-8.0814
G03X46.9099Y-7.9068I0.5305J0.2803
G00 Z12.5000
M5 M9
M30
