G00 G49 G40.1 G17 G80 G50 G90
G21
(2 1/2 Axis Profiling)
(SlotDrill 2mm Carbide)
M6 T12
M03 S20000
G00 Z1.0000
X23.5500 Y-20.1249
G01 Z-11.5000  F1000.0
Y-22.3267 Z-11.8882  F25.4
X23.1683 Y-22.8327 Z-12.0000
G17
G02X23.5500Y-17.6633I-3.1683J2.8327 F100.0
G01 Y-22.3267
X23.1683 Y-22.8327
X23.3617 Y-22.9915
X23.8000 Y-22.4104
Y-17.5896
G03X23.3617Y-22.9915I-3.8000J-2.4104
G00 Z1.0000
X23.5500 Y-20.1249
G01 Z-12.0000  F1000.0
Y-22.3267 Z-12.3882  F25.4
X23.1683 Y-22.8327 Z-12.5000
G02X23.5500Y-17.6633I-3.1683J2.8327 F100.0
G01 Y-22.3267
X23.1683 Y-22.8327
X23.3617 Y-22.9915
X23.8000 Y-22.4104
Y-17.5896
G03X23.3617Y-22.9915I-3.8000J-2.4104
G00 Z1.0000
X23.5500 Y-20.1249
G01 Z-12.5000  F1000.0
Y-22.3267 Z-12.8882  F25.4
X23.1683 Y-22.8327 Z-13.0000
G02X23.5500Y-17.6633I-3.1683J2.8327 F100.0
G01 Y-22.3267
X23.1683 Y-22.8327
X23.3617 Y-22.9915
X23.8000 Y-22.4104
Y-17.5896
G03X23.3617Y-22.9915I-3.8000J-2.4104
G00 Z1.0000
X23.5500 Y-20.1249
G01 Z-13.0000  F1000.0
Y-22.3267 Z-13.3882  F25.4
X23.1683 Y-22.8327 Z-13.5000
G02X23.5500Y-17.6633I-3.1683J2.8327 F100.0
G01 Y-22.3267
X23.1683 Y-22.8327
X23.3617 Y-22.9915
X23.8000 Y-22.4104
Y-17.5896
G03X23.3617Y-22.9915I-3.8000J-2.4104
G00 Z1.0000
X23.5500 Y-20.1249
G01 Z-13.5000  F1000.0
Y-22.3267 Z-13.8882  F25.4
X23.1683 Y-22.8327 Z-14.0000
G02X23.5500Y-17.6633I-3.1683J2.8327 F100.0
G01 Y-22.3267
X23.1683 Y-22.8327
X23.3617 Y-22.9915
X23.8000 Y-22.4104
Y-17.5896
G03X23.3617Y-22.9915I-3.8000J-2.4104
G00 Z1.0000
X23.5500 Y-20.1249
G01 Z-14.0000  F1000.0
Y-22.3267 Z-14.3882  F25.4
X23.1683 Y-22.8327 Z-14.5000
G02X23.5500Y-17.6633I-3.1683J2.8327 F100.0
G01 Y-22.3267
X23.1683 Y-22.8327
X23.3617 Y-22.9915
X23.8000 Y-22.4104
Y-17.5896
G03X23.3617Y-22.9915I-3.8000J-2.4104
G00 Z1.0000
X47.1575 Y-32.1477
G01 Z-11.5000  F1000.0
X47.1640 Y-32.1019 Z-11.5082  F25.4
X47.2053 Y-32.0112 Z-11.5257
X47.2704 Y-31.9358 Z-11.5433
X47.3541 Y-31.8819 Z-11.5609
X47.4497 Y-31.8536 Z-11.5784
X47.5493 Y-31.8535 Z-11.5960
X47.6449 Y-31.8814 Z-11.6136
X47.7288 Y-31.9351 Z-11.6311
X47.7941 Y-32.0103 Z-11.6487
X47.8357 Y-32.1009 Z-11.6663
X47.8500 Y-32.1995 Z-11.6838
X47.8360 Y-32.2981 Z-11.7014
X47.7947 Y-32.3888 Z-11.7189
X47.7296 Y-32.4642 Z-11.7365
X47.6459 Y-32.5181 Z-11.7541
X47.5503 Y-32.5464 Z-11.7716
X47.4507 Y-32.5465 Z-11.7892
X47.3551 Y-32.5186 Z-11.8068
X47.2712 Y-32.4649 Z-11.8243
X47.2059 Y-32.3897 Z-11.8419
X47.1643 Y-32.2991 Z-11.8595
X47.1500 Y-32.2005 Z-11.8770
X47.1640 Y-32.1019 Z-11.8946
X47.2053 Y-32.0112 Z-11.9122
X47.2704 Y-31.9358 Z-11.9297
X47.3541 Y-31.8819 Z-11.9473
X47.4497 Y-31.8536 Z-11.9649
X47.5493 Y-31.8535 Z-11.9824
X47.6449 Y-31.8814 Z-12.0000
X47.8484 Y-32.1662  F100.0
X47.7035 Y-32.4848
X47.3551 Y-32.5186
X47.1516 Y-32.2338
X47.2965 Y-31.9152
X47.6449 Y-31.8814
X47.7484 Y-31.6538
G03X47.2516Y-32.7462I-0.2484J-0.5462
X47.7484Y-31.6538I0.2484J0.5462
G00 Z1.0000
X47.1575 Y-32.1477
G01 Z-12.0000  F1000.0
X47.1640 Y-32.1019 Z-12.0082  F25.4
X47.2053 Y-32.0112 Z-12.0257
X47.2704 Y-31.9358 Z-12.0433
X47.3541 Y-31.8819 Z-12.0609
X47.4497 Y-31.8536 Z-12.0784
X47.5493 Y-31.8535 Z-12.0960
X47.6449 Y-31.8814 Z-12.1136
X47.7288 Y-31.9351 Z-12.1311
X47.7941 Y-32.0103 Z-12.1487
X47.8357 Y-32.1009 Z-12.1663
X47.8500 Y-32.1995 Z-12.1838
X47.8360 Y-32.2981 Z-12.2014
X47.7947 Y-32.3888 Z-12.2189
X47.7296 Y-32.4642 Z-12.2365
X47.6459 Y-32.5181 Z-12.2541
X47.5503 Y-32.5464 Z-12.2716
X47.4507 Y-32.5465 Z-12.2892
X47.3551 Y-32.5186 Z-12.3068
X47.2712 Y-32.4649 Z-12.3243
X47.2059 Y-32.3897 Z-12.3419
X47.1643 Y-32.2991 Z-12.3595
X47.1500 Y-32.2005 Z-12.3770
X47.1640 Y-32.1019 Z-12.3946
X47.2053 Y-32.0112 Z-12.4122
X47.2704 Y-31.9358 Z-12.4297
X47.3541 Y-31.8819 Z-12.4473
X47.4497 Y-31.8536 Z-12.4649
X47.5493 Y-31.8535 Z-12.4824
X47.6449 Y-31.8814 Z-12.5000
X47.8484 Y-32.1662  F100.0
X47.7035 Y-32.4848
X47.3551 Y-32.5186
X47.1516 Y-32.2338
X47.2965 Y-31.9152
X47.6449 Y-31.8814
X47.7484 Y-31.6538
G03X47.2516Y-32.7462I-0.2484J-0.5462
X47.7484Y-31.6538I0.2484J0.5462
G00 Z1.0000
X47.1575 Y-32.1477
G01 Z-12.5000  F1000.0
X47.1640 Y-32.1019 Z-12.5082  F25.4
X47.2053 Y-32.0112 Z-12.5257
X47.2704 Y-31.9358 Z-12.5433
X47.3541 Y-31.8819 Z-12.5609
X47.4497 Y-31.8536 Z-12.5784
X47.5493 Y-31.8535 Z-12.5960
X47.6449 Y-31.8814 Z-12.6136
X47.7288 Y-31.9351 Z-12.6311
X47.7941 Y-32.0103 Z-12.6487
X47.8357 Y-32.1009 Z-12.6663
X47.8500 Y-32.1995 Z-12.6838
X47.8360 Y-32.2981 Z-12.7014
X47.7947 Y-32.3888 Z-12.7189
X47.7296 Y-32.4642 Z-12.7365
X47.6459 Y-32.5181 Z-12.7541
X47.5503 Y-32.5464 Z-12.7716
X47.4507 Y-32.5465 Z-12.7892
X47.3551 Y-32.5186 Z-12.8068
X47.2712 Y-32.4649 Z-12.8243
X47.2059 Y-32.3897 Z-12.8419
X47.1643 Y-32.2991 Z-12.8595
X47.1500 Y-32.2005 Z-12.8770
X47.1640 Y-32.1019 Z-12.8946
X47.2053 Y-32.0112 Z-12.9122
X47.2704 Y-31.9358 Z-12.9297
X47.3541 Y-31.8819 Z-12.9473
X47.4497 Y-31.8536 Z-12.9649
X47.5493 Y-31.8535 Z-12.9824
X47.6449 Y-31.8814 Z-13.0000
X47.8484 Y-32.1662  F100.0
X47.7035 Y-32.4848
X47.3551 Y-32.5186
X47.1516 Y-32.2338
X47.2965 Y-31.9152
X47.6449 Y-31.8814
X47.7484 Y-31.6538
G03X47.2516Y-32.7462I-0.2484J-0.5462
X47.7484Y-31.6538I0.2484J0.5462
G00 Z1.0000
X47.1575 Y-32.1477
G01 Z-13.0000  F1000.0
X47.1640 Y-32.1019 Z-13.0082  F25.4
X47.2053 Y-32.0112 Z-13.0257
X47.2704 Y-31.9358 Z-13.0433
X47.3541 Y-31.8819 Z-13.0609
X47.4497 Y-31.8536 Z-13.0784
X47.5493 Y-31.8535 Z-13.0960
X47.6449 Y-31.8814 Z-13.1136
X47.7288 Y-31.9351 Z-13.1311
X47.7941 Y-32.0103 Z-13.1487
X47.8357 Y-32.1009 Z-13.1663
X47.8500 Y-32.1995 Z-13.1838
X47.8360 Y-32.2981 Z-13.2014
X47.7947 Y-32.3888 Z-13.2189
X47.7296 Y-32.4642 Z-13.2365
X47.6459 Y-32.5181 Z-13.2541
X47.5503 Y-32.5464 Z-13.2716
X47.4507 Y-32.5465 Z-13.2892
X47.3551 Y-32.5186 Z-13.3068
X47.2712 Y-32.4649 Z-13.3243
X47.2059 Y-32.3897 Z-13.3419
X47.1643 Y-32.2991 Z-13.3595
X47.1500 Y-32.2005 Z-13.3770
X47.1640 Y-32.1019 Z-13.3946
X47.2053 Y-32.0112 Z-13.4122
X47.2704 Y-31.9358 Z-13.4297
X47.3541 Y-31.8819 Z-13.4473
X47.4497 Y-31.8536 Z-13.4649
X47.5493 Y-31.8535 Z-13.4824
X47.6449 Y-31.8814 Z-13.5000
X47.8484 Y-32.1662  F100.0
X47.7035 Y-32.4848
X47.3551 Y-32.5186
X47.1516 Y-32.2338
X47.2965 Y-31.9152
X47.6449 Y-31.8814
X47.7484 Y-31.6538
G03X47.2516Y-32.7462I-0.2484J-0.5462
X47.7484Y-31.6538I0.2484J0.5462
G00 Z1.0000
X47.1575 Y-32.1477
G01 Z-13.5000  F1000.0
X47.1640 Y-32.1019 Z-13.5082  F25.4
X47.2053 Y-32.0112 Z-13.5257
X47.2704 Y-31.9358 Z-13.5433
X47.3541 Y-31.8819 Z-13.5609
X47.4497 Y-31.8536 Z-13.5784
X47.5493 Y-31.8535 Z-13.5960
X47.6449 Y-31.8814 Z-13.6136
X47.7288 Y-31.9351 Z-13.6311
X47.7941 Y-32.0103 Z-13.6487
X47.8357 Y-32.1009 Z-13.6663
X47.8500 Y-32.1995 Z-13.6838
X47.8360 Y-32.2981 Z-13.7014
X47.7947 Y-32.3888 Z-13.7189
X47.7296 Y-32.4642 Z-13.7365
X47.6459 Y-32.5181 Z-13.7541
X47.5503 Y-32.5464 Z-13.7716
X47.4507 Y-32.5465 Z-13.7892
X47.3551 Y-32.5186 Z-13.8068
X47.2712 Y-32.4649 Z-13.8243
X47.2059 Y-32.3897 Z-13.8419
X47.1643 Y-32.2991 Z-13.8595
X47.1500 Y-32.2005 Z-13.8770
X47.1640 Y-32.1019 Z-13.8946
X47.2053 Y-32.0112 Z-13.9122
X47.2704 Y-31.9358 Z-13.9297
X47.3541 Y-31.8819 Z-13.9473
X47.4497 Y-31.8536 Z-13.9649
X47.5493 Y-31.8535 Z-13.9824
X47.6449 Y-31.8814 Z-14.0000
X47.8484 Y-32.1662  F100.0
X47.7035 Y-32.4848
X47.3551 Y-32.5186
X47.1516 Y-32.2338
X47.2965 Y-31.9152
X47.6449 Y-31.8814
X47.7484 Y-31.6538
G03X47.2516Y-32.7462I-0.2484J-0.5462
X47.7484Y-31.6538I0.2484J0.5462
G00 Z1.0000
X47.1575 Y-32.1477
G01 Z-14.0000  F1000.0
X47.1640 Y-32.1019 Z-14.0082  F25.4
X47.2053 Y-32.0112 Z-14.0257
X47.2704 Y-31.9358 Z-14.0433
X47.3541 Y-31.8819 Z-14.0609
X47.4497 Y-31.8536 Z-14.0784
X47.5493 Y-31.8535 Z-14.0960
X47.6449 Y-31.8814 Z-14.1136
X47.7288 Y-31.9351 Z-14.1311
X47.7941 Y-32.0103 Z-14.1487
X47.8357 Y-32.1009 Z-14.1663
X47.8500 Y-32.1995 Z-14.1838
X47.8360 Y-32.2981 Z-14.2014
X47.7947 Y-32.3888 Z-14.2189
X47.7296 Y-32.4642 Z-14.2365
X47.6459 Y-32.5181 Z-14.2541
X47.5503 Y-32.5464 Z-14.2716
X47.4507 Y-32.5465 Z-14.2892
X47.3551 Y-32.5186 Z-14.3068
X47.2712 Y-32.4649 Z-14.3243
X47.2059 Y-32.3897 Z-14.3419
X47.1643 Y-32.2991 Z-14.3595
X47.1500 Y-32.2005 Z-14.3770
X47.1640 Y-32.1019 Z-14.3946
X47.2053 Y-32.0112 Z-14.4122
X47.2704 Y-31.9358 Z-14.4297
X47.3541 Y-31.8819 Z-14.4473
X47.4497 Y-31.8536 Z-14.4649
X47.5493 Y-31.8535 Z-14.4824
X47.6449 Y-31.8814 Z-14.5000
X47.8484 Y-32.1662  F100.0
X47.7035 Y-32.4848
X47.3551 Y-32.5186
X47.1516 Y-32.2338
X47.2965 Y-31.9152
X47.6449 Y-31.8814
X47.7484 Y-31.6538
G03X47.2516Y-32.7462I-0.2484J-0.5462
X47.7484Y-31.6538I0.2484J0.5462
G00 Z1.0000
X54.8290 Y-30.1500
G01 Z-11.5000  F1000.0
X51.9933 Z-12.0000  F25.4
X50.9100  F100.0
Y-20.8000
X50.9079 Y-20.7674
X50.8738 Y-20.5085
X50.8569 Y-20.4455
X50.7570 Y-20.2043
X50.7244 Y-20.1478
X50.6109 Y-20.0000
X50.7244 Y-19.8522
X50.7570 Y-19.7957
X50.8569 Y-19.5545
X50.8738 Y-19.4915
X50.9079 Y-19.2326
X50.9100 Y-19.2000
Y-13.3000
X68.4900
Y-19.2000
X68.4921 Y-19.2326
X68.5262 Y-19.4915
X68.5431 Y-19.5545
X68.6430 Y-19.7957
X68.6756 Y-19.8522
X68.7891 Y-20.0000
X68.6756 Y-20.1478
X68.6430 Y-20.2043
X68.5431 Y-20.4455
X68.5262 Y-20.5085
X68.4921 Y-20.7674
X68.4900 Y-20.8000
Y-30.1500
X51.9933
Y-30.4000
X68.7400
Y-20.8000
X68.7741 Y-20.5412
X68.8740 Y-20.3000
X69.0329 Y-20.0929
X69.1540 Y-20.0000
X69.0329 Y-19.9071
X68.8740 Y-19.7000
X68.7741 Y-19.4588
X68.7400 Y-19.2000
Y-13.0500
X50.6600
Y-19.2000
X50.6259 Y-19.4588
X50.5260 Y-19.7000
X50.3671 Y-19.9071
X50.2460 Y-20.0000
X50.3671 Y-20.0929
X50.5260 Y-20.3000
X50.6259 Y-20.5412
X50.6600 Y-20.8000
Y-30.4000
X51.9933
G00 Z1.0000
X54.8290 Y-30.1500
G01 Z-12.0000  F1000.0
X51.9933 Z-12.5000  F25.4
X50.9100  F100.0
Y-20.8000
X50.9079 Y-20.7674
X50.8738 Y-20.5085
X50.8569 Y-20.4455
X50.7570 Y-20.2043
X50.7244 Y-20.1478
X50.6109 Y-20.0000
X50.7244 Y-19.8522
X50.7570 Y-19.7957
X50.8569 Y-19.5545
X50.8738 Y-19.4915
X50.9079 Y-19.2326
X50.9100 Y-19.2000
Y-13.3000
X68.4900
Y-19.2000
X68.4921 Y-19.2326
X68.5262 Y-19.4915
X68.5431 Y-19.5545
X68.6430 Y-19.7957
X68.6756 Y-19.8522
X68.7891 Y-20.0000
X68.6756 Y-20.1478
X68.6430 Y-20.2043
X68.5431 Y-20.4455
X68.5262 Y-20.5085
X68.4921 Y-20.7674
X68.4900 Y-20.8000
Y-30.1500
X51.9933
Y-30.4000
X68.7400
Y-20.8000
X68.7741 Y-20.5412
X68.8740 Y-20.3000
X69.0329 Y-20.0929
X69.1540 Y-20.0000
X69.0329 Y-19.9071
X68.8740 Y-19.7000
X68.7741 Y-19.4588
X68.7400 Y-19.2000
Y-13.0500
X50.6600
Y-19.2000
X50.6259 Y-19.4588
X50.5260 Y-19.7000
X50.3671 Y-19.9071
X50.2460 Y-20.0000
X50.3671 Y-20.0929
X50.5260 Y-20.3000
X50.6259 Y-20.5412
X50.6600 Y-20.8000
Y-30.4000
X51.9933
G00 Z1.0000
X54.8290 Y-30.1500
G01 Z-12.5000  F1000.0
X51.9933 Z-13.0000  F25.4
X50.9100  F100.0
Y-20.8000
X50.9079 Y-20.7674
X50.8738 Y-20.5085
X50.8569 Y-20.4455
X50.7570 Y-20.2043
X50.7244 Y-20.1478
X50.6109 Y-20.0000
X50.7244 Y-19.8522
X50.7570 Y-19.7957
X50.8569 Y-19.5545
X50.8738 Y-19.4915
X50.9079 Y-19.2326
X50.9100 Y-19.2000
Y-13.3000
X68.4900
Y-19.2000
X68.4921 Y-19.2326
X68.5262 Y-19.4915
X68.5431 Y-19.5545
X68.6430 Y-19.7957
X68.6756 Y-19.8522
X68.7891 Y-20.0000
X68.6756 Y-20.1478
X68.6430 Y-20.2043
X68.5431 Y-20.4455
X68.5262 Y-20.5085
X68.4921 Y-20.7674
X68.4900 Y-20.8000
Y-30.1500
X51.9933
Y-30.4000
X68.7400
Y-20.8000
X68.7741 Y-20.5412
X68.8740 Y-20.3000
X69.0329 Y-20.0929
X69.1540 Y-20.0000
X69.0329 Y-19.9071
X68.8740 Y-19.7000
X68.7741 Y-19.4588
X68.7400 Y-19.2000
Y-13.0500
X50.6600
Y-19.2000
X50.6259 Y-19.4588
X50.5260 Y-19.7000
X50.3671 Y-19.9071
X50.2460 Y-20.0000
X50.3671 Y-20.0929
X50.5260 Y-20.3000
X50.6259 Y-20.5412
X50.6600 Y-20.8000
Y-30.4000
X51.9933
G00 Z1.0000
X54.8290 Y-30.1500
G01 Z-13.0000  F1000.0
X51.9933 Z-13.5000  F25.4
X50.9100  F100.0
Y-20.8000
X50.9079 Y-20.7674
X50.8738 Y-20.5085
X50.8569 Y-20.4455
X50.7570 Y-20.2043
X50.7244 Y-20.1478
X50.6109 Y-20.0000
X50.7244 Y-19.8522
X50.7570 Y-19.7957
X50.8569 Y-19.5545
X50.8738 Y-19.4915
X50.9079 Y-19.2326
X50.9100 Y-19.2000
Y-13.3000
X68.4900
Y-19.2000
X68.4921 Y-19.2326
X68.5262 Y-19.4915
X68.5431 Y-19.5545
X68.6430 Y-19.7957
X68.6756 Y-19.8522
X68.7891 Y-20.0000
X68.6756 Y-20.1478
X68.6430 Y-20.2043
X68.5431 Y-20.4455
X68.5262 Y-20.5085
X68.4921 Y-20.7674
X68.4900 Y-20.8000
Y-30.1500
X51.9933
Y-30.4000
X68.7400
Y-20.8000
X68.7741 Y-20.5412
X68.8740 Y-20.3000
X69.0329 Y-20.0929
X69.1540 Y-20.0000
X69.0329 Y-19.9071
X68.8740 Y-19.7000
X68.7741 Y-19.4588
X68.7400 Y-19.2000
Y-13.0500
X50.6600
Y-19.2000
X50.6259 Y-19.4588
X50.5260 Y-19.7000
X50.3671 Y-19.9071
X50.2460 Y-20.0000
X50.3671 Y-20.0929
X50.5260 Y-20.3000
X50.6259 Y-20.5412
X50.6600 Y-20.8000
Y-30.4000
X51.9933
G00 Z1.0000
X54.8290 Y-30.1500
G01 Z-13.5000  F1000.0
X51.9933 Z-14.0000  F25.4
X50.9100  F100.0
Y-20.8000
X50.9079 Y-20.7674
X50.8738 Y-20.5085
X50.8569 Y-20.4455
X50.7570 Y-20.2043
X50.7244 Y-20.1478
X50.6109 Y-20.0000
X50.7244 Y-19.8522
X50.7570 Y-19.7957
X50.8569 Y-19.5545
X50.8738 Y-19.4915
X50.9079 Y-19.2326
X50.9100 Y-19.2000
Y-13.3000
X68.4900
Y-19.2000
X68.4921 Y-19.2326
X68.5262 Y-19.4915
X68.5431 Y-19.5545
X68.6430 Y-19.7957
X68.6756 Y-19.8522
X68.7891 Y-20.0000
X68.6756 Y-20.1478
X68.6430 Y-20.2043
X68.5431 Y-20.4455
X68.5262 Y-20.5085
X68.4921 Y-20.7674
X68.4900 Y-20.8000
Y-30.1500
X51.9933
Y-30.4000
X68.7400
Y-20.8000
X68.7741 Y-20.5412
X68.8740 Y-20.3000
X69.0329 Y-20.0929
X69.1540 Y-20.0000
X69.0329 Y-19.9071
X68.8740 Y-19.7000
X68.7741 Y-19.4588
X68.7400 Y-19.2000
Y-13.0500
X50.6600
Y-19.2000
X50.6259 Y-19.4588
X50.5260 Y-19.7000
X50.3671 Y-19.9071
X50.2460 Y-20.0000
X50.3671 Y-20.0929
X50.5260 Y-20.3000
X50.6259 Y-20.5412
X50.6600 Y-20.8000
Y-30.4000
X51.9933
G00 Z1.0000
X54.8290 Y-30.1500
G01 Z-14.0000  F1000.0
X51.9933 Z-14.5000  F25.4
X50.9100  F100.0
Y-20.8000
X50.9079 Y-20.7674
X50.8738 Y-20.5085
X50.8569 Y-20.4455
X50.7570 Y-20.2043
X50.7244 Y-20.1478
X50.6109 Y-20.0000
X50.7244 Y-19.8522
X50.7570 Y-19.7957
X50.8569 Y-19.5545
X50.8738 Y-19.4915
X50.9079 Y-19.2326
X50.9100 Y-19.2000
Y-13.3000
X68.4900
Y-19.2000
X68.4921 Y-19.2326
X68.5262 Y-19.4915
X68.5431 Y-19.5545
X68.6430 Y-19.7957
X68.6756 Y-19.8522
X68.7891 Y-20.0000
X68.6756 Y-20.1478
X68.6430 Y-20.2043
X68.5431 Y-20.4455
X68.5262 Y-20.5085
X68.4921 Y-20.7674
X68.4900 Y-20.8000
Y-30.1500
X51.9933
Y-30.4000
X68.7400
Y-20.8000
X68.7741 Y-20.5412
X68.8740 Y-20.3000
X69.0329 Y-20.0929
X69.1540 Y-20.0000
X69.0329 Y-19.9071
X68.8740 Y-19.7000
X68.7741 Y-19.4588
X68.7400 Y-19.2000
Y-13.0500
X50.6600
Y-19.2000
X50.6259 Y-19.4588
X50.5260 Y-19.7000
X50.3671 Y-19.9071
X50.2460 Y-20.0000
X50.3671 Y-20.0929
X50.5260 Y-20.3000
X50.6259 Y-20.5412
X50.6600 Y-20.8000
Y-30.4000
X51.9933
G00 Z1.0000
X72.2373 Y-32.1207
G01 Z-11.5000  F1000.0
X72.2483 Y-32.1657 Z-11.5082  F25.4
X72.2439 Y-32.2652 Z-11.5257
X72.2116 Y-32.3594 Z-11.5433
X72.1540 Y-32.4408 Z-11.5609
X72.0759 Y-32.5026 Z-11.5784
X71.9835 Y-32.5399 Z-11.5960
X71.8844 Y-32.5497 Z-11.6136
X71.7865 Y-32.5311 Z-11.6311
X71.6978 Y-32.4857 Z-11.6487
X71.6255 Y-32.4172 Z-11.6663
X71.5755 Y-32.3311 Z-11.6838
X71.5517 Y-32.2343 Z-11.7014
X71.5561 Y-32.1348 Z-11.7189
X71.5884 Y-32.0406 Z-11.7365
X71.6460 Y-31.9592 Z-11.7541
X71.7241 Y-31.8974 Z-11.7716
X71.8165 Y-31.8601 Z-11.7892
X71.9156 Y-31.8503 Z-11.8068
X72.0135 Y-31.8689 Z-11.8243
X72.1022 Y-31.9143 Z-11.8419
X72.1745 Y-31.9828 Z-11.8595
X72.2245 Y-32.0689 Z-11.8770
X72.2483 Y-32.1657 Z-11.8946
X72.2439 Y-32.2652 Z-11.9122
X72.2116 Y-32.3594 Z-11.9297
X72.1540 Y-32.4408 Z-11.9473
X72.0759 Y-32.5026 Z-11.9649
X71.9835 Y-32.5399 Z-11.9824
X71.8844 Y-32.5497 Z-12.0000
X71.5894 Y-32.3613  F100.0
X71.6050 Y-32.0117
X71.9156 Y-31.8503
X72.2106 Y-32.0387
X72.1950 Y-32.3883
X71.8844 Y-32.5497
X71.8732 Y-32.7994
G03X71.9267Y-31.6006I0.0268J0.5994
X71.8732Y-32.7994I-0.0267J-0.5994
G00 Z1.0000
X72.2373 Y-32.1207
G01 Z-12.0000  F1000.0
X72.2483 Y-32.1657 Z-12.0082  F25.4
X72.2439 Y-32.2652 Z-12.0257
X72.2116 Y-32.3594 Z-12.0433
X72.1540 Y-32.4408 Z-12.0609
X72.0759 Y-32.5026 Z-12.0784
X71.9835 Y-32.5399 Z-12.0960
X71.8844 Y-32.5497 Z-12.1136
X71.7865 Y-32.5311 Z-12.1311
X71.6978 Y-32.4857 Z-12.1487
X71.6255 Y-32.4172 Z-12.1663
X71.5755 Y-32.3311 Z-12.1838
X71.5517 Y-32.2343 Z-12.2014
X71.5561 Y-32.1348 Z-12.2189
X71.5884 Y-32.0406 Z-12.2365
X71.6460 Y-31.9592 Z-12.2541
X71.7241 Y-31.8974 Z-12.2716
X71.8165 Y-31.8601 Z-12.2892
X71.9156 Y-31.8503 Z-12.3068
X72.0135 Y-31.8689 Z-12.3243
X72.1022 Y-31.9143 Z-12.3419
X72.1745 Y-31.9828 Z-12.3595
X72.2245 Y-32.0689 Z-12.3770
X72.2483 Y-32.1657 Z-12.3946
X72.2439 Y-32.2652 Z-12.4122
X72.2116 Y-32.3594 Z-12.4297
X72.1540 Y-32.4408 Z-12.4473
X72.0759 Y-32.5026 Z-12.4649
X71.9835 Y-32.5399 Z-12.4824
X71.8844 Y-32.5497 Z-12.5000
X71.5894 Y-32.3613  F100.0
X71.6050 Y-32.0117
X71.9156 Y-31.8503
X72.2106 Y-32.0387
X72.1950 Y-32.3883
X71.8844 Y-32.5497
X71.8732 Y-32.7994
G03X71.9267Y-31.6006I0.0268J0.5994
X71.8732Y-32.7994I-0.0267J-0.5994
G00 Z1.0000
X72.2373 Y-32.1207
G01 Z-12.5000  F1000.0
X72.2483 Y-32.1657 Z-12.5082  F25.4
X72.2439 Y-32.2652 Z-12.5257
X72.2116 Y-32.3594 Z-12.5433
X72.1540 Y-32.4408 Z-12.5609
X72.0759 Y-32.5026 Z-12.5784
X71.9835 Y-32.5399 Z-12.5960
X71.8844 Y-32.5497 Z-12.6136
X71.7865 Y-32.5311 Z-12.6311
X71.6978 Y-32.4857 Z-12.6487
X71.6255 Y-32.4172 Z-12.6663
X71.5755 Y-32.3311 Z-12.6838
X71.5517 Y-32.2343 Z-12.7014
X71.5561 Y-32.1348 Z-12.7189
X71.5884 Y-32.0406 Z-12.7365
X71.6460 Y-31.9592 Z-12.7541
X71.7241 Y-31.8974 Z-12.7716
X71.8165 Y-31.8601 Z-12.7892
X71.9156 Y-31.8503 Z-12.8068
X72.0135 Y-31.8689 Z-12.8243
X72.1022 Y-31.9143 Z-12.8419
X72.1745 Y-31.9828 Z-12.8595
X72.2245 Y-32.0689 Z-12.8770
X72.2483 Y-32.1657 Z-12.8946
X72.2439 Y-32.2652 Z-12.9122
X72.2116 Y-32.3594 Z-12.9297
X72.1540 Y-32.4408 Z-12.9473
X72.0759 Y-32.5026 Z-12.9649
X71.9835 Y-32.5399 Z-12.9824
X71.8844 Y-32.5497 Z-13.0000
X71.5894 Y-32.3613  F100.0
X71.6050 Y-32.0117
X71.9156 Y-31.8503
X72.2106 Y-32.0387
X72.1950 Y-32.3883
X71.8844 Y-32.5497
X71.8732 Y-32.7994
G03X71.9267Y-31.6006I0.0268J0.5994
X71.8732Y-32.7994I-0.0267J-0.5994
G00 Z1.0000
X72.2373 Y-32.1207
G01 Z-13.0000  F1000.0
X72.2483 Y-32.1657 Z-13.0082  F25.4
X72.2439 Y-32.2652 Z-13.0257
X72.2116 Y-32.3594 Z-13.0433
X72.1540 Y-32.4408 Z-13.0609
X72.0759 Y-32.5026 Z-13.0784
X71.9835 Y-32.5399 Z-13.0960
X71.8844 Y-32.5497 Z-13.1136
X71.7865 Y-32.5311 Z-13.1311
X71.6978 Y-32.4857 Z-13.1487
X71.6255 Y-32.4172 Z-13.1663
X71.5755 Y-32.3311 Z-13.1838
X71.5517 Y-32.2343 Z-13.2014
X71.5561 Y-32.1348 Z-13.2189
X71.5884 Y-32.0406 Z-13.2365
X71.6460 Y-31.9592 Z-13.2541
X71.7241 Y-31.8974 Z-13.2716
X71.8165 Y-31.8601 Z-13.2892
X71.9156 Y-31.8503 Z-13.3068
X72.0135 Y-31.8689 Z-13.3243
X72.1022 Y-31.9143 Z-13.3419
X72.1745 Y-31.9828 Z-13.3595
X72.2245 Y-32.0689 Z-13.3770
X72.2483 Y-32.1657 Z-13.3946
X72.2439 Y-32.2652 Z-13.4122
X72.2116 Y-32.3594 Z-13.4297
X72.1540 Y-32.4408 Z-13.4473
X72.0759 Y-32.5026 Z-13.4649
X71.9835 Y-32.5399 Z-13.4824
X71.8844 Y-32.5497 Z-13.5000
X71.5894 Y-32.3613  F100.0
X71.6050 Y-32.0117
X71.9156 Y-31.8503
X72.2106 Y-32.0387
X72.1950 Y-32.3883
X71.8844 Y-32.5497
X71.8732 Y-32.7994
G03X71.9267Y-31.6006I0.0268J0.5994
X71.8732Y-32.7994I-0.0267J-0.5994
G00 Z1.0000
X72.2373 Y-32.1207
G01 Z-13.5000  F1000.0
X72.2483 Y-32.1657 Z-13.5082  F25.4
X72.2439 Y-32.2652 Z-13.5257
X72.2116 Y-32.3594 Z-13.5433
X72.1540 Y-32.4408 Z-13.5609
X72.0759 Y-32.5026 Z-13.5784
X71.9835 Y-32.5399 Z-13.5960
X71.8844 Y-32.5497 Z-13.6136
X71.7865 Y-32.5311 Z-13.6311
X71.6978 Y-32.4857 Z-13.6487
X71.6255 Y-32.4172 Z-13.6663
X71.5755 Y-32.3311 Z-13.6838
X71.5517 Y-32.2343 Z-13.7014
X71.5561 Y-32.1348 Z-13.7189
X71.5884 Y-32.0406 Z-13.7365
X71.6460 Y-31.9592 Z-13.7541
X71.7241 Y-31.8974 Z-13.7716
X71.8165 Y-31.8601 Z-13.7892
X71.9156 Y-31.8503 Z-13.8068
X72.0135 Y-31.8689 Z-13.8243
X72.1022 Y-31.9143 Z-13.8419
X72.1745 Y-31.9828 Z-13.8595
X72.2245 Y-32.0689 Z-13.8770
X72.2483 Y-32.1657 Z-13.8946
X72.2439 Y-32.2652 Z-13.9122
X72.2116 Y-32.3594 Z-13.9297
X72.1540 Y-32.4408 Z-13.9473
X72.0759 Y-32.5026 Z-13.9649
X71.9835 Y-32.5399 Z-13.9824
X71.8844 Y-32.5497 Z-14.0000
X71.5894 Y-32.3613  F100.0
X71.6050 Y-32.0117
X71.9156 Y-31.8503
X72.2106 Y-32.0387
X72.1950 Y-32.3883
X71.8844 Y-32.5497
X71.8732 Y-32.7994
G03X71.9267Y-31.6006I0.0268J0.5994
X71.8732Y-32.7994I-0.0267J-0.5994
G00 Z1.0000
X72.2373 Y-32.1207
G01 Z-14.0000  F1000.0
X72.2483 Y-32.1657 Z-14.0082  F25.4
X72.2439 Y-32.2652 Z-14.0257
X72.2116 Y-32.3594 Z-14.0433
X72.1540 Y-32.4408 Z-14.0609
X72.0759 Y-32.5026 Z-14.0784
X71.9835 Y-32.5399 Z-14.0960
X71.8844 Y-32.5497 Z-14.1136
X71.7865 Y-32.5311 Z-14.1311
X71.6978 Y-32.4857 Z-14.1487
X71.6255 Y-32.4172 Z-14.1663
X71.5755 Y-32.3311 Z-14.1838
X71.5517 Y-32.2343 Z-14.2014
X71.5561 Y-32.1348 Z-14.2189
X71.5884 Y-32.0406 Z-14.2365
X71.6460 Y-31.9592 Z-14.2541
X71.7241 Y-31.8974 Z-14.2716
X71.8165 Y-31.8601 Z-14.2892
X71.9156 Y-31.8503 Z-14.3068
X72.0135 Y-31.8689 Z-14.3243
X72.1022 Y-31.9143 Z-14.3419
X72.1745 Y-31.9828 Z-14.3595
X72.2245 Y-32.0689 Z-14.3770
X72.2483 Y-32.1657 Z-14.3946
X72.2439 Y-32.2652 Z-14.4122
X72.2116 Y-32.3594 Z-14.4297
X72.1540 Y-32.4408 Z-14.4473
X72.0759 Y-32.5026 Z-14.4649
X71.9835 Y-32.5399 Z-14.4824
X71.8844 Y-32.5497 Z-14.5000
X71.5894 Y-32.3613  F100.0
X71.6050 Y-32.0117
X71.9156 Y-31.8503
X72.2106 Y-32.0387
X72.1950 Y-32.3883
X71.8844 Y-32.5497
X71.8732 Y-32.7994
G03X71.9267Y-31.6006I0.0268J0.5994
X71.8732Y-32.7994I-0.0267J-0.5994
G00 Z1.0000
X72.0691 Y-7.4976
G01 Z-11.5000  F1000.0
X72.1097 Y-7.5198 Z-11.5082  F25.4
X72.1802 Y-7.5903 Z-11.5257
X72.2279 Y-7.6777 Z-11.5433
X72.2491 Y-7.7750 Z-11.5609
X72.2420 Y-7.8744 Z-11.5784
X72.2072 Y-7.9677 Z-11.5960
X72.1475 Y-8.0475 Z-11.6136
X72.0677 Y-8.1072 Z-11.6311
X71.9744 Y-8.1420 Z-11.6487
X71.8750 Y-8.1491 Z-11.6663
X71.7777 Y-8.1279 Z-11.6838
X71.6903 Y-8.0802 Z-11.7014
X71.6198 Y-8.0097 Z-11.7189
X71.5721 Y-7.9223 Z-11.7365
X71.5509 Y-7.8250 Z-11.7541
X71.5580 Y-7.7256 Z-11.7716
X71.5928 Y-7.6323 Z-11.7892
X71.6525 Y-7.5525 Z-11.8068
X71.7323 Y-7.4928 Z-11.8243
X71.8256 Y-7.4580 Z-11.8419
X71.9250 Y-7.4509 Z-11.8595
X72.0223 Y-7.4721 Z-11.8770
X72.1097 Y-7.5198 Z-11.8946
X72.1802 Y-7.5903 Z-11.9122
X72.2279 Y-7.6777 Z-11.9297
X72.2491 Y-7.7750 Z-11.9473
X72.2420 Y-7.8744 Z-11.9649
X72.2072 Y-7.9677 Z-11.9824
X72.1475 Y-8.0475 Z-12.0000
X71.8094 Y-8.1381  F100.0
X71.5619 Y-7.8906
X71.6525 Y-7.5525
X71.9906 Y-7.4619
X72.2381 Y-7.7094
X72.1475 Y-8.0475
X72.3243 Y-8.2243
G03X71.4757Y-7.3757I-0.4243J0.4243
X72.3243Y-8.2243I0.4243J-0.4243
G00 Z1.0000
X72.0691 Y-7.4976
G01 Z-12.0000  F1000.0
X72.1097 Y-7.5198 Z-12.0082  F25.4
X72.1802 Y-7.5903 Z-12.0257
X72.2279 Y-7.6777 Z-12.0433
X72.2491 Y-7.7750 Z-12.0609
X72.2420 Y-7.8744 Z-12.0784
X72.2072 Y-7.9677 Z-12.0960
X72.1475 Y-8.0475 Z-12.1136
X72.0677 Y-8.1072 Z-12.1311
X71.9744 Y-8.1420 Z-12.1487
X71.8750 Y-8.1491 Z-12.1663
X71.7777 Y-8.1279 Z-12.1838
X71.6903 Y-8.0802 Z-12.2014
X71.6198 Y-8.0097 Z-12.2189
X71.5721 Y-7.9223 Z-12.2365
X71.5509 Y-7.8250 Z-12.2541
X71.5580 Y-7.7256 Z-12.2716
X71.5928 Y-7.6323 Z-12.2892
X71.6525 Y-7.5525 Z-12.3068
X71.7323 Y-7.4928 Z-12.3243
X71.8256 Y-7.4580 Z-12.3419
X71.9250 Y-7.4509 Z-12.3595
X72.0223 Y-7.4721 Z-12.3770
X72.1097 Y-7.5198 Z-12.3946
X72.1802 Y-7.5903 Z-12.4122
X72.2279 Y-7.6777 Z-12.4297
X72.2491 Y-7.7750 Z-12.4473
X72.2420 Y-7.8744 Z-12.4649
X72.2072 Y-7.9677 Z-12.4824
X72.1475 Y-8.0475 Z-12.5000
X71.8094 Y-8.1381  F100.0
X71.5619 Y-7.8906
X71.6525 Y-7.5525
X71.9906 Y-7.4619
X72.2381 Y-7.7094
X72.1475 Y-8.0475
X72.3243 Y-8.2243
G03X71.4757Y-7.3757I-0.4243J0.4243
X72.3243Y-8.2243I0.4243J-0.4243
G00 Z1.0000
X72.0691 Y-7.4976
G01 Z-12.5000  F1000.0
X72.1097 Y-7.5198 Z-12.5082  F25.4
X72.1802 Y-7.5903 Z-12.5257
X72.2279 Y-7.6777 Z-12.5433
X72.2491 Y-7.7750 Z-12.5609
X72.2420 Y-7.8744 Z-12.5784
X72.2072 Y-7.9677 Z-12.5960
X72.1475 Y-8.0475 Z-12.6136
X72.0677 Y-8.1072 Z-12.6311
X71.9744 Y-8.1420 Z-12.6487
X71.8750 Y-8.1491 Z-12.6663
X71.7777 Y-8.1279 Z-12.6838
X71.6903 Y-8.0802 Z-12.7014
X71.6198 Y-8.0097 Z-12.7189
X71.5721 Y-7.9223 Z-12.7365
X71.5509 Y-7.8250 Z-12.7541
X71.5580 Y-7.7256 Z-12.7716
X71.5928 Y-7.6323 Z-12.7892
X71.6525 Y-7.5525 Z-12.8068
X71.7323 Y-7.4928 Z-12.8243
X71.8256 Y-7.4580 Z-12.8419
X71.9250 Y-7.4509 Z-12.8595
X72.0223 Y-7.4721 Z-12.8770
X72.1097 Y-7.5198 Z-12.8946
X72.1802 Y-7.5903 Z-12.9122
X72.2279 Y-7.6777 Z-12.9297
X72.2491 Y-7.7750 Z-12.9473
X72.2420 Y-7.8744 Z-12.9649
X72.2072 Y-7.9677 Z-12.9824
X72.1475 Y-8.0475 Z-13.0000
X71.8094 Y-8.1381  F100.0
X71.5619 Y-7.8906
X71.6525 Y-7.5525
X71.9906 Y-7.4619
X72.2381 Y-7.7094
X72.1475 Y-8.0475
X72.3243 Y-8.2243
G03X71.4757Y-7.3757I-0.4243J0.4243
X72.3243Y-8.2243I0.4243J-0.4243
G00 Z1.0000
X72.0691 Y-7.4976
G01 Z-13.0000  F1000.0
X72.1097 Y-7.5198 Z-13.0082  F25.4
X72.1802 Y-7.5903 Z-13.0257
X72.2279 Y-7.6777 Z-13.0433
X72.2491 Y-7.7750 Z-13.0609
X72.2420 Y-7.8744 Z-13.0784
X72.2072 Y-7.9677 Z-13.0960
X72.1475 Y-8.0475 Z-13.1136
X72.0677 Y-8.1072 Z-13.1311
X71.9744 Y-8.1420 Z-13.1487
X71.8750 Y-8.1491 Z-13.1663
X71.7777 Y-8.1279 Z-13.1838
X71.6903 Y-8.0802 Z-13.2014
X71.6198 Y-8.0097 Z-13.2189
X71.5721 Y-7.9223 Z-13.2365
X71.5509 Y-7.8250 Z-13.2541
X71.5580 Y-7.7256 Z-13.2716
X71.5928 Y-7.6323 Z-13.2892
X71.6525 Y-7.5525 Z-13.3068
X71.7323 Y-7.4928 Z-13.3243
X71.8256 Y-7.4580 Z-13.3419
X71.9250 Y-7.4509 Z-13.3595
X72.0223 Y-7.4721 Z-13.3770
X72.1097 Y-7.5198 Z-13.3946
X72.1802 Y-7.5903 Z-13.4122
X72.2279 Y-7.6777 Z-13.4297
X72.2491 Y-7.7750 Z-13.4473
X72.2420 Y-7.8744 Z-13.4649
X72.2072 Y-7.9677 Z-13.4824
X72.1475 Y-8.0475 Z-13.5000
X71.8094 Y-8.1381  F100.0
X71.5619 Y-7.8906
X71.6525 Y-7.5525
X71.9906 Y-7.4619
X72.2381 Y-7.7094
X72.1475 Y-8.0475
X72.3243 Y-8.2243
G03X71.4757Y-7.3757I-0.4243J0.4243
X72.3243Y-8.2243I0.4243J-0.4243
G00 Z1.0000
X72.0691 Y-7.4976
G01 Z-13.5000  F1000.0
X72.1097 Y-7.5198 Z-13.5082  F25.4
X72.1802 Y-7.5903 Z-13.5257
X72.2279 Y-7.6777 Z-13.5433
X72.2491 Y-7.7750 Z-13.5609
X72.2420 Y-7.8744 Z-13.5784
X72.2072 Y-7.9677 Z-13.5960
X72.1475 Y-8.0475 Z-13.6136
X72.0677 Y-8.1072 Z-13.6311
X71.9744 Y-8.1420 Z-13.6487
X71.8750 Y-8.1491 Z-13.6663
X71.7777 Y-8.1279 Z-13.6838
X71.6903 Y-8.0802 Z-13.7014
X71.6198 Y-8.0097 Z-13.7189
X71.5721 Y-7.9223 Z-13.7365
X71.5509 Y-7.8250 Z-13.7541
X71.5580 Y-7.7256 Z-13.7716
X71.5928 Y-7.6323 Z-13.7892
X71.6525 Y-7.5525 Z-13.8068
X71.7323 Y-7.4928 Z-13.8243
X71.8256 Y-7.4580 Z-13.8419
X71.9250 Y-7.4509 Z-13.8595
X72.0223 Y-7.4721 Z-13.8770
X72.1097 Y-7.5198 Z-13.8946
X72.1802 Y-7.5903 Z-13.9122
X72.2279 Y-7.6777 Z-13.9297
X72.2491 Y-7.7750 Z-13.9473
X72.2420 Y-7.8744 Z-13.9649
X72.2072 Y-7.9677 Z-13.9824
X72.1475 Y-8.0475 Z-14.0000
X71.8094 Y-8.1381  F100.0
X71.5619 Y-7.8906
X71.6525 Y-7.5525
X71.9906 Y-7.4619
X72.2381 Y-7.7094
X72.1475 Y-8.0475
X72.3243 Y-8.2243
G03X71.4757Y-7.3757I-0.4243J0.4243
X72.3243Y-8.2243I0.4243J-0.4243
G00 Z1.0000
X72.0691 Y-7.4976
G01 Z-14.0000  F1000.0
X72.1097 Y-7.5198 Z-14.0082  F25.4
X72.1802 Y-7.5903 Z-14.0257
X72.2279 Y-7.6777 Z-14.0433
X72.2491 Y-7.7750 Z-14.0609
X72.2420 Y-7.8744 Z-14.0784
X72.2072 Y-7.9677 Z-14.0960
X72.1475 Y-8.0475 Z-14.1136
X72.0677 Y-8.1072 Z-14.1311
X71.9744 Y-8.1420 Z-14.1487
X71.8750 Y-8.1491 Z-14.1663
X71.7777 Y-8.1279 Z-14.1838
X71.6903 Y-8.0802 Z-14.2014
X71.6198 Y-8.0097 Z-14.2189
X71.5721 Y-7.9223 Z-14.2365
X71.5509 Y-7.8250 Z-14.2541
X71.5580 Y-7.7256 Z-14.2716
X71.5928 Y-7.6323 Z-14.2892
X71.6525 Y-7.5525 Z-14.3068
X71.7323 Y-7.4928 Z-14.3243
X71.8256 Y-7.4580 Z-14.3419
X71.9250 Y-7.4509 Z-14.3595
X72.0223 Y-7.4721 Z-14.3770
X72.1097 Y-7.5198 Z-14.3946
X72.1802 Y-7.5903 Z-14.4122
X72.2279 Y-7.6777 Z-14.4297
X72.2491 Y-7.7750 Z-14.4473
X72.2420 Y-7.8744 Z-14.4649
X72.2072 Y-7.9677 Z-14.4824
X72.1475 Y-8.0475 Z-14.5000
X71.8094 Y-8.1381  F100.0
X71.5619 Y-7.8906
X71.6525 Y-7.5525
X71.9906 Y-7.4619
X72.2381 Y-7.7094
X72.1475 Y-8.0475
X72.3243 Y-8.2243
G03X71.4757Y-7.3757I-0.4243J0.4243
X72.3243Y-8.2243I0.4243J-0.4243
G00 Z1.0000
X47.6384 Y-8.1208
G01 Z-11.5000  F1000.0
X47.6246 Y-8.1283 Z-11.5028  F25.4
X47.5294 Y-8.1499 Z-11.5200
X47.4319 Y-8.1443 Z-11.5372
X47.3398 Y-8.1120 Z-11.5544
X47.2602 Y-8.0555 Z-11.5716
X47.1992 Y-7.9793 Z-11.5888
X47.1534 Y-7.8462 Z-11.6137
X47.1545 Y-7.7485 Z-11.6309
X47.1825 Y-7.6550 Z-11.6481
X47.2352 Y-7.5728 Z-11.6653
X47.3086 Y-7.5085 Z-11.6825
X47.3970 Y-7.4669 Z-11.6997
X47.4933 Y-7.4513 Z-11.7169
X47.5903 Y-7.4629 Z-11.7342
X47.6802 Y-7.5009 Z-11.7514
X47.7562 Y-7.5623 Z-11.7686
X47.8122 Y-7.6422 Z-11.7858
X47.8440 Y-7.7345 Z-11.8030
X47.8490 Y-7.8320 Z-11.8202
X47.8269 Y-7.9271 Z-11.8375
X47.7794 Y-8.0124 Z-11.8547
X47.7102 Y-8.0813 Z-11.8719
X47.6246 Y-8.1283 Z-11.8891
X47.5294 Y-8.1499 Z-11.9063
X47.4319 Y-8.1443 Z-11.9235
X47.3398 Y-8.1120 Z-11.9407
X47.2602 Y-8.0555 Z-11.9580
X47.1992 Y-7.9793 Z-11.9752
X47.1534 Y-7.8462 Z-12.0000
X47.5903 Y-7.4629  F100.0
X47.7794 Y-8.0124
X47.1992 Y-7.9793
X47.1534 Y-7.8462
X46.9099 Y-7.9068
X46.9700 Y-8.0814
G03X46.9099Y-7.9068I0.5305J0.2803
G00 Z1.0000
X47.6384 Y-8.1208
G01 Z-12.0000  F1000.0
X47.6246 Y-8.1283 Z-12.0028  F25.4
X47.5294 Y-8.1499 Z-12.0200
X47.4319 Y-8.1443 Z-12.0372
X47.3398 Y-8.1120 Z-12.0544
X47.2602 Y-8.0555 Z-12.0716
X47.1992 Y-7.9793 Z-12.0888
X47.1534 Y-7.8462 Z-12.1137
X47.1545 Y-7.7485 Z-12.1309
X47.1825 Y-7.6550 Z-12.1481
X47.2352 Y-7.5728 Z-12.1653
X47.3086 Y-7.5085 Z-12.1825
X47.3970 Y-7.4669 Z-12.1997
X47.4933 Y-7.4513 Z-12.2169
X47.5903 Y-7.4629 Z-12.2342
X47.6802 Y-7.5009 Z-12.2514
X47.7562 Y-7.5623 Z-12.2686
X47.8122 Y-7.6422 Z-12.2858
X47.8440 Y-7.7345 Z-12.3030
X47.8490 Y-7.8320 Z-12.3202
X47.8269 Y-7.9271 Z-12.3375
X47.7794 Y-8.0124 Z-12.3547
X47.7102 Y-8.0813 Z-12.3719
X47.6246 Y-8.1283 Z-12.3891
X47.5294 Y-8.1499 Z-12.4063
X47.4319 Y-8.1443 Z-12.4235
X47.3398 Y-8.1120 Z-12.4407
X47.2602 Y-8.0555 Z-12.4580
X47.1992 Y-7.9793 Z-12.4752
X47.1534 Y-7.8462 Z-12.5000
X47.5903 Y-7.4629  F100.0
X47.7794 Y-8.0124
X47.1992 Y-7.9793
X47.1534 Y-7.8462
X46.9099 Y-7.9068
X46.9700 Y-8.0814
G03X46.9099Y-7.9068I0.5305J0.2803
G00 Z1.0000
X47.6384 Y-8.1208
G01 Z-12.5000  F1000.0
X47.6246 Y-8.1283 Z-12.5028  F25.4
X47.5294 Y-8.1499 Z-12.5200
X47.4319 Y-8.1443 Z-12.5372
X47.3398 Y-8.1120 Z-12.5544
X47.2602 Y-8.0555 Z-12.5716
X47.1992 Y-7.9793 Z-12.5888
X47.1534 Y-7.8462 Z-12.6137
X47.1545 Y-7.7485 Z-12.6309
X47.1825 Y-7.6550 Z-12.6481
X47.2352 Y-7.5728 Z-12.6653
X47.3086 Y-7.5085 Z-12.6825
X47.3970 Y-7.4669 Z-12.6997
X47.4933 Y-7.4513 Z-12.7169
X47.5903 Y-7.4629 Z-12.7342
X47.6802 Y-7.5009 Z-12.7514
X47.7562 Y-7.5623 Z-12.7686
X47.8122 Y-7.6422 Z-12.7858
X47.8440 Y-7.7345 Z-12.8030
X47.8490 Y-7.8320 Z-12.8202
X47.8269 Y-7.9271 Z-12.8375
X47.7794 Y-8.0124 Z-12.8547
X47.7102 Y-8.0813 Z-12.8719
X47.6246 Y-8.1283 Z-12.8891
X47.5294 Y-8.1499 Z-12.9063
X47.4319 Y-8.1443 Z-12.9235
X47.3398 Y-8.1120 Z-12.9407
X47.2602 Y-8.0555 Z-12.9580
X47.1992 Y-7.9793 Z-12.9752
X47.1534 Y-7.8462 Z-13.0000
X47.5903 Y-7.4629  F100.0
X47.7794 Y-8.0124
X47.1992 Y-7.9793
X47.1534 Y-7.8462
X46.9099 Y-7.9068
X46.9700 Y-8.0814
G03X46.9099Y-7.9068I0.5305J0.2803
G00 Z1.0000
X47.6384 Y-8.1208
G01 Z-13.0000  F1000.0
X47.6246 Y-8.1283 Z-13.0028  F25.4
X47.5294 Y-8.1499 Z-13.0200
X47.4319 Y-8.1443 Z-13.0372
X47.3398 Y-8.1120 Z-13.0544
X47.2602 Y-8.0555 Z-13.0716
X47.1992 Y-7.9793 Z-13.0888
X47.1534 Y-7.8462 Z-13.1137
X47.1545 Y-7.7485 Z-13.1309
X47.1825 Y-7.6550 Z-13.1481
X47.2352 Y-7.5728 Z-13.1653
X47.3086 Y-7.5085 Z-13.1825
X47.3970 Y-7.4669 Z-13.1997
X47.4933 Y-7.4513 Z-13.2169
X47.5903 Y-7.4629 Z-13.2342
X47.6802 Y-7.5009 Z-13.2514
X47.7562 Y-7.5623 Z-13.2686
X47.8122 Y-7.6422 Z-13.2858
X47.8440 Y-7.7345 Z-13.3030
X47.8490 Y-7.8320 Z-13.3202
X47.8269 Y-7.9271 Z-13.3375
X47.7794 Y-8.0124 Z-13.3547
X47.7102 Y-8.0813 Z-13.3719
X47.6246 Y-8.1283 Z-13.3891
X47.5294 Y-8.1499 Z-13.4063
X47.4319 Y-8.1443 Z-13.4235
X47.3398 Y-8.1120 Z-13.4407
X47.2602 Y-8.0555 Z-13.4580
X47.1992 Y-7.9793 Z-13.4752
X47.1534 Y-7.8462 Z-13.5000
X47.5903 Y-7.4629  F100.0
X47.7794 Y-8.0124
X47.1992 Y-7.9793
X47.1534 Y-7.8462
X46.9099 Y-7.9068
X46.9700 Y-8.0814
G03X46.9099Y-7.9068I0.5305J0.2803
G00 Z1.0000
X47.6384 Y-8.1208
G01 Z-13.5000  F1000.0
X47.6246 Y-8.1283 Z-13.5028  F25.4
X47.5294 Y-8.1499 Z-13.5200
X47.4319 Y-8.1443 Z-13.5372
X47.3398 Y-8.1120 Z-13.5544
X47.2602 Y-8.0555 Z-13.5716
X47.1992 Y-7.9793 Z-13.5888
X47.1534 Y-7.8462 Z-13.6137
X47.1545 Y-7.7485 Z-13.6309
X47.1825 Y-7.6550 Z-13.6481
X47.2352 Y-7.5728 Z-13.6653
X47.3086 Y-7.5085 Z-13.6825
X47.3970 Y-7.4669 Z-13.6997
X47.4933 Y-7.4513 Z-13.7169
X47.5903 Y-7.4629 Z-13.7342
X47.6802 Y-7.5009 Z-13.7514
X47.7562 Y-7.5623 Z-13.7686
X47.8122 Y-7.6422 Z-13.7858
X47.8440 Y-7.7345 Z-13.8030
X47.8490 Y-7.8320 Z-13.8202
X47.8269 Y-7.9271 Z-13.8375
X47.7794 Y-8.0124 Z-13.8547
X47.7102 Y-8.0813 Z-13.8719
X47.6246 Y-8.1283 Z-13.8891
X47.5294 Y-8.1499 Z-13.9063
X47.4319 Y-8.1443 Z-13.9235
X47.3398 Y-8.1120 Z-13.9407
X47.2602 Y-8.0555 Z-13.9580
X47.1992 Y-7.9793 Z-13.9752
X47.1534 Y-7.8462 Z-14.0000
X47.5903 Y-7.4629  F100.0
X47.7794 Y-8.0124
X47.1992 Y-7.9793
X47.1534 Y-7.8462
X46.9099 Y-7.9068
X46.9700 Y-8.0814
G03X46.9099Y-7.9068I0.5305J0.2803
G00 Z1.0000
X47.6384 Y-8.1208
G01 Z-14.0000  F1000.0
X47.6246 Y-8.1283 Z-14.0028  F25.4
X47.5294 Y-8.1499 Z-14.0200
X47.4319 Y-8.1443 Z-14.0372
X47.3398 Y-8.1120 Z-14.0544
X47.2602 Y-8.0555 Z-14.0716
X47.1992 Y-7.9793 Z-14.0888
X47.1534 Y-7.8462 Z-14.1137
X47.1545 Y-7.7485 Z-14.1309
X47.1825 Y-7.6550 Z-14.1481
X47.2352 Y-7.5728 Z-14.1653
X47.3086 Y-7.5085 Z-14.1825
X47.3970 Y-7.4669 Z-14.1997
X47.4933 Y-7.4513 Z-14.2169
X47.5903 Y-7.4629 Z-14.2342
X47.6802 Y-7.5009 Z-14.2514
X47.7562 Y-7.5623 Z-14.2686
X47.8122 Y-7.6422 Z-14.2858
X47.8440 Y-7.7345 Z-14.3030
X47.8490 Y-7.8320 Z-14.3202
X47.8269 Y-7.9271 Z-14.3375
X47.7794 Y-8.0124 Z-14.3547
X47.7102 Y-8.0813 Z-14.3719
X47.6246 Y-8.1283 Z-14.3891
X47.5294 Y-8.1499 Z-14.4063
X47.4319 Y-8.1443 Z-14.4235
X47.3398 Y-8.1120 Z-14.4407
X47.2602 Y-8.0555 Z-14.4580
X47.1992 Y-7.9793 Z-14.4752
X47.1534 Y-7.8462 Z-14.5000
X47.5903 Y-7.4629  F100.0
X47.7794 Y-8.0124
X47.1992 Y-7.9793
X47.1534 Y-7.8462
X46.9099 Y-7.9068
X46.9700 Y-8.0814
G03X46.9099Y-7.9068I0.5305J0.2803
G00 Z1.0000
M5 M9
M30
