G00 G49 G40.1 G17 G80 G50 G90
G21
(2 1/2 Axis Profiling)
(SlotDrill 2mm Carbide)
M6 T12
M03 S20000
G00 Z12.5000
X26.1053 Y-16.9409
G01 Z0.0000  F1000.0
X25.9920 Y-17.1960 Z-0.0492  F25.4
X25.8197 Y-17.5180 Z-0.1136
X25.6244 Y-17.8266 Z-0.1780
X25.4070 Y-18.1201 Z-0.2424
X25.1688 Y-18.3970 Z-0.3068
X24.9111 Y-18.6557 Z-0.3712
X24.6351 Y-18.8950 Z-0.4356
X24.3425 Y-19.1134 Z-0.5000
G17
G02X18.6575Y-10.8866I-2.8425J4.1134 F100.0
X24.3425Y-19.1134I2.8425J-4.1134
G01 X24.4846 Y-19.3191
G03X18.5154Y-10.6809I-2.9846J4.3191
X24.4846Y-19.3191I2.9846J-4.3191
G00 Z12.5000
X26.1053 Y-16.9409
G01 Z-0.5000  F1000.0
X25.9920 Y-17.1960 Z-0.5492  F25.4
X25.8197 Y-17.5180 Z-0.6136
X25.6244 Y-17.8266 Z-0.6780
X25.4070 Y-18.1201 Z-0.7424
X25.1688 Y-18.3970 Z-0.8068
X24.9111 Y-18.6557 Z-0.8712
X24.6351 Y-18.8950 Z-0.9356
X24.3425 Y-19.1134 Z-1.0000
G02X18.6575Y-10.8866I-2.8425J4.1134 F100.0
X24.3425Y-19.1134I2.8425J-4.1134
G01 X24.4846 Y-19.3191
G03X18.5154Y-10.6809I-2.9846J4.3191
X24.4846Y-19.3191I2.9846J-4.3191
G00 Z12.5000
X26.1053 Y-16.9409
G01 Z-1.0000  F1000.0
X25.9920 Y-17.1960 Z-1.0492  F25.4
X25.8197 Y-17.5180 Z-1.1136
X25.6244 Y-17.8266 Z-1.1780
X25.4070 Y-18.1201 Z-1.2424
X25.1688 Y-18.3970 Z-1.3068
X24.9111 Y-18.6557 Z-1.3712
X24.6351 Y-18.8950 Z-1.4356
X24.3425 Y-19.1134 Z-1.5000
G02X18.6575Y-10.8866I-2.8425J4.1134 F100.0
X24.3425Y-19.1134I2.8425J-4.1134
G01 X24.4846 Y-19.3191
G03X18.5154Y-10.6809I-2.9846J4.3191
X24.4846Y-19.3191I2.9846J-4.3191
G00 Z12.5000
X26.1053 Y-16.9409
G01 Z-1.5000  F1000.0
X25.9920 Y-17.1960 Z-1.5492  F25.4
X25.8197 Y-17.5180 Z-1.6136
X25.6244 Y-17.8266 Z-1.6780
X25.4070 Y-18.1201 Z-1.7424
X25.1688 Y-18.3970 Z-1.8068
X24.9111 Y-18.6557 Z-1.8712
X24.6351 Y-18.8950 Z-1.9356
X24.3425 Y-19.1134 Z-2.0000
G02X18.6575Y-10.8866I-2.8425J4.1134 F100.0
X24.3425Y-19.1134I2.8425J-4.1134
G01 X24.4846 Y-19.3191
G03X18.5154Y-10.6809I-2.9846J4.3191
X24.4846Y-19.3191I2.9846J-4.3191
G00 Z12.5000
X26.1053 Y-16.9409
G01 Z-2.0000  F1000.0
X25.9920 Y-17.1960 Z-2.0492  F25.4
X25.8197 Y-17.5180 Z-2.1136
X25.6244 Y-17.8266 Z-2.1780
X25.4070 Y-18.1201 Z-2.2424
X25.1688 Y-18.3970 Z-2.3068
X24.9111 Y-18.6557 Z-2.3712
X24.6351 Y-18.8950 Z-2.4356
X24.3425 Y-19.1134 Z-2.5000
G02X18.6575Y-10.8866I-2.8425J4.1134 F100.0
X24.3425Y-19.1134I2.8425J-4.1134
G01 X24.4846 Y-19.3191
G03X18.5154Y-10.6809I-2.9846J4.3191
X24.4846Y-19.3191I2.9846J-4.3191
G00 Z12.5000
X26.1053 Y-16.9409
G01 Z-2.5000  F1000.0
X25.9920 Y-17.1960 Z-2.5492  F25.4
X25.8197 Y-17.5180 Z-2.6136
X25.6244 Y-17.8266 Z-2.6780
X25.4070 Y-18.1201 Z-2.7424
X25.1688 Y-18.3970 Z-2.8068
X24.9111 Y-18.6557 Z-2.8712
X24.6351 Y-18.8950 Z-2.9356
X24.3425 Y-19.1134 Z-3.0000
G02X18.6575Y-10.8866I-2.8425J4.1134 F100.0
X24.3425Y-19.1134I2.8425J-4.1134
G01 X24.4846 Y-19.3191
G03X18.5154Y-10.6809I-2.9846J4.3191
X24.4846Y-19.3191I2.9846J-4.3191
G00 Z12.5000
X68.1412 Y-19.9972
G01 Z0.0000  F1000.0
X67.8622 Y-19.9886 Z-0.0492  F25.4
X67.4990 Y-19.9506 Z-0.1136
X67.1395 Y-19.8862 Z-0.1780
X66.7856 Y-19.7958 Z-0.2424
X66.4393 Y-19.6798 Z-0.3068
X66.1024 Y-19.5388 Z-0.3712
X65.7767 Y-19.3735 Z-0.4356
X65.4639 Y-19.1850 Z-0.5000
G02X70.9360Y-10.8150I2.7361J4.1850 F100.0
X65.4639Y-19.1850I-2.7360J-4.1850
G01 X65.3271 Y-19.3942
G03X71.0728Y-10.6058I2.8729J4.3942
X65.3271Y-19.3942I-2.8728J-4.3942
G00 Z12.5000
X68.1412 Y-19.9972
G01 Z-0.5000  F1000.0
X67.8622 Y-19.9886 Z-0.5492  F25.4
X67.4990 Y-19.9506 Z-0.6136
X67.1395 Y-19.8862 Z-0.6780
X66.7856 Y-19.7958 Z-0.7424
X66.4393 Y-19.6798 Z-0.8068
X66.1024 Y-19.5388 Z-0.8712
X65.7767 Y-19.3735 Z-0.9356
X65.4639 Y-19.1850 Z-1.0000
G02X70.9360Y-10.8150I2.7361J4.1850 F100.0
X65.4639Y-19.1850I-2.7360J-4.1850
G01 X65.3271 Y-19.3942
G03X71.0728Y-10.6058I2.8729J4.3942
X65.3271Y-19.3942I-2.8728J-4.3942
G00 Z12.5000
X68.1412 Y-19.9972
G01 Z-1.0000  F1000.0
X67.8622 Y-19.9886 Z-1.0492  F25.4
X67.4990 Y-19.9506 Z-1.1136
X67.1395 Y-19.8862 Z-1.1780
X66.7856 Y-19.7958 Z-1.2424
X66.4393 Y-19.6798 Z-1.3068
X66.1024 Y-19.5388 Z-1.3712
X65.7767 Y-19.3735 Z-1.4356
X65.4639 Y-19.1850 Z-1.5000
G02X70.9360Y-10.8150I2.7361J4.1850 F100.0
X65.4639Y-19.1850I-2.7360J-4.1850
G01 X65.3271 Y-19.3942
G03X71.0728Y-10.6058I2.8729J4.3942
X65.3271Y-19.3942I-2.8728J-4.3942
G00 Z12.5000
X68.1412 Y-19.9972
G01 Z-1.5000  F1000.0
X67.8622 Y-19.9886 Z-1.5492  F25.4
X67.4990 Y-19.9506 Z-1.6136
X67.1395 Y-19.8862 Z-1.6780
X66.7856 Y-19.7958 Z-1.7424
X66.4393 Y-19.6798 Z-1.8068
X66.1024 Y-19.5388 Z-1.8712
X65.7767 Y-19.3735 Z-1.9356
X65.4639 Y-19.1850 Z-2.0000
G02X70.9360Y-10.8150I2.7361J4.1850 F100.0
X65.4639Y-19.1850I-2.7360J-4.1850
G01 X65.3271 Y-19.3942
G03X71.0728Y-10.6058I2.8729J4.3942
X65.3271Y-19.3942I-2.8728J-4.3942
G00 Z12.5000
X68.1412 Y-19.9972
G01 Z-2.0000  F1000.0
X67.8622 Y-19.9886 Z-2.0492  F25.4
X67.4990 Y-19.9506 Z-2.1136
X67.1395 Y-19.8862 Z-2.1780
X66.7856 Y-19.7958 Z-2.2424
X66.4393 Y-19.6798 Z-2.3068
X66.1024 Y-19.5388 Z-2.3712
X65.7767 Y-19.3735 Z-2.4356
X65.4639 Y-19.1850 Z-2.5000
G02X70.9360Y-10.8150I2.7361J4.1850 F100.0
X65.4639Y-19.1850I-2.7360J-4.1850
G01 X65.3271 Y-19.3942
G03X71.0728Y-10.6058I2.8729J4.3942
X65.3271Y-19.3942I-2.8728J-4.3942
G00 Z12.5000
X68.1412 Y-19.9972
G01 Z-2.5000  F1000.0
X67.8622 Y-19.9886 Z-2.5492  F25.4
X67.4990 Y-19.9506 Z-2.6136
X67.1395 Y-19.8862 Z-2.6780
X66.7856 Y-19.7958 Z-2.7424
X66.4393 Y-19.6798 Z-2.8068
X66.1024 Y-19.5388 Z-2.8712
X65.7767 Y-19.3735 Z-2.9356
X65.4639 Y-19.1850 Z-3.0000
G02X70.9360Y-10.8150I2.7361J4.1850 F100.0
X65.4639Y-19.1850I-2.7360J-4.1850
G01 X65.3271 Y-19.3942
G03X71.0728Y-10.6058I2.8729J4.3942
X65.3271Y-19.3942I-2.8728J-4.3942
G00 Z12.5000
M5 M9
M30
