%
N1 G17 G21 G40 G90
(Hole Pocketing)
(SlotDrill 2mm Carbide)
N2 T12 M06
N3 S10000 M3
N4 G0 Z1.
N5 X20.42979 Y11.35293
N6 G1 Z0.635 F122.5
N7 G0 Z1.
N8 X20.42979 Y41.35293
N9 G1 Z0.635 F122.5
N10 G0 Z1.
N11 X52.32201 Y34.5774
N12 G1 Z0.635 F122.5
N13 G0 Z1.
N14 X68.32201 Y34.5774
N15 G1 Z0.635 F122.5
N16 G0 Z1.
N17 X80.32201 Y40.3274
N18 G1 Z0.635 F122.5
N19 G0 Z1.
N20 X68.32278 Y18.57855
N21 G1 Z0.635 F122.5
N22 G0 Z1.
N23 X80.32201 Y12.82739
N24 G1 Z0.635 F122.5
N25 G0 Z1.
N26 X52.32201 Y18.57739
N27 G1 Z0.635 F122.5
N28 G0 Z1.
N29 X31.23448 Y79.12153
N30 G1 Z0.635 F122.5
N31 G0 Z1.
N32 X18.50656 Y79.12153
N33 G1 Z0.635 F122.5
N34 G0 Z1.
N35 X18.50656 Y91.84946
N36 G1 Z0.635 F122.5
N37 G0 Z1.
N38 X31.23448 Y91.84946
N39 G1 Z0.635 F122.5
N40 G0 Z1.
N41 X50.76199 Y85.71141
N42 G1 Z0.635 F122.5
N43 G0 Z1.
N44 X74.76199 Y85.71141
N45 G1 Z0.635 F122.5
N46 G0 Z1.
N47 X124.76199 Y71.96141
N48 G1 Z0.635 F122.5
N49 G0 Z1.
N50 X144.65328 Y80.47812
N51 G1 Z0.635 F122.5
N52 G0 Z1.
N53 X144.65328 Y91.39812
N54 G1 Z0.635 F122.5
N55 G0 Z1.
N56 X124.65328 Y99.68812
N57 G1 Z0.635 F122.5
N58 G0 Z1.
N59 X184.65328 Y100.93812
N60 G1 Z0.635 F122.5
N61 G0 Z1.
N62 X184.65328 Y70.93812
N63 G1 Z0.635 F122.5
N64 G0 Z1.
N65 X186.46874 Y33.39398
N66 G1 Z0.635 F122.5
N67 G0 Z1.
N68 X173.74082 Y33.39398
N69 G1 Z0.635 F122.5
N70 G0 Z1.
N71 X173.7422 Y20.66655
N72 G1 Z0.635 F122.5
N73 G0 Z1.
N74 X186.46874 Y20.66606
N75 G1 Z0.635 F122.5
N76 G0 Z1.
N77 X130.10577 Y27.03062
N78 G1 Z0.635 F122.5
N79 G0 Z1.
(2 1/2 Axis Profiling)
(SlotDrill 2mm Carbide)
N80 X54.93042 Y29.37724
N81 G1 Z-0.73 F122.5
N82 X55.01822 Y29.58156 Z-0.76921 F122.5
N83 X55.17606 Y29.89284 Z-0.83075
N84 X55.35334 Y30.19347 Z-0.89229
N85 X55.54932 Y30.48225 Z-0.95383
N86 X55.76322 Y30.75803 Z-1.01537
N87 X55.99419 Y31.01968 Z-1.07691
N88 X56.24128 Y31.26616 Z-1.13845
N89 X56.50351 Y31.49647 Z-1.19999
N90 X56.77981 Y31.70968 Z-1.26153
N91 X57.06909 Y31.90494 Z-1.32307
N92 X57.37016 Y32.08146 Z-1.38461
N93 X57.68183 Y32.23853 Z-1.44615
N94 X58.00283 Y32.37551 Z-1.50769
N95 X58.33187 Y32.49187 Z-1.56922
N96 X58.66763 Y32.58711 Z-1.63076
N97 X59.00875 Y32.66087 Z-1.6923
N98 X59.35387 Y32.71285 Z-1.75384
N99 X59.70159 Y32.74283 Z-1.81538
N100 X60.0505 Y32.7507 Z-1.87692
N101 X60.39922 Y32.73643 Z-1.93846
N102 X60.74633 Y32.70006 Z-2.
N103 G17
N104 G02 X59.25367 Y21.80181 I60. J27.25094 K-2. R5.5 F500.
N105 X60.74633 Y32.70006 I60. J27.25094 K-2. R5.5
N106 G1 X60.81417 Y33.19544
N107 G02 X59.18582 Y21.30643 I60. J27.25094 K-2. R6.
N108 X60.81417 Y33.19544 I60. J27.25094 K-2. R6.
N109 G0 Z1.
N110 X54.93042 Y29.37724
N111 G1 Z-2.73 F122.5
N112 X55.01822 Y29.58156 Z-2.76921 F122.5
N113 X55.17606 Y29.89284 Z-2.83075
N114 X55.35334 Y30.19347 Z-2.89229
N115 X55.54932 Y30.48225 Z-2.95383
N116 X55.76322 Y30.75803 Z-3.01537
N117 X55.99419 Y31.01968 Z-3.07691
N118 X56.24128 Y31.26616 Z-3.13845
N119 X56.50351 Y31.49647 Z-3.19999
N120 X56.77981 Y31.70968 Z-3.26153
N121 X57.06909 Y31.90494 Z-3.32307
N122 X57.37016 Y32.08146 Z-3.38461
N123 X57.68183 Y32.23853 Z-3.44615
N124 X58.00283 Y32.37551 Z-3.50769
N125 X58.33187 Y32.49187 Z-3.56922
N126 X58.66763 Y32.58711 Z-3.63076
N127 X59.00875 Y32.66087 Z-3.6923
N128 X59.35387 Y32.71285 Z-3.75384
N129 X59.70159 Y32.74283 Z-3.81538
N130 X60.0505 Y32.7507 Z-3.87692
N131 X60.39922 Y32.73643 Z-3.93846
N132 X60.74633 Y32.70006 Z-4.
N133 G02 X59.25367 Y21.80181 I60. J27.25094 K-4. R5.5 F500.
N134 X60.74633 Y32.70006 I60. J27.25094 K-4. R5.5
N135 G1 X60.81417 Y33.19544
N136 G02 X59.18582 Y21.30643 I60. J27.25094 K-4. R6.
N137 X60.81417 Y33.19544 I60. J27.25094 K-4. R6.
N138 G0 Z1.
N139 X59.78148 Y80.65904
N140 G1 Z-0.73 F122.5
N141 X61.1056 Z-0.96348 F122.5
N142 X61.12912 Y80.56393 Z-0.98075
N143 X61.14996 Y80.4682 Z-0.99803
N144 X61.16813 Y80.37193 Z-1.0153
N145 X61.18359 Y80.27518 Z-1.03258
N146 X61.19633 Y80.17804 Z-1.04986
N147 X61.20635 Y80.08058 Z-1.06713
N148 X61.21364 Y79.98288 Z-1.08441
N149 X61.21819 Y79.88501 Z-1.10168
N150 X61.22 Y79.78705 Z-1.11896
N151 X61.21907 Y79.68908 Z-1.13623
N152 X61.2154 Y79.59118 Z-1.15351
N153 X61.20899 Y79.49342 Z-1.17078
N154 X61.19984 Y79.39587 Z-1.18806
N155 X61.18797 Y79.29862 Z-1.20533
N156 X61.17338 Y79.20174 Z-1.22261
N157 X61.15608 Y79.1053 Z-1.23988
N158 X61.13609 Y79.00939 Z-1.25716
N159 X61.11343 Y78.91407 Z-1.27443
N160 X61.0881 Y78.81943 Z-1.29171
N161 X61.06014 Y78.72553 Z-1.30899
N162 X61.02956 Y78.63245 Z-1.32626
N163 X60.99639 Y78.54027 Z-1.34354
N164 X60.96065 Y78.44905 Z-1.36081
N165 X60.92236 Y78.35886 Z-1.37809
N166 X60.88157 Y78.26978 Z-1.39536
N167 X60.83831 Y78.18188 Z-1.41264
N168 X60.7926 Y78.09522 Z-1.42991
N169 X60.74448 Y78.00988 Z-1.44719
N170 X60.69399 Y77.92592 Z-1.46446
N171 X60.64117 Y77.8434 Z-1.48174
N172 X60.58607 Y77.76239 Z-1.49901
N173 X60.52871 Y77.68296 Z-1.51629
N174 X60.46916 Y77.60517 Z-1.53357
N175 X60.40745 Y77.52907 Z-1.55084
N176 X60.34364 Y77.45473 Z-1.56812
N177 X60.27777 Y77.3822 Z-1.58539
N178 X60.2099 Y77.31155 Z-1.60267
N179 X60.14007 Y77.24282 Z-1.61994
N180 X60.06835 Y77.17607 Z-1.63722
N181 X59.99479 Y77.11136 Z-1.65449
N182 X59.91945 Y77.04873 Z-1.67177
N183 X59.84238 Y76.98824 Z-1.68904
N184 X59.76365 Y76.92993 Z-1.70632
N185 X59.68332 Y76.87384 Z-1.72359
N186 X59.60145 Y76.82002 Z-1.74087
N187 X59.51811 Y76.76852 Z-1.75815
N188 X59.43336 Y76.71937 Z-1.77542
N189 X59.34726 Y76.67261 Z-1.7927
N190 X59.25989 Y76.62828 Z-1.80997
N191 X59.17131 Y76.58641 Z-1.82725
N192 X59.0816 Y76.54704 Z-1.84452
N193 X58.99082 Y76.51019 Z-1.8618
N194 X58.89904 Y76.4759 Z-1.87907
N195 X58.80634 Y76.44419 Z-1.89635
N196 X58.71279 Y76.41509 Z-1.91362
N197 X58.61846 Y76.38862 Z-1.9309
N198 X58.52343 Y76.3648 Z-1.94817
N199 X58.42776 Y76.34364 Z-1.96545
N200 X58.33155 Y76.32518 Z-1.98272
N201 X58.23485 Y76.30941 Z-2.
N202 G02 X57.57421 Y76.27438 I57.72004 J79.77129 K-2. R3.49994 F500.
N203 G1 X46.62479 Y76.73101
N204 G02 X43.29727 Y80.65904 I46.77062 J80.22797 K-2. R3.5
N205 G1 X61.1056
N206 G02 X58.23485 Y76.30941 I57.72004 J79.77134 K-2. R3.5
N207 G1 X58.30839 Y75.81485
N208 G02 X57.55337 Y75.77482 I57.72004 J79.77129 K-2. R3.99994
N209 G1 X46.60396 Y76.23144
N210 G02 X42.87754 Y81.1466 I46.77062 J80.22797 K-2. R4.
N211 G1 X42.88072 Y81.15904
N212 X61.46974
N213 X61.50409 Y81.06786
N214 G02 X58.3084 Y75.81485 I57.72004 J79.77134 K-2. R4.
N215 G1 X58.30839
N216 G0 Z1.
N217 X59.78148 Y80.65904
N218 G1 Z-2.73 F122.5
N219 X61.1056 Z-2.96348 F122.5
N220 X61.12912 Y80.56393 Z-2.98075
N221 X61.14996 Y80.4682 Z-2.99803
N222 X61.16813 Y80.37193 Z-3.0153
N223 X61.18359 Y80.27518 Z-3.03258
N224 X61.19633 Y80.17804 Z-3.04986
N225 X61.20635 Y80.08058 Z-3.06713
N226 X61.21364 Y79.98288 Z-3.0844
N227 X61.21819 Y79.88501 Z-3.10168
N228 X61.22 Y79.78705 Z-3.11896
N229 X61.21907 Y79.68908 Z-3.13623
N230 X61.2154 Y79.59118 Z-3.15351
N231 X61.20899 Y79.49342 Z-3.17078
N232 X61.19984 Y79.39587 Z-3.18806
N233 X61.18797 Y79.29862 Z-3.20533
N234 X61.17338 Y79.20174 Z-3.22261
N235 X61.15608 Y79.1053 Z-3.23988
N236 X61.13609 Y79.00939 Z-3.25716
N237 X61.11343 Y78.91407 Z-3.27443
N238 X61.0881 Y78.81943 Z-3.29171
N239 X61.06014 Y78.72553 Z-3.30899
N240 X61.02956 Y78.63245 Z-3.32626
N241 X60.99639 Y78.54027 Z-3.34354
N242 X60.96065 Y78.44905 Z-3.36081
N243 X60.92236 Y78.35886 Z-3.37809
N244 X60.88157 Y78.26978 Z-3.39536
N245 X60.83831 Y78.18188 Z-3.41264
N246 X60.7926 Y78.09522 Z-3.42991
N247 X60.74448 Y78.00988 Z-3.44719
N248 X60.69399 Y77.92592 Z-3.46446
N249 X60.64117 Y77.8434 Z-3.48174
N250 X60.58607 Y77.76239 Z-3.49901
N251 X60.52871 Y77.68296 Z-3.51629
N252 X60.46916 Y77.60517 Z-3.53356
N253 X60.40745 Y77.52907 Z-3.55084
N254 X60.34364 Y77.45473 Z-3.56812
N255 X60.27777 Y77.3822 Z-3.58539
N256 X60.2099 Y77.31155 Z-3.60267
N257 X60.14007 Y77.24282 Z-3.61994
N258 X60.06835 Y77.17607 Z-3.63722
N259 X59.99479 Y77.11136 Z-3.65449
N260 X59.91945 Y77.04873 Z-3.67177
N261 X59.84238 Y76.98824 Z-3.68904
N262 X59.76365 Y76.92993 Z-3.70632
N263 X59.68332 Y76.87384 Z-3.72359
N264 X59.60145 Y76.82002 Z-3.74087
N265 X59.51811 Y76.76852 Z-3.75815
N266 X59.43336 Y76.71937 Z-3.77542
N267 X59.34726 Y76.67261 Z-3.7927
N268 X59.25989 Y76.62828 Z-3.80997
N269 X59.17131 Y76.58641 Z-3.82725
N270 X59.0816 Y76.54704 Z-3.84452
N271 X58.99082 Y76.51019 Z-3.8618
N272 X58.89904 Y76.4759 Z-3.87907
N273 X58.80634 Y76.44419 Z-3.89635
N274 X58.71279 Y76.41509 Z-3.91362
N275 X58.61846 Y76.38862 Z-3.9309
N276 X58.52343 Y76.3648 Z-3.94817
N277 X58.42776 Y76.34364 Z-3.96545
N278 X58.33155 Y76.32518 Z-3.98272
N279 X58.23485 Y76.30941 Z-4.
N280 G02 X57.57421 Y76.27438 I57.72004 J79.77129 K-4. R3.49994 F500.
N281 G1 X46.62479 Y76.73101
N282 G02 X43.29727 Y80.65904 I46.77062 J80.22797 K-4. R3.5
N283 G1 X61.1056
N284 G02 X58.23485 Y76.30941 I57.72004 J79.77134 K-4. R3.5
N285 G1 X58.30839 Y75.81485
N286 G02 X57.55337 Y75.77482 I57.72004 J79.77129 K-4. R3.99994
N287 G1 X46.60396 Y76.23144
N288 G02 X42.87754 Y81.1466 I46.77062 J80.22797 K-4. R4.
N289 G1 X42.88072 Y81.15904
N290 X61.46974
N291 X61.50409 Y81.06786
N292 G02 X58.3084 Y75.81485 I57.72004 J79.77134 K-4. R4.
N293 G1 X58.30839
N294 G0 Z1.
N295 X52.75173 Y95.84258
N296 G1 Z-0.73 F122.5
N297 X57.57421 Y96.04369 Z-1.58107 F122.5
N298 X57.67316 Y96.04642 Z-1.59853
N299 X57.77216 Y96.04634 Z-1.61598
N300 X57.87111 Y96.04347 Z-1.63344
N301 X57.96994 Y96.0378 Z-1.65089
N302 X58.06857 Y96.02934 Z-1.66835
N303 X58.16693 Y96.01809 Z-1.6858
N304 X58.26492 Y96.00406 Z-1.70326
N305 X58.36248 Y95.98727 Z-1.72071
N306 X58.45953 Y95.96772 Z-1.73817
N307 X58.55598 Y95.94544 Z-1.75563
N308 X58.65177 Y95.92044 Z-1.77308
N309 X58.74681 Y95.89274 Z-1.79054
N310 X58.84102 Y95.86236 Z-1.80799
N311 X58.93435 Y95.82933 Z-1.82545
N312 X59.0267 Y95.79368 Z-1.8429
N313 X59.118 Y95.75542 Z-1.86036
N314 X59.20819 Y95.7146 Z-1.87781
N315 X59.29718 Y95.67125 Z-1.89527
N316 X59.38492 Y95.6254 Z-1.91272
N317 X59.47132 Y95.57708 Z-1.93018
N318 X59.55632 Y95.52634 Z-1.94763
N319 X59.63985 Y95.47322 Z-1.96509
N320 X59.72185 Y95.41775 Z-1.98255
N321 X59.80225 Y95.35999 Z-2.
N322 G02 X61.1056 Y91.65904 I57.72004 J92.54673 K-2. R3.5 F500.
N323 G1 X43.29727
N324 G02 X46.62479 Y95.58707 I46.77062 J92.09011 K-2. R3.5
N325 G1 X57.57421 Y96.04369
N326 G02 X59.80225 Y95.35999 I57.72004 J92.54673 K-2. R3.5
N327 G1 X60.0997 Y95.76188
N328 G02 X61.47161 Y91.15904 I57.72004 J92.54673 K-2. R4.
N329 G1 X42.88072
N330 X42.87754 Y91.17148
N331 G02 X46.60396 Y96.08664 I46.77062 J92.09011 K-2. R4.
N332 G1 X57.55337 Y96.54326
N333 G02 X60.0997 Y95.76188 I57.72004 J92.54673 K-2. R4.
N334 G0 Z1.
N335 X52.75173 Y95.84258
N336 G1 Z-2.73 F122.5
N337 X57.57421 Y96.04369 Z-3.58107 F122.5
N338 X57.67316 Y96.04642 Z-3.59853
N339 X57.77216 Y96.04634 Z-3.61598
N340 X57.87111 Y96.04347 Z-3.63344
N341 X57.96994 Y96.0378 Z-3.65089
N342 X58.06857 Y96.02934 Z-3.66835
N343 X58.16693 Y96.01809 Z-3.6858
N344 X58.26492 Y96.00406 Z-3.70326
N345 X58.36248 Y95.98727 Z-3.72071
N346 X58.45953 Y95.96772 Z-3.73817
N347 X58.55598 Y95.94544 Z-3.75563
N348 X58.65177 Y95.92044 Z-3.77308
N349 X58.74681 Y95.89274 Z-3.79054
N350 X58.84102 Y95.86236 Z-3.80799
N351 X58.93435 Y95.82933 Z-3.82545
N352 X59.0267 Y95.79368 Z-3.8429
N353 X59.118 Y95.75542 Z-3.86036
N354 X59.20819 Y95.7146 Z-3.87781
N355 X59.29718 Y95.67125 Z-3.89527
N356 X59.38492 Y95.6254 Z-3.91272
N357 X59.47132 Y95.57708 Z-3.93018
N358 X59.55632 Y95.52634 Z-3.94763
N359 X59.63985 Y95.47322 Z-3.96509
N360 X59.72185 Y95.41775 Z-3.98255
N361 X59.80225 Y95.35999 Z-4.
N362 G02 X61.1056 Y91.65904 I57.72004 J92.54673 K-4. R3.5 F500.
N363 G1 X43.29727
N364 G02 X46.62479 Y95.58707 I46.77062 J92.09011 K-4. R3.5
N365 G1 X57.57421 Y96.04369
N366 G02 X59.80225 Y95.35999 I57.72004 J92.54673 K-4. R3.5
N367 G1 X60.0997 Y95.76188
N368 G02 X61.47161 Y91.15904 I57.72004 J92.54673 K-4. R4.
N369 G1 X42.88072
N370 X42.87754 Y91.17148
N371 G02 X46.60396 Y96.08664 I46.77062 J92.09011 K-4. R4.
N372 G1 X57.55337 Y96.54326
N373 G02 X60.0997 Y95.76188 I57.72004 J92.54673 K-4. R4.
N374 G0 Z1.
N375 X97.83714 Y74.5953
N376 G1 Z-0.73 F122.5
N377 X90.64087 Y74.89541 Z-2. F122.5
N378 G02 X87.62927 Y79.90255 I90.7867 J78.39237 K-2. R3.5 F500.
N379 G03 Y92.41552 I74.54851 J86.15904 K-2. R14.5
N380 G02 X90.64087 Y97.42267 I90.7867 J93.92571 K-2. R3.5
N381 G1 X107.19843 Y98.11317
N382 G02 X110.68954 Y95.64537 I107.34426 J94.6162 K-2. R3.5
N383 G1 X110.68958 Y95.64524
N384 G03 X113.9465 Y90.01465 I124.58024 J99.92282 K-2. R14.53438
N385 G02 X114.80465 Y87.71887 I111.30466 J87.71887 K-2. R3.49999
N386 G1 Y84.59921
N387 G02 X113.9465 Y82.30342 I111.30464 J84.59922 K-2. R3.50001
N388 G03 X110.68967 Y76.67313 I124.58024 J72.39525 K-2. R14.53438
N389 G1 X110.68954 Y76.67271
N390 G02 X107.19843 Y74.20491 I107.34426 J77.70187 K-2. R3.5
N391 G1 X90.64087 Y74.89541
N392 X90.62003 Y74.39584
N393 G02 X87.17821 Y80.1183 I90.7867 J78.39237 K-2. R4.
N394 G03 Y92.19978 I74.54851 J86.15904 K-2. R14.
N395 G02 X90.62003 Y97.92223 I90.7867 J93.92571 K-2. R4.
N396 G1 X107.1776 Y98.61273
N397 G02 X111.16743 Y95.79239 I107.34426 J94.6162 K-2. R4.
N398 G03 X114.31797 Y90.34943 I124.58024 J99.92282 K-2. R14.03438
N399 G02 X115.30465 Y87.71887 I111.30466 J87.71887 K-2. R3.99999
N400 G1 Y84.59921
N401 G02 X114.31797 Y81.96864 I111.30464 J84.59922 K-2. R4.00001
N402 G03 X111.16752 Y76.52597 I124.58024 J72.39525 K-2. R14.03438
N403 G1 X111.16743 Y76.52569
N404 G02 X107.1776 Y73.70534 I107.34426 J77.70187 K-2. R4.
N405 G1 X90.62003 Y74.39584
N406 G0 Z1.
N407 X97.83714 Y74.5953
N408 G1 Z-2.73 F122.5
N409 X90.64087 Y74.89541 Z-4. F122.5
N410 G02 X87.62927 Y79.90255 I90.7867 J78.39237 K-4. R3.5 F500.
N411 G03 Y92.41552 I74.54851 J86.15904 K-4. R14.5
N412 G02 X90.64087 Y97.42267 I90.7867 J93.92571 K-4. R3.5
N413 G1 X107.19843 Y98.11317
N414 G02 X110.68954 Y95.64537 I107.34426 J94.6162 K-4. R3.5
N415 G1 X110.68958 Y95.64524
N416 G03 X113.9465 Y90.01465 I124.58024 J99.92282 K-4. R14.53438
N417 G02 X114.80465 Y87.71887 I111.30466 J87.71887 K-4. R3.49999
N418 G1 Y84.59921
N419 G02 X113.9465 Y82.30342 I111.30464 J84.59922 K-4. R3.50001
N420 G03 X110.68967 Y76.67313 I124.58024 J72.39525 K-4. R14.53438
N421 G1 X110.68954 Y76.67271
N422 G02 X107.19843 Y74.20491 I107.34426 J77.70187 K-4. R3.5
N423 G1 X90.64087 Y74.89541
N424 X90.62003 Y74.39584
N425 G02 X87.17821 Y80.1183 I90.7867 J78.39237 K-4. R4.
N426 G03 Y92.19978 I74.54851 J86.15904 K-4. R14.
N427 G02 X90.62003 Y97.92223 I90.7867 J93.92571 K-4. R4.
N428 G1 X107.1776 Y98.61273
N429 G02 X111.16743 Y95.79239 I107.34426 J94.6162 K-4. R4.
N430 G03 X114.31797 Y90.34943 I124.58024 J99.92282 K-4. R14.03438
N431 G02 X115.30465 Y87.71887 I111.30466 J87.71887 K-4. R3.99999
N432 G1 Y84.59921
N433 G02 X114.31797 Y81.96864 I111.30464 J84.59922 K-4. R4.00001
N434 G03 X111.16752 Y76.52597 I124.58024 J72.39525 K-4. R14.03438
N435 G1 X111.16743 Y76.52569
N436 G02 X107.1776 Y73.70534 I107.34426 J77.70187 K-4. R4.
N437 G1 X90.62003 Y74.39584
N438 G0 Z1.
N439 X142.71952 Y85.3517
N440 G1 Z-0.73 F122.5
N441 X142.68237 Y85.43965 Z-0.74684 F122.5
N442 X142.6405 Y85.55946 Z-0.76921
N443 X142.60631 Y85.68168 Z-0.79159
N444 X142.57995 Y85.80582 Z-0.81397
N445 X142.56151 Y85.93139 Z-0.83635
N446 X142.55107 Y86.05787 Z-0.85873
N447 X142.54867 Y86.18476 Z-0.8811
N448 X142.55433 Y86.31155 Z-0.90348
N449 X142.56802 Y86.43772 Z-0.92586
N450 X142.58968 Y86.56277 Z-0.94824
N451 X142.61923 Y86.68619 Z-0.97061
N452 X142.65655 Y86.80749 Z-0.99299
N453 X142.70149 Y86.92618 Z-1.01537
N454 X142.75386 Y87.04178 Z-1.03775
N455 X142.81346 Y87.15383 Z-1.06013
N456 X142.88005 Y87.26187 Z-1.0825
N457 X142.95335 Y87.36547 Z-1.10488
N458 X143.03308 Y87.46421 Z-1.12726
N459 X143.11891 Y87.5577 Z-1.14964
N460 X143.2105 Y87.64555 Z-1.17202
N461 X143.30747 Y87.72742 Z-1.19439
N462 X143.40944 Y87.80297 Z-1.21677
N463 X143.516 Y87.87191 Z-1.23915
N464 X143.62672 Y87.93394 Z-1.26153
N465 X143.74115 Y87.98883 Z-1.28391
N466 X143.85882 Y88.03636 Z-1.30628
N467 X143.97928 Y88.07632 Z-1.32866
N468 X144.10203 Y88.10856 Z-1.35104
N469 X144.22657 Y88.13295 Z-1.37342
N470 X144.35241 Y88.1494 Z-1.3958
N471 X144.47905 Y88.15783 Z-1.41817
N472 X144.60596 Y88.15821 Z-1.44055
N473 X144.73264 Y88.15054 Z-1.46293
N474 X144.85857 Y88.13485 Z-1.48531
N475 X144.98326 Y88.11121 Z-1.50769
N476 X145.1062 Y88.07971 Z-1.53006
N477 X145.2269 Y88.04047 Z-1.55244
N478 X145.34486 Y87.99365 Z-1.57482
N479 X145.45962 Y87.93945 Z-1.5972
N480 X145.5707 Y87.87808 Z-1.61958
N481 X145.67767 Y87.80979 Z-1.64195
N482 X145.7801 Y87.73485 Z-1.66433
N483 X145.87756 Y87.65356 Z-1.68671
N484 X145.96967 Y87.56626 Z-1.70909
N485 X146.05606 Y87.47329 Z-1.73147
N486 X146.13638 Y87.37503 Z-1.75384
N487 X146.21031 Y87.27187 Z-1.77622
N488 X146.27755 Y87.16424 Z-1.7986
N489 X146.33782 Y87.05255 Z-1.82098
N490 X146.39088 Y86.93727 Z-1.84335
N491 X146.43653 Y86.81885 Z-1.86573
N492 X146.47458 Y86.69777 Z-1.88811
N493 X146.50487 Y86.57453 Z-1.91049
N494 X146.52728 Y86.44961 Z-1.93287
N495 X146.54173 Y86.32353 Z-1.95524
N496 X146.54815 Y86.19678 Z-1.97762
N497 X146.54652 Y86.06988 Z-2.
N498 G02 X142.5505 Y86.2482 I144.54851 J86.15904 K-2. R2. F500.
N499 X146.54652 Y86.06988 I144.54851 J86.15904 K-2. R2.
N500 G1 X147.04602 Y86.04759
N501 G02 X142.05099 Y86.27049 I144.54851 J86.15904 K-2. R2.5
N502 X147.04602 Y86.04759 I144.54851 J86.15904 K-2. R2.5
N503 G0 Z1.
N504 X142.71952 Y85.3517
N505 G1 Z-2.73 F122.5
N506 X142.68237 Y85.43965 Z-2.74684 F122.5
N507 X142.6405 Y85.55946 Z-2.76921
N508 X142.60631 Y85.68168 Z-2.79159
N509 X142.57995 Y85.80582 Z-2.81397
N510 X142.56151 Y85.93139 Z-2.83635
N511 X142.55107 Y86.05787 Z-2.85873
N512 X142.54867 Y86.18476 Z-2.8811
N513 X142.55433 Y86.31155 Z-2.90348
N514 X142.56802 Y86.43772 Z-2.92586
N515 X142.58968 Y86.56277 Z-2.94824
N516 X142.61923 Y86.68619 Z-2.97061
N517 X142.65655 Y86.80749 Z-2.99299
N518 X142.70149 Y86.92618 Z-3.01537
N519 X142.75386 Y87.04178 Z-3.03775
N520 X142.81346 Y87.15383 Z-3.06013
N521 X142.88005 Y87.26187 Z-3.0825
N522 X142.95335 Y87.36547 Z-3.10488
N523 X143.03308 Y87.46421 Z-3.12726
N524 X143.11891 Y87.5577 Z-3.14964
N525 X143.2105 Y87.64555 Z-3.17202
N526 X143.30747 Y87.72742 Z-3.19439
N527 X143.40944 Y87.80297 Z-3.21677
N528 X143.516 Y87.87191 Z-3.23915
N529 X143.62672 Y87.93394 Z-3.26153
N530 X143.74115 Y87.98883 Z-3.28391
N531 X143.85882 Y88.03636 Z-3.30628
N532 X143.97928 Y88.07632 Z-3.32866
N533 X144.10203 Y88.10856 Z-3.35104
N534 X144.22657 Y88.13295 Z-3.37342
N535 X144.35241 Y88.1494 Z-3.3958
N536 X144.47905 Y88.15783 Z-3.41817
N537 X144.60596 Y88.15821 Z-3.44055
N538 X144.73264 Y88.15054 Z-3.46293
N539 X144.85857 Y88.13485 Z-3.48531
N540 X144.98326 Y88.11121 Z-3.50769
N541 X145.1062 Y88.07971 Z-3.53006
N542 X145.2269 Y88.04047 Z-3.55244
N543 X145.34486 Y87.99365 Z-3.57482
N544 X145.45962 Y87.93945 Z-3.5972
N545 X145.5707 Y87.87808 Z-3.61958
N546 X145.67767 Y87.80979 Z-3.64195
N547 X145.7801 Y87.73485 Z-3.66433
N548 X145.87756 Y87.65356 Z-3.68671
N549 X145.96967 Y87.56626 Z-3.70909
N550 X146.05606 Y87.47329 Z-3.73147
N551 X146.13638 Y87.37503 Z-3.75384
N552 X146.21031 Y87.27187 Z-3.77622
N553 X146.27755 Y87.16424 Z-3.7986
N554 X146.33782 Y87.05255 Z-3.82098
N555 X146.39088 Y86.93727 Z-3.84335
N556 X146.43653 Y86.81885 Z-3.86573
N557 X146.47458 Y86.69777 Z-3.88811
N558 X146.50487 Y86.57453 Z-3.91049
N559 X146.52728 Y86.44961 Z-3.93287
N560 X146.54173 Y86.32353 Z-3.95524
N561 X146.54815 Y86.19678 Z-3.97762
N562 X146.54652 Y86.06988 Z-4.
N563 G02 X142.5505 Y86.2482 I144.54851 J86.15904 K-4. R2. F500.
N564 X146.54652 Y86.06988 I144.54851 J86.15904 K-4. R2.
N565 G1 X147.04602 Y86.04759
N566 G02 X142.05099 Y86.27049 I144.54851 J86.15904 K-4. R2.5
N567 X147.04602 Y86.04759 I144.54851 J86.15904 K-4. R2.5
N568 G0 Z1.
N569 X153.61306 Y17.64314
N570 G1 Z-0.73 F122.5
N571 X146.9743 Y17.36628 Z-1.90161 F122.5
N572 X146.93713 Y17.36493 Z-1.90817
N573 X146.89994 Y17.36397 Z-1.91473
N574 X146.86275 Y17.36341 Z-1.92129
N575 X146.82555 Y17.36325 Z-1.92785
N576 X146.78835 Y17.36347 Z-1.93441
N577 X146.75115 Y17.3641 Z-1.94097
N578 X146.71397 Y17.36512 Z-1.94753
N579 X146.67679 Y17.36653 Z-1.95409
N580 X146.63964 Y17.36834 Z-1.96064
N581 X146.6025 Y17.37055 Z-1.9672
N582 X146.56539 Y17.37314 Z-1.97376
N583 X146.52832 Y17.37614 Z-1.98032
N584 X146.49127 Y17.37952 Z-1.98688
N585 X146.45426 Y17.38331 Z-1.99344
N586 X146.4173 Y17.38748 Z-2.
N587 G02 X143.51481 Y21.99004 I146.82847 J20.86324 K-2. R3.5 F500.
N588 G03 X143.86832 Y23.0178 I127.41177 J28.1035 K-2. R17.22447
N589 G1 X143.8686 Y23.01872
N590 X143.86974 Y23.02242
N591 X143.87002 Y23.02335
N592 G03 X143.66727 Y32.09406 I130. J27.25094 K-2. R14.5
N593 G1 X143.6656 Y32.09869
N594 X143.51771 Y32.50336
N595 G02 X146.9743 Y37.13559 I146.82847 J33.63863 K-2. R3.5
N596 G1 X157.92372 Y36.67897
N597 G02 X161.15951 Y32.27946 I157.77788 J33.18201 K-2. R3.5
N598 G03 Y22.22242 I180. J27.25094 K-2. R19.5
N599 G02 X157.92372 Y17.82291 I157.77788 J21.31987 K-2. R3.5
N600 G1 X146.9743 Y17.36628
N601 G02 X146.4173 Y17.38748 I146.82847 J20.86337 K-2. R3.50012
N602 G1 X146.35856 Y16.89094
N603 G02 X143.04438 Y22.15965 I146.82847 J20.86324 K-2. R4.
N604 G03 X143.39061 Y23.16543 I127.41177 J28.1035 K-2. R16.72447
N605 G1 X143.39174 Y23.16913
N606 G03 X143.19598 Y31.92706 I130. J27.25094 K-2. R14.
N607 G1 X143.04642 Y32.33628
N608 G02 X146.99514 Y37.63516 I146.82847 J33.63863 K-2. R4.
N609 G1 X157.94455 Y37.17854
N610 G02 X161.6426 Y32.15052 I157.77788 J33.18201 K-2. R4.
N611 G03 Y22.35136 I180. J27.25094 K-2. R19.
N612 G02 X157.94455 Y17.32334 I157.77788 J21.31987 K-2. R4.
N613 G1 X146.99514 Y16.86672
N614 G02 X146.35856 Y16.89094 I146.82847 J20.86337 K-2. R4.00012
N615 G0 Z1.
N616 X153.61306 Y17.64314
N617 G1 Z-2.73 F122.5
N618 X146.9743 Y17.36628 Z-3.90161 F122.5
N619 X146.93713 Y17.36493 Z-3.90817
N620 X146.89994 Y17.36397 Z-3.91473
N621 X146.86275 Y17.36341 Z-3.92129
N622 X146.82555 Y17.36325 Z-3.92785
N623 X146.78835 Y17.36347 Z-3.93441
N624 X146.75115 Y17.3641 Z-3.94097
N625 X146.71397 Y17.36512 Z-3.94753
N626 X146.67679 Y17.36653 Z-3.95409
N627 X146.63964 Y17.36834 Z-3.96064
N628 X146.6025 Y17.37055 Z-3.9672
N629 X146.56539 Y17.37314 Z-3.97376
N630 X146.52832 Y17.37614 Z-3.98032
N631 X146.49127 Y17.37952 Z-3.98688
N632 X146.45426 Y17.38331 Z-3.99344
N633 X146.4173 Y17.38748 Z-4.
N634 G02 X143.51481 Y21.99004 I146.82847 J20.86324 K-4. R3.5 F500.
N635 G03 X143.86832 Y23.0178 I127.41177 J28.1035 K-4. R17.22447
N636 G1 X143.8686 Y23.01872
N637 X143.86974 Y23.02242
N638 X143.87002 Y23.02335
N639 G03 X143.66727 Y32.09406 I130. J27.25094 K-4. R14.5
N640 G1 X143.6656 Y32.09869
N641 X143.51771 Y32.50336
N642 G02 X146.9743 Y37.13559 I146.82847 J33.63863 K-4. R3.5
N643 G1 X157.92372 Y36.67897
N644 G02 X161.15951 Y32.27946 I157.77788 J33.18201 K-4. R3.5
N645 G03 Y22.22242 I180. J27.25094 K-4. R19.5
N646 G02 X157.92372 Y17.82291 I157.77788 J21.31987 K-4. R3.5
N647 G1 X146.9743 Y17.36628
N648 G02 X146.4173 Y17.38748 I146.82847 J20.86337 K-4. R3.50012
N649 G1 X146.35856 Y16.89094
N650 G02 X143.04438 Y22.15965 I146.82847 J20.86324 K-4. R4.
N651 G03 X143.39061 Y23.16543 I127.41177 J28.1035 K-4. R16.72447
N652 G1 X143.39174 Y23.16913
N653 G03 X143.19598 Y31.92706 I130. J27.25094 K-4. R14.
N654 G1 X143.04642 Y32.33628
N655 G02 X146.99514 Y37.63516 I146.82847 J33.63863 K-4. R4.
N656 G1 X157.94455 Y37.17854
N657 G02 X161.6426 Y32.15052 I157.77788 J33.18201 K-4. R4.
N658 G03 Y22.35136 I180. J27.25094 K-4. R19.
N659 G02 X157.94455 Y17.32334 I157.77788 J21.31987 K-4. R4.
N660 G1 X146.99514 Y16.86672
N661 G02 X146.35856 Y16.89094 I146.82847 J20.86337 K-4. R4.00012
N662 G0 Z1.
N663 X116.54767 Y21.84025
N664 G1 Z-0.73 F122.5
N665 X116.59558 Y21.72177 Z-0.75253 F122.5
N666 X116.67275 Y21.53829 Z-0.78763
N667 X116.75242 Y21.35589 Z-0.82273
N668 X116.83459 Y21.1746 Z-0.85782
N669 X116.91923 Y20.99445 Z-0.89292
N670 X116.96032 Y20.90537 Z-0.91022
N671 X116.99889 Y20.81517 Z-0.92752
N672 X117.03492 Y20.72392 Z-0.94482
N673 X117.06838 Y20.6317 Z-0.96211
N674 X117.09924 Y20.53858 Z-0.97941
N675 X117.12747 Y20.44463 Z-0.99671
N676 X117.15307 Y20.34992 Z-1.01401
N677 X117.176 Y20.25454 Z-1.03131
N678 X117.19624 Y20.15855 Z-1.0486
N679 X117.21379 Y20.06203 Z-1.0659
N680 X117.22863 Y19.96505 Z-1.0832
N681 X117.24074 Y19.8677 Z-1.1005
N682 X117.25012 Y19.77005 Z-1.1178
N683 X117.25676 Y19.67217 Z-1.13509
N684 X117.26065 Y19.57414 Z-1.15239
N685 X117.2618 Y19.47605 Z-1.16969
N686 X117.26019 Y19.37796 Z-1.18699
N687 X117.25584 Y19.27995 Z-1.20429
N688 X117.24874 Y19.18211 Z-1.22159
N689 X117.2389 Y19.0845 Z-1.23888
N690 X117.22633 Y18.98721 Z-1.25618
N691 X117.21104 Y18.8903 Z-1.27348
N692 X117.19304 Y18.79387 Z-1.29078
N693 X117.17234 Y18.69797 Z-1.30808
N694 X117.14896 Y18.6027 Z-1.32537
N695 X117.12293 Y18.50811 Z-1.34267
N696 X117.09425 Y18.41429 Z-1.35997
N697 X117.06295 Y18.32132 Z-1.37727
N698 X117.02906 Y18.22926 Z-1.39457
N699 X116.9926 Y18.13818 Z-1.41186
N700 X116.95361 Y18.04816 Z-1.42916
N701 X116.91211 Y17.95927 Z-1.44646
N702 X116.86813 Y17.87158 Z-1.46376
N703 X116.82171 Y17.78515 Z-1.48106
N704 X116.77289 Y17.70006 Z-1.49836
N705 X116.7217 Y17.61637 Z-1.51565
N706 X116.66819 Y17.53415 Z-1.53295
N707 X116.61239 Y17.45346 Z-1.55025
N708 X116.55435 Y17.37437 Z-1.56755
N709 X116.49412 Y17.29693 Z-1.58485
N710 X116.43175 Y17.22121 Z-1.60214
N711 X116.36727 Y17.14727 Z-1.61944
N712 X116.30075 Y17.07517 Z-1.63674
N713 X116.23223 Y17.00495 Z-1.65404
N714 X116.16178 Y16.93669 Z-1.67134
N715 X116.08943 Y16.87043 Z-1.68863
N716 X116.01526 Y16.80622 Z-1.70593
N717 X115.93932 Y16.74412 Z-1.72323
N718 X115.86167 Y16.68417 Z-1.74053
N719 X115.78237 Y16.62641 Z-1.75783
N720 X115.70148 Y16.57091 Z-1.77513
N721 X115.61906 Y16.51769 Z-1.79242
N722 X115.53519 Y16.4668 Z-1.80972
N723 X115.44993 Y16.41828 Z-1.82702
N724 X115.36333 Y16.37218 Z-1.84432
N725 X115.27548 Y16.32851 Z-1.86162
N726 X115.18645 Y16.28733 Z-1.87891
N727 X115.09629 Y16.24866 Z-1.89621
N728 X115.00508 Y16.21253 Z-1.91351
N729 X114.91289 Y16.17897 Z-1.93081
N730 X114.81981 Y16.14801 Z-1.94811
N731 X114.72589 Y16.11967 Z-1.9654
N732 X114.63121 Y16.09397 Z-1.9827
N733 X114.53585 Y16.07093 Z-2.
N734 G02 X113.90764 Y15.98731 I113.76179 J19.48438 K-2. R3.50011 F500.
N735 G1 X97.35007 Y15.29681
N736 G02 X93.85897 Y17.76461 I97.20424 J18.79377 K-2. R3.5
N737 G1 X93.85893 Y17.76474
N738 G03 X90.60201 Y23.39532 I79.96827 J13.48715 K-2. R14.53438
N739 G02 X89.74386 Y25.69111 I93.24384 J25.69111 K-2. R3.49999
N740 G1 Y28.81077
N741 G02 X90.60201 Y31.10655 I93.24387 J28.81076 K-2. R3.50001
N742 G03 X93.85884 Y36.73684 I79.96827 J41.01472 K-2. R14.53438
N743 G1 X93.85897 Y36.73727
N744 G02 X97.35008 Y39.20507 I97.20424 J35.7081 K-2. R3.5
N745 G1 X113.90764 Y38.51457
N746 G02 X116.91923 Y33.50742 I113.76181 J35.01761 K-2. R3.5
N747 G03 Y20.99445 I130. J27.25094 K-2. R14.5
N748 G02 X114.53585 Y16.07093 I113.76181 J19.48427 K-2. R3.5
N749 G1 X114.64643 Y15.58331
N750 G02 X113.92847 Y15.48774 I113.76179 J19.48438 K-2. R4.00011
N751 G1 X97.37091 Y14.79724
N752 G02 X93.38108 Y17.61759 I97.20424 J18.79377 K-2. R4.
N753 G03 X90.23053 Y23.06054 I79.96827 J13.48715 K-2. R14.03438
N754 G02 X89.24386 Y25.69111 I93.24384 J25.69111 K-2. R3.99999
N755 G1 Y28.81077
N756 G02 X90.23053 Y31.44133 I93.24387 J28.81076 K-2. R4.00001
N757 G03 X93.38099 Y36.88401 I79.96827 J41.01472 K-2. R14.03438
N758 G1 X93.38108 Y36.88429
N759 G02 X97.37091 Y39.70463 I97.20424 J35.7081 K-2. R4.
N760 G1 X113.92848 Y39.01413
N761 G02 X117.3703 Y33.29168 I113.76181 J35.01761 K-2. R4.
N762 G03 Y21.2102 I130. J27.25094 K-2. R14.
N763 G02 X114.64643 Y15.58331 I113.76181 J19.48427 K-2. R4.
N764 G0 Z1.
N765 X116.54767 Y21.84025
N766 G1 Z-2.73 F122.5
N767 X116.59558 Y21.72177 Z-2.75253 F122.5
N768 X116.67275 Y21.53829 Z-2.78763
N769 X116.75242 Y21.35589 Z-2.82273
N770 X116.83459 Y21.1746 Z-2.85782
N771 X116.91923 Y20.99445 Z-2.89292
N772 X116.96032 Y20.90537 Z-2.91022
N773 X116.99889 Y20.81517 Z-2.92752
N774 X117.03492 Y20.72392 Z-2.94482
N775 X117.06838 Y20.6317 Z-2.96211
N776 X117.09924 Y20.53858 Z-2.97941
N777 X117.12747 Y20.44463 Z-2.99671
N778 X117.15307 Y20.34992 Z-3.01401
N779 X117.176 Y20.25454 Z-3.03131
N780 X117.19624 Y20.15855 Z-3.0486
N781 X117.21379 Y20.06203 Z-3.0659
N782 X117.22863 Y19.96505 Z-3.0832
N783 X117.24074 Y19.8677 Z-3.1005
N784 X117.25012 Y19.77005 Z-3.1178
N785 X117.25676 Y19.67217 Z-3.1351
N786 X117.26065 Y19.57414 Z-3.15239
N787 X117.2618 Y19.47605 Z-3.16969
N788 X117.26019 Y19.37796 Z-3.18699
N789 X117.25584 Y19.27995 Z-3.20429
N790 X117.24874 Y19.18211 Z-3.22159
N791 X117.2389 Y19.0845 Z-3.23888
N792 X117.22633 Y18.98721 Z-3.25618
N793 X117.21104 Y18.8903 Z-3.27348
N794 X117.19304 Y18.79387 Z-3.29078
N795 X117.17234 Y18.69797 Z-3.30808
N796 X117.14896 Y18.6027 Z-3.32537
N797 X117.12293 Y18.50811 Z-3.34267
N798 X117.09425 Y18.41429 Z-3.35997
N799 X117.06295 Y18.32132 Z-3.37727
N800 X117.02906 Y18.22926 Z-3.39457
N801 X116.9926 Y18.13818 Z-3.41186
N802 X116.95361 Y18.04816 Z-3.42916
N803 X116.91211 Y17.95927 Z-3.44646
N804 X116.86813 Y17.87158 Z-3.46376
N805 X116.82171 Y17.78515 Z-3.48106
N806 X116.77289 Y17.70006 Z-3.49836
N807 X116.7217 Y17.61637 Z-3.51565
N808 X116.66819 Y17.53415 Z-3.53295
N809 X116.61239 Y17.45346 Z-3.55025
N810 X116.55435 Y17.37437 Z-3.56755
N811 X116.49412 Y17.29693 Z-3.58485
N812 X116.43175 Y17.22121 Z-3.60214
N813 X116.36727 Y17.14727 Z-3.61944
N814 X116.30075 Y17.07517 Z-3.63674
N815 X116.23223 Y17.00495 Z-3.65404
N816 X116.16178 Y16.93669 Z-3.67134
N817 X116.08943 Y16.87043 Z-3.68863
N818 X116.01526 Y16.80622 Z-3.70593
N819 X115.93932 Y16.74412 Z-3.72323
N820 X115.86167 Y16.68417 Z-3.74053
N821 X115.78237 Y16.62641 Z-3.75783
N822 X115.70148 Y16.57091 Z-3.77513
N823 X115.61906 Y16.51769 Z-3.79242
N824 X115.53519 Y16.4668 Z-3.80972
N825 X115.44993 Y16.41828 Z-3.82702
N826 X115.36333 Y16.37218 Z-3.84432
N827 X115.27548 Y16.32851 Z-3.86161
N828 X115.18645 Y16.28733 Z-3.87891
N829 X115.09629 Y16.24866 Z-3.89621
N830 X115.00508 Y16.21253 Z-3.91351
N831 X114.91289 Y16.17897 Z-3.93081
N832 X114.81981 Y16.14801 Z-3.94811
N833 X114.72589 Y16.11967 Z-3.9654
N834 X114.63121 Y16.09397 Z-3.9827
N835 X114.53585 Y16.07093 Z-4.
N836 G02 X113.90764 Y15.98731 I113.76179 J19.48438 K-4. R3.50011 F500.
N837 G1 X97.35007 Y15.29681
N838 G02 X93.85897 Y17.76461 I97.20424 J18.79377 K-4. R3.5
N839 G1 X93.85893 Y17.76474
N840 G03 X90.60201 Y23.39532 I79.96827 J13.48715 K-4. R14.53438
N841 G02 X89.74386 Y25.69111 I93.24384 J25.69111 K-4. R3.49999
N842 G1 Y28.81077
N843 G02 X90.60201 Y31.10655 I93.24387 J28.81076 K-4. R3.50001
N844 G03 X93.85884 Y36.73684 I79.96827 J41.01472 K-4. R14.53438
N845 G1 X93.85897 Y36.73727
N846 G02 X97.35008 Y39.20507 I97.20424 J35.7081 K-4. R3.5
N847 G1 X113.90764 Y38.51457
N848 G02 X116.91923 Y33.50742 I113.76181 J35.01761 K-4. R3.5
N849 G03 Y20.99445 I130. J27.25094 K-4. R14.5
N850 G02 X114.53585 Y16.07093 I113.76181 J19.48427 K-4. R3.5
N851 G1 X114.64643 Y15.58331
N852 G02 X113.92847 Y15.48774 I113.76179 J19.48438 K-4. R4.00011
N853 G1 X97.37091 Y14.79724
N854 G02 X93.38108 Y17.61759 I97.20424 J18.79377 K-4. R4.
N855 G03 X90.23053 Y23.06054 I79.96827 J13.48715 K-4. R14.03438
N856 G02 X89.24386 Y25.69111 I93.24384 J25.69111 K-4. R3.99999
N857 G1 Y28.81077
N858 G02 X90.23053 Y31.44133 I93.24387 J28.81076 K-4. R4.00001
N859 G03 X93.38099 Y36.88401 I79.96827 J41.01472 K-4. R14.03438
N860 G1 X93.38108 Y36.88429
N861 G02 X97.37091 Y39.70463 I97.20424 J35.7081 K-4. R4.
N862 G1 X113.92848 Y39.01413
N863 G02 X117.3703 Y33.29168 I113.76181 J35.01761 K-4. R4.
N864 G03 Y21.2102 I130. J27.25094 K-4. R14.
N865 G02 X114.64643 Y15.58331 I113.76181 J19.48427 K-4. R4.
N866 G0 Z1.
N867 X183.3286 Y30.27687
N868 G1 Z-0.73 F122.5
N869 X183.3723 Y30.23046 Z-0.74124 F122.5
N870 X183.55449 Y30.01057 Z-0.79159
N871 X183.72236 Y29.77958 Z-0.84194
N872 X183.87524 Y29.5384 Z-0.89229
N873 X184.01252 Y29.28801 Z-0.94264
N874 X184.13364 Y29.02942 Z-0.99299
N875 X184.23811 Y28.76367 Z-1.04334
N876 X184.32553 Y28.49183 Z-1.09369
N877 X184.39552 Y28.21499 Z-1.14404
N878 X184.44781 Y27.93426 Z-1.19439
N879 X184.4822 Y27.65079 Z-1.24474
N880 X184.49853 Y27.36571 Z-1.29509
N881 X184.49676 Y27.08016 Z-1.34545
N882 X184.47687 Y26.7953 Z-1.3958
N883 X184.43896 Y26.51228 Z-1.44615
N884 X184.38317 Y26.23223 Z-1.4965
N885 X184.30974 Y25.95628 Z-1.54685
N886 X184.21895 Y25.68555 Z-1.5972
N887 X184.11117 Y25.42112 Z-1.64755
N888 X183.98684 Y25.16406 Z-1.6979
N889 X183.84646 Y24.9154 Z-1.74825
N890 X183.69058 Y24.67614 Z-1.7986
N891 X183.51985 Y24.44725 Z-1.84895
N892 X183.33494 Y24.22965 Z-1.8993
N893 X183.13661 Y24.02422 Z-1.94965
N894 X182.92564 Y23.83178 Z-2.
N895 G02 X177.07436 Y30.67009 I180. J27.25094 K-2. R4.5 F500.
N896 X182.92564 Y23.83178 I180. J27.25094 K-2. R4.5
N897 G1 X183.25071 Y23.45188
N898 G02 X176.74928 Y31.04999 I180. J27.25094 K-2. R5.
N899 X183.25071 Y23.45188 I180. J27.25094 K-2. R5.
N900 G0 Z1.
N901 X183.3286 Y30.27687
N902 G1 Z-2.73 F122.5
N903 X183.3723 Y30.23046 Z-2.74124 F122.5
N904 X183.55449 Y30.01057 Z-2.79159
N905 X183.72236 Y29.77958 Z-2.84194
N906 X183.87524 Y29.5384 Z-2.89229
N907 X184.01252 Y29.28801 Z-2.94264
N908 X184.13364 Y29.02942 Z-2.99299
N909 X184.23811 Y28.76367 Z-3.04334
N910 X184.32553 Y28.49183 Z-3.09369
N911 X184.39552 Y28.21499 Z-3.14404
N912 X184.44781 Y27.93426 Z-3.19439
N913 X184.4822 Y27.65079 Z-3.24474
N914 X184.49853 Y27.36571 Z-3.29509
N915 X184.49676 Y27.08016 Z-3.34545
N916 X184.47687 Y26.7953 Z-3.3958
N917 X184.43896 Y26.51228 Z-3.44615
N918 X184.38317 Y26.23223 Z-3.4965
N919 X184.30974 Y25.95628 Z-3.54685
N920 X184.21895 Y25.68555 Z-3.5972
N921 X184.11117 Y25.42112 Z-3.64755
N922 X183.98684 Y25.16406 Z-3.6979
N923 X183.84646 Y24.9154 Z-3.74825
N924 X183.69058 Y24.67614 Z-3.7986
N925 X183.51985 Y24.44725 Z-3.84895
N926 X183.33494 Y24.22965 Z-3.8993
N927 X183.13661 Y24.02422 Z-3.94965
N928 X182.92564 Y23.83178 Z-4.
N929 G02 X177.07436 Y30.67009 I180. J27.25094 K-4. R4.5 F500.
N930 X182.92564 Y23.83178 I180. J27.25094 K-4. R4.5
N931 G1 X183.25071 Y23.45188
N932 G02 X176.74928 Y31.04999 I180. J27.25094 K-4. R5.
N933 X183.25071 Y23.45188 I180. J27.25094 K-4. R5.
N934 G0 Z1.
N935 X21.2199 Y83.13311
N936 G1 Z-0.73 F122.5
N937 X21.1762 Y83.17952 Z-0.74124 F122.5
N938 X20.99402 Y83.3994 Z-0.79159
N939 X20.82615 Y83.6304 Z-0.84194
N940 X20.67327 Y83.87158 Z-0.89229
N941 X20.53599 Y84.12196 Z-0.94264
N942 X20.41487 Y84.38055 Z-0.99299
N943 X20.31039 Y84.64631 Z-1.04334
N944 X20.22298 Y84.91815 Z-1.09369
N945 X20.15299 Y85.19499 Z-1.14404
N946 X20.10069 Y85.47571 Z-1.19439
N947 X20.06631 Y85.75919 Z-1.24474
N948 X20.04997 Y86.04427 Z-1.29509
N949 X20.05175 Y86.32982 Z-1.34545
N950 X20.07164 Y86.61467 Z-1.3958
N951 X20.10955 Y86.8977 Z-1.44615
N952 X20.16533 Y87.17775 Z-1.4965
N953 X20.23877 Y87.45369 Z-1.54685
N954 X20.32956 Y87.72443 Z-1.5972
N955 X20.43733 Y87.98886 Z-1.64755
N956 X20.56167 Y88.24592 Z-1.6979
N957 X20.70205 Y88.49458 Z-1.74825
N958 X20.85792 Y88.73384 Z-1.7986
N959 X21.02866 Y88.96272 Z-1.84895
N960 X21.21356 Y89.18032 Z-1.8993
N961 X21.4119 Y89.38575 Z-1.94965
N962 X21.62287 Y89.57819 Z-2.
N963 G02 X27.47415 Y82.73989 I24.54851 J86.15904 K-2. R4.5 F500.
N964 X21.62287 Y89.57819 I24.54851 J86.15904 K-2. R4.5
N965 G1 X21.29779 Y89.9581
N966 G02 X27.79922 Y82.35998 I24.54851 J86.15904 K-2. R5.
N967 X21.29779 Y89.9581 I24.54851 J86.15904 K-2. R5.
N968 G0 Z1.
N969 X21.2199 Y83.13311
N970 G1 Z-2.73 F122.5
N971 X21.1762 Y83.17952 Z-2.74124 F122.5
N972 X20.99402 Y83.3994 Z-2.79159
N973 X20.82615 Y83.6304 Z-2.84194
N974 X20.67327 Y83.87158 Z-2.89229
N975 X20.53599 Y84.12196 Z-2.94264
N976 X20.41487 Y84.38055 Z-2.99299
N977 X20.31039 Y84.64631 Z-3.04334
N978 X20.22298 Y84.91815 Z-3.09369
N979 X20.15299 Y85.19499 Z-3.14404
N980 X20.10069 Y85.47571 Z-3.19439
N981 X20.06631 Y85.75919 Z-3.24474
N982 X20.04997 Y86.04427 Z-3.29509
N983 X20.05175 Y86.32982 Z-3.34545
N984 X20.07164 Y86.61467 Z-3.3958
N985 X20.10955 Y86.8977 Z-3.44615
N986 X20.16533 Y87.17775 Z-3.4965
N987 X20.23877 Y87.45369 Z-3.54685
N988 X20.32956 Y87.72443 Z-3.5972
N989 X20.43733 Y87.98886 Z-3.64755
N990 X20.56167 Y88.24592 Z-3.6979
N991 X20.70205 Y88.49458 Z-3.74825
N992 X20.85792 Y88.73384 Z-3.7986
N993 X21.02866 Y88.96272 Z-3.84895
N994 X21.21356 Y89.18032 Z-3.8993
N995 X21.4119 Y89.38575 Z-3.94965
N996 X21.62287 Y89.57819 Z-4.
N997 G02 X27.47415 Y82.73989 I24.54851 J86.15904 K-4. R4.5 F500.
N998 X21.62287 Y89.57819 I24.54851 J86.15904 K-4. R4.5
N999 G1 X21.29779 Y89.9581
N1000 G02 X27.79922 Y82.35998 I24.54851 J86.15904 K-4. R5.
N1001 X21.29779 Y89.9581 I24.54851 J86.15904 K-4. R5.
N1002 G0 Z1.
(2 1/2 Axis Pocketing)
(SlotDrill 2mm Carbide)
N1003 X60.70767 Y27.79063
N1004 G1 Z1.05 F122.5
N1005 Z0.45 F122.5
N1006 X60.74755 Y27.76061 Z0.4412
N1007 X60.91007 Y27.53166 Z0.39169
N1008 X60.74755 Y27.76061 Z0.34218
N1009 X60.53442 Y27.92108 Z0.29514
N1010 X60.29575 Y28.0045 Z0.25056
N1011 X60.05694 Y28.01071 Z0.20844
N1012 X59.84106 Y27.94731 Z0.16876
N1013 X59.66667 Y27.82829 Z0.13154
N1014 X59.54621 Y27.672 Z0.09674
N1015 X59.48516 Y27.49887 Z0.06437
N1016 X59.48204 Y27.32901 Z0.03442
N1017 X59.52913 Y27.17997 Z0.00686
N1018 X59.61387 Y27.06499 Z-0.01833
N1019 X59.72074 Y26.99182 Z-0.04117
N1020 X59.83333 Y26.96226 Z-0.06169
N1021 X59.93642 Y26.97239 Z-0.07996
N1022 X60.01779 Y27.01351 Z-0.09603
N1023 X60.06959 Y27.07363 Z-0.11003
N1024 X60.08907 Y27.13925 Z-0.1221
N1025 X60.07869 Y27.19729 Z-0.13249
N1026 X60.0455 Y27.2369 Z-0.1416
N1027 X60. Y27.25094 Z-0.15
N1028 X60.0455 Y27.2369 F500.
N1029 X60.07869 Y27.19729
N1030 X60.08907 Y27.13925
N1031 X60.06959 Y27.07363
N1032 X60.01779 Y27.01351
N1033 X59.93642 Y26.97239
N1034 X59.83333 Y26.96226
N1035 X59.72074 Y26.99182
N1036 G02 X60.53442 Y27.92108 I60.12559 J27.45819 K-0.15 R0.61758
N1037 X58.72132 Y26.61783 I59.773 J27.06755 K-0.15 R1.1438
N1038 X62. Y27.25094 I60.28368 J27.33304 K-0.15 R1.71828
N1039 X57.6987 Y28.40378 I59.70924 J27.30461 K-0.15 R2.29139
N1040 X61.86789 Y24.71582 I60.22609 J27.06038 K-0.15 R2.86224
N1041 X59.54399 Y30.95346 I59.87964 J27.5268 K-0.15 R3.44306
N1042 X58.33994 Y23.27034 I59.95672 J26.95287 K-0.15 R4.02182
N1043 X63.75905 Y30.37782 I60.17057 J27.49422 K-0.15 R4.60352
N1044 X54.6088 Y26.31098 I59.72878 J27.11851 K-0.15 R5.18327
N1045 X65.69372 Y25.1899 I60.30056 J27.22669 K-0.15 R5.76495
N1046 X55.71079 Y32.31733 I59.74929 J27.41886 K-0.15 R6.34858
N1047 X61.20808 Y20.12942 I60.12647 J26.97528 K-0.15 R6.93078
N1048 X62.84294 Y34.52438 I60.02657 J27.55392 K-0.15 R7.51792
N1049 X53.3451 Y22.13241 I59.81958 J27.00584 K-0.15 R8.10365
N1050 X51.5 Y27.25093 I59.94498 J27.40332 K-0.15 R8.44635
N1051 X68.5 Y27.25095 I60. J27.25094 K-0.15 R8.5
N1052 X51.5 Y27.25093 I60. J27.25094 K-0.15 R8.5
N1053 G0 Z1.
N1054 X60. Y27.25094
N1055 G1 Z-0.3 F122.5
N1056 X60.0455 Y27.2369 F500.
N1057 X60.07869 Y27.19729
N1058 X60.08907 Y27.13925
N1059 X60.06959 Y27.07363
N1060 X60.01779 Y27.01351
N1061 X59.93642 Y26.97239
N1062 X59.83333 Y26.96226
N1063 X59.72074 Y26.99182
N1064 G02 X60.53442 Y27.92108 I60.12559 J27.45819 K-0.3 R0.61758
N1065 X58.72132 Y26.61783 I59.773 J27.06755 K-0.3 R1.1438
N1066 X62. Y27.25094 I60.28368 J27.33304 K-0.3 R1.71828
N1067 X57.6987 Y28.40378 I59.70924 J27.30461 K-0.3 R2.29139
N1068 X61.86789 Y24.71582 I60.22609 J27.06038 K-0.3 R2.86224
N1069 X59.54399 Y30.95346 I59.87964 J27.5268 K-0.3 R3.44306
N1070 X58.33994 Y23.27034 I59.95672 J26.95287 K-0.3 R4.02182
N1071 X63.75905 Y30.37782 I60.17057 J27.49422 K-0.3 R4.60352
N1072 X54.6088 Y26.31098 I59.72878 J27.11851 K-0.3 R5.18327
N1073 X65.69372 Y25.1899 I60.30056 J27.22669 K-0.3 R5.76495
N1074 X55.71079 Y32.31733 I59.74929 J27.41886 K-0.3 R6.34858
N1075 X61.20808 Y20.12942 I60.12647 J26.97528 K-0.3 R6.93078
N1076 X62.84294 Y34.52438 I60.02657 J27.55392 K-0.3 R7.51792
N1077 X53.3451 Y22.13241 I59.81958 J27.00584 K-0.3 R8.10365
N1078 X51.5 Y27.25093 I59.94498 J27.40332 K-0.3 R8.44635
N1079 X68.5 Y27.25095 I60. J27.25094 K-0.3 R8.5
N1080 X51.5 Y27.25093 I60. J27.25094 K-0.3 R8.5
N1081 G0 Z1.
N1082 X60. Y27.25094
N1083 G1 Z-0.45 F122.5
N1084 X60.0455 Y27.2369 F500.
N1085 X60.07869 Y27.19729
N1086 X60.08907 Y27.13925
N1087 X60.06959 Y27.07363
N1088 X60.01779 Y27.01351
N1089 X59.93642 Y26.97239
N1090 X59.83333 Y26.96226
N1091 X59.72074 Y26.99182
N1092 G02 X60.53442 Y27.92108 I60.12559 J27.45819 K-0.45 R0.61758
N1093 X58.72132 Y26.61783 I59.773 J27.06755 K-0.45 R1.1438
N1094 X62. Y27.25094 I60.28368 J27.33304 K-0.45 R1.71828
N1095 X57.6987 Y28.40378 I59.70924 J27.30461 K-0.45 R2.29139
N1096 X61.86789 Y24.71582 I60.22609 J27.06038 K-0.45 R2.86224
N1097 X59.54399 Y30.95346 I59.87964 J27.5268 K-0.45 R3.44306
N1098 X58.33994 Y23.27034 I59.95672 J26.95287 K-0.45 R4.02182
N1099 X63.75905 Y30.37782 I60.17057 J27.49422 K-0.45 R4.60352
N1100 X54.6088 Y26.31098 I59.72878 J27.11851 K-0.45 R5.18327
N1101 X65.69372 Y25.1899 I60.30056 J27.22669 K-0.45 R5.76495
N1102 X55.71079 Y32.31733 I59.74929 J27.41886 K-0.45 R6.34858
N1103 X61.20808 Y20.12942 I60.12647 J26.97528 K-0.45 R6.93078
N1104 X62.84294 Y34.52438 I60.02657 J27.55392 K-0.45 R7.51792
N1105 X53.3451 Y22.13241 I59.81958 J27.00584 K-0.45 R8.10365
N1106 X51.5 Y27.25093 I59.94498 J27.40332 K-0.45 R8.44635
N1107 X68.5 Y27.25095 I60. J27.25094 K-0.45 R8.5
N1108 X51.5 Y27.25093 I60. J27.25094 K-0.45 R8.5
N1109 G0 Z1.
N1110 X60. Y27.25094
N1111 G1 Z-0.6 F122.5
N1112 X60.0455 Y27.2369 F500.
N1113 X60.07869 Y27.19729
N1114 X60.08907 Y27.13925
N1115 X60.06959 Y27.07363
N1116 X60.01779 Y27.01351
N1117 X59.93642 Y26.97239
N1118 X59.83333 Y26.96226
N1119 X59.72074 Y26.99182
N1120 G02 X60.53442 Y27.92108 I60.12559 J27.45819 K-0.6 R0.61758
N1121 X58.72132 Y26.61783 I59.773 J27.06755 K-0.6 R1.1438
N1122 X62. Y27.25094 I60.28368 J27.33304 K-0.6 R1.71828
N1123 X57.6987 Y28.40378 I59.70924 J27.30461 K-0.6 R2.29139
N1124 X61.86789 Y24.71582 I60.22609 J27.06038 K-0.6 R2.86224
N1125 X59.54399 Y30.95346 I59.87964 J27.5268 K-0.6 R3.44306
N1126 X58.33994 Y23.27034 I59.95672 J26.95287 K-0.6 R4.02182
N1127 X63.75905 Y30.37782 I60.17057 J27.49422 K-0.6 R4.60352
N1128 X54.6088 Y26.31098 I59.72878 J27.11851 K-0.6 R5.18327
N1129 X65.69372 Y25.1899 I60.30056 J27.22669 K-0.6 R5.76495
N1130 X55.71079 Y32.31733 I59.74929 J27.41886 K-0.6 R6.34858
N1131 X61.20808 Y20.12942 I60.12647 J26.97528 K-0.6 R6.93078
N1132 X62.84294 Y34.52438 I60.02657 J27.55392 K-0.6 R7.51792
N1133 X53.3451 Y22.13241 I59.81958 J27.00584 K-0.6 R8.10365
N1134 X51.5 Y27.25093 I59.94498 J27.40332 K-0.6 R8.44635
N1135 X68.5 Y27.25095 I60. J27.25094 K-0.6 R8.5
N1136 X51.5 Y27.25093 I60. J27.25094 K-0.6 R8.5
N1137 G0 Z1.
N1138 X60. Y27.25094
N1139 G1 Z-0.75 F122.5
N1140 X60.0455 Y27.2369 F500.
N1141 X60.07869 Y27.19729
N1142 X60.08907 Y27.13925
N1143 X60.06959 Y27.07363
N1144 X60.01779 Y27.01351
N1145 X59.93642 Y26.97239
N1146 X59.83333 Y26.96226
N1147 X59.72074 Y26.99182
N1148 G02 X60.53442 Y27.92108 I60.12559 J27.45819 K-0.75 R0.61758
N1149 X58.72132 Y26.61783 I59.773 J27.06755 K-0.75 R1.1438
N1150 X62. Y27.25094 I60.28368 J27.33304 K-0.75 R1.71828
N1151 X57.6987 Y28.40378 I59.70924 J27.30461 K-0.75 R2.29139
N1152 X61.86789 Y24.71582 I60.22609 J27.06038 K-0.75 R2.86224
N1153 X59.54399 Y30.95346 I59.87964 J27.5268 K-0.75 R3.44306
N1154 X58.33994 Y23.27034 I59.95672 J26.95287 K-0.75 R4.02182
N1155 X63.75905 Y30.37782 I60.17057 J27.49422 K-0.75 R4.60352
N1156 X54.6088 Y26.31098 I59.72878 J27.11851 K-0.75 R5.18327
N1157 X65.69372 Y25.1899 I60.30056 J27.22669 K-0.75 R5.76495
N1158 X55.71079 Y32.31733 I59.74929 J27.41886 K-0.75 R6.34858
N1159 X61.20808 Y20.12942 I60.12647 J26.97528 K-0.75 R6.93078
N1160 X62.84294 Y34.52438 I60.02657 J27.55392 K-0.75 R7.51792
N1161 X53.3451 Y22.13241 I59.81958 J27.00584 K-0.75 R8.10365
N1162 X51.5 Y27.25093 I59.94498 J27.40332 K-0.75 R8.44635
N1163 X68.5 Y27.25095 I60. J27.25094 K-0.75 R8.5
N1164 X51.5 Y27.25093 I60. J27.25094 K-0.75 R8.5
N1165 G0 Z1.
N1166 X60. Y27.25094
N1167 G1 Z-0.9 F122.5
N1168 X60.0455 Y27.2369 F500.
N1169 X60.07869 Y27.19729
N1170 X60.08907 Y27.13925
N1171 X60.06959 Y27.07363
N1172 X60.01779 Y27.01351
N1173 X59.93642 Y26.97239
N1174 X59.83333 Y26.96226
N1175 X59.72074 Y26.99182
N1176 G02 X60.53442 Y27.92108 I60.12559 J27.45819 K-0.9 R0.61758
N1177 X58.72132 Y26.61783 I59.773 J27.06755 K-0.9 R1.1438
N1178 X62. Y27.25094 I60.28368 J27.33304 K-0.9 R1.71828
N1179 X57.6987 Y28.40378 I59.70924 J27.30461 K-0.9 R2.29139
N1180 X61.86789 Y24.71582 I60.22609 J27.06038 K-0.9 R2.86224
N1181 X59.54399 Y30.95346 I59.87964 J27.5268 K-0.9 R3.44306
N1182 X58.33994 Y23.27034 I59.95672 J26.95287 K-0.9 R4.02182
N1183 X63.75905 Y30.37782 I60.17057 J27.49422 K-0.9 R4.60352
N1184 X54.6088 Y26.31098 I59.72878 J27.11851 K-0.9 R5.18327
N1185 X65.69372 Y25.1899 I60.30056 J27.22669 K-0.9 R5.76495
N1186 X55.71079 Y32.31733 I59.74929 J27.41886 K-0.9 R6.34858
N1187 X61.20808 Y20.12942 I60.12647 J26.97528 K-0.9 R6.93078
N1188 X62.84294 Y34.52438 I60.02657 J27.55392 K-0.9 R7.51792
N1189 X53.3451 Y22.13241 I59.81958 J27.00584 K-0.9 R8.10365
N1190 X51.5 Y27.25093 I59.94498 J27.40332 K-0.9 R8.44635
N1191 X68.5 Y27.25095 I60. J27.25094 K-0.9 R8.5
N1192 X51.5 Y27.25093 I60. J27.25094 K-0.9 R8.5
N1193 G0 Z1.
N1194 X60. Y27.25094
N1195 G1 Z-1.05 F122.5
N1196 X60.0455 Y27.2369 F500.
N1197 X60.07869 Y27.19729
N1198 X60.08907 Y27.13925
N1199 X60.06959 Y27.07363
N1200 X60.01779 Y27.01351
N1201 X59.93642 Y26.97239
N1202 X59.83333 Y26.96226
N1203 X59.72074 Y26.99182
N1204 G02 X60.53442 Y27.92108 I60.12559 J27.45819 K-1.05 R0.61758
N1205 X58.72132 Y26.61783 I59.773 J27.06755 K-1.05 R1.1438
N1206 X62. Y27.25094 I60.28368 J27.33304 K-1.05 R1.71828
N1207 X57.6987 Y28.40378 I59.70924 J27.30461 K-1.05 R2.29139
N1208 X61.86789 Y24.71582 I60.22609 J27.06038 K-1.05 R2.86224
N1209 X59.54399 Y30.95346 I59.87964 J27.5268 K-1.05 R3.44306
N1210 X58.33994 Y23.27034 I59.95672 J26.95287 K-1.05 R4.02182
N1211 X63.75905 Y30.37782 I60.17057 J27.49422 K-1.05 R4.60352
N1212 X54.6088 Y26.31098 I59.72878 J27.11851 K-1.05 R5.18327
N1213 X65.69372 Y25.1899 I60.30056 J27.22669 K-1.05 R5.76495
N1214 X55.71079 Y32.31733 I59.74929 J27.41886 K-1.05 R6.34858
N1215 X61.20808 Y20.12942 I60.12647 J26.97528 K-1.05 R6.93078
N1216 X62.84294 Y34.52438 I60.02657 J27.55392 K-1.05 R7.51792
N1217 X53.3451 Y22.13241 I59.81958 J27.00584 K-1.05 R8.10365
N1218 X51.5 Y27.25093 I59.94498 J27.40332 K-1.05 R8.44635
N1219 X68.5 Y27.25095 I60. J27.25094 K-1.05 R8.5
N1220 X51.5 Y27.25093 I60. J27.25094 K-1.05 R8.5
N1221 G0 Z1.
N1222 X60. Y27.25094
N1223 G1 Z-1.2 F122.5
N1224 X60.0455 Y27.2369 F500.
N1225 X60.07869 Y27.19729
N1226 X60.08907 Y27.13925
N1227 X60.06959 Y27.07363
N1228 X60.01779 Y27.01351
N1229 X59.93642 Y26.97239
N1230 X59.83333 Y26.96226
N1231 X59.72074 Y26.99182
N1232 G02 X60.53442 Y27.92108 I60.12559 J27.45819 K-1.2 R0.61758
N1233 X58.72132 Y26.61783 I59.773 J27.06755 K-1.2 R1.1438
N1234 X62. Y27.25094 I60.28368 J27.33304 K-1.2 R1.71828
N1235 X57.6987 Y28.40378 I59.70924 J27.30461 K-1.2 R2.29139
N1236 X61.86789 Y24.71582 I60.22609 J27.06038 K-1.2 R2.86224
N1237 X59.54399 Y30.95346 I59.87964 J27.5268 K-1.2 R3.44306
N1238 X58.33994 Y23.27034 I59.95672 J26.95287 K-1.2 R4.02182
N1239 X63.75905 Y30.37782 I60.17057 J27.49422 K-1.2 R4.60352
N1240 X54.6088 Y26.31098 I59.72878 J27.11851 K-1.2 R5.18327
N1241 X65.69372 Y25.1899 I60.30056 J27.22669 K-1.2 R5.76495
N1242 X55.71079 Y32.31733 I59.74929 J27.41886 K-1.2 R6.34858
N1243 X61.20808 Y20.12942 I60.12647 J26.97528 K-1.2 R6.93078
N1244 X62.84294 Y34.52438 I60.02657 J27.55392 K-1.2 R7.51792
N1245 X53.3451 Y22.13241 I59.81958 J27.00584 K-1.2 R8.10365
N1246 X51.5 Y27.25093 I59.94498 J27.40332 K-1.2 R8.44635
N1247 X68.5 Y27.25095 I60. J27.25094 K-1.2 R8.5
N1248 X51.5 Y27.25093 I60. J27.25094 K-1.2 R8.5
N1249 G0 Z1.
N1250 X60. Y27.25094
N1251 G1 Z-1.35 F122.5
N1252 X60.0455 Y27.2369 F500.
N1253 X60.07869 Y27.19729
N1254 X60.08907 Y27.13925
N1255 X60.06959 Y27.07363
N1256 X60.01779 Y27.01351
N1257 X59.93642 Y26.97239
N1258 X59.83333 Y26.96226
N1259 X59.72074 Y26.99182
N1260 G02 X60.53442 Y27.92108 I60.12559 J27.45819 K-1.35 R0.61758
N1261 X58.72132 Y26.61783 I59.773 J27.06755 K-1.35 R1.1438
N1262 X62. Y27.25094 I60.28368 J27.33304 K-1.35 R1.71828
N1263 X57.6987 Y28.40378 I59.70924 J27.30461 K-1.35 R2.29139
N1264 X61.86789 Y24.71582 I60.22609 J27.06038 K-1.35 R2.86224
N1265 X59.54399 Y30.95346 I59.87964 J27.5268 K-1.35 R3.44306
N1266 X58.33994 Y23.27034 I59.95672 J26.95287 K-1.35 R4.02182
N1267 X63.75905 Y30.37782 I60.17057 J27.49422 K-1.35 R4.60352
N1268 X54.6088 Y26.31098 I59.72878 J27.11851 K-1.35 R5.18327
N1269 X65.69372 Y25.1899 I60.30056 J27.22669 K-1.35 R5.76495
N1270 X55.71079 Y32.31733 I59.74929 J27.41886 K-1.35 R6.34858
N1271 X61.20808 Y20.12942 I60.12647 J26.97528 K-1.35 R6.93078
N1272 X62.84294 Y34.52438 I60.02657 J27.55392 K-1.35 R7.51792
N1273 X53.3451 Y22.13241 I59.81958 J27.00584 K-1.35 R8.10365
N1274 X51.5 Y27.25093 I59.94498 J27.40332 K-1.35 R8.44635
N1275 X68.5 Y27.25095 I60. J27.25094 K-1.35 R8.5
N1276 X51.5 Y27.25093 I60. J27.25094 K-1.35 R8.5
N1277 G0 Z1.
N1278 X60. Y27.25094
N1279 G1 Z-1.5 F122.5
N1280 X60.0455 Y27.2369 F500.
N1281 X60.07869 Y27.19729
N1282 X60.08907 Y27.13925
N1283 X60.06959 Y27.07363
N1284 X60.01779 Y27.01351
N1285 X59.93642 Y26.97239
N1286 X59.83333 Y26.96226
N1287 X59.72074 Y26.99182
N1288 G02 X60.53442 Y27.92108 I60.12559 J27.45819 K-1.5 R0.61758
N1289 X58.72132 Y26.61783 I59.773 J27.06755 K-1.5 R1.1438
N1290 X62. Y27.25094 I60.28368 J27.33304 K-1.5 R1.71828
N1291 X57.6987 Y28.40378 I59.70924 J27.30461 K-1.5 R2.29139
N1292 X61.86789 Y24.71582 I60.22609 J27.06038 K-1.5 R2.86224
N1293 X59.54399 Y30.95346 I59.87964 J27.5268 K-1.5 R3.44306
N1294 X58.33994 Y23.27034 I59.95672 J26.95287 K-1.5 R4.02182
N1295 X63.75905 Y30.37782 I60.17057 J27.49422 K-1.5 R4.60352
N1296 X54.6088 Y26.31098 I59.72878 J27.11851 K-1.5 R5.18327
N1297 X65.69372 Y25.1899 I60.30056 J27.22669 K-1.5 R5.76495
N1298 X55.71079 Y32.31733 I59.74929 J27.41886 K-1.5 R6.34858
N1299 X61.20808 Y20.12942 I60.12647 J26.97528 K-1.5 R6.93078
N1300 X62.84294 Y34.52438 I60.02657 J27.55392 K-1.5 R7.51792
N1301 X53.3451 Y22.13241 I59.81958 J27.00584 K-1.5 R8.10365
N1302 X51.5 Y27.25093 I59.94498 J27.40332 K-1.5 R8.44635
N1303 X68.5 Y27.25095 I60. J27.25094 K-1.5 R8.5
N1304 X51.5 Y27.25093 I60. J27.25094 K-1.5 R8.5
N1305 G1 X52.22249 Y26.47439 Z-0.43934 F735.
N1306 Z0.16066
N1307 G0 Z1.
N1308 X145.25618 Y86.69873
N1309 G1 Z1.05 F122.5
N1310 Z0.45 F122.5
N1311 X145.29606 Y86.66871 Z0.4412
N1312 X145.45858 Y86.43976 Z0.39169
N1313 X145.29606 Y86.66871 Z0.34218
N1314 X145.08293 Y86.82918 Z0.29514
N1315 X144.84426 Y86.9126 Z0.25056
N1316 X144.60545 Y86.91881 Z0.20844
N1317 X144.38956 Y86.85542 Z0.16876
N1318 X144.21517 Y86.73639 Z0.13154
N1319 X144.09471 Y86.5801 Z0.09674
N1320 X144.03367 Y86.40697 Z0.06437
N1321 X144.03055 Y86.23711 Z0.03442
N1322 X144.07764 Y86.08807 Z0.00686
N1323 X144.16238 Y85.97309 Z-0.01833
N1324 X144.26925 Y85.89992 Z-0.04117
N1325 X144.38184 Y85.87036 Z-0.06169
N1326 X144.48493 Y85.88049 Z-0.07996
N1327 X144.5663 Y85.92161 Z-0.09603
N1328 X144.6181 Y85.98173 Z-0.11003
N1329 X144.63758 Y86.04735 Z-0.1221
N1330 X144.6272 Y86.10539 Z-0.13249
N1331 X144.59401 Y86.145 Z-0.1416
N1332 X144.54851 Y86.15904 Z-0.15
N1333 X144.59401 Y86.145 F500.
N1334 X144.6272 Y86.10539
N1335 X144.63758 Y86.04735
N1336 X144.6181 Y85.98173
N1337 X144.5663 Y85.92161
N1338 X144.48493 Y85.88049
N1339 X144.38184 Y85.87036
N1340 X144.26925 Y85.89992
N1341 G02 X145.08293 Y86.82918 I144.6741 J86.36629 K-0.15 R0.61758
N1342 X143.26983 Y85.52593 I144.3215 J85.97565 K-0.15 R1.1438
N1343 X146.54851 Y86.15904 I144.83219 J86.24114 K-0.15 R1.71828
N1344 X142.24721 Y87.31188 I144.25775 J86.21271 K-0.15 R2.29139
N1345 X146.41639 Y83.62392 I144.7746 J85.96848 K-0.15 R2.86224
N1346 X144.0925 Y89.86156 I144.42815 J86.4349 K-0.15 R3.44306
N1347 X142.88844 Y82.17844 I144.50523 J85.86097 K-0.15 R4.02182
N1348 X148.30756 Y89.28592 I144.71907 J86.40232 K-0.15 R4.60352
N1349 X139.15731 Y85.21908 I144.27728 J86.02661 K-0.15 R5.18327
N1350 X150.24223 Y84.098 I144.84907 J86.13479 K-0.15 R5.76495
N1351 X140.2593 Y91.22543 I144.2978 J86.32695 K-0.15 R6.34858
N1352 X145.75659 Y79.03753 I144.67498 J85.88338 K-0.15 R6.93078
N1353 X147.39145 Y93.43248 I144.57507 J86.46202 K-0.15 R7.51792
N1354 X137.89361 Y81.04051 I144.36808 J85.91394 K-0.15 R8.10365
N1355 X136.04851 Y86.15903 I144.49349 J86.31142 K-0.15 R8.44635
N1356 X153.04851 Y86.15905 I144.54851 J86.15904 K-0.15 R8.5
N1357 X136.04851 Y86.15903 I144.54851 J86.15904 K-0.15 R8.5
N1358 G0 Z1.
N1359 X144.54851 Y86.15904
N1360 G1 Z-0.3 F122.5
N1361 X144.59401 Y86.145 F500.
N1362 X144.6272 Y86.10539
N1363 X144.63758 Y86.04735
N1364 X144.6181 Y85.98173
N1365 X144.5663 Y85.92161
N1366 X144.48493 Y85.88049
N1367 X144.38184 Y85.87036
N1368 X144.26925 Y85.89992
N1369 G02 X145.08293 Y86.82918 I144.6741 J86.36629 K-0.3 R0.61758
N1370 X143.26983 Y85.52593 I144.3215 J85.97565 K-0.3 R1.1438
N1371 X146.54851 Y86.15904 I144.83219 J86.24114 K-0.3 R1.71828
N1372 X142.24721 Y87.31188 I144.25775 J86.21271 K-0.3 R2.29139
N1373 X146.41639 Y83.62392 I144.7746 J85.96848 K-0.3 R2.86224
N1374 X144.0925 Y89.86156 I144.42815 J86.4349 K-0.3 R3.44306
N1375 X142.88844 Y82.17844 I144.50523 J85.86097 K-0.3 R4.02182
N1376 X148.30756 Y89.28592 I144.71907 J86.40232 K-0.3 R4.60352
N1377 X139.15731 Y85.21908 I144.27728 J86.02661 K-0.3 R5.18327
N1378 X150.24223 Y84.098 I144.84907 J86.13479 K-0.3 R5.76495
N1379 X140.2593 Y91.22543 I144.2978 J86.32695 K-0.3 R6.34858
N1380 X145.75659 Y79.03753 I144.67498 J85.88338 K-0.3 R6.93078
N1381 X147.39145 Y93.43248 I144.57507 J86.46202 K-0.3 R7.51792
N1382 X137.89361 Y81.04051 I144.36808 J85.91394 K-0.3 R8.10365
N1383 X136.04851 Y86.15903 I144.49349 J86.31142 K-0.3 R8.44635
N1384 X153.04851 Y86.15905 I144.54851 J86.15904 K-0.3 R8.5
N1385 X136.04851 Y86.15903 I144.54851 J86.15904 K-0.3 R8.5
N1386 G0 Z1.
N1387 X144.54851 Y86.15904
N1388 G1 Z-0.45 F122.5
N1389 X144.59401 Y86.145 F500.
N1390 X144.6272 Y86.10539
N1391 X144.63758 Y86.04735
N1392 X144.6181 Y85.98173
N1393 X144.5663 Y85.92161
N1394 X144.48493 Y85.88049
N1395 X144.38184 Y85.87036
N1396 X144.26925 Y85.89992
N1397 G02 X145.08293 Y86.82918 I144.6741 J86.36629 K-0.45 R0.61758
N1398 X143.26983 Y85.52593 I144.3215 J85.97565 K-0.45 R1.1438
N1399 X146.54851 Y86.15904 I144.83219 J86.24114 K-0.45 R1.71828
N1400 X142.24721 Y87.31188 I144.25775 J86.21271 K-0.45 R2.29139
N1401 X146.41639 Y83.62392 I144.7746 J85.96848 K-0.45 R2.86224
N1402 X144.0925 Y89.86156 I144.42815 J86.4349 K-0.45 R3.44306
N1403 X142.88844 Y82.17844 I144.50523 J85.86097 K-0.45 R4.02182
N1404 X148.30756 Y89.28592 I144.71907 J86.40232 K-0.45 R4.60352
N1405 X139.15731 Y85.21908 I144.27728 J86.02661 K-0.45 R5.18327
N1406 X150.24223 Y84.098 I144.84907 J86.13479 K-0.45 R5.76495
N1407 X140.2593 Y91.22543 I144.2978 J86.32695 K-0.45 R6.34858
N1408 X145.75659 Y79.03753 I144.67498 J85.88338 K-0.45 R6.93078
N1409 X147.39145 Y93.43248 I144.57507 J86.46202 K-0.45 R7.51792
N1410 X137.89361 Y81.04051 I144.36808 J85.91394 K-0.45 R8.10365
N1411 X136.04851 Y86.15903 I144.49349 J86.31142 K-0.45 R8.44635
N1412 X153.04851 Y86.15905 I144.54851 J86.15904 K-0.45 R8.5
N1413 X136.04851 Y86.15903 I144.54851 J86.15904 K-0.45 R8.5
N1414 G0 Z1.
N1415 X144.54851 Y86.15904
N1416 G1 Z-0.6 F122.5
N1417 X144.59401 Y86.145 F500.
N1418 X144.6272 Y86.10539
N1419 X144.63758 Y86.04735
N1420 X144.6181 Y85.98173
N1421 X144.5663 Y85.92161
N1422 X144.48493 Y85.88049
N1423 X144.38184 Y85.87036
N1424 X144.26925 Y85.89992
N1425 G02 X145.08293 Y86.82918 I144.6741 J86.36629 K-0.6 R0.61758
N1426 X143.26983 Y85.52593 I144.3215 J85.97565 K-0.6 R1.1438
N1427 X146.54851 Y86.15904 I144.83219 J86.24114 K-0.6 R1.71828
N1428 X142.24721 Y87.31188 I144.25775 J86.21271 K-0.6 R2.29139
N1429 X146.41639 Y83.62392 I144.7746 J85.96848 K-0.6 R2.86224
N1430 X144.0925 Y89.86156 I144.42815 J86.4349 K-0.6 R3.44306
N1431 X142.88844 Y82.17844 I144.50523 J85.86097 K-0.6 R4.02182
N1432 X148.30756 Y89.28592 I144.71907 J86.40232 K-0.6 R4.60352
N1433 X139.15731 Y85.21908 I144.27728 J86.02661 K-0.6 R5.18327
N1434 X150.24223 Y84.098 I144.84907 J86.13479 K-0.6 R5.76495
N1435 X140.2593 Y91.22543 I144.2978 J86.32695 K-0.6 R6.34858
N1436 X145.75659 Y79.03753 I144.67498 J85.88338 K-0.6 R6.93078
N1437 X147.39145 Y93.43248 I144.57507 J86.46202 K-0.6 R7.51792
N1438 X137.89361 Y81.04051 I144.36808 J85.91394 K-0.6 R8.10365
N1439 X136.04851 Y86.15903 I144.49349 J86.31142 K-0.6 R8.44635
N1440 X153.04851 Y86.15905 I144.54851 J86.15904 K-0.6 R8.5
N1441 X136.04851 Y86.15903 I144.54851 J86.15904 K-0.6 R8.5
N1442 G0 Z1.
N1443 X144.54851 Y86.15904
N1444 G1 Z-0.75 F122.5
N1445 X144.59401 Y86.145 F500.
N1446 X144.6272 Y86.10539
N1447 X144.63758 Y86.04735
N1448 X144.6181 Y85.98173
N1449 X144.5663 Y85.92161
N1450 X144.48493 Y85.88049
N1451 X144.38184 Y85.87036
N1452 X144.26925 Y85.89992
N1453 G02 X145.08293 Y86.82918 I144.6741 J86.36629 K-0.75 R0.61758
N1454 X143.26983 Y85.52593 I144.3215 J85.97565 K-0.75 R1.1438
N1455 X146.54851 Y86.15904 I144.83219 J86.24114 K-0.75 R1.71828
N1456 X142.24721 Y87.31188 I144.25775 J86.21271 K-0.75 R2.29139
N1457 X146.41639 Y83.62392 I144.7746 J85.96848 K-0.75 R2.86224
N1458 X144.0925 Y89.86156 I144.42815 J86.4349 K-0.75 R3.44306
N1459 X142.88844 Y82.17844 I144.50523 J85.86097 K-0.75 R4.02182
N1460 X148.30756 Y89.28592 I144.71907 J86.40232 K-0.75 R4.60352
N1461 X139.15731 Y85.21908 I144.27728 J86.02661 K-0.75 R5.18327
N1462 X150.24223 Y84.098 I144.84907 J86.13479 K-0.75 R5.76495
N1463 X140.2593 Y91.22543 I144.2978 J86.32695 K-0.75 R6.34858
N1464 X145.75659 Y79.03753 I144.67498 J85.88338 K-0.75 R6.93078
N1465 X147.39145 Y93.43248 I144.57507 J86.46202 K-0.75 R7.51792
N1466 X137.89361 Y81.04051 I144.36808 J85.91394 K-0.75 R8.10365
N1467 X136.04851 Y86.15903 I144.49349 J86.31142 K-0.75 R8.44635
N1468 X153.04851 Y86.15905 I144.54851 J86.15904 K-0.75 R8.5
N1469 X136.04851 Y86.15903 I144.54851 J86.15904 K-0.75 R8.5
N1470 G0 Z1.
N1471 X144.54851 Y86.15904
N1472 G1 Z-0.9 F122.5
N1473 X144.59401 Y86.145 F500.
N1474 X144.6272 Y86.10539
N1475 X144.63758 Y86.04735
N1476 X144.6181 Y85.98173
N1477 X144.5663 Y85.92161
N1478 X144.48493 Y85.88049
N1479 X144.38184 Y85.87036
N1480 X144.26925 Y85.89992
N1481 G02 X145.08293 Y86.82918 I144.6741 J86.36629 K-0.9 R0.61758
N1482 X143.26983 Y85.52593 I144.3215 J85.97565 K-0.9 R1.1438
N1483 X146.54851 Y86.15904 I144.83219 J86.24114 K-0.9 R1.71828
N1484 X142.24721 Y87.31188 I144.25775 J86.21271 K-0.9 R2.29139
N1485 X146.41639 Y83.62392 I144.7746 J85.96848 K-0.9 R2.86224
N1486 X144.0925 Y89.86156 I144.42815 J86.4349 K-0.9 R3.44306
N1487 X142.88844 Y82.17844 I144.50523 J85.86097 K-0.9 R4.02182
N1488 X148.30756 Y89.28592 I144.71907 J86.40232 K-0.9 R4.60352
N1489 X139.15731 Y85.21908 I144.27728 J86.02661 K-0.9 R5.18327
N1490 X150.24223 Y84.098 I144.84907 J86.13479 K-0.9 R5.76495
N1491 X140.2593 Y91.22543 I144.2978 J86.32695 K-0.9 R6.34858
N1492 X145.75659 Y79.03753 I144.67498 J85.88338 K-0.9 R6.93078
N1493 X147.39145 Y93.43248 I144.57507 J86.46202 K-0.9 R7.51792
N1494 X137.89361 Y81.04051 I144.36808 J85.91394 K-0.9 R8.10365
N1495 X136.04851 Y86.15903 I144.49349 J86.31142 K-0.9 R8.44635
N1496 X153.04851 Y86.15905 I144.54851 J86.15904 K-0.9 R8.5
N1497 X136.04851 Y86.15903 I144.54851 J86.15904 K-0.9 R8.5
N1498 G0 Z1.
N1499 X144.54851 Y86.15904
N1500 G1 Z-1.05 F122.5
N1501 X144.59401 Y86.145 F500.
N1502 X144.6272 Y86.10539
N1503 X144.63758 Y86.04735
N1504 X144.6181 Y85.98173
N1505 X144.5663 Y85.92161
N1506 X144.48493 Y85.88049
N1507 X144.38184 Y85.87036
N1508 X144.26925 Y85.89992
N1509 G02 X145.08293 Y86.82918 I144.6741 J86.36629 K-1.05 R0.61758
N1510 X143.26983 Y85.52593 I144.3215 J85.97565 K-1.05 R1.1438
N1511 X146.54851 Y86.15904 I144.83219 J86.24114 K-1.05 R1.71828
N1512 X142.24721 Y87.31188 I144.25775 J86.21271 K-1.05 R2.29139
N1513 X146.41639 Y83.62392 I144.7746 J85.96848 K-1.05 R2.86224
N1514 X144.0925 Y89.86156 I144.42815 J86.4349 K-1.05 R3.44306
N1515 X142.88844 Y82.17844 I144.50523 J85.86097 K-1.05 R4.02182
N1516 X148.30756 Y89.28592 I144.71907 J86.40232 K-1.05 R4.60352
N1517 X139.15731 Y85.21908 I144.27728 J86.02661 K-1.05 R5.18327
N1518 X150.24223 Y84.098 I144.84907 J86.13479 K-1.05 R5.76495
N1519 X140.2593 Y91.22543 I144.2978 J86.32695 K-1.05 R6.34858
N1520 X145.75659 Y79.03753 I144.67498 J85.88338 K-1.05 R6.93078
N1521 X147.39145 Y93.43248 I144.57507 J86.46202 K-1.05 R7.51792
N1522 X137.89361 Y81.04051 I144.36808 J85.91394 K-1.05 R8.10365
N1523 X136.04851 Y86.15903 I144.49349 J86.31142 K-1.05 R8.44635
N1524 X153.04851 Y86.15905 I144.54851 J86.15904 K-1.05 R8.5
N1525 X136.04851 Y86.15903 I144.54851 J86.15904 K-1.05 R8.5
N1526 G0 Z1.
N1527 X144.54851 Y86.15904
N1528 G1 Z-1.2 F122.5
N1529 X144.59401 Y86.145 F500.
N1530 X144.6272 Y86.10539
N1531 X144.63758 Y86.04735
N1532 X144.6181 Y85.98173
N1533 X144.5663 Y85.92161
N1534 X144.48493 Y85.88049
N1535 X144.38184 Y85.87036
N1536 X144.26925 Y85.89992
N1537 G02 X145.08293 Y86.82918 I144.6741 J86.36629 K-1.2 R0.61758
N1538 X143.26983 Y85.52593 I144.3215 J85.97565 K-1.2 R1.1438
N1539 X146.54851 Y86.15904 I144.83219 J86.24114 K-1.2 R1.71828
N1540 X142.24721 Y87.31188 I144.25775 J86.21271 K-1.2 R2.29139
N1541 X146.41639 Y83.62392 I144.7746 J85.96848 K-1.2 R2.86224
N1542 X144.0925 Y89.86156 I144.42815 J86.4349 K-1.2 R3.44306
N1543 X142.88844 Y82.17844 I144.50523 J85.86097 K-1.2 R4.02182
N1544 X148.30756 Y89.28592 I144.71907 J86.40232 K-1.2 R4.60352
N1545 X139.15731 Y85.21908 I144.27728 J86.02661 K-1.2 R5.18327
N1546 X150.24223 Y84.098 I144.84907 J86.13479 K-1.2 R5.76495
N1547 X140.2593 Y91.22543 I144.2978 J86.32695 K-1.2 R6.34858
N1548 X145.75659 Y79.03753 I144.67498 J85.88338 K-1.2 R6.93078
N1549 X147.39145 Y93.43248 I144.57507 J86.46202 K-1.2 R7.51792
N1550 X137.89361 Y81.04051 I144.36808 J85.91394 K-1.2 R8.10365
N1551 X136.04851 Y86.15903 I144.49349 J86.31142 K-1.2 R8.44635
N1552 X153.04851 Y86.15905 I144.54851 J86.15904 K-1.2 R8.5
N1553 X136.04851 Y86.15903 I144.54851 J86.15904 K-1.2 R8.5
N1554 G0 Z1.
N1555 X144.54851 Y86.15904
N1556 G1 Z-1.35 F122.5
N1557 X144.59401 Y86.145 F500.
N1558 X144.6272 Y86.10539
N1559 X144.63758 Y86.04735
N1560 X144.6181 Y85.98173
N1561 X144.5663 Y85.92161
N1562 X144.48493 Y85.88049
N1563 X144.38184 Y85.87036
N1564 X144.26925 Y85.89992
N1565 G02 X145.08293 Y86.82918 I144.6741 J86.36629 K-1.35 R0.61758
N1566 X143.26983 Y85.52593 I144.3215 J85.97565 K-1.35 R1.1438
N1567 X146.54851 Y86.15904 I144.83219 J86.24114 K-1.35 R1.71828
N1568 X142.24721 Y87.31188 I144.25775 J86.21271 K-1.35 R2.29139
N1569 X146.41639 Y83.62392 I144.7746 J85.96848 K-1.35 R2.86224
N1570 X144.0925 Y89.86156 I144.42815 J86.4349 K-1.35 R3.44306
N1571 X142.88844 Y82.17844 I144.50523 J85.86097 K-1.35 R4.02182
N1572 X148.30756 Y89.28592 I144.71907 J86.40232 K-1.35 R4.60352
N1573 X139.15731 Y85.21908 I144.27728 J86.02661 K-1.35 R5.18327
N1574 X150.24223 Y84.098 I144.84907 J86.13479 K-1.35 R5.76495
N1575 X140.2593 Y91.22543 I144.2978 J86.32695 K-1.35 R6.34858
N1576 X145.75659 Y79.03753 I144.67498 J85.88338 K-1.35 R6.93078
N1577 X147.39145 Y93.43248 I144.57507 J86.46202 K-1.35 R7.51792
N1578 X137.89361 Y81.04051 I144.36808 J85.91394 K-1.35 R8.10365
N1579 X136.04851 Y86.15903 I144.49349 J86.31142 K-1.35 R8.44635
N1580 X153.04851 Y86.15905 I144.54851 J86.15904 K-1.35 R8.5
N1581 X136.04851 Y86.15903 I144.54851 J86.15904 K-1.35 R8.5
N1582 G0 Z1.
N1583 X144.54851 Y86.15904
N1584 G1 Z-1.5 F122.5
N1585 X144.59401 Y86.145 F500.
N1586 X144.6272 Y86.10539
N1587 X144.63758 Y86.04735
N1588 X144.6181 Y85.98173
N1589 X144.5663 Y85.92161
N1590 X144.48493 Y85.88049
N1591 X144.38184 Y85.87036
N1592 X144.26925 Y85.89992
N1593 G02 X145.08293 Y86.82918 I144.6741 J86.36629 K-1.5 R0.61758
N1594 X143.26983 Y85.52593 I144.3215 J85.97565 K-1.5 R1.1438
N1595 X146.54851 Y86.15904 I144.83219 J86.24114 K-1.5 R1.71828
N1596 X142.24721 Y87.31188 I144.25775 J86.21271 K-1.5 R2.29139
N1597 X146.41639 Y83.62392 I144.7746 J85.96848 K-1.5 R2.86224
N1598 X144.0925 Y89.86156 I144.42815 J86.4349 K-1.5 R3.44306
N1599 X142.88844 Y82.17844 I144.50523 J85.86097 K-1.5 R4.02182
N1600 X148.30756 Y89.28592 I144.71907 J86.40232 K-1.5 R4.60352
N1601 X139.15731 Y85.21908 I144.27728 J86.02661 K-1.5 R5.18327
N1602 X150.24223 Y84.098 I144.84907 J86.13479 K-1.5 R5.76495
N1603 X140.2593 Y91.22543 I144.2978 J86.32695 K-1.5 R6.34858
N1604 X145.75659 Y79.03753 I144.67498 J85.88338 K-1.5 R6.93078
N1605 X147.39145 Y93.43248 I144.57507 J86.46202 K-1.5 R7.51792
N1606 X137.89361 Y81.04051 I144.36808 J85.91394 K-1.5 R8.10365
N1607 X136.04851 Y86.15903 I144.49349 J86.31142 K-1.5 R8.44635
N1608 X153.04851 Y86.15905 I144.54851 J86.15904 K-1.5 R8.5
N1609 X136.04851 Y86.15903 I144.54851 J86.15904 K-1.5 R8.5
N1610 G1 X136.58849 Y87.07195 Z-0.43934 F735.
N1611 Z0.16066
N1612 G0 Z1.
(2 1/2 Axis Profiling)
(SlotDrill 2mm Carbide)
N1613 X176.69597 Y58.7958
N1614 G1 Z-0.73 F122.5
N1615 X169.4997 Y59.0959 Z-2. F122.5
N1616 X23.67351 Y65.17728 F500.
N1617 G02 Y107.1408 I24.54851 J86.15904 K-2. R21.
N1618 G1 X197.96137 Y114.40911
N1619 G02 X198.89394 Y113.86417 I198.00303 J113.40998 K-2. R1.
N1620 X205.15347 Y93.08785 I144.55589 J86.162 K-2. R60.99208
N1621 X198.89394 Y58.45391 I144.55132 J86.15809 K-2. R60.99707
N1622 X197.96137 Y57.90897 I198.00303 J58.9081 K-2. R1.
N1623 G1 X169.4997 Y59.0959
N1624 G0 Z1.
N1625 X152.37482 Y49.42124
N1626 G1 Z-0.73 F122.5
N1627 X159.5711 Y49.12114 Z-2. F122.5
N1628 X180.875 Y48.2327 F500.
N1629 G02 Y6.26917 I180. J27.25094 K-2. R21.
N1630 G1 X6.58714 Y-0.99913
N1631 G02 X5.65457 Y-0.45418 I6.54547 J0. K-2. R1.
N1632 Y54.95606 I60. J27.25094 K-2. R61.
N1633 X6.58714 Y55.50101 I6.54547 J54.50188 K-2. R1.
N1634 G1 X159.5711 Y49.12114
N1635 G0 Z1.
N1636 X176.69597 Y58.7958
N1637 G1 Z-2.73 F122.5
N1638 X169.4997 Y59.0959 Z-4. F122.5
N1639 X23.67351 Y65.17728 F500.
N1640 G02 Y107.1408 I24.54851 J86.15904 K-4. R21.
N1641 G1 X197.96137 Y114.40911
N1642 G02 X198.89394 Y113.86417 I198.00303 J113.40998 K-4. R1.
N1643 X205.15347 Y93.08785 I144.55589 J86.162 K-4. R60.99208
N1644 X198.89394 Y58.45391 I144.55132 J86.15809 K-4. R60.99707
N1645 X197.96137 Y57.90897 I198.00303 J58.9081 K-4. R1.
N1646 G1 X169.4997 Y59.0959
N1647 G0 Z1.
N1648 X152.37482 Y49.42124
N1649 G1 Z-2.73 F122.5
N1650 X159.5711 Y49.12114 Z-4. F122.5
N1651 X180.875 Y48.2327 F500.
N1652 G02 Y6.26917 I180. J27.25094 K-4. R21.
N1653 G1 X6.58714 Y-0.99913
N1654 G02 X5.65457 Y-0.45418 I6.54547 J0. K-4. R1.
N1655 Y54.95606 I60. J27.25094 K-4. R61.
N1656 X6.58714 Y55.50101 I6.54547 J54.50188 K-4. R1.
N1657 G1 X159.5711 Y49.12114
N1658 G0 Z1.
N1659 M30
%
