G00 G49 G40.1 G17 G80 G50 G90
G21
(Curve Rough)
(Endmill 1/4in 6.35mm Carbide Roughing)
M6 T3
M03 S4583
G00 Z60.0000
X6.3500 Y-3.9250
G01 Z-3.0000  F2000.0
X0.0000  F2000.0
X-56.0121  F1000.0
G17
G02X-59.9371Y0.0000I0.0000J3.9250
G01 Y19.5165
G02X-57.1849Y23.2622I3.9250J0.0000
X-55.1329Y23.8069I3.4796J-8.9694
X-53.1139Y24.7516I19.4983J-39.0417
G03X-48.3633Y33.6612I-7.3809J9.6569
X-48.5525Y48.7049I-54.2543J6.8407
G02X-51.4298Y133.7640I290.7266J52.4129
X-34.4795Y162.2266I39.2942J-4.1224
G01 X-34.4438 Y162.7036
G03X-32.7888Y181.3143I-189.4149J26.2238
G01 Y200.7806
G03X-38.5108Y239.9889I-186.5431J-7.2022
X-39.3710Y240.5151I-0.9476J-0.5830
G01 X-43.1457 Y241.1236
X-49.3657
G02X-53.6271Y242.9656I-0.5578J4.5597
X-54.2888Y245.1466I3.2633J2.1810
G01 Y260.4968
G02X-50.3638Y264.4218I3.9250J0.0000
G01 X0.0000
G00 Z60.0000
Y-3.9250
G01 Z-6.0000  F2000.0
X-56.0121  F1000.0
G02X-59.9371Y0.0000I0.0000J3.9250
G01 Y19.5165
G02X-57.1849Y23.2622I3.9250J0.0000
X-55.1329Y23.8069I3.4796J-8.9694
X-53.1139Y24.7516I19.4983J-39.0417
G03X-48.3633Y33.6612I-7.3809J9.6569
X-48.5525Y48.7049I-54.2543J6.8407
G02X-51.4298Y133.7640I290.7266J52.4129
X-34.4795Y162.2266I39.2942J-4.1224
G01 X-34.4438 Y162.7036
G03X-32.7888Y181.3143I-189.4149J26.2238
G01 Y200.7806
G03X-38.5108Y239.9889I-186.5431J-7.2022
X-39.3710Y240.5151I-0.9476J-0.5830
G01 X-43.1457 Y241.1236
X-49.3657
G02X-53.6271Y242.9656I-0.5578J4.5597
X-54.2888Y245.1466I3.2633J2.1810
G01 Y260.4968
G02X-50.3638Y264.4218I3.9250J0.0000
G01 X0.0000
G00 Z60.0000
Y-3.9250
G01 Z-9.0000  F2000.0
X-56.0121  F1000.0
G02X-59.9371Y0.0000I0.0000J3.9250
G01 Y19.5165
G02X-57.1849Y23.2622I3.9250J0.0000
X-55.1329Y23.8069I3.4796J-8.9694
X-53.1139Y24.7516I19.4983J-39.0417
G03X-48.3633Y33.6612I-7.3809J9.6569
X-48.5525Y48.7049I-54.2543J6.8407
G02X-51.4298Y133.7640I290.7266J52.4129
X-34.4795Y162.2266I39.2942J-4.1224
G01 X-34.4438 Y162.7036
G03X-32.7888Y181.3143I-189.4149J26.2238
G01 Y200.7806
G03X-38.5108Y239.9889I-186.5431J-7.2022
X-39.3710Y240.5151I-0.9476J-0.5830
G01 X-43.1457 Y241.1236
X-49.3657
G02X-53.6271Y242.9656I-0.5578J4.5597
X-54.2888Y245.1466I3.2633J2.1810
G01 Y260.4968
G02X-50.3638Y264.4218I3.9250J0.0000
G01 X0.0000
G00 Z60.0000
Y-3.9250
G01 Z-12.0000  F2000.0
X-56.0121  F1000.0
G02X-59.9371Y0.0000I0.0000J3.9250
G01 Y19.5165
G02X-57.1849Y23.2622I3.9250J0.0000
X-55.1329Y23.8069I3.4796J-8.9694
X-53.1139Y24.7516I19.4983J-39.0417
G03X-48.3633Y33.6612I-7.3809J9.6569
X-48.5525Y48.7049I-54.2543J6.8407
G02X-51.4298Y133.7640I290.7266J52.4129
X-34.4795Y162.2266I39.2942J-4.1224
G01 X-34.4438 Y162.7036
G03X-32.7888Y181.3143I-189.4149J26.2238
G01 Y200.7806
G03X-38.5108Y239.9889I-186.5431J-7.2022
X-39.3710Y240.5151I-0.9476J-0.5830
G01 X-43.1457 Y241.1236
X-49.3657
G02X-53.6271Y242.9656I-0.5578J4.5597
X-54.2888Y245.1466I3.2633J2.1810
G01 Y260.4968
G02X-50.3638Y264.4218I3.9250J0.0000
G01 X0.0000
G00 Z60.0000
Y-3.9250
G01 Z-15.0000  F2000.0
X-56.0121  F1000.0
G02X-59.9371Y0.0000I0.0000J3.9250
G01 Y19.5165
G02X-57.1849Y23.2622I3.9250J0.0000
X-55.1329Y23.8069I3.4796J-8.9694
X-53.1139Y24.7516I19.4983J-39.0417
G03X-48.3633Y33.6612I-7.3809J9.6569
X-48.5525Y48.7049I-54.2543J6.8407
G02X-51.4298Y133.7640I290.7266J52.4129
X-34.4795Y162.2266I39.2942J-4.1224
G01 X-34.4438 Y162.7036
G03X-32.7888Y181.3143I-189.4149J26.2238
G01 Y200.7806
G03X-38.5108Y239.9889I-186.5431J-7.2022
X-39.3710Y240.5151I-0.9476J-0.5830
G01 X-43.1457 Y241.1236
X-49.3657
G02X-53.6271Y242.9656I-0.5578J4.5597
X-54.2888Y245.1466I3.2633J2.1810
G01 Y260.4968
G02X-50.3638Y264.4218I3.9250J0.0000
G01 X0.0000
G00 Z60.0000
Y-3.9250
G01 Z-18.0000  F2000.0
X-56.0121  F1000.0
G02X-59.9371Y0.0000I0.0000J3.9250
G01 Y19.5165
G02X-57.1849Y23.2622I3.9250J0.0000
X-55.1329Y23.8069I3.4796J-8.9694
X-53.1139Y24.7516I19.4983J-39.0417
G03X-48.3633Y33.6612I-7.3809J9.6569
X-48.5525Y48.7049I-54.2543J6.8407
G02X-51.4298Y133.7640I290.7266J52.4129
X-34.4795Y162.2266I39.2942J-4.1224
G01 X-34.4438 Y162.7036
G03X-32.7888Y181.3143I-189.4149J26.2238
G01 Y200.7806
G03X-38.5108Y239.9889I-186.5431J-7.2022
X-39.3710Y240.5151I-0.9476J-0.5830
G01 X-43.1457 Y241.1236
X-49.3657
G02X-53.6271Y242.9656I-0.5578J4.5597
X-54.2888Y245.1466I3.2633J2.1810
G01 Y260.4968
G02X-50.3638Y264.4218I3.9250J0.0000
G01 X0.0000
X6.3500  F2000.0
G00 Z60.0000
(Curve Finish)
(Endmill 1/4in 6.35mm Carbide Roughing)
Y-3.1750
G01 Z-18.0000  F500.0
X0.0000  F2000.0
X-56.0121  F500.0
G02X-59.1871Y0.0000I0.0000J3.1750
G01 Y19.5165
G02X-56.9608Y22.5464I3.1750J0.0000
X-54.5789Y23.2289I9.6646J-29.2306
X-52.6673Y24.1478I429.0144J-890.0934
G03X-47.6211Y33.5518I-7.8142J10.2490
X-47.8119Y48.8237I-55.0018J6.9498
G02X-50.2350Y136.6596I283.1063J51.7613
X-34.1412Y161.5460I38.0044J-6.9301
G03X-33.7296Y162.2164I-0.3572J0.6808
G02X-33.0163Y168.1390I43.5105J-2.2357
G03X-32.0388Y181.2951I-190.5380J20.7719
G01 Y200.8003
G03X-37.8649Y240.3741I-182.7537J-6.6897
X-39.2220Y241.2507I-1.5908J-0.9738
G01 X-43.0856 Y241.8736
G02X-49.6760Y241.8888I-3.1784J50.6270
X-53.5388Y245.1466I-0.4906J3.3372
G01 Y260.4968
G02X-50.3638Y263.6718I3.1750J0.0000
G01 X0.0000
X6.3500  F2000.0
G00 Z60.0000
(Line Rough)
(Endmill 1/4in 6.35mm Carbide)
M6 T22
M03 S4583
Z6.0000
X3.9250 Y266.8468
G01 Z-3.0000  F2000.0
Y260.4968  F2000.0
Y0.0000  F1000.0
G00 Z6.0000
Y260.4968
G01 Z-6.0000  F2000.0
Y0.0000  F1000.0
G00 Z6.0000
Y260.4968
G01 Z-9.0000  F2000.0
Y0.0000  F1000.0
G00 Z6.0000
Y260.4968
G01 Z-12.0000  F2000.0
Y0.0000  F1000.0
G00 Z6.0000
Y260.4968
G01 Z-15.0000  F2000.0
Y0.0000  F1000.0
G00 Z6.0000
Y260.4968
G01 Z-18.0000  F2000.0
Y0.0000  F1000.0
Y-6.3500  F2000.0
G00 Z6.0000
(Line Finish)
(Endmill 1/4in 6.35mm Carbide)
X3.1750 Y266.8468
G01 Z-18.0000  F500.0
Y260.4968  F2000.0
Y0.0000  F500.0
Y-6.3500  F2000.0
G00 Z6.0000
M5 M9
M30
