%
G17 G21 G40 G90 G64 P0.1
(Rough)
(Endmill 1/4in 6.35mm Carbide)
T22 M06
S15088 M3
G0 Z3.175
X112.56397 Y103.825
G1 Z-2.5 F678.7
Y110.175 F2036.2
G17
G03 X106.21397 Y116.525 I-6.35 J0.
G1 X5. F2715.
G03 X3.475 Y115. I0. J-1.525
G1 Y5.
G03 X5. Y3.475 I1.525 J0.
G1 X230.
G03 X231.525 Y5. I0. J1.525
G1 Y115.
G03 X230.38805 Y116.4748 I-1.525 J0.
G1 X229.84092 Y116.525
X106.21397
G03 X99.86397 Y110.175 I0. J-6.35 F4072.5
G1 Y103.825
G0 Z3.175
X112.56397
G1 Z-5. F678.7
Y110.175 F2036.2
G03 X106.21397 Y116.525 I-6.35 J0.
G1 X5. F2715.
G03 X3.475 Y115. I0. J-1.525
G1 Y5.
G03 X5. Y3.475 I1.525 J0.
G1 X230.
G03 X231.525 Y5. I0. J1.525
G1 Y115.
G03 X230.38805 Y116.4748 I-1.525 J0.
G1 X229.84092 Y116.525
X106.21397
G03 X99.86397 Y110.175 I0. J-6.35 F4072.5
G1 Y103.825
G0 Z3.175
X112.56397
G1 Z-7.5 F678.7
Y110.175 F2036.2
G03 X106.21397 Y116.525 I-6.35 J0.
G1 X5. F2715.
G03 X3.475 Y115. I0. J-1.525
G1 Y5.
G03 X5. Y3.475 I1.525 J0.
G1 X230.
G03 X231.525 Y5. I0. J1.525
G1 Y115.
G03 X230.38805 Y116.4748 I-1.525 J0.
G1 X229.84092 Y116.525
X106.21397
G03 X99.86397 Y110.175 I0. J-6.35 F4072.5
G1 Y103.825
G0 Z3.175
X112.56397
G1 Z-10. F678.7
Y110.175 F2036.2
G03 X106.21397 Y116.525 I-6.35 J0.
G1 X5. F2715.
G03 X3.475 Y115. I0. J-1.525
G1 Y5.
G03 X5. Y3.475 I1.525 J0.
G1 X230.
G03 X231.525 Y5. I0. J1.525
G1 Y115.
G03 X230.38805 Y116.4748 I-1.525 J0.
G1 X229.84092 Y116.525
X106.21397
G03 X99.86397 Y110.175 I0. J-6.35 F4072.5
G1 Y103.825
G0 Z3.175
(Finish)
(Endmill 1/4in 6.35mm Carbide)
X112.56397 Y104.125
G1 Z-10. F678.7
Y110.475 F2036.2
G03 X106.21397 Y116.825 I-6.35 J0.
G1 X5. F2715.
G03 X3.175 Y115. I0. J-1.825
G1 Y5.
G03 X5. Y3.175 I1.825 J0.
G1 X230.
G03 X231.825 Y5. I0. J1.825
G1 Y115.
G03 X230.43916 Y116.77137 I-1.825 J0.
G1 X229.85466 Y116.825
X106.21397
G03 X99.86397 Y110.475 I0. J-6.35 F4072.5
G1 Y104.125
G0 Z3.175
(Engraving)
(Endmill 1/4in 6.35mm Carbide)
X0. Y-60.
G1 Z-2.5 F678.7
X236.03352 F2715.
Z-5.
X0.
Z-7.5
X236.03352
Z-10.
X0.
G0 Z3.175
M30
%
