%
G17 G21 G40 G90 G64 P0.1
(2 1/2 Axis Profiling)
(Endmill 1/4in 6.35mm Carbide)
T22 M06
S15088 M3
G0 Z12.175
X127.0584 Y92.125
G1 Z-2.5 F678.7
Y98.475 F2036.2
G17
G03 X120.7084 Y104.825 I-6.35 J0.
G1 X58.81513 F2715.
X51.74506 Y97.75494
G02 X49.5 Y96.825 I-2.24506 J2.24506
G1 X15.175
Y23.175
X49.5
G02 X51.74506 Y22.24506 I0. J-3.175
G1 X58.81513 Y15.175
X176.18487
X183.25494 Y22.24506
G02 X185.5 Y23.175 I2.24506 J-2.24506
G1 X219.825
Y96.825
X185.5
G02 X183.25494 Y97.75494 I0. J3.175
G1 X176.18487 Y104.825
X120.7084
G03 X114.3584 Y98.475 I0. J-6.35 F4072.5
G1 Y92.125
G0 Z12.175
X127.0584
G1 Z-5. F678.7
Y98.475 F2036.2
G03 X120.7084 Y104.825 I-6.35 J0.
G1 X58.81513 F2715.
X51.74506 Y97.75494
G02 X49.5 Y96.825 I-2.24506 J2.24506
G1 X15.175
Y23.175
X49.5
G02 X51.74506 Y22.24506 I0. J-3.175
G1 X58.81513 Y15.175
X176.18487
X183.25494 Y22.24506
G02 X185.5 Y23.175 I2.24506 J-2.24506
G1 X219.825
Y96.825
X185.5
G02 X183.25494 Y97.75494 I0. J3.175
G1 X176.18487 Y104.825
X120.7084
G03 X114.3584 Y98.475 I0. J-6.35 F4072.5
G1 Y92.125
G0 Z12.175
X127.0584
G1 Z-7.5 F678.7
Y98.475 F2036.2
G03 X120.7084 Y104.825 I-6.35 J0.
G1 X58.81513 F2715.
X51.74506 Y97.75494
G02 X49.5 Y96.825 I-2.24506 J2.24506
G1 X15.175
Y23.175
X49.5
G02 X51.74506 Y22.24506 I0. J-3.175
G1 X58.81513 Y15.175
X176.18487
X183.25494 Y22.24506
G02 X185.5 Y23.175 I2.24506 J-2.24506
G1 X219.825
Y96.825
X185.5
G02 X183.25494 Y97.75494 I0. J3.175
G1 X176.18487 Y104.825
X120.7084
G03 X114.3584 Y98.475 I0. J-6.35 F4072.5
G1 Y92.125
G0 Z12.175
X127.0584
G1 Z-10. F678.7
Y98.475 F2036.2
G03 X120.7084 Y104.825 I-6.35 J0.
G1 X58.81513 F2715.
X51.74506 Y97.75494
G02 X49.5 Y96.825 I-2.24506 J2.24506
G1 X15.175
Y23.175
X49.5
G02 X51.74506 Y22.24506 I0. J-3.175
G1 X58.81513 Y15.175
X176.18487
X183.25494 Y22.24506
G02 X185.5 Y23.175 I2.24506 J-2.24506
G1 X219.825
Y96.825
X185.5
G02 X183.25494 Y97.75494 I0. J3.175
G1 X176.18487 Y104.825
X120.7084
G03 X114.3584 Y98.475 I0. J-6.35 F4072.5
G1 Y92.125
G0 Z12.175
(2 1/2 Axis Profiling)
(Endmill 1/4in 6.35mm Carbide)
X189.49 Y135.875
G1 Z-2.5 F678.7
Y129.525 F2036.2
G03 X195.84 Y123.175 I6.35 J0.
G1 X230. F2715.
G02 X238.175 Y115. I0. J-8.175
G1 Y5.
G02 X230. Y-3.175 I-8.175 J0.
G1 X5.
G02 X-3.175 Y5. I0. J8.175
G1 Y115.
G02 X5. Y123.175 I8.175 J0.
G1 X195.84
G03 X202.19 Y129.525 I0. J6.35 F4072.5
G1 Y135.875
G0 Z12.175
X189.49
G1 Z-5. F678.7
Y129.525 F2036.2
G03 X195.84 Y123.175 I6.35 J0.
G1 X230. F2715.
G02 X238.175 Y115. I0. J-8.175
G1 Y5.
G02 X230. Y-3.175 I-8.175 J0.
G1 X5.
G02 X-3.175 Y5. I0. J8.175
G1 Y115.
G02 X5. Y123.175 I8.175 J0.
G1 X195.84
G03 X202.19 Y129.525 I0. J6.35 F4072.5
G1 Y135.875
G0 Z12.175
X189.49
G1 Z-7.5 F678.7
Y129.525 F2036.2
G03 X195.84 Y123.175 I6.35 J0.
G1 X230. F2715.
G02 X238.175 Y115. I0. J-8.175
G1 Y5.
G02 X230. Y-3.175 I-8.175 J0.
G1 X5.
G02 X-3.175 Y5. I0. J8.175
G1 Y115.
G02 X5. Y123.175 I8.175 J0.
G1 X195.84
G03 X202.19 Y129.525 I0. J6.35 F4072.5
G1 Y135.875
G0 Z12.175
X189.49
G1 Z-10. F678.7
Y129.525 F2036.2
G03 X195.84 Y123.175 I6.35 J0.
G1 X230. F2715.
G02 X238.175 Y115. I0. J-8.175
G1 Y5.
G02 X230. Y-3.175 I-8.175 J0.
G1 X5.
G02 X-3.175 Y5. I0. J8.175
G1 Y115.
G02 X5. Y123.175 I8.175 J0.
G1 X195.84
G03 X202.19 Y129.525 I0. J6.35 F4072.5
G1 Y135.875
G0 Z12.175
M30
%
