%
(TOP 3.125MM ENDMILL)
(T2  D=3.125 CR=0. - ZMIN=-5. - FLAT END MILL)
G90 G94 G17 G91.1 G64 P0.1
G21
G53 G0 Z0.
(CONTOUR1 2)
T2 M6
S24000 M3
G54
B0.
M8
G0 G43 X24.82 Y25.486 Z15. H2
G0 Z0.998
G1 Z-0.25 F400.
G3 X24.387 Y25.398 R0.313
X24.341 Y25.163 R0.313
G1 X24.368 Y25.033 F796.8
G3 X26.968 Y23.367 R2.184
X28.634 Y25.968 R2.184
X26.033 Y27.633 R2.184
X24.343 Y25.164 R2.184
G1 X24.37 Y25.023
X24.406 Y24.884 Z-0.251
X24.427 Y24.818
X24.443 Y24.768 Z-0.252
X24.448 Y24.751
X24.45 Y24.747
X24.462 Y24.719
X24.476 Y24.687
X24.504 Y24.623 Z-0.253
X24.564 Y24.501 Z-0.255
X24.631 Y24.382 Z-0.257
X24.671 Y24.322 Z-0.258
X24.713 Y24.262 Z-0.259
X24.801 Y24.147 Z-0.262
X24.89 Y24.045 Z-0.264
X24.986 Y23.951 Z-0.267
X25.092 Y23.857 Z-0.271
X25.205 Y23.771 Z-0.274
X25.319 Y23.698 Z-0.278
X25.376 Y23.663 Z-0.28
X25.435 Y23.629 Z-0.282
X25.498 Y23.599 Z-0.284
X25.561 Y23.569 Z-0.286
X25.691 Y23.516 Z-0.291
X25.753 Y23.494 Z-0.293
X25.816 Y23.471 Z-0.295
X25.832 Y23.467 Z-0.296
X25.881 Y23.455 Z-0.298
X25.946 Y23.44 Z-0.3
X26.081 Y23.413 Z-0.305
X26.217 Y23.393 Z-0.309
X26.286 Y23.389 Z-0.312
X26.355 Y23.386 Z-0.314
X26.493 Y23.385 Z-0.319
X26.623 Y23.393 Z-0.324
X26.752 Y23.41 Z-0.328
X26.886 Y23.434 Z-0.333
X27.017 Y23.469 Z-0.338
X27.146 Y23.512 Z-0.342
X27.241 Y23.548 Z-0.346
X27.273 Y23.56 Z-0.347
X27.39 Y23.618 Z-0.352
X27.505 Y23.682 Z-0.356
X27.62 Y23.753 Z-0.361
X27.647 Y23.773 Z-0.362
X27.727 Y23.835 Z-0.366
X27.826 Y23.919 Z-0.37
X27.92 Y24.009 Z-0.375
X28.008 Y24.105 Z-0.379
X28.091 Y24.206 Z-0.384
X28.168 Y24.315 Z-0.389
X28.237 Y24.429 Z-0.393
X28.298 Y24.543 Z-0.398
X28.35 Y24.661 Z-0.402
X28.396 Y24.784 Z-0.407
X28.434 Y24.902 Z-0.411
X28.436 Y24.91
X28.464 Y25.036 Z-0.416
X28.485 Y25.164 Z-0.42
X28.5 Y25.291 Z-0.425
Y25.307
X28.502 Y25.418 Z-0.429
X28.499 Y25.546 Z-0.434
X28.489 Y25.674 Z-0.438
X28.468 Y25.8 Z-0.443
X28.441 Y25.926 Z-0.447
X28.406 Y26.047 Z-0.452
X28.362 Y26.164 Z-0.456
X28.313 Y26.281 Z-0.46
X28.255 Y26.394 Z-0.464
X28.191 Y26.503 Z-0.468
X28.156 Y26.556 Z-0.47
X28.126 Y26.602 Z-0.472
X28.121 Y26.609
X28.082 Y26.657 Z-0.474
X28.043 Y26.706 Z-0.476
X27.96 Y26.8 Z-0.479
X27.917 Y26.844 Z-0.48
X27.873 Y26.889 Z-0.482
X27.85 Y26.909 Z-0.483
X27.826 Y26.93
X27.778 Y26.97 Z-0.485
X27.681 Y27.048 Z-0.488
X27.578 Y27.119 Z-0.49
X27.471 Y27.181 Z-0.492
X27.361 Y27.239 Z-0.494
X27.248 Y27.289 Z-0.496
X27.131 Y27.33 Z-0.497
X27.072 Y27.349 Z-0.498
X27.042 Y27.359
X27.013 Y27.368
X26.952 Y27.381 Z-0.499
X26.892 Y27.395
X26.77 Y27.416 Z-0.5
X26.708 Y27.423
X26.662 Y27.429
X26.647 Y27.431
X26.625
X26.604 Y27.432
G3 X24.569 Y25.604 R1.934
X26.397 Y23.569 R1.934
X28.432 Y25.397 R1.934
X26.743 Y27.419 R1.934
G1 X26.604 Y27.432
X26.536 Y27.433
X26.468 Y27.435
X26.434 Y27.433
X26.4 Y27.43
X26.332 Y27.425 Z-0.501
X26.189 Y27.407 Z-0.502
X26.118 Y27.394
X26.048 Y27.379 Z-0.503
X25.978 Y27.358 Z-0.504
X25.908 Y27.337 Z-0.505
X25.771 Y27.284 Z-0.507
X25.65 Y27.227 Z-0.509
X25.591 Y27.195 Z-0.51
X25.561 Y27.179 Z-0.511
X25.532 Y27.163
X25.501 Y27.142 Z-0.512
X25.471 Y27.121 Z-0.513
X25.41 Y27.08 Z-0.514
X25.294 Y26.989 Z-0.518
X25.193 Y26.897 Z-0.521
X25.145 Y26.848 Z-0.523
X25.121 Y26.823 Z-0.524
X25.097 Y26.798 Z-0.525
X25.055 Y26.744 Z-0.526
X25.012 Y26.691 Z-0.528
X24.935 Y26.578 Z-0.532
X24.86 Y26.456 Z-0.537
X24.828 Y26.392 Z-0.539
X24.796 Y26.329 Z-0.541
X24.783 Y26.296 Z-0.542
X24.77 Y26.262 Z-0.544
X24.744 Y26.196 Z-0.546
X24.702 Y26.059 Z-0.551
X24.672 Y25.932 Z-0.555
X24.651 Y25.804 Z-0.56
X24.638 Y25.663 Z-0.565
X24.636 Y25.523 Z-0.57
X24.643 Y25.383 Z-0.575
X24.653 Y25.314 Z-0.577
X24.662 Y25.245 Z-0.58
X24.677 Y25.179 Z-0.582
X24.692 Y25.114 Z-0.584
X24.729 Y24.984 Z-0.589
X24.762 Y24.889 Z-0.593
X24.773 Y24.858 Z-0.594
X24.829 Y24.738 Z-0.598
X24.896 Y24.617 Z-0.603
X24.971 Y24.502 Z-0.608
X25.049 Y24.396 Z-0.613
X25.055 Y24.39
X25.137 Y24.298 Z-0.617
X25.231 Y24.205 Z-0.622
X25.332 Y24.119 Z-0.626
X25.385 Y24.08 Z-0.629
X25.439 Y24.04 Z-0.631
X25.467 Y24.023 Z-0.632
X25.552 Y23.972 Z-0.636
X25.67 Y23.911 Z-0.64
X25.79 Y23.856 Z-0.645
X25.916 Y23.812 Z-0.649
X26.045 Y23.779 Z-0.654
X26.17 Y23.756 Z-0.659
X26.297 Y23.74 Z-0.663
X26.428 Y23.735 Z-0.668
X26.559 Y23.739 Z-0.672
X26.688 Y23.752 Z-0.677
X26.816 Y23.775 Z-0.681
X26.941 Y23.808 Z-0.686
X27.063 Y23.851 Z-0.69
X27.18 Y23.898 Z-0.695
X27.293 Y23.955 Z-0.699
X27.402 Y24.022 Z-0.704
X27.506 Y24.097 Z-0.708
X27.603 Y24.178 Z-0.712
X27.694 Y24.264 Z-0.716
X27.779 Y24.358 Z-0.72
X27.857 Y24.458 Z-0.724
X27.927 Y24.562 Z-0.727
X27.959 Y24.616 Z-0.729
X27.986 Y24.664 Z-0.73
X27.99 Y24.671
X28.003 Y24.699 Z-0.731
X28.016 Y24.727 Z-0.732
X28.042 Y24.784 Z-0.733
X28.088 Y24.901 Z-0.736
X28.108 Y24.96 Z-0.738
X28.127 Y25.019 Z-0.739
X28.156 Y25.14 Z-0.741
X28.175 Y25.263 Z-0.743
X28.185 Y25.387 Z-0.745
X28.187 Y25.449 Z-0.746
X28.189 Y25.511 Z-0.747
X28.181 Y25.635 Z-0.748
X28.166 Y25.757 Z-0.749
X28.142 Y25.879
X28.128 Y25.935 Z-0.75
X28.113 Y25.99
X28.073 Y26.098
G3 X25.901 Y27.074 R1.684
X24.925 Y24.901 R1.684
X27.098 Y23.926 R1.684
X28.1 Y26.021 R1.684
G1 X28.073 Y26.098
X28.012 Y26.238
X27.979 Y26.307 Z-0.751
X27.94 Y26.373
X27.86 Y26.491 Z-0.752
X27.817 Y26.547 Z-0.753
X27.771 Y26.601
X27.722 Y26.652 Z-0.754
X27.673 Y26.703 Z-0.755
X27.566 Y26.794 Z-0.757
X27.446 Y26.882 Z-0.76
X27.384 Y26.922 Z-0.761
X27.319 Y26.958 Z-0.762
X27.188 Y27.02 Z-0.765
X27.138 Y27.042 Z-0.767
X27.121 Y27.048
X27.087 Y27.059 Z-0.768
X27.052 Y27.07 Z-0.769
X26.914 Y27.11 Z-0.772
X26.844 Y27.124 Z-0.774
X26.774 Y27.137 Z-0.776
X26.703 Y27.144 Z-0.778
X26.632 Y27.15 Z-0.78
X26.561 Y27.151 Z-0.782
X26.49 Z-0.784
X26.42 Y27.145 Z-0.786
X26.35 Y27.138 Z-0.789
X26.21 Y27.115 Z-0.793
X26.073 Y27.08 Z-0.798
X26.006 Y27.059 Z-0.801
X25.941 Y27.033 Z-0.803
X25.816 Y26.976 Z-0.808
X25.756 Y26.943 Z-0.81
X25.696 Y26.909 Z-0.813
X25.637 Y26.869 Z-0.815
X25.578 Y26.828 Z-0.818
X25.522 Y26.785 Z-0.82
X25.467 Y26.738 Z-0.823
X25.366 Y26.639 Z-0.827
X25.319 Y26.586 Z-0.83
X25.274 Y26.531 Z-0.832
X25.196 Y26.42 Z-0.837
X25.124 Y26.304 Z-0.842
X25.093 Y26.242 Z-0.844
X25.064 Y26.179 Z-0.847
X25.038 Y26.115 Z-0.849
X25.015 Y26.049 Z-0.852
X24.979 Y25.923 Z-0.856
X24.966 Y25.858 Z-0.859
X24.955 Y25.793 Z-0.861
X24.939 Y25.656 Z-0.866
X24.935 Y25.587 Z-0.868
Y25.518 Z-0.87
X24.945 Y25.383 Z-0.875
X24.954 Y25.316 Z-0.878
X24.966 Y25.25 Z-0.88
X24.997 Y25.119 Z-0.885
X25.018 Y25.056 Z-0.887
X25.04 Y24.993 Z-0.889
X25.065 Y24.931 Z-0.891
X25.092 Y24.871 Z-0.894
X25.156 Y24.755 Z-0.898
X25.192 Y24.699 Z-0.901
X25.231 Y24.645 Z-0.903
X25.312 Y24.541 Z-0.908
X25.4 Y24.446 Z-0.912
X25.448 Y24.402 Z-0.914
X25.498 Y24.36 Z-0.917
X25.549 Y24.32 Z-0.919
X25.601 Y24.282 Z-0.921
X25.711 Y24.214 Z-0.926
X25.828 Y24.155 Z-0.93
X25.887 Y24.128 Z-0.933
X25.948 Y24.105 Z-0.935
X26.01 Y24.085 Z-0.937
X26.072 Y24.067 Z-0.939
X26.2 Y24.04 Z-0.944
X26.263 Y24.031 Z-0.946
X26.325 Y24.024 Z-0.948
X26.452 Y24.019 Z-0.953
X26.516 Y24.02 Z-0.955
X26.581 Y24.025 Z-0.957
X26.645 Y24.031 Z-0.959
X26.708 Y24.041 Z-0.962
X26.77 Y24.054 Z-0.964
X26.832 Y24.069 Z-0.966
X26.952 Y24.108 Z-0.97
X27.011 Y24.13 Z-0.971
X27.07 Y24.154 Z-0.973
X27.182 Y24.211 Z-0.977
X27.236 Y24.243 Z-0.978
X27.289 Y24.278 Z-0.98
X27.34 Y24.314 Z-0.982
X27.383 Y24.347 Z-0.983
X27.39 Y24.352
X27.436 Y24.394 Z-0.985
X27.482 Y24.436 Z-0.986
X27.505 Y24.458 Z-0.987
X27.527 Y24.479
X27.569 Y24.526 Z-0.989
X27.609 Y24.573 Z-0.99
X27.647 Y24.622 Z-0.991
X27.717 Y24.726 Z-0.993
X27.748 Y24.779 Z-0.994
X27.776 Y24.835 Z-0.995
X27.803 Y24.891 Z-0.996
X27.829 Y24.948
X27.83 Y24.951
X27.839 Y24.977 Z-0.997
X27.85 Y25.006
X27.869 Y25.065 Z-0.998
X27.887 Y25.124
X27.901 Y25.185 Z-0.999
X27.913 Y25.245
X27.923 Y25.306
X27.932 Y25.43 Z-1.
X27.931 Y25.547
G3 X26.451 Y26.933 R1.434
X25.065 Y25.453 R1.434
X26.545 Y24.067 R1.434
X27.931 Y25.456 R1.434
G1 Y25.547
X27.929 Y25.615
X27.924 Y25.683
X27.913 Y25.751
X27.899 Y25.817 Z-1.001
X27.88 Y25.891
X27.855 Y25.963 Z-1.002
X27.797 Y26.104 Z-1.003
X27.766 Y26.165 Z-1.004
X27.733 Y26.224 Z-1.005
X27.696 Y26.282 Z-1.006
X27.658 Y26.338 Z-1.007
X27.634 Y26.368
X27.61 Y26.397 Z-1.008
X27.559 Y26.453 Z-1.009
X27.533 Y26.481 Z-1.01
X27.507 Y26.508 Z-1.011
X27.503 Y26.511
X27.478 Y26.533
X27.449 Y26.558 Z-1.012
X27.397 Y26.601 Z-1.013
X27.343 Y26.643 Z-1.015
X27.287 Y26.68 Z-1.016
X27.229 Y26.716 Z-1.018
X27.163 Y26.751 Z-1.02
X27.095 Y26.782 Z-1.021
X27.025 Y26.81 Z-1.023
X26.954 Y26.832 Z-1.025
X26.884 Y26.854 Z-1.027
X26.813 Y26.87 Z-1.029
X26.741 Y26.882 Z-1.032
X26.668 Y26.892 Z-1.034
X26.6 Y26.895 Z-1.036
X26.532 Y26.897 Z-1.038
X26.464 Y26.894 Z-1.04
X26.396 Y26.887 Z-1.042
X26.359 Y26.883 Z-1.044
X26.323 Y26.879 Z-1.045
X26.305 Y26.876
X26.287 Y26.872 Z-1.046
X26.251 Y26.864 Z-1.047
X26.18 Y26.848 Z-1.05
X26.109 Y26.827 Z-1.052
X26.047 Y26.803 Z-1.055
X25.984 Y26.778 Z-1.057
X25.924 Y26.748 Z-1.059
X25.865 Y26.717 Z-1.062
X25.745 Y26.64 Z-1.067
X25.687 Y26.598 Z-1.069
X25.66 Y26.575 Z-1.07
X25.633 Y26.552 Z-1.072
X25.585 Y26.507 Z-1.074
X25.538 Y26.46 Z-1.076
X25.495 Y26.41 Z-1.079
X25.454 Y26.358 Z-1.081
X25.412 Y26.301 Z-1.083
X25.375 Y26.242 Z-1.086
X25.338 Y26.182 Z-1.088
X25.322 Y26.151 Z-1.09
X25.307 Y26.119 Z-1.091
X25.28 Y26.059 Z-1.093
X25.267 Y26.028 Z-1.094
X25.255 Y25.997 Z-1.095
X25.236 Y25.934 Z-1.098
X25.217 Y25.87 Z-1.1
X25.204 Y25.803 Z-1.102
X25.193 Y25.735 Z-1.105
X25.182 Y25.667 Z-1.107
X25.18 Y25.633 Z-1.108
X25.179 Y25.598 Z-1.11
X25.177 Y25.53 Z-1.112
Y25.495 Z-1.113
X25.18 Y25.461 Z-1.114
X25.187 Y25.393 Z-1.117
X25.19 Y25.359 Z-1.118
X25.195 Y25.325 Z-1.119
X25.21 Y25.262 Z-1.121
X25.225 Y25.199 Z-1.124
X25.242 Y25.137 Z-1.126
X25.264 Y25.077 Z-1.128
X25.276 Y25.045 Z-1.129
X25.289 Y25.014 Z-1.13
X25.303 Y24.983 Z-1.132
X25.319 Y24.953 Z-1.133
X25.351 Y24.894 Z-1.135
X25.367 Y24.864 Z-1.136
X25.386 Y24.836 Z-1.138
X25.423 Y24.784 Z-1.14
X25.46 Y24.733 Z-1.142
X25.501 Y24.684 Z-1.144
X25.544 Y24.637 Z-1.146
X25.567 Y24.613 Z-1.148
X25.59 Y24.589 Z-1.149
X25.641 Y24.546 Z-1.151
X25.693 Y24.504 Z-1.153
X25.719 Y24.484 Z-1.154
X25.747 Y24.466 Z-1.156
X25.801 Y24.433 Z-1.158
X25.854 Y24.4 Z-1.16
X25.883 Y24.386 Z-1.161
X25.911 Y24.373 Z-1.162
X25.969 Y24.347 Z-1.164
X25.998 Y24.334 Z-1.166
X26.029 Y24.322 Z-1.167
X26.091 Y24.303 Z-1.169
X26.123 Y24.293 Z-1.17
X26.154 Y24.284 Z-1.171
X26.186 Y24.276 Z-1.172
X26.218 Y24.271 Z-1.174
X26.28 Y24.261 Z-1.176
X26.311 Y24.256 Z-1.177
X26.342 Y24.253 Z-1.178
X26.404 Y24.25 Z-1.18
X26.467 Y24.249 Z-1.182
X26.499 Y24.248 Z-1.183
X26.515 Z-1.184
X26.531 Y24.25
X26.627 Y24.259 Z-1.188
X26.658 Y24.263 Z-1.189
X26.69 Y24.27 Z-1.19
X26.721 Y24.277 Z-1.191
X26.781 Y24.291 Z-1.193
X26.797 Y24.295 Z-1.194
X26.811 Y24.299
X26.841 Y24.309 Z-1.196
X26.956 Y24.353 Z-1.2
X26.986 Y24.365 Z-1.201
X27.014 Y24.38 Z-1.202
X27.069 Y24.409 Z-1.204
X27.097 Y24.424 Z-1.205
X27.124 Y24.441 Z-1.206
X27.175 Y24.477 Z-1.209
X27.225 Y24.513 Z-1.211
X27.238 Y24.523
X27.249 Y24.533 Z-1.212
X27.272 Y24.554 Z-1.213
X27.362 Y24.638 Z-1.217
X27.372 Y24.65
X27.382 Y24.661 Z-1.218
X27.402 Y24.685 Z-1.219
X27.451 Y24.745 Z-1.221
X27.461 Y24.757
X27.47 Y24.769 Z-1.222
X27.478 Y24.782
X27.511 Y24.835 Z-1.224
X27.527 Y24.861 Z-1.225
X27.543 Y24.887 Z-1.226
X27.55 Y24.901
X27.569 Y24.943 Z-1.227
X27.595 Y24.998 Z-1.229
X27.608 Y25.026 Z-1.23
X27.619 Y25.055 Z-1.231
X27.637 Y25.113 Z-1.232
X27.66 Y25.185 Z-1.234
X27.664 Y25.2
X27.669 Y25.23 Z-1.235
X27.679 Y25.289 Z-1.236
X27.685 Y25.319 Z-1.237
X27.687 Y25.334
X27.689 Y25.349 Z-1.238
X27.691 Y25.41 Z-1.239
X27.694 Y25.471 Z-1.24
X27.695 Y25.486
Y25.494
Y25.501
X27.694 Y25.516 Z-1.241
X27.693 Y25.531
X27.683 Y25.652 Z-1.243
X27.681 Y25.667
X27.678 Y25.681 Z-1.244
X27.671 Y25.711
X27.656 Y25.784 Z-1.245
X27.653 Y25.799
X27.648 Y25.814
X27.643 Y25.828 Z-1.246
X27.623 Y25.885
X27.613 Y25.913 Z-1.247
X27.603 Y25.942
X27.591 Y25.969
X27.577 Y25.996 Z-1.248
X27.55 Y26.05
X27.53 Y26.09 Z-1.249
X27.523 Y26.103
X27.506 Y26.128
X27.489 Y26.153
X27.455 Y26.203
X27.447 Y26.215
X27.442 Y26.221
X27.438 Y26.227 Z-1.25
X27.418 Y26.249
X27.378 Y26.294
X27.358 Y26.317
X27.348 Y26.328
X27.337 Y26.339
X27.292 Y26.378
X27.284 Y26.386
G3 X25.612 Y26.284 R1.184
X25.714 Y24.612 R1.184
X27.386 Y24.714 R1.184
X27.307 Y26.365 R1.184
G1 X27.284 Y26.386
X27.226 Y26.437
X27.211 Y26.449
X27.195 Y26.46
X27.162 Y26.481
X27.13 Y26.503
X27.114 Y26.513
X27.098 Y26.524 Z-1.251
X27.089 Y26.529
X27.08 Y26.533
X27.028 Y26.559
X26.976 Y26.584
X26.967 Y26.588
X26.958 Y26.592
X26.949 Y26.595 Z-1.252
X26.922 Y26.604
X26.885 Y26.616
X26.811 Y26.64 Z-1.253
X26.793 Y26.646
X26.774 Y26.649
X26.736 Y26.656 Z-1.254
X26.66 Y26.671 Z-1.255
X26.65 Y26.672
X26.641 Y26.673
X26.583 Y26.676 Z-1.256
X26.515 Y26.679 Z-1.257
X26.506
X26.496
X26.467 Y26.676
X26.429 Y26.673 Z-1.258
X26.39 Y26.67 Z-1.259
X26.352 Y26.667
X26.333 Y26.664 Z-1.26
X26.314 Y26.66
X26.277 Y26.652 Z-1.261
X26.202 Y26.635 Z-1.262
X26.192 Y26.633
X26.183 Y26.63
X26.129 Y26.61 Z-1.264
X26.066 Y26.587 Z-1.265
X26.057 Y26.584
X26.049 Y26.58
X26.023 Y26.566 Z-1.266
X25.989 Y26.549 Z-1.267
X25.955 Y26.531 Z-1.268
X25.922 Y26.513 Z-1.269
X25.906 Y26.503
X25.89 Y26.492 Z-1.27
X25.859 Y26.47 Z-1.271
X25.797 Y26.426 Z-1.272
X25.789 Y26.421 Z-1.273
X25.785 Y26.417
X25.782 Y26.414
X25.74 Y26.376 Z-1.274
X25.691 Y26.33 Z-1.276
X25.684 Y26.324 Z-1.277
X25.681 Y26.321
X25.66 Y26.295 Z-1.278
X25.635 Y26.266 Z-1.279
X25.599 Y26.222 Z-1.28
X25.587 Y26.207 Z-1.281
X25.582 Y26.2
X25.577 Y26.192
X25.567 Y26.176 Z-1.282
X25.547 Y26.144 Z-1.283
X25.502 Y26.072 Z-1.286
X25.5 Y26.068
X25.49 Y26.046 Z-1.287
X25.474 Y26.012 Z-1.288
X25.444 Y25.944 Z-1.29
X25.442 Y25.94
X25.44 Y25.935
X25.421 Y25.872 Z-1.292
X25.401 Y25.805 Z-1.295
X25.4 Y25.801
X25.388 Y25.727 Z-1.298
X25.374 Y25.645 Z-1.3
X25.373 Y25.64 Z-1.301
X25.372 Y25.58 Z-1.303
X25.369 Y25.501 Z-1.305
X25.37 Y25.496 Z-1.306
X25.376 Y25.432 Z-1.308
X25.383 Y25.363 Z-1.31
X25.384 Y25.359
X25.4 Y25.287 Z-1.313
X25.417 Y25.216 Z-1.315
X25.419 Y25.207 Z-1.316
X25.421 Y25.202
X25.442 Y25.147 Z-1.318
X25.469 Y25.074 Z-1.321
X25.471 Y25.07
X25.527 Y24.966 Z-1.325
X25.536 Y24.95 Z-1.326
X25.578 Y24.891 Z-1.328
X25.62 Y24.832 Z-1.331
X25.632 Y24.818
X25.721 Y24.723 Z-1.336
X25.725 Y24.72
X25.773 Y24.68 Z-1.338
X25.829 Y24.635 Z-1.341
X25.832 Y24.632
X25.889 Y24.597 Z-1.343
X25.954 Y24.557 Z-1.346
X25.958 Y24.555
X26.015 Y24.529 Z-1.348
X26.088 Y24.497 Z-1.351
X26.092 Y24.495
X26.215 Y24.458 Z-1.356
X26.219 Y24.457
X26.354 Y24.435 Z-1.36
X26.358 Z-1.361
X26.503 Y24.43 Z-1.366
X26.507
X26.638 Y24.443 Z-1.37
X26.642 Y24.444
X26.769 Y24.474 Z-1.375
X26.773 Y24.476
X26.906 Y24.526 Z-1.38
X26.91 Y24.528
X27.024 Y24.589 Z-1.385
X27.028 Y24.591
X27.129 Y24.664 Z-1.389
X27.132 Y24.667
X27.238 Y24.766 Z-1.394
X27.241 Y24.769 Z-1.395
X27.276 Y24.812 Z-1.396
X27.321 Y24.868 Z-1.399
X27.324 Y24.871
X27.391 Y24.979 Z-1.404
X27.393 Y24.983
X27.419 Y25.041 Z-1.406
X27.448 Y25.106 Z-1.408
X27.45 Y25.11 Z-1.409
X27.487 Y25.234 Z-1.413
X27.488 Y25.238
X27.498 Y25.296 Z-1.415
X27.508 Y25.361 Z-1.418
X27.509 Y25.366
X27.511 Y25.428 Z-1.42
X27.513 Y25.498 Z-1.422
Y25.503
X27.507 Y25.56 Z-1.424
X27.499 Y25.634 Z-1.427
Y25.638
X27.486 Y25.69 Z-1.429
X27.471 Y25.754 Z-1.431
X27.47 Y25.758
X27.448 Y25.816 Z-1.434
X27.425 Y25.877 Z-1.436
X27.424 Y25.881
X27.395 Y25.935 Z-1.438
X27.36 Y25.999 Z-1.441
X27.358 Y26.003
X27.327 Y26.046 Z-1.443
X27.287 Y26.102 Z-1.445
X27.284 Y26.105
X27.245 Y26.146 Z-1.447
X27.201 Y26.193 Z-1.449
X27.198 Y26.196 Z-1.45
X27.151 Y26.234 Z-1.452
X27.095 Y26.28 Z-1.454
X27.092 Y26.282
X27.048 Y26.309 Z-1.456
X26.99 Y26.345 Z-1.459
X26.986 Y26.347
X26.964 Y26.357
X26.906 Y26.383 Z-1.462
X26.877 Y26.396 Z-1.463
X26.874 Y26.398
X26.817 Y26.415 Z-1.465
X26.748 Y26.436 Z-1.467
X26.744 Y26.437
X26.694 Y26.445 Z-1.469
X26.628 Y26.456 Z-1.471
X26.624 Y26.457
X26.569 Y26.459 Z-1.472
X26.506 Y26.461 Z-1.474
X26.502
X26.443 Y26.455 Z-1.476
X26.377 Y26.449 Z-1.478
X26.373
X26.32 Y26.437 Z-1.479
X26.255 Y26.422 Z-1.481
X26.251 Y26.421
X26.2 Y26.402 Z-1.483
X26.141 Y26.381 Z-1.484
X26.138 Y26.379
X26.086 Y26.352 Z-1.485
X26.027 Y26.322 Z-1.487
X26.024 Y26.32
X25.98 Y26.289 Z-1.488
X25.923 Y26.249 Z-1.489
X25.92 Y26.247
X25.883 Y26.213 Z-1.49
X25.834 Y26.169 Z-1.492
X25.797 Y26.124 Z-1.493
X25.757 Y26.077 Z-1.494
X25.754 Y26.075
X25.723 Y26.026
X25.685 Y25.968 Z-1.495
X25.683 Y25.965
X25.662 Y25.92 Z-1.496
X25.634 Y25.861 Z-1.497
X25.632 Y25.857
X25.616 Y25.806
X25.597 Y25.748 Z-1.498
X25.596 Y25.744
X25.591 Y25.718
X25.585 Y25.688 Z-1.499
X25.572 Y25.62
X25.571 Y25.616
X25.568 Y25.567
X25.564 Y25.502 Z-1.5
Y25.498
X25.566 Y25.475
X25.568 Y25.444
X25.572 Y25.383
X25.573 Y25.378
X25.588 Y25.304
X25.62 Y25.189
X25.667 Y25.079
X25.728 Y24.976
X25.801 Y24.882
X25.886 Y24.797
X25.981 Y24.724
X26.085 Y24.664
X26.195 Y24.618
X26.31 Y24.586
X26.429 Y24.569
X26.548 Y24.568
X26.667 Y24.581
X26.783 Y24.61
X26.895 Y24.654
X27. Y24.711
X27.096 Y24.781
X27.183 Y24.863
X27.259 Y24.956
X27.323 Y25.057
X27.373 Y25.166
X27.408 Y25.28
X27.429 Y25.398
X27.434 Y25.518
X27.424 Y25.637
X27.399 Y25.754
X27.359 Y25.867
X27.305 Y25.974
X27.238 Y26.073
X27.159 Y26.163
X27.069 Y26.241
X26.969 Y26.308
X26.862 Y26.361
X26.749 Y26.401
X26.632 Y26.425
X26.513 Y26.434
X26.393 Y26.428
X26.275 Y26.407
X26.161 Y26.371
X26.052 Y26.32
X25.951 Y26.256
X25.859 Y26.18
X25.777 Y26.092
X25.708 Y25.995
X25.651 Y25.889
X25.608 Y25.778
X25.58 Y25.661
X25.567 Y25.542
X25.569 Y25.422
X25.587 Y25.304
X25.598 Y25.255
Y25.253
X25.609 Y25.223
X25.636 Y25.143
X25.637 Y25.141
X25.654 Y25.105
X25.673 Y25.068 Z-1.501
X25.688 Y25.037
X25.69 Y25.035
X25.716 Y24.996
X25.759 Y24.933 Z-1.502
X25.762 Y24.929
X25.784 Y24.904
X25.809 Y24.876
X25.841 Y24.84 Z-1.503
X25.845 Y24.837
X25.863 Y24.822
X25.93 Y24.764 Z-1.504
X25.932 Y24.762
X25.954 Y24.748
X25.989 Y24.725 Z-1.505
X26.033 Y24.697 Z-1.506
X26.035 Y24.695
X26.061 Y24.683
X26.146 Y24.642 Z-1.507
X26.149 Y24.641 Z-1.508
X26.176 Y24.633
X26.216 Y24.62 Z-1.509
X26.258 Y24.606
X26.261
X26.297 Y24.599 Z-1.51
X26.358 Y24.588 Z-1.511
X26.376 Y24.585 Z-1.512
X26.378
X26.42 Y24.583 Z-1.513
X26.482 Y24.58 Z-1.514
X26.503 Y24.579
X26.505
X26.544 Y24.583 Z-1.515
X26.616 Y24.589 Z-1.517
X26.621 Y24.59
X26.696 Y24.607 Z-1.519
X26.729 Y24.614
X26.734 Y24.615 Z-1.52
X26.77 Y24.628
X26.852 Y24.658 Z-1.523
X26.856 Y24.661
X26.914 Y24.691 Z-1.524
X26.953 Y24.712 Z-1.526
X26.957 Y24.714
X26.982 Y24.731 Z-1.527
X27.047 Y24.777 Z-1.529
X27.05 Y24.781
X27.076 Y24.804 Z-1.53
X27.105 Y24.831 Z-1.531
X27.14 Y24.864 Z-1.532
X27.142 Y24.866 Z-1.533
X27.161 Y24.889
X27.212 Y24.952 Z-1.536
X27.214 Y24.954
X27.234 Y24.986 Z-1.537
X27.274 Y25.05 Z-1.54
X27.293 Y25.091 Z-1.541
X27.322 Y25.157 Z-1.543
X27.324 Y25.161 Z-1.544
X27.335 Y25.198 Z-1.545
X27.358 Y25.271 Z-1.547
Y25.276 Z-1.548
X27.364 Y25.309 Z-1.549
X27.375 Y25.38 Z-1.551
X27.376 Y25.385
X27.378 Y25.46 Z-1.554
X27.379 Y25.498 Z-1.555
Y25.502
X27.376 Y25.535 Z-1.557
X27.368 Y25.615 Z-1.559
X27.367 Y25.62 Z-1.56
X27.352 Y25.684 Z-1.562
X27.343 Y25.722 Z-1.563
X27.342 Y25.726
X27.33 Y25.758 Z-1.565
X27.302 Y25.831 Z-1.567
X27.298 Y25.839 Z-1.568
X27.247 Y25.933 Z-1.571
X27.244 Y25.937
X27.224 Y25.965 Z-1.573
X27.183 Y26.023 Z-1.575
X27.18 Y26.026
X27.11 Y26.1 Z-1.579
X27.107 Y26.104
X27.016 Y26.177 Z-1.583
X27.012 Y26.18
X26.928 Y26.232 Z-1.587
X26.924 Y26.235
X26.829 Y26.277 Z-1.59
X26.825 Y26.279 Z-1.591
X26.716 Y26.312 Z-1.594
X26.712 Y26.313 Z-1.595
X26.611 Y26.329 Z-1.598
X26.606 Y26.33
X26.503 Y26.333 Z-1.602
X26.499 Y26.332
X26.462 Y26.329 Z-1.603
X26.393 Y26.322 Z-1.606
X26.389 Y26.321
X26.288 Y26.297 Z-1.61
X26.283 Y26.296
X26.19 Y26.261 Z-1.613
X26.186 Y26.259
X26.094 Y26.21 Z-1.617
X26.09 Y26.207
X26.005 Y26.146 Z-1.621
X26.002 Y26.143
X25.929 Y26.075 Z-1.624
X25.926 Y26.072
X25.861 Y25.992 Z-1.628
X25.859 Y25.988
X25.804 Y25.901 Z-1.632
X25.802 Y25.897
X25.763 Y25.809 Z-1.635
X25.761 Y25.805
X25.733 Y25.71 Z-1.639
X25.732 Y25.706
X25.715 Y25.604 Z-1.643
Y25.6
X25.712 Y25.502 Z-1.646
Y25.498
X25.722 Y25.4 Z-1.65
Y25.396
X25.745 Y25.3 Z-1.653
X25.746 Y25.296
X25.781 Y25.204 Z-1.657
X25.783 Y25.2
X25.828 Y25.116 Z-1.66
X25.83 Y25.113
X25.85 Y25.085 Z-1.662
X25.888 Y25.032 Z-1.664
X25.891 Y25.029
X25.958 Y24.957 Z-1.667
X26.034 Y24.895 Z-1.671
X26.037 Y24.893
X26.119 Y24.842 Z-1.674
X26.123 Y24.84
X26.211 Y24.801 Z-1.678
X26.271 Y24.782 Z-1.68
X26.303 Y24.773 Z-1.681
X26.307 Y24.772
X26.401 Y24.757 Z-1.685
X26.405
X26.5 Y24.754 Z-1.688
X26.504
X26.533 Y24.757 Z-1.689
X26.596 Y24.763 Z-1.691
X26.6 Y24.764
X26.69 Y24.785 Z-1.695
X26.694 Y24.787
X26.78 Y24.819 Z-1.698
X26.783 Y24.821
X26.836 Y24.849 Z-1.7
X26.864 Y24.864 Z-1.701
X26.868 Y24.866
X26.89 Y24.883 Z-1.702
X26.942 Y24.92 Z-1.705
X26.945 Y24.923
X26.989 Y24.964 Z-1.707
X27.012 Y24.985 Z-1.708
X27.015 Y24.988
X27.033 Y25.01 Z-1.709
X27.073 Y25.059 Z-1.711
X27.075 Y25.062
X27.09 Y25.086 Z-1.712
X27.123 Y25.14 Z-1.714
X27.125 Y25.143 Z-1.715
X27.136 Y25.168
X27.162 Y25.225 Z-1.717
X27.163 Y25.229 Z-1.718
X27.171 Y25.255
X27.189 Y25.314 Z-1.72
X27.19 Y25.318
X27.195 Y25.345 Z-1.721
X27.205 Y25.406 Z-1.723
Y25.41
X27.207 Y25.468 Z-1.725
X27.208 Y25.499 Z-1.726
Y25.503
X27.206 Y25.529 Z-1.727
X27.2 Y25.591 Z-1.728
X27.199 Y25.595
X27.193 Y25.621 Z-1.729
X27.18 Y25.681 Z-1.731
X27.179 Y25.685
X27.169 Y25.71
X27.148 Y25.767 Z-1.733
X27.147 Y25.771
X27.134 Y25.794 Z-1.734
X27.106 Y25.849 Z-1.735
X27.104 Y25.852
X27.088 Y25.874 Z-1.736
X27.054 Y25.924 Z-1.737
X27.051 Y25.926
X27.033 Y25.946 Z-1.738
X26.992 Y25.991 Z-1.739
X26.99 Y25.993
X26.969 Y26.01 Z-1.74
X26.923 Y26.049 Z-1.741
X26.92 Y26.052
X26.872 Y26.082 Z-1.742
X26.847 Y26.098
X26.844 Y26.1
X26.82 Y26.111 Z-1.743
X26.765 Y26.137 Z-1.744
X26.762 Y26.139
X26.737 Y26.147
X26.694 Y26.161 Z-1.745
X26.679 Y26.165
X26.676 Y26.166
X26.65 Y26.171 Z-1.746
X26.591 Y26.182
X26.587
X26.561 Y26.184 Z-1.747
X26.501 Y26.187
X26.497
X26.471 Y26.185 Z-1.748
X26.411 Y26.18
X26.408
X26.382 Y26.174
X26.323 Y26.162 Z-1.749
X26.32 Y26.161
X26.295 Y26.152
X26.239 Y26.133
X26.235 Y26.131
X26.212 Y26.12
X26.172 Y26.1 Z-1.75
X26.159 Y26.093
X26.155 Y26.091
X26.134 Y26.077
X26.084 Y26.043
X26.081 Y26.041
X26.062 Y26.024
X26.039 Y26.004
X26.026 Y25.999
G3 X26.001 Y25.026 R0.689
X26.974 Y25. R0.689
X27. Y25.974 R0.689
X26.08 Y26.045 R0.689
G1 X26.026 Y25.999
X26.024 Y25.991
X26.018 Y25.986
X26.016 Y25.983
X25.989 Y25.952
X25.959 Y25.919
X25.957 Y25.916
X25.909 Y25.845
X25.907 Y25.841
X25.889 Y25.805 Z-1.751
X25.869 Y25.765
X25.868 Y25.761
X25.84 Y25.68
X25.839 Y25.676
X25.831 Y25.636 Z-1.752
X25.822 Y25.592
Y25.589
X25.816 Y25.503 Z-1.753
Y25.499
X25.819 Y25.458
X25.822 Y25.414 Z-1.754
Y25.41
X25.839 Y25.326 Z-1.755
Y25.322
X25.853 Y25.283 Z-1.756
X25.867 Y25.241
X25.868 Y25.238
X25.906 Y25.161 Z-1.758
X25.908 Y25.157
X25.931 Y25.123 Z-1.759
X25.956 Y25.086
X25.958 Y25.083
X26.014 Y25.018 Z-1.761
X26.017 Y25.016
X26.048 Y24.989 Z-1.762
X26.081 Y24.959 Z-1.763
X26.084 Y24.957
X26.155 Y24.909 Z-1.765
X26.159 Y24.907
X26.195 Y24.889 Z-1.766
X26.235 Y24.869 Z-1.767
X26.239 Y24.868
X26.32 Y24.84 Z-1.769
X26.324 Y24.839
X26.364 Y24.831 Z-1.77
X26.408 Y24.822 Z-1.771
X26.411
X26.497 Y24.816 Z-1.773
X26.501 Z-1.774
X26.542 Y24.819 Z-1.775
X26.586 Y24.822 Z-1.776
X26.59
X26.674 Y24.839 Z-1.778
X26.678
X26.717 Y24.853 Z-1.78
X26.759 Y24.867 Z-1.781
X26.762 Y24.868
X26.839 Y24.906 Z-1.784
X26.843 Y24.908
X26.914 Y24.956 Z-1.787
X26.917 Y24.958
X26.982 Y25.014 Z-1.789
X26.984 Y25.017 Z-1.79
X27.041 Y25.081 Z-1.792
X27.043 Y25.084 Z-1.793
X27.091 Y25.155 Z-1.795
X27.093 Y25.159 Z-1.796
X27.131 Y25.235 Z-1.799
X27.132 Y25.239
X27.16 Y25.32 Z-1.802
X27.161 Y25.324
X27.178 Y25.408 Z-1.805
Y25.411
X27.179 Y25.423
X27.184 Y25.497 Z-1.808
Y25.501
X27.178 Y25.586 Z-1.811
Y25.59
X27.164 Y25.659 Z-1.814
X27.161 Y25.674
Y25.678
X27.133 Y25.759 Z-1.817
X27.132 Y25.762
X27.094 Y25.839 Z-1.82
X27.092 Y25.843
X27.044 Y25.914 Z-1.823
X27.042 Y25.917 Z-1.824
X26.986 Y25.982 Z-1.826
X26.983 Y25.984 Z-1.827
X26.919 Y26.041 Z-1.83
X26.916 Y26.043
X26.845 Y26.091 Z-1.833
X26.841 Y26.093
X26.765 Y26.131 Z-1.836
X26.761 Y26.132
X26.68 Y26.16 Z-1.839
X26.676 Y26.161
X26.592 Y26.178 Z-1.842
X26.589
X26.503 Y26.184 Z-1.845
X26.499
X26.414 Y26.178 Z-1.848
X26.41
X26.326 Y26.161 Z-1.851
X26.322
X26.241 Y26.133 Z-1.854
X26.238 Y26.132 Z-1.855
X26.161 Y26.094 Z-1.858
X26.157 Y26.092
X26.086 Y26.044 Z-1.861
X26.083 Y26.042
X26.018 Y25.986 Z-1.864
X26.016 Y25.983
X25.959 Y25.919 Z-1.867
X25.957 Y25.916
X25.909 Y25.845 Z-1.87
X25.907 Y25.841
X25.869 Y25.765 Z-1.873
X25.868 Y25.761
X25.84 Y25.68 Z-1.876
X25.839 Y25.676
X25.822 Y25.592 Z-1.879
Y25.589
X25.816 Y25.503 Z-1.882
Y25.499 Z-1.883
X25.822 Y25.414 Z-1.886
Y25.41
X25.839 Y25.326 Z-1.889
Y25.322
X25.867 Y25.241 Z-1.892
X25.868 Y25.238
X25.906 Y25.161 Z-1.895
X25.908 Y25.157
X25.956 Y25.086 Z-1.898
X25.958 Y25.083
X26.014 Y25.018 Z-1.901
X26.017 Y25.016
X26.081 Y24.959 Z-1.904
X26.084 Y24.957
X26.155 Y24.909 Z-1.907
X26.159 Y24.907
X26.235 Y24.869 Z-1.91
X26.239 Y24.868 Z-1.911
X26.32 Y24.84 Z-1.914
X26.324 Y24.839
X26.408 Y24.822 Z-1.917
X26.411
X26.497 Y24.816 Z-1.92
X26.501
X26.542 Y24.819 Z-1.921
X26.586 Y24.822 Z-1.923
X26.59
X26.674 Y24.839 Z-1.926
X26.678
X26.759 Y24.867 Z-1.929
X26.762 Y24.868
X26.839 Y24.906 Z-1.932
X26.843 Y24.908
X26.914 Y24.956 Z-1.935
X26.917 Y24.958
X26.982 Y25.014 Z-1.938
X26.984 Y25.017
X27.041 Y25.081 Z-1.941
X27.043 Y25.084 Z-1.942
X27.091 Y25.155 Z-1.945
X27.093 Y25.159
X27.111 Y25.195 Z-1.946
X27.131 Y25.235 Z-1.948
X27.132 Y25.239
X27.16 Y25.32 Z-1.951
X27.161 Y25.324
X27.178 Y25.408 Z-1.954
Y25.411
X27.184 Y25.497 Z-1.957
Y25.501
X27.178 Y25.586 Z-1.96
Y25.59
X27.161 Y25.674 Z-1.963
Y25.678
X27.133 Y25.759 Z-1.966
X27.132 Y25.762
X27.094 Y25.839 Z-1.968
X27.092 Y25.843
X27.069 Y25.877 Z-1.97
X27.044 Y25.914 Z-1.971
X27.042 Y25.917
X26.986 Y25.982 Z-1.974
X26.983 Y25.984
X26.952 Y26.011 Z-1.975
X26.919 Y26.041 Z-1.976
X26.916 Y26.043
X26.845 Y26.091 Z-1.978
X26.841 Y26.093
X26.805 Y26.111 Z-1.979
X26.765 Y26.131 Z-1.981
X26.761 Y26.132
X26.68 Y26.16 Z-1.983
X26.676 Y26.161
X26.636 Y26.169 Z-1.984
X26.592 Y26.178 Z-1.985
X26.589
X26.503 Y26.184 Z-1.987
X26.499
X26.458 Y26.181 Z-1.988
X26.414 Y26.178 Z-1.989
X26.41
X26.326 Y26.161 Z-1.99
X26.322
X26.283 Y26.147 Z-1.991
X26.241 Y26.133 Z-1.992
X26.238 Y26.132
X26.161 Y26.094 Z-1.993
X26.157 Y26.092
X26.123 Y26.069 Z-1.994
X26.086 Y26.044 Z-1.995
X26.083 Y26.042
X26.018 Y25.986 Z-1.996
X26.016 Y25.983
X25.989 Y25.952
X25.959 Y25.919 Z-1.997
X25.957 Y25.916
X25.909 Y25.845 Z-1.998
X25.907 Y25.841
X25.889 Y25.805
X25.869 Y25.765
X25.868 Y25.761
X25.84 Y25.68 Z-1.999
X25.839 Y25.676
X25.831 Y25.636
X25.822 Y25.592
Y25.589 Z-2.
X25.818 Y25.527
X25.816 Y25.501
Y25.498
X25.817 Y25.476
X25.822 Y25.412
Y25.409
X25.829 Y25.375
G3 X26.626 Y24.828 R0.684
X27.173 Y25.626 R0.684
X26.375 Y26.172 R0.684
X25.823 Y25.41 R0.684
G1 X25.829 Y25.375
X25.839 Y25.323
X25.84 Y25.32
X25.868 Y25.239
X25.869 Y25.235
X25.884 Y25.205
X25.907 Y25.158 Z-2.001
X25.909 Y25.155
X25.957 Y25.084
X25.959 Y25.081
X25.981 Y25.056
X26.016 Y25.017 Z-2.002
X26.019 Y25.014
X26.083 Y24.958
X26.086 Y24.955
X26.114 Y24.937 Z-2.003
X26.158 Y24.908
X26.161 Y24.906
X26.238 Y24.868 Z-2.004
X26.241 Y24.867
X26.273 Y24.856 Z-2.005
X26.322 Y24.839 Z-2.006
X26.326
X26.41 Y24.822 Z-2.007
X26.414 Y24.821
X26.447 Y24.819
X26.499 Y24.816 Z-2.008
X26.503
X26.589 Y24.822 Z-2.01
X26.592
X26.625 Y24.829 Z-2.011
X26.677 Y24.839 Z-2.012
X26.68 Y24.84
X26.761 Y24.868 Z-2.013
X26.765 Y24.869
X26.795 Y24.884 Z-2.014
X26.842 Y24.907 Z-2.015
X26.845 Y24.909
X26.916 Y24.957 Z-2.017
X26.919 Y24.959
X26.944 Y24.981 Z-2.018
X26.983 Y25.016 Z-2.019
X26.986 Y25.019 Z-2.02
X27.042 Y25.083 Z-2.022
X27.045 Y25.086
X27.063 Y25.114 Z-2.023
X27.092 Y25.158 Z-2.024
X27.094 Y25.161
X27.132 Y25.238 Z-2.027
X27.133 Y25.241
X27.144 Y25.273 Z-2.028
X27.161 Y25.322 Z-2.029
Y25.326
X27.178 Y25.41 Z-2.032
X27.179 Y25.414
X27.181 Y25.447 Z-2.033
X27.184 Y25.5 Z-2.034
Y25.503 Z-2.035
X27.178 Y25.589 Z-2.037
Y25.592
X27.161 Y25.677 Z-2.04
X27.16 Y25.68
X27.132 Y25.761 Z-2.043
X27.131 Y25.765
X27.093 Y25.842 Z-2.046
X27.091 Y25.845
X27.043 Y25.916 Z-2.049
X27.041 Y25.919
X26.984 Y25.983 Z-2.052
X26.981 Y25.986 Z-2.053
X26.934 Y26.028 Z-2.055
X26.917 Y26.042 Z-2.056
X26.914 Y26.045
X26.842 Y26.092 Z-2.059
X26.839 Y26.094
X26.762 Y26.132 Z-2.062
X26.759 Y26.133
X26.727 Y26.144 Z-2.063
X26.678 Y26.161 Z-2.065
X26.674
X26.59 Y26.178 Z-2.068
X26.586 Y26.179
X26.501 Y26.184 Z-2.071
X26.497
X26.411 Y26.178 Z-2.074
X26.408
X26.323 Y26.161 Z-2.077
X26.32 Y26.16
X26.239 Y26.132 Z-2.08
X26.235 Y26.131 Z-2.081
X26.158 Y26.093 Z-2.083
X26.155 Y26.091 Z-2.084
X26.084 Y26.043 Z-2.087
X26.081 Y26.041
X26.017 Y25.984 Z-2.09
X26.014 Y25.981
X25.958 Y25.917 Z-2.093
X25.955 Y25.914
X25.908 Y25.842 Z-2.096
X25.906 Y25.839
X25.868 Y25.762 Z-2.099
X25.867 Y25.759
X25.839 Y25.678 Z-2.102
Y25.674
X25.822 Y25.59 Z-2.105
X25.821 Y25.586
X25.816 Y25.5 Z-2.108
Y25.497
X25.822 Y25.411 Z-2.111
Y25.408 Z-2.112
X25.839 Y25.323 Z-2.115
X25.84 Y25.32
X25.868 Y25.239 Z-2.118
X25.869 Y25.235
X25.907 Y25.158 Z-2.121
X25.909 Y25.155
X25.957 Y25.084 Z-2.124
X25.959 Y25.081
X26.016 Y25.017 Z-2.127
X26.019 Y25.014
X26.083 Y24.958 Z-2.13
X26.086 Y24.955
X26.158 Y24.908 Z-2.133
X26.161 Y24.906
X26.238 Y24.868 Z-2.136
X26.241 Y24.867
X26.322 Y24.839 Z-2.139
X26.326 Z-2.14
X26.41 Y24.822 Z-2.143
X26.414 Y24.821
X26.499 Y24.816 Z-2.146
X26.503
X26.589 Y24.822 Z-2.149
X26.592
X26.677 Y24.839 Z-2.152
X26.68 Y24.84
X26.761 Y24.868 Z-2.155
X26.765 Y24.869
X26.842 Y24.907 Z-2.158
X26.845 Y24.909
X26.916 Y24.957 Z-2.161
X26.919 Y24.959
X26.944 Y24.981 Z-2.162
X26.983 Y25.016 Z-2.164
X26.986 Y25.019
X27.042 Y25.083 Z-2.167
X27.045 Y25.086 Z-2.168
X27.092 Y25.158 Z-2.17
X27.094 Y25.161 Z-2.171
X27.132 Y25.238 Z-2.174
X27.133 Y25.241
X27.161 Y25.322 Z-2.177
Y25.326
X27.178 Y25.41 Z-2.18
X27.179 Y25.414
X27.184 Y25.5 Z-2.183
Y25.503
X27.178 Y25.589 Z-2.186
Y25.592
X27.171 Y25.625 Z-2.187
X27.161 Y25.677 Z-2.189
X27.16 Y25.68
X27.132 Y25.761 Z-2.192
X27.131 Y25.765
X27.093 Y25.842 Z-2.195
X27.091 Y25.845
X27.043 Y25.916 Z-2.198
X27.041 Y25.919 Z-2.199
X26.984 Y25.983 Z-2.202
X26.981 Y25.986
X26.917 Y26.042 Z-2.205
X26.914 Y26.045
X26.842 Y26.092 Z-2.208
X26.839 Y26.094
X26.762 Y26.132 Z-2.211
X26.759 Y26.133
X26.678 Y26.161 Z-2.213
X26.674 Z-2.214
X26.59 Y26.178 Z-2.216
X26.586 Y26.179
X26.501 Y26.184 Z-2.219
X26.497
X26.411 Y26.178 Z-2.222
X26.408
X26.375 Y26.171 Z-2.223
X26.323 Y26.161 Z-2.224
X26.32 Y26.16
X26.239 Y26.132 Z-2.227
X26.235 Y26.131
X26.205 Y26.116 Z-2.228
X26.158 Y26.093 Z-2.229
X26.155 Y26.091
X26.084 Y26.043 Z-2.231
X26.081 Y26.041
X26.056 Y26.019 Z-2.232
X26.017 Y25.984 Z-2.233
X26.014 Y25.981
X25.958 Y25.917 Z-2.235
X25.955 Y25.914
X25.937 Y25.886 Z-2.236
X25.908 Y25.842 Z-2.237
X25.906 Y25.839
X25.868 Y25.762 Z-2.239
X25.867 Y25.759
X25.856 Y25.727 Z-2.24
X25.839 Y25.678 Z-2.241
Y25.674
X25.822 Y25.59 Z-2.242
X25.821 Y25.586
X25.819 Y25.553 Z-2.243
X25.816 Y25.5 Z-2.244
Y25.497
X25.822 Y25.411 Z-2.245
Y25.408
X25.829 Y25.375
X25.839 Y25.323 Z-2.246
X25.84 Y25.32
X25.868 Y25.239 Z-2.247
X25.869 Y25.235
X25.884 Y25.205
X25.907 Y25.158 Z-2.248
X25.909 Y25.155
X25.957 Y25.084 Z-2.249
X25.959 Y25.081
X25.981 Y25.056
X26.016 Y25.017
X26.019 Y25.014
X26.082 Y24.959 Z-2.25
X26.085 Y24.956
X26.11 Y24.939
X26.156 Y24.909
X26.159 Y24.907
X26.206 Y24.884
X26.237 Y24.869
X26.24 Y24.867
X26.256 Y24.862
G3 X27.139 Y25.257 R0.684
X26.744 Y26.139 R0.684
X25.861 Y25.744 R0.684
X26.239 Y24.869 R0.684
G1 X26.256 Y24.862
X26.32 Y24.84
X26.323 Y24.839
X26.371 Y24.83
X26.408 Y24.822
X26.411
X26.43 Y24.82
X26.497 Y24.816 Z-2.251
X26.501
X26.549 Y24.819
X26.586 Y24.821
X26.59 Y24.822
X26.608 Y24.825
X26.674 Y24.839 Z-2.252
X26.678
X26.723 Y24.855
X26.759 Y24.867 Z-2.253
X26.762 Y24.868
X26.779 Y24.876
X26.839 Y24.906
X26.842 Y24.908 Z-2.254
X26.914 Y24.955 Z-2.255
X26.917 Y24.958
X26.931 Y24.97
X26.981 Y25.014 Z-2.256
X26.984 Y25.017
X27.041 Y25.081 Z-2.257
X27.043 Y25.084
X27.053 Y25.099
X27.091 Y25.155 Z-2.259
X27.093 Y25.158
X27.131 Y25.235 Z-2.26
X27.132 Y25.239
X27.16 Y25.32 Z-2.262
X27.161 Y25.323
X27.178 Y25.408 Z-2.264
Y25.411
X27.184 Y25.497 Z-2.266
Y25.5
X27.179 Y25.586 Z-2.268
X27.178 Y25.59
X27.161 Y25.674 Z-2.27
Y25.678
X27.133 Y25.759 Z-2.272
X27.132 Y25.762
X27.094 Y25.839 Z-2.275
X27.092 Y25.842
X27.045 Y25.914 Z-2.277
X27.042 Y25.917
X26.986 Y25.981 Z-2.28
X26.983 Y25.984
X26.919 Y26.041 Z-2.282
X26.916 Y26.043
X26.845 Y26.091 Z-2.285
X26.842 Y26.093
X26.765 Y26.131 Z-2.288
X26.761 Y26.132
X26.68 Y26.16 Z-2.291
X26.677 Y26.161
X26.592 Y26.178 Z-2.294
X26.589
X26.503 Y26.184 Z-2.297
X26.5
X26.414 Y26.179 Z-2.3
X26.41 Y26.178
X26.326 Y26.161 Z-2.303
X26.322
X26.277 Y26.145 Z-2.305
X26.241 Y26.133 Z-2.306
X26.238 Y26.132
X26.161 Y26.094 Z-2.309
X26.158 Y26.092
X26.086 Y26.045 Z-2.312
X26.083 Y26.042
X26.069 Y26.03 Z-2.313
X26.019 Y25.986 Z-2.315
X26.016 Y25.983
X25.959 Y25.919 Z-2.318
X25.957 Y25.916 Z-2.319
X25.909 Y25.845 Z-2.322
X25.907 Y25.842
X25.869 Y25.765 Z-2.325
X25.868 Y25.761
X25.84 Y25.68 Z-2.328
X25.839 Y25.677
X25.822 Y25.592 Z-2.331
Y25.589
X25.816 Y25.503 Z-2.334
Y25.5
X25.821 Y25.414 Z-2.337
X25.822 Y25.41
X25.839 Y25.326 Z-2.34
Y25.322
X25.867 Y25.241 Z-2.343
X25.868 Y25.238
X25.906 Y25.161 Z-2.346
X25.908 Y25.158 Z-2.347
X25.955 Y25.086 Z-2.35
X25.958 Y25.083
X26.014 Y25.019 Z-2.353
X26.017 Y25.016
X26.081 Y24.959 Z-2.356
X26.084 Y24.957
X26.155 Y24.909 Z-2.359
X26.158 Y24.907
X26.235 Y24.869 Z-2.362
X26.239 Y24.868
X26.32 Y24.84 Z-2.365
X26.323 Y24.839
X26.408 Y24.822 Z-2.368
X26.411
X26.497 Y24.816 Z-2.371
X26.501
X26.586 Y24.821 Z-2.374
X26.59 Y24.822 Z-2.375
X26.674 Y24.839 Z-2.378
X26.678
X26.759 Y24.867 Z-2.381
X26.762 Y24.868
X26.839 Y24.906 Z-2.384
X26.842 Y24.908
X26.914 Y24.955 Z-2.387
X26.917 Y24.958
X26.981 Y25.014 Z-2.39
X26.984 Y25.017
X27.041 Y25.081 Z-2.393
X27.043 Y25.084
X27.091 Y25.155 Z-2.396
X27.093 Y25.158
X27.131 Y25.235 Z-2.399
X27.132 Y25.239
X27.16 Y25.32 Z-2.402
X27.161 Y25.323
X27.178 Y25.408 Z-2.405
Y25.411 Z-2.406
X27.184 Y25.497 Z-2.409
Y25.5
X27.179 Y25.586 Z-2.412
X27.178 Y25.59
X27.161 Y25.674 Z-2.415
Y25.678
X27.133 Y25.759 Z-2.418
X27.132 Y25.762
X27.094 Y25.839 Z-2.421
X27.092 Y25.842
X27.045 Y25.914 Z-2.424
X27.042 Y25.917
X26.986 Y25.981 Z-2.427
X26.983 Y25.984
X26.947 Y26.016 Z-2.429
X26.919 Y26.041 Z-2.43
X26.916 Y26.043
X26.845 Y26.091 Z-2.433
X26.842 Y26.093 Z-2.434
X26.765 Y26.131 Z-2.437
X26.761 Y26.132
X26.744 Y26.138
X26.68 Y26.16 Z-2.44
X26.677 Y26.161
X26.592 Y26.178 Z-2.443
X26.589
X26.503 Y26.184 Z-2.446
X26.5
X26.414 Y26.179 Z-2.449
X26.41 Y26.178
X26.326 Y26.161 Z-2.452
X26.322
X26.241 Y26.133 Z-2.455
X26.238 Y26.132
X26.161 Y26.094 Z-2.458
X26.158 Y26.092
X26.086 Y26.045 Z-2.461
X26.083 Y26.042
X26.019 Y25.986 Z-2.464
X26.016 Y25.983
X25.959 Y25.919 Z-2.467
X25.957 Y25.916
X25.909 Y25.845 Z-2.469
X25.907 Y25.842 Z-2.47
X25.886 Y25.798 Z-2.471
X25.869 Y25.765 Z-2.472
X25.868 Y25.761
X25.84 Y25.68 Z-2.475
X25.839 Y25.677
X25.83 Y25.629 Z-2.476
X25.822 Y25.592 Z-2.477
Y25.589
X25.816 Y25.503 Z-2.479
Y25.5
X25.819 Y25.451 Z-2.481
X25.821 Y25.414
X25.822 Y25.41 Z-2.482
X25.839 Y25.326 Z-2.484
Y25.322
X25.855 Y25.277 Z-2.485
X25.867 Y25.241 Z-2.486
X25.868 Y25.238
X25.906 Y25.161 Z-2.487
X25.908 Y25.158
X25.935 Y25.117 Z-2.488
X25.955 Y25.086 Z-2.489
X25.958 Y25.083
X26.014 Y25.019 Z-2.491
X26.017 Y25.016
X26.053 Y24.984 Z-2.492
X26.081 Y24.959
X26.084 Y24.957
X26.155 Y24.909 Z-2.494
X26.158 Y24.907
X26.235 Y24.869 Z-2.495
X26.239 Y24.868
X26.256 Y24.862
X26.32 Y24.84 Z-2.496
X26.323 Y24.839
X26.371 Y24.83 Z-2.497
X26.408 Y24.822
X26.411
X26.43 Y24.82
X26.497 Y24.816 Z-2.498
X26.501
X26.549 Y24.819
X26.586 Y24.821 Z-2.499
X26.59 Y24.822
X26.608 Y24.825
X26.674 Y24.839
X26.678
X26.759 Y24.867 Z-2.5
X26.763 Y24.868
X26.775 Y24.875
X26.84 Y24.907
X26.843 Y24.908
X26.872 Y24.928
X26.915 Y24.956
X26.918 Y24.958
G3 X27.042 Y25.918 R0.684
X26.082 Y26.042 R0.684
X25.958 Y25.082 R0.684
X26.918 Y24.958 R0.684
G1 X26.982 Y25.015
X26.985 Y25.018
X27.005 Y25.04
X27.041 Y25.082
X27.044 Y25.085
X27.091 Y25.156 Z-2.501
X27.093 Y25.16
X27.107 Y25.186
X27.131 Y25.236
X27.133 Y25.24
X27.16 Y25.321 Z-2.502
X27.161 Y25.325
X27.167 Y25.354
X27.178 Y25.409 Z-2.503
Y25.413
X27.184 Y25.498 Z-2.504
Y25.502
X27.182 Y25.532
X27.178 Y25.587 Z-2.505
Y25.591
X27.161 Y25.675 Z-2.506
X27.16 Y25.679
X27.141 Y25.735 Z-2.507
X27.133 Y25.76
X27.131 Y25.763
X27.093 Y25.84 Z-2.509
X27.091 Y25.844
X27.058 Y25.893 Z-2.51
X27.044 Y25.915 Z-2.511
X27.042 Y25.918
X26.985 Y25.982 Z-2.512
X26.982 Y25.985
X26.938 Y26.024 Z-2.514
X26.918 Y26.042
X26.915 Y26.044
X26.844 Y26.091 Z-2.516
X26.84 Y26.093
X26.787 Y26.12 Z-2.518
X26.764 Y26.131
X26.76 Y26.133
X26.679 Y26.16 Z-2.52
X26.675 Y26.161
X26.591 Y26.178 Z-2.523
X26.587
X26.502 Y26.184 Z-2.525
X26.498
X26.413 Y26.178 Z-2.527
X26.409 Z-2.528
X26.325 Y26.161 Z-2.53
X26.321 Y26.16
X26.24 Y26.133 Z-2.533
X26.237 Y26.131
X26.16 Y26.093 Z-2.536
X26.156 Y26.091
X26.085 Y26.044 Z-2.538
X26.082 Y26.042
X26.018 Y25.985 Z-2.541
X26.015 Y25.982
X25.959 Y25.918 Z-2.544
X25.956 Y25.915
X25.909 Y25.844 Z-2.547
X25.907 Y25.84
X25.869 Y25.764 Z-2.55
X25.867 Y25.76 Z-2.551
X25.84 Y25.679 Z-2.554
X25.839 Y25.675
X25.833 Y25.646 Z-2.555
X25.822 Y25.591 Z-2.557
Y25.587
X25.816 Y25.502 Z-2.56
Y25.498
X25.822 Y25.413 Z-2.563
Y25.409
X25.839 Y25.325 Z-2.566
X25.84 Y25.321
X25.867 Y25.24 Z-2.569
X25.869 Y25.237
X25.907 Y25.16 Z-2.572
X25.909 Y25.156
X25.956 Y25.085 Z-2.575
X25.958 Y25.082
X26.015 Y25.018 Z-2.578
X26.018 Y25.015 Z-2.579
X26.04 Y24.995 Z-2.58
X26.082 Y24.958 Z-2.582
X26.085 Y24.956
X26.156 Y24.909 Z-2.585
X26.16 Y24.907
X26.236 Y24.869 Z-2.588
X26.24 Y24.867
X26.321 Y24.84 Z-2.591
X26.325 Y24.839
X26.409 Y24.822 Z-2.594
X26.413
X26.498 Y24.816 Z-2.597
X26.502
X26.587 Y24.822 Z-2.6
X26.591
X26.675 Y24.839 Z-2.603
X26.679 Y24.84
X26.76 Y24.867 Z-2.606
X26.763 Y24.869 Z-2.607
X26.84 Y24.907 Z-2.61
X26.844 Y24.909
X26.915 Y24.956 Z-2.613
X26.918 Y24.958
X26.982 Y25.015 Z-2.616
X26.985 Y25.018
X27.041 Y25.082 Z-2.619
X27.044 Y25.085
X27.091 Y25.156 Z-2.622
X27.093 Y25.16
X27.131 Y25.236 Z-2.625
X27.133 Y25.24
X27.16 Y25.321 Z-2.628
X27.161 Y25.325
X27.178 Y25.409 Z-2.631
Y25.413
X27.184 Y25.498 Z-2.634
Y25.502 Z-2.635
X27.178 Y25.587 Z-2.637
Y25.591 Z-2.638
X27.161 Y25.675 Z-2.641
X27.16 Y25.679
X27.133 Y25.76 Z-2.644
X27.131 Y25.763
X27.093 Y25.84 Z-2.647
X27.091 Y25.844
X27.044 Y25.915 Z-2.65
X27.042 Y25.918
X26.985 Y25.982 Z-2.653
X26.982 Y25.985
X26.918 Y26.042 Z-2.656
X26.915 Y26.044
X26.844 Y26.091 Z-2.659
X26.84 Y26.093
X26.764 Y26.131 Z-2.662
X26.76 Y26.133
X26.679 Y26.16 Z-2.665
X26.675 Y26.161 Z-2.666
X26.591 Y26.178 Z-2.669
X26.587
X26.502 Y26.184 Z-2.672
X26.498
X26.413 Y26.178 Z-2.675
X26.409
X26.325 Y26.161 Z-2.678
X26.321 Y26.16
X26.293 Y26.151 Z-2.679
X26.24 Y26.133 Z-2.681
X26.237 Y26.131
X26.16 Y26.093 Z-2.684
X26.156 Y26.091
X26.085 Y26.044 Z-2.687
X26.082 Y26.042
X26.018 Y25.985 Z-2.69
X26.015 Y25.982
X25.959 Y25.918 Z-2.693
X25.956 Y25.915 Z-2.694
X25.923 Y25.865 Z-2.696
X25.909 Y25.844 Z-2.697
X25.907 Y25.84
X25.869 Y25.764 Z-2.7
X25.867 Y25.76
X25.84 Y25.679 Z-2.703
X25.839 Y25.675
X25.822 Y25.591 Z-2.706
Y25.587
X25.816 Y25.502 Z-2.709
Y25.498
X25.822 Y25.413 Z-2.712
Y25.409
X25.839 Y25.325 Z-2.715
X25.84 Y25.321
X25.867 Y25.24 Z-2.717
X25.869 Y25.237
X25.907 Y25.16 Z-2.72
X25.909 Y25.156
X25.956 Y25.085 Z-2.723
X25.958 Y25.082
X26.015 Y25.018 Z-2.725
X26.018 Y25.015
X26.082 Y24.958 Z-2.727
X26.085 Y24.956 Z-2.728
X26.156 Y24.909 Z-2.73
X26.16 Y24.907
X26.213 Y24.88 Z-2.731
X26.236 Y24.869 Z-2.732
X26.24 Y24.867
X26.321 Y24.84 Z-2.734
X26.325 Y24.839
X26.383 Y24.827 Z-2.735
X26.409 Y24.822 Z-2.736
X26.413
X26.498 Y24.816 Z-2.738
X26.502
X26.561 Y24.82 Z-2.739
X26.587 Y24.822 Z-2.74
X26.591
X26.675 Y24.839 Z-2.741
X26.679 Y24.84
X26.735 Y24.859 Z-2.742
X26.76 Y24.867 Z-2.743
X26.763 Y24.869
X26.84 Y24.907 Z-2.744
X26.844 Y24.909
X26.893 Y24.942 Z-2.745
X26.915 Y24.956
X26.918 Y24.958
X26.982 Y25.015 Z-2.746
X26.985 Y25.018
X27.005 Y25.04 Z-2.747
X27.041 Y25.082
X27.044 Y25.085
X27.091 Y25.156 Z-2.748
X27.093 Y25.16
X27.107 Y25.186
X27.131 Y25.236 Z-2.749
X27.133 Y25.24
X27.16 Y25.321
X27.161 Y25.325
X27.167 Y25.354
X27.178 Y25.408 Z-2.75
Y25.411
X27.182 Y25.463
X27.184 Y25.498
Y25.501
X27.183 Y25.518
X27.179 Y25.573
G3 X26.426 Y26.18 R0.684
X25.82 Y25.427 R0.684
X26.573 Y24.82 R0.684
X27.183 Y25.501 R0.684
G1 X27.179 Y25.573
X27.178 Y25.588
Y25.592
X27.17 Y25.632
X27.161 Y25.676
X27.16 Y25.679
X27.132 Y25.761
X27.131 Y25.764
X27.113 Y25.801 Z-2.751
X27.093 Y25.841
X27.091 Y25.844
X27.043 Y25.916
X27.041 Y25.918
X27.014 Y25.949 Z-2.752
X26.985 Y25.983
X26.982 Y25.985
X26.917 Y26.042 Z-2.753
X26.914 Y26.044
X26.88 Y26.067
X26.843 Y26.092 Z-2.754
X26.84 Y26.094
X26.763 Y26.132 Z-2.755
X26.759 Y26.133
X26.721 Y26.146 Z-2.756
X26.678 Y26.16
X26.675 Y26.161
X26.59 Y26.178 Z-2.758
X26.587
X26.546 Y26.181
X26.501 Y26.184 Z-2.759
X26.497
X26.412 Y26.178 Z-2.761
X26.408
X26.368 Y26.17 Z-2.762
X26.324 Y26.161 Z-2.763
X26.321 Y26.16
X26.239 Y26.132 Z-2.764
X26.236 Y26.131 Z-2.765
X26.199 Y26.113
X26.159 Y26.093 Z-2.766
X26.156 Y26.091 Z-2.767
X26.084 Y26.043 Z-2.769
X26.082 Y26.041
X26.051 Y26.014 Z-2.77
X26.017 Y25.985 Z-2.771
X26.015 Y25.982
X25.958 Y25.917 Z-2.773
X25.956 Y25.914
X25.933 Y25.88 Z-2.774
X25.908 Y25.843 Z-2.776
X25.906 Y25.84
X25.868 Y25.763 Z-2.778
X25.867 Y25.759
X25.854 Y25.721 Z-2.779
X25.84 Y25.678 Z-2.781
X25.839 Y25.675
X25.822 Y25.59 Z-2.783
Y25.587
X25.816 Y25.501 Z-2.786
Y25.497
X25.822 Y25.412 Z-2.789
Y25.408
X25.839 Y25.324 Z-2.792
X25.84 Y25.321
X25.868 Y25.239 Z-2.795
X25.869 Y25.236
X25.907 Y25.159 Z-2.798
X25.909 Y25.156
X25.957 Y25.084 Z-2.801
X25.959 Y25.082
X26.015 Y25.017 Z-2.804
X26.018 Y25.015
X26.027 Y25.007 Z-2.805
X26.083 Y24.958 Z-2.807
X26.086 Y24.956
X26.157 Y24.908 Z-2.81
X26.16 Y24.906 Z-2.811
X26.237 Y24.868 Z-2.814
X26.241 Y24.867
X26.322 Y24.84 Z-2.817
X26.325 Y24.839
X26.41 Y24.822 Z-2.82
X26.413
X26.454 Y24.819 Z-2.821
X26.499 Y24.816 Z-2.823
X26.503
X26.588 Y24.822 Z-2.826
X26.592
X26.676 Y24.839 Z-2.829
X26.679 Y24.84
X26.761 Y24.868 Z-2.832
X26.764 Y24.869
X26.841 Y24.907 Z-2.835
X26.844 Y24.909
X26.916 Y24.957 Z-2.838
X26.918 Y24.959 Z-2.839
X26.983 Y25.015 Z-2.842
X26.985 Y25.018
X27.042 Y25.083 Z-2.845
X27.044 Y25.086
X27.092 Y25.157 Z-2.848
X27.094 Y25.16
X27.132 Y25.237 Z-2.851
X27.133 Y25.241
X27.16 Y25.322 Z-2.854
X27.161 Y25.325
X27.178 Y25.41 Z-2.857
Y25.413
X27.184 Y25.499 Z-2.86
Y25.503
X27.178 Y25.588 Z-2.863
Y25.592
X27.161 Y25.676 Z-2.866
X27.16 Y25.679
X27.132 Y25.761 Z-2.869
X27.131 Y25.764 Z-2.87
X27.093 Y25.841 Z-2.873
X27.091 Y25.844
X27.043 Y25.916 Z-2.876
X27.041 Y25.918
X26.985 Y25.983 Z-2.879
X26.982 Y25.985
X26.917 Y26.042 Z-2.882
X26.914 Y26.044
X26.843 Y26.092 Z-2.885
X26.84 Y26.094
X26.763 Y26.132 Z-2.888
X26.759 Y26.133
X26.678 Y26.16 Z-2.891
X26.675 Y26.161
X26.59 Y26.178 Z-2.894
X26.587
X26.501 Y26.184 Z-2.897
X26.497 Z-2.898
X26.412 Y26.178 Z-2.901
X26.408
X26.324 Y26.161 Z-2.904
X26.321 Y26.16
X26.239 Y26.132 Z-2.907
X26.236 Y26.131
X26.159 Y26.093 Z-2.91
X26.156 Y26.091
X26.084 Y26.043 Z-2.913
X26.082 Y26.041
X26.017 Y25.985 Z-2.916
X26.015 Y25.982
X25.958 Y25.917 Z-2.919
X25.956 Y25.914
X25.933 Y25.88 Z-2.921
X25.908 Y25.843 Z-2.922
X25.906 Y25.84
X25.868 Y25.763 Z-2.925
X25.867 Y25.759 Z-2.926
X25.84 Y25.678 Z-2.928
X25.839 Y25.675 Z-2.929
X25.822 Y25.59 Z-2.932
Y25.587
X25.816 Y25.501 Z-2.935
Y25.497
X25.822 Y25.412 Z-2.938
Y25.408
X25.839 Y25.324 Z-2.941
X25.84 Y25.321
X25.868 Y25.239 Z-2.944
X25.869 Y25.236
X25.887 Y25.199 Z-2.946
X25.907 Y25.159 Z-2.947
X25.909 Y25.156
X25.957 Y25.084 Z-2.95
X25.959 Y25.082
X26.015 Y25.017 Z-2.953
X26.018 Y25.015
X26.083 Y24.958 Z-2.956
X26.086 Y24.956 Z-2.957
X26.157 Y24.908 Z-2.959
X26.16 Y24.906 Z-2.96
X26.237 Y24.868 Z-2.962
X26.241 Y24.867
X26.322 Y24.84 Z-2.965
X26.325 Y24.839
X26.41 Y24.822 Z-2.968
X26.413
X26.454 Y24.819 Z-2.969
X26.499 Y24.816 Z-2.971
X26.503
X26.588 Y24.822 Z-2.973
X26.592
X26.632 Y24.83 Z-2.974
X26.676 Y24.839 Z-2.976
X26.679 Y24.84
X26.761 Y24.868 Z-2.978
X26.764 Y24.869
X26.801 Y24.887 Z-2.979
X26.841 Y24.907 Z-2.98
X26.844 Y24.909
X26.916 Y24.957 Z-2.982
X26.918 Y24.959
X26.949 Y24.986 Z-2.983
X26.983 Y25.015 Z-2.984
X26.985 Y25.018
X27.042 Y25.083 Z-2.986
X27.044 Y25.086
X27.067 Y25.12 Z-2.987
X27.092 Y25.157 Z-2.988
X27.094 Y25.16
X27.132 Y25.237 Z-2.99
X27.133 Y25.241
X27.146 Y25.279 Z-2.991
X27.16 Y25.322
X27.161 Y25.325 Z-2.992
X27.178 Y25.41 Z-2.993
Y25.413
X27.181 Y25.454 Z-2.994
X27.184 Y25.499
Y25.503
X27.178 Y25.588 Z-2.995
Y25.592 Z-2.996
X27.17 Y25.632
X27.161 Y25.676 Z-2.997
X27.16 Y25.679
X27.132 Y25.761
X27.131 Y25.764 Z-2.998
X27.113 Y25.801
X27.093 Y25.841
X27.091 Y25.844
X27.043 Y25.916 Z-2.999
X27.041 Y25.918
X27.014 Y25.949
X26.985 Y25.983
X26.982 Y25.985
X26.919 Y26.041 Z-3.
X26.916 Y26.043
X26.887 Y26.062
X26.844 Y26.091
X26.841 Y26.093
X26.792 Y26.117
G3 X25.882 Y25.791 R0.684
X26.208 Y24.881 R0.684
X27.118 Y25.207 R0.684
X26.792 Y26.117 R0.684
G1 X26.765 Y26.131
X26.762 Y26.132
X26.737 Y26.141
X26.68 Y26.16
X26.677 Y26.161
X26.622 Y26.172
X26.593 Y26.178
X26.589
X26.563 Y26.18 Z-3.001
X26.503 Y26.184
X26.5
X26.444 Y26.18
X26.414 Y26.179
X26.41 Y26.178
X26.385 Y26.173 Z-3.002
X26.326 Y26.162
X26.323 Y26.161
X26.27 Y26.143 Z-3.003
X26.242 Y26.133
X26.238 Y26.132
X26.215 Y26.12
X26.161 Y26.094 Z-3.004
X26.158 Y26.092
X26.136 Y26.078
X26.086 Y26.045 Z-3.005
X26.083 Y26.043
X26.064 Y26.025 Z-3.006
X26.019 Y25.986 Z-3.007
X26.016 Y25.984
X25.999 Y25.964
X25.96 Y25.919 Z-3.008
X25.957 Y25.916
X25.943 Y25.895
X25.909 Y25.845 Z-3.009
X25.907 Y25.842 Z-3.01
X25.896 Y25.818
X25.869 Y25.765 Z-3.011
X25.868 Y25.762
X25.859 Y25.737 Z-3.012
X25.84 Y25.68 Z-3.013
X25.839 Y25.677
X25.834 Y25.651 Z-3.014
X25.822 Y25.593 Z-3.015
Y25.589
X25.82 Y25.563
X25.816 Y25.503 Z-3.017
Y25.5
X25.818 Y25.474 Z-3.018
X25.821 Y25.414 Z-3.019
X25.822 Y25.41
X25.827 Y25.385 Z-3.02
X25.838 Y25.326 Z-3.021
X25.839 Y25.323
X25.867 Y25.242 Z-3.024
X25.868 Y25.238
X25.88 Y25.215
X25.906 Y25.161 Z-3.026
X25.908 Y25.158
X25.955 Y25.086 Z-3.028
X25.957 Y25.083 Z-3.029
X25.975 Y25.064
X26.014 Y25.019 Z-3.031
X26.016 Y25.016
X26.081 Y24.96 Z-3.034
X26.084 Y24.957
X26.155 Y24.909 Z-3.037
X26.158 Y24.907
X26.235 Y24.869 Z-3.039
X26.238 Y24.868 Z-3.04
X26.32 Y24.84 Z-3.042
X26.323 Y24.839 Z-3.043
X26.407 Y24.822 Z-3.045
X26.411 Z-3.046
X26.497 Y24.816 Z-3.048
X26.5 Z-3.049
X26.586 Y24.821 Z-3.052
X26.59 Y24.822
X26.674 Y24.838 Z-3.055
X26.677 Y24.839
X26.758 Y24.867 Z-3.058
X26.762 Y24.868
X26.839 Y24.906 Z-3.061
X26.842 Y24.908
X26.914 Y24.955 Z-3.064
X26.917 Y24.957
X26.981 Y25.014 Z-3.067
X26.984 Y25.016
X27.04 Y25.081 Z-3.07
X27.043 Y25.084
X27.057 Y25.105 Z-3.071
X27.091 Y25.155 Z-3.073
X27.093 Y25.158 Z-3.074
X27.131 Y25.235 Z-3.076
X27.132 Y25.238 Z-3.077
X27.16 Y25.32 Z-3.08
X27.161 Y25.323
X27.178 Y25.407 Z-3.083
Y25.411
X27.184 Y25.497 Z-3.086
Y25.5
X27.179 Y25.586 Z-3.089
X27.178 Y25.59
X27.162 Y25.674 Z-3.092
X27.161 Y25.677
X27.133 Y25.758 Z-3.095
X27.132 Y25.762
X27.094 Y25.839 Z-3.098
X27.092 Y25.842
X27.045 Y25.914 Z-3.101
X27.043 Y25.917
X26.986 Y25.981 Z-3.104
X26.984 Y25.984 Z-3.105
X26.919 Y26.04 Z-3.108
X26.916 Y26.043
X26.845 Y26.091 Z-3.111
X26.842 Y26.093
X26.765 Y26.131 Z-3.114
X26.762 Y26.132
X26.68 Y26.16 Z-3.117
X26.677 Y26.161
X26.593 Y26.178 Z-3.12
X26.589
X26.503 Y26.184 Z-3.123
X26.5
X26.414 Y26.179 Z-3.126
X26.41 Y26.178
X26.326 Y26.162 Z-3.129
X26.323 Y26.161
X26.242 Y26.133 Z-3.132
X26.238 Y26.132 Z-3.133
X26.161 Y26.094 Z-3.136
X26.158 Y26.092
X26.086 Y26.045 Z-3.139
X26.083 Y26.043
X26.019 Y25.986 Z-3.142
X26.016 Y25.984
X25.96 Y25.919 Z-3.145
X25.957 Y25.916
X25.909 Y25.845 Z-3.148
X25.907 Y25.842
X25.869 Y25.765 Z-3.151
X25.868 Y25.762
X25.84 Y25.68 Z-3.154
X25.839 Y25.677
X25.822 Y25.593 Z-3.157
Y25.589
X25.816 Y25.503 Z-3.16
Y25.5 Z-3.161
X25.82 Y25.444 Z-3.162
X25.821 Y25.414 Z-3.164
X25.822 Y25.41
X25.838 Y25.326 Z-3.167
X25.839 Y25.323
X25.867 Y25.242 Z-3.17
X25.868 Y25.238
X25.88 Y25.215 Z-3.171
X25.906 Y25.161 Z-3.173
X25.908 Y25.158
X25.955 Y25.086 Z-3.176
X25.957 Y25.083
X26.014 Y25.019 Z-3.179
X26.016 Y25.016
X26.081 Y24.96 Z-3.182
X26.084 Y24.957
X26.155 Y24.909 Z-3.185
X26.158 Y24.907
X26.208 Y24.883 Z-3.187
X26.235 Y24.869 Z-3.188
X26.238 Y24.868
X26.32 Y24.84 Z-3.191
X26.323 Y24.839 Z-3.192
X26.407 Y24.822 Z-3.195
X26.411
X26.437 Y24.82 Z-3.196
X26.497 Y24.816 Z-3.198
X26.5
X26.586 Y24.821 Z-3.201
X26.59 Y24.822
X26.674 Y24.838 Z-3.204
X26.677 Y24.839
X26.758 Y24.867 Z-3.207
X26.762 Y24.868
X26.839 Y24.906 Z-3.21
X26.842 Y24.908
X26.914 Y24.955 Z-3.213
X26.917 Y24.957
X26.981 Y25.014 Z-3.216
X26.984 Y25.016
X27.04 Y25.081 Z-3.218
X27.043 Y25.084
X27.091 Y25.155 Z-3.221
X27.093 Y25.158
X27.131 Y25.235 Z-3.224
X27.132 Y25.238
X27.16 Y25.32 Z-3.226
X27.161 Y25.323
X27.172 Y25.378 Z-3.228
X27.178 Y25.407
Y25.411
X27.184 Y25.497 Z-3.231
Y25.5
X27.182 Y25.526
X27.179 Y25.586 Z-3.233
X27.178 Y25.59
X27.162 Y25.674 Z-3.235
X27.161 Y25.677
X27.152 Y25.702
X27.133 Y25.758 Z-3.237
X27.132 Y25.762
X27.12 Y25.785
X27.094 Y25.839 Z-3.238
X27.092 Y25.842 Z-3.239
X27.078 Y25.864
X27.045 Y25.914 Z-3.24
X27.043 Y25.917
X27.025 Y25.936 Z-3.241
X26.986 Y25.981 Z-3.242
X26.984 Y25.984
X26.964 Y26.001
X26.919 Y26.04 Z-3.243
X26.916 Y26.043
X26.895 Y26.057 Z-3.244
X26.845 Y26.091
X26.842 Y26.093 Z-3.245
X26.792 Y26.117
X26.765 Y26.131 Z-3.246
X26.762 Y26.132
X26.737 Y26.141
X26.68 Y26.16 Z-3.247
X26.677 Y26.161
X26.622 Y26.172
X26.593 Y26.178 Z-3.248
X26.589
X26.563 Y26.18
X26.503 Y26.184
X26.5
X26.444 Y26.18 Z-3.249
X26.414 Y26.179
X26.41 Y26.178
X26.385 Y26.173
X26.323 Y26.161 Z-3.25
X26.274 Y26.144
X26.238 Y26.132
X26.223 Y26.124
X26.161 Y26.094
X26.158 Y26.092
X26.126 Y26.071
G3 X25.928 Y25.125 R0.684
X26.875 Y24.927 R0.684
X27.073 Y25.874 R0.684
X26.158 Y26.091 R0.684
G1 X26.126 Y26.071
X26.086 Y26.044
X26.083 Y26.042
X26.018 Y25.986
X26.016 Y25.983
X25.991 Y25.955
X25.959 Y25.919 Z-3.251
X25.957 Y25.916
X25.909 Y25.844
X25.907 Y25.841
X25.891 Y25.808
X25.869 Y25.764 Z-3.252
X25.868 Y25.761
X25.84 Y25.68
X25.839 Y25.676
X25.832 Y25.64 Z-3.253
X25.822 Y25.592
Y25.588
X25.816 Y25.503 Z-3.254
Y25.499
X25.818 Y25.462 Z-3.255
X25.822 Y25.414
Y25.41 Z-3.256
X25.839 Y25.326 Z-3.257
Y25.322
X25.851 Y25.287
X25.867 Y25.241 Z-3.258
X25.868 Y25.237
X25.906 Y25.16 Z-3.26
X25.908 Y25.157
X25.929 Y25.126 Z-3.261
X25.956 Y25.086 Z-3.262
X25.958 Y25.083
X26.014 Y25.018 Z-3.263
X26.017 Y25.016
X26.045 Y24.991 Z-3.264
X26.081 Y24.959 Z-3.265
X26.084 Y24.957
X26.156 Y24.909 Z-3.267
X26.159 Y24.907
X26.192 Y24.891 Z-3.268
X26.236 Y24.869 Z-3.269
X26.239 Y24.868
X26.32 Y24.84 Z-3.272
X26.324 Y24.839
X26.36 Y24.832 Z-3.273
X26.408 Y24.822 Z-3.274
X26.412
X26.497 Y24.816 Z-3.276
X26.501 Z-3.277
X26.538 Y24.818 Z-3.278
X26.586 Y24.822 Z-3.279
X26.59
X26.674 Y24.839 Z-3.282
X26.678
X26.713 Y24.851 Z-3.283
X26.759 Y24.867 Z-3.284
X26.763 Y24.868
X26.84 Y24.906 Z-3.287
X26.843 Y24.908
X26.914 Y24.956 Z-3.29
X26.917 Y24.958
X26.982 Y25.014 Z-3.293
X26.984 Y25.017
X27.041 Y25.081 Z-3.296
X27.043 Y25.084
X27.091 Y25.156 Z-3.299
X27.093 Y25.159
X27.131 Y25.236 Z-3.302
X27.132 Y25.239
X27.154 Y25.303 Z-3.305
X27.16 Y25.32
X27.161 Y25.324 Z-3.306
X27.178 Y25.408 Z-3.308
Y25.412 Z-3.309
X27.184 Y25.497 Z-3.312
Y25.501
X27.182 Y25.538 Z-3.313
X27.178 Y25.586 Z-3.315
Y25.59
X27.161 Y25.674 Z-3.318
Y25.678
X27.133 Y25.759 Z-3.321
X27.132 Y25.763
X27.094 Y25.84 Z-3.324
X27.092 Y25.843
X27.044 Y25.914 Z-3.327
X27.042 Y25.917
X26.986 Y25.982 Z-3.33
X26.983 Y25.984
X26.919 Y26.041 Z-3.333
X26.916 Y26.043
X26.844 Y26.091 Z-3.336
X26.841 Y26.093 Z-3.337
X26.764 Y26.131 Z-3.34
X26.761 Y26.132
X26.68 Y26.16 Z-3.343
X26.676 Y26.161
X26.592 Y26.178 Z-3.346
X26.588
X26.503 Y26.184 Z-3.349
X26.499
X26.414 Y26.178 Z-3.352
X26.41
X26.326 Y26.161 Z-3.355
X26.322
X26.241 Y26.133 Z-3.358
X26.237 Y26.132
X26.16 Y26.094 Z-3.361
X26.157 Y26.092
X26.086 Y26.044 Z-3.364
X26.083 Y26.042 Z-3.365
X26.018 Y25.986 Z-3.368
X26.016 Y25.983
X25.959 Y25.919 Z-3.371
X25.957 Y25.916
X25.909 Y25.844 Z-3.374
X25.907 Y25.841
X25.869 Y25.764 Z-3.377
X25.868 Y25.761
X25.84 Y25.68 Z-3.38
X25.839 Y25.676
X25.822 Y25.592 Z-3.383
Y25.588
X25.816 Y25.503 Z-3.386
Y25.499
X25.822 Y25.414 Z-3.389
Y25.41
X25.839 Y25.326 Z-3.392
Y25.322 Z-3.393
X25.867 Y25.241 Z-3.395
X25.868 Y25.237 Z-3.396
X25.906 Y25.16 Z-3.399
X25.908 Y25.157
X25.956 Y25.086 Z-3.402
X25.958 Y25.083
X26.014 Y25.018 Z-3.405
X26.017 Y25.016
X26.081 Y24.959 Z-3.408
X26.084 Y24.957
X26.156 Y24.909 Z-3.411
X26.159 Y24.907
X26.192 Y24.891 Z-3.412
X26.236 Y24.869 Z-3.414
X26.239 Y24.868
X26.32 Y24.84 Z-3.417
X26.324 Y24.839
X26.408 Y24.822 Z-3.42
X26.412
X26.497 Y24.816 Z-3.423
X26.501 Z-3.424
X26.586 Y24.822 Z-3.427
X26.59
X26.674 Y24.839 Z-3.43
X26.678
X26.759 Y24.867 Z-3.433
X26.763 Y24.868
X26.84 Y24.906 Z-3.436
X26.843 Y24.908
X26.874 Y24.929 Z-3.437
X26.914 Y24.956 Z-3.439
X26.917 Y24.958
X26.982 Y25.014 Z-3.442
X26.984 Y25.017
X27.041 Y25.081 Z-3.445
X27.043 Y25.084
X27.047 Y25.09 Z-3.446
X27.091 Y25.156 Z-3.448
X27.093 Y25.159
X27.131 Y25.236 Z-3.451
X27.132 Y25.239 Z-3.452
X27.16 Y25.32 Z-3.455
X27.161 Y25.324
X27.178 Y25.408 Z-3.458
Y25.412
X27.184 Y25.497 Z-3.46
Y25.501 Z-3.461
X27.178 Y25.586 Z-3.463
Y25.59
X27.161 Y25.674 Z-3.466
Y25.678
X27.133 Y25.759 Z-3.469
X27.132 Y25.763
X27.094 Y25.84 Z-3.471
X27.092 Y25.843 Z-3.472
X27.071 Y25.874 Z-3.473
X27.044 Y25.914 Z-3.474
X27.042 Y25.917
X26.986 Y25.982 Z-3.476
X26.983 Y25.984 Z-3.477
X26.955 Y26.009 Z-3.478
X26.919 Y26.041 Z-3.479
X26.916 Y26.043
X26.844 Y26.091 Z-3.481
X26.841 Y26.093
X26.808 Y26.109 Z-3.482
X26.764 Y26.131 Z-3.483
X26.761 Y26.132
X26.68 Y26.16 Z-3.485
X26.676 Y26.161
X26.64 Y26.168 Z-3.486
X26.592 Y26.178 Z-3.487
X26.588
X26.503 Y26.184 Z-3.489
X26.499
X26.462 Y26.182 Z-3.49
X26.414 Y26.178
X26.41 Z-3.491
X26.326 Y26.161 Z-3.492
X26.322
X26.287 Y26.149 Z-3.493
X26.241 Y26.133
X26.237 Y26.132 Z-3.494
X26.16 Y26.094 Z-3.495
X26.157 Y26.092
X26.126 Y26.071
X26.086 Y26.044 Z-3.496
X26.083 Y26.042
X26.018 Y25.986 Z-3.497
X26.016 Y25.983
X25.991 Y25.955
X25.959 Y25.919 Z-3.498
X25.957 Y25.916
X25.909 Y25.844 Z-3.499
X25.907 Y25.841
X25.891 Y25.808
X25.869 Y25.764
X25.868 Y25.761
X25.839 Y25.678 Z-3.5
Y25.674
X25.833 Y25.644
X25.822 Y25.59
Y25.586
X25.818 Y25.535
X25.816 Y25.5
Y25.497
X25.817 Y25.479
X25.828 Y25.376
X25.855 Y25.275
X25.897 Y25.179
X25.953 Y25.091
X26.021 Y25.013
X26.101 Y24.945
X26.19 Y24.891
X26.286 Y24.851
X26.387 Y24.826
X26.491 Y24.816
X26.595 Y24.823
X26.697 Y24.845
X26.794 Y24.882
X26.884 Y24.934
X26.966 Y24.999
X27.037 Y25.075
X27.095 Y25.162
X27.14 Y25.256
X27.169 Y25.356
X27.183 Y25.459
X27.182 Y25.563
X27.164 Y25.666
X27.131 Y25.765
X27.084 Y25.858
X27.022 Y25.942
X26.949 Y26.016
X26.866 Y26.078
X26.773 Y26.127
X26.675 Y26.161
X26.573 Y26.18
X26.468 Y26.183
X26.365 Y26.17
X26.265 Y26.141
X26.17 Y26.098
X26.083 Y26.041
X26.006 Y25.971
X25.94 Y25.89
X25.887 Y25.8
X25.849 Y25.704
X25.825 Y25.602
X25.818 Y25.498
X25.817 Y25.479
X25.822 Y25.412
Y25.409
X25.832 Y25.361
X25.839 Y25.325
X25.84 Y25.321
X25.846 Y25.303
X25.867 Y25.24 Z-3.501
X25.869 Y25.236
X25.89 Y25.193
X25.907 Y25.16
X25.909 Y25.156
X25.919 Y25.141
X25.956 Y25.085 Z-3.502
X25.959 Y25.082
X25.991 Y25.046
X26.015 Y25.018 Z-3.503
X26.018 Y25.015
X26.032 Y25.003
X26.082 Y24.958
X26.085 Y24.956 Z-3.504
X26.156 Y24.908 Z-3.505
X26.16 Y24.907
X26.176 Y24.898
X26.237 Y24.869 Z-3.506
X26.24 Y24.867
X26.321 Y24.84 Z-3.507
X26.325 Y24.839
X26.343 Y24.835
X26.409 Y24.822 Z-3.509
X26.413
X26.498 Y24.816 Z-3.51
X26.502
X26.588 Y24.822 Z-3.512
X26.591
X26.675 Y24.839 Z-3.514
X26.679 Y24.84
X26.76 Y24.867 Z-3.516
X26.764 Y24.869
X26.84 Y24.907 Z-3.518
X26.844 Y24.909
X26.915 Y24.956 Z-3.52
X26.918 Y24.959
X26.982 Y25.015 Z-3.522
X26.985 Y25.018
X27.042 Y25.082 Z-3.525
X27.044 Y25.085
X27.092 Y25.156 Z-3.527
X27.093 Y25.16
X27.131 Y25.237 Z-3.53
X27.133 Y25.24
X27.16 Y25.321 Z-3.532
X27.161 Y25.325
X27.178 Y25.409 Z-3.535
Y25.413
X27.184 Y25.498 Z-3.538
Y25.502
X27.178 Y25.588 Z-3.541
Y25.591
X27.161 Y25.675 Z-3.544
X27.16 Y25.679
X27.133 Y25.76 Z-3.547
X27.131 Y25.764
X27.093 Y25.84 Z-3.55
X27.091 Y25.844
X27.044 Y25.915 Z-3.553
X27.041 Y25.918
X27.009 Y25.954 Z-3.555
X26.985 Y25.982 Z-3.556
X26.982 Y25.985
X26.918 Y26.042 Z-3.559
X26.915 Y26.044
X26.844 Y26.092 Z-3.562
X26.84 Y26.093
X26.824 Y26.102 Z-3.563
X26.763 Y26.131 Z-3.565
X26.76 Y26.133
X26.679 Y26.16 Z-3.568
X26.675 Y26.161 Z-3.569
X26.591 Y26.178 Z-3.572
X26.587
X26.502 Y26.184 Z-3.575
X26.498
X26.412 Y26.178 Z-3.578
X26.409
X26.325 Y26.161 Z-3.581
X26.321 Y26.16
X26.24 Y26.133 Z-3.584
X26.236 Y26.131
X26.16 Y26.093 Z-3.587
X26.156 Y26.091
X26.085 Y26.044 Z-3.59
X26.082 Y26.041
X26.018 Y25.985 Z-3.593
X26.015 Y25.982
X25.958 Y25.918 Z-3.596
X25.956 Y25.915 Z-3.597
X25.908 Y25.844 Z-3.6
X25.907 Y25.84
X25.869 Y25.763 Z-3.603
X25.867 Y25.76
X25.84 Y25.679 Z-3.606
X25.839 Y25.675
X25.822 Y25.591 Z-3.609
Y25.587
X25.816 Y25.502 Z-3.612
Y25.498
X25.822 Y25.412 Z-3.615
Y25.409
X25.839 Y25.325 Z-3.618
X25.84 Y25.321
X25.867 Y25.24 Z-3.621
X25.869 Y25.236
X25.907 Y25.16 Z-3.624
X25.909 Y25.156 Z-3.625
X25.956 Y25.085 Z-3.628
X25.959 Y25.082
X26.015 Y25.018 Z-3.631
X26.018 Y25.015
X26.082 Y24.958 Z-3.634
X26.085 Y24.956
X26.156 Y24.908 Z-3.637
X26.16 Y24.907
X26.237 Y24.869 Z-3.64
X26.24 Y24.867
X26.321 Y24.84 Z-3.643
X26.325 Y24.839
X26.409 Y24.822 Z-3.646
X26.413
X26.498 Y24.816 Z-3.649
X26.502
X26.588 Y24.822 Z-3.652
X26.591
X26.675 Y24.839 Z-3.655
X26.679 Y24.84 Z-3.656
X26.76 Y24.867 Z-3.659
X26.764 Y24.869
X26.84 Y24.907 Z-3.662
X26.844 Y24.909
X26.915 Y24.956 Z-3.665
X26.918 Y24.959
X26.982 Y25.015 Z-3.668
X26.985 Y25.018
X27.042 Y25.082 Z-3.671
X27.044 Y25.085
X27.092 Y25.156 Z-3.674
X27.093 Y25.16
X27.131 Y25.237 Z-3.677
X27.133 Y25.24
X27.148 Y25.286 Z-3.679
X27.16 Y25.321 Z-3.68
X27.161 Y25.325
X27.178 Y25.409 Z-3.683
Y25.413 Z-3.684
X27.184 Y25.498 Z-3.687
Y25.502
X27.183 Y25.521
X27.178 Y25.588 Z-3.69
Y25.591
X27.161 Y25.675 Z-3.693
X27.16 Y25.679
X27.133 Y25.76 Z-3.696
X27.131 Y25.764
X27.093 Y25.84 Z-3.699
X27.091 Y25.844
X27.044 Y25.915 Z-3.702
X27.041 Y25.918
X26.985 Y25.982 Z-3.705
X26.982 Y25.985
X26.918 Y26.042 Z-3.708
X26.915 Y26.044
X26.844 Y26.092 Z-3.711
X26.84 Y26.093
X26.763 Y26.131 Z-3.714
X26.76 Y26.133
X26.679 Y26.16 Z-3.717
X26.675 Y26.161
X26.591 Y26.178 Z-3.719
X26.587 Z-3.72
X26.539 Y26.182 Z-3.721
X26.502 Y26.184 Z-3.722
X26.498
X26.412 Y26.178 Z-3.725
X26.409
X26.361 Y26.168 Z-3.726
X26.325 Y26.161 Z-3.727
X26.321 Y26.16
X26.24 Y26.133 Z-3.729
X26.236 Y26.131
X26.193 Y26.11 Z-3.731
X26.16 Y26.093
X26.156 Y26.091 Z-3.732
X26.085 Y26.044 Z-3.734
X26.082 Y26.041
X26.046 Y26.009 Z-3.735
X26.018 Y25.985 Z-3.736
X26.015 Y25.982
X25.958 Y25.918 Z-3.737
X25.956 Y25.915
X25.929 Y25.875 Z-3.738
X25.908 Y25.844 Z-3.739
X25.907 Y25.84
X25.869 Y25.763 Z-3.741
X25.867 Y25.76
X25.84 Y25.679 Z-3.742
X25.839 Y25.675
X25.822 Y25.591 Z-3.744
Y25.587
X25.816 Y25.502 Z-3.745
Y25.498
X25.817 Y25.479
X25.822 Y25.412 Z-3.746
Y25.409
X25.832 Y25.361 Z-3.747
X25.839 Y25.325
X25.84 Y25.321
X25.846 Y25.303
X25.867 Y25.24 Z-3.748
X25.869 Y25.236
X25.89 Y25.193
X25.907 Y25.16 Z-3.749
X25.909 Y25.156
X25.919 Y25.141
X25.956 Y25.085
X25.959 Y25.082
X26.016 Y25.017 Z-3.75
X26.018 Y25.015
X26.029 Y25.005
X26.083 Y24.958
X26.086 Y24.956
X26.115 Y24.936
X26.158 Y24.908
X26.161 Y24.906
G3 X27.094 Y25.161 R0.684
X26.839 Y26.094 R0.684
X25.906 Y25.839 R0.684
X26.16 Y24.907 R0.684
G1 X26.161 Y24.906
X26.238 Y24.868
X26.241 Y24.867
X26.269 Y24.857
X26.322 Y24.839
X26.326
X26.41 Y24.822 Z-3.751
X26.414 Y24.821
X26.444 Y24.82
X26.5 Y24.816
X26.503
X26.589 Y24.822 Z-3.752
X26.592
X26.622 Y24.828
X26.677 Y24.839 Z-3.753
X26.68 Y24.84
X26.761 Y24.868 Z-3.754
X26.765 Y24.869
X26.792 Y24.883
X26.842 Y24.907 Z-3.755
X26.845 Y24.909
X26.916 Y24.957 Z-3.756
X26.919 Y24.959
X26.964 Y24.999 Z-3.757
X26.983 Y25.016
X26.986 Y25.019
X27.042 Y25.083 Z-3.759
X27.045 Y25.086
X27.078 Y25.136 Z-3.76
X27.092 Y25.158 Z-3.761
X27.094 Y25.161
X27.132 Y25.238 Z-3.762
X27.133 Y25.241
X27.152 Y25.298 Z-3.764
X27.161 Y25.322
Y25.326
X27.178 Y25.41 Z-3.766
X27.179 Y25.414
X27.182 Y25.473 Z-3.768
X27.184 Y25.499
Y25.503
X27.178 Y25.589 Z-3.77
Y25.592
X27.161 Y25.677 Z-3.773
X27.16 Y25.68
X27.132 Y25.761 Z-3.775
X27.131 Y25.765
X27.093 Y25.842 Z-3.777
X27.091 Y25.845 Z-3.778
X27.043 Y25.916 Z-3.78
X27.041 Y25.919
X26.984 Y25.983 Z-3.783
X26.981 Y25.986
X26.917 Y26.042 Z-3.786
X26.914 Y26.045
X26.842 Y26.092 Z-3.788
X26.839 Y26.094
X26.762 Y26.132 Z-3.791
X26.759 Y26.133
X26.678 Y26.161 Z-3.794
X26.674
X26.59 Y26.178 Z-3.797
X26.586 Y26.179
X26.501 Y26.184 Z-3.8
X26.497 Z-3.801
X26.411 Y26.178 Z-3.804
X26.408
X26.378 Y26.172 Z-3.805
X26.323 Y26.161 Z-3.807
X26.32 Y26.16
X26.239 Y26.132 Z-3.81
X26.235 Y26.131
X26.158 Y26.093 Z-3.813
X26.155 Y26.091
X26.084 Y26.043 Z-3.816
X26.081 Y26.041
X26.017 Y25.984 Z-3.819
X26.014 Y25.981
X25.958 Y25.917 Z-3.822
X25.955 Y25.914
X25.908 Y25.842 Z-3.825
X25.906 Y25.839
X25.868 Y25.762 Z-3.828
X25.867 Y25.759 Z-3.829
X25.857 Y25.731 Z-3.83
X25.839 Y25.678 Z-3.832
Y25.674
X25.822 Y25.59 Z-3.835
X25.821 Y25.586
X25.816 Y25.501 Z-3.838
Y25.497
X25.822 Y25.411 Z-3.841
Y25.408
X25.839 Y25.323 Z-3.844
X25.84 Y25.32
X25.868 Y25.239 Z-3.847
X25.869 Y25.235
X25.907 Y25.158 Z-3.85
X25.909 Y25.155
X25.957 Y25.084 Z-3.853
X25.959 Y25.081
X26.016 Y25.017 Z-3.856
X26.019 Y25.014 Z-3.857
X26.083 Y24.958 Z-3.86
X26.086 Y24.955
X26.158 Y24.908 Z-3.863
X26.161 Y24.906
X26.238 Y24.868 Z-3.866
X26.241 Y24.867
X26.322 Y24.839 Z-3.869
X26.326
X26.41 Y24.822 Z-3.872
X26.414 Y24.821
X26.5 Y24.816 Z-3.875
X26.503
X26.589 Y24.822 Z-3.878
X26.592
X26.677 Y24.839 Z-3.881
X26.68 Y24.84
X26.761 Y24.868 Z-3.884
X26.765 Y24.869 Z-3.885
X26.842 Y24.907 Z-3.887
X26.845 Y24.909 Z-3.888
X26.916 Y24.957 Z-3.891
X26.919 Y24.959
X26.983 Y25.016 Z-3.894
X26.986 Y25.019
X27.042 Y25.083 Z-3.897
X27.045 Y25.086
X27.092 Y25.158 Z-3.9
X27.094 Y25.161
X27.132 Y25.238 Z-3.903
X27.133 Y25.241
X27.161 Y25.322 Z-3.906
Y25.326
X27.178 Y25.41 Z-3.909
X27.179 Y25.414
X27.184 Y25.499 Z-3.912
Y25.503
X27.178 Y25.589 Z-3.915
Y25.592 Z-3.916
X27.161 Y25.677 Z-3.919
X27.16 Y25.68
X27.132 Y25.761 Z-3.922
X27.131 Y25.765
X27.093 Y25.842 Z-3.925
X27.091 Y25.845
X27.043 Y25.916 Z-3.928
X27.041 Y25.919
X27.021 Y25.941 Z-3.929
X26.984 Y25.983 Z-3.931
X26.981 Y25.986
X26.917 Y26.042 Z-3.934
X26.914 Y26.045
X26.842 Y26.092 Z-3.937
X26.839 Y26.094
X26.762 Y26.132 Z-3.94
X26.759 Y26.133
X26.678 Y26.161 Z-3.943
X26.674 Z-3.944
X26.615 Y26.173 Z-3.946
X26.59 Y26.178 Z-3.947
X26.586 Y26.179
X26.501 Y26.184 Z-3.95
X26.497
X26.411 Y26.178 Z-3.953
X26.408
X26.323 Y26.161 Z-3.956
X26.32 Y26.16
X26.239 Y26.132 Z-3.959
X26.235 Y26.131
X26.158 Y26.093 Z-3.962
X26.155 Y26.091
X26.084 Y26.043 Z-3.965
X26.081 Y26.041
X26.017 Y25.984 Z-3.967
X26.014 Y25.981
X25.958 Y25.917 Z-3.97
X25.955 Y25.914
X25.908 Y25.842 Z-3.973
X25.906 Y25.839
X25.868 Y25.762 Z-3.975
X25.867 Y25.759
X25.848 Y25.702 Z-3.977
X25.839 Y25.678
Y25.674 Z-3.978
X25.822 Y25.59 Z-3.98
X25.821 Y25.586
X25.818 Y25.527 Z-3.981
X25.816 Y25.501 Z-3.982
Y25.497
X25.822 Y25.411 Z-3.984
Y25.408
X25.834 Y25.349 Z-3.985
X25.839 Y25.323 Z-3.986
X25.84 Y25.32
X25.868 Y25.239 Z-3.988
X25.869 Y25.235
X25.896 Y25.182 Z-3.989
X25.907 Y25.158 Z-3.99
X25.909 Y25.155
X25.957 Y25.084 Z-3.991
X25.959 Y25.081
X25.999 Y25.036 Z-3.992
X26.016 Y25.017 Z-3.993
X26.019 Y25.014
X26.083 Y24.958 Z-3.994
X26.086 Y24.955
X26.136 Y24.922 Z-3.995
X26.158 Y24.908
X26.161 Y24.906
X26.238 Y24.868 Z-3.996
X26.241 Y24.867
X26.269 Y24.857 Z-3.997
X26.322 Y24.839
X26.326
X26.41 Y24.822 Z-3.998
X26.414 Y24.821
X26.444 Y24.82
X26.5 Y24.816 Z-3.999
X26.503
X26.589 Y24.822
X26.592
X26.622 Y24.828
X26.676 Y24.839 Z-4.
X26.679 Y24.84
X26.728 Y24.857
X26.761 Y24.868
X26.764 Y24.869
X26.78 Y24.877
X26.829 Y24.901
G3 X27.099 Y25.83 R0.684
X26.171 Y26.1 R0.684
X25.9 Y25.171 R0.684
X26.763 Y24.869 R0.684
G1 X26.829 Y24.901
X26.839 Y24.906
X26.842 Y24.908
X26.88 Y24.933
X26.914 Y24.955
X26.917 Y24.957
X26.928 Y24.967
X26.981 Y25.014
X26.984 Y25.017
X27.014 Y25.05 Z-4.001
X27.041 Y25.081
X27.043 Y25.084
X27.091 Y25.155
X27.093 Y25.158
X27.112 Y25.198 Z-4.002
X27.131 Y25.235
X27.132 Y25.239
X27.16 Y25.32 Z-4.003
X27.161 Y25.323
X27.17 Y25.367
X27.178 Y25.407 Z-4.004
Y25.411
X27.184 Y25.497 Z-4.005
Y25.5
X27.179 Y25.586 Z-4.006
X27.178 Y25.59
X27.161 Y25.674 Z-4.008
Y25.677
X27.133 Y25.759 Z-4.009
X27.132 Y25.762
X27.094 Y25.839 Z-4.011
X27.092 Y25.842
X27.067 Y25.88 Z-4.012
X27.045 Y25.914 Z-4.013
X27.043 Y25.917
X26.986 Y25.981 Z-4.014
X26.983 Y25.984
X26.95 Y26.014 Z-4.015
X26.919 Y26.041 Z-4.016
X26.916 Y26.043
X26.845 Y26.091 Z-4.019
X26.842 Y26.093
X26.802 Y26.112 Z-4.02
X26.765 Y26.131 Z-4.021
X26.761 Y26.132
X26.68 Y26.16 Z-4.023
X26.677 Y26.161
X26.633 Y26.17 Z-4.024
X26.593 Y26.178 Z-4.025
X26.589 Z-4.026
X26.503 Y26.184 Z-4.028
X26.5
X26.455 Y26.181 Z-4.029
X26.414 Y26.179 Z-4.031
X26.41 Y26.178
X26.326 Y26.161 Z-4.033
X26.323
X26.28 Y26.146 Z-4.035
X26.241 Y26.133 Z-4.036
X26.238 Y26.132
X26.161 Y26.094 Z-4.039
X26.158 Y26.092
X26.086 Y26.045 Z-4.042
X26.083 Y26.043
X26.019 Y25.986 Z-4.045
X26.016 Y25.983
X25.959 Y25.919 Z-4.048
X25.957 Y25.916
X25.909 Y25.845 Z-4.051
X25.907 Y25.842
X25.869 Y25.765 Z-4.054
X25.868 Y25.761
X25.863 Y25.747 Z-4.055
X25.84 Y25.68 Z-4.057
X25.839 Y25.677
X25.822 Y25.593 Z-4.06
Y25.589
X25.816 Y25.503 Z-4.063
Y25.5 Z-4.064
X25.821 Y25.414 Z-4.066
X25.822 Y25.41 Z-4.067
X25.839 Y25.326 Z-4.07
Y25.323
X25.854 Y25.28 Z-4.071
X25.867 Y25.241 Z-4.073
X25.868 Y25.238
X25.906 Y25.161 Z-4.076
X25.908 Y25.158
X25.955 Y25.086 Z-4.079
X25.957 Y25.083
X26.014 Y25.019 Z-4.082
X26.017 Y25.016
X26.081 Y24.959 Z-4.085
X26.084 Y24.957
X26.155 Y24.909 Z-4.088
X26.158 Y24.907
X26.235 Y24.869 Z-4.091
X26.239 Y24.868
X26.32 Y24.84 Z-4.094
X26.323 Y24.839 Z-4.095
X26.407 Y24.822 Z-4.098
X26.411
X26.497 Y24.816 Z-4.101
X26.5
X26.586 Y24.821 Z-4.104
X26.59 Y24.822
X26.674 Y24.839 Z-4.107
X26.677
X26.759 Y24.867 Z-4.11
X26.762 Y24.868
X26.839 Y24.906 Z-4.113
X26.842 Y24.908
X26.914 Y24.955 Z-4.116
X26.917 Y24.957
X26.981 Y25.014 Z-4.119
X26.984 Y25.017
X27.041 Y25.081 Z-4.122
X27.043 Y25.084 Z-4.123
X27.091 Y25.155 Z-4.126
X27.093 Y25.158
X27.131 Y25.235 Z-4.129
X27.132 Y25.239
X27.16 Y25.32 Z-4.132
X27.161 Y25.323
X27.178 Y25.407 Z-4.135
Y25.411
X27.184 Y25.497 Z-4.138
Y25.5
X27.179 Y25.586 Z-4.141
X27.178 Y25.59
X27.161 Y25.674 Z-4.144
Y25.677
X27.133 Y25.759 Z-4.147
X27.132 Y25.762
X27.094 Y25.839 Z-4.15
X27.092 Y25.842 Z-4.151
X27.045 Y25.914 Z-4.154
X27.043 Y25.917
X26.986 Y25.981 Z-4.157
X26.983 Y25.984
X26.919 Y26.041 Z-4.16
X26.916 Y26.043
X26.845 Y26.091 Z-4.163
X26.842 Y26.093
X26.765 Y26.131 Z-4.166
X26.761 Y26.132
X26.68 Y26.16 Z-4.169
X26.677 Y26.161
X26.633 Y26.17 Z-4.171
X26.593 Y26.178 Z-4.172
X26.589
X26.503 Y26.184 Z-4.175
X26.5
X26.414 Y26.179 Z-4.178
X26.41 Y26.178
X26.396 Y26.175 Z-4.179
X26.326 Y26.161 Z-4.181
X26.323 Z-4.182
X26.241 Y26.133 Z-4.185
X26.238 Y26.132
X26.161 Y26.094 Z-4.188
X26.158 Y26.092
X26.086 Y26.045 Z-4.191
X26.083 Y26.043
X26.019 Y25.986 Z-4.194
X26.016 Y25.983
X25.986 Y25.95 Z-4.196
X25.959 Y25.919 Z-4.197
X25.957 Y25.916
X25.909 Y25.845 Z-4.2
X25.907 Y25.842
X25.869 Y25.765 Z-4.203
X25.868 Y25.761
X25.84 Y25.68 Z-4.206
X25.839 Y25.677
X25.822 Y25.593 Z-4.209
Y25.589
X25.816 Y25.503 Z-4.212
Y25.5
X25.821 Y25.414 Z-4.215
X25.822 Y25.41
X25.839 Y25.326 Z-4.218
Y25.323
X25.854 Y25.28 Z-4.219
X25.867 Y25.241 Z-4.22
X25.868 Y25.238 Z-4.221
X25.906 Y25.161 Z-4.223
X25.908 Y25.158
X25.933 Y25.12 Z-4.224
X25.955 Y25.086 Z-4.225
X25.957 Y25.083 Z-4.226
X26.014 Y25.019 Z-4.228
X26.017 Y25.016
X26.05 Y24.986 Z-4.229
X26.081 Y24.959 Z-4.23
X26.084 Y24.957
X26.155 Y24.909 Z-4.232
X26.158 Y24.907
X26.198 Y24.888 Z-4.233
X26.235 Y24.869 Z-4.234
X26.239 Y24.868
X26.32 Y24.84 Z-4.236
X26.323 Y24.839
X26.367 Y24.83 Z-4.237
X26.407 Y24.822 Z-4.238
X26.411
X26.497 Y24.816 Z-4.24
X26.5
X26.545 Y24.819 Z-4.241
X26.586 Y24.821
X26.59 Y24.822
X26.674 Y24.839 Z-4.243
X26.677
X26.72 Y24.854 Z-4.244
X26.759 Y24.867
X26.762 Y24.868
X26.839 Y24.906 Z-4.245
X26.842 Y24.908
X26.88 Y24.933 Z-4.246
X26.914 Y24.955
X26.917 Y24.957 Z-4.247
X26.981 Y25.014
X26.984 Y25.017
X27.014 Y25.05 Z-4.248
X27.041 Y25.081
X27.043 Y25.084
X27.091 Y25.155 Z-4.249
X27.093 Y25.158
X27.112 Y25.198
X27.131 Y25.235
X27.132 Y25.239
X27.16 Y25.321 Z-4.25
X27.161 Y25.325
X27.168 Y25.359
X27.178 Y25.41
Y25.413
X27.182 Y25.468
G3 X26.531 Y26.183 R0.684
X25.816 Y25.532 R0.684
X26.467 Y24.817 R0.684
X27.177 Y25.412 R0.684
G1 X27.182 Y25.468
X27.184 Y25.498
Y25.502
X27.182 Y25.528
X27.178 Y25.587
Y25.591
X27.167 Y25.646
X27.161 Y25.675
X27.16 Y25.679
X27.152 Y25.704 Z-4.251
X27.133 Y25.76
X27.131 Y25.763
X27.107 Y25.814
X27.093 Y25.84
X27.091 Y25.844
X27.077 Y25.865 Z-4.252
X27.044 Y25.915
X27.042 Y25.918
X27.005 Y25.96 Z-4.253
X26.985 Y25.982
X26.982 Y25.985
X26.963 Y26.002
X26.918 Y26.042 Z-4.254
X26.915 Y26.044
X26.893 Y26.058
X26.844 Y26.091 Z-4.255
X26.84 Y26.093
X26.817 Y26.105 Z-4.256
X26.764 Y26.131 Z-4.257
X26.76 Y26.133
X26.735 Y26.141
X26.679 Y26.16 Z-4.258
X26.675 Y26.161
X26.65 Y26.166
X26.591 Y26.178 Z-4.259
X26.587 Z-4.26
X26.561 Y26.18
X26.502 Y26.184 Z-4.261
X26.498
X26.472 Y26.182 Z-4.262
X26.413 Y26.178 Z-4.263
X26.409
X26.383 Y26.173 Z-4.264
X26.325 Y26.161 Z-4.265
X26.321 Y26.16
X26.296 Y26.152
X26.24 Y26.133 Z-4.267
X26.237 Y26.131
X26.16 Y26.093 Z-4.269
X26.156 Y26.091
X26.135 Y26.077 Z-4.27
X26.085 Y26.044 Z-4.271
X26.082 Y26.042
X26.018 Y25.985 Z-4.274
X26.015 Y25.982
X25.958 Y25.918 Z-4.276
X25.956 Y25.915
X25.909 Y25.844 Z-4.278
X25.907 Y25.84 Z-4.279
X25.895 Y25.817
X25.869 Y25.763 Z-4.281
X25.867 Y25.76
X25.84 Y25.679 Z-4.284
X25.839 Y25.675
X25.822 Y25.591 Z-4.287
Y25.587
X25.816 Y25.502 Z-4.289
Y25.498 Z-4.29
X25.822 Y25.413 Z-4.292
Y25.409 Z-4.293
X25.839 Y25.325 Z-4.295
X25.84 Y25.321 Z-4.296
X25.867 Y25.24 Z-4.298
X25.869 Y25.237 Z-4.299
X25.907 Y25.16 Z-4.302
X25.909 Y25.156
X25.956 Y25.085 Z-4.305
X25.958 Y25.082
X26.015 Y25.018 Z-4.308
X26.018 Y25.015
X26.082 Y24.958 Z-4.311
X26.085 Y24.956
X26.132 Y24.925 Z-4.313
X26.156 Y24.909 Z-4.314
X26.16 Y24.907
X26.236 Y24.869 Z-4.317
X26.24 Y24.867
X26.321 Y24.84 Z-4.32
X26.325 Y24.839
X26.35 Y24.834 Z-4.321
X26.409 Y24.822 Z-4.323
X26.413 Z-4.324
X26.498 Y24.816 Z-4.326
X26.502 Z-4.327
X26.587 Y24.822 Z-4.33
X26.591
X26.675 Y24.839 Z-4.333
X26.679 Y24.84
X26.76 Y24.867 Z-4.336
X26.763 Y24.869
X26.84 Y24.907 Z-4.339
X26.844 Y24.909
X26.915 Y24.956 Z-4.342
X26.918 Y24.958
X26.982 Y25.015 Z-4.345
X26.985 Y25.018
X27.042 Y25.082 Z-4.348
X27.044 Y25.085
X27.091 Y25.156 Z-4.351
X27.093 Y25.16
X27.131 Y25.236 Z-4.354
X27.133 Y25.24 Z-4.355
X27.16 Y25.321 Z-4.358
X27.161 Y25.325
X27.178 Y25.409 Z-4.361
Y25.413
X27.184 Y25.498 Z-4.364
Y25.502
X27.178 Y25.587 Z-4.367
Y25.591
X27.161 Y25.675 Z-4.37
X27.16 Y25.679
X27.133 Y25.76 Z-4.373
X27.131 Y25.763
X27.093 Y25.84 Z-4.376
X27.091 Y25.844
X27.044 Y25.915 Z-4.379
X27.042 Y25.918
X26.985 Y25.982 Z-4.382
X26.982 Y25.985 Z-4.383
X26.918 Y26.042 Z-4.386
X26.915 Y26.044
X26.844 Y26.091 Z-4.389
X26.84 Y26.093
X26.764 Y26.131 Z-4.392
X26.76 Y26.133
X26.679 Y26.16 Z-4.395
X26.675 Y26.161
X26.591 Y26.178 Z-4.398
X26.587
X26.502 Y26.184 Z-4.401
X26.498
X26.413 Y26.178 Z-4.404
X26.409
X26.325 Y26.161 Z-4.407
X26.321 Y26.16
X26.24 Y26.133 Z-4.41
X26.237 Y26.131 Z-4.411
X26.16 Y26.093 Z-4.414
X26.156 Y26.091
X26.085 Y26.044 Z-4.417
X26.082 Y26.042
X26.018 Y25.985 Z-4.42
X26.015 Y25.982
X25.998 Y25.963 Z-4.421
X25.958 Y25.918 Z-4.423
X25.956 Y25.915
X25.909 Y25.844 Z-4.426
X25.907 Y25.84
X25.869 Y25.763 Z-4.429
X25.867 Y25.76
X25.84 Y25.679 Z-4.432
X25.839 Y25.675
X25.822 Y25.591 Z-4.435
Y25.587
X25.818 Y25.532 Z-4.437
X25.816 Y25.502 Z-4.438
Y25.498
X25.822 Y25.413 Z-4.441
Y25.409 Z-4.442
X25.839 Y25.325 Z-4.445
X25.84 Y25.321
X25.848 Y25.296 Z-4.446
X25.867 Y25.24 Z-4.448
X25.869 Y25.237
X25.907 Y25.16 Z-4.451
X25.909 Y25.156
X25.956 Y25.085 Z-4.454
X25.958 Y25.082
X26.015 Y25.018 Z-4.457
X26.018 Y25.015
X26.082 Y24.958 Z-4.46
X26.085 Y24.956
X26.156 Y24.909 Z-4.463
X26.16 Y24.907
X26.236 Y24.869 Z-4.466
X26.24 Y24.867
X26.321 Y24.84 Z-4.468
X26.325 Y24.839
X26.409 Y24.822 Z-4.471
X26.413
X26.498 Y24.816 Z-4.474
X26.502
X26.587 Y24.822 Z-4.476
X26.591
X26.617 Y24.827 Z-4.477
X26.675 Y24.839 Z-4.478
X26.679 Y24.84
X26.704 Y24.848 Z-4.479
X26.76 Y24.867 Z-4.481
X26.763 Y24.869
X26.787 Y24.88
X26.84 Y24.907 Z-4.483
X26.844 Y24.909
X26.865 Y24.923
X26.915 Y24.956 Z-4.485
X26.918 Y24.958
X26.937 Y24.976
X26.982 Y25.015 Z-4.487
X26.985 Y25.018
X27.002 Y25.037
X27.042 Y25.082 Z-4.488
X27.044 Y25.085 Z-4.489
X27.058 Y25.107
X27.091 Y25.156 Z-4.49
X27.093 Y25.16
X27.105 Y25.183 Z-4.491
X27.131 Y25.236 Z-4.492
X27.133 Y25.24
X27.151 Y25.293 Z-4.493
X27.16 Y25.321
X27.161 Y25.325
X27.166 Y25.35 Z-4.494
X27.178 Y25.409
Y25.413 Z-4.495
X27.182 Y25.468
X27.184 Y25.498 Z-4.496
Y25.502
X27.182 Y25.528
X27.178 Y25.587 Z-4.497
Y25.591
X27.167 Y25.646
X27.161 Y25.675 Z-4.498
X27.16 Y25.679
X27.152 Y25.704
X27.133 Y25.76
X27.131 Y25.763
X27.107 Y25.814 Z-4.499
X27.093 Y25.84
X27.091 Y25.844
X27.077 Y25.865
X27.044 Y25.915
X27.042 Y25.918 Z-4.5
X27.008 Y25.956
X26.985 Y25.982
X26.983 Y25.985
X26.97 Y25.996
X26.918 Y26.042
X26.915 Y26.044
X26.884 Y26.065
G3 X25.934 Y25.883 R0.684
X26.115 Y24.934 R0.684
X27.065 Y25.115 R0.684
X26.915 Y26.042 R0.684
G1 X26.884 Y26.065
X26.843 Y26.092
X26.84 Y26.094
X26.763 Y26.131
X26.76 Y26.133
X26.724 Y26.145
X26.678 Y26.16 Z-4.501
X26.675 Y26.161
X26.591 Y26.178
X26.587
X26.55 Y26.181
X26.501 Y26.184 Z-4.502
X26.498
X26.412 Y26.178
X26.408
X26.372 Y26.171 Z-4.503
X26.324 Y26.161
X26.321 Y26.16
X26.24 Y26.133 Z-4.504
X26.236 Y26.131
X26.203 Y26.115 Z-4.505
X26.159 Y26.093
X26.156 Y26.091 Z-4.506
X26.085 Y26.044 Z-4.507
X26.082 Y26.041
X26.054 Y26.017
X26.017 Y25.985 Z-4.508
X26.015 Y25.982
X25.958 Y25.918 Z-4.51
X25.956 Y25.915
X25.935 Y25.884 Z-4.511
X25.908 Y25.843 Z-4.512
X25.906 Y25.84
X25.869 Y25.763 Z-4.513
X25.867 Y25.76
X25.855 Y25.724 Z-4.514
X25.84 Y25.678 Z-4.515
X25.839 Y25.675
X25.822 Y25.591 Z-4.517
Y25.587
X25.819 Y25.55 Z-4.518
X25.816 Y25.501 Z-4.519
Y25.498
X25.822 Y25.412 Z-4.522
Y25.408
X25.829 Y25.372 Z-4.523
X25.839 Y25.324 Z-4.524
X25.84 Y25.321
X25.867 Y25.24 Z-4.526
X25.869 Y25.236 Z-4.527
X25.885 Y25.203 Z-4.528
X25.907 Y25.159 Z-4.529
X25.909 Y25.156
X25.956 Y25.085 Z-4.532
X25.959 Y25.082
X25.983 Y25.054 Z-4.533
X26.015 Y25.017 Z-4.534
X26.018 Y25.015
X26.082 Y24.958 Z-4.537
X26.085 Y24.956
X26.157 Y24.908 Z-4.54
X26.16 Y24.906
X26.237 Y24.869 Z-4.543
X26.24 Y24.867
X26.322 Y24.84 Z-4.546
X26.325 Y24.839
X26.409 Y24.822 Z-4.549
X26.413
X26.499 Y24.816 Z-4.552
X26.502
X26.569 Y24.82 Z-4.555
X26.588 Y24.822
X26.592 Z-4.556
X26.676 Y24.839 Z-4.558
X26.679 Y24.84 Z-4.559
X26.76 Y24.867 Z-4.562
X26.764 Y24.869
X26.797 Y24.885 Z-4.563
X26.841 Y24.907 Z-4.565
X26.844 Y24.909
X26.915 Y24.956 Z-4.568
X26.918 Y24.959
X26.983 Y25.015 Z-4.571
X26.985 Y25.018
X27.042 Y25.082 Z-4.574
X27.044 Y25.085
X27.092 Y25.157 Z-4.577
X27.094 Y25.16
X27.131 Y25.237 Z-4.58
X27.133 Y25.24
X27.16 Y25.322 Z-4.583
X27.161 Y25.325
X27.178 Y25.409 Z-4.586
Y25.413 Z-4.587
X27.184 Y25.499 Z-4.59
Y25.502
X27.178 Y25.588 Z-4.593
Y25.592
X27.161 Y25.676 Z-4.596
X27.16 Y25.679
X27.133 Y25.76 Z-4.599
X27.131 Y25.764
X27.093 Y25.841 Z-4.602
X27.091 Y25.844
X27.044 Y25.915 Z-4.605
X27.041 Y25.918
X26.985 Y25.983 Z-4.608
X26.982 Y25.985
X26.918 Y26.042 Z-4.611
X26.915 Y26.044
X26.843 Y26.092 Z-4.614
X26.84 Y26.094 Z-4.615
X26.763 Y26.131 Z-4.618
X26.76 Y26.133
X26.678 Y26.16 Z-4.621
X26.675 Y26.161
X26.591 Y26.178 Z-4.624
X26.587
X26.501 Y26.184 Z-4.627
X26.498
X26.412 Y26.178 Z-4.63
X26.408
X26.324 Y26.161 Z-4.633
X26.321 Y26.16
X26.24 Y26.133 Z-4.636
X26.236 Y26.131
X26.159 Y26.093 Z-4.639
X26.156 Y26.091
X26.085 Y26.044 Z-4.642
X26.082 Y26.041 Z-4.643
X26.017 Y25.985 Z-4.645
X26.015 Y25.982 Z-4.646
X25.958 Y25.918 Z-4.649
X25.956 Y25.915
X25.908 Y25.843 Z-4.652
X25.906 Y25.84
X25.869 Y25.763 Z-4.655
X25.867 Y25.76
X25.84 Y25.678 Z-4.658
X25.839 Y25.675
X25.822 Y25.591 Z-4.661
Y25.587
X25.819 Y25.55 Z-4.662
X25.816 Y25.501 Z-4.664
Y25.498
X25.822 Y25.412 Z-4.667
Y25.408
X25.839 Y25.324 Z-4.67
X25.84 Y25.321
X25.867 Y25.24 Z-4.673
X25.869 Y25.236 Z-4.674
X25.907 Y25.159 Z-4.677
X25.909 Y25.156
X25.956 Y25.085 Z-4.68
X25.959 Y25.082
X26.015 Y25.017 Z-4.683
X26.018 Y25.015
X26.082 Y24.958 Z-4.686
X26.085 Y24.956
X26.116 Y24.935 Z-4.687
X26.157 Y24.908 Z-4.689
X26.16 Y24.906
X26.237 Y24.869 Z-4.692
X26.24 Y24.867
X26.322 Y24.84 Z-4.695
X26.325 Y24.839
X26.409 Y24.822 Z-4.698
X26.413
X26.499 Y24.816 Z-4.701
X26.502 Z-4.702
X26.588 Y24.822 Z-4.704
X26.592 Z-4.705
X26.676 Y24.839 Z-4.708
X26.679 Y24.84
X26.76 Y24.867 Z-4.71
X26.764 Y24.869 Z-4.711
X26.841 Y24.907 Z-4.713
X26.844 Y24.909
X26.915 Y24.956 Z-4.716
X26.918 Y24.959
X26.983 Y25.015 Z-4.719
X26.985 Y25.018
X27.042 Y25.082 Z-4.721
X27.044 Y25.085 Z-4.722
X27.065 Y25.116 Z-4.723
X27.092 Y25.157 Z-4.724
X27.094 Y25.16
X27.131 Y25.237 Z-4.726
X27.133 Y25.24 Z-4.727
X27.145 Y25.276 Z-4.728
X27.16 Y25.322 Z-4.729
X27.161 Y25.325
X27.178 Y25.409 Z-4.731
Y25.413
X27.181 Y25.45 Z-4.732
X27.184 Y25.499 Z-4.733
Y25.502
X27.178 Y25.588 Z-4.735
Y25.592
X27.171 Y25.628 Z-4.736
X27.161 Y25.676 Z-4.737
X27.16 Y25.679
X27.133 Y25.76 Z-4.739
X27.131 Y25.764
X27.115 Y25.797 Z-4.74
X27.093 Y25.841
X27.091 Y25.844 Z-4.741
X27.044 Y25.915 Z-4.742
X27.041 Y25.918
X27.017 Y25.946 Z-4.743
X26.985 Y25.983
X26.982 Y25.985 Z-4.744
X26.918 Y26.042 Z-4.745
X26.915 Y26.044
X26.884 Y26.065
X26.843 Y26.092 Z-4.746
X26.84 Y26.094
X26.763 Y26.131 Z-4.747
X26.76 Y26.133
X26.724 Y26.145
X26.678 Y26.16 Z-4.748
X26.675 Y26.161
X26.591 Y26.178 Z-4.749
X26.587
X26.55 Y26.181
X26.501 Y26.184
X26.498
X26.413 Y26.178 Z-4.75
X26.41
X26.376 Y26.171
X26.325 Y26.161
X26.322
X26.27 Y26.143
X26.24 Y26.133
X26.237 Y26.131
X26.218 Y26.122
G3 X25.877 Y25.217 R0.684
X26.782 Y24.877 R0.684
X27.123 Y25.781 R0.684
X26.238 Y26.131 R0.684
G1 X26.218 Y26.122
X26.158 Y26.093
X26.155 Y26.091
X26.115 Y26.064
X26.084 Y26.043
X26.081 Y26.04
X26.067 Y26.028
X26.016 Y25.984 Z-4.751
X26.014 Y25.981
X25.982 Y25.945
X25.957 Y25.917
X25.955 Y25.914
X25.945 Y25.898
X25.908 Y25.842 Z-4.752
X25.906 Y25.839
X25.885 Y25.795
X25.868 Y25.762 Z-4.753
X25.867 Y25.758
X25.861 Y25.741
X25.839 Y25.677
X25.838 Y25.674 Z-4.754
X25.822 Y25.59 Z-4.755
X25.821 Y25.586
X25.82 Y25.567
X25.816 Y25.5 Z-4.756
Y25.497
X25.822 Y25.411 Z-4.757
Y25.407
X25.826 Y25.389
X25.839 Y25.323 Z-4.759
X25.84 Y25.32
X25.868 Y25.238 Z-4.76
X25.869 Y25.235
X25.907 Y25.158 Z-4.762
X25.909 Y25.155
X25.957 Y25.084 Z-4.764
X25.96 Y25.081
X26.016 Y25.016 Z-4.766
X26.019 Y25.014
X26.083 Y24.957 Z-4.768
X26.086 Y24.955
X26.158 Y24.908 Z-4.77
X26.161 Y24.906
X26.238 Y24.868 Z-4.772
X26.242 Y24.867
X26.323 Y24.839 Z-4.775
X26.326 Y24.838
X26.41 Y24.822 Z-4.777
X26.414 Y24.821
X26.5 Y24.816 Z-4.78
X26.503
X26.589 Y24.822 Z-4.782
X26.593
X26.677 Y24.839 Z-4.785
X26.68 Y24.84
X26.762 Y24.868 Z-4.788
X26.765 Y24.869
X26.842 Y24.907 Z-4.791
X26.845 Y24.909
X26.916 Y24.957 Z-4.794
X26.919 Y24.96
X26.984 Y25.016 Z-4.797
X26.986 Y25.019
X27.043 Y25.083 Z-4.8
X27.045 Y25.086
X27.092 Y25.158 Z-4.803
X27.094 Y25.161
X27.115 Y25.205 Z-4.805
X27.132 Y25.238 Z-4.806
X27.133 Y25.242
X27.161 Y25.323 Z-4.809
X27.162 Y25.326
X27.178 Y25.41 Z-4.812
X27.179 Y25.414
X27.18 Y25.433 Z-4.813
X27.184 Y25.5 Z-4.815
Y25.503
X27.178 Y25.589 Z-4.818
Y25.593 Z-4.819
X27.161 Y25.677 Z-4.822
X27.16 Y25.68
X27.132 Y25.762 Z-4.825
X27.131 Y25.765
X27.093 Y25.842 Z-4.828
X27.091 Y25.845
X27.043 Y25.916 Z-4.831
X27.04 Y25.919
X26.984 Y25.984 Z-4.834
X26.981 Y25.986
X26.917 Y26.043 Z-4.837
X26.914 Y26.045
X26.842 Y26.092 Z-4.84
X26.839 Y26.094
X26.762 Y26.132 Z-4.843
X26.758 Y26.133
X26.677 Y26.161 Z-4.846
X26.674 Y26.162 Z-4.847
X26.59 Y26.178 Z-4.85
X26.586 Y26.179
X26.5 Y26.184 Z-4.853
X26.497
X26.411 Y26.178 Z-4.856
X26.407
X26.323 Y26.161 Z-4.859
X26.32 Y26.16
X26.238 Y26.132 Z-4.862
X26.235 Y26.131
X26.158 Y26.093 Z-4.865
X26.155 Y26.091
X26.084 Y26.043 Z-4.868
X26.081 Y26.04
X26.016 Y25.984 Z-4.871
X26.014 Y25.981
X25.957 Y25.917 Z-4.874
X25.955 Y25.914 Z-4.875
X25.908 Y25.842 Z-4.878
X25.906 Y25.839
X25.868 Y25.762 Z-4.881
X25.867 Y25.758
X25.839 Y25.677 Z-4.884
X25.838 Y25.674
X25.822 Y25.59 Z-4.887
X25.821 Y25.586
X25.816 Y25.5 Z-4.89
Y25.497
X25.822 Y25.411 Z-4.893
Y25.407
X25.839 Y25.323 Z-4.896
X25.84 Y25.32
X25.868 Y25.238 Z-4.899
X25.869 Y25.235
X25.907 Y25.158 Z-4.902
X25.909 Y25.155
X25.957 Y25.084 Z-4.905
X25.96 Y25.081 Z-4.906
X26.016 Y25.016 Z-4.909
X26.019 Y25.014
X26.083 Y24.957 Z-4.912
X26.086 Y24.955
X26.158 Y24.908 Z-4.915
X26.161 Y24.906
X26.238 Y24.868 Z-4.918
X26.242 Y24.867
X26.323 Y24.839 Z-4.921
X26.326 Y24.838
X26.41 Y24.822 Z-4.924
X26.414 Y24.821
X26.5 Y24.816 Z-4.927
X26.503
X26.552 Y24.819 Z-4.929
X26.589 Y24.822 Z-4.93
X26.593
X26.677 Y24.839 Z-4.933
X26.68 Y24.84 Z-4.934
X26.762 Y24.868 Z-4.937
X26.765 Y24.869
X26.782 Y24.878
X26.842 Y24.907 Z-4.94
X26.845 Y24.909
X26.916 Y24.957 Z-4.943
X26.919 Y24.96
X26.984 Y25.016 Z-4.946
X26.986 Y25.019
X27.043 Y25.083 Z-4.949
X27.045 Y25.086
X27.092 Y25.158 Z-4.952
X27.094 Y25.161
X27.132 Y25.238 Z-4.955
X27.133 Y25.242
X27.161 Y25.323 Z-4.958
X27.162 Y25.326
X27.178 Y25.41 Z-4.961
X27.179 Y25.414
X27.184 Y25.5 Z-4.964
Y25.503
X27.178 Y25.589 Z-4.967
Y25.593
X27.161 Y25.677 Z-4.969
X27.16 Y25.68 Z-4.97
X27.144 Y25.726 Z-4.971
X27.132 Y25.762 Z-4.972
X27.131 Y25.765
X27.093 Y25.842 Z-4.975
X27.091 Y25.845
X27.064 Y25.885 Z-4.976
X27.043 Y25.916 Z-4.977
X27.04 Y25.919
X26.984 Y25.984 Z-4.979
X26.981 Y25.986
X26.945 Y26.018 Z-4.981
X26.917 Y26.043
X26.914 Y26.045 Z-4.982
X26.842 Y26.092 Z-4.984
X26.839 Y26.094
X26.795 Y26.115 Z-4.985
X26.762 Y26.132 Z-4.986
X26.758 Y26.133
X26.677 Y26.161 Z-4.987
X26.674 Y26.162
X26.626 Y26.171 Z-4.988
X26.59 Y26.178 Z-4.989
X26.586 Y26.179
X26.5 Y26.184 Z-4.991
X26.497
X26.448 Y26.181 Z-4.992
X26.411 Y26.178
X26.407
X26.323 Y26.161 Z-4.994
X26.32 Y26.16
X26.274 Y26.144
X26.238 Y26.132 Z-4.995
X26.235 Y26.131
X26.218 Y26.122
X26.158 Y26.093 Z-4.996
X26.155 Y26.091
X26.115 Y26.064 Z-4.997
X26.084 Y26.043
X26.081 Y26.04
X26.067 Y26.028
X26.016 Y25.984 Z-4.998
X26.014 Y25.981
X25.982 Y25.945
X25.957 Y25.917 Z-4.999
X25.955 Y25.914
X25.945 Y25.898
X25.908 Y25.842
X25.906 Y25.839
X25.869 Y25.764 Z-5.
X25.868 Y25.761
X25.862 Y25.745
X25.84 Y25.68
X25.839 Y25.676
X25.832 Y25.639
X25.822 Y25.592
Y25.588
X25.821 Y25.585
G3 X26.415 Y24.821 R0.684
X27.179 Y25.415 R0.684
X26.585 Y26.179 R0.684
X25.822 Y25.589 R0.684
G1 X25.821 Y25.585
G0 Z5.
X26.226 Y116.843
Z0.998
G1 Z-0.25 F400.
G3 X26.237 Y116.401 R0.312
X26.46 Y116.315 R0.312
G1 X26.601 Y116.319 F796.8
G3 X28.681 Y118.602 R2.184
X26.398 Y120.682 R2.184
X24.318 Y118.399 R2.184
X26.46 Y116.317 R2.184
G1 X26.595 Y116.319
X26.73 Y116.329 Z-0.251
X26.8 Y116.338
X26.87 Y116.348 Z-0.252
X26.904 Y116.355
X26.939 Y116.363
X27.007 Y116.38 Z-0.253
X27.14 Y116.417 Z-0.254
X27.27 Y116.463 Z-0.256
X27.397 Y116.519 Z-0.259
X27.521 Y116.581 Z-0.261
X27.643 Y116.655 Z-0.264
X27.76 Y116.738 Z-0.267
X27.866 Y116.822 Z-0.27
X27.965 Y116.913 Z-0.274
X28.059 Y117.011 Z-0.278
X28.103 Y117.061 Z-0.279
X28.148 Y117.112 Z-0.281
X28.169 Y117.141 Z-0.282
X28.19 Y117.171 Z-0.284
X28.232 Y117.229 Z-0.286
X28.309 Y117.351 Z-0.29
X28.342 Y117.409 Z-0.293
X28.375 Y117.467 Z-0.295
X28.389 Y117.497 Z-0.296
X28.402 Y117.527 Z-0.297
X28.429 Y117.588 Z-0.299
X28.48 Y117.716 Z-0.304
X28.523 Y117.847 Z-0.309
X28.555 Y117.982 Z-0.314
X28.581 Y118.119 Z-0.319
X28.596 Y118.249 Z-0.323
X28.602 Y118.379 Z-0.328
X28.603 Y118.446 Z-0.33
X28.602 Y118.513 Z-0.332
X28.597 Y118.58 Z-0.335
X28.591 Y118.647 Z-0.337
X28.573 Y118.783 Z-0.342
X28.551 Y118.9 Z-0.346
X28.547 Y118.917 Z-0.347
X28.51 Y119.045 Z-0.351
X28.466 Y119.172 Z-0.356
X28.417 Y119.293 Z-0.361
X28.387 Y119.352 Z-0.363
X28.357 Y119.41 Z-0.365
X28.291 Y119.527 Z-0.37
X28.217 Y119.639 Z-0.375
X28.137 Y119.741 Z-0.379
X28.052 Y119.84 Z-0.384
X27.96 Y119.933 Z-0.388
X27.862 Y120.018 Z-0.393
X27.775 Y120.09 Z-0.397
X27.763 Y120.1
X27.656 Y120.171 Z-0.402
X27.543 Y120.239 Z-0.406
X27.427 Y120.301 Z-0.411
X27.423 Y120.302
X27.366 Y120.326 Z-0.413
X27.306 Y120.35 Z-0.415
X27.182 Y120.394 Z-0.42
X27.06 Y120.43 Z-0.424
X26.935 Y120.457 Z-0.429
X26.809 Y120.477 Z-0.433
X26.681 Y120.489 Z-0.438
X26.553 Y120.491 Z-0.442
X26.424 Y120.486 Z-0.447
X26.3 Y120.472 Z-0.451
X26.176 Y120.451 Z-0.456
X26.114 Y120.438 Z-0.458
X26.068 Y120.428 Z-0.459
X26.052 Y120.425 Z-0.46
X25.992 Y120.405 Z-0.462
X25.931 Y120.386 Z-0.464
X25.813 Y120.342 Z-0.468
X25.755 Y120.317 Z-0.47
X25.704 Y120.296 Z-0.471
X25.697 Y120.292 Z-0.472
X25.642 Y120.262 Z-0.473
X25.587 Y120.232 Z-0.475
X25.48 Y120.168 Z-0.479
X25.377 Y120.098 Z-0.482
X25.279 Y120.019 Z-0.485
X25.186 Y119.937 Z-0.487
X25.098 Y119.848 Z-0.49
X25.018 Y119.754 Z-0.492
X24.941 Y119.655 Z-0.494
X24.873 Y119.552 Z-0.496
X24.81 Y119.445 Z-0.497
X24.781 Y119.391 Z-0.498
X24.766 Y119.363
X24.752 Y119.336
X24.728 Y119.279 Z-0.499
X24.704 Y119.221
X24.663 Y119.105 Z-0.5
X24.645 Y119.046
X24.631 Y119.001
X24.627 Y118.986
X24.625 Y118.98
X24.616 Y118.933
X24.584 Y118.762
X24.569 Y118.589
X24.568 Y118.416
X24.584 Y118.243
X24.614 Y118.072
X24.66 Y117.905
X24.721 Y117.742
X24.796 Y117.586
X24.885 Y117.437
X24.987 Y117.296
X25.101 Y117.166
X25.226 Y117.046
X25.361 Y116.937
X25.506 Y116.841
X25.659 Y116.759
X25.818 Y116.691
X25.983 Y116.637
X26.152 Y116.598
X26.324 Y116.574
X26.498 Y116.566
X26.671 Y116.574
X26.843 Y116.597
X27.012 Y116.635
X27.177 Y116.689
X27.337 Y116.757
X27.49 Y116.839
X27.635 Y116.934
X27.77 Y117.042
X27.896 Y117.162
X28.01 Y117.292
X28.112 Y117.433
X28.202 Y117.581
X28.277 Y117.738
X28.338 Y117.9
X28.385 Y118.067
X28.416 Y118.238
X28.432 Y118.411
Y118.584
X28.417 Y118.757
X28.386 Y118.928
X28.34 Y119.095
X28.279 Y119.258
X28.204 Y119.414
X28.115 Y119.563
X28.014 Y119.704
X27.9 Y119.835
X27.774 Y119.955
X27.639 Y120.063
X27.494 Y120.159
X27.341 Y120.241
X27.182 Y120.31
X27.017 Y120.364
X26.848 Y120.402
X26.676 Y120.426
X26.502 Y120.434
X26.329 Y120.426
X26.157 Y120.403
X25.988 Y120.365
X25.823 Y120.312
X25.663 Y120.244
X25.51 Y120.162
X25.365 Y120.066
X25.229 Y119.958
X25.104 Y119.838
X24.989 Y119.708
X24.887 Y119.568
X24.798 Y119.419
X24.722 Y119.262
X24.661 Y119.1
X24.615 Y118.933
X24.588 Y118.792
X24.579 Y118.721
X24.573 Y118.65 Z-0.501
X24.568 Y118.506 Z-0.502
X24.574 Y118.361 Z-0.503
X24.581 Y118.294 Z-0.504
X24.585 Y118.26
X24.589 Y118.226 Z-0.505
X24.592 Y118.209
X24.603 Y118.159 Z-0.506
X24.618 Y118.092 Z-0.507
X24.655 Y117.953 Z-0.509
X24.702 Y117.816 Z-0.512
X24.759 Y117.689 Z-0.515
X24.826 Y117.567 Z-0.518
X24.901 Y117.451 Z-0.521
X24.942 Y117.394 Z-0.523
X24.962 Y117.366 Z-0.524
X24.983 Y117.338 Z-0.525
X25.007 Y117.312 Z-0.526
X25.03 Y117.285 Z-0.527
X25.078 Y117.232 Z-0.529
X25.179 Y117.132 Z-0.533
X25.29 Y117.039 Z-0.537
X25.407 Y116.954 Z-0.542
X25.519 Y116.887 Z-0.546
X25.636 Y116.828 Z-0.551
X25.766 Y116.77 Z-0.556
X25.833 Y116.747 Z-0.558
X25.899 Y116.724 Z-0.561
X25.967 Y116.706 Z-0.563
X26.035 Y116.69 Z-0.566
X26.173 Y116.666 Z-0.57
X26.303 Y116.652 Z-0.575
X26.433 Y116.646 Z-0.58
X26.572 Y116.652 Z-0.584
X26.709 Y116.667 Z-0.589
X26.845 Y116.692 Z-0.594
X26.978 Y116.727 Z-0.599
X27.041 Y116.75 Z-0.601
X27.104 Y116.773 Z-0.604
X27.228 Y116.825 Z-0.608
X27.287 Y116.855 Z-0.611
X27.346 Y116.885 Z-0.613
X27.458 Y116.955 Z-0.617
X27.564 Y117.033 Z-0.622
X27.664 Y117.119 Z-0.627
X27.761 Y117.21 Z-0.631
X27.784 Y117.235 Z-0.632
X27.849 Y117.311 Z-0.636
X27.93 Y117.417 Z-0.641
X28.003 Y117.529 Z-0.645
X28.035 Y117.586 Z-0.648
X28.066 Y117.642 Z-0.65
X28.118 Y117.761 Z-0.654
X28.164 Y117.884 Z-0.659
X28.203 Y118.01 Z-0.663
X28.23 Y118.138 Z-0.668
X28.247 Y118.268 Z-0.673
X28.253 Y118.395 Z-0.677
Y118.521 Z-0.681
X28.242 Y118.65 Z-0.686
X28.222 Y118.778 Z-0.69
X28.192 Y118.903 Z-0.695
X28.154 Y119.026 Z-0.699
X28.107 Y119.143 Z-0.704
X28.05 Y119.257 Z-0.708
X27.988 Y119.367 Z-0.712
X27.918 Y119.472 Z-0.716
X27.84 Y119.57 Z-0.72
X27.754 Y119.663 Z-0.724
X27.663 Y119.749 Z-0.727
X27.566 Y119.829 Z-0.731
X27.464 Y119.901 Z-0.734
X27.357 Y119.966 Z-0.736
X27.246 Y120.023 Z-0.739
X27.188 Y120.048 Z-0.74
X27.145 Y120.066 Z-0.741
X27.131 Y120.072
X27.101 Y120.082 Z-0.742
X27.072 Y120.091
X27.013 Y120.11 Z-0.743
X26.893 Y120.143 Z-0.745
X26.771 Y120.167 Z-0.747
X26.648 Y120.181 Z-0.748
X26.524 Y120.185 Z-0.749
X26.462
X26.4 Y120.181 Z-0.75
X26.18 Y120.153
G3 X24.847 Y118.18 R1.684
X26.82 Y116.846 R1.684
X28.154 Y118.819 R1.684
X26.319 Y120.174 R1.684
G1 X26.18 Y120.153
X26.04 Y120.12
X25.971 Y120.1
X25.904 Y120.075 Z-0.751
X25.774 Y120.017 Z-0.752
X25.711 Y119.984
X25.648 Y119.95 Z-0.753
X25.585 Y119.909 Z-0.754
X25.522 Y119.866 Z-0.755
X25.463 Y119.82 Z-0.756
X25.404 Y119.771 Z-0.757
X25.304 Y119.673 Z-0.759
X25.257 Y119.621 Z-0.761
X25.212 Y119.566 Z-0.762
X25.127 Y119.448 Z-0.765
X25.088 Y119.387 Z-0.767
X25.052 Y119.324 Z-0.768
X24.989 Y119.196 Z-0.772
X24.963 Y119.13 Z-0.774
X24.939 Y119.062 Z-0.776
X24.919 Y118.994 Z-0.778
X24.909 Y118.959 Z-0.779
X24.9 Y118.925 Z-0.78
X24.896 Y118.907
X24.887 Y118.854 Z-0.782
X24.875 Y118.784 Z-0.784
X24.86 Y118.642 Z-0.788
X24.857 Y118.57 Z-0.791
X24.858 Y118.498 Z-0.793
X24.87 Y118.354 Z-0.798
X24.88 Y118.281 Z-0.8
X24.896 Y118.21 Z-0.803
X24.911 Y118.145 Z-0.805
X24.919 Y118.112 Z-0.806
X24.928 Y118.08 Z-0.808
X24.95 Y118.016 Z-0.81
X24.972 Y117.953 Z-0.812
X25.03 Y117.823 Z-0.817
X25.064 Y117.761 Z-0.82
X25.1 Y117.7 Z-0.822
X25.178 Y117.588 Z-0.827
X25.264 Y117.481 Z-0.832
X25.361 Y117.379 Z-0.837
X25.413 Y117.331 Z-0.839
X25.468 Y117.286 Z-0.842
X25.524 Y117.244 Z-0.844
X25.581 Y117.205 Z-0.847
X25.641 Y117.168 Z-0.849
X25.701 Y117.133 Z-0.851
X25.761 Y117.104 Z-0.854
X25.822 Y117.075 Z-0.856
X25.946 Y117.027 Z-0.861
X26.01 Y117.006 Z-0.863
X26.076 Y116.989 Z-0.865
X26.209 Y116.964 Z-0.87
X26.342 Y116.949 Z-0.875
X26.476 Y116.944 Z-0.88
X26.543 Y116.948 Z-0.882
X26.609 Y116.953 Z-0.884
X26.675 Y116.961 Z-0.887
X26.741 Y116.972 Z-0.889
X26.806 Y116.987 Z-0.891
X26.87 Y117.004 Z-0.893
X26.996 Y117.048 Z-0.898
X27.058 Y117.071 Z-0.9
X27.119 Y117.099 Z-0.903
X27.236 Y117.161 Z-0.907
X27.292 Y117.196 Z-0.91
X27.346 Y117.234 Z-0.912
X27.399 Y117.274 Z-0.914
X27.45 Y117.316 Z-0.917
X27.543 Y117.405 Z-0.921
X27.588 Y117.451 Z-0.923
X27.63 Y117.5 Z-0.926
X27.671 Y117.55 Z-0.928
X27.709 Y117.603 Z-0.93
X27.744 Y117.657 Z-0.932
X27.777 Y117.713 Z-0.935
X27.835 Y117.828 Z-0.939
X27.884 Y117.946 Z-0.944
X27.904 Y118.008 Z-0.946
X27.923 Y118.07 Z-0.948
X27.939 Y118.132 Z-0.95
X27.951 Y118.196 Z-0.953
X27.961 Y118.259 Z-0.955
X27.968 Y118.323 Z-0.957
X27.972 Y118.451 Z-0.961
X27.966 Y118.578 Z-0.965
X27.96 Y118.641 Z-0.967
X27.951 Y118.704 Z-0.969
X27.925 Y118.827 Z-0.973
X27.908 Y118.888 Z-0.975
X27.887 Y118.947 Z-0.977
X27.865 Y119.006 Z-0.978
X27.854 Y119.035 Z-0.979
X27.842 Y119.064 Z-0.98
X27.813 Y119.12 Z-0.981
X27.784 Y119.175 Z-0.983
X27.754 Y119.23 Z-0.984
X27.72 Y119.282 Z-0.986
X27.646 Y119.383 Z-0.988
X27.606 Y119.43 Z-0.99
X27.564 Y119.476 Z-0.991
X27.473 Y119.562 Z-0.993
X27.426 Y119.602 Z-0.994
X27.402 Y119.622
X27.378 Y119.642 Z-0.995
X27.353 Y119.66
X27.327 Y119.678 Z-0.996
X27.275 Y119.712
X27.222 Y119.744 Z-0.997
X27.167 Y119.773 Z-0.998
X27.111 Y119.8
X27.055 Y119.825 Z-0.999
X26.996 Y119.846
X26.938 Y119.865
X26.908 Y119.875 Z-1.
X26.879 Y119.885
X26.849 Y119.892
X26.819 Y119.899
X26.697 Y119.921
G3 X25.079 Y118.698 R1.435
X26.302 Y117.079 R1.435
X27.921 Y118.303 R1.435
X26.743 Y119.914 R1.435
G1 X26.697 Y119.921
X26.549 Y119.934
X26.474
X26.4 Y119.929 Z-1.001
X26.252 Y119.911 Z-1.002
X26.179 Y119.896 Z-1.003
X26.107 Y119.877
X25.976 Y119.831 Z-1.005
X25.913 Y119.802 Z-1.006
X25.851 Y119.771 Z-1.007
X25.723 Y119.693 Z-1.01
X25.661 Y119.65 Z-1.011
X25.602 Y119.604 Z-1.012
X25.502 Y119.511 Z-1.015
X25.457 Y119.46 Z-1.017
X25.413 Y119.407 Z-1.018
X25.327 Y119.285 Z-1.022
X25.287 Y119.222 Z-1.024
X25.27 Y119.189 Z-1.025
X25.253 Y119.156 Z-1.026
X25.225 Y119.094 Z-1.028
X25.199 Y119.032 Z-1.03
X25.178 Y118.968 Z-1.032
X25.158 Y118.903 Z-1.034
X25.142 Y118.831 Z-1.036
X25.13 Y118.758 Z-1.038
X25.118 Y118.69 Z-1.041
X25.117 Y118.685
X25.115 Y118.648 Z-1.042
X25.113 Y118.611 Z-1.043
X25.111 Y118.539 Z-1.046
Y118.503 Z-1.047
X25.113 Y118.467 Z-1.048
X25.12 Y118.396 Z-1.051
X25.124 Y118.36 Z-1.052
X25.129 Y118.324 Z-1.053
X25.144 Y118.258 Z-1.055
X25.159 Y118.193 Z-1.058
X25.176 Y118.128 Z-1.06
X25.199 Y118.064 Z-1.062
X25.225 Y117.997 Z-1.065
X25.24 Y117.964 Z-1.066
X25.256 Y117.932 Z-1.067
X25.29 Y117.869 Z-1.07
X25.308 Y117.838 Z-1.071
X25.327 Y117.807 Z-1.072
X25.403 Y117.7 Z-1.077
X25.445 Y117.649 Z-1.079
X25.49 Y117.601 Z-1.082
X25.538 Y117.55 Z-1.084
X25.565 Y117.526 Z-1.085
X25.592 Y117.504 Z-1.087
X25.647 Y117.459 Z-1.089
X25.675 Y117.438 Z-1.09
X25.704 Y117.418 Z-1.092
X25.814 Y117.35 Z-1.096
X25.872 Y117.321 Z-1.098
X25.931 Y117.294 Z-1.101
X25.995 Y117.267 Z-1.103
X26.028 Y117.255 Z-1.104
X26.062 Y117.245 Z-1.105
X26.129 Y117.225 Z-1.108
X26.197 Y117.211 Z-1.11
X26.261 Y117.2 Z-1.113
X26.293 Y117.195 Z-1.114
X26.325 Y117.191 Z-1.115
X26.341 Y117.19
X26.389 Y117.188 Z-1.117
X26.454 Y117.186 Z-1.119
X26.522 Z-1.122
X26.556 Y117.189 Z-1.123
X26.624 Y117.196 Z-1.125
X26.658 Y117.2 Z-1.126
X26.725 Y117.214 Z-1.129
X26.787 Y117.228 Z-1.131
X26.818 Y117.236 Z-1.132
X26.848 Y117.246 Z-1.133
X26.968 Y117.291 Z-1.138
X27.029 Y117.318 Z-1.14
X27.118 Y117.366 Z-1.144
X27.147 Y117.383 Z-1.145
X27.202 Y117.421 Z-1.147
X27.254 Y117.458 Z-1.149
X27.279 Y117.477 Z-1.15
X27.302 Y117.499 Z-1.151
X27.394 Y117.586 Z-1.156
X27.417 Y117.61 Z-1.157
X27.438 Y117.635 Z-1.158
X27.501 Y117.712 Z-1.162
X27.52 Y117.738 Z-1.163
X27.555 Y117.794 Z-1.165
X27.572 Y117.822 Z-1.166
X27.589 Y117.85 Z-1.167
X27.604 Y117.879 Z-1.168
X27.644 Y117.967 Z-1.172
X27.657 Y117.997 Z-1.173
X27.669 Y118.027 Z-1.174
X27.688 Y118.087 Z-1.176
X27.706 Y118.147 Z-1.178
X27.714 Y118.177 Z-1.18
X27.72 Y118.208 Z-1.181
X27.73 Y118.27 Z-1.183
X27.735 Y118.302 Z-1.184
X27.74 Y118.333 Z-1.185
X27.741 Y118.365 Z-1.186
X27.744 Y118.461 Z-1.19
X27.743 Y118.525 Z-1.192
X27.73 Y118.649 Z-1.196
X27.725 Y118.679 Z-1.197
X27.719 Y118.709 Z-1.198
X27.704 Y118.77 Z-1.2
X27.697 Y118.8 Z-1.201
X27.693 Y118.816 Z-1.202
X27.688 Y118.83 Z-1.203
X27.666 Y118.889 Z-1.205
X27.643 Y118.948 Z-1.207
X27.616 Y119.005 Z-1.209
X27.587 Y119.059 Z-1.211
X27.565 Y119.1 Z-1.213
X27.558 Y119.113
X27.549 Y119.126 Z-1.214
X27.541 Y119.138
X27.523 Y119.163 Z-1.215
X27.478 Y119.226 Z-1.218
X27.469 Y119.238
X27.448 Y119.261 Z-1.219
X27.406 Y119.307 Z-1.221
X27.385 Y119.329 Z-1.222
X27.374 Y119.341
X27.363 Y119.352 Z-1.223
X27.352 Y119.362
X27.34 Y119.372 Z-1.224
X27.316 Y119.392
X27.269 Y119.431 Z-1.226
X27.246 Y119.45 Z-1.227
X27.222 Y119.468 Z-1.228
X27.196 Y119.485 Z-1.229
X27.17 Y119.501
X27.119 Y119.533 Z-1.231
X27.106 Y119.541
X27.092 Y119.549 Z-1.232
X27.065 Y119.561
X27.009 Y119.587 Z-1.234
X26.981 Y119.6 Z-1.235
X26.967 Y119.606
X26.953 Y119.611
X26.894 Y119.629 Z-1.237
X26.837 Y119.648 Z-1.238
X26.808 Y119.657
X26.793 Y119.66 Z-1.239
X26.778 Y119.663
X26.719 Y119.674 Z-1.24
X26.674 Y119.682 Z-1.241
X26.659 Y119.684
X26.644 Y119.686 Z-1.242
X26.599 Y119.688
X26.523 Y119.692 Z-1.243
X26.508 Z-1.244
X26.493 Y119.691
X26.418 Y119.685 Z-1.245
X26.388 Y119.683
X26.358 Y119.68 Z-1.246
X26.298 Y119.67 Z-1.247
X26.239 Y119.658
X26.195 Y119.649 Z-1.248
X26.188 Y119.647
X26.181 Y119.644
X26.067 Y119.605 Z-1.249
X26.053 Y119.6
X26.039 Y119.594
X26.013 Y119.58
X25.959 Y119.553
X25.933 Y119.54 Z-1.25
X25.92 Y119.534
X25.907 Y119.527
X25.895 Y119.519
X25.883 Y119.511
X25.859 Y119.495
X25.811 Y119.463
X25.781 Y119.443
X25.775 Y119.438
X25.764 Y119.429
G3 X25.571 Y117.764 R1.185
