G00 G49 G40.1 G17 G80 G50 G90
G21
(4th Axis Roughing)
(Endmill 1/4in 6.35mm Carbide)
M6 T22
M03 S19310
G01  Y-4.2074 Z40.4085 A0.000 F367.5
Z6.9197 A0.000
Z6.8589 A-7.273 F490.
Z6.8091 A-14.545
Z6.7881 A-21.676
Z17.6198 A-21.705
Z18.0776 A-21.818
Z18.8184 A-22.727
Z19.6834 A-24.546
Z20.0823 A-25.455
Z21.6775 A-29.091
Z22.0802 A-30.000
Z22.3127 A-30.909
Z22.8142 A-33.409
Z23.1499 A-34.545
Z23.4117 A-35.597
Z23.7734 A-36.364
Z24.5309 A-38.182
Z25.1274 A-40.000
Z25.7933 A-42.727
Z25.9564 A-43.636
Z26.1450 A-45.455
Z26.1692 A-46.364
Z26.0947 A-47.273
Z25.7910 A-48.636
Z25.6596 A-49.091
Z25.2725 A-50.000
Z24.8415 A-50.682
Z24.1443 A-51.818
Z23.0583 A-53.182
Z22.6504 A-53.637
Z21.6483 A-54.545
Z19.7750 A-56.364
Z18.9000 A-57.074
Z6.7181 A-57.102
Z6.6851 A-65.455
Z6.6794 A-69.091
Z6.6132 A-72.727
Z6.6210 A-78.182
Z6.6399 A-87.273
Z6.6664 A-94.545
Z6.7247 A-101.818
Z8.7940 A-138.182
Z9.1553 A-141.818
Z9.9870 A-149.091
Z10.8072 A-154.545
Z12.1997 A-160.000
Z17.6977 A-169.091
Z19.2657 A-170.909
Z20.9757 A-172.727
Z21.5024 A-173.637
Z22.2055 A-175.454
Z22.4815 A-176.364
Z22.6655 A-177.273
Z22.9360 A-180.000
Z23.0371 A-181.818
Z22.9875 A-183.636
Z22.6703 A-187.273
Z22.4741 A-188.182
Z22.1868 A-189.091
Z21.6893 A-190.454
Z21.4927 A-190.909
Z20.9980 A-191.818
Z18.8309 A-194.545
Z16.3145 A-198.182
Z12.5781 A-206.364
Z11.3874 A-211.818
Z10.7891 A-216.364
Z10.3611 A-220.000
Z9.8976 A-225.455
Z9.7485 A-227.273
Z8.0087 A-261.818
Z7.9772 A-269.091
Z7.9472 A-274.545
Z7.9174 A-280.000
Z7.8964 A-283.636
Z7.8754 A-285.455
Z7.8983 A-289.091
Z7.8451 A-294.545
Z7.8282 A-302.045
Z28.8182 A-302.102
Z29.2458 A-302.159
Z29.4920 A-302.273
Z30.1800 A-302.727
Z30.4303 A-302.954
Z30.5496 A-303.182
Z30.6354 A-303.636
Z30.6137 A-304.546
Z30.5008 A-305.455
Z30.1430 A-307.273
Z29.6771 A-309.091
Z29.0907 A-310.909
Z28.4608 A-312.727
Z27.8053 A-314.545
Z27.1680 A-316.364
Z25.9462 A-320.000
Z24.3735 A-325.455
Z23.4562 A-329.091
Z22.8227 A-331.818
Z22.7032 A-332.273
Z21.6963 A-334.545
Z21.3819 A-335.199
Z20.9235 A-335.730
Z20.5124 A-335.852
Z7.2520 A-335.881
Z7.1859 A-340.000
Z7.1052 A-345.455
Z6.9971 A-352.727
Z6.9197 A-360.000
Y-3.4137 Z8.3103 A-360.000
Y-2.6199 Z9.3000 A-360.000
Z9.3599 A-354.545
Z9.4403 A-349.091
Z9.5029 A-345.455
Z9.5898 A-340.284
Z19.8517 A-340.256
Z20.2278 A-340.128
Z20.6315 A-339.545
Z21.3199 A-338.182
Z21.7129 A-337.273
Z22.2079 A-335.909
Z22.9807 A-333.637
Z23.3195 A-332.273
Z24.6174 A-327.273
Z27.0333 A-320.000
Z28.5131 A-316.364
Z30.1947 A-312.727
Z32.0804 A-309.091
Z33.1185 A-307.273
Z34.1644 A-305.455
Z34.3861 A-305.000
Z34.5143 A-304.546
Z34.7200 A-303.636
Z34.8562 A-302.727
Z34.9420 A-301.818
Z34.9115 A-300.909
Z34.8132 A-300.000
Z34.5284 A-298.636
Z34.4119 A-298.182
Z34.2354 A-297.727
Z33.7247 A-296.818
Z33.0881 A-295.881
Z13.3712 A-295.852
Z13.2224 A-295.454
Z12.1947 A-293.921
Z12.1351 A-292.727
Z11.9399 A-290.909
Z11.4963 A-289.091
Z11.3452 A-287.273
Z11.1143 A-285.455
Z10.6751 A-283.182
Z10.5772 A-281.818
Z10.3729 A-279.602
Z10.4010 A-274.545
Z10.4268 A-269.091
Z10.4422 A-263.636
Z10.4536 A-258.182
Z10.4820 A-252.727
Z10.6261 A-245.455
Z11.4061 A-230.909
Z12.7496 A-218.182
Z13.0055 A-216.364
Z13.3383 A-214.545
Z13.7939 A-212.727
Z15.7227 A-207.273
Z17.6225 A-203.636
Z20.2625 A-199.546
Z20.9332 A-198.182
Z21.9429 A-196.136
Z22.1518 A-195.455
Z22.7281 A-193.636
Z22.9469 A-192.727
Z23.7951 A-189.091
Z23.9722 A-187.273
Z24.1528 A-183.636
Z24.1793 A-181.818
Z24.0462 A-178.182
Z23.9274 A-176.364
Z23.8154 A-175.454
Z22.9301 A-171.818
Z22.7082 A-170.909
Z22.1273 A-169.091
Z21.9517 A-168.636
Z20.2853 A-165.455
Z20.0146 A-165.000
Z17.6849 A-161.818
Z15.4675 A-158.182
Z13.2503 A-152.727
Z12.7336 A-150.909
Z12.3592 A-149.091
Z11.5223 A-143.636
Z10.3488 A-132.727
Z9.2997 A-112.727
Z9.1705 A-103.636
Z9.1295 A-96.364
Z9.1076 A-90.909
Z9.0907 A-85.455
Z9.0783 A-79.716
Z9.2260 A-78.182
Z9.3770 A-76.364
Z9.4980 A-75.455
Z9.6849 A-74.545
Z9.9915 A-72.727
Z10.2002 A-70.909
Z10.3151 A-69.545
Z10.7052 A-68.182
Z10.8433 A-67.273
Z11.0348 A-65.455
Z11.1236 A-64.233
Z11.9816 A-63.182
Z13.7787 A-59.062
Z18.6671 A-59.034
Z20.6123 A-58.182
Z21.6578 A-57.500
Z22.6461 A-56.818
Z23.1988 A-56.364
Z25.3398 A-54.545
Z25.8275 A-54.091
Z26.2189 A-53.637
Z26.7151 A-52.955
Z27.2468 A-52.273
Z27.5133 A-51.818
Z27.9710 A-50.909
Z28.3672 A-50.000
Z28.5844 A-49.091
Z28.7113 A-48.182
Z28.7507 A-47.273
Z28.6786 A-46.364
Z28.3379 A-44.545
Z28.1043 A-43.636
Z27.5119 A-41.818
Z26.8359 A-40.000
Z25.9449 A-38.182
Z24.9034 A-36.307
Z24.6479 A-35.455
Z24.1544 A-34.091
Z24.0877 A-33.920
Z23.8214 A-32.727
Z23.4391 A-31.335
Z23.2404 A-30.000
Z23.0219 A-29.091
Z22.5124 A-27.727
Z21.6699 A-25.455
Z20.9852 A-23.636
Z19.7486 A-20.909
Z18.5631 A-18.409
Z17.8711 A-17.607
Z17.3884 A-17.415
Z9.3537 A-17.387
Z9.2144 A-14.545
Z9.2538 A-7.273
Z9.2920 A-1.818
Z9.3000 A0.000
Y-1.8262 Z10.2245 A0.000
Y-1.0324 Z11.0276 A0.000
Z11.0031 A-3.636
Z10.9897 A-7.273
Z10.9714 A-12.727
Z10.9892 A-13.495
Z11.0943 A-13.954
Z11.5105 A-14.545
Z11.7110 A-15.000
Z17.6639 A-15.028
Z18.0496 A-15.227
Z18.6395 A-15.909
Z18.8743 A-16.364
Z19.7014 A-18.182
Z21.1723 A-21.591
Z22.2782 A-23.636
Z22.9707 A-25.000
Z23.1289 A-25.455
Z23.5572 A-27.273
Z23.9905 A-29.091
Z24.3903 A-30.909
Z24.5402 A-31.818
Z24.8703 A-32.727
Z25.4360 A-34.659
Z25.8014 A-35.455
Z26.3908 A-36.932
Z28.2964 A-40.000
Z28.8286 A-40.909
Z29.2926 A-41.818
Z29.6860 A-42.727
Z30.4413 A-44.545
Z30.8011 A-45.682
Z31.0111 A-46.364
Z31.2305 A-47.273
Z31.3370 A-48.182
Z31.3301 A-49.091
Z31.2614 A-50.000
Z31.0271 A-50.909
Z30.6768 A-51.818
Z30.2444 A-52.727
Z29.2787 A-54.091
Z28.8836 A-54.545
Z28.3852 A-55.000
Z26.0189 A-56.818
Z24.1427 A-57.955
Z23.3592 A-58.327
Z21.4735 A-58.982
Z19.3205 A-59.346
Z16.2364 A-59.375
Z16.0601 A-60.227
Z14.8597 A-63.636
Z14.2928 A-66.363
Z14.0804 A-67.273
Z13.0980 A-70.909
Z12.7588 A-72.273
Z12.5516 A-73.636
Z12.0085 A-76.364
Z11.6045 A-78.182
Z11.1767 A-80.000
Z10.8538 A-81.648
Z10.8734 A-85.455
Z10.8902 A-90.909
Z10.9102 A-96.364
Z10.9332 A-101.818
Z10.9857 A-109.091
Z11.0503 A-114.545
Z11.5587 A-127.273
Z12.0991 A-132.727
Z12.6143 A-136.364
Z13.6851 A-141.818
Z15.0132 A-147.273
Z16.1780 A-150.909
Z17.3357 A-153.636
Z18.3871 A-156.364
Z19.3821 A-158.182
Z20.5433 A-160.909
Z20.9258 A-161.818
Z21.1616 A-162.273
Z21.3457 A-162.727
Z22.1947 A-165.455
Z22.7166 A-167.273
Z23.3652 A-169.091
Z23.6078 A-170.000
Z23.8738 A-171.363
Z24.4385 A-174.545
Z24.7153 A-176.364
Z24.8189 A-178.182
Z24.8613 A-181.818
Z24.8517 A-183.636
Z24.7798 A-185.455
Z24.6786 A-188.182
Z24.5814 A-189.091
Z24.3465 A-190.454
Z23.7629 A-193.636
Z23.5889 A-194.545
Z23.3535 A-195.455
Z23.0911 A-196.364
Z22.4877 A-198.182
Z21.9919 A-200.000
Z21.2050 A-202.728
Z19.7108 A-206.364
Z19.5108 A-206.818
Z19.0006 A-207.727
Z17.8152 A-210.909
Z17.0697 A-212.727
Z15.4256 A-218.182
Z14.6169 A-221.818
Z13.6235 A-227.273
Z13.3244 A-229.091
Z12.7537 A-234.545
Z12.5188 A-238.182
Z12.2454 A-249.091
Z12.2216 A-254.545
Z12.2084 A-260.000
Z12.2070 A-263.636
Z12.1949 A-269.091
Z12.1715 A-274.545
Z12.1454 A-278.068
Z13.0228 A-281.818
Z13.4076 A-283.636
Z13.8702 A-285.909
Z14.0631 A-287.046
Z14.6143 A-289.091
Z15.3620 A-291.818
Z15.7185 A-293.551
Z32.7910 A-293.580
Z33.3379 A-293.750
Z33.5602 A-293.864
Z34.1744 A-294.318
Z34.4018 A-294.545
Z35.8451 A-296.364
Z36.0497 A-296.818
Z36.4018 A-297.727
Z36.6995 A-298.636
Z36.8074 A-299.091
Z36.8624 A-299.545
Z36.8812 A-300.000
Z36.8707 A-300.909
Z36.7380 A-301.818
Z36.5108 A-302.727
Z36.0375 A-304.091
Z35.8691 A-304.546
Z35.4883 A-305.455
Z34.8206 A-306.818
Z34.5870 A-307.273
Z33.4342 A-309.091
Z31.2279 A-312.727
Z29.3179 A-316.364
Z26.9119 A-321.818
Z25.8985 A-324.517
Z24.1146 A-330.909
Z23.4967 A-333.637
Z23.3819 A-334.091
Z22.7818 A-335.909
Z22.0062 A-338.182
Z21.0288 A-340.909
Z20.3749 A-342.223
Z19.7402 A-343.184
Z19.3831 A-343.437
Z11.2728 A-343.466
Z11.2185 A-347.273
Z11.1274 A-352.727
Z11.0276 A-360.000
Y0.5551 Z12.6928 A-360.000
Z12.7581 A-354.545
Z12.7953 A-352.727
Z12.8862 A-347.273
Z12.9203 A-344.688
Z19.6632 A-344.627
Z20.1172 A-344.148
Z20.6678 A-343.182
Z21.1566 A-341.818
Z21.7843 A-340.000
Z22.8984 A-336.818
Z23.6570 A-334.545
Z24.8918 A-329.091
Z25.8815 A-325.455
Z28.6838 A-318.182
Z29.7308 A-316.023
Z30.6229 A-314.545
Z31.7213 A-312.727
Z32.8302 A-310.909
Z34.8094 A-308.182
Z35.4542 A-307.273
Z36.3311 A-305.909
Z36.5754 A-305.455
Z36.7614 A-305.000
Z36.8501 A-304.546
Z36.9276 A-303.636
Z37.0114 A-301.818
Z37.0285 A-300.000
Z36.9972 A-298.182
Z36.8971 A-296.364
Z36.8346 A-295.682
Z36.6607 A-295.000
Z36.4655 A-294.545
Z36.2080 A-294.091
Z35.3948 A-293.182
Z34.8843 A-292.841
Z34.5318 A-292.727
Z33.6824 A-292.578
Z17.0012 A-292.528
Z15.5887 A-286.364
Z15.3688 A-285.455
Z14.9773 A-283.636
Z13.9356 A-278.807
Z13.8378 A-278.381
Z13.8644 A-274.545
Z13.8865 A-269.091
Z13.8968 A-263.636
Z13.8979 A-258.182
Z13.9013 A-254.545
Z13.9033 A-249.091
Z14.0199 A-240.000
Z14.2716 A-236.364
Z14.7649 A-232.727
Z15.8431 A-227.273
Z16.4565 A-224.546
Z17.1244 A-221.818
Z17.5516 A-220.000
Z18.3119 A-216.364
Z18.8142 A-214.545
Z19.7972 A-210.909
Z20.5481 A-208.636
Z21.3621 A-205.455
Z22.0829 A-202.728
Z22.7863 A-200.000
Z24.0734 A-195.455
Z24.2253 A-194.545
Z24.7786 A-190.909
Z24.9472 A-189.091
Z25.0287 A-187.273
Z25.1374 A-184.546
Z25.1624 A-183.636
Z25.1739 A-180.000
Z25.1555 A-178.182
Z25.0744 A-176.364
Z24.9162 A-174.545
Z24.6671 A-172.727
Z24.3040 A-170.000
Z23.5153 A-167.273
Z22.5283 A-163.636
Z21.4576 A-160.000
Z20.9493 A-158.182
Z20.4090 A-156.364
Z19.1139 A-152.727
Z18.6150 A-150.909
Z17.5630 A-147.273
Z16.9662 A-144.546
Z16.7597 A-143.636
Z16.3052 A-141.818
Z15.3829 A-138.182
Z14.1667 A-132.727
Z13.8094 A-130.909
Z13.2754 A-127.273
Z13.0952 A-125.455
Z12.8810 A-121.818
Z12.7329 A-114.545
Z12.6876 A-109.091
Z12.6615 A-105.455
Z12.6547 A-101.818
Z12.6337 A-96.364
Z12.6145 A-90.909
Z12.5977 A-85.455
Z12.5910 A-81.221
Z13.9768 A-74.545
Z14.3232 A-72.954
Z15.5759 A-67.273
Z16.1407 A-65.000
Z17.1115 A-60.000
Z17.2900 A-59.176
Z22.6682 A-59.117
Z24.3673 A-58.906
Z25.3027 A-58.665
Z26.7777 A-58.182
Z27.7053 A-57.727
Z28.6054 A-57.273
Z29.3812 A-56.818
Z31.3138 A-55.454
Z31.8482 A-55.000
Z32.2643 A-54.545
Z32.7251 A-53.864
Z33.1743 A-53.182
Z33.4096 A-52.727
Z33.6979 A-51.818
Z33.9207 A-50.909
Z34.0086 A-50.000
Z33.9377 A-49.091
Z33.8139 A-48.182
Z33.5569 A-47.273
Z32.8242 A-45.455
Z32.2296 A-44.318
Z31.8967 A-43.636
Z31.4182 A-42.727
Z30.8501 A-41.818
Z29.5346 A-40.000
Z27.6874 A-37.159
Z26.8503 A-35.455
Z26.6687 A-35.000
Z26.1777 A-33.636
Z25.6319 A-32.273
Z25.3358 A-30.909
Z24.6212 A-28.182
Z24.3638 A-27.273
Z23.7975 A-25.455
Z23.3436 A-24.091
Z23.1500 A-23.636
Z21.8897 A-21.591
Z21.6483 A-20.909
Z20.9543 A-19.318
Z20.6265 A-18.182
Z19.5796 A-15.909
Z19.3210 A-15.454
Z18.4834 A-14.318
Z17.7520 A-13.693
Z17.4130 A-13.637
Z14.1001 A-13.608
Z13.9950 A-13.388
Z13.5236 A-12.947
Z12.6310 A-11.420
Z12.6618 A-7.273
Z12.6869 A-1.818
Z12.6928 A0.000
Y1.3488 Z13.5214 A0.000
Y2.1426 Z14.2948 A0.000
Z14.2771 A-3.636
Z14.2661 A-7.273
Z14.2431 A-10.256
Z14.6176 A-11.363
Z15.5644 A-13.466
Z18.0959 A-13.495
Z18.7020 A-13.637
Z19.2187 A-14.091
Z19.9397 A-15.000
Z20.2479 A-15.454
Z21.1328 A-17.273
Z21.4897 A-18.182
Z21.8151 A-19.545
Z22.2351 A-20.455
Z22.4126 A-20.909
Z22.6947 A-21.818
Z23.5636 A-23.182
Z23.7844 A-23.636
Z24.5866 A-25.909
Z25.6698 A-29.091
Z26.0931 A-30.454
Z26.6074 A-32.273
Z26.7270 A-32.727
Z28.1284 A-35.909
Z28.3677 A-36.364
Z29.5575 A-38.182
Z30.7598 A-40.000
Z32.9216 A-42.727
Z33.5990 A-43.636
Z34.7354 A-45.455
Z35.2678 A-46.364
Z35.7350 A-47.273
Z36.1564 A-48.182
Z36.4333 A-49.091
Z36.5401 A-49.546
Z36.5842 A-50.000
Z36.5949 A-50.909
Z36.5613 A-51.818
Z36.4557 A-52.727
Z36.2905 A-53.182
Z35.8036 A-54.091
Z35.5369 A-54.545
Z35.1861 A-55.000
Z34.7301 A-55.454
Z34.1317 A-55.909
Z32.7344 A-56.818
Z31.9144 A-57.273
Z30.4199 A-57.955
Z29.8598 A-58.182
Z28.1185 A-58.679
Z26.9227 A-58.865
Z25.6660 A-58.977
Z17.6162 A-59.005
Z17.4663 A-62.273
Z16.3702 A-67.273
Z16.0616 A-69.091
Z15.7225 A-70.909
Z15.0408 A-74.545
Z14.3273 A-78.608
Z14.2034 A-81.818
Z14.2282 A-85.455
Z14.2454 A-90.909
Z14.2648 A-96.364
Z14.2857 A-101.818
Z14.3089 A-107.273
Z14.3343 A-112.727
Z14.3812 A-118.182
Z14.4187 A-121.818
Z14.6463 A-125.455
Z14.7361 A-126.364
Z17.1640 A-138.182
Z17.3635 A-139.091
Z18.2398 A-143.636
Z19.3962 A-149.091
Z20.7800 A-154.545
Z21.2570 A-156.364
Z21.6783 A-158.182
Z22.4796 A-161.818
Z23.3843 A-165.000
Z24.3478 A-168.636
Z24.4684 A-169.091
Z24.7776 A-170.909
Z25.1626 A-174.091
Z25.2547 A-176.364
Z25.2933 A-178.182
Z25.3014 A-180.000
Z25.2628 A-183.636
Z25.2343 A-185.455
Z25.1232 A-189.091
Z25.0474 A-190.909
Z24.9857 A-191.818
Z24.4520 A-195.455
Z24.2603 A-196.364
Z23.2903 A-200.000
Z22.8075 A-201.818
Z22.3131 A-203.636
Z21.2354 A-209.091
Z20.8127 A-210.909
Z19.2750 A-218.182
Z18.7937 A-220.909
Z18.1506 A-224.546
Z17.9582 A-225.455
Z15.8114 A-236.364
Z15.5318 A-240.000
Z15.5104 A-243.636
Z15.5102 A-249.091
Z15.5192 A-254.545
Z15.5187 A-258.182
Z15.5094 A-261.818
Z15.5190 A-263.636
Z15.5093 A-269.091
Z15.4880 A-274.545
Z15.4542 A-278.182
Z15.5616 A-280.767
Z16.2442 A-284.545
Z17.1296 A-289.091
Z17.5780 A-291.733
Z34.1630 A-291.761
Z34.5788 A-291.821
Z34.9869 A-292.003
Z35.2690 A-292.244
Z35.7093 A-292.727
Z36.2400 A-293.409
Z36.5721 A-294.091
Z36.7054 A-294.545
Z36.8178 A-295.000
Z36.9368 A-295.795
Z37.0164 A-298.182
Z37.0340 A-300.000
Z37.0184 A-301.818
Z36.9709 A-303.636
Z36.9154 A-304.773
Z36.8024 A-305.455
Z36.6904 A-305.909
Z36.4466 A-306.591
Z34.1269 A-309.545
Z32.6877 A-311.818
Z32.0441 A-312.727
Z29.6355 A-316.364
Z28.9583 A-317.727
Z26.6824 A-323.636
Z24.5630 A-330.909
Z23.4994 A-335.454
Z23.2855 A-336.364
Z22.6492 A-338.182
Z21.3877 A-341.818
Z20.5814 A-344.016
Z20.0961 A-344.774
Z19.6619 A-345.153
Z14.6113 A-345.180
Z14.5151 A-345.398
Z14.4612 A-349.091
Z14.3987 A-352.727
Z14.3192 A-358.182
Z14.2948 A-360.000
Y2.9363 Z14.9911 A-360.000
Y3.7301 Z15.5868 A-360.000
Z15.6272 A-356.364
Z15.6908 A-352.727
Z15.7598 A-349.091
Z15.8035 A-345.805
Z15.8356 A-345.625
Z16.0760 A-345.114
Z19.6772 A-345.085
Z20.0471 A-344.723
Z20.6603 A-343.636
Z21.2770 A-341.818
Z22.4965 A-338.182
Z23.2751 A-335.909
Z23.8239 A-333.637
Z26.1033 A-325.455
Z27.3695 A-321.818
Z29.2243 A-317.273
Z29.7167 A-316.364
Z33.1645 A-311.364
Z33.4863 A-310.909
Z33.7052 A-310.454
Z33.8373 A-310.085
Z36.3464 A-306.818
Z36.7353 A-305.909
Z36.8957 A-305.284
Z36.9709 A-303.636
Z37.0184 A-301.818
Z37.0340 A-300.000
Z37.0164 A-298.182
Z36.9616 A-296.364
Z36.8902 A-295.000
Z36.7817 A-294.545
Z36.4473 A-293.637
Z35.7614 A-292.727
Z35.0950 A-292.070
Z34.5596 A-291.807
Z34.1395 A-291.676
Z18.1830 A-291.647
Z17.1807 A-285.455
Z16.8269 A-281.790
Z16.7464 A-278.182
Z16.7818 A-274.545
Z16.8026 A-269.091
Z16.8123 A-263.636
Z16.8122 A-260.000
Z16.8013 A-256.364
Z16.8120 A-254.545
Z16.8016 A-249.091
Z16.8129 A-243.636
Z16.8576 A-240.000
Z17.0866 A-236.364
Z18.8284 A-226.363
Z19.0693 A-225.000
Z19.8718 A-220.000
Z20.5048 A-216.364
Z21.0913 A-212.727
Z21.9578 A-207.273
Z22.3233 A-205.455
Z23.4496 A-200.909
Z24.4926 A-196.818
Z24.6735 A-195.455
Z24.9976 A-192.727
Z25.1228 A-190.909
Z25.1860 A-189.091
Z25.2763 A-185.455
Z25.3212 A-181.818
Z25.3381 A-180.000
Z25.3157 A-177.273
Z25.2927 A-176.364
Z25.2202 A-174.545
Z25.0725 A-172.273
Z24.7707 A-169.091
Z23.4634 A-164.091
Z21.3842 A-154.545
Z21.0683 A-152.727
Z20.3254 A-149.091
Z19.0319 A-142.727
Z18.2294 A-138.182
Z17.9525 A-136.818
Z16.0607 A-126.364
Z15.8502 A-123.636
Z15.7158 A-120.000
Z15.6518 A-116.364
Z15.6280 A-112.727
Z15.6036 A-107.273
Z15.5804 A-101.818
Z15.5592 A-96.364
Z15.5395 A-90.909
Z15.5221 A-85.455
Z15.5207 A-80.000
Z15.5798 A-78.182
Z15.8829 A-74.545
Z16.0998 A-72.727
Z16.8483 A-68.182
Z16.9978 A-67.273
Z17.4377 A-63.636
Z17.5507 A-61.818
Z17.6598 A-58.892
Z28.9822 A-58.842
Z30.8239 A-58.693
Z32.3310 A-58.352
Z32.9416 A-58.182
Z35.2195 A-57.273
Z36.0743 A-56.818
Z36.2949 A-56.591
Z36.6848 A-54.545
Z36.9309 A-52.727
Z37.0897 A-50.909
Z37.1288 A-49.091
Z37.0715 A-48.182
Z36.9687 A-47.273
Z36.7611 A-46.364
Z36.4032 A-45.455
Z35.8544 A-44.545
Z34.2781 A-42.727
Z31.2165 A-38.636
Z28.5003 A-34.545
Z27.7450 A-32.954
Z27.3754 A-31.818
Z26.8820 A-30.454
Z25.2257 A-25.909
Z24.2191 A-23.182
Z23.9674 A-22.727
Z23.5193 A-22.045
Z22.9992 A-20.455
Z22.6261 A-19.602
Z22.3193 A-18.182
Z22.0386 A-17.273
Z21.1626 A-15.454
Z20.3703 A-14.318
Z19.6744 A-13.637
Z19.2757 A-13.438
Z16.0359 A-13.381
Z15.5292 A-10.370
Z15.5563 A-7.273
Z15.5708 A-3.636
Z15.5868 A0.000
Y5.3176 Z16.5469 A0.000
Z16.5322 A-3.636
Z16.5118 A-7.273
Z16.5080 A-13.132
Z16.5255 A-13.267
Z20.0884 A-13.335
Z20.4091 A-13.452
Z20.9527 A-13.921
Z21.6422 A-14.773
Z22.0639 A-15.454
Z22.5149 A-16.364
Z22.8931 A-17.273
Z23.1278 A-18.182
Z23.4508 A-19.687
Z23.7268 A-20.455
Z24.2873 A-22.159
Z24.6445 A-22.727
Z26.1940 A-26.818
Z28.1545 A-31.818
Z32.5346 A-38.636
Z33.4211 A-40.000
Z34.9738 A-41.818
Z36.5177 A-43.636
Z36.9498 A-44.545
Z37.0957 A-45.000
Z37.1461 A-45.455
Z37.2083 A-47.273
Z37.2330 A-49.091
Z37.2202 A-50.909
Z37.1434 A-53.352
Z37.1225 A-53.637
Z36.9928 A-54.545
Z36.8050 A-55.454
Z36.5804 A-56.364
Z36.2480 A-57.387
Z35.9771 A-57.955
Z35.6944 A-58.253
Z34.0974 A-58.608
Z32.7934 A-58.714
Z32.0694 A-58.750
Z17.6680 A-58.778
Z17.5679 A-61.818
Z17.4364 A-64.546
Z17.0560 A-68.864
Z16.5932 A-74.545
Z16.4568 A-78.182
Z16.4635 A-85.455
Z16.4810 A-90.909
Z16.5011 A-96.364
Z16.5229 A-101.818
Z16.5469 A-107.273
Z16.6022 A-114.545
Z16.8189 A-120.000
Z18.3452 A-133.637
Z18.9112 A-137.273
Z19.3474 A-140.000
Z19.6587 A-141.818
Z19.9557 A-143.636
Z20.9231 A-149.091
Z21.2468 A-150.909
Z21.5207 A-152.727
Z21.7679 A-154.545
Z22.2217 A-157.727
Z22.6883 A-160.000
Z23.5927 A-163.636
Z24.0247 A-165.455
Z24.7565 A-168.636
Z24.8338 A-169.091
Z24.9879 A-170.909
Z25.1746 A-173.182
Z25.2359 A-174.545
Z25.2955 A-176.364
Z25.3295 A-178.182
Z25.3381 A-180.000
Z25.3212 A-181.818
Z25.2763 A-185.455
Z25.1860 A-189.091
Z25.1370 A-190.909
Z25.0389 A-193.182
Z24.7200 A-196.364
Z24.5715 A-197.273
Z23.9460 A-200.000
Z23.7661 A-200.909
Z23.5579 A-201.818
Z21.8381 A-209.318
Z21.2237 A-215.000
Z20.2661 A-221.818
Z19.7301 A-225.909
Z19.1491 A-230.000
Z17.9514 A-241.818
Z17.7712 A-247.273
Z17.7618 A-252.727
Z17.7715 A-254.545
Z17.7714 A-258.182
Z17.7717 A-260.000
Z17.7718 A-263.636
Z17.7614 A-269.091
Z17.7407 A-274.545
Z17.7657 A-283.636
Z17.9015 A-286.193
Z17.9992 A-287.273
Z18.3565 A-291.406
Z18.3929 A-291.903
Z34.2198 A-291.932
Z34.7020 A-292.031
Z35.1318 A-292.230
Z35.6501 A-292.727
Z36.0279 A-293.182
Z36.3244 A-293.637
Z36.7038 A-294.545
Z36.9314 A-295.682
Z37.0164 A-298.182
Z37.0340 A-300.000
Z37.0184 A-301.818
Z36.9709 A-303.636
Z36.9116 A-304.716
Z36.6476 A-305.455
Z36.2211 A-306.363
Z35.7471 A-307.273
Z35.1462 A-308.182
Z34.4579 A-309.091
Z33.9264 A-310.454
Z33.8024 A-310.682
Z29.2636 A-317.273
Z26.0193 A-325.455
Z24.8898 A-329.091
Z24.2944 A-330.909
Z23.7668 A-332.273
Z23.1088 A-334.545
Z22.4404 A-336.364
Z22.1998 A-337.273
Z21.8921 A-338.182
Z21.5601 A-339.062
Z21.3542 A-340.000
Z21.0987 A-340.909
Z20.4974 A-342.031
Z19.9511 A-342.670
Z17.0518 A-342.699
Z16.8595 A-343.864
Z16.7717 A-345.455
Z16.7252 A-349.091
Z16.6278 A-354.545
Z16.5727 A-358.182
Z16.5469 A-360.000
Y6.9051 Z17.2973 A-360.000
Z17.3812 A-354.545
Z17.4763 A-349.091
Z17.5756 A-343.210
Z18.3908 A-343.182
Z18.7783 A-341.818
Z19.2392 A-339.744
Z20.4876 A-339.716
Z20.8203 A-339.332
Z21.0330 A-339.140
Z21.3089 A-338.565
Z21.5668 A-338.182
Z21.7866 A-337.728
Z21.9285 A-337.273
Z22.6614 A-334.403
Z22.9886 A-333.637
Z23.2860 A-332.727
Z23.8311 A-330.909
Z24.2265 A-330.000
Z24.5402 A-329.091
Z25.6049 A-325.909
Z25.8133 A-325.455
Z26.5472 A-323.636
Z28.4513 A-318.864
Z32.3074 A-312.727
Z34.0730 A-310.454
Z34.3163 A-310.000
Z35.1877 A-307.727
Z35.5131 A-306.534
Z35.9407 A-305.455
Z36.5239 A-303.636
Z36.7540 A-302.727
Z37.0029 A-301.364
Z37.0288 A-300.909
Z37.0238 A-298.665
Z36.8676 A-297.273
Z36.6816 A-296.364
Z36.3933 A-295.454
Z35.9283 A-294.545
Z35.2747 A-293.722
Z34.6266 A-293.207
Z33.5676 A-292.699
Z32.8802 A-292.500
Z31.7239 A-291.917
Z30.2297 A-291.818
Z18.5014 A-291.790
Z18.4722 A-289.091
Z18.4383 A-283.636
Z18.4581 A-280.000
Z18.4894 A-274.545
Z18.5102 A-269.091
Z18.5208 A-263.636
Z18.5209 A-260.000
Z18.5206 A-258.182
Z18.5205 A-254.545
Z18.5907 A-245.455
Z19.0212 A-240.000
Z19.7023 A-233.636
Z19.7891 A-232.727
Z19.9259 A-230.540
Z20.0626 A-229.091
Z20.3250 A-225.455
Z20.4731 A-223.636
Z20.6723 A-221.818
Z21.1346 A-217.273
Z21.5888 A-212.727
Z21.8393 A-210.909
Z23.4022 A-203.636
Z23.9760 A-201.363
Z24.4329 A-199.091
Z24.6689 A-197.500
Z25.0160 A-193.636
Z25.1370 A-190.909
Z25.1860 A-189.091
Z25.2763 A-185.455
Z25.3212 A-181.818
Z25.3381 A-180.000
Z25.3295 A-178.182
Z25.2955 A-176.364
Z25.2359 A-174.545
Z25.1179 A-172.273
Z24.8792 A-169.091
Z24.4963 A-167.273
Z23.9276 A-164.545
Z22.1782 A-156.364
Z21.2310 A-149.091
Z21.0115 A-147.273
Z20.4786 A-143.636
Z19.8365 A-139.091
Z19.3510 A-134.545
Z18.7670 A-129.091
Z17.9042 A-121.818
Z17.4386 A-116.364
Z17.2975 A-107.273
Z17.2733 A-101.818
Z17.2514 A-96.364
Z17.2312 A-90.909
Z17.2136 A-85.455
Z17.1980 A-80.000
Z17.2093 A-74.545
Z17.2789 A-69.091
Z17.3907 A-65.455
Z17.4906 A-63.636
Z17.5679 A-61.818
Z17.6711 A-58.709
Z35.2149 A-58.665
Z35.4581 A-58.592
Z35.6183 A-58.416
Z36.2631 A-57.273
Z36.6874 A-56.364
Z36.8765 A-55.909
Z36.9776 A-55.454
Z37.1016 A-54.205
Z37.1700 A-52.727
Z37.2202 A-50.909
Z37.2330 A-49.091
Z37.2083 A-47.273
Z37.1461 A-45.455
Z37.0766 A-44.318
Z37.0506 A-44.091
Z36.9135 A-43.636
Z36.3458 A-42.273
Z36.1046 A-41.818
Z33.4054 A-38.295
Z33.1178 A-37.727
Z32.8335 A-37.273
Z27.8972 A-29.091
Z25.1131 A-22.386
Z24.3817 A-20.227
Z23.7189 A-17.273
Z23.4145 A-16.364
Z22.7027 A-15.000
Z22.3959 A-14.545
Z21.8457 A-13.878
Z21.2728 A-13.377
Z20.7012 A-13.210
Z17.2354 A-13.182
Z17.2518 A-9.091
Z17.2597 A-5.455
Z17.2832 A-3.636
Z17.2973 A0.000
Y8.4926 Z17.8997 A0.000
Z17.8862 A-3.636
Z17.8558 A-9.091
Z17.8378 A-13.097
Z21.6836 A-13.147
Z22.1273 A-13.303
Z22.7354 A-13.835
Z23.4543 A-14.773
Z23.8517 A-15.454
Z24.0868 A-15.909
Z24.2699 A-16.364
Z24.5762 A-17.500
Z24.8632 A-18.750
Z25.0194 A-19.091
Z25.5663 A-20.909
Z28.1359 A-27.273
Z33.1103 A-35.909
Z33.5496 A-36.818
Z34.3506 A-38.182
Z34.9795 A-39.091
Z35.5028 A-40.000
Z36.1566 A-41.364
Z36.6201 A-42.727
Z36.8717 A-43.636
Z37.0767 A-44.545
Z37.1247 A-45.000
Z37.2083 A-47.273
Z37.2330 A-49.091
Z37.2202 A-50.909
Z37.1700 A-52.727
Z37.0733 A-54.545
Z36.9513 A-55.454
Z36.5726 A-56.364
Z36.2976 A-56.818
Z35.9816 A-57.273
Z35.6776 A-57.614
Z35.2320 A-57.955
Z34.7771 A-58.182
Z34.5949 A-58.239
Z17.7696 A-58.267
Z17.7756 A-63.636
Z17.7834 A-69.091
Z17.7941 A-74.545
Z17.8071 A-80.000
Z17.8228 A-85.455
Z17.8405 A-90.909
Z17.8607 A-96.364
Z17.8825 A-101.818
Z17.9066 A-107.273
Z18.0605 A-116.364
Z18.7452 A-123.636
Z19.4340 A-129.091
Z19.6033 A-130.909
Z20.0233 A-135.454
Z20.1013 A-136.364
Z20.4745 A-141.818
Z20.8816 A-145.455
Z21.2643 A-148.637
Z23.7694 A-163.636
Z24.1516 A-165.455
Z24.6617 A-168.182
Z24.8928 A-169.546
Z25.2071 A-173.864
Z25.2955 A-176.364
Z25.3295 A-178.182
Z25.3381 A-180.000
Z25.3212 A-181.818
Z25.2763 A-185.455
Z25.1860 A-189.091
Z25.1030 A-191.818
Z24.9747 A-193.636
Z24.8021 A-195.654
Z24.6993 A-197.727
Z24.3051 A-200.909
Z24.1656 A-201.818
Z23.3869 A-205.455
Z23.1509 A-206.364
Z22.4941 A-208.636
Z21.5896 A-213.182
Z21.0031 A-218.636
Z20.6197 A-223.040
Z20.6205 A-225.455
Z20.5839 A-227.273
Z20.4732 A-230.909
Z20.3684 A-232.727
Z20.2850 A-233.636
Z19.6460 A-240.000
Z19.1973 A-245.455
Z19.1216 A-254.545
Z19.1219 A-258.182
Z19.1223 A-260.000
Z19.1220 A-263.636
Z19.1113 A-269.091
Z19.0906 A-274.545
Z19.0594 A-280.000
Z19.0189 A-285.455
Z18.9688 A-290.909
Z18.9472 A-291.932
Z30.0186 A-291.960
Z31.9484 A-292.152
Z32.9425 A-292.344
Z33.3660 A-292.535
Z33.7956 A-292.631
Z34.2479 A-292.841
Z34.6329 A-293.182
Z34.8348 A-293.409
Z35.2346 A-294.091
Z35.4738 A-294.545
Z35.8649 A-295.454
Z36.1004 A-296.364
Z36.2474 A-297.273
Z36.3023 A-298.182
Z36.3410 A-300.000
Z36.3431 A-301.818
Z36.2863 A-304.262
Z36.2074 A-305.000
Z35.9981 A-305.909
Z35.8799 A-306.363
Z35.5947 A-307.273
Z35.2731 A-308.182
Z34.9052 A-309.091
Z34.3685 A-310.000
Z33.8002 A-310.909
Z28.9022 A-318.182
Z26.6547 A-322.727
Z25.6023 A-325.455
Z25.0554 A-326.818
Z24.2881 A-329.091
Z23.7750 A-330.455
Z22.5808 A-334.545
Z22.4131 A-335.000
Z22.2980 A-335.227
Z21.9515 A-335.682
Z21.6110 A-336.364
Z21.2921 A-336.619
Z21.1257 A-336.875
Z20.3084 A-336.904
Z20.0801 A-338.182
Z19.6667 A-340.000
Z19.2481 A-341.818
Z19.0154 A-342.727
Z18.5951 A-343.992
Z18.3464 A-344.347
Z18.1571 A-344.375
Z18.0784 A-349.091
Z17.9847 A-354.545
Z17.8997 A-360.000
Y10.0801 Z18.4396 A-360.000
Z18.5246 A-354.545
Z18.6178 A-349.091
Z18.7124 A-343.494
Z19.3189 A-341.818
Z19.6171 A-340.909
Z20.1163 A-339.091
Z20.6912 A-336.364
Z21.1183 A-334.233
Z21.7645 A-334.205
Z22.0699 A-333.789
Z22.3071 A-333.651
Z22.5200 A-333.281
Z22.7551 A-332.820
Z23.0242 A-332.500
Z23.3249 A-331.818
Z25.3322 A-325.909
Z25.5457 A-325.455
Z28.9809 A-318.182
Z33.3458 A-311.591
Z34.5472 A-309.772
Z35.5152 A-308.182
Z35.7186 A-307.727
Z35.8973 A-307.273
Z36.1731 A-306.363
Z36.2374 A-305.455
Z36.3085 A-303.636
Z36.3431 A-301.818
Z36.3410 A-300.000
Z36.3023 A-298.182
Z36.1964 A-295.909
Z36.1632 A-295.454
Z36.0119 A-294.545
Z35.5972 A-293.637
Z35.3240 A-293.182
Z34.9150 A-292.727
Z34.4092 A-292.472
Z33.2359 A-292.232
Z19.4805 A-292.187
Z19.5080 A-290.909
Z19.5580 A-285.455
Z19.5985 A-280.000
Z19.6295 A-274.545
Z19.6501 A-269.091
Z19.6608 A-263.636
Z19.6609 A-260.000
Z19.6606 A-258.182
Z19.6604 A-254.545
Z19.6491 A-249.091
Z19.7197 A-245.455
Z20.2012 A-239.091
Z20.7329 A-232.727
Z20.8438 A-230.909
Z20.8992 A-229.091
Z20.9013 A-227.273
Z20.8134 A-221.818
Z20.7951 A-220.597
Z21.0423 A-218.182
Z21.3820 A-214.744
Z23.3897 A-206.818
Z23.4884 A-206.364
Z23.9550 A-203.636
Z24.2373 A-201.818
Z24.7180 A-197.500
Z24.9959 A-192.727
Z25.0976 A-190.909
Z25.1817 A-188.182
Z25.2412 A-185.455
Z25.2668 A-182.727
Z25.3090 A-180.000
Z25.2918 A-178.182
Z25.2222 A-176.364
Z25.0058 A-172.727
Z24.8689 A-170.909
Z24.5775 A-168.636
Z24.3867 A-167.273
Z24.0809 A-165.455
Z23.1294 A-160.454
Z22.6930 A-158.182
Z22.0117 A-154.545
Z21.6746 A-152.159
Z21.5959 A-150.909
Z21.2537 A-147.273
Z21.2021 A-145.455
Z21.1165 A-143.636
Z20.7785 A-138.182
Z20.6267 A-136.364
Z20.1195 A-130.909
Z19.9304 A-129.091
Z19.0817 A-121.818
Z18.6027 A-116.364
Z18.4596 A-107.273
Z18.4358 A-101.818
Z18.4141 A-96.364
Z18.3940 A-90.909
Z18.3763 A-85.455
Z18.3603 A-80.000
Z18.3471 A-74.545
Z18.3359 A-69.091
Z18.3276 A-63.636
Z18.3215 A-58.182
Z18.3156 A-56.875
Z34.9124 A-56.847
Z35.5313 A-56.605
Z35.8508 A-56.364
Z36.0678 A-56.136
Z36.2055 A-55.909
Z36.4160 A-55.454
Z36.7482 A-54.545
Z37.0155 A-53.637
Z37.1209 A-52.727
Z37.2112 A-51.363
Z37.2330 A-49.091
Z37.2015 A-47.273
Z36.9771 A-45.455
Z36.6763 A-43.636
Z36.3420 A-42.046
Z35.5372 A-40.000
Z34.6082 A-37.699
Z34.4237 A-37.031
Z33.7728 A-35.455
Z33.2826 A-34.545
Z32.7871 A-33.636
Z32.1804 A-32.670
Z31.8567 A-30.909
Z31.3200 A-29.091
Z30.8375 A-27.727
Z30.3088 A-26.818
Z28.9990 A-26.790
Z27.7066 A-23.636
Z26.6563 A-20.909
Z25.9957 A-19.091
Z25.7488 A-18.182
Z25.5770 A-17.727
Z25.3386 A-17.358
Z25.0976 A-16.364
Z24.7454 A-15.454
Z24.3602 A-14.773
Z23.9363 A-14.176
Z23.6325 A-13.807
Z23.0091 A-13.253
Z22.5145 A-13.068
Z18.3795 A-13.040
Z18.3977 A-9.091
Z18.4269 A-3.636
Z18.4396 A0.000
Y11.6676 Z18.9867 A0.000
Z18.9749 A-3.636
Z18.9468 A-9.091
Z18.9273 A-12.955
Z23.2614 A-12.983
Z23.8495 A-13.178
Z24.5074 A-13.764
Z25.0973 A-14.545
Z25.3901 A-15.000
Z25.6130 A-15.454
Z25.8697 A-16.136
Z26.0775 A-16.364
Z26.3145 A-16.818
Z27.0256 A-19.091
Z27.3470 A-20.000
Z27.7920 A-21.591
Z28.1712 A-22.336
Z30.0252 A-22.358
Z30.1393 A-22.500
Z30.2435 A-22.727
Z30.4660 A-23.636
Z31.1467 A-25.682
Z31.8977 A-27.273
Z32.9498 A-29.091
Z33.3092 A-30.000
Z33.4577 A-30.454
Z33.5362 A-30.909
Z33.7375 A-32.727
Z33.7723 A-33.863
Z34.6929 A-35.455
Z34.9254 A-35.909
Z35.0416 A-36.364
Z35.2249 A-37.273
Z35.3510 A-38.409
Z35.3846 A-40.511
Z35.8092 A-41.818
Z36.4220 A-43.864
Z36.5302 A-44.545
Z36.6310 A-45.455
Z36.7574 A-47.273
Z36.7779 A-49.091
Z36.6929 A-50.909
Z36.5818 A-51.818
Z36.4638 A-52.273
Z36.0161 A-53.409
Z35.6860 A-54.091
Z35.4332 A-54.432
Z34.8127 A-54.908
Z34.5403 A-55.028
Z18.8547 A-55.057
Z18.8771 A-58.182
Z18.8837 A-63.636
Z18.8924 A-69.091
Z18.9039 A-74.545
Z18.9173 A-80.000
Z18.9334 A-85.455
Z18.9512 A-90.909
Z18.9713 A-96.364
Z18.9929 A-101.818
Z19.0164 A-107.273
Z19.1569 A-116.364
Z19.8104 A-123.636
Z20.4806 A-129.091
Z20.6372 A-130.455
Z21.2614 A-136.364
Z21.4149 A-138.182
Z21.8056 A-143.636
Z21.9106 A-145.455
Z22.0750 A-150.909
Z22.1860 A-154.062
Z22.3715 A-155.455
Z22.5310 A-156.818
Z23.0780 A-160.000
Z23.3844 A-161.818
Z23.6811 A-163.636
Z23.9766 A-165.455
Z24.3218 A-168.182
Z24.6728 A-170.909
Z24.8377 A-173.182
Z25.0318 A-176.364
Z25.1043 A-178.182
Z25.1245 A-180.000
Z25.1474 A-183.636
Z25.1255 A-187.273
Z25.0967 A-189.091
Z25.0367 A-190.909
Z24.8092 A-195.455
Z24.3454 A-200.000
Z24.1165 A-202.273
Z23.9520 A-203.636
Z23.6450 A-205.909
Z23.4916 A-206.818
Z22.4841 A-210.909
Z21.2074 A-216.364
Z21.0453 A-217.358
Z20.9610 A-218.239
Z21.0327 A-220.000
Z21.2198 A-225.455
Z21.2654 A-227.273
Z21.2597 A-229.091
Z21.2009 A-230.909
Z21.0820 A-232.727
Z20.7234 A-238.182
Z20.4365 A-241.818
Z20.2468 A-245.455
Z20.1970 A-252.727
Z20.2065 A-254.545
Z20.2066 A-258.182
Z20.2069 A-260.000
Z20.2068 A-263.636
Z20.1962 A-269.091
Z20.1757 A-274.545
Z20.1447 A-280.000
Z20.1044 A-285.455
Z20.0544 A-290.909
Z20.0232 A-292.358
Z33.9695 A-292.386
Z34.5042 A-292.472
Z34.8963 A-292.642
Z35.2403 A-292.955
Z35.6626 A-293.637
Z36.0258 A-294.545
Z36.1645 A-295.454
Z36.2271 A-296.364
Z36.3023 A-298.182
Z36.3410 A-300.000
Z36.3431 A-301.818
Z36.3085 A-303.636
Z36.2131 A-305.909
Z36.1734 A-306.363
Z35.8791 A-307.386
Z35.5073 A-308.296
Z34.9840 A-309.091
Z33.7262 A-310.909
Z32.5278 A-312.727
Z31.2883 A-314.545
Z27.1938 A-321.818
Z26.1346 A-324.091
Z25.6553 A-325.000
Z24.1675 A-329.091
Z23.9882 A-329.546
Z23.7391 A-330.000
Z23.4480 A-330.341
Z23.1637 A-330.909
Z22.9505 A-331.158
Z22.7367 A-331.307
Z22.4825 A-331.655
Z21.8128 A-331.733
Z21.1306 A-334.773
Z20.7622 A-336.364
Z20.3581 A-337.728
Z19.9340 A-339.091
Z19.6037 A-340.000
Z19.2898 A-340.767
Z19.2531 A-343.636
Z19.1644 A-349.091
Z19.0718 A-354.545
Z18.9867 A-360.000
Y13.2551 Z19.5013 A-360.000
Z19.5866 A-354.545
Z19.6783 A-349.091
Z19.7664 A-343.636
Z19.8648 A-338.182
Z19.8737 A-337.216
Z20.3497 A-336.364
Z21.0626 A-334.545
Z21.5949 A-332.727
Z22.1062 A-330.909
Z22.5105 A-329.347
Z23.2120 A-329.261
Z23.6243 A-328.778
Z23.8352 A-328.636
Z24.3869 A-327.727
Z24.5963 A-327.500
Z24.7287 A-327.273
Z25.1080 A-326.364
Z26.2052 A-323.636
Z26.4669 A-323.182
Z27.6160 A-320.909
Z29.0952 A-318.182
Z30.1395 A-316.364
Z31.1763 A-314.545
Z32.2523 A-312.727
Z32.9372 A-311.818
Z34.2241 A-310.000
Z34.8669 A-309.091
Z35.4571 A-308.182
Z35.8393 A-307.273
Z35.9728 A-306.818
Z36.0617 A-306.363
Z36.2282 A-305.000
Z36.2942 A-304.091
Z36.3431 A-301.818
Z36.3410 A-300.000
Z36.2790 A-297.557
Z36.1810 A-296.364
Z35.9494 A-295.000
Z35.8003 A-294.545
Z35.4866 A-293.875
Z35.0408 A-293.203
Z34.7204 A-292.924
Z34.2285 A-292.770
Z20.5302 A-292.727
Z20.5683 A-290.909
Z20.6181 A-285.455
Z20.6583 A-280.000
Z20.6892 A-274.545
Z20.7096 A-269.091
Z20.7114 A-265.455
Z20.7202 A-263.636
Z20.7204 A-260.000
Z20.7201 A-258.182
Z20.7199 A-254.545
Z20.6951 A-250.909
Z20.7086 A-249.091
Z20.8081 A-243.636
Z21.0983 A-239.091
Z21.1907 A-237.272
Z21.4867 A-231.818
Z21.5314 A-230.909
Z21.5755 A-229.091
Z21.5708 A-227.273
Z21.5246 A-225.455
Z21.4385 A-223.636
Z21.2085 A-218.182
Z21.1745 A-217.443
Z21.6034 A-215.000
Z22.6159 A-210.909
Z23.4134 A-207.273
Z23.5772 A-206.364
Z24.0770 A-201.818
Z24.2248 A-200.000
Z24.3695 A-197.273
Z24.6296 A-194.545
Z24.7267 A-192.727
Z24.7894 A-190.909
Z24.8464 A-189.091
Z24.8840 A-187.273
Z24.8719 A-183.636
Z24.8284 A-180.000
Z24.7808 A-178.182
Z24.6113 A-174.545
Z24.4931 A-172.727
Z24.0137 A-167.727
Z23.7826 A-165.455
Z23.5614 A-163.636
Z23.1670 A-160.909
Z22.2698 A-153.324
Z22.2406 A-149.091
Z22.2542 A-147.273
Z22.2455 A-145.455
Z22.2143 A-143.636
Z22.1407 A-141.591
Z21.7618 A-136.364
Z21.0624 A-130.000
Z20.9064 A-128.636
Z20.1285 A-121.818
Z19.6736 A-116.364
Z19.5372 A-107.273
Z19.5137 A-101.818
Z19.4922 A-96.364
Z19.4720 A-90.909
Z19.4542 A-85.455
Z19.4381 A-80.000
Z19.4245 A-74.545
Z19.4128 A-69.091
Z19.4040 A-63.636
Z19.3972 A-58.182
Z19.3885 A-53.182
Z30.9231 A-53.132
Z31.1876 A-52.980
Z31.3588 A-52.807
Z33.4885 A-52.781
Z33.6804 A-52.727
Z34.0577 A-52.443
Z34.3400 A-52.273
Z34.9246 A-51.591
Z35.1211 A-51.136
Z35.3429 A-50.455
Z35.5567 A-49.091
Z35.6569 A-48.182
Z35.6637 A-47.273
Z35.5478 A-45.455
Z35.3414 A-43.551
Z35.3765 A-41.818
Z35.3785 A-40.000
Z35.3449 A-38.182
Z35.2573 A-36.023
Z35.0780 A-35.227
Z34.7563 A-34.233
Z34.6229 A-33.920
Z34.2549 A-33.267
Z34.2350 A-32.727
Z34.1236 A-30.909
Z33.8655 A-29.772
Z33.6640 A-29.091
Z33.5013 A-28.637
Z33.0309 A-27.727
Z32.1441 A-26.363
Z31.4553 A-25.000
Z31.1462 A-24.091
Z30.6696 A-22.272
Z30.3319 A-20.909
Z30.1283 A-20.281
Z28.3111 A-20.227
Z27.8865 A-18.636
Z27.0329 A-15.909
Z26.8317 A-15.454
Z26.4542 A-15.000
Z25.5430 A-13.938
Z25.1849 A-13.534
Z24.7182 A-13.129
Z24.1702 A-12.926
Z19.4425 A-12.898
Z19.4630 A-9.091
Z19.4899 A-3.636
Z19.5013 A0.000
Y14.8426 Z19.9395 A0.000
Z19.9266 A-3.636
Z19.9007 A-9.091
Z19.8775 A-12.841
Z25.2047 A-12.869
Z25.7481 A-12.974
Z26.5748 A-13.498
Z27.2278 A-14.127
Z27.3981 A-14.545
Z27.9018 A-16.364
Z28.3944 A-19.282
Z29.7644 A-19.318
Z30.2384 A-19.602
Z30.4256 A-20.000
Z30.9350 A-21.818
Z31.4358 A-23.636
Z31.7444 A-24.546
Z32.1240 A-25.455
Z32.6073 A-26.363
Z33.6949 A-28.182
Z33.9325 A-28.637
Z34.0641 A-29.204
Z34.2739 A-30.909
Z34.3582 A-31.957
Z34.3843 A-32.614
Z34.6809 A-33.182
Z34.7711 A-33.409
Z35.0319 A-34.545
Z35.2468 A-35.796
Z35.3449 A-38.182
Z35.3785 A-40.000
Z35.3765 A-41.818
Z35.3389 A-43.636
Z35.2298 A-46.250
Z35.0135 A-47.273
Z34.8870 A-47.727
Z34.1959 A-49.091
Z33.7418 A-49.844
Z33.4378 A-50.220
Z32.7689 A-50.767
Z32.5154 A-50.943
Z32.1726 A-51.314
Z31.9473 A-51.449
Z27.3840 A-51.477
Z27.0102 A-51.965
Z26.3353 A-52.454
Z19.8340 A-52.493
Z19.8370 A-58.182
Z19.8440 A-63.636
Z19.8530 A-69.091
Z19.8648 A-74.545
Z19.8785 A-80.000
Z19.8947 A-85.455
Z19.9126 A-90.909
Z19.9327 A-96.364
Z19.9542 A-101.818
Z19.9776 A-107.273
Z20.0018 A-112.727
Z20.0946 A-116.364
Z20.6562 A-123.636
Z21.0449 A-127.273
Z21.2390 A-129.858
Z21.6268 A-133.182
Z22.0625 A-139.545
Z22.1608 A-141.818
Z22.2143 A-143.636
Z22.2455 A-145.455
Z22.2542 A-147.273
Z22.2692 A-152.727
Z22.2720 A-153.238
Z22.9563 A-160.000
Z23.1741 A-161.818
Z23.3705 A-163.636
Z23.5334 A-165.455
Z23.7712 A-168.182
Z23.8902 A-170.000
Z24.0851 A-172.727
Z24.1957 A-174.545
Z24.3664 A-178.182
Z24.4788 A-181.818
Z24.5045 A-183.636
Z24.5459 A-187.273
Z24.4937 A-190.909
Z24.4558 A-192.727
Z24.3707 A-194.545
Z24.1654 A-199.091
Z23.9037 A-201.818
Z23.6510 A-204.545
Z23.5190 A-205.455
Z23.1782 A-207.273
Z22.6738 A-210.000
Z22.1021 A-212.727
Z21.5703 A-215.454
Z21.3297 A-217.387
Z21.3815 A-218.182
Z21.4922 A-220.909
Z21.7257 A-225.455
Z21.7781 A-227.273
Z21.8030 A-229.091
Z21.7940 A-230.909
Z21.7184 A-233.182
Z21.5188 A-238.182
Z21.4242 A-240.000
Z21.1440 A-247.273
Z21.1449 A-249.091
Z21.1478 A-252.727
Z21.1567 A-254.545
Z21.1573 A-258.182
Z21.1576 A-260.000
Z21.1570 A-263.636
Z21.1487 A-265.455
Z21.1459 A-269.091
Z21.1253 A-274.545
Z21.0945 A-280.000
Z21.0546 A-285.455
Z21.0053 A-290.909
Z20.9549 A-293.646
Z23.6264 A-293.686
Z23.9793 A-294.006
Z33.8055 A-294.034
Z34.7940 A-294.162
Z34.9955 A-294.290
Z35.2326 A-294.545
Z35.5469 A-295.000
Z35.8611 A-295.682
Z36.0438 A-296.818
Z36.1581 A-298.182
Z36.2505 A-300.000
Z36.2618 A-301.818
Z36.1930 A-303.636
Z36.0861 A-305.000
Z36.0413 A-305.455
Z35.8789 A-305.909
Z35.2657 A-307.273
Z34.2783 A-309.318
Z32.5954 A-311.364
Z31.9047 A-312.727
Z30.9268 A-314.545
Z29.1624 A-317.727
Z28.6335 A-318.636
Z27.9043 A-320.227
Z26.6859 A-322.500
Z26.5560 A-322.727
Z25.7886 A-324.545
Z25.4277 A-325.227
Z25.1337 A-325.568
Z24.6308 A-326.364
Z24.3343 A-326.591
Z23.9993 A-326.989
Z23.5911 A-327.074
Z23.0065 A-327.102
Z22.5336 A-329.091
Z22.2523 A-330.000
Z21.9177 A-330.909
Z21.2849 A-332.273
Z20.7050 A-333.111
Z20.3903 A-333.523
Z20.3007 A-338.182
Z20.2672 A-340.000
Z20.2024 A-343.636
Z20.1268 A-347.273
Z20.1149 A-349.091
Z20.0247 A-354.545
Z19.9395 A-360.000
Y16.4301 Z20.2976 A-360.000
Z20.3813 A-354.545
Z20.4386 A-350.909
Z20.4702 A-349.091
Z20.5302 A-345.455
Z20.6294 A-340.000
Z20.7269 A-334.545
Z20.8038 A-329.830
Z21.4101 A-329.460
Z21.9734 A-328.864
Z22.6004 A-327.727
Z23.0921 A-326.364
Z23.4898 A-325.000
Z24.3586 A-324.971
Z24.4912 A-324.908
Z24.7509 A-324.886
Z25.0938 A-324.545
Z25.3100 A-324.346
Z25.5615 A-324.091
Z26.1588 A-323.239
Z26.5150 A-322.727
Z27.1805 A-321.364
Z28.4357 A-319.091
Z30.2693 A-315.455
Z30.6657 A-314.545
Z31.8962 A-310.909
Z32.5694 A-308.864
Z32.7158 A-308.637
Z34.4445 A-306.818
Z34.6252 A-306.363
Z34.9107 A-305.455
Z35.1413 A-304.546
Z35.3145 A-303.636
Z35.4547 A-302.727
Z35.4906 A-301.818
Z35.5006 A-300.909
Z35.3796 A-299.545
Z35.2959 A-299.091
Z35.1396 A-298.636
Z34.9100 A-298.182
Z34.3825 A-297.273
Z33.8401 A-296.591
Z33.2547 A-296.136
Z25.4876 A-296.108
Z25.3765 A-294.936
Z25.2147 A-293.637
Z25.0368 A-292.727
Z24.8087 A-291.818
Z24.4544 A-290.909
Z24.2275 A-290.469
Z23.7355 A-290.029
Z21.3628 A-290.000
Z21.4100 A-285.455
Z21.4497 A-280.000
Z21.4805 A-274.545
Z21.5012 A-269.091
Z21.5057 A-265.455
Z21.5126 A-263.636
Z21.5137 A-260.000
Z21.5135 A-258.182
Z21.5121 A-254.545
Z21.5049 A-252.727
Z21.5002 A-249.091
Z21.6243 A-241.818
Z21.7149 A-240.000
Z21.8598 A-234.545
Z21.8953 A-232.727
Z21.9096 A-230.909
Z21.9018 A-229.091
Z21.8443 A-226.250
Z21.5783 A-220.000
Z21.4741 A-218.182
Z21.3738 A-216.619
Z21.5832 A-214.545
Z21.8562 A-212.727
Z22.2186 A-210.909
Z22.5275 A-209.091
Z22.8171 A-207.273
Z23.1765 A-204.545
Z23.2883 A-203.636
Z23.4464 A-201.818
Z23.6688 A-198.182
Z23.7706 A-196.364
Z23.8450 A-192.727
Z23.8787 A-190.909
Z23.9156 A-187.273
Z23.8952 A-183.636
Z23.8701 A-181.818
Z23.7909 A-178.182
Z23.6756 A-174.545
Z23.5219 A-170.909
Z23.4245 A-169.091
Z23.2115 A-165.455
Z23.0908 A-163.636
Z22.9398 A-161.818
Z22.4527 A-156.364
Z22.2685 A-153.835
Z22.2524 A-150.909
Z22.2542 A-147.273
Z22.2455 A-145.455
Z22.2143 A-143.636
Z22.1608 A-141.818
Z22.0382 A-139.091
Z21.5426 A-131.671
Z21.0221 A-125.455
Z20.7541 A-122.870
Z20.6261 A-120.454
Z20.4454 A-117.273
Z20.3623 A-112.727
Z20.3382 A-107.273
Z20.3149 A-101.818
Z20.2935 A-96.364
Z20.2734 A-90.909
Z20.2555 A-85.455
Z20.2392 A-80.000
Z20.2254 A-74.545
Z20.2134 A-69.091
Z20.2042 A-63.636
Z20.1831 A-59.432
Z25.2577 A-59.403
Z25.8225 A-59.212
Z26.2267 A-58.182
Z26.8287 A-56.364
Z27.4322 A-54.545
Z28.0442 A-52.727
Z28.9512 A-49.915
Z32.9096 A-49.887
Z33.6347 A-49.588
Z34.0333 A-49.290
Z34.1706 A-49.091
Z34.6113 A-48.182
Z34.9443 A-47.273
Z35.2750 A-45.341
Z35.3389 A-43.636
Z35.3765 A-41.818
Z35.3785 A-40.000
Z35.3449 A-38.182
Z35.2727 A-36.591
Z35.0199 A-34.545
Z34.8916 A-33.636
Z34.6874 A-33.182
Z34.3771 A-32.614
Z34.3186 A-30.909
Z34.2605 A-29.886
Z34.1209 A-29.091
Z34.0109 A-28.637
Z33.6040 A-27.727
Z33.3524 A-27.273
Z32.5432 A-25.909
Z32.0576 A-25.000
Z31.5551 A-23.636
Z31.0339 A-21.818
Z30.5050 A-20.000
Z30.3174 A-19.545
Z29.6814 A-19.091
Z28.3705 A-19.062
Z27.9208 A-15.909
Z27.8148 A-15.454
Z27.1086 A-12.955
Z26.9080 A-12.670
Z26.7324 A-12.614
Z20.2309 A-12.585
Z20.2577 A-9.091
Z20.2826 A-3.636
Z20.2976 A0.000
Y17.2238 Z20.4430 A0.000
Y18.0176 Z20.5563 A0.000
Z20.5376 A-3.636
Z20.5137 A-9.091
Z20.4872 A-12.670
Z26.7859 A-12.727
Z26.9117 A-12.841
Z27.1739 A-13.637
Z27.9330 A-16.364
Z28.3277 A-19.638
Z29.5853 A-19.659
Z30.1900 A-19.886
Z30.2751 A-20.000
Z30.6699 A-20.909
Z30.9969 A-21.818
Z32.2947 A-25.455
Z33.4991 A-27.727
Z34.0691 A-29.091
Z34.2210 A-29.545
Z34.2750 A-30.000
Z34.3186 A-30.909
Z34.4076 A-33.522
Z34.9336 A-34.545
Z35.1037 A-36.364
Z35.2573 A-38.636
Z35.3164 A-40.000
Z35.3308 A-40.909
Z35.2938 A-42.273
Z35.1454 A-44.091
Z34.9614 A-45.455
Z34.3124 A-47.386
Z34.0343 A-47.841
Z33.6953 A-48.068
Z33.4918 A-48.153
Z29.8953 A-48.210
Z27.7838 A-54.545
Z26.7703 A-58.182
Z26.2432 A-60.000
Z25.8900 A-60.909
Z25.1061 A-62.656
Z24.7945 A-63.180
Z24.1019 A-63.494
Z20.4561 A-63.523
Z20.4663 A-69.091
Z20.4798 A-74.545
Z20.4940 A-80.000
Z20.5104 A-85.455
Z20.5283 A-90.909
Z20.5484 A-96.364
Z20.5698 A-101.818
Z20.5931 A-107.273
Z20.6173 A-112.727
Z20.6709 A-118.182
Z20.7872 A-121.818
Z21.0264 A-125.455
Z21.5384 A-131.591
Z21.7970 A-136.364
Z22.1114 A-140.909
Z22.1608 A-141.818
Z22.2143 A-143.636
Z22.2455 A-145.455
Z22.2542 A-147.273
Z22.2692 A-152.727
Z22.2768 A-156.704
Z22.5213 A-160.000
Z22.6702 A-162.727
Z22.7961 A-165.455
Z22.9729 A-170.000
Z23.1052 A-174.545
Z23.1812 A-178.182
Z23.2087 A-180.000
Z23.2445 A-183.636
Z23.2402 A-187.273
Z23.1936 A-190.909
Z23.1707 A-192.727
Z23.1148 A-196.364
Z23.0403 A-198.182
Z22.8772 A-201.818
Z22.7553 A-203.636
Z22.5550 A-205.455
Z22.1517 A-209.091
Z21.7020 A-212.727
Z21.3623 A-215.426
Z21.5147 A-218.182
Z21.6617 A-221.591
Z21.8202 A-225.455
Z21.8720 A-227.273
Z21.9018 A-229.091
Z21.9096 A-230.909
Z21.8953 A-232.727
Z21.8711 A-234.545
Z21.8262 A-238.182
Z21.7952 A-240.909
Z21.7609 A-243.636
Z21.7552 A-249.091
Z21.7620 A-252.727
Z21.7676 A-254.545
Z21.7697 A-258.182
Z21.7699 A-260.000
Z21.7681 A-263.636
Z21.7628 A-265.455
Z21.7563 A-269.091
Z21.7456 A-270.909
Z21.7353 A-274.545
Z21.7194 A-276.364
Z21.7045 A-280.000
Z21.6650 A-285.455
Z21.6597 A-286.137
Z23.2892 A-286.200
Z23.5963 A-286.303
Z24.1733 A-286.996
Z24.5998 A-288.182
Z24.8235 A-289.091
Z25.3161 A-291.363
Z25.3841 A-291.818
Z25.5213 A-293.409
Z25.5616 A-294.545
Z25.6052 A-296.364
Z25.6225 A-298.011
Z27.9553 A-298.040
Z28.3253 A-298.182
Z28.8192 A-298.636
Z29.0762 A-299.091
Z29.3703 A-299.773
Z29.9934 A-301.364
Z30.6765 A-303.636
Z30.9439 A-305.000
Z31.1359 A-306.363
Z31.1572 A-307.273
Z31.1203 A-309.091
Z31.0550 A-310.000
Z30.9673 A-310.909
Z30.6699 A-312.727
Z30.4536 A-313.636
Z30.2018 A-314.545
Z29.9246 A-315.455
Z29.5844 A-316.364
Z28.8482 A-318.182
Z27.3021 A-320.909
Z26.4437 A-322.046
Z25.6455 A-322.841
Z25.1536 A-322.990
Z23.9000 A-323.012
Z23.8153 A-323.409
Z23.2080 A-324.773
Z22.5901 A-325.604
Z22.1340 A-325.902
Z21.9953 A-325.963
Z21.5861 A-325.977
Z21.1109 A-326.080
Z21.0830 A-329.091
Z20.9876 A-334.545
Z20.8904 A-340.000
Z20.7914 A-345.455
Z20.7011 A-350.909
Z20.6375 A-354.545
Z20.5563 A-360.000
Y18.8113 Z20.6403 A-360.000
Y19.6051 Z20.6499 A-360.000
Z20.7070 A-356.364
Z20.7996 A-350.909
Z20.8533 A-347.273
Z20.8884 A-345.455
Z20.9523 A-341.818
Z20.9871 A-340.000
Z21.0497 A-336.364
Z21.0839 A-334.545
Z21.1455 A-330.909
Z21.1787 A-329.091
Z21.2379 A-325.455
Z21.2774 A-322.699
Z22.6067 A-322.671
Z23.1701 A-322.564
Z23.4673 A-322.244
Z23.6095 A-322.031
Z23.9429 A-321.129
Z26.0358 A-321.108
Z26.4803 A-320.966
Z27.0125 A-320.454
Z28.5606 A-317.727
Z28.7778 A-317.273
Z29.5970 A-314.545
Z30.0526 A-312.727
Z30.3032 A-310.909
Z30.4220 A-309.091
Z30.3834 A-307.273
Z30.2047 A-305.455
Z30.0459 A-304.546
Z29.7910 A-303.409
Z29.6297 A-302.727
Z29.3629 A-301.818
Z28.5142 A-299.872
Z28.3956 A-299.744
Z25.6180 A-299.716
Z25.6230 A-298.182
Z25.6052 A-296.364
Z25.5616 A-294.545
Z25.4480 A-291.818
Z25.2711 A-290.000
Z25.1302 A-288.182
Z24.8705 A-286.364
Z24.4887 A-284.545
Z24.2177 A-283.636
Z23.6175 A-282.614
Z22.9404 A-282.273
Z21.7744 A-282.244
Z21.7937 A-280.000
Z21.8148 A-276.364
Z21.8246 A-274.545
Z21.8393 A-270.909
Z21.8458 A-269.091
Z21.8550 A-265.455
Z21.8582 A-263.636
Z21.8609 A-260.000
Z21.8608 A-258.182
Z21.8577 A-254.545
Z21.8438 A-251.818
Z21.8447 A-249.091
Z21.8258 A-246.364
Z21.8261 A-243.636
Z21.8270 A-238.182
Z21.8711 A-234.545
Z21.8953 A-232.727
Z21.9096 A-230.909
Z21.9018 A-229.091
Z21.8720 A-227.273
Z21.8202 A-225.455
Z21.6689 A-221.818
Z21.5388 A-217.273
Z21.4801 A-214.545
Z21.4404 A-213.154
Z21.6305 A-210.909
Z21.7553 A-209.091
Z21.8826 A-206.364
Z22.1402 A-203.636
Z22.2356 A-201.818
Z22.3384 A-198.182
Z22.3827 A-196.364
Z22.4368 A-192.727
Z22.5195 A-187.273
Z22.5578 A-183.636
Z22.5599 A-180.000
Z22.5587 A-178.182
Z22.5243 A-174.545
Z22.4127 A-169.091
Z22.3345 A-165.455
Z22.1994 A-160.000
Z22.0936 A-154.545
Z22.1372 A-152.727
Z22.1442 A-149.091
Z22.1568 A-147.273
Z22.1580 A-145.455
Z22.1222 A-143.636
Z22.0563 A-141.818
Z21.9649 A-140.000
Z21.6714 A-134.545
Z21.5642 A-132.727
Z21.2729 A-129.091
Z20.9125 A-123.636
Z20.7577 A-121.193
Z20.7315 A-118.182
Z20.6956 A-114.545
Z20.7034 A-112.727
Z20.6791 A-107.273
Z20.6557 A-101.818
Z20.6342 A-96.364
Z20.6140 A-90.909
Z20.5961 A-85.455
Z20.5798 A-80.000
Z20.5632 A-74.545
Z20.5407 A-71.932
Z20.5411 A-69.091
Z20.5283 A-67.017
Z23.4324 A-66.989
Z24.1554 A-66.701
Z24.2223 A-66.605
Z25.0225 A-64.546
Z25.3059 A-63.636
Z26.1127 A-60.909
Z26.6365 A-59.091
Z27.1220 A-57.273
Z27.7959 A-54.545
Z28.7268 A-51.136
Z29.7575 A-48.182
Z30.8211 A-46.137
Z33.5098 A-46.108
Z33.6986 A-46.067
Z33.9295 A-45.781
Z34.3702 A-44.773
Z34.6558 A-43.864
Z34.7666 A-43.182
Z34.9239 A-41.818
Z35.0173 A-40.000
Z35.0170 A-38.182
Z34.9318 A-37.273
Z34.8031 A-36.818
Z34.4031 A-35.995
Z34.4066 A-34.545
Z34.3799 A-32.727
Z34.3150 A-31.136
Z34.2910 A-30.909
Z34.0606 A-30.000
Z33.7313 A-29.091
Z33.3170 A-28.182
Z32.2860 A-26.363
Z31.2766 A-23.636
Z30.8974 A-22.727
Z30.5293 A-22.045
Z30.0076 A-21.520
Z29.8227 A-21.371
Z29.5288 A-21.222
Z28.1983 A-21.193
Z28.0972 A-20.000
Z27.8912 A-18.182
Z26.9444 A-15.000
Z26.8097 A-14.659
Z26.4157 A-14.460
Z20.5783 A-14.432
Z20.6035 A-9.091
Z20.6265 A-3.636
Z20.6499 A0.000
Y21.1926 Z20.6544 A0.000
Z20.6307 A-3.636
Z20.6079 A-9.091
Z20.5824 A-14.545
Z20.5691 A-20.000
Z20.5593 A-24.631
Z29.2188 A-24.659
Z30.1866 A-24.908
Z30.7238 A-25.682
Z31.3699 A-27.273
Z31.8272 A-28.409
Z32.7038 A-30.000
Z33.1444 A-30.909
Z33.3056 A-31.364
Z33.6815 A-32.727
Z33.7775 A-33.182
Z33.9321 A-34.545
Z33.9795 A-35.455
Z33.9503 A-36.364
Z33.8117 A-37.727
Z33.6909 A-38.636
Z33.6020 A-39.091
Z33.2345 A-40.000
Z32.3614 A-42.046
Z30.1316 A-45.455
Z29.9052 A-45.909
Z28.5679 A-50.000
Z27.7291 A-53.864
Z27.2439 A-56.364
Z26.8741 A-58.182
Z26.2870 A-60.455
Z25.4791 A-63.636
Z24.7035 A-66.363
Z24.3798 A-67.273
Z23.6574 A-69.091
Z23.4458 A-69.503
Z22.7195 A-69.915
Z20.5405 A-69.943
Z20.5576 A-72.727
Z20.5675 A-74.545
Z20.5743 A-78.182
Z20.5847 A-80.000
Z20.5898 A-83.636
Z20.6010 A-85.455
Z20.6189 A-90.909
Z20.6267 A-94.545
Z20.6391 A-96.364
Z20.6476 A-100.000
Z20.6606 A-101.818
Z20.6706 A-105.455
Z20.6840 A-107.273
Z20.6945 A-110.909
Z20.7083 A-112.727
Z20.7199 A-116.364
Z20.7341 A-118.182
Z20.7599 A-121.307
Z20.9948 A-125.455
Z21.1829 A-129.091
Z21.4921 A-134.545
Z21.5750 A-136.364
Z21.7809 A-141.818
Z21.8374 A-143.636
Z21.8337 A-145.455
Z21.7840 A-147.273
Z21.8296 A-149.091
Z21.8299 A-152.727
Z21.7991 A-160.000
Z21.8033 A-163.636
Z21.8665 A-169.091
Z21.9057 A-172.727
Z21.9346 A-174.545
Z21.9250 A-178.182
Z21.9128 A-180.000
Z21.8648 A-183.636
Z21.7950 A-187.273
Z21.7679 A-189.091
Z21.6951 A-192.727
Z21.6255 A-196.364
Z21.5990 A-198.182
Z21.5463 A-201.818
Z21.4906 A-203.636
Z21.3316 A-207.897
Z21.4625 A-212.727
Z21.5086 A-214.545
Z21.5750 A-218.182
Z21.7861 A-224.546
Z21.8720 A-227.273
Z21.9018 A-229.091
Z21.9096 A-230.909
Z21.8953 A-232.727
Z21.8711 A-234.545
Z21.8270 A-238.182
Z21.8269 A-243.636
Z21.8425 A-247.273
Z21.8489 A-249.091
Z21.8587 A-252.727
Z21.8619 A-254.545
Z21.8651 A-258.182
Z21.8652 A-260.000
Z21.8624 A-263.636
Z21.8594 A-265.455
Z21.8500 A-269.091
Z21.8438 A-270.909
Z21.8287 A-274.545
Z21.8195 A-276.364
Z21.7884 A-278.210
Z22.6495 A-278.239
Z23.2589 A-278.679
Z23.5811 A-279.120
Z23.8466 A-279.560
Z24.0134 A-280.000
Z24.5986 A-281.818
Z24.7864 A-282.727
Z24.9025 A-283.636
Z25.0369 A-285.000
Z25.0864 A-286.364
Z25.0999 A-287.330
Z25.4480 A-291.818
Z25.5616 A-294.545
Z25.6052 A-296.364
Z25.6230 A-298.182
Z25.6151 A-300.000
Z25.5663 A-302.358
Z26.8210 A-302.386
Z27.5013 A-302.699
Z27.8689 A-303.011
Z28.4482 A-303.636
Z29.0956 A-304.546
Z29.2662 A-305.000
Z29.3315 A-305.455
Z29.5094 A-307.273
Z29.4763 A-309.091
Z29.4454 A-310.000
Z29.2423 A-311.818
Z29.1071 A-312.727
Z28.6892 A-314.773
Z28.4089 A-315.909
Z26.7963 A-318.622
Z26.4505 A-319.056
Z23.9687 A-319.063
Z23.6330 A-319.723
Z23.5203 A-319.833
Z23.2496 A-319.943
Z21.3333 A-320.000
Z21.2745 A-323.636
Z21.2444 A-325.455
Z21.1834 A-329.091
Z21.1522 A-330.909
Z21.0886 A-334.545
Z21.0565 A-336.364
Z20.9919 A-340.000
Z20.9592 A-341.818
Z20.8932 A-345.455
Z20.8186 A-349.091
Z20.8046 A-350.909
Z20.7321 A-354.545
Z20.7123 A-356.364
Z20.6544 A-360.000
Y22.7801 A-360.000
Z20.7123 A-356.364
Z20.7696 A-352.727
Z20.8046 A-350.909
Z20.8602 A-347.273
Z20.8932 A-345.455
Z20.9592 A-341.818
Z20.9919 A-340.000
Z21.0565 A-336.364
Z21.0886 A-334.545
Z21.1522 A-330.909
Z21.1834 A-329.091
Z21.2444 A-325.455
Z21.2745 A-323.636
Z21.3333 A-320.000
Z21.3680 A-317.301
Z23.0598 A-317.273
Z23.5822 A-317.159
Z23.7774 A-316.818
Z23.9932 A-316.364
Z24.1277 A-315.909
Z24.4018 A-314.091
Z24.6008 A-311.506
Z24.6600 A-310.909
Z24.9045 A-309.091
Z25.1093 A-307.273
Z25.3503 A-305.455
Z25.4538 A-304.546
Z25.5688 A-302.273
Z25.6151 A-300.000
Z25.6230 A-298.182
Z25.6052 A-296.364
Z25.5360 A-294.091
Z25.3354 A-290.909
Z25.0973 A-287.216
Z25.0687 A-285.455
Z24.9777 A-282.727
Z24.9196 A-281.818
Z24.5784 A-280.000
Z24.0632 A-277.727
Z23.5750 A-275.909
Z23.2038 A-275.000
Z23.0863 A-274.773
Z22.4167 A-274.091
Z21.8274 A-274.062
Z21.8438 A-270.909
Z21.8500 A-269.091
Z21.8594 A-265.455
Z21.8624 A-263.636
Z21.8652 A-260.000
Z21.8651 A-258.182
Z21.8619 A-254.545
Z21.8587 A-252.727
Z21.8489 A-249.091
Z21.8425 A-247.273
Z21.8269 A-243.636
Z21.8270 A-238.182
Z21.8711 A-234.545
Z21.8942 A-232.727
Z21.9037 A-230.909
Z21.8888 A-229.091
Z21.8420 A-227.273
Z21.6879 A-222.471
Z21.5750 A-218.182
Z21.5086 A-214.545
Z21.4625 A-212.727
Z21.3619 A-209.091
Z21.3120 A-207.273
Z21.1353 A-200.000
Z21.1739 A-198.182
Z21.2541 A-192.727
Z21.3219 A-189.091
Z21.4265 A-183.636
Z21.4784 A-180.000
Z21.4986 A-178.182
Z21.5060 A-174.545
Z21.5002 A-172.727
Z21.4311 A-167.273
Z21.4017 A-163.636
Z21.4263 A-158.182
Z21.4414 A-154.545
Z21.4571 A-152.727
Z21.4460 A-147.273
Z21.3923 A-141.818
Z21.2821 A-136.364
Z21.2415 A-134.545
Z21.0493 A-129.091
Z20.9950 A-127.273
Z20.8305 A-123.636
Z20.7341 A-118.182
Z20.7013 A-114.545
Z20.7083 A-112.727
Z20.6766 A-109.091
Z20.6840 A-107.273
Z20.6527 A-103.636
Z20.6606 A-101.818
Z20.6307 A-98.182
Z20.6391 A-96.364
Z20.6099 A-92.727
Z20.6189 A-90.909
Z20.6010 A-85.455
Z20.5744 A-81.818
Z20.5847 A-80.000
Z20.5566 A-76.364
Z20.5675 A-74.545
Z20.5563 A-72.614
Z22.2217 A-72.585
Z22.8815 A-72.271
Z23.6885 A-70.000
Z23.9877 A-69.091
Z25.0981 A-65.000
Z25.9356 A-61.818
Z26.5733 A-59.318
Z26.9393 A-57.273
Z27.0864 A-56.364
Z27.3485 A-54.545
Z27.8226 A-50.909
Z28.0648 A-49.091
Z28.2368 A-47.273
Z28.2849 A-45.455
Z28.2831 A-44.545
Z28.0880 A-42.273
Z28.0359 A-41.818
Z27.8014 A-40.909
Z27.6272 A-40.000
Z27.5099 A-39.091
Z27.2387 A-38.182
Z27.0006 A-37.727
Z26.6143 A-36.364
Z26.3615 A-35.909
Z26.1812 A-35.455
Z25.8607 A-34.112
Z25.7195 A-33.679
Z25.6154 A-33.516
Z25.5171 A-33.462
Z25.3937 A-33.246
Z25.0607 A-32.812
Z20.5304 A-32.784
Z20.5491 A-30.909
Z20.5577 A-25.455
Z20.5691 A-20.000
Z20.5824 A-14.545
Z20.6079 A-9.091
Z20.6307 A-3.636
Z20.6544 A0.000
Y24.3676 A0.000
Z20.6307 A-3.636
Z20.6079 A-9.091
Z20.5824 A-14.545
Z20.5691 A-20.000
Z20.5577 A-25.455
Z20.5491 A-30.909
Z20.5308 A-33.750
Z24.8195 A-33.778
Z25.3021 A-34.545
Z25.4750 A-35.000
Z25.8360 A-36.364
Z26.4662 A-39.091
Z26.7552 A-40.000
Z26.9547 A-40.909
Z27.0820 A-41.818
Z27.3110 A-43.636
Z27.4587 A-46.364
Z27.4870 A-47.273
Z27.5050 A-49.091
Z27.4435 A-50.909
Z27.3165 A-52.727
Z27.1397 A-54.545
Z26.9438 A-56.364
Z26.6475 A-58.182
Z26.3366 A-59.773
Z25.9490 A-61.364
Z25.3873 A-63.636
Z24.4821 A-67.273
Z23.4515 A-71.364
Z22.4625 A-74.091
Z22.2064 A-74.545
Z21.9242 A-74.716
Z21.4742 A-74.886
Z20.5669 A-74.915
Z20.5847 A-80.000
Z20.5898 A-83.636
Z20.6010 A-85.455
Z20.6189 A-90.909
Z20.6267 A-94.545
Z20.6391 A-96.364
Z20.6476 A-100.000
Z20.6606 A-101.818
Z20.6706 A-105.455
Z20.6840 A-107.273
Z20.6945 A-110.909
Z20.7083 A-112.727
Z20.7199 A-116.364
Z20.7341 A-118.182
Z20.7683 A-121.818
Z20.8126 A-125.455
Z20.8769 A-127.273
Z20.9125 A-129.091
Z20.9957 A-134.545
Z21.0494 A-140.000
Z21.0979 A-145.455
Z21.1286 A-150.909
Z21.1287 A-152.727
Z21.0964 A-154.545
Z21.1268 A-156.364
Z21.1263 A-160.000
Z21.1283 A-163.636
Z21.1841 A-167.273
Z21.2514 A-172.727
Z21.2560 A-178.182
Z21.2372 A-180.000
Z21.2010 A-183.636
Z21.1234 A-189.091
Z21.0638 A-192.727
Z21.1380 A-201.818
Z21.2406 A-205.455
Z21.3120 A-207.273
Z21.3619 A-209.091
Z21.4625 A-212.727
Z21.5086 A-214.545
Z21.5750 A-218.182
Z21.6177 A-220.000
Z21.6973 A-223.636
Z21.7318 A-225.455
Z21.7397 A-227.701
Z21.8026 A-229.091
Z21.8476 A-230.909
Z21.8562 A-232.727
Z21.8270 A-238.182
Z21.8269 A-243.636
Z21.8425 A-247.273
Z21.8489 A-249.091
Z21.8587 A-252.727
Z21.8619 A-254.545
Z21.8651 A-258.182
Z21.8652 A-260.000
Z21.8624 A-263.636
Z21.8594 A-265.455
Z21.8505 A-269.602
Z22.0316 A-269.630
Z22.7995 A-270.589
Z23.1136 A-271.364
Z23.2716 A-271.818
Z23.6631 A-273.636
Z24.1386 A-276.364
Z24.7145 A-280.000
Z24.9109 A-281.364
Z25.0143 A-283.636
Z25.0687 A-285.455
Z25.0994 A-287.415
Z25.2756 A-290.909
Z25.3544 A-292.727
Z25.4133 A-294.545
Z25.4393 A-296.364
Z25.4552 A-298.182
Z25.4105 A-300.000
Z25.2573 A-302.500
Z25.1512 A-303.636
Z24.9624 A-305.455
Z24.7062 A-307.273
Z24.2734 A-310.000
Z24.1723 A-310.909
Z24.0108 A-311.818
Z23.6242 A-313.636
Z23.4251 A-314.091
Z23.0764 A-314.545
Z21.4165 A-314.574
Z21.3619 A-318.182
Z21.3333 A-320.000
Z21.2745 A-323.636
Z21.2444 A-325.455
Z21.1834 A-329.091
Z21.1522 A-330.909
Z21.0886 A-334.545
Z21.0565 A-336.364
Z20.9919 A-340.000
Z20.9592 A-341.818
Z20.8932 A-345.455
Z20.8186 A-349.091
Z20.8046 A-350.909
Z20.7321 A-354.545
Z20.7123 A-356.364
Z20.6544 A-360.000
Y25.9551 A-360.000
Z20.7123 A-356.364
Z20.7696 A-352.727
Z20.8046 A-350.909
Z20.8602 A-347.273
Z20.8932 A-345.455
Z20.9592 A-341.818
Z20.9919 A-340.000
Z21.0565 A-336.364
Z21.0886 A-334.545
Z21.1522 A-330.909
Z21.1834 A-329.091
Z21.2444 A-325.455
Z21.2745 A-323.636
Z21.3333 A-320.000
Z21.3619 A-318.182
Z21.4171 A-314.545
Z21.4496 A-311.676
Z22.7707 A-311.648
Z23.2121 A-311.094
Z23.7266 A-309.091
Z23.9874 A-307.273
Z24.2007 A-305.455
Z24.6278 A-301.818
Z24.8970 A-299.545
Z25.1484 A-296.364
Z25.2081 A-294.545
Z25.2227 A-292.727
Z25.1952 A-290.909
Z25.0978 A-287.273
Z25.0687 A-285.455
Z24.9777 A-282.727
Z24.8945 A-281.818
Z24.6794 A-280.000
Z24.4577 A-278.182
Z24.2323 A-276.364
Z23.6998 A-271.818
Z23.5699 A-270.909
Z23.3846 A-270.000
Z22.8400 A-268.182
Z22.4021 A-267.045
Z22.0958 A-265.909
Z21.8602 A-265.341
Z21.8624 A-263.636
Z21.8652 A-260.000
Z21.8651 A-258.182
Z21.8619 A-254.545
Z21.8587 A-252.727
Z21.8489 A-249.091
Z21.8425 A-247.273
Z21.8269 A-243.636
Z21.8175 A-241.818
Z21.8066 A-238.182
Z21.7929 A-236.364
Z21.7758 A-232.727
Z21.7365 A-230.000
Z21.7181 A-227.273
Z21.6982 A-225.455
Z21.6387 A-221.818
Z21.5991 A-219.091
Z21.5086 A-214.545
Z21.4586 A-212.727
Z21.3395 A-208.182
Z21.1898 A-203.636
Z21.1380 A-201.818
Z21.0371 A-192.727
Z21.0744 A-189.091
Z21.0904 A-187.273
Z21.1274 A-183.636
Z21.1456 A-180.000
Z21.1637 A-178.182
Z21.1388 A-174.545
Z21.1468 A-172.727
Z21.1065 A-170.000
Z21.0736 A-167.273
Z21.0291 A-164.545
Z21.0058 A-161.818
Z20.9624 A-159.091
Z20.9625 A-156.364
Z20.9307 A-150.909
Z20.9001 A-145.455
Z20.8697 A-140.000
Z20.8385 A-134.545
Z20.8046 A-129.091
Z20.7663 A-123.636
Z20.7496 A-121.818
Z20.7341 A-118.182
Z20.7013 A-114.545
Z20.7083 A-112.727
Z20.6766 A-109.091
Z20.6840 A-107.273
Z20.6527 A-103.636
Z20.6606 A-101.818
Z20.6307 A-98.182
Z20.6391 A-96.364
Z20.6099 A-92.727
Z20.6189 A-90.909
Z20.6010 A-85.455
Z20.5744 A-81.818
Z20.5847 A-80.000
Z20.5618 A-77.301
Z20.7464 A-77.273
Z21.4624 A-76.932
Z21.6029 A-76.818
Z21.7512 A-76.591
Z22.7565 A-73.636
Z23.1193 A-72.273
Z24.1573 A-68.182
Z24.8393 A-65.455
Z25.5371 A-62.727
Z26.0959 A-60.227
Z26.3059 A-59.091
Z26.4507 A-58.182
Z26.7924 A-55.454
Z26.9696 A-53.637
Z27.0377 A-52.727
Z27.1186 A-50.909
Z27.1421 A-49.091
Z27.1264 A-47.273
Z27.0579 A-45.455
Z26.8775 A-43.409
Z26.7914 A-42.727
Z26.5903 A-41.591
Z26.2506 A-40.000
Z25.4437 A-36.364
Z25.2152 A-35.455
Z25.0590 A-35.000
Z24.5882 A-34.162
Z24.4015 A-34.042
Z20.5338 A-34.006
Z20.5491 A-30.909
Z20.5577 A-25.455
Z20.5691 A-20.000
Z20.5824 A-14.545
Z20.6079 A-9.091
Z20.6307 A-3.636
Z20.6544 A0.000
Y26.7488 Z20.6289 A0.000
Y27.5426 Z20.5764 A0.000
Z20.5551 A-3.636
Z20.5318 A-9.091
Z20.5060 A-14.545
Z20.4928 A-20.000
Z20.4814 A-25.455
Z20.4730 A-30.909
Z20.4513 A-33.835
Z23.2719 A-33.863
Z23.6627 A-34.002
Z23.9350 A-34.034
Z24.0986 A-34.204
Z24.7433 A-35.455
Z25.0520 A-36.364
Z25.4675 A-38.182
Z26.1983 A-41.818
Z26.4841 A-43.409
Z26.6146 A-44.545
Z26.6958 A-45.455
Z26.7924 A-47.273
Z26.8195 A-49.091
Z26.8134 A-50.909
Z26.7493 A-52.727
Z26.6187 A-54.545
Z26.4587 A-56.364
Z26.2955 A-57.727
Z26.0958 A-59.091
Z25.9153 A-60.000
Z25.4972 A-61.818
Z25.0640 A-63.636
Z24.6062 A-65.455
Z23.5184 A-70.000
Z22.8682 A-72.727
Z22.4588 A-74.545
Z22.2170 A-75.455
Z21.2840 A-78.182
Z21.0405 A-78.821
Z20.7529 A-79.301
Z20.5062 A-79.489
Z20.5238 A-85.455
Z20.5417 A-90.909
Z20.5619 A-96.364
Z20.5835 A-101.818
Z20.6070 A-107.273
Z20.6315 A-112.727
Z20.6576 A-118.182
Z20.6842 A-123.636
Z20.7115 A-129.091
Z20.7386 A-134.545
Z20.7663 A-140.000
Z20.7934 A-145.455
Z20.8234 A-150.909
Z20.8586 A-156.364
Z20.9078 A-161.818
Z20.9555 A-165.455
Z20.9812 A-167.273
Z21.0361 A-170.909
Z21.0600 A-172.727
Z21.0743 A-176.364
Z21.0838 A-178.182
Z21.0671 A-181.818
Z21.0416 A-185.455
Z21.0474 A-187.273
Z21.0250 A-190.909
Z21.0073 A-194.545
Z21.0251 A-196.364
Z21.0737 A-200.000
Z21.1763 A-203.636
Z21.3375 A-209.091
Z21.3759 A-210.909
Z21.4534 A-214.545
Z21.4875 A-216.364
Z21.5391 A-220.000
Z21.5697 A-221.818
Z21.6054 A-225.455
Z21.6316 A-227.273
Z21.6584 A-230.909
Z21.6806 A-232.727
Z21.7025 A-236.364
Z21.7206 A-238.182
Z21.7383 A-241.818
Z21.7520 A-243.636
Z21.7645 A-247.273
Z21.7737 A-249.091
Z21.7817 A-252.727
Z21.7864 A-254.545
Z21.7889 A-258.182
Z21.7890 A-260.000
Z21.7783 A-262.557
Z22.0646 A-263.636
Z22.5019 A-265.455
Z23.3553 A-269.091
Z23.6099 A-270.000
Z24.0272 A-274.545
Z24.3827 A-278.182
Z24.6357 A-280.909
Z24.9706 A-284.545
Z25.0323 A-285.455
Z25.0840 A-287.273
Z25.0922 A-289.091
Z25.0850 A-290.909
Z25.0105 A-292.727
Z24.8582 A-294.545
Z24.5752 A-296.818
Z24.3689 A-298.182
Z23.8187 A-301.818
Z23.4499 A-304.091
Z23.3393 A-304.546
Z23.1398 A-305.909
Z22.9226 A-306.818
Z22.7136 A-307.493
Z22.6000 A-307.713
Z22.1368 A-308.154
Z21.4297 A-308.182
Z21.3664 A-312.727
Z21.2836 A-318.182
Z21.1956 A-323.636
Z21.1041 A-329.091
Z21.0089 A-334.545
Z20.9119 A-340.000
Z20.8130 A-345.455
Z20.7232 A-350.909
Z20.6561 A-354.545
Z20.6273 A-356.364
Z20.5764 A-360.000
Y29.1301 Z20.3733 A-360.000
Z20.4559 A-354.545
Z20.5149 A-350.909
Z20.5447 A-349.091
Z20.6065 A-345.455
Z20.7056 A-340.000
Z20.8031 A-334.545
Z20.8989 A-329.091
Z20.9912 A-323.636
Z21.0801 A-318.182
Z21.1638 A-312.727
Z21.2423 A-307.273
Z21.2568 A-304.489
Z21.5628 A-304.460
Z22.0913 A-304.048
Z22.2563 A-303.636
Z22.5609 A-302.727
Z22.7382 A-301.818
Z23.0834 A-300.455
Z23.5362 A-298.182
Z23.8795 A-296.364
Z24.1794 A-294.545
Z24.4068 A-292.727
Z24.4876 A-291.818
Z24.6549 A-289.091
Z24.6599 A-287.273
Z24.6554 A-285.455
Z24.5891 A-283.636
Z24.4903 A-281.818
Z24.3094 A-279.091
Z24.1164 A-276.364
Z23.8356 A-272.727
Z23.6986 A-270.909
Z23.5965 A-270.000
Z22.7527 A-266.363
Z22.5459 A-265.455
Z21.9109 A-261.818
Z21.5924 A-259.915
Z21.5911 A-258.182
Z21.5877 A-254.545
Z21.5808 A-252.727
Z21.5751 A-249.091
Z21.5413 A-245.455
Z21.5536 A-243.636
Z21.5222 A-238.182
Z21.4819 A-232.727
Z21.4324 A-227.273
Z21.3741 A-221.818
Z21.3051 A-216.364
Z21.2164 A-210.909
Z21.0948 A-205.455
Z20.9746 A-200.000
Z20.8913 A-194.545
Z20.8753 A-190.909
Z20.8608 A-187.273
Z20.8416 A-183.636
Z20.8539 A-181.818
Z20.8503 A-178.182
Z20.8433 A-176.364
Z20.8238 A-172.727
Z20.7984 A-170.909
Z20.7550 A-167.273
Z20.6939 A-161.818
Z20.6522 A-156.364
Z20.6212 A-150.909
Z20.5924 A-145.455
Z20.5650 A-140.000
Z20.5371 A-134.545
Z20.5097 A-129.091
Z20.4824 A-123.636
Z20.4561 A-118.182
Z20.4302 A-112.727
Z20.4059 A-107.273
Z20.3825 A-101.818
Z20.3610 A-96.364
Z20.3409 A-90.909
Z20.3199 A-85.455
Z20.2892 A-81.364
Z20.7101 A-80.000
Z21.2725 A-78.182
Z21.7865 A-76.364
Z22.8729 A-71.818
Z23.0954 A-70.909
Z23.9245 A-67.273
Z24.5854 A-64.546
Z25.2015 A-61.818
Z25.4748 A-60.455
Z25.7866 A-58.636
Z26.1002 A-56.364
Z26.3483 A-53.637
Z26.4122 A-52.727
Z26.4788 A-50.909
Z26.4857 A-49.091
Z26.4165 A-47.273
Z26.2615 A-45.455
Z25.9873 A-43.636
Z25.7189 A-42.273
Z25.2544 A-40.000
Z24.6751 A-37.273
Z24.4708 A-36.364
Z24.1446 A-35.455
Z23.6013 A-34.261
Z23.3537 A-33.977
Z22.9435 A-33.693
Z22.2618 A-33.409
Z20.2470 A-33.380
Z20.2718 A-30.909
Z20.2805 A-25.455
Z20.2919 A-20.000
Z20.3053 A-14.545
Z20.3314 A-9.091
Z20.3557 A-3.636
Z20.3733 A0.000
Y30.7176 Z20.0944 A0.000
Z20.0780 A-3.636
Z20.0546 A-9.091
Z20.0298 A-14.545
Z20.0172 A-20.000
Z20.0065 A-25.455
Z19.9987 A-30.909
Z19.9756 A-32.812
Z21.2001 A-32.894
Z21.6048 A-33.054
Z22.4700 A-33.693
Z22.7841 A-34.119
Z23.0072 A-34.545
Z23.8033 A-36.364
Z24.0999 A-37.273
Z24.6435 A-40.000
Z24.9764 A-41.818
Z25.3782 A-43.636
Z25.5630 A-44.545
Z25.7062 A-45.455
Z25.8364 A-46.818
Z25.9359 A-48.182
Z25.9784 A-49.091
Z25.9935 A-50.909
Z25.9370 A-52.727
Z25.8299 A-54.545
Z25.6494 A-56.364
Z25.4556 A-58.182
Z25.1772 A-60.000
Z24.9489 A-61.364
Z24.4121 A-63.636
Z23.9650 A-65.455
Z23.0755 A-69.091
Z22.0800 A-73.636
Z21.1063 A-78.182
Z20.6706 A-80.000
Z19.9611 A-82.671
Z19.9960 A-83.636
Z20.0241 A-85.455
Z20.0720 A-90.909
Z20.0921 A-96.364
Z20.1135 A-101.818
Z20.1367 A-107.273
Z20.1607 A-112.727
Z20.1862 A-118.182
Z20.2121 A-123.636
Z20.2389 A-129.091
Z20.2657 A-134.545
Z20.2930 A-140.000
Z20.3197 A-145.455
Z20.3466 A-150.909
Z20.3730 A-156.364
Z20.4050 A-161.818
Z20.4485 A-167.273
Z20.5017 A-172.727
Z20.5228 A-176.364
Z20.5252 A-180.000
Z20.5476 A-181.818
Z20.5787 A-185.455
Z20.6315 A-190.909
Z20.6741 A-194.545
Z20.7655 A-200.000
Z20.8619 A-205.455
Z20.9538 A-210.909
Z21.0306 A-216.364
Z21.0968 A-221.818
Z21.1545 A-227.273
Z21.2042 A-232.727
Z21.2445 A-238.182
Z21.2760 A-243.636
Z21.2974 A-249.091
Z21.3085 A-252.727
Z21.3181 A-256.364
Z21.3434 A-258.011
Z22.1638 A-263.636
Z22.8636 A-267.273
Z23.2171 A-269.091
Z23.5671 A-270.909
Z23.7291 A-271.818
Z23.8885 A-274.545
Z24.0243 A-277.272
Z24.1235 A-280.000
Z24.1677 A-281.818
Z24.1627 A-283.636
Z24.1053 A-285.455
Z24.0219 A-286.818
Z23.8172 A-289.546
Z23.6431 A-290.909
Z23.0378 A-295.000
Z22.7005 A-296.818
Z22.1363 A-299.091
Z21.6004 A-300.327
Z21.0436 A-300.682
Z21.0358 A-301.818
Z20.9638 A-307.273
Z20.8851 A-312.727
Z20.8011 A-318.182
Z20.7120 A-323.636
Z20.6194 A-329.091
Z20.5235 A-334.545
Z20.4530 A-338.182
Z20.4259 A-340.000
Z20.3547 A-343.636
Z20.3268 A-345.455
Z20.2668 A-349.091
Z20.2345 A-350.909
Z20.1772 A-354.545
Z20.0944 A-360.000
Y32.3051 Z19.7731 A-360.000
Z19.8560 A-354.545
Z19.9120 A-350.909
Z19.9463 A-349.091
Z20.0048 A-345.455
Z20.0348 A-343.636
Z20.1040 A-340.000
Z20.1331 A-338.182
Z20.2017 A-334.545
Z20.2472 A-330.909
Z20.2977 A-329.091
Z20.3905 A-323.636
Z20.4798 A-318.182
Z20.5639 A-312.727
Z20.6429 A-307.273
Z20.7150 A-301.818
Z20.7719 A-296.875
Z21.0554 A-296.726
Z21.6117 A-295.454
Z22.1376 A-293.409
Z22.4524 A-291.818
Z22.6752 A-290.455
Z22.8637 A-289.091
Z23.1805 A-287.273
Z23.4121 A-285.000
Z23.6667 A-281.818
Z23.7741 A-280.000
Z23.7892 A-278.182
Z23.7675 A-276.364
Z23.6774 A-274.545
Z23.4224 A-272.727
Z22.8394 A-269.091
Z22.2989 A-265.455
Z21.7488 A-261.818
Z21.2446 A-258.182
Z21.0045 A-256.364
Z21.0039 A-254.545
Z20.9944 A-252.727
Z20.9772 A-249.091
Z20.9558 A-243.636
Z20.9243 A-238.182
Z20.8839 A-232.727
Z20.8341 A-227.273
Z20.7764 A-221.818
Z20.7105 A-216.364
Z20.6372 A-210.909
Z20.5559 A-205.455
Z20.4694 A-200.000
Z20.3790 A-194.545
Z20.3270 A-190.909
Z20.2618 A-187.273
Z20.2498 A-185.455
Z20.1949 A-181.818
Z20.1622 A-176.364
Z20.1455 A-172.727
Z20.1089 A-167.273
Z20.0816 A-161.818
Z20.0558 A-156.364
Z20.0310 A-150.909
Z20.0050 A-145.455
Z19.9791 A-140.000
Z19.9524 A-134.545
Z19.9263 A-129.091
Z19.9000 A-123.636
Z19.8746 A-118.182
Z19.8495 A-112.727
Z19.8258 A-107.273
Z19.8028 A-101.818
Z19.7797 A-96.364
Z19.7569 A-90.909
Z19.7334 A-89.091
Z19.6468 A-83.494
Z20.3777 A-80.000
Z21.3248 A-75.455
Z22.3967 A-70.000
Z23.2155 A-66.363
Z24.0219 A-62.727
Z24.3602 A-60.909
Z24.6853 A-59.091
Z24.8346 A-58.182
Z25.1721 A-55.454
Z25.2657 A-54.545
Z25.3828 A-52.727
Z25.4490 A-50.909
Z25.3832 A-49.091
Z25.3329 A-48.182
Z25.2518 A-47.273
Z25.0419 A-45.909
Z24.7695 A-44.545
Z23.8037 A-40.000
Z23.4115 A-38.182
Z23.2036 A-37.273
Z22.9340 A-36.364
Z22.2116 A-34.545
Z21.9867 A-34.091
Z21.6439 A-33.636
Z21.2013 A-33.182
Z20.0206 A-32.344
Z19.6771 A-32.188
Z19.6904 A-30.909
Z19.6905 A-25.455
Z19.7003 A-20.000
Z19.7120 A-14.545
Z19.7355 A-9.091
Z19.7577 A-3.636
Z19.7731 A0.000
Y33.8926 Z19.4021 A0.000
Z19.3883 A-3.636
Z19.3667 A-9.091
Z19.3441 A-14.545
Z19.3329 A-20.000
Z19.3236 A-25.455
Z19.3429 A-29.091
Z19.3935 A-32.074
Z19.9011 A-32.727
Z20.5403 A-33.636
Z21.5017 A-35.455
Z21.9119 A-36.364
Z22.2517 A-37.273
Z22.4978 A-38.182
Z22.8684 A-40.000
Z23.3827 A-42.727
Z23.8111 A-44.545
Z24.1633 A-46.364
Z24.3076 A-47.273
Z24.4057 A-48.182
Z24.4653 A-49.091
Z24.5341 A-50.909
Z24.5224 A-52.727
Z24.3953 A-54.545
Z24.2530 A-56.364
Z23.9267 A-59.091
Z23.7985 A-60.000
Z23.1931 A-63.636
Z22.8325 A-65.455
Z22.4577 A-67.273
Z21.4543 A-71.818
Z20.5785 A-76.364
Z20.0704 A-79.091
Z19.6299 A-81.818
Z19.2952 A-83.807
Z19.3462 A-89.091
Z19.3556 A-90.909
Z19.4036 A-96.364
Z19.4389 A-101.818
Z19.4617 A-107.273
Z19.4853 A-112.727
Z19.5101 A-118.182
Z19.5353 A-123.636
Z19.5613 A-129.091
Z19.5871 A-134.545
Z19.6134 A-140.000
Z19.6389 A-145.455
Z19.6645 A-150.909
Z19.6889 A-156.364
Z19.7128 A-161.818
Z19.7352 A-167.273
Z19.7660 A-172.727
Z19.7801 A-176.364
Z19.8150 A-181.818
Z19.8761 A-185.455
Z19.9616 A-190.909
Z20.0122 A-194.545
Z20.0386 A-196.364
Z20.1022 A-200.000
Z20.1872 A-205.455
Z20.2671 A-210.909
Z20.3402 A-216.364
Z20.4066 A-221.818
Z20.4648 A-227.273
Z20.5148 A-232.727
Z20.5555 A-238.182
Z20.5870 A-243.636
Z20.6084 A-249.091
Z20.6173 A-254.545
Z20.6116 A-255.199
Z20.7231 A-256.364
Z21.2795 A-260.000
Z21.5068 A-261.818
Z21.9123 A-265.455
Z22.3088 A-269.091
Z22.5046 A-270.909
Z22.6646 A-272.727
Z22.8087 A-274.545
Z22.9127 A-276.364
Z22.9559 A-278.182
Z22.9579 A-280.000
Z22.8965 A-281.818
Z22.7421 A-283.636
Z22.4838 A-285.455
Z22.1868 A-287.273
Z21.8266 A-289.091
Z21.6261 A-290.000
Z21.1223 A-291.818
Z20.6134 A-292.919
Z20.4263 A-293.011
Z20.4108 A-296.364
Z20.3449 A-301.818
Z20.2722 A-307.273
Z20.1927 A-312.727
Z20.1081 A-318.182
Z20.0444 A-321.818
Z20.0183 A-323.636
Z19.9546 A-327.273
Z19.9251 A-329.091
Z19.8607 A-332.727
Z19.8287 A-334.545
Z19.7645 A-338.182
Z19.7307 A-340.000
Z19.6662 A-343.636
Z19.5769 A-349.091
Z19.4856 A-354.545
Z19.4021 A-360.000
Y34.6863 Z19.1742 A-360.000
Y35.4801 Z18.8723 A-360.000
Z18.9559 A-354.545
Z19.0501 A-349.091
Z19.1405 A-343.636
Z19.2390 A-338.182
Z19.3354 A-332.727
Z19.4295 A-327.273
Z19.5195 A-321.818
Z19.5732 A-318.182
Z19.6054 A-316.364
Z19.6588 A-312.727
Z19.6857 A-310.909
Z19.7396 A-307.273
Z19.7739 A-303.636
Z19.8139 A-301.818
Z19.8844 A-296.364
Z19.9637 A-290.341
Z20.2140 A-289.404
Z20.3639 A-289.091
Z20.5928 A-288.409
Z20.8982 A-287.273
Z21.0825 A-286.364
Z21.2049 A-285.455
Z21.3305 A-283.636
Z21.5295 A-281.818
Z21.6704 A-280.000
Z21.6868 A-278.182
Z21.6529 A-276.364
Z21.6971 A-274.545
Z21.6786 A-272.727
Z21.5607 A-269.091
Z21.3739 A-265.455
Z21.2455 A-263.636
Z21.0144 A-261.818
Z20.5900 A-258.636
Z20.3622 A-256.364
Z20.1381 A-254.091
Z20.0727 A-252.727
Z20.1036 A-249.091
Z20.0724 A-243.636
Z20.0340 A-238.182
Z19.9894 A-232.727
Z19.9373 A-227.273
Z19.8777 A-221.818
Z19.8095 A-216.364
Z19.7558 A-212.727
Z19.7345 A-210.909
Z19.6806 A-207.273
Z19.6533 A-205.455
Z19.5999 A-201.818
Z19.5271 A-198.182
Z19.5137 A-196.364
Z19.4353 A-190.909
Z19.3455 A-185.455
Z19.2886 A-181.818
Z19.2495 A-176.364
Z19.2369 A-172.727
Z19.2054 A-167.273
Z19.1816 A-161.818
Z19.1563 A-156.364
Z19.1306 A-150.909
Z19.1038 A-145.455
Z19.0771 A-140.000
Z19.0497 A-134.545
Z19.0249 A-129.091
Z19.0045 A-123.636
Z18.9869 A-118.182
Z18.9679 A-112.727
Z18.9472 A-107.273
Z18.9244 A-101.818
Z18.8932 A-96.364
Z18.8571 A-90.909
Z18.8294 A-89.091
Z18.7081 A-85.057
Z19.0128 A-82.728
Z19.6595 A-78.182
Z21.0617 A-70.000
Z21.9570 A-65.455
Z22.2838 A-63.636
Z22.7525 A-60.909
Z22.8991 A-60.000
Z23.2567 A-57.273
Z23.3676 A-56.364
Z23.5342 A-54.545
Z23.6436 A-52.727
Z23.5874 A-50.000
Z23.5433 A-49.091
Z23.2597 A-47.273
Z22.8883 A-45.455
Z22.4292 A-43.636
Z21.6043 A-40.000
Z21.1657 A-38.182
Z20.8978 A-37.273
Z20.2700 A-35.455
Z19.8871 A-34.545
Z18.7853 A-32.103
Z18.7801 A-29.091
Z18.7904 A-25.455
Z18.8008 A-20.000
Z18.8131 A-14.545
Z18.8368 A-9.091
Z18.8603 A-3.636
Z18.8723 A0.000
Y36.2738 Z18.4550 A0.000
Y37.0676 Z17.9651 A0.000
Z17.9533 A-3.636
Z17.9290 A-9.091
Z17.9053 A-14.545
Z17.8924 A-20.000
Z17.8816 A-25.455
Z17.8886 A-30.909
Z17.8899 A-32.159
Z18.7052 A-34.545
Z19.2904 A-36.364
Z19.8066 A-38.182
Z20.4123 A-40.909
Z21.0043 A-43.636
Z21.3965 A-45.455
Z21.8716 A-48.182
Z21.9892 A-49.091
Z22.0600 A-50.000
Z22.1534 A-52.727
Z22.1142 A-54.545
Z21.9247 A-57.273
Z21.8404 A-58.182
Z21.4359 A-61.818
Z20.9054 A-65.455
Z20.6469 A-67.273
Z19.7539 A-72.727
Z18.9538 A-78.182
Z18.5989 A-80.909
Z18.3388 A-83.636
Z18.0820 A-86.165
Z18.1754 A-90.909
Z18.1863 A-96.364
Z18.2089 A-101.818
Z18.2321 A-107.273
Z18.2292 A-112.727
Z18.2004 A-118.182
Z18.1589 A-123.636
Z18.1326 A-129.091
Z18.1407 A-134.545
Z18.1664 A-140.000
Z18.1933 A-145.455
Z18.2208 A-150.909
Z18.2474 A-156.364
Z18.2735 A-161.818
Z18.2981 A-167.273
Z18.3296 A-172.727
Z18.3415 A-176.364
Z18.3828 A-181.818
Z18.4351 A-185.455
Z18.5292 A-190.909
Z18.6099 A-196.364
Z18.6964 A-201.818
Z18.7772 A-207.273
Z18.8254 A-210.909
Z18.8525 A-212.727
Z18.9005 A-216.364
Z18.9331 A-220.000
Z18.9694 A-221.818
Z19.0306 A-227.273
Z19.0920 A-232.727
Z19.1670 A-238.182
Z19.2744 A-243.636
Z19.3812 A-247.273
Z19.4470 A-250.909
Z19.9778 A-260.000
Z20.3338 A-265.455
Z20.5290 A-269.091
Z20.5502 A-270.909
Z20.5498 A-272.727
Z20.5370 A-274.545
Z20.5125 A-276.364
Z20.4421 A-278.182
Z20.3498 A-279.091
Z20.2192 A-281.818
Z20.0947 A-283.636
Z19.8399 A-285.455
Z19.6173 A-286.364
Z19.4933 A-287.273
Z19.1681 A-288.778
Z19.1507 A-290.909
Z18.9863 A-296.364
Z18.8942 A-301.818
Z18.8540 A-305.455
Z18.7921 A-309.091
Z18.7822 A-310.909
Z18.7020 A-316.364
Z18.6158 A-321.818
Z18.5253 A-327.273
Z18.4308 A-332.727
Z18.3341 A-338.182
Z18.2354 A-343.636
Z18.1432 A-349.091
Z18.0460 A-354.545
Z17.9651 A-360.000
Y37.8613 Z17.4976 A-360.000
Y38.6551 Z17.1129 A-360.000
Z17.1937 A-354.545
Z17.2899 A-349.091
Z17.3828 A-343.636
Z17.4814 A-338.182
Z17.5781 A-332.727
Z17.6726 A-327.273
Z17.7632 A-321.818
Z17.8496 A-316.364
Z17.9301 A-310.909
Z17.9887 A-305.455
Z18.0084 A-300.000
Z18.2256 A-290.909
Z18.3931 A-287.273
Z18.5990 A-285.455
Z18.7656 A-283.636
Z18.8456 A-281.818
Z18.9265 A-278.182
Z18.9681 A-276.364
Z18.9663 A-274.545
Z18.9506 A-272.727
Z18.8936 A-269.091
Z18.8705 A-267.273
Z18.7880 A-263.636
Z18.6209 A-256.364
Z18.4774 A-249.091
Z18.4268 A-247.273
Z18.2077 A-240.000
Z18.2019 A-236.364
Z18.2122 A-232.727
Z18.1788 A-227.273
Z18.1187 A-221.818
Z18.0502 A-216.364
Z18.0003 A-212.727
Z17.9752 A-210.909
Z17.9250 A-207.273
Z17.8440 A-201.818
Z17.7573 A-196.364
Z17.6755 A-190.909
Z17.5831 A-185.455
Z17.5289 A-181.818
Z17.4914 A-176.364
Z17.4815 A-172.727
Z17.4545 A-167.273
Z17.4335 A-161.818
Z17.4109 A-156.364
Z17.3877 A-150.909
Z17.3633 A-145.455
Z17.3463 A-140.000
Z17.3466 A-134.545
Z17.3462 A-129.091
Z17.3159 A-123.636
Z17.2875 A-118.182
Z17.2969 A-112.727
Z17.3017 A-107.273
Z17.2711 A-101.818
Z17.2669 A-96.364
Z17.3189 A-90.909
Z17.3463 A-87.273
Z17.5277 A-83.636
Z18.3466 A-76.364
Z19.0920 A-70.909
Z19.3578 A-69.091
Z19.9191 A-64.546
Z20.0231 A-63.636
Z20.3501 A-60.000
Z20.4896 A-58.182
Z20.6604 A-54.545
Z20.6272 A-52.727
Z20.5099 A-50.000
Z20.4334 A-49.091
Z20.3155 A-48.182
Z19.7149 A-44.545
Z18.8046 A-40.000
Z18.2485 A-37.273
Z17.8094 A-35.455
Z17.3523 A-33.636
Z17.0815 A-31.790
Z17.0664 A-29.091
Z17.0516 A-25.455
Z17.0555 A-20.000
Z17.0638 A-14.545
Z17.0827 A-9.091
Z17.1018 A-3.636
Z17.1129 A0.000
Y39.4488 Z16.6856 A0.000
Y40.2426 Z16.1603 A0.000
Z16.1491 A-3.636
Z16.1287 A-9.091
Z16.1094 A-14.545
Z16.1117 A-20.000
Z16.1430 A-25.455
Z16.3478 A-32.727
Z16.7186 A-36.364
Z17.0039 A-38.182
Z17.8973 A-43.636
Z18.5612 A-48.182
Z18.6824 A-49.091
Z18.8122 A-50.909
Z19.0197 A-54.545
Z19.0052 A-56.364
Z18.8973 A-60.000
Z18.5125 A-65.455
Z18.1417 A-69.091
Z17.7956 A-72.727
Z17.0257 A-80.000
Z16.4766 A-87.273
Z16.2884 A-92.727
Z16.1418 A-101.818
Z16.1605 A-107.273
Z16.1556 A-110.909
Z16.1695 A-114.545
Z16.1905 A-118.182
Z16.2564 A-123.636
Z16.3218 A-129.091
Z16.3555 A-134.545
Z16.3790 A-140.000
Z16.4039 A-145.455
Z16.4295 A-150.909
Z16.4541 A-156.364
Z16.4781 A-161.818
Z16.5007 A-167.273
Z16.5281 A-172.727
Z16.5468 A-178.182
Z16.5777 A-181.818
Z16.6262 A-185.455
Z16.7226 A-190.909
Z16.8074 A-196.364
Z16.8949 A-201.818
Z16.9766 A-207.273
Z17.0521 A-212.727
Z17.1205 A-218.182
Z17.1642 A-221.818
Z17.2257 A-227.273
Z17.2249 A-230.909
Z17.2446 A-232.727
Z17.2378 A-234.545
Z17.1779 A-240.000
Z17.2321 A-249.091
Z17.3336 A-254.545
Z17.3717 A-260.000
Z17.3834 A-265.455
Z17.3843 A-269.091
Z17.3824 A-270.909
Z17.3838 A-274.545
Z17.3555 A-280.000
Z17.2619 A-285.455
Z17.1441 A-289.091
Z16.9229 A-296.364
Z16.9587 A-300.000
Z17.0173 A-305.455
Z16.9818 A-310.909
Z16.9005 A-316.364
Z16.8134 A-321.818
Z16.7220 A-327.273
Z16.6268 A-332.727
Z16.5295 A-338.182
Z16.4305 A-343.636
Z16.3356 A-349.091
Z16.2367 A-354.545
Z16.1603 A-360.000
Y41.8053 Z15.0580 A-360.000
Y41.8301 Z15.0901 A-360.000
Z16.0517 A-357.272
Z16.8225 A-353.636
Z17.0255 A-352.727
Z17.5471 A-350.000
Z17.7186 A-349.091
Z17.8608 A-348.182
Z18.0950 A-346.363
Z18.1844 A-345.455
Z18.2823 A-343.636
Z18.2704 A-341.818
Z18.1832 A-340.000
Z17.9904 A-338.182
Z17.7322 A-336.364
Z17.4335 A-334.545
Z17.0962 A-332.727
Z16.3964 A-329.091
Z16.2158 A-328.182
Z15.6125 A-326.279
Z15.6953 A-321.818
Z15.7829 A-316.364
Z15.8647 A-310.909
Z15.9344 A-305.455
Z15.9834 A-300.000
Z16.0138 A-296.364
Z16.0834 A-290.909
Z16.1506 A-285.455
Z16.1969 A-280.000
Z16.2275 A-274.545
Z16.2466 A-269.091
Z16.2556 A-263.636
Z16.2557 A-260.000
Z16.2438 A-256.364
Z16.2541 A-254.545
Z16.2355 A-249.091
Z16.2087 A-243.636
Z16.1855 A-238.182
Z16.1563 A-232.727
Z16.1079 A-227.273
Z16.0657 A-223.636
Z16.0147 A-220.000
Z16.0041 A-218.182
Z15.9355 A-212.727
Z15.8594 A-207.273
Z15.7772 A-201.818
Z15.6893 A-196.364
Z15.6028 A-190.909
Z15.5063 A-185.455
Z15.4585 A-181.818
Z15.4205 A-176.364
Z15.4132 A-172.727
Z15.3892 A-167.273
Z15.3690 A-161.818
Z15.3473 A-156.364
Z15.3249 A-150.909
Z15.3014 A-145.455
Z15.2775 A-140.000
Z15.2530 A-134.545
Z15.2272 A-129.091
Z15.1973 A-123.636
Z15.1680 A-118.182
Z15.1441 A-112.727
Z15.1375 A-107.273
Z15.1621 A-101.818
Z15.3199 A-94.545
Z15.5333 A-89.091
Z15.9643 A-81.818
Z16.3747 A-76.364
Z16.5102 A-74.545
Z16.8960 A-69.091
Z17.0104 A-67.273
Z17.2788 A-61.818
Z17.3067 A-60.000
Z17.3238 A-56.364
Z17.2701 A-54.545
Z16.9779 A-50.000
Z16.9116 A-49.091
Z16.3422 A-43.636
Z16.1269 A-41.818
Z15.8928 A-40.000
Z15.1229 A-27.273
Z15.0113 A-20.000
Z14.9992 A-14.545
Z15.0148 A-9.091
Z15.0314 A-3.636
Z15.0416 A-0.142
Z15.0901 A0.000
Y42.4254 Z15.9396 A0.000
Y42.6238 Z16.1574 A0.000
Y43.4176 Z16.7380 A0.000
Z16.0320 A-2.728
Z14.0679 A-9.119
Z14.0562 A-14.545
Z14.0637 A-20.000
Z14.1396 A-27.273
Z14.6691 A-38.182
Z15.0019 A-42.727
Z15.4279 A-49.091
Z15.7209 A-54.545
Z15.8067 A-56.364
Z15.8437 A-61.818
Z15.8325 A-63.636
Z15.6723 A-69.091
Z15.6001 A-70.909
Z15.3326 A-76.364
Z15.2415 A-78.182
Z14.9448 A-83.636
Z14.6306 A-89.091
Z14.2347 A-101.818
Z14.2212 A-107.273
Z14.2322 A-112.727
Z14.2548 A-118.182
Z14.2775 A-123.636
Z14.3005 A-129.091
Z14.3231 A-134.545
Z14.3456 A-140.000
Z14.3673 A-145.455
Z14.3885 A-150.909
Z14.4084 A-156.364
Z14.4275 A-161.818
Z14.4449 A-167.273
Z14.4654 A-172.727
Z14.4790 A-178.182
Z14.5209 A-183.636
Z14.5809 A-187.273
Z14.6507 A-190.909
Z14.7381 A-196.364
Z14.8261 A-201.818
Z14.9085 A-207.273
Z14.9850 A-212.727
Z15.0539 A-218.182
Z15.0963 A-221.818
Z15.1576 A-227.273
Z15.2103 A-232.727
Z15.2532 A-238.182
Z15.2862 A-243.636
Z15.3083 A-249.091
Z15.3197 A-254.545
Z15.3198 A-258.182
Z15.3095 A-261.818
Z15.3201 A-263.636
Z15.3093 A-269.091
Z15.2880 A-274.545
Z15.2557 A-280.000
Z15.2135 A-285.455
Z15.1614 A-290.909
Z15.1006 A-296.364
Z15.0582 A-300.000
Z14.9898 A-305.455
Z14.9138 A-310.909
Z14.8189 A-317.187
Z15.9698 A-321.818
Z16.4500 A-323.636
Z17.8005 A-329.091
Z18.3008 A-330.909
Z18.7997 A-332.727
Z19.2515 A-334.545
Z19.8254 A-337.273
Z19.9936 A-338.182
Z20.1281 A-339.091
Z20.1742 A-340.000
Z20.2360 A-341.818
Z20.2415 A-343.636
Z20.1852 A-345.455
Z20.0721 A-347.273
Z19.7209 A-349.091
Z19.3099 A-350.909
Z18.8671 A-352.727
Z17.7732 A-356.364
Z16.7380 A-360.000
Y44.2113 Z17.2315 A-360.000
Y45.0051 Z17.6253 A-360.000
Z18.8419 A-356.364
Z19.9040 A-352.954
Z19.9574 A-352.727
Z20.3953 A-349.432
Z20.4515 A-348.864
Z20.5078 A-347.273
Z20.5453 A-345.455
Z20.5621 A-343.636
Z20.5582 A-341.818
Z20.5335 A-340.000
Z20.4523 A-337.273
Z20.3612 A-336.364
Z20.0265 A-333.409
Z19.3029 A-330.909
Z18.7757 A-329.091
Z17.1707 A-323.636
Z16.2570 A-320.000
Z14.2272 A-310.909
Z14.0852 A-310.113
Z14.1571 A-305.455
Z14.2260 A-300.000
Z14.2873 A-294.545
Z14.3281 A-290.909
Z14.3803 A-285.455
Z14.4225 A-280.000
Z14.4550 A-274.545
Z14.4765 A-269.091
Z14.4876 A-263.636
Z14.4874 A-258.182
Z14.4872 A-254.545
Z14.4754 A-249.091
Z14.4531 A-243.636
Z14.4200 A-238.182
Z14.3771 A-232.727
Z14.3243 A-227.273
Z14.2630 A-221.818
Z14.2217 A-218.182
Z14.1523 A-212.727
Z14.0755 A-207.273
Z13.9928 A-201.818
Z13.9045 A-196.364
Z13.8160 A-190.909
Z13.7197 A-185.455
Z13.6503 A-180.000
Z13.6382 A-176.364
Z13.6341 A-172.727
Z13.6161 A-167.273
Z13.6003 A-161.818
Z13.5829 A-156.364
Z13.5645 A-150.909
Z13.5447 A-145.455
Z13.5244 A-140.000
Z13.5032 A-134.545
Z13.4817 A-129.091
Z13.4597 A-123.636
Z13.4379 A-118.182
Z13.4159 A-112.727
Z13.3995 A-107.273
Z13.3930 A-101.818
Z13.4455 A-94.545
Z13.4880 A-92.727
Z13.6426 A-87.273
Z13.8921 A-81.818
Z14.2147 A-76.364
Z14.4721 A-70.909
Z14.5172 A-69.091
Z14.6235 A-63.636
Z14.6048 A-61.818
Z14.5264 A-56.364
Z14.2742 A-50.909
Z14.1842 A-49.091
Z13.9313 A-45.455
Z13.7751 A-42.727
Z13.6238 A-40.000
Z13.5501 A-38.182
Z13.4545 A-36.364
Z13.3566 A-32.727
Z13.2459 A-25.455
Z13.2297 A-20.000
Z13.2180 A-16.222
Z16.0669 A-5.455
Z17.6253 A0.000
Y45.7988 Z17.8932 A0.000
Y46.1957 Z17.9928 A0.000
Y46.5926 Z18.0491 A0.000
Z16.3971 A-5.455
Z15.8851 A-7.273
Z13.9206 A-14.545
Z12.4049 A-22.216
Z12.4191 A-25.455
Z12.4368 A-30.909
Z12.4795 A-36.364
Z12.5558 A-41.818
Z12.6223 A-45.455
Z12.7224 A-50.909
Z12.8092 A-56.364
Z12.8388 A-58.182
Z12.8769 A-63.636
Z12.8403 A-69.091
Z12.7631 A-74.545
Z12.7431 A-76.364
Z12.6717 A-81.818
Z12.6134 A-87.273
Z12.5783 A-92.727
Z12.5723 A-96.364
Z12.5795 A-101.818
Z12.5975 A-107.273
Z12.6174 A-112.727
Z12.6387 A-118.182
Z12.6597 A-123.636
Z12.6808 A-129.091
Z12.7013 A-134.545
Z12.7215 A-140.000
Z12.7406 A-145.455
Z12.7590 A-150.909
Z12.7760 A-156.364
Z12.7920 A-161.818
Z12.8063 A-167.273
Z12.8220 A-172.727
Z12.8325 A-178.182
Z12.8720 A-183.636
Z12.9318 A-187.273
Z13.0004 A-190.909
Z13.0901 A-196.364
Z13.1786 A-201.818
Z13.2617 A-207.273
Z13.3389 A-212.727
Z13.4087 A-218.182
Z13.4709 A-223.636
Z13.5103 A-227.273
Z13.5632 A-232.727
Z13.6063 A-238.182
Z13.6396 A-243.636
Z13.6621 A-249.091
Z13.6740 A-254.545
Z13.6748 A-260.000
Z13.6744 A-263.636
Z13.6632 A-269.091
Z13.6414 A-274.545
Z13.6088 A-280.000
Z13.5664 A-285.455
Z13.5141 A-290.909
Z13.4533 A-296.364
Z13.4131 A-300.000
Z13.3547 A-304.034
Z14.8633 A-312.727
Z16.1135 A-318.182
Z17.0226 A-321.818
Z18.6273 A-327.273
Z19.1899 A-329.091
Z19.9612 A-331.591
Z20.0116 A-331.818
Z20.3358 A-334.545
Z20.4223 A-336.364
Z20.4882 A-338.182
Z20.5335 A-340.000
Z20.5582 A-341.818
Z20.5621 A-343.636
Z20.5453 A-345.455
Z20.5078 A-347.273
Z20.4497 A-349.091
Z20.3235 A-351.705
Z19.8904 A-354.545
Z18.6954 A-358.182
Z18.0491 A-360.000
Y47.3863 Z18.1342 A-360.000
Y48.1801 Z18.0831 A-360.000
Z18.7238 A-358.182
Z19.9115 A-354.545
Z20.3361 A-351.591
Z20.4497 A-349.091
Z20.5078 A-347.273
Z20.5453 A-345.455
Z20.5621 A-343.636
Z20.5582 A-341.818
Z20.5335 A-340.000
Z20.4882 A-338.182
Z20.4223 A-336.364
Z20.3142 A-334.318
Z20.0152 A-331.818
Z19.7648 A-330.909
Z19.2166 A-329.091
Z18.6541 A-327.273
Z16.5999 A-320.000
Z15.6962 A-316.364
Z14.1936 A-309.091
Z12.8285 A-300.000
Z12.6515 A-298.551
Z12.7063 A-294.545
Z12.7454 A-290.909
Z12.7973 A-285.455
Z12.8396 A-280.000
Z12.8722 A-274.545
Z12.8941 A-269.091
Z12.9056 A-263.636
Z12.9061 A-258.182
Z12.9052 A-254.545
Z12.8930 A-249.091
Z12.8704 A-243.636
Z12.8371 A-238.182
Z12.7942 A-232.727
Z12.7416 A-227.273
Z12.6805 A-221.818
Z12.6399 A-218.182
Z12.5698 A-212.727
Z12.4925 A-207.273
Z12.4094 A-201.818
Z12.3209 A-196.364
Z12.2305 A-190.909
Z12.1343 A-185.455
Z12.0637 A-178.182
Z12.0549 A-172.727
Z12.0419 A-167.273
Z12.0295 A-161.818
Z12.0153 A-156.364
Z12.0000 A-150.909
Z11.9832 A-145.455
Z11.9656 A-140.000
Z11.9469 A-134.545
Z11.9277 A-129.091
Z11.9077 A-123.636
Z11.8876 A-118.182
Z11.8671 A-112.727
Z11.8469 A-107.273
Z11.8266 A-101.818
Z11.8079 A-96.364
Z11.7912 A-90.909
Z11.7768 A-85.455
Z11.7639 A-80.000
Z11.7525 A-74.545
Z11.7413 A-69.091
Z11.7299 A-63.636
Z11.7166 A-58.182
Z11.7026 A-52.727
Z11.6882 A-47.273
Z11.6753 A-41.818
Z11.6645 A-36.364
Z11.6571 A-30.909
Z11.6564 A-29.091
Z12.2340 A-23.636
Z12.4924 A-21.818
Z13.9535 A-14.545
Z15.9211 A-7.273
Z16.4358 A-5.455
Z18.0831 A0.000
Y48.9738 Z17.9179 A0.000
Y49.3707 Z17.8053 A0.000
Y49.7676 Z17.6596 A0.000
Z16.1290 A-5.455
Z14.0828 A-12.727
Z12.5843 A-20.000
Z12.3188 A-21.818
Z11.2863 A-32.727
Z11.0933 A-35.568
Z11.1038 A-41.818
Z11.1134 A-47.273
Z11.1248 A-52.727
Z11.1373 A-58.182
Z11.1515 A-63.636
Z11.1666 A-69.091
Z11.1830 A-74.545
Z11.2001 A-80.000
Z11.2182 A-85.455
Z11.2367 A-90.909
Z11.2559 A-96.364
Z11.2752 A-101.818
Z11.2947 A-107.273
Z11.3140 A-112.727
Z11.3332 A-118.182
Z11.3518 A-123.636
Z11.3700 A-129.091
Z11.3873 A-134.545
Z11.4038 A-140.000
Z11.4190 A-145.455
Z11.4332 A-150.909
Z11.4459 A-156.364
Z11.4573 A-161.818
Z11.4670 A-167.273
Z11.4766 A-172.727
Z11.4827 A-178.182
Z11.5574 A-185.455
Z11.6519 A-190.909
Z11.7419 A-196.364
Z11.8295 A-201.818
Z11.9118 A-207.273
Z11.9883 A-212.727
Z12.0580 A-218.182
Z12.1034 A-221.818
Z12.1627 A-227.273
Z12.2136 A-232.727
Z12.2554 A-238.182
Z12.2879 A-243.636
Z12.3103 A-249.091
Z12.3229 A-254.545
Z12.3251 A-260.000
Z12.3234 A-263.636
Z12.3115 A-269.091
Z12.2897 A-274.545
Z12.2578 A-280.000
Z12.2167 A-285.455
Z12.1663 A-290.909
Z12.1245 A-294.858
Z13.1533 A-303.636
Z14.3005 A-310.909
Z16.3095 A-320.000
Z17.2168 A-323.636
Z18.7812 A-329.091
Z19.3064 A-330.909
Z20.0776 A-333.637
Z20.4537 A-337.159
Z20.5335 A-340.000
Z20.5582 A-341.818
Z20.5621 A-343.636
Z20.5453 A-345.455
Z20.4813 A-348.182
Z20.4464 A-349.091
Z20.2154 A-350.909
Z19.9503 A-352.727
Z18.8538 A-356.364
Z17.6596 A-360.000
Y50.5613 Z17.2877 A-360.000
Y51.1567 Z16.9419 A-360.000
Y51.3551 Z16.8104 A-360.000
Z17.8131 A-356.364
Z18.8564 A-352.727
Z19.2853 A-350.909
Z19.6715 A-349.091
Z19.9943 A-347.273
Z20.1220 A-346.363
Z20.1943 A-345.455
Z20.2454 A-343.636
Z20.2418 A-341.818
Z20.1768 A-340.000
Z19.9255 A-338.182
Z19.4255 A-335.454
Z19.0400 A-333.637
Z18.3195 A-330.909
Z17.3753 A-327.273
Z16.5315 A-323.636
Z16.0566 A-321.818
Z13.1135 A-306.818
Z12.5306 A-304.233
Z11.7310 A-294.801
Z11.7750 A-290.909
Z11.8248 A-285.455
Z11.8655 A-280.000
Z11.8971 A-274.545
Z11.9188 A-269.091
Z11.9309 A-263.636
Z11.9328 A-258.182
Z11.9248 A-252.727
Z11.9177 A-249.091
Z11.8953 A-243.636
Z11.8631 A-238.182
Z11.8218 A-232.727
Z11.7714 A-227.273
Z11.7130 A-221.818
Z11.6465 A-216.364
Z11.5733 A-210.909
Z11.4936 A-205.455
Z11.4086 A-200.000
Z11.3188 A-194.545
Z11.2609 A-190.909
Z11.1667 A-185.455
Z11.0861 A-176.364
Z11.0863 A-172.727
Z11.0789 A-167.273
Z11.0710 A-161.818
Z11.0613 A-156.364
Z11.0503 A-150.909
Z11.0376 A-145.455
Z11.0238 A-140.000
Z11.0086 A-134.545
Z10.9926 A-129.091
Z10.9755 A-123.636
Z10.9578 A-118.182
Z10.9394 A-112.727
Z10.9207 A-107.273
Z10.9016 A-101.818
Z10.8826 A-96.364
Z10.8635 A-90.909
Z10.8449 A-85.455
Z10.8265 A-80.000
Z10.8090 A-74.545
Z10.7920 A-69.091
Z10.7761 A-63.636
Z10.7611 A-58.182
Z10.7475 A-52.727
Z10.7349 A-47.273
Z10.7241 A-41.818
Z10.7145 A-36.364
Z10.7078 A-34.517
Z11.0044 A-32.727
Z11.1517 A-30.909
Z12.3235 A-18.182
Z12.6035 A-16.364
Z14.6966 A-7.273
Z15.8068 A-3.636
Z16.3586 A-1.818
Z16.8104 A0.000
Y52.1488 Z16.2667 A0.000
Y52.9426 Z15.2625 A0.000
Z12.7649 A-9.091
Z11.5837 A-14.545
Z11.2116 A-16.364
Z10.5294 A-19.091
Z10.5113 A-25.455
Z10.5195 A-30.909
Z10.5291 A-36.364
Z10.5403 A-41.818
Z10.5528 A-47.273
Z10.5667 A-52.727
Z10.5816 A-58.182
Z10.5977 A-63.636
Z10.6145 A-69.091
Z10.6322 A-74.545
Z10.6503 A-80.000
Z10.6689 A-85.455
Z10.6876 A-90.909
Z10.7066 A-96.364
Z10.7253 A-101.818
Z10.7439 A-107.273
Z10.7618 A-112.727
Z10.7793 A-118.182
Z10.7959 A-123.636
Z10.8117 A-129.091
Z10.8263 A-134.545
Z10.8399 A-140.000
Z10.8519 A-145.455
Z10.8628 A-150.909
Z10.8718 A-156.364
Z10.8795 A-161.818
Z10.8854 A-167.273
Z10.8904 A-172.727
Z10.8927 A-178.182
Z10.9720 A-185.455
Z11.0396 A-189.091
Z11.1310 A-194.545
Z11.2194 A-200.000
Z11.3029 A-205.455
Z11.3811 A-210.909
Z11.4528 A-216.364
Z11.5178 A-221.818
Z11.5750 A-227.273
Z11.6243 A-232.727
Z11.6647 A-238.182
Z11.6964 A-243.636
Z11.7186 A-249.091
Z11.7315 A-254.545
Z11.7345 A-260.000
Z11.7281 A-265.455
Z11.7118 A-270.909
Z11.6982 A-274.545
Z11.6671 A-280.000
Z11.6272 A-285.455
Z11.5785 A-290.909
Z11.5218 A-296.364
Z11.4573 A-301.818
Z11.3789 A-307.813
Z12.4882 A-312.273
Z12.9829 A-313.636
Z13.7192 A-318.182
Z16.0526 A-327.273
Z16.3342 A-328.182
Z16.5188 A-329.091
Z17.1874 A-332.727
Z17.5102 A-334.545
Z17.7886 A-336.364
Z18.0312 A-338.182
Z18.2074 A-340.000
Z18.2892 A-341.818
Z18.2999 A-343.636
Z18.2058 A-345.455
Z18.0157 A-347.273
Z17.7759 A-349.091
Z17.2956 A-351.818
Z16.9320 A-353.636
Z16.1822 A-357.272
Z15.2625 A-360.000
Y54.3286 Z13.1256 A-360.000
Y54.3317 Z13.0562 A-360.000
Y54.3813 Z12.9922 A-360.000
Y54.5301 Z11.8853 A-360.000
Z13.1246 A-358.182
Z13.9383 A-354.545
Z14.3488 A-352.727
Z14.6746 A-350.909
Z14.9811 A-349.091
Z15.2771 A-347.273
Z15.3759 A-346.363
Z15.5816 A-343.636
Z15.6203 A-342.727
Z15.5961 A-341.818
Z15.4998 A-340.000
Z15.3829 A-338.182
Z15.1127 A-336.364
Z14.8097 A-334.545
Z14.4962 A-332.727
Z14.1332 A-330.909
Z13.0052 A-325.227
Z11.0545 A-321.193
Z11.1142 A-318.182
Z11.1971 A-312.727
Z11.2747 A-307.273
Z11.3457 A-301.818
Z11.4099 A-296.364
Z11.4664 A-290.909
Z11.5149 A-285.455
Z11.5546 A-280.000
Z11.5856 A-274.545
Z11.6071 A-269.091
Z11.6194 A-263.636
Z11.6219 A-258.182
Z11.6150 A-252.727
Z11.5983 A-247.273
Z11.5725 A-241.818
Z11.5373 A-236.364
Z11.5119 A-232.727
Z11.4629 A-227.273
Z11.4059 A-221.818
Z11.3412 A-216.364
Z11.2697 A-210.909
Z11.1918 A-205.455
Z11.1085 A-200.000
Z11.0202 A-194.545
Z10.9289 A-189.091
Z10.8338 A-183.636
Z10.7778 A-176.364
Z10.7756 A-170.909
Z10.7712 A-165.455
Z10.7660 A-160.000
Z10.7589 A-154.545
Z10.7504 A-149.091
Z10.7401 A-143.636
Z10.7285 A-138.182
Z10.7154 A-132.727
Z10.7013 A-127.273
Z10.6858 A-121.818
Z10.6792 A-118.182
Z10.6623 A-112.727
Z10.6448 A-107.273
Z10.6265 A-101.818
Z10.6081 A-96.364
Z10.5892 A-90.909
Z10.5704 A-85.455
Z10.5516 A-80.000
Z10.5332 A-74.545
Z10.5151 A-69.091
Z10.4977 A-63.636
Z10.4810 A-58.182
Z10.4653 A-52.727
Z10.4505 A-47.273
Z10.4371 A-41.818
Z10.4248 A-36.364
Z10.4141 A-30.909
Z10.4048 A-25.455
Z10.3972 A-20.000
Z10.3911 A-14.545
Z10.3859 A-9.091
Z10.3906 A-2.614
Z11.8853 A0.000
Y54.7285 Z10.3850 A0.000
Y56.1176 Z10.3435 A0.000
Z10.3300 A-7.273
Z10.3358 A-12.727
Z10.3427 A-18.182
Z10.3510 A-23.636
Z10.3612 A-29.091
Z10.3725 A-34.545
Z10.3855 A-40.000
Z10.3996 A-45.455
Z10.4150 A-50.909
Z10.4312 A-56.364
Z10.4484 A-61.818
Z10.4661 A-67.273
Z10.4846 A-72.727
Z10.5032 A-78.182
Z10.5223 A-83.636
Z10.5411 A-89.091
Z10.5600 A-94.545
Z10.5784 A-100.000
Z10.5965 A-105.455
Z10.6137 A-110.909
Z10.6304 A-116.364
Z10.6459 A-121.818
Z10.6605 A-127.273
Z10.6736 A-132.727
Z10.6857 A-138.182
Z10.6961 A-143.636
Z10.7051 A-149.091
Z10.7123 A-154.545
Z10.7180 A-160.000
Z10.7218 A-165.455
Z10.7245 A-170.909
Z10.7251 A-176.364
Z10.8071 A-185.455
Z10.8784 A-189.091
Z10.9696 A-194.545
Z11.0575 A-200.000
Z11.1403 A-205.455
Z11.2179 A-210.909
Z11.2889 A-216.364
Z11.3532 A-221.818
Z11.4098 A-227.273
Z11.4586 A-232.727
Z11.4986 A-238.182
Z11.5301 A-243.636
Z11.5522 A-249.091
Z11.5651 A-254.545
Z11.5684 A-260.000
Z11.5623 A-265.455
Z11.5466 A-270.909
Z11.5219 A-276.364
Z11.4878 A-281.818
Z11.4452 A-287.273
Z11.3940 A-292.727
Z11.3351 A-298.182
Z11.2687 A-303.636
Z11.1958 A-309.091
Z11.1165 A-314.545
Z11.0322 A-320.000
Z10.9430 A-325.455
Z10.8504 A-330.909
Z10.7546 A-336.364
Z10.6570 A-341.818
Z10.5580 A-347.273
Z10.4581 A-352.727
Z10.3435 A-360.000
Y57.7051 Z10.2990 A-360.000
Z10.3718 A-354.545
Z10.4448 A-350.909
Z10.5451 A-345.455
Z10.6439 A-340.000
Z10.7411 A-334.545
Z10.8363 A-329.091
Z10.9282 A-323.636
Z11.0163 A-318.182
Z11.0994 A-312.727
Z11.1771 A-307.273
Z11.2483 A-301.818
Z11.3128 A-296.364
Z11.3694 A-290.909
Z11.4180 A-285.455
Z11.4577 A-280.000
Z11.4886 A-274.545
Z11.5101 A-269.091
Z11.5224 A-263.636
Z11.5250 A-258.182
Z11.5182 A-252.727
Z11.5014 A-247.273
Z11.4753 A-241.818
Z11.4554 A-238.182
Z11.4151 A-232.727
Z11.3659 A-227.273
Z11.3087 A-221.818
Z11.2438 A-216.364
Z11.1722 A-210.909
Z11.0941 A-205.455
Z11.0106 A-200.000
Z10.9222 A-194.545
Z10.8304 A-189.091
Z10.7351 A-183.636
Z10.6821 A-176.364
Z10.6824 A-170.909
Z10.6805 A-165.455
Z10.6774 A-160.000
Z10.6723 A-154.545
Z10.6658 A-149.091
Z10.6573 A-143.636
Z10.6474 A-138.182
Z10.6359 A-132.727
Z10.6317 A-129.091
Z10.6180 A-123.636
Z10.6033 A-118.182
Z10.5873 A-112.727
Z10.5706 A-107.273
Z10.5529 A-101.818
Z10.5347 A-96.364
Z10.5160 A-90.909
Z10.4971 A-85.455
Z10.4780 A-80.000
Z10.4591 A-74.545
Z10.4402 A-69.091
Z10.4220 A-63.636
Z10.4041 A-58.182
Z10.3872 A-52.727
Z10.3709 A-47.273
Z10.3559 A-41.818
Z10.3419 A-36.364
Z10.3294 A-30.909
Z10.3180 A-25.455
Z10.3084 A-20.000
Z10.3002 A-14.545
Z10.2925 A-9.091
Z10.2869 A-3.636
Z10.2990 A0.000
Y59.2926 Z10.1735 A0.000
Z10.1631 A-7.273
Z10.1708 A-12.727
Z10.1791 A-18.182
Z10.1819 A-21.818
Z10.1978 A-25.455
Z10.2099 A-30.909
Z10.2232 A-36.364
Z10.2380 A-41.818
Z10.2536 A-47.273
Z10.2705 A-52.727
Z10.2879 A-58.182
Z10.3062 A-63.636
Z10.3249 A-69.091
Z10.3440 A-74.545
Z10.3631 A-80.000
Z10.3824 A-85.455
Z10.4012 A-90.909
Z10.4200 A-96.364
Z10.4380 A-101.818
Z10.4554 A-107.273
Z10.4719 A-112.727
Z10.4875 A-118.182
Z10.5017 A-123.636
Z10.5149 A-129.091
Z10.5265 A-134.545
Z10.5368 A-140.000
Z10.5452 A-145.455
Z10.5522 A-150.909
Z10.5573 A-156.364
Z10.5608 A-161.818
Z10.5622 A-167.273
Z10.5621 A-172.727
Z10.5599 A-178.182
Z10.6359 A-185.455
Z10.7302 A-190.909
Z10.7948 A-194.545
Z10.8836 A-200.000
Z10.9674 A-205.455
Z11.0459 A-210.909
Z11.1180 A-216.364
Z11.1833 A-221.818
Z11.2408 A-227.273
Z11.2903 A-232.727
Z11.3310 A-238.182
Z11.3628 A-243.636
Z11.3850 A-249.091
Z11.3979 A-254.545
Z11.4008 A-260.000
Z11.3942 A-265.455
Z11.3777 A-270.909
Z11.3645 A-274.545
Z11.3333 A-280.000
Z11.2933 A-285.455
Z11.2443 A-290.909
Z11.1873 A-296.364
Z11.1225 A-301.818
Z11.0509 A-307.273
Z10.9728 A-312.727
Z10.8893 A-318.182
Z10.8008 A-323.636
Z10.7086 A-329.091
Z10.6131 A-334.545
Z10.5157 A-340.000
Z10.4168 A-345.455
Z10.3164 A-350.909
Z10.2175 A-356.364
Z10.1735 A-360.000
Y60.8801 Z9.9930 A-360.000
Z10.0643 A-354.545
Z10.1647 A-349.091
Z10.2657 A-343.636
Z10.3643 A-338.182
Z10.4611 A-332.727
Z10.5556 A-327.273
Z10.6466 A-321.818
Z10.7335 A-316.364
Z10.8151 A-310.909
Z10.8910 A-305.455
Z10.9411 A-301.818
Z11.0068 A-296.364
Z11.0646 A-290.909
Z11.1143 A-285.455
Z11.1549 A-280.000
Z11.1865 A-274.545
Z11.2082 A-269.091
Z11.2204 A-263.636
Z11.2224 A-258.182
Z11.2146 A-252.727
Z11.2071 A-249.091
Z11.1847 A-243.636
Z11.1525 A-238.182
Z11.1113 A-232.727
Z11.0611 A-227.273
Z11.0027 A-221.818
Z10.9365 A-216.364
Z10.8635 A-210.909
Z10.7840 A-205.455
Z10.6993 A-200.000
Z10.6097 A-194.545
Z10.5164 A-189.091
Z10.4211 A-183.636
Z10.3792 A-176.364
Z10.3814 A-170.909
Z10.3815 A-165.455
Z10.3798 A-160.000
Z10.3759 A-154.545
Z10.3772 A-150.909
Z10.3708 A-145.455
Z10.3628 A-140.000
Z10.3530 A-134.545
Z10.3418 A-129.091
Z10.3290 A-123.636
Z10.3150 A-118.182
Z10.2997 A-112.727
Z10.2835 A-107.273
Z10.2661 A-101.818
Z10.2482 A-96.364
Z10.2295 A-90.909
Z10.2106 A-85.455
Z10.1912 A-80.000
Z10.1720 A-74.545
Z10.1526 A-69.091
Z10.1338 A-63.636
Z10.1151 A-58.182
Z10.0973 A-52.727
Z10.0801 A-47.273
Z10.0640 A-41.818
Z10.0488 A-36.364
Z10.0350 A-30.909
Z10.0223 A-25.455
Z10.0113 A-20.000
Z10.0016 A-14.545
Z9.9919 A-9.091
Z9.9845 A-3.636
Z9.9930 A0.000
Y61.6738 Z9.8534 A0.000
Y62.4676 Z9.6393 A0.000
Z9.6250 A-5.455
Z9.6414 A-9.091
Z9.6520 A-14.545
Z9.6621 A-20.000
Z9.6736 A-25.455
Z9.6867 A-30.909
Z9.7009 A-36.364
Z9.7165 A-41.818
Z9.7330 A-47.273
Z9.7505 A-52.727
Z9.7686 A-58.182
Z9.7874 A-63.636
Z9.8065 A-69.091
Z9.8261 A-74.545
Z9.8454 A-80.000
Z9.8649 A-85.455
Z9.8838 A-90.909
Z9.9025 A-96.364
Z9.9204 A-101.818
Z9.9376 A-107.273
Z9.9537 A-112.727
Z9.9689 A-118.182
Z9.9826 A-123.636
Z9.9951 A-129.091
Z10.0059 A-134.545
Z10.0154 A-140.000
Z10.0229 A-145.455
Z10.0288 A-150.909
Z10.0328 A-156.364
Z10.0351 A-161.818
Z10.0353 A-167.273
Z10.0333 A-172.727
Z10.0299 A-178.182
Z10.0989 A-185.455
Z10.1944 A-190.909
Z10.2869 A-196.364
Z10.3748 A-201.818
Z10.4575 A-207.273
Z10.5345 A-212.727
Z10.6046 A-218.182
Z10.6673 A-223.636
Z10.7080 A-227.273
Z10.7592 A-232.727
Z10.8011 A-238.182
Z10.8338 A-243.636
Z10.8565 A-249.091
Z10.8693 A-254.545
Z10.8716 A-260.000
Z10.8639 A-265.455
Z10.8577 A-269.091
Z10.8357 A-274.545
Z10.8036 A-280.000
Z10.7623 A-285.455
Z10.7117 A-290.909
Z10.6528 A-296.364
Z10.5859 A-301.818
Z10.5121 A-307.273
Z10.4317 A-312.727
Z10.3805 A-316.364
Z10.2929 A-321.818
Z10.2013 A-327.273
Z10.1062 A-332.727
Z10.0089 A-338.182
Z9.9101 A-343.636
Z9.8088 A-349.091
Z9.7089 A-354.545
Z9.6393 A-360.000
Y63.2613 Z9.3637 A-360.000
Y64.0551 Z9.0215 A-360.000
Z9.1126 A-352.727
Z9.2153 A-347.273
Z9.3178 A-341.818
Z9.4162 A-336.364
Z9.5125 A-330.909
Z9.6064 A-325.455
Z9.6963 A-320.000
Z9.7599 A-316.364
Z9.8438 A-310.909
Z9.9218 A-305.455
Z9.9928 A-300.000
Z10.0562 A-294.545
Z10.1109 A-289.091
Z10.1566 A-283.636
Z10.1875 A-280.000
Z10.2206 A-274.545
Z10.2432 A-269.091
Z10.2552 A-263.636
Z10.2563 A-258.182
Z10.2548 A-254.545
Z10.2420 A-249.091
Z10.2187 A-243.636
Z10.1849 A-238.182
Z10.1414 A-232.727
Z10.0883 A-227.273
Z10.0523 A-223.636
Z9.9883 A-218.182
Z9.9169 A-212.727
Z9.8384 A-207.273
Z9.7542 A-201.818
Z9.6647 A-196.364
Z9.5704 A-190.909
Z9.4461 A-183.636
Z9.4105 A-176.364
Z9.4144 A-170.909
Z9.4162 A-165.455
Z9.4147 A-160.000
Z9.4111 A-154.545
Z9.4134 A-150.909
Z9.4075 A-145.455
Z9.4000 A-140.000
Z9.3906 A-134.545
Z9.3798 A-129.091
Z9.3673 A-123.636
Z9.3535 A-118.182
Z9.3383 A-112.727
Z9.3221 A-107.273
Z9.3048 A-101.818
Z9.2869 A-96.364
Z9.2681 A-90.909
Z9.2491 A-85.455
Z9.2296 A-80.000
Z9.2102 A-74.545
Z9.1906 A-69.091
Z9.1715 A-63.636
Z9.1527 A-58.182
Z9.1346 A-52.727
Z9.1171 A-47.273
Z9.1007 A-41.818
Z9.0852 A-36.364
Z9.0711 A-30.909
Z9.0581 A-25.455
Z9.0466 A-20.000
Z9.0366 A-14.545
Z9.0255 A-9.091
Z9.0140 A-1.818
Z9.0215 A0.000
Y64.8488 Z8.6154 A0.000
Y65.6426 Z8.1443 A0.000
Z8.1334 A-5.455
Z8.1497 A-9.091
Z8.1618 A-14.545
Z8.1722 A-20.000
