%
G17 G21 G40 G90 G64 P0.2
(2 1/2 Axis Pocketing)
(Endmill 1/4in 6.35mm Carbide Roughing)
T3 M06
S20051 M3
G0 Z40.
X0.26602 Y-8.20158
G1 Z0.2 F1002.5
Z-0.4 F3007.5
X0.09039 Y-8.20614 Z-0.43098
X-0.25233 Y-8.1055 Z-0.49396
X-0.52917 Y-7.91655 Z-0.55306
X-0.7204 Y-7.66843 Z-0.6083
X-0.81731 Y-7.3936 Z-0.65968
X-0.82226 Y-7.12394 Z-0.70724
X-0.74751 Y-6.88733 Z-0.75099
X-0.61298 Y-6.70481 Z-0.79097
X-0.44332 Y-6.58866 Z-0.82723
X-0.26459 Y-6.54173 Z-0.85981
X-0.10093 Y-6.5578 Z-0.88881
X0.02824 Y-6.62308 Z-0.91433
X0.11047 Y-6.71852 Z-0.93654
X0.1414 Y-6.8227 Z-0.9557
X0.12492 Y-6.91483 Z-0.97221
X0.07223 Y-6.97772 Z-0.98667
X0. Y-7. Z-1.
X0.07223 Y-6.97772 F4010.
X0.12492 Y-6.91483
X0.1414 Y-6.8227
X0.11047 Y-6.71852
X0.02824 Y-6.62308
X-0.10093 Y-6.5578
X-0.26459 Y-6.54173
X-0.44332 Y-6.58866
X-0.61298 Y-6.70481
X-0.74751 Y-6.88733
X-0.82226 Y-7.12394
X-0.81731 Y-7.3936
X-0.7204 Y-7.66843
X-0.52917 Y-7.91655
X-0.25233 Y-8.1055
X0.09039 Y-8.20614
X0.4695 Y-8.19629
X0.84839 Y-8.06385
X1.18673 Y-7.8091
X1.44473 Y-7.44565
X1.5875 Y-7.
X1.57464 Y-6.42688
X1.35121 Y-5.8662
X0.92604 Y-5.39605
X0.33692 Y-5.0892
X-0.35224 Y-5.00235
X-1.05833 Y-5.16692
X-1.68902 Y-5.58275
X-2.15477 Y-6.21573
X-2.38125 Y-7.
X-2.32052 Y-7.8446
X-1.95927 Y-8.64402
X-1.32292 Y-9.29136
X-0.47476 Y-9.69249
X0.49007 Y-9.77935
X1.45521 Y-9.5205
X2.29707 Y-8.92747
X2.90065 Y-8.05575
X3.175 Y-7.
X3.14202 Y-6.22556
X2.91945 Y-5.46776
X2.51363 Y-4.77312
X1.94234 Y-4.18603
X1.23412 Y-3.74588
X0.42686 Y-3.48448
X-0.43422 Y-3.42386
X-1.29908 Y-3.57461
X-2.11577 Y-3.93478
X-2.83355 Y-4.4897
X-3.40603 Y-5.21238
X-3.79414 Y-6.06483
X-3.96875 Y-7.
X-3.91271 Y-7.9644
X-3.62228 Y-8.90112
X-3.10776 Y-9.75324
X-2.39325 Y-10.46722
X-1.5156 Y-10.9963
X-0.52254 Y-11.30349
X0.5299 Y-11.3641
X1.58055 Y-11.16757
X2.56667 Y-10.71847
X3.42767 Y-10.03666
X4.10885 Y-9.1565
X4.56482 Y-8.12513
X4.7625 Y-7.
X4.71517 Y-6.03101
X4.47065 Y-5.08149
X4.03498 Y-4.19157
X3.42233 Y-3.39971
X2.65463 Y-2.74104
X1.76075 Y-2.24583
X0.77545 Y-1.93809
X-0.26197 Y-1.83446
X-1.30926 Y-1.94336
X-2.3229 Y-2.26445
X-3.25996 Y-2.78848
X-4.07986 Y-3.49756
X-4.74615 Y-4.36567
X-5.22815 Y-5.35966
X-5.50227 Y-6.44048
X-5.55322 Y-7.56471
X-5.37473 Y-8.68633
X-4.97003 Y-9.75859
X-4.35185 Y-10.73594
X-3.54207 Y-11.57598
X-2.57098 Y-12.2413
X-1.47612 Y-12.70112
X-0.30087 Y-12.9327
X0.90728 Y-12.92244
X2.09867 Y-12.6666
X3.22348 Y-12.1716
X4.23381 Y-11.45397
X5.08575 Y-10.53979
X5.74126 Y-9.46377
X6.16985 Y-8.26794
X6.35 Y-7.
X6.29695 Y-5.88968
X6.04992 Y-4.79801
X5.61383 Y-3.75886
X4.9995 Y-2.80492
X4.22342 Y-1.96672
X3.30729 Y-1.27161
X2.2774 Y-0.74289
X1.16392 Y-0.39905
X0. Y-0.25313
X-1.17924 Y-0.3122
X-2.33773 Y-0.57714
X-3.43959 Y-1.04247
X-4.45019 Y-1.69648
X-5.33731 Y-2.52147
X-6.0721 Y-3.49427
X-6.63006 Y-4.58686
X-6.9918 Y-5.76716
X-7.14375 Y-7.
X-7.07865 Y-8.24816
X-6.79581 Y-9.47347
X-6.30124 Y-10.63802
X-5.60755 Y-11.7053
X-4.73364 Y-12.64134
X-3.70417 Y-13.41581
X-2.54888 Y-14.003
X-1.30176 Y-14.38264
X0. Y-14.54063
X1.31707 Y-14.4695
X2.60921 Y-14.16875
X3.83646 Y-13.64494
X4.9604 Y-12.91158
X5.94535 Y-11.98875
X6.75951 Y-10.90261
X7.37593 Y-9.68462
X7.77348 Y-8.37068
X7.9375 Y-7.
X7.87897 Y-5.7521
X7.6245 Y-4.52265
X7.17845 Y-3.3424
X6.55 Y-2.24115
X5.75297 Y-1.24703
X4.80551 Y-0.38578
X3.72967 Y0.31989
X2.55093 Y0.85097
X1.29757 Y1.19256
X0. Y1.33437
X-1.30999 Y1.27096
X-2.59999 Y1.00195
X-3.83778 Y0.53207
X-4.99214 Y-0.12892
X-6.03361 Y-0.96639
X-6.9353 Y-1.96121
X-7.67352 Y-3.09015
X-8.22842 Y-4.32643
X-8.58456 Y-5.64034
X-8.73125 Y-7.
X-8.66296 Y-8.37208
X-8.3794 Y-9.72264
X-7.88569 Y-11.01796
X-7.19216 Y-12.22541
X-6.31424 Y-13.31425
X-5.27207 Y-14.25638
X-4.09003 Y-15.02714
X-2.79622 Y-15.60588
X-1.42175 Y-15.97655
X0. Y-16.12813
X1.43416 Y-16.05494
X2.84527 Y-15.75686
X4.19813 Y-15.23931
X5.45869 Y-14.51324
X6.59487 Y-13.59488
X7.57745 Y-12.50535
X8.38075 Y-11.27021
X8.98332 Y-9.91886
X9.36853 Y-8.48383
X9.525 Y-7.
X9.46376 Y-5.63932
X9.2084 Y-4.29617
X8.7627 Y-2.99821
X8.13435 Y-1.77237
X7.33485 Y-0.64432
X6.37931 Y0.36211
X5.28614 Y1.2254
X4.07673 Y1.92679
X2.77498 Y2.45073
X1.40689 Y2.78517
X0. Y2.92187
X-1.41717 Y2.85659
X-2.81565 Y2.5892
X-4.16666 Y2.12371
X-5.4422 Y1.46822
X-6.61558 Y0.63479
X-7.66206 Y-0.36079
X-8.55928 Y-1.49929
X-9.28781 Y-2.7584
X-9.83153 Y-4.1132
X-10.17801 Y-5.53663
X-10.31875 Y-7.
X-10.24943 Y-8.47365
X-9.97001 Y-9.92746
X-9.48472 Y-11.33153
X-8.8021 Y-12.65676
X-7.93473 Y-13.87548
X-6.89911 Y-14.962
X-5.71528 Y-15.89315
X-4.40647 Y-16.64882
X-2.99861 Y-17.21233
X-1.51986 Y-17.57085
X0. Y-17.71563
X1.53012 Y-17.64227
X3.03927 Y-17.35081
X4.49639 Y-16.84574
X5.87133 Y-16.13597
X7.13538 Y-15.23467
X8.26193 Y-14.15901
X9.22702 Y-12.92985
X10.00983 Y-11.57134
X10.59313 Y-10.11043
X10.96368 Y-8.57634
X11.1125 Y-7.
X11.04682 Y-5.51435
X10.78281 Y-4.04628
X10.32401 Y-2.62224
X9.67746 Y-1.26804
X8.85362 Y-0.00837
X7.86621 Y1.1336
X6.73196 Y2.13669
X5.47032 Y2.98207
X4.10317 Y3.65364
X2.6544 Y4.13834
X1.1495 Y4.42636
X-0.38487 Y4.51138
X-1.92137 Y4.39068
X-3.43246 Y4.06522
X-4.89091 Y3.53962
X-6.27024 Y2.82216
X-7.54526 Y1.92457
X-8.69252 Y0.86191
X-9.6907 Y-0.34772
X-10.52104 Y-1.68348
X-11.1677 Y-3.12216
X-11.61802 Y-4.63854
X-11.86281 Y-6.20588
X-11.89651 Y-7.79638
X-11.71732 Y-9.38165
X-11.32724 Y-10.93325
X-10.73207 Y-12.42316
X-9.94132 Y-13.82433
X-8.96808 Y-15.11115
X-7.82876 Y-16.2599
X-6.54285 Y-17.24921
X-5.13261 Y-18.06048
X-3.6226 Y-18.67816
X-2.03935 Y-19.09012
X-0.41083 Y-19.28782
X1.23402 Y-19.26654
X2.86581 Y-19.02547
X4.45522 Y-18.56772
X5.97353 Y-17.9003
X7.39313 Y-17.03404
X8.68805 Y-15.98339
X9.83441 Y-14.76616
X10.81085 Y-13.40328
X11.59896 Y-11.91839
X12.1836 Y-10.33744
X12.55321 Y-8.68825
X12.7 Y-7.
X12.63463 Y-5.4355
X12.37679 Y-3.88711
X11.92947 Y-2.3785
X11.29855 Y-0.93281
X10.49273 Y0.42765
X9.52343 Y1.68175
X8.40461 Y2.80991
X7.15258 Y3.79433
X5.78575 Y4.61935
X4.32436 Y5.27164
X2.7902 Y5.74045
X1.20627 Y6.01776
X-0.40356 Y6.09844
X-2.01492 Y5.98033
X-3.6033 Y5.66427
X-5.14441 Y5.15414
X-6.61458 Y4.45679
X-7.99111 Y3.58194
X-9.25261 Y2.54207
X-10.37934 Y1.35222
X-11.35353 Y0.0298
X-12.15963 Y-1.40569
X-12.78461 Y-2.93293
X-13.2181 Y-4.52911
X-13.45262 Y-6.17027
X-13.48369 Y-7.83165
X-13.30989 Y-9.48805
X-12.93292 Y-11.11426
X-12.35758 Y-12.68539
X-11.59171 Y-14.17729
X-10.6461 Y-15.56689
X-9.53431 Y-16.83258
X-8.27249 Y-17.95455
X-6.87917 Y-18.91507
X-5.37494 Y-19.69879
X-3.78218 Y-20.293
X-2.12474 Y-20.68779
X-0.42753 Y-20.87626
X1.28382 Y-20.85462
X2.98332 Y-20.62225
X4.64506 Y-20.18174
X6.24361 Y-19.53887
X7.75436 Y-18.70251
X9.15394 Y-17.68453
X10.42057 Y-16.49961
X11.53438 Y-15.16502
X12.47776 Y-13.70042
X13.23562 Y-12.12751
X13.7956 Y-10.46974
X14.14831 Y-8.75194
X14.2875 Y-7.
X14.22009 Y-5.33791
X13.95959 Y-3.69152
X13.50873 Y-2.08323
X12.87286 Y-0.53501
X12.05984 Y0.93188
X11.07998 Y2.29721
X9.9459 Y3.54203
X8.67234 Y4.64898
X7.27604 Y5.60247
X5.77543 Y6.38895
X4.19045 Y6.99707
X2.54226 Y7.41786
X0.85296 Y7.64485
X-0.85468 Y7.6742
X-2.55757 Y7.50471
X-4.23261 Y7.13788
X-5.85694 Y6.5779
X-7.40833 Y5.83161
X-8.86546 Y4.90837
X-10.20816 Y3.82002
X-11.41779 Y2.58066
X-12.47739 Y1.20651
X-13.37202 Y-0.28433
X-14.08887 Y-1.87208
X-14.61752 Y-3.53559
X-14.95008 Y-5.25259
X-15.08125 Y-7.
X-15.00848 Y-8.75424
X-14.73195 Y-10.49154
X-14.25462 Y-12.18826
X-13.58218 Y-13.82123
X-12.72301 Y-15.36806
X-11.68803 Y-16.80742
X-10.4906 Y-18.11939
X-9.14634 Y-19.28567
X-7.94188 Y-20.10658
G17
G03 X7.94187 Y6.10657 I7.94188 J13.10658
X-7.94188 Y-20.10658 I-7.94187 J-13.10657
G0 Z40.
X0. Y-7.
G1 Z-2. F1002.5
X0.07223 Y-6.97772 F4010.
X0.12492 Y-6.91483
X0.1414 Y-6.8227
X0.11047 Y-6.71852
X0.02824 Y-6.62308
X-0.10093 Y-6.5578
X-0.26459 Y-6.54173
X-0.44332 Y-6.58866
X-0.61298 Y-6.70481
X-0.74751 Y-6.88733
X-0.82226 Y-7.12394
X-0.81731 Y-7.3936
X-0.7204 Y-7.66843
X-0.52917 Y-7.91655
X-0.25233 Y-8.1055
X0.09039 Y-8.20614
X0.4695 Y-8.19629
X0.84839 Y-8.06385
X1.18673 Y-7.8091
X1.44473 Y-7.44565
X1.5875 Y-7.
X1.57464 Y-6.42688
X1.35121 Y-5.8662
X0.92604 Y-5.39605
X0.33692 Y-5.0892
X-0.35224 Y-5.00235
X-1.05833 Y-5.16692
X-1.68902 Y-5.58275
X-2.15477 Y-6.21573
X-2.38125 Y-7.
X-2.32052 Y-7.8446
X-1.95927 Y-8.64402
X-1.32292 Y-9.29136
X-0.47476 Y-9.69249
X0.49007 Y-9.77935
X1.45521 Y-9.5205
X2.29707 Y-8.92747
X2.90065 Y-8.05575
X3.175 Y-7.
X3.14202 Y-6.22556
X2.91945 Y-5.46776
X2.51363 Y-4.77312
X1.94234 Y-4.18603
X1.23412 Y-3.74588
X0.42686 Y-3.48448
X-0.43422 Y-3.42386
X-1.29908 Y-3.57461
X-2.11577 Y-3.93478
X-2.83355 Y-4.4897
X-3.40603 Y-5.21238
X-3.79414 Y-6.06483
X-3.96875 Y-7.
X-3.91271 Y-7.9644
X-3.62228 Y-8.90112
X-3.10776 Y-9.75324
X-2.39325 Y-10.46722
X-1.5156 Y-10.9963
X-0.52254 Y-11.30349
X0.5299 Y-11.3641
X1.58055 Y-11.16757
X2.56667 Y-10.71847
X3.42767 Y-10.03666
X4.10885 Y-9.1565
X4.56482 Y-8.12513
X4.7625 Y-7.
X4.71517 Y-6.03101
X4.47065 Y-5.08149
X4.03498 Y-4.19157
X3.42233 Y-3.39971
X2.65463 Y-2.74104
X1.76075 Y-2.24583
X0.77545 Y-1.93809
X-0.26197 Y-1.83446
X-1.30926 Y-1.94336
X-2.3229 Y-2.26445
X-3.25996 Y-2.78848
X-4.07986 Y-3.49756
X-4.74615 Y-4.36567
X-5.22815 Y-5.35966
X-5.50227 Y-6.44048
X-5.55322 Y-7.56471
X-5.37473 Y-8.68633
X-4.97003 Y-9.75859
X-4.35185 Y-10.73594
X-3.54207 Y-11.57598
X-2.57098 Y-12.2413
X-1.47612 Y-12.70112
X-0.30087 Y-12.9327
X0.90728 Y-12.92244
X2.09867 Y-12.6666
X3.22348 Y-12.1716
X4.23381 Y-11.45397
X5.08575 Y-10.53979
X5.74126 Y-9.46377
X6.16985 Y-8.26794
X6.35 Y-7.
X6.29695 Y-5.88968
X6.04992 Y-4.79801
X5.61383 Y-3.75886
X4.9995 Y-2.80492
X4.22342 Y-1.96672
X3.30729 Y-1.27161
X2.2774 Y-0.74289
X1.16392 Y-0.39905
X0. Y-0.25313
X-1.17924 Y-0.3122
X-2.33773 Y-0.57714
X-3.43959 Y-1.04247
X-4.45019 Y-1.69648
X-5.33731 Y-2.52147
X-6.0721 Y-3.49427
X-6.63006 Y-4.58686
X-6.9918 Y-5.76716
X-7.14375 Y-7.
X-7.07865 Y-8.24816
X-6.79581 Y-9.47347
X-6.30124 Y-10.63802
X-5.60755 Y-11.7053
X-4.73364 Y-12.64134
X-3.70417 Y-13.41581
X-2.54888 Y-14.003
X-1.30176 Y-14.38264
X0. Y-14.54063
X1.31707 Y-14.4695
X2.60921 Y-14.16875
X3.83646 Y-13.64494
X4.9604 Y-12.91158
X5.94535 Y-11.98875
X6.75951 Y-10.90261
X7.37593 Y-9.68462
X7.77348 Y-8.37068
X7.9375 Y-7.
X7.87897 Y-5.7521
X7.6245 Y-4.52265
X7.17845 Y-3.3424
X6.55 Y-2.24115
X5.75297 Y-1.24703
X4.80551 Y-0.38578
X3.72967 Y0.31989
X2.55093 Y0.85097
X1.29757 Y1.19256
X0. Y1.33437
X-1.30999 Y1.27096
X-2.59999 Y1.00195
X-3.83778 Y0.53207
X-4.99214 Y-0.12892
X-6.03361 Y-0.96639
X-6.9353 Y-1.96121
X-7.67352 Y-3.09015
X-8.22842 Y-4.32643
X-8.58456 Y-5.64034
X-8.73125 Y-7.
X-8.66296 Y-8.37208
X-8.3794 Y-9.72264
X-7.88569 Y-11.01796
X-7.19216 Y-12.22541
X-6.31424 Y-13.31425
X-5.27207 Y-14.25638
X-4.09003 Y-15.02714
X-2.79622 Y-15.60588
X-1.42175 Y-15.97655
X0. Y-16.12813
X1.43416 Y-16.05494
X2.84527 Y-15.75686
X4.19813 Y-15.23931
X5.45869 Y-14.51324
X6.59487 Y-13.59488
X7.57745 Y-12.50535
X8.38075 Y-11.27021
X8.98332 Y-9.91886
X9.36853 Y-8.48383
X9.525 Y-7.
X9.46376 Y-5.63932
X9.2084 Y-4.29617
X8.7627 Y-2.99821
X8.13435 Y-1.77237
X7.33485 Y-0.64432
X6.37931 Y0.36211
X5.28614 Y1.2254
X4.07673 Y1.92679
X2.77498 Y2.45073
X1.40689 Y2.78517
X0. Y2.92187
X-1.41717 Y2.85659
X-2.81565 Y2.5892
X-4.16666 Y2.12371
X-5.4422 Y1.46822
X-6.61558 Y0.63479
X-7.66206 Y-0.36079
X-8.55928 Y-1.49929
X-9.28781 Y-2.7584
X-9.83153 Y-4.1132
X-10.17801 Y-5.53663
X-10.31875 Y-7.
X-10.24943 Y-8.47365
X-9.97001 Y-9.92746
X-9.48472 Y-11.33153
X-8.8021 Y-12.65676
X-7.93473 Y-13.87548
X-6.89911 Y-14.962
X-5.71528 Y-15.89315
X-4.40647 Y-16.64882
X-2.99861 Y-17.21233
X-1.51986 Y-17.57085
X0. Y-17.71563
X1.53012 Y-17.64227
X3.03927 Y-17.35081
X4.49639 Y-16.84574
X5.87133 Y-16.13597
X7.13538 Y-15.23467
X8.26193 Y-14.15901
X9.22702 Y-12.92985
X10.00983 Y-11.57134
X10.59313 Y-10.11043
X10.96368 Y-8.57634
X11.1125 Y-7.
X11.04682 Y-5.51435
X10.78281 Y-4.04628
X10.32401 Y-2.62224
X9.67746 Y-1.26804
X8.85362 Y-0.00837
X7.86621 Y1.1336
X6.73196 Y2.13669
X5.47032 Y2.98207
X4.10317 Y3.65364
X2.6544 Y4.13834
X1.1495 Y4.42636
X-0.38487 Y4.51138
X-1.92137 Y4.39068
X-3.43246 Y4.06522
X-4.89091 Y3.53962
X-6.27024 Y2.82216
X-7.54526 Y1.92457
X-8.69252 Y0.86191
X-9.6907 Y-0.34772
X-10.52104 Y-1.68348
X-11.1677 Y-3.12216
X-11.61802 Y-4.63854
X-11.86281 Y-6.20588
X-11.89651 Y-7.79638
X-11.71732 Y-9.38165
X-11.32724 Y-10.93325
X-10.73207 Y-12.42316
X-9.94132 Y-13.82433
X-8.96808 Y-15.11115
X-7.82876 Y-16.2599
X-6.54285 Y-17.24921
X-5.13261 Y-18.06048
X-3.6226 Y-18.67816
X-2.03935 Y-19.09012
X-0.41083 Y-19.28782
X1.23402 Y-19.26654
X2.86581 Y-19.02547
X4.45522 Y-18.56772
X5.97353 Y-17.9003
X7.39313 Y-17.03404
X8.68805 Y-15.98339
X9.83441 Y-14.76616
X10.81085 Y-13.40328
X11.59896 Y-11.91839
X12.1836 Y-10.33744
X12.55321 Y-8.68825
X12.7 Y-7.
X12.63463 Y-5.4355
X12.37679 Y-3.88711
X11.92947 Y-2.3785
X11.29855 Y-0.93281
X10.49273 Y0.42765
X9.52343 Y1.68175
X8.40461 Y2.80991
X7.15258 Y3.79433
X5.78575 Y4.61935
X4.32436 Y5.27164
X2.7902 Y5.74045
X1.20627 Y6.01776
X-0.40356 Y6.09844
X-2.01492 Y5.98033
X-3.6033 Y5.66427
X-5.14441 Y5.15414
X-6.61458 Y4.45679
X-7.99111 Y3.58194
X-9.25261 Y2.54207
X-10.37934 Y1.35222
X-11.35353 Y0.0298
X-12.15963 Y-1.40569
X-12.78461 Y-2.93293
X-13.2181 Y-4.52911
X-13.45262 Y-6.17027
X-13.48369 Y-7.83165
X-13.30989 Y-9.48805
X-12.93292 Y-11.11426
X-12.35758 Y-12.68539
X-11.59171 Y-14.17729
X-10.6461 Y-15.56689
X-9.53431 Y-16.83258
X-8.27249 Y-17.95455
X-6.87917 Y-18.91507
X-5.37494 Y-19.69879
X-3.78218 Y-20.293
X-2.12474 Y-20.68779
X-0.42753 Y-20.87626
X1.28382 Y-20.85462
X2.98332 Y-20.62225
X4.64506 Y-20.18174
X6.24361 Y-19.53887
X7.75436 Y-18.70251
X9.15394 Y-17.68453
X10.42057 Y-16.49961
X11.53438 Y-15.16502
X12.47776 Y-13.70042
X13.23562 Y-12.12751
X13.7956 Y-10.46974
X14.14831 Y-8.75194
X14.2875 Y-7.
X14.22009 Y-5.33791
X13.95959 Y-3.69152
X13.50873 Y-2.08323
X12.87286 Y-0.53501
X12.05984 Y0.93188
X11.07998 Y2.29721
X9.9459 Y3.54203
X8.67234 Y4.64898
X7.27604 Y5.60247
X5.77543 Y6.38895
X4.19045 Y6.99707
X2.54226 Y7.41786
X0.85296 Y7.64485
X-0.85468 Y7.6742
X-2.55757 Y7.50471
X-4.23261 Y7.13788
X-5.85694 Y6.5779
X-7.40833 Y5.83161
X-8.86546 Y4.90837
X-10.20816 Y3.82002
X-11.41779 Y2.58066
X-12.47739 Y1.20651
X-13.37202 Y-0.28433
X-14.08887 Y-1.87208
X-14.61752 Y-3.53559
X-14.95008 Y-5.25259
X-15.08125 Y-7.
X-15.00848 Y-8.75424
X-14.73195 Y-10.49154
X-14.25462 Y-12.18826
X-13.58218 Y-13.82123
X-12.72301 Y-15.36806
X-11.68803 Y-16.80742
X-10.4906 Y-18.11939
X-9.14634 Y-19.28567
X-7.94188 Y-20.10658
G03 X7.94187 Y6.10657 I7.94188 J13.10658
X-7.94188 Y-20.10658 I-7.94187 J-13.10657
G0 Z40.
X0. Y-7.
G1 Z-3. F1002.5
X0.07223 Y-6.97772 F4010.
X0.12492 Y-6.91483
X0.1414 Y-6.8227
X0.11047 Y-6.71852
X0.02824 Y-6.62308
X-0.10093 Y-6.5578
X-0.26459 Y-6.54173
X-0.44332 Y-6.58866
X-0.61298 Y-6.70481
X-0.74751 Y-6.88733
X-0.82226 Y-7.12394
X-0.81731 Y-7.3936
X-0.7204 Y-7.66843
X-0.52917 Y-7.91655
X-0.25233 Y-8.1055
X0.09039 Y-8.20614
X0.4695 Y-8.19629
X0.84839 Y-8.06385
X1.18673 Y-7.8091
X1.44473 Y-7.44565
X1.5875 Y-7.
X1.57464 Y-6.42688
X1.35121 Y-5.8662
X0.92604 Y-5.39605
X0.33692 Y-5.0892
X-0.35224 Y-5.00235
X-1.05833 Y-5.16692
X-1.68902 Y-5.58275
X-2.15477 Y-6.21573
X-2.38125 Y-7.
X-2.32052 Y-7.8446
X-1.95927 Y-8.64402
X-1.32292 Y-9.29136
X-0.47476 Y-9.69249
X0.49007 Y-9.77935
X1.45521 Y-9.5205
X2.29707 Y-8.92747
X2.90065 Y-8.05575
X3.175 Y-7.
X3.14202 Y-6.22556
X2.91945 Y-5.46776
X2.51363 Y-4.77312
X1.94234 Y-4.18603
X1.23412 Y-3.74588
X0.42686 Y-3.48448
X-0.43422 Y-3.42386
X-1.29908 Y-3.57461
X-2.11577 Y-3.93478
X-2.83355 Y-4.4897
X-3.40603 Y-5.21238
X-3.79414 Y-6.06483
X-3.96875 Y-7.
X-3.91271 Y-7.9644
X-3.62228 Y-8.90112
X-3.10776 Y-9.75324
X-2.39325 Y-10.46722
X-1.5156 Y-10.9963
X-0.52254 Y-11.30349
X0.5299 Y-11.3641
X1.58055 Y-11.16757
X2.56667 Y-10.71847
X3.42767 Y-10.03666
X4.10885 Y-9.1565
X4.56482 Y-8.12513
X4.7625 Y-7.
X4.71517 Y-6.03101
X4.47065 Y-5.08149
X4.03498 Y-4.19157
X3.42233 Y-3.39971
X2.65463 Y-2.74104
X1.76075 Y-2.24583
X0.77545 Y-1.93809
X-0.26197 Y-1.83446
X-1.30926 Y-1.94336
X-2.3229 Y-2.26445
X-3.25996 Y-2.78848
X-4.07986 Y-3.49756
X-4.74615 Y-4.36567
X-5.22815 Y-5.35966
X-5.50227 Y-6.44048
X-5.55322 Y-7.56471
X-5.37473 Y-8.68633
X-4.97003 Y-9.75859
X-4.35185 Y-10.73594
X-3.54207 Y-11.57598
X-2.57098 Y-12.2413
X-1.47612 Y-12.70112
X-0.30087 Y-12.9327
X0.90728 Y-12.92244
X2.09867 Y-12.6666
X3.22348 Y-12.1716
X4.23381 Y-11.45397
X5.08575 Y-10.53979
X5.74126 Y-9.46377
X6.16985 Y-8.26794
X6.35 Y-7.
X6.29695 Y-5.88968
X6.04992 Y-4.79801
X5.61383 Y-3.75886
X4.9995 Y-2.80492
X4.22342 Y-1.96672
X3.30729 Y-1.27161
X2.2774 Y-0.74289
X1.16392 Y-0.39905
X0. Y-0.25313
X-1.17924 Y-0.3122
X-2.33773 Y-0.57714
X-3.43959 Y-1.04247
X-4.45019 Y-1.69648
X-5.33731 Y-2.52147
X-6.0721 Y-3.49427
X-6.63006 Y-4.58686
X-6.9918 Y-5.76716
X-7.14375 Y-7.
X-7.07865 Y-8.24816
X-6.79581 Y-9.47347
X-6.30124 Y-10.63802
X-5.60755 Y-11.7053
X-4.73364 Y-12.64134
X-3.70417 Y-13.41581
X-2.54888 Y-14.003
X-1.30176 Y-14.38264
X0. Y-14.54063
X1.31707 Y-14.4695
X2.60921 Y-14.16875
X3.83646 Y-13.64494
X4.9604 Y-12.91158
X5.94535 Y-11.98875
X6.75951 Y-10.90261
X7.37593 Y-9.68462
X7.77348 Y-8.37068
X7.9375 Y-7.
X7.87897 Y-5.7521
X7.6245 Y-4.52265
X7.17845 Y-3.3424
X6.55 Y-2.24115
X5.75297 Y-1.24703
X4.80551 Y-0.38578
X3.72967 Y0.31989
X2.55093 Y0.85097
X1.29757 Y1.19256
X0. Y1.33437
X-1.30999 Y1.27096
X-2.59999 Y1.00195
X-3.83778 Y0.53207
X-4.99214 Y-0.12892
X-6.03361 Y-0.96639
X-6.9353 Y-1.96121
X-7.67352 Y-3.09015
X-8.22842 Y-4.32643
X-8.58456 Y-5.64034
X-8.73125 Y-7.
X-8.66296 Y-8.37208
X-8.3794 Y-9.72264
X-7.88569 Y-11.01796
X-7.19216 Y-12.22541
X-6.31424 Y-13.31425
X-5.27207 Y-14.25638
X-4.09003 Y-15.02714
X-2.79622 Y-15.60588
X-1.42175 Y-15.97655
X0. Y-16.12813
X1.43416 Y-16.05494
X2.84527 Y-15.75686
X4.19813 Y-15.23931
X5.45869 Y-14.51324
X6.59487 Y-13.59488
X7.57745 Y-12.50535
X8.38075 Y-11.27021
X8.98332 Y-9.91886
X9.36853 Y-8.48383
X9.525 Y-7.
X9.46376 Y-5.63932
X9.2084 Y-4.29617
X8.7627 Y-2.99821
X8.13435 Y-1.77237
X7.33485 Y-0.64432
X6.37931 Y0.36211
X5.28614 Y1.2254
X4.07673 Y1.92679
X2.77498 Y2.45073
X1.40689 Y2.78517
X0. Y2.92187
X-1.41717 Y2.85659
X-2.81565 Y2.5892
X-4.16666 Y2.12371
X-5.4422 Y1.46822
X-6.61558 Y0.63479
X-7.66206 Y-0.36079
X-8.55928 Y-1.49929
X-9.28781 Y-2.7584
X-9.83153 Y-4.1132
X-10.17801 Y-5.53663
X-10.31875 Y-7.
X-10.24943 Y-8.47365
X-9.97001 Y-9.92746
X-9.48472 Y-11.33153
X-8.8021 Y-12.65676
X-7.93473 Y-13.87548
X-6.89911 Y-14.962
X-5.71528 Y-15.89315
X-4.40647 Y-16.64882
X-2.99861 Y-17.21233
X-1.51986 Y-17.57085
X0. Y-17.71563
X1.53012 Y-17.64227
X3.03927 Y-17.35081
X4.49639 Y-16.84574
X5.87133 Y-16.13597
X7.13538 Y-15.23467
X8.26193 Y-14.15901
X9.22702 Y-12.92985
X10.00983 Y-11.57134
X10.59313 Y-10.11043
X10.96368 Y-8.57634
X11.1125 Y-7.
X11.04682 Y-5.51435
X10.78281 Y-4.04628
X10.32401 Y-2.62224
X9.67746 Y-1.26804
X8.85362 Y-0.00837
X7.86621 Y1.1336
X6.73196 Y2.13669
X5.47032 Y2.98207
X4.10317 Y3.65364
X2.6544 Y4.13834
X1.1495 Y4.42636
X-0.38487 Y4.51138
X-1.92137 Y4.39068
X-3.43246 Y4.06522
X-4.89091 Y3.53962
X-6.27024 Y2.82216
X-7.54526 Y1.92457
X-8.69252 Y0.86191
X-9.6907 Y-0.34772
X-10.52104 Y-1.68348
X-11.1677 Y-3.12216
X-11.61802 Y-4.63854
X-11.86281 Y-6.20588
X-11.89651 Y-7.79638
X-11.71732 Y-9.38165
X-11.32724 Y-10.93325
X-10.73207 Y-12.42316
X-9.94132 Y-13.82433
X-8.96808 Y-15.11115
X-7.82876 Y-16.2599
X-6.54285 Y-17.24921
X-5.13261 Y-18.06048
X-3.6226 Y-18.67816
X-2.03935 Y-19.09012
X-0.41083 Y-19.28782
X1.23402 Y-19.26654
X2.86581 Y-19.02547
X4.45522 Y-18.56772
X5.97353 Y-17.9003
X7.39313 Y-17.03404
X8.68805 Y-15.98339
X9.83441 Y-14.76616
X10.81085 Y-13.40328
X11.59896 Y-11.91839
X12.1836 Y-10.33744
X12.55321 Y-8.68825
X12.7 Y-7.
X12.63463 Y-5.4355
X12.37679 Y-3.88711
X11.92947 Y-2.3785
X11.29855 Y-0.93281
X10.49273 Y0.42765
X9.52343 Y1.68175
X8.40461 Y2.80991
X7.15258 Y3.79433
X5.78575 Y4.61935
X4.32436 Y5.27164
X2.7902 Y5.74045
X1.20627 Y6.01776
X-0.40356 Y6.09844
X-2.01492 Y5.98033
X-3.6033 Y5.66427
X-5.14441 Y5.15414
X-6.61458 Y4.45679
X-7.99111 Y3.58194
X-9.25261 Y2.54207
X-10.37934 Y1.35222
X-11.35353 Y0.0298
X-12.15963 Y-1.40569
X-12.78461 Y-2.93293
X-13.2181 Y-4.52911
X-13.45262 Y-6.17027
X-13.48369 Y-7.83165
X-13.30989 Y-9.48805
X-12.93292 Y-11.11426
X-12.35758 Y-12.68539
X-11.59171 Y-14.17729
X-10.6461 Y-15.56689
X-9.53431 Y-16.83258
X-8.27249 Y-17.95455
X-6.87917 Y-18.91507
X-5.37494 Y-19.69879
X-3.78218 Y-20.293
X-2.12474 Y-20.68779
X-0.42753 Y-20.87626
X1.28382 Y-20.85462
X2.98332 Y-20.62225
X4.64506 Y-20.18174
X6.24361 Y-19.53887
X7.75436 Y-18.70251
X9.15394 Y-17.68453
X10.42057 Y-16.49961
X11.53438 Y-15.16502
X12.47776 Y-13.70042
X13.23562 Y-12.12751
X13.7956 Y-10.46974
X14.14831 Y-8.75194
X14.2875 Y-7.
X14.22009 Y-5.33791
X13.95959 Y-3.69152
X13.50873 Y-2.08323
X12.87286 Y-0.53501
X12.05984 Y0.93188
X11.07998 Y2.29721
X9.9459 Y3.54203
X8.67234 Y4.64898
X7.27604 Y5.60247
X5.77543 Y6.38895
X4.19045 Y6.99707
X2.54226 Y7.41786
X0.85296 Y7.64485
X-0.85468 Y7.6742
X-2.55757 Y7.50471
X-4.23261 Y7.13788
X-5.85694 Y6.5779
X-7.40833 Y5.83161
X-8.86546 Y4.90837
X-10.20816 Y3.82002
X-11.41779 Y2.58066
X-12.47739 Y1.20651
X-13.37202 Y-0.28433
X-14.08887 Y-1.87208
X-14.61752 Y-3.53559
X-14.95008 Y-5.25259
X-15.08125 Y-7.
X-15.00848 Y-8.75424
X-14.73195 Y-10.49154
X-14.25462 Y-12.18826
X-13.58218 Y-13.82123
X-12.72301 Y-15.36806
X-11.68803 Y-16.80742
X-10.4906 Y-18.11939
X-9.14634 Y-19.28567
X-7.94188 Y-20.10658
G03 X7.94187 Y6.10657 I7.94188 J13.10658
X-7.94188 Y-20.10658 I-7.94187 J-13.10657
G0 Z40.
X0. Y-7.
G1 Z-4. F1002.5
X0.07223 Y-6.97772 F4010.
X0.12492 Y-6.91483
X0.1414 Y-6.8227
X0.11047 Y-6.71852
X0.02824 Y-6.62308
X-0.10093 Y-6.5578
X-0.26459 Y-6.54173
X-0.44332 Y-6.58866
X-0.61298 Y-6.70481
X-0.74751 Y-6.88733
X-0.82226 Y-7.12394
X-0.81731 Y-7.3936
X-0.7204 Y-7.66843
X-0.52917 Y-7.91655
X-0.25233 Y-8.1055
X0.09039 Y-8.20614
X0.4695 Y-8.19629
X0.84839 Y-8.06385
X1.18673 Y-7.8091
X1.44473 Y-7.44565
X1.5875 Y-7.
X1.57464 Y-6.42688
X1.35121 Y-5.8662
X0.92604 Y-5.39605
X0.33692 Y-5.0892
X-0.35224 Y-5.00235
X-1.05833 Y-5.16692
X-1.68902 Y-5.58275
X-2.15477 Y-6.21573
X-2.38125 Y-7.
X-2.32052 Y-7.8446
X-1.95927 Y-8.64402
X-1.32292 Y-9.29136
X-0.47476 Y-9.69249
X0.49007 Y-9.77935
X1.45521 Y-9.5205
X2.29707 Y-8.92747
X2.90065 Y-8.05575
X3.175 Y-7.
X3.14202 Y-6.22556
X2.91945 Y-5.46776
X2.51363 Y-4.77312
X1.94234 Y-4.18603
X1.23412 Y-3.74588
X0.42686 Y-3.48448
X-0.43422 Y-3.42386
X-1.29908 Y-3.57461
X-2.11577 Y-3.93478
X-2.83355 Y-4.4897
X-3.40603 Y-5.21238
X-3.79414 Y-6.06483
X-3.96875 Y-7.
X-3.91271 Y-7.9644
X-3.62228 Y-8.90112
X-3.10776 Y-9.75324
X-2.39325 Y-10.46722
X-1.5156 Y-10.9963
X-0.52254 Y-11.30349
X0.5299 Y-11.3641
X1.58055 Y-11.16757
X2.56667 Y-10.71847
X3.42767 Y-10.03666
X4.10885 Y-9.1565
X4.56482 Y-8.12513
X4.7625 Y-7.
X4.71517 Y-6.03101
X4.47065 Y-5.08149
X4.03498 Y-4.19157
X3.42233 Y-3.39971
X2.65463 Y-2.74104
X1.76075 Y-2.24583
X0.77545 Y-1.93809
X-0.26197 Y-1.83446
X-1.30926 Y-1.94336
X-2.3229 Y-2.26445
X-3.25996 Y-2.78848
X-4.07986 Y-3.49756
X-4.74615 Y-4.36567
X-5.22815 Y-5.35966
X-5.50227 Y-6.44048
X-5.55322 Y-7.56471
X-5.37473 Y-8.68633
X-4.97003 Y-9.75859
X-4.35185 Y-10.73594
X-3.54207 Y-11.57598
X-2.57098 Y-12.2413
X-1.47612 Y-12.70112
X-0.30087 Y-12.9327
X0.90728 Y-12.92244
X2.09867 Y-12.6666
X3.22348 Y-12.1716
X4.23381 Y-11.45397
X5.08575 Y-10.53979
X5.74126 Y-9.46377
X6.16985 Y-8.26794
X6.35 Y-7.
X6.29695 Y-5.88968
X6.04992 Y-4.79801
X5.61383 Y-3.75886
X4.9995 Y-2.80492
X4.22342 Y-1.96672
X3.30729 Y-1.27161
X2.2774 Y-0.74289
X1.16392 Y-0.39905
X0. Y-0.25313
X-1.17924 Y-0.3122
X-2.33773 Y-0.57714
X-3.43959 Y-1.04247
X-4.45019 Y-1.69648
X-5.33731 Y-2.52147
X-6.0721 Y-3.49427
X-6.63006 Y-4.58686
X-6.9918 Y-5.76716
X-7.14375 Y-7.
X-7.07865 Y-8.24816
X-6.79581 Y-9.47347
X-6.30124 Y-10.63802
X-5.60755 Y-11.7053
X-4.73364 Y-12.64134
X-3.70417 Y-13.41581
X-2.54888 Y-14.003
X-1.30176 Y-14.38264
X0. Y-14.54063
X1.31707 Y-14.4695
X2.60921 Y-14.16875
X3.83646 Y-13.64494
X4.9604 Y-12.91158
X5.94535 Y-11.98875
X6.75951 Y-10.90261
X7.37593 Y-9.68462
X7.77348 Y-8.37068
X7.9375 Y-7.
X7.87897 Y-5.7521
X7.6245 Y-4.52265
X7.17845 Y-3.3424
X6.55 Y-2.24115
X5.75297 Y-1.24703
X4.80551 Y-0.38578
X3.72967 Y0.31989
X2.55093 Y0.85097
X1.29757 Y1.19256
X0. Y1.33437
X-1.30999 Y1.27096
X-2.59999 Y1.00195
X-3.83778 Y0.53207
X-4.99214 Y-0.12892
X-6.03361 Y-0.96639
X-6.9353 Y-1.96121
X-7.67352 Y-3.09015
X-8.22842 Y-4.32643
X-8.58456 Y-5.64034
X-8.73125 Y-7.
X-8.66296 Y-8.37208
X-8.3794 Y-9.72264
X-7.88569 Y-11.01796
X-7.19216 Y-12.22541
X-6.31424 Y-13.31425
X-5.27207 Y-14.25638
X-4.09003 Y-15.02714
X-2.79622 Y-15.60588
X-1.42175 Y-15.97655
X0. Y-16.12813
X1.43416 Y-16.05494
X2.84527 Y-15.75686
X4.19813 Y-15.23931
X5.45869 Y-14.51324
X6.59487 Y-13.59488
X7.57745 Y-12.50535
X8.38075 Y-11.27021
X8.98332 Y-9.91886
X9.36853 Y-8.48383
X9.525 Y-7.
X9.46376 Y-5.63932
X9.2084 Y-4.29617
X8.7627 Y-2.99821
X8.13435 Y-1.77237
X7.33485 Y-0.64432
X6.37931 Y0.36211
X5.28614 Y1.2254
X4.07673 Y1.92679
X2.77498 Y2.45073
X1.40689 Y2.78517
X0. Y2.92187
X-1.41717 Y2.85659
X-2.81565 Y2.5892
X-4.16666 Y2.12371
X-5.4422 Y1.46822
X-6.61558 Y0.63479
X-7.66206 Y-0.36079
X-8.55928 Y-1.49929
X-9.28781 Y-2.7584
X-9.83153 Y-4.1132
X-10.17801 Y-5.53663
X-10.31875 Y-7.
X-10.24943 Y-8.47365
X-9.97001 Y-9.92746
X-9.48472 Y-11.33153
X-8.8021 Y-12.65676
X-7.93473 Y-13.87548
X-6.89911 Y-14.962
X-5.71528 Y-15.89315
X-4.40647 Y-16.64882
X-2.99861 Y-17.21233
X-1.51986 Y-17.57085
X0. Y-17.71563
X1.53012 Y-17.64227
X3.03927 Y-17.35081
X4.49639 Y-16.84574
X5.87133 Y-16.13597
X7.13538 Y-15.23467
X8.26193 Y-14.15901
X9.22702 Y-12.92985
X10.00983 Y-11.57134
X10.59313 Y-10.11043
X10.96368 Y-8.57634
X11.1125 Y-7.
X11.04682 Y-5.51435
X10.78281 Y-4.04628
X10.32401 Y-2.62224
X9.67746 Y-1.26804
X8.85362 Y-0.00837
X7.86621 Y1.1336
X6.73196 Y2.13669
X5.47032 Y2.98207
X4.10317 Y3.65364
X2.6544 Y4.13834
X1.1495 Y4.42636
X-0.38487 Y4.51138
X-1.92137 Y4.39068
X-3.43246 Y4.06522
X-4.89091 Y3.53962
X-6.27024 Y2.82216
X-7.54526 Y1.92457
X-8.69252 Y0.86191
X-9.6907 Y-0.34772
X-10.52104 Y-1.68348
X-11.1677 Y-3.12216
X-11.61802 Y-4.63854
X-11.86281 Y-6.20588
X-11.89651 Y-7.79638
X-11.71732 Y-9.38165
X-11.32724 Y-10.93325
X-10.73207 Y-12.42316
X-9.94132 Y-13.82433
X-8.96808 Y-15.11115
X-7.82876 Y-16.2599
X-6.54285 Y-17.24921
X-5.13261 Y-18.06048
X-3.6226 Y-18.67816
X-2.03935 Y-19.09012
X-0.41083 Y-19.28782
X1.23402 Y-19.26654
X2.86581 Y-19.02547
X4.45522 Y-18.56772
X5.97353 Y-17.9003
X7.39313 Y-17.03404
X8.68805 Y-15.98339
X9.83441 Y-14.76616
X10.81085 Y-13.40328
X11.59896 Y-11.91839
X12.1836 Y-10.33744
X12.55321 Y-8.68825
X12.7 Y-7.
X12.63463 Y-5.4355
X12.37679 Y-3.88711
X11.92947 Y-2.3785
X11.29855 Y-0.93281
X10.49273 Y0.42765
X9.52343 Y1.68175
X8.40461 Y2.80991
X7.15258 Y3.79433
X5.78575 Y4.61935
X4.32436 Y5.27164
X2.7902 Y5.74045
X1.20627 Y6.01776
X-0.40356 Y6.09844
X-2.01492 Y5.98033
X-3.6033 Y5.66427
X-5.14441 Y5.15414
X-6.61458 Y4.45679
X-7.99111 Y3.58194
X-9.25261 Y2.54207
X-10.37934 Y1.35222
X-11.35353 Y0.0298
X-12.15963 Y-1.40569
X-12.78461 Y-2.93293
X-13.2181 Y-4.52911
X-13.45262 Y-6.17027
X-13.48369 Y-7.83165
X-13.30989 Y-9.48805
X-12.93292 Y-11.11426
X-12.35758 Y-12.68539
X-11.59171 Y-14.17729
X-10.6461 Y-15.56689
X-9.53431 Y-16.83258
X-8.27249 Y-17.95455
X-6.87917 Y-18.91507
X-5.37494 Y-19.69879
X-3.78218 Y-20.293
X-2.12474 Y-20.68779
X-0.42753 Y-20.87626
X1.28382 Y-20.85462
X2.98332 Y-20.62225
X4.64506 Y-20.18174
X6.24361 Y-19.53887
X7.75436 Y-18.70251
X9.15394 Y-17.68453
X10.42057 Y-16.49961
X11.53438 Y-15.16502
X12.47776 Y-13.70042
X13.23562 Y-12.12751
X13.7956 Y-10.46974
X14.14831 Y-8.75194
X14.2875 Y-7.
X14.22009 Y-5.33791
X13.95959 Y-3.69152
X13.50873 Y-2.08323
X12.87286 Y-0.53501
X12.05984 Y0.93188
X11.07998 Y2.29721
X9.9459 Y3.54203
X8.67234 Y4.64898
X7.27604 Y5.60247
X5.77543 Y6.38895
X4.19045 Y6.99707
X2.54226 Y7.41786
X0.85296 Y7.64485
X-0.85468 Y7.6742
X-2.55757 Y7.50471
X-4.23261 Y7.13788
X-5.85694 Y6.5779
X-7.40833 Y5.83161
X-8.86546 Y4.90837
X-10.20816 Y3.82002
X-11.41779 Y2.58066
X-12.47739 Y1.20651
X-13.37202 Y-0.28433
X-14.08887 Y-1.87208
X-14.61752 Y-3.53559
X-14.95008 Y-5.25259
X-15.08125 Y-7.
X-15.00848 Y-8.75424
X-14.73195 Y-10.49154
X-14.25462 Y-12.18826
X-13.58218 Y-13.82123
X-12.72301 Y-15.36806
X-11.68803 Y-16.80742
X-10.4906 Y-18.11939
X-9.14634 Y-19.28567
X-7.94188 Y-20.10658
G03 X7.94187 Y6.10657 I7.94188 J13.10658
X-7.94188 Y-20.10658 I-7.94187 J-13.10657
G0 Z40.
X0. Y-7.
G1 Z-5. F1002.5
X0.07223 Y-6.97772 F4010.
X0.12492 Y-6.91483
X0.1414 Y-6.8227
X0.11047 Y-6.71852
X0.02824 Y-6.62308
X-0.10093 Y-6.5578
X-0.26459 Y-6.54173
X-0.44332 Y-6.58866
X-0.61298 Y-6.70481
X-0.74751 Y-6.88733
X-0.82226 Y-7.12394
X-0.81731 Y-7.3936
X-0.7204 Y-7.66843
X-0.52917 Y-7.91655
X-0.25233 Y-8.1055
X0.09039 Y-8.20614
X0.4695 Y-8.19629
X0.84839 Y-8.06385
X1.18673 Y-7.8091
X1.44473 Y-7.44565
X1.5875 Y-7.
X1.57464 Y-6.42688
X1.35121 Y-5.8662
X0.92604 Y-5.39605
X0.33692 Y-5.0892
X-0.35224 Y-5.00235
X-1.05833 Y-5.16692
X-1.68902 Y-5.58275
X-2.15477 Y-6.21573
X-2.38125 Y-7.
X-2.32052 Y-7.8446
X-1.95927 Y-8.64402
X-1.32292 Y-9.29136
X-0.47476 Y-9.69249
X0.49007 Y-9.77935
X1.45521 Y-9.5205
X2.29707 Y-8.92747
X2.90065 Y-8.05575
X3.175 Y-7.
X3.14202 Y-6.22556
X2.91945 Y-5.46776
X2.51363 Y-4.77312
X1.94234 Y-4.18603
X1.23412 Y-3.74588
X0.42686 Y-3.48448
X-0.43422 Y-3.42386
X-1.29908 Y-3.57461
X-2.11577 Y-3.93478
X-2.83355 Y-4.4897
X-3.40603 Y-5.21238
X-3.79414 Y-6.06483
X-3.96875 Y-7.
X-3.91271 Y-7.9644
X-3.62228 Y-8.90112
X-3.10776 Y-9.75324
X-2.39325 Y-10.46722
X-1.5156 Y-10.9963
X-0.52254 Y-11.30349
X0.5299 Y-11.3641
X1.58055 Y-11.16757
X2.56667 Y-10.71847
X3.42767 Y-10.03666
X4.10885 Y-9.1565
X4.56482 Y-8.12513
X4.7625 Y-7.
X4.71517 Y-6.03101
X4.47065 Y-5.08149
X4.03498 Y-4.19157
X3.42233 Y-3.39971
X2.65463 Y-2.74104
X1.76075 Y-2.24583
X0.77545 Y-1.93809
X-0.26197 Y-1.83446
X-1.30926 Y-1.94336
X-2.3229 Y-2.26445
X-3.25996 Y-2.78848
X-4.07986 Y-3.49756
X-4.74615 Y-4.36567
X-5.22815 Y-5.35966
X-5.50227 Y-6.44048
X-5.55322 Y-7.56471
X-5.37473 Y-8.68633
X-4.97003 Y-9.75859
X-4.35185 Y-10.73594
X-3.54207 Y-11.57598
X-2.57098 Y-12.2413
X-1.47612 Y-12.70112
X-0.30087 Y-12.9327
X0.90728 Y-12.92244
X2.09867 Y-12.6666
X3.22348 Y-12.1716
X4.23381 Y-11.45397
X5.08575 Y-10.53979
X5.74126 Y-9.46377
X6.16985 Y-8.26794
X6.35 Y-7.
X6.29695 Y-5.88968
X6.04992 Y-4.79801
X5.61383 Y-3.75886
X4.9995 Y-2.80492
X4.22342 Y-1.96672
X3.30729 Y-1.27161
X2.2774 Y-0.74289
X1.16392 Y-0.39905
X0. Y-0.25313
X-1.17924 Y-0.3122
X-2.33773 Y-0.57714
X-3.43959 Y-1.04247
X-4.45019 Y-1.69648
X-5.33731 Y-2.52147
X-6.0721 Y-3.49427
X-6.63006 Y-4.58686
X-6.9918 Y-5.76716
X-7.14375 Y-7.
X-7.07865 Y-8.24816
X-6.79581 Y-9.47347
X-6.30124 Y-10.63802
X-5.60755 Y-11.7053
X-4.73364 Y-12.64134
X-3.70417 Y-13.41581
X-2.54888 Y-14.003
X-1.30176 Y-14.38264
X0. Y-14.54063
X1.31707 Y-14.4695
X2.60921 Y-14.16875
X3.83646 Y-13.64494
X4.9604 Y-12.91158
X5.94535 Y-11.98875
X6.75951 Y-10.90261
X7.37593 Y-9.68462
X7.77348 Y-8.37068
X7.9375 Y-7.
X7.87897 Y-5.7521
X7.6245 Y-4.52265
X7.17845 Y-3.3424
X6.55 Y-2.24115
X5.75297 Y-1.24703
X4.80551 Y-0.38578
X3.72967 Y0.31989
X2.55093 Y0.85097
X1.29757 Y1.19256
X0. Y1.33437
X-1.30999 Y1.27096
X-2.59999 Y1.00195
X-3.83778 Y0.53207
X-4.99214 Y-0.12892
X-6.03361 Y-0.96639
X-6.9353 Y-1.96121
X-7.67352 Y-3.09015
X-8.22842 Y-4.32643
X-8.58456 Y-5.64034
X-8.73125 Y-7.
X-8.66296 Y-8.37208
X-8.3794 Y-9.72264
X-7.88569 Y-11.01796
X-7.19216 Y-12.22541
X-6.31424 Y-13.31425
X-5.27207 Y-14.25638
X-4.09003 Y-15.02714
X-2.79622 Y-15.60588
X-1.42175 Y-15.97655
X0. Y-16.12813
X1.43416 Y-16.05494
X2.84527 Y-15.75686
X4.19813 Y-15.23931
X5.45869 Y-14.51324
X6.59487 Y-13.59488
X7.57745 Y-12.50535
X8.38075 Y-11.27021
X8.98332 Y-9.91886
X9.36853 Y-8.48383
X9.525 Y-7.
X9.46376 Y-5.63932
X9.2084 Y-4.29617
X8.7627 Y-2.99821
X8.13435 Y-1.77237
X7.33485 Y-0.64432
X6.37931 Y0.36211
X5.28614 Y1.2254
X4.07673 Y1.92679
X2.77498 Y2.45073
X1.40689 Y2.78517
X0. Y2.92187
X-1.41717 Y2.85659
X-2.81565 Y2.5892
X-4.16666 Y2.12371
X-5.4422 Y1.46822
X-6.61558 Y0.63479
X-7.66206 Y-0.36079
X-8.55928 Y-1.49929
X-9.28781 Y-2.7584
X-9.83153 Y-4.1132
X-10.17801 Y-5.53663
X-10.31875 Y-7.
X-10.24943 Y-8.47365
X-9.97001 Y-9.92746
X-9.48472 Y-11.33153
X-8.8021 Y-12.65676
X-7.93473 Y-13.87548
X-6.89911 Y-14.962
X-5.71528 Y-15.89315
X-4.40647 Y-16.64882
X-2.99861 Y-17.21233
X-1.51986 Y-17.57085
X0. Y-17.71563
X1.53012 Y-17.64227
X3.03927 Y-17.35081
X4.49639 Y-16.84574
X5.87133 Y-16.13597
X7.13538 Y-15.23467
X8.26193 Y-14.15901
X9.22702 Y-12.92985
X10.00983 Y-11.57134
X10.59313 Y-10.11043
X10.96368 Y-8.57634
X11.1125 Y-7.
X11.04682 Y-5.51435
X10.78281 Y-4.04628
X10.32401 Y-2.62224
X9.67746 Y-1.26804
X8.85362 Y-0.00837
X7.86621 Y1.1336
X6.73196 Y2.13669
X5.47032 Y2.98207
X4.10317 Y3.65364
X2.6544 Y4.13834
X1.1495 Y4.42636
X-0.38487 Y4.51138
X-1.92137 Y4.39068
X-3.43246 Y4.06522
X-4.89091 Y3.53962
X-6.27024 Y2.82216
X-7.54526 Y1.92457
X-8.69252 Y0.86191
X-9.6907 Y-0.34772
X-10.52104 Y-1.68348
X-11.1677 Y-3.12216
X-11.61802 Y-4.63854
X-11.86281 Y-6.20588
X-11.89651 Y-7.79638
X-11.71732 Y-9.38165
X-11.32724 Y-10.93325
X-10.73207 Y-12.42316
X-9.94132 Y-13.82433
X-8.96808 Y-15.11115
X-7.82876 Y-16.2599
X-6.54285 Y-17.24921
X-5.13261 Y-18.06048
X-3.6226 Y-18.67816
X-2.03935 Y-19.09012
X-0.41083 Y-19.28782
X1.23402 Y-19.26654
X2.86581 Y-19.02547
X4.45522 Y-18.56772
X5.97353 Y-17.9003
X7.39313 Y-17.03404
X8.68805 Y-15.98339
X9.83441 Y-14.76616
X10.81085 Y-13.40328
X11.59896 Y-11.91839
X12.1836 Y-10.33744
X12.55321 Y-8.68825
X12.7 Y-7.
X12.63463 Y-5.4355
X12.37679 Y-3.88711
X11.92947 Y-2.3785
X11.29855 Y-0.93281
X10.49273 Y0.42765
X9.52343 Y1.68175
X8.40461 Y2.80991
X7.15258 Y3.79433
X5.78575 Y4.61935
X4.32436 Y5.27164
X2.7902 Y5.74045
X1.20627 Y6.01776
X-0.40356 Y6.09844
X-2.01492 Y5.98033
X-3.6033 Y5.66427
X-5.14441 Y5.15414
X-6.61458 Y4.45679
X-7.99111 Y3.58194
X-9.25261 Y2.54207
X-10.37934 Y1.35222
X-11.35353 Y0.0298
X-12.15963 Y-1.40569
X-12.78461 Y-2.93293
X-13.2181 Y-4.52911
X-13.45262 Y-6.17027
X-13.48369 Y-7.83165
X-13.30989 Y-9.48805
X-12.93292 Y-11.11426
X-12.35758 Y-12.68539
X-11.59171 Y-14.17729
X-10.6461 Y-15.56689
X-9.53431 Y-16.83258
X-8.27249 Y-17.95455
X-6.87917 Y-18.91507
X-5.37494 Y-19.69879
X-3.78218 Y-20.293
X-2.12474 Y-20.68779
X-0.42753 Y-20.87626
X1.28382 Y-20.85462
X2.98332 Y-20.62225
X4.64506 Y-20.18174
X6.24361 Y-19.53887
X7.75436 Y-18.70251
X9.15394 Y-17.68453
X10.42057 Y-16.49961
X11.53438 Y-15.16502
X12.47776 Y-13.70042
X13.23562 Y-12.12751
X13.7956 Y-10.46974
X14.14831 Y-8.75194
X14.2875 Y-7.
X14.22009 Y-5.33791
X13.95959 Y-3.69152
X13.50873 Y-2.08323
X12.87286 Y-0.53501
X12.05984 Y0.93188
X11.07998 Y2.29721
X9.9459 Y3.54203
X8.67234 Y4.64898
X7.27604 Y5.60247
X5.77543 Y6.38895
X4.19045 Y6.99707
X2.54226 Y7.41786
X0.85296 Y7.64485
X-0.85468 Y7.6742
X-2.55757 Y7.50471
X-4.23261 Y7.13788
X-5.85694 Y6.5779
X-7.40833 Y5.83161
X-8.86546 Y4.90837
X-10.20816 Y3.82002
X-11.41779 Y2.58066
X-12.47739 Y1.20651
X-13.37202 Y-0.28433
X-14.08887 Y-1.87208
X-14.61752 Y-3.53559
X-14.95008 Y-5.25259
X-15.08125 Y-7.
X-15.00848 Y-8.75424
X-14.73195 Y-10.49154
X-14.25462 Y-12.18826
X-13.58218 Y-13.82123
X-12.72301 Y-15.36806
X-11.68803 Y-16.80742
X-10.4906 Y-18.11939
X-9.14634 Y-19.28567
X-7.94188 Y-20.10658
G03 X7.94187 Y6.10657 I7.94188 J13.10658
X-7.94188 Y-20.10658 I-7.94187 J-13.10657
G1 X-8.49337 Y-19.20057 Z-3.93934 F5000.
Z-3.33934
G0 Z40.
(2 1/2 Axis Profiling)
(Endmill 1/4in 6.35mm Carbide Roughing)
X6.96107 Y-7.36271
G1 Z-5. F1002.5
X9.87759 Y-1.7221 F3007.5
G03 X7.15351 Y6.83502 I-5.6406 J2.91652
X-7.15351 Y-20.83503 I-7.15351 J-13.83502 F4010.
X7.15351 Y6.83502 I7.15351 J13.83503
G02 X7.21092 Y6.94606 I0.0287 J0.05552
G03 X7.26833 Y7.05709 I0.02871 J0.05552
X-7.26834 Y-21.0571 I-7.26833 J-14.05709
X7.26833 Y7.05709 I7.26834 J14.0571
X-1.28879 Y4.33301 I-2.91652 J-5.6406 F5000.
G1 X-4.20531 Y-1.3076
G0 Z40.
(2 1/2 Axis Profiling)
(Endmill 1/4in 6.35mm Carbide Roughing)
X45. Y-66.675
G1 Z-1. F1002.5
X-45. F4010.
G0 Z40.
X45.
G1 Z-2. F1002.5
X-45. F4010.
G0 Z40.
X45.
G1 Z-3. F1002.5
X-45. F4010.
G0 Z40.
X45.
G1 Z-4. F1002.5
X-45. F4010.
G0 Z40.
X45.
G1 Z-5. F1002.5
X-45. F4010.
G0 Z40.
X45.
G1 Z-6. F1002.5
X-45. F4010.
G0 Z40.
X45.
G1 Z-7. F1002.5
X-45. F4010.
G0 Z40.
X45.
G1 Z-8. F1002.5
X-45. F4010.
G0 Z40.
Y66.67499
G1 Z-1. F1002.5
X45. F4010.
G0 Z40.
X-45.
G1 Z-2. F1002.5
X45. F4010.
G0 Z40.
X-45.
G1 Z-3. F1002.5
X45. F4010.
G0 Z40.
X-45.
G1 Z-4. F1002.5
X45. F4010.
G0 Z40.
X-45.
G1 Z-5. F1002.5
X45. F4010.
G0 Z40.
X-45.
G1 Z-6. F1002.5
X45. F4010.
G0 Z40.
X-45.
G1 Z-7. F1002.5
X45. F4010.
G0 Z40.
X-45.
G1 Z-8. F1002.5
X45. F4010.
G0 Z40.
(2 1/2 Axis Profiling-2)
(Endmill 1/4in 6.35mm Carbide Roughing)
Y-66.425
G1 Z-8. F1002.5
X-45. F4010.
G0 Z40.
X45. Y-66.175
G1 Z-8. F1002.5
X-45. F4010.
G0 Z40.
Y66.42499
G1 Z-8. F1002.5
X45. F4010.
G0 Z40.
X-45. Y66.17499
G1 Z-8. F1002.5
X45. F4010.
G0 Z40.
M30
%
