%
G17 G21 G40 G90 G64 P0.1
(2 1/2 Axis Pocketing)
(Endmill 1/4in 6.35mm Carbide Roughing)
T3 M06
S20602 M3
G0 Z3.175
X-24.06225 Y24.95098
G1 Z0.6 F1030.
Z-0.4 F3090.
X-24.12714 Y24.88878 Z-0.41585
X-24.28273 Y24.73774 Z-0.45408
X-24.43737 Y24.58572 Z-0.49232
X-24.59105 Y24.43273 Z-0.53056
X-24.74375 Y24.27877 Z-0.56879
X-24.89548 Y24.12384 Z-0.60703
X-25.04623 Y23.96796 Z-0.64527
X-25.19598 Y23.81113 Z-0.6835
X-25.34475 Y23.65336 Z-0.72174
X-25.49251 Y23.49464 Z-0.75997
X-25.63926 Y23.335 Z-0.79821
X-24.49486 Z-1.
X-25.63926 F4120.
X-24.49486
G17
G02 X-23.29574 Y23.29574 I-0.00004 J-18.335
X-23.335 Y24.4949 I18.29574 J1.19916
G1 Y25.62906
G03 X-25.63926 Y23.335 I23.02027 J-25.42696
G1 Y21.7475
X-29.01456
G02 X-21.7475 Y28.98614 I28.69983 J-21.5454
G1 Y24.4949
G03 X-21.47252 Y21.47252 I16.7475 J0.
X-24.49486 Y21.7475 I-3.02238 J-16.47252
G1 X-25.63926
Y20.16
X-24.49486
G02 X-19.20839 Y19.20839 I-0.00004 J-15.16
X-20.16 Y24.4949 I14.20839 J5.28651
G1 Y31.99064
G03 X-32.03268 Y20.16 I19.84527 J-31.78854
G1 X-25.63926
G0 Z3.175
X0.27423 Y-0.15228
G1 Z0.6 F1030.
Z-0.4 F3090.
X0.30516 Y-0.07815 Z-0.41416
X0.31477 Y0.01205 Z-0.43016
X0.29829 Y0.10125 Z-0.44615
X0.25706 Y0.18206 Z-0.46215
X0.19452 Y0.24777 Z-0.47814
X0.11585 Y0.29293 Z-0.49414
X0.02757 Y0.31379 Z-0.51013
X-0.063 Y0.30864 Z-0.52613
X-0.07664 Y0.30586 Z-0.52858
X-0.09028 Y0.30309 Z-0.53104
X-0.10392 Y0.30032 Z-0.53349
X-0.11756 Y0.29757 Z-0.53595
X-0.13121 Y0.29482 Z-0.5384
X-0.14485 Y0.29207 Z-0.54086
X-0.1585 Y0.28934 Z-0.54331
X-0.17215 Y0.28661 Z-0.54576
X-0.1858 Y0.2839 Z-0.54822
X-0.19946 Y0.28118 Z-0.55067
X-0.21311 Y0.27848 Z-0.55313
X-0.22677 Y0.27579 Z-0.55558
X-0.24042 Y0.2731 Z-0.55803
X-0.25408 Y0.27042 Z-0.56049
X-0.26774 Y0.26775 Z-0.56294
X-0.30864 Y0.063 Z-0.59976
X-0.31149 Y0.04686 Z-0.60265
X-0.31351 Y0.0306 Z-0.60554
X-0.31468 Y0.01426 Z-0.60843
X-0.31499 Y-0.00213 Z-0.61132
X-0.31445 Y-0.0185 Z-0.61421
X-0.31307 Y-0.03483 Z-0.6171
X-0.31083 Y-0.05107 Z-0.61998
X-0.30776 Y-0.06716 Z-0.62287
X-0.30385 Y-0.08307 Z-0.62576
X-0.29912 Y-0.09876 Z-0.62865
X-0.29358 Y-0.11419 Z-0.63154
X-0.28724 Y-0.1293 Z-0.63443
X-0.28013 Y-0.14406 Z-0.63732
X-0.27226 Y-0.15843 Z-0.64021
X-0.26365 Y-0.17238 Z-0.6431
X-0.2036 Y-0.24036 Z-0.65909
X-0.12666 Y-0.28842 Z-0.67509
X-0.03921 Y-0.31255 Z-0.69109
X0.05148 Y-0.31077 Z-0.70708
X0.13791 Y-0.28321 Z-0.72308
X0.2129 Y-0.23217 Z-0.73907
X0.27023 Y-0.16187 Z-0.75507
X0.30516 Y-0.07815 Z-0.77106
X0.31477 Y0.01205 Z-0.78706
X0.29829 Y0.10125 Z-0.80305
X0.25706 Y0.18206 Z-0.81905
X0.19452 Y0.24777 Z-0.83504
X0.11585 Y0.29293 Z-0.85104
X0.02757 Y0.31379 Z-0.86703
X-0.063 Y0.30864 Z-0.88303
X-0.07664 Y0.30586 Z-0.88548
X-0.09028 Y0.30309 Z-0.88794
X-0.10392 Y0.30032 Z-0.89039
X-0.11756 Y0.29757 Z-0.89285
X-0.13121 Y0.29482 Z-0.8953
X-0.14485 Y0.29207 Z-0.89775
X-0.1585 Y0.28934 Z-0.90021
X-0.17215 Y0.28661 Z-0.90266
X-0.1858 Y0.2839 Z-0.90512
X-0.19946 Y0.28118 Z-0.90757
X-0.21311 Y0.27848 Z-0.91003
X-0.22677 Y0.27579 Z-0.91248
X-0.24042 Y0.2731 Z-0.91493
X-0.25408 Y0.27042 Z-0.91739
X-0.26774 Y0.26775 Z-0.91984
X-0.30864 Y0.063 Z-0.95666
X-0.31149 Y0.04686 Z-0.95955
X-0.31351 Y0.0306 Z-0.96244
X-0.31468 Y0.01426 Z-0.96533
X-0.31499 Y-0.00213 Z-0.96822
X-0.31445 Y-0.0185 Z-0.97111
X-0.31307 Y-0.03483 Z-0.974
X-0.31083 Y-0.05107 Z-0.97689
X-0.30776 Y-0.06716 Z-0.97977
X-0.30385 Y-0.08307 Z-0.98266
X-0.29912 Y-0.09876 Z-0.98555
X-0.29358 Y-0.11419 Z-0.98844
X-0.28724 Y-0.1293 Z-0.99133
X-0.28013 Y-0.14406 Z-0.99422
X-0.27226 Y-0.15843 Z-0.99711
X-0.26365 Y-0.17238 Z-1.
G03 X-0.063 Y0.30864 I0.26365 J0.17238 F4120.
G02 X-0.26774 Y0.26775 I-4.937 J24.18626
G1 X-0.30864 Y0.063
G03 X-0.26365 Y-0.17238 I0.30865 J-0.063
G1 X-1.5924 Y-1.04105
G02 X-1.86406 Y0.3805 I1.59241 J1.04105
G03 X-1.6427 Y1.6427 I-22.63084 J4.6195
X-0.3805 Y1.86406 I-3.3573 J22.8522
G02 X-1.59238 Y-1.04107 I0.3805 J-1.86406
X-1.5924 Y-1.04105 I1.59238 J1.04106
G1 X-2.92114 Y-1.90973
G03 X-2.92112 Y-1.90977 I2.92117 J1.90974
X-0.698 Y3.41949 I2.92112 J1.90977
G02 X-3.07152 Y3.07152 I-4.302 J21.07541
X-3.41949 Y0.698 I-21.42338 J1.92848
G03 X-2.92114 Y-1.90973 I3.4195 J-0.698
G1 X-4.24988 Y-2.7784
G02 X-4.97491 Y1.0155 I4.24989 J2.7784
G03 X-4.57689 Y4.57689 I-19.51999 J3.9845
X-1.01549 Y4.97492 I-0.42311 J19.91801
G02 X-4.24985 Y-2.77846 I1.01549 J-4.97492
X-4.24988 Y-2.7784 I4.24988 J2.77846
G1 X-5.57863 Y-3.64708
G03 X-5.57858 Y-3.64716 I5.57863 J3.64707
X-1.333 Y6.53034 I5.57858 J3.64716
G02 X-6.19915 Y6.19915 I-3.667 J17.96456
X-6.53034 Y1.333 I-18.29575 J-1.19915
G03 X-5.57863 Y-3.64708 I6.53035 J-1.333
G1 X-6.90737 Y-4.51576
G02 X-8.08576 Y1.6505 I6.90738 J4.51576
G03 X-8.02238 Y8.02238 I-16.40914 J3.3495
X-1.6505 Y8.08577 I3.02238 J16.47252
G02 X-6.90731 Y-4.51585 I1.6505 J-8.08577
X-6.90737 Y-4.51576 I6.90731 J4.51584
G1 X-8.23611 Y-5.38443
G03 X-8.23604 Y-5.38455 I8.23614 J5.38444
X-1.96799 Y9.64119 I8.23604 J5.38455
G02 X-10.2865 Y10.2865 I-3.03201 J14.85371
X-9.64119 Y1.968 I-14.2084 J-5.2865
G03 X-8.23611 Y-5.38443 I9.6412 J-1.968
G1 X-9.56486 Y-6.25311
G02 X-11.19662 Y2.2855 I9.56487 J6.25311
G03 X-24.49487 Y18.5725 I-13.29828 J2.7145
G1 X-34.78757
G02 X-18.5725 Y34.73472 I34.47284 J-18.3704
G1 Y24.4949
G03 X-2.2855 Y11.19662 I13.5725 J0.
G02 X-9.56477 Y-6.25324 I2.2855 J-11.19662
X-9.56486 Y-6.25311 I9.56479 J6.25324
G1 X-10.8936 Y-7.12178
G03 X-10.8935 Y-7.12194 I10.8936 J7.12177
X-2.60299 Y12.75205 I10.8935 J7.12194
G02 X-16.985 Y24.4949 I-2.39701 J11.74285
G1 Y37.27625
G03 X-37.33803 Y16.985 I16.67027 J-37.07415
G1 X-24.49487
G02 X-12.75204 Y2.603 I-0.00003 J-11.985
G03 X-10.8936 Y-7.12178 I12.75205 J-2.603
G1 X-12.22234 Y-7.99046
G02 X-14.30747 Y2.9205 I12.22235 J7.99046
G03 X-24.49488 Y15.3975 I-10.18743 J2.0795
G1 X-39.72378
G02 X-15.3975 Y39.65439 I39.40905 J-15.1954
G1 Y24.4949
G03 X-2.9205 Y14.30747 I10.3975 J0.
G02 X-12.22223 Y-7.99063 I2.9205 J-14.30747
X-12.22234 Y-7.99046 I12.22225 J7.99063
G1 X-13.55109 Y-8.85914
G03 X-13.55096 Y-8.85933 I13.55107 J8.85912
X-3.238 Y15.8629 I13.55096 J8.85933
G02 X-13.81 Y24.4949 I-1.762 J8.632
G1 Y40.29889
G03 X-15.01175 Y41.48883 I-1.18999 J0.00001
X-41.41192 Y15.42109 I14.69702 J-41.28673
G1 X-41.41413 Y15.41512
G03 X-40.29887 Y13.81 I1.11526 J-0.41511
G1 X-24.49488
G02 X-15.86289 Y3.238 I-0.00002 J-8.81
G03 X-13.55109 Y-8.85914 I15.8629 J-3.238
G0 Z3.175
X-25.63926 Y23.335
G1 Z-2. F1030.
X-24.49486 F4120.
G02 X-23.29574 Y23.29574 I-0.00004 J-18.335
X-23.335 Y24.4949 I18.29574 J1.19916
G1 Y25.62906
G03 X-25.63926 Y23.335 I23.02027 J-25.42696
G1 Y21.7475
X-29.01456
G02 X-21.7475 Y28.98614 I28.69983 J-21.5454
G1 Y24.4949
G03 X-21.47252 Y21.47252 I16.7475 J0.
X-24.49486 Y21.7475 I-3.02238 J-16.47252
G1 X-25.63926
Y20.16
X-24.49486
G02 X-19.20839 Y19.20839 I-0.00004 J-15.16
X-20.16 Y24.4949 I14.20839 J5.28651
G1 Y31.99064
G03 X-32.03268 Y20.16 I19.84527 J-31.78854
G1 X-25.63926
G0 Z3.175
X-0.26365 Y-0.17238
G1 Z-2. F1030.
G03 X-0.063 Y0.30864 I0.26365 J0.17238 F4120.
G02 X-0.26774 Y0.26775 I-4.937 J24.18626
G1 X-0.30864 Y0.063
G03 X-0.26365 Y-0.17238 I0.30865 J-0.063
G1 X-1.5924 Y-1.04105
G02 X-1.86406 Y0.3805 I1.59241 J1.04105
G03 X-1.6427 Y1.6427 I-22.63084 J4.6195
X-0.3805 Y1.86406 I-3.3573 J22.8522
G02 X-1.59238 Y-1.04107 I0.3805 J-1.86406
X-1.5924 Y-1.04105 I1.59238 J1.04106
G1 X-2.92114 Y-1.90973
G03 X-2.92112 Y-1.90977 I2.92117 J1.90974
X-0.698 Y3.41949 I2.92112 J1.90977
G02 X-3.07152 Y3.07152 I-4.302 J21.07541
X-3.41949 Y0.698 I-21.42338 J1.92848
G03 X-2.92114 Y-1.90973 I3.4195 J-0.698
G1 X-4.24988 Y-2.7784
G02 X-4.97491 Y1.0155 I4.24989 J2.7784
G03 X-4.57689 Y4.57689 I-19.51999 J3.9845
X-1.01549 Y4.97492 I-0.42311 J19.91801
G02 X-4.24985 Y-2.77846 I1.01549 J-4.97492
X-4.24988 Y-2.7784 I4.24988 J2.77846
G1 X-5.57863 Y-3.64708
G03 X-5.57858 Y-3.64716 I5.57863 J3.64707
X-1.333 Y6.53034 I5.57858 J3.64716
G02 X-6.19915 Y6.19915 I-3.667 J17.96456
X-6.53034 Y1.333 I-18.29575 J-1.19915
G03 X-5.57863 Y-3.64708 I6.53035 J-1.333
G1 X-6.90737 Y-4.51576
G02 X-8.08576 Y1.6505 I6.90738 J4.51576
G03 X-8.02238 Y8.02238 I-16.40914 J3.3495
X-1.6505 Y8.08577 I3.02238 J16.47252
G02 X-6.90731 Y-4.51585 I1.6505 J-8.08577
X-6.90737 Y-4.51576 I6.90731 J4.51584
G1 X-8.23611 Y-5.38443
G03 X-8.23604 Y-5.38455 I8.23614 J5.38444
X-1.96799 Y9.64119 I8.23604 J5.38455
G02 X-10.2865 Y10.2865 I-3.03201 J14.85371
X-9.64119 Y1.968 I-14.2084 J-5.2865
G03 X-8.23611 Y-5.38443 I9.6412 J-1.968
G1 X-9.56486 Y-6.25311
G02 X-11.19662 Y2.2855 I9.56487 J6.25311
G03 X-24.49487 Y18.5725 I-13.29828 J2.7145
G1 X-34.78757
G02 X-18.5725 Y34.73472 I34.47284 J-18.3704
G1 Y24.4949
G03 X-2.2855 Y11.19662 I13.5725 J0.
G02 X-9.56477 Y-6.25324 I2.2855 J-11.19662
X-9.56486 Y-6.25311 I9.56479 J6.25324
G1 X-10.8936 Y-7.12178
G03 X-10.8935 Y-7.12194 I10.8936 J7.12177
X-2.60299 Y12.75205 I10.8935 J7.12194
G02 X-16.985 Y24.4949 I-2.39701 J11.74285
G1 Y37.27625
G03 X-37.33803 Y16.985 I16.67027 J-37.07415
G1 X-24.49487
G02 X-12.75204 Y2.603 I-0.00003 J-11.985
G03 X-10.8936 Y-7.12178 I12.75205 J-2.603
G1 X-12.22234 Y-7.99046
G02 X-14.30747 Y2.9205 I12.22235 J7.99046
G03 X-24.49488 Y15.3975 I-10.18743 J2.0795
G1 X-39.72378
G02 X-15.3975 Y39.65439 I39.40905 J-15.1954
G1 Y24.4949
G03 X-2.9205 Y14.30747 I10.3975 J0.
G02 X-12.22223 Y-7.99063 I2.9205 J-14.30747
X-12.22234 Y-7.99046 I12.22225 J7.99063
G1 X-13.55109 Y-8.85914
G03 X-13.55096 Y-8.85933 I13.55107 J8.85912
X-3.238 Y15.8629 I13.55096 J8.85933
G02 X-13.81 Y24.4949 I-1.762 J8.632
G1 Y40.29889
G03 X-15.01175 Y41.48883 I-1.18999 J0.00001
X-41.41192 Y15.42109 I14.69702 J-41.28673
G1 X-41.41413 Y15.41512
G03 X-40.29887 Y13.81 I1.11526 J-0.41511
G1 X-24.49488
G02 X-15.86289 Y3.238 I-0.00002 J-8.81
G03 X-13.55109 Y-8.85914 I15.8629 J-3.238
G0 Z3.175
X-25.63926 Y23.335
G1 Z-3. F1030.
X-24.49486 F4120.
G02 X-23.29574 Y23.29574 I-0.00004 J-18.335
X-23.335 Y24.4949 I18.29574 J1.19916
G1 Y25.62906
G03 X-25.63926 Y23.335 I23.02027 J-25.42696
G1 Y21.7475
X-29.01456
G02 X-21.7475 Y28.98614 I28.69983 J-21.5454
G1 Y24.4949
G03 X-21.47252 Y21.47252 I16.7475 J0.
X-24.49486 Y21.7475 I-3.02238 J-16.47252
G1 X-25.63926
Y20.16
X-24.49486
G02 X-19.20839 Y19.20839 I-0.00004 J-15.16
X-20.16 Y24.4949 I14.20839 J5.28651
G1 Y31.99064
G03 X-32.03268 Y20.16 I19.84527 J-31.78854
G1 X-25.63926
G0 Z3.175
X-0.26365 Y-0.17238
G1 Z-3. F1030.
G03 X-0.063 Y0.30864 I0.26365 J0.17238 F4120.
G02 X-0.26774 Y0.26775 I-4.937 J24.18626
G1 X-0.30864 Y0.063
G03 X-0.26365 Y-0.17238 I0.30865 J-0.063
G1 X-1.5924 Y-1.04105
G02 X-1.86406 Y0.3805 I1.59241 J1.04105
G03 X-1.6427 Y1.6427 I-22.63084 J4.6195
X-0.3805 Y1.86406 I-3.3573 J22.8522
G02 X-1.59238 Y-1.04107 I0.3805 J-1.86406
X-1.5924 Y-1.04105 I1.59238 J1.04106
G1 X-2.92114 Y-1.90973
G03 X-2.92112 Y-1.90977 I2.92117 J1.90974
X-0.698 Y3.41949 I2.92112 J1.90977
G02 X-3.07152 Y3.07152 I-4.302 J21.07541
X-3.41949 Y0.698 I-21.42338 J1.92848
G03 X-2.92114 Y-1.90973 I3.4195 J-0.698
G1 X-4.24988 Y-2.7784
G02 X-4.97491 Y1.0155 I4.24989 J2.7784
G03 X-4.57689 Y4.57689 I-19.51999 J3.9845
X-1.01549 Y4.97492 I-0.42311 J19.91801
G02 X-4.24985 Y-2.77846 I1.01549 J-4.97492
X-4.24988 Y-2.7784 I4.24988 J2.77846
G1 X-5.57863 Y-3.64708
G03 X-5.57858 Y-3.64716 I5.57863 J3.64707
X-1.333 Y6.53034 I5.57858 J3.64716
G02 X-6.19915 Y6.19915 I-3.667 J17.96456
X-6.53034 Y1.333 I-18.29575 J-1.19915
G03 X-5.57863 Y-3.64708 I6.53035 J-1.333
G1 X-6.90737 Y-4.51576
G02 X-8.08576 Y1.6505 I6.90738 J4.51576
G03 X-8.02238 Y8.02238 I-16.40914 J3.3495
X-1.6505 Y8.08577 I3.02238 J16.47252
G02 X-6.90731 Y-4.51585 I1.6505 J-8.08577
X-6.90737 Y-4.51576 I6.90731 J4.51584
G1 X-8.23611 Y-5.38443
G03 X-8.23604 Y-5.38455 I8.23614 J5.38444
X-1.96799 Y9.64119 I8.23604 J5.38455
G02 X-10.2865 Y10.2865 I-3.03201 J14.85371
X-9.64119 Y1.968 I-14.2084 J-5.2865
G03 X-8.23611 Y-5.38443 I9.6412 J-1.968
G1 X-9.56486 Y-6.25311
G02 X-11.19662 Y2.2855 I9.56487 J6.25311
G03 X-24.49487 Y18.5725 I-13.29828 J2.7145
G1 X-34.78757
G02 X-18.5725 Y34.73472 I34.47284 J-18.3704
G1 Y24.4949
G03 X-2.2855 Y11.19662 I13.5725 J0.
G02 X-9.56477 Y-6.25324 I2.2855 J-11.19662
X-9.56486 Y-6.25311 I9.56479 J6.25324
G1 X-10.8936 Y-7.12178
G03 X-10.8935 Y-7.12194 I10.8936 J7.12177
X-2.60299 Y12.75205 I10.8935 J7.12194
G02 X-16.985 Y24.4949 I-2.39701 J11.74285
G1 Y37.27625
G03 X-37.33803 Y16.985 I16.67027 J-37.07415
G1 X-24.49487
G02 X-12.75204 Y2.603 I-0.00003 J-11.985
G03 X-10.8936 Y-7.12178 I12.75205 J-2.603
G1 X-12.22234 Y-7.99046
G02 X-14.30747 Y2.9205 I12.22235 J7.99046
G03 X-24.49488 Y15.3975 I-10.18743 J2.0795
G1 X-39.72378
G02 X-15.3975 Y39.65439 I39.40905 J-15.1954
G1 Y24.4949
G03 X-2.9205 Y14.30747 I10.3975 J0.
G02 X-12.22223 Y-7.99063 I2.9205 J-14.30747
X-12.22234 Y-7.99046 I12.22225 J7.99063
G1 X-13.55109 Y-8.85914
G03 X-13.55096 Y-8.85933 I13.55107 J8.85912
X-3.238 Y15.8629 I13.55096 J8.85933
G02 X-13.81 Y24.4949 I-1.762 J8.632
G1 Y40.29889
G03 X-15.01175 Y41.48883 I-1.18999 J0.00001
X-41.41192 Y15.42109 I14.69702 J-41.28673
G1 X-41.41413 Y15.41512
G03 X-40.29887 Y13.81 I1.11526 J-0.41511
G1 X-24.49488
G02 X-15.86289 Y3.238 I-0.00002 J-8.81
G03 X-13.55109 Y-8.85914 I15.8629 J-3.238
G0 Z3.175
X-25.63926 Y23.335
G1 Z-4. F1030.
X-24.49486 F4120.
G02 X-23.29574 Y23.29574 I-0.00004 J-18.335
X-23.335 Y24.4949 I18.29574 J1.19916
G1 Y25.62906
G03 X-25.63926 Y23.335 I23.02027 J-25.42696
G1 Y21.7475
X-29.01456
G02 X-21.7475 Y28.98614 I28.69983 J-21.5454
G1 Y24.4949
G03 X-21.47252 Y21.47252 I16.7475 J0.
X-24.49486 Y21.7475 I-3.02238 J-16.47252
G1 X-25.63926
Y20.16
X-24.49486
G02 X-19.20839 Y19.20839 I-0.00004 J-15.16
X-20.16 Y24.4949 I14.20839 J5.28651
G1 Y31.99064
G03 X-32.03268 Y20.16 I19.84527 J-31.78854
G1 X-25.63926
Y21.22066 Z-2.93934 F5000.
Z-2.33934
G0 Z3.175
X-0.26365 Y-0.17238
G1 Z-4. F1030.
G03 X-0.063 Y0.30864 I0.26365 J0.17238 F4120.
G02 X-0.26774 Y0.26775 I-4.937 J24.18626
G1 X-0.30864 Y0.063
G03 X-0.26365 Y-0.17238 I0.30865 J-0.063
G1 X-1.5924 Y-1.04105
G02 X-1.86406 Y0.3805 I1.59241 J1.04105
G03 X-1.6427 Y1.6427 I-22.63084 J4.6195
X-0.3805 Y1.86406 I-3.3573 J22.8522
G02 X-1.59238 Y-1.04107 I0.3805 J-1.86406
X-1.5924 Y-1.04105 I1.59239 J1.04106
G1 X-2.92114 Y-1.90973
G03 X-2.92112 Y-1.90977 I2.92114 J1.90972
X-0.698 Y3.41949 I2.92112 J1.90977
G02 X-3.07152 Y3.07152 I-4.302 J21.07541
X-3.41949 Y0.698 I-21.42338 J1.92848
G03 X-2.92114 Y-1.90973 I3.4195 J-0.698
G1 X-4.24988 Y-2.7784
G02 X-4.97491 Y1.0155 I4.24989 J2.7784
G03 X-4.57689 Y4.57689 I-19.51999 J3.9845
X-1.01549 Y4.97492 I-0.42311 J19.91801
G02 X-4.24985 Y-2.77846 I1.01549 J-4.97492
X-4.24988 Y-2.7784 I4.24987 J2.77846
G1 X-5.57863 Y-3.64708
G03 X-5.57858 Y-3.64716 I5.57865 J3.64708
X-1.333 Y6.53034 I5.57858 J3.64716
G02 X-6.19915 Y6.19915 I-3.667 J17.96456
X-6.53034 Y1.333 I-18.29575 J-1.19915
G03 X-5.57863 Y-3.64708 I6.53035 J-1.333
G1 X-6.90737 Y-4.51576
G02 X-8.08576 Y1.6505 I6.90738 J4.51576
G03 X-8.02238 Y8.02238 I-16.40914 J3.3495
X-1.6505 Y8.08577 I3.02238 J16.47252
G02 X-6.90731 Y-4.51585 I1.6505 J-8.08577
X-6.90737 Y-4.51576 I6.90731 J4.51584
G1 X-8.23611 Y-5.38443
G03 X-8.23604 Y-5.38455 I8.23612 J5.38442
X-1.96799 Y9.64119 I8.23604 J5.38455
G02 X-10.2865 Y10.2865 I-3.03201 J14.85371
X-9.64119 Y1.968 I-14.2084 J-5.2865
G03 X-8.23611 Y-5.38443 I9.6412 J-1.968
G1 X-9.56486 Y-6.25311
G02 X-11.19662 Y2.2855 I9.56487 J6.25311
G03 X-24.49487 Y18.5725 I-13.29828 J2.7145
G1 X-34.78757
G02 X-18.5725 Y34.73472 I34.47284 J-18.3704
G1 Y24.4949
G03 X-2.2855 Y11.19662 I13.5725 J0.
G02 X-9.56477 Y-6.25324 I2.2855 J-11.19662
X-9.56486 Y-6.25311 I9.56481 J6.25325
G1 X-10.8936 Y-7.12178
G03 X-10.8935 Y-7.12194 I10.89367 J7.12181
X-2.60299 Y12.75205 I10.8935 J7.12194
G02 X-16.985 Y24.4949 I-2.39701 J11.74285
G1 Y37.27625
G03 X-37.33803 Y16.985 I16.67027 J-37.07415
G1 X-24.49487
G02 X-12.75204 Y2.603 I-0.00003 J-11.985
G03 X-10.8936 Y-7.12178 I12.75205 J-2.603
G1 X-12.22234 Y-7.99046
G02 X-14.30747 Y2.9205 I12.22235 J7.99046
G03 X-24.49488 Y15.3975 I-10.18743 J2.0795
G1 X-39.72378
G02 X-15.3975 Y39.65439 I39.40905 J-15.1954
G1 Y24.4949
G03 X-2.9205 Y14.30747 I10.3975 J0.
G02 X-12.22223 Y-7.99063 I2.9205 J-14.30747
X-12.22234 Y-7.99046 I12.22225 J7.99063
G1 X-13.55109 Y-8.85914
G03 X-13.55096 Y-8.85933 I13.5511 J8.85913
X-3.238 Y15.8629 I13.55096 J8.85933
G02 X-13.81 Y24.4949 I-1.762 J8.632
G1 Y40.29889
G03 X-15.01175 Y41.48883 I-1.18999 J0.00001
X-41.41192 Y15.42109 I14.69702 J-41.28673
G1 X-41.41413 Y15.41512
G03 X-40.29887 Y13.81 I1.11526 J-0.41511
G1 X-24.49488
G02 X-15.86289 Y3.238 I-0.00002 J-8.81
G03 X-13.55109 Y-8.85914 I15.8629 J-3.238
G1 X-12.49047 Y-8.86888 Z-2.93934 F5000.
Z-2.33934
G0 Z3.175
(2 1/2 Axis Profiling)
(Endmill 1/4in 6.35mm Carbide Roughing)
X-6.50889 Y3.33128
G1 Z-4. F1030.
X-11.82381 Y-0.1435 F3090.
G03 X-13.66396 Y-8.9332 I3.47478 J-5.31492
X-3.265 Y15.99517 I13.66396 J8.9332 F4120.
G02 X-13.675 Y24.4949 I-1.735 J8.49973
G1 Y40.29889
G03 X-15.03628 Y41.62339 I-1.32499 J0.00001
X-41.53852 Y15.46797 I14.72155 J-41.42129
G1 X-41.53859 Y15.46777
X-41.54058 Y15.46241
X-41.54065 Y15.46222
G03 X-40.29887 Y13.675 I1.24178 J-0.46221
G1 X-24.49488
G02 X-15.99517 Y3.265 I-0.00002 J-8.675
G03 X-13.66396 Y-8.9332 I15.99518 J-3.265
G1 X-13.8732 Y-9.07
G02 X-16.24012 Y3.315 I13.87321 J9.07
G03 X-24.49488 Y13.425 I-8.25478 J1.685
G1 X-40.29887
G02 X-41.77495 Y15.54943 I0. J1.57501
G1 X-41.77487 Y15.54962
X-41.77303 Y15.55459
X-41.77296 Y15.55478
G02 X-15.08429 Y41.87163 I41.45823 J-15.35268
X-13.425 Y40.29889 I0.0843 J-1.57273
G1 Y24.4949
G03 X-3.315 Y16.24012 I8.425 J0.
G02 X-13.8732 Y-9.07 I3.315 J-16.24012
G1 X-14.08245 Y-9.2068
G03 X-3.365 Y16.48507 I14.08245 J9.2068
G02 X-13.175 Y24.4949 I-1.635 J8.00983
G1 Y40.29889
G03 X-15.13498 Y42.11888 I-1.82499 J0.00001
X-42.0074 Y15.6416 I14.82025 J-41.91678
G1 X-42.00924 Y15.63664
G03 X-40.29887 Y13.175 I1.71037 J-0.63663
G1 X-24.49488
G02 X-16.48507 Y3.365 I-0.00002 J-8.175
G03 X-14.08245 Y-9.2068 I16.48508 J-3.365
X-5.29275 Y-11.04695 I5.31492 J3.47477 F5000.
G1 X0.02217 Y-7.57217
G0 Z3.175
(Engraving)
(Endmill 1/4in 6.35mm Carbide Roughing)
Z6.
X-2.44999 Y2.39467
G1 Z-4.5 F1030.
X-4.69096 Y4.64382 F3090.
X-17.60326 Y17.60326 F4120.
X-19.72072 Y19.72844 F5000.
G0 Z6.
X-19.84423 Y19.85241
G1 Z-5. F1030.
X-17.60326 Y17.60326 F3090.
X-4.69096 Y4.64382 F4120.
X-2.5735 Y2.51864 F5000.
G0 Z6.
X-2.44999 Y2.39467
G1 Z-5.5 F1030.
X-4.69096 Y4.64382 F3090.
X-17.60326 Y17.60326 F4120.
X-19.72072 Y19.72844 F5000.
G0 Z6.
M30
%
