%
G17 G21 G40 G90 G64 P0.1
(2 1/2 Axis Profiling)
(Endmill 1/4in 6.35mm Carbide Roughing)
T3 M06
S20051 M3
G0 Z15.675
X91.69118 Y237.46955
G1 Z10.51087 F1002.5
G17
G03 X92.68288 Y232.11053 I0.49585 J-2.67951 F4010.
X91.69118 Y237.46955 I-0.49585 J2.67951
G1 Z10.02174
G03 X92.68288 Y232.11053 I0.49585 J-2.67951
X91.69118 Y237.46955 I-0.49585 J2.67951
G1 Z9.53261
G03 X92.68288 Y232.11053 I0.49585 J-2.67951
X91.69118 Y237.46955 I-0.49585 J2.67951
G1 Z9.04348
G03 X92.68288 Y232.11053 I0.49585 J-2.67951
X91.69118 Y237.46955 I-0.49585 J2.67951
G1 Z8.55435
G03 X92.68288 Y232.11053 I0.49585 J-2.67951
X91.69118 Y237.46955 I-0.49585 J2.67951
G1 Z8.06522
G03 X92.68288 Y232.11053 I0.49585 J-2.67951
X91.69118 Y237.46955 I-0.49585 J2.67951
G1 Z7.57609
G03 X92.68288 Y232.11053 I0.49585 J-2.67951
X91.69118 Y237.46955 I-0.49585 J2.67951
G1 Z7.08696
G03 X92.68288 Y232.11053 I0.49585 J-2.67951
X91.69118 Y237.46955 I-0.49585 J2.67951
G1 Z6.59783
G03 X92.68288 Y232.11053 I0.49585 J-2.67951
X91.69118 Y237.46955 I-0.49585 J2.67951
G1 Z6.1087
G03 X92.68288 Y232.11053 I0.49585 J-2.67951
X91.69118 Y237.46955 I-0.49585 J2.67951
G1 Z5.61957
G03 X92.68288 Y232.11053 I0.49585 J-2.67951
X91.69118 Y237.46955 I-0.49585 J2.67951
G1 Z5.13043
G03 X92.68288 Y232.11053 I0.49585 J-2.67951
X91.69118 Y237.46955 I-0.49585 J2.67951
G1 Z4.6413
G03 X92.68288 Y232.11053 I0.49585 J-2.67951
X91.69118 Y237.46955 I-0.49585 J2.67951
G1 Z4.15217
G03 X92.68288 Y232.11053 I0.49585 J-2.67951
X91.69118 Y237.46955 I-0.49585 J2.67951
G1 Z3.66304
G03 X92.68288 Y232.11053 I0.49585 J-2.67951
X91.69118 Y237.46955 I-0.49585 J2.67951
G1 Z3.17391
G03 X92.68288 Y232.11053 I0.49585 J-2.67951
X91.69118 Y237.46955 I-0.49585 J2.67951
G1 Z2.68478
G03 X92.68288 Y232.11053 I0.49585 J-2.67951
X91.69118 Y237.46955 I-0.49585 J2.67951
G1 Z2.19565
G03 X92.68288 Y232.11053 I0.49585 J-2.67951
X91.69118 Y237.46955 I-0.49585 J2.67951
G1 Z1.70652
G03 X92.68288 Y232.11053 I0.49585 J-2.67951
X91.69118 Y237.46955 I-0.49585 J2.67951
G1 Z1.21739
G03 X92.68288 Y232.11053 I0.49585 J-2.67951
X91.69118 Y237.46955 I-0.49585 J2.67951
G1 Z0.72826
G03 X92.68288 Y232.11053 I0.49585 J-2.67951
X91.69118 Y237.46955 I-0.49585 J2.67951
G1 Z0.23913
G03 X92.68288 Y232.11053 I0.49585 J-2.67951
X91.69118 Y237.46955 I-0.49585 J2.67951
G1 Z-0.25
G03 X92.68288 Y232.11053 I0.49585 J-2.67951
X91.69118 Y237.46955 I-0.49585 J2.67951
G0 Z15.675
X90.13398 Y90.13397
G1 Z10.51087 F1002.5
G03 X84.86603 Y84.86603 I-2.63398 J-2.63397 F4010.
X90.13398 Y90.13397 I2.63397 J2.63397
G1 Z10.02174
G03 X84.86603 Y84.86603 I-2.63398 J-2.63397
X90.13398 Y90.13397 I2.63397 J2.63397
G1 Z9.53261
G03 X84.86603 Y84.86603 I-2.63398 J-2.63397
X90.13398 Y90.13397 I2.63397 J2.63397
G1 Z9.04348
G03 X84.86603 Y84.86603 I-2.63398 J-2.63397
X90.13398 Y90.13397 I2.63397 J2.63397
G1 Z8.55435
G03 X84.86603 Y84.86603 I-2.63398 J-2.63397
X90.13398 Y90.13397 I2.63397 J2.63397
G1 Z8.06522
G03 X84.86603 Y84.86603 I-2.63398 J-2.63397
X90.13398 Y90.13397 I2.63397 J2.63397
G1 Z7.57609
G03 X84.86603 Y84.86603 I-2.63398 J-2.63397
X90.13398 Y90.13397 I2.63397 J2.63397
G1 Z7.08696
G03 X84.86603 Y84.86603 I-2.63398 J-2.63397
X90.13398 Y90.13397 I2.63397 J2.63397
G1 Z6.59783
G03 X84.86603 Y84.86603 I-2.63398 J-2.63397
X90.13398 Y90.13397 I2.63397 J2.63397
G1 Z6.1087
G03 X84.86603 Y84.86603 I-2.63398 J-2.63397
X90.13398 Y90.13397 I2.63397 J2.63397
G1 Z5.61957
G03 X84.86603 Y84.86603 I-2.63398 J-2.63397
X90.13398 Y90.13397 I2.63397 J2.63397
G1 Z5.13043
G03 X84.86603 Y84.86603 I-2.63398 J-2.63397
X90.13398 Y90.13397 I2.63397 J2.63397
G1 Z4.6413
G03 X84.86603 Y84.86603 I-2.63398 J-2.63397
X90.13398 Y90.13397 I2.63397 J2.63397
G1 Z4.15217
G03 X84.86603 Y84.86603 I-2.63398 J-2.63397
X90.13398 Y90.13397 I2.63397 J2.63397
G1 Z3.66304
G03 X84.86603 Y84.86603 I-2.63398 J-2.63397
X90.13398 Y90.13397 I2.63397 J2.63397
G1 Z3.17391
G03 X84.86603 Y84.86603 I-2.63398 J-2.63397
X90.13398 Y90.13397 I2.63397 J2.63397
G1 Z2.68478
G03 X84.86603 Y84.86603 I-2.63398 J-2.63397
X90.13398 Y90.13397 I2.63397 J2.63397
G1 Z2.19565
G03 X84.86603 Y84.86603 I-2.63398 J-2.63397
X90.13398 Y90.13397 I2.63397 J2.63397
G1 Z1.70652
G03 X84.86603 Y84.86603 I-2.63398 J-2.63397
X90.13398 Y90.13397 I2.63397 J2.63397
G1 Z1.21739
G03 X84.86603 Y84.86603 I-2.63398 J-2.63397
X90.13398 Y90.13397 I2.63397 J2.63397
G1 Z0.72826
G03 X84.86603 Y84.86603 I-2.63398 J-2.63397
X90.13398 Y90.13397 I2.63397 J2.63397
G1 Z0.23913
G03 X84.86603 Y84.86603 I-2.63398 J-2.63397
X90.13398 Y90.13397 I2.63397 J2.63397
G1 Z-0.25
G03 X84.86603 Y84.86603 I-2.63398 J-2.63397
X90.13398 Y90.13397 I2.63397 J2.63397
G0 Z15.675
(2 1/2 Axis Profiling-Finish)
(Endmill 1/4in 6.35mm Carbide Roughing)
X94.00353 Y235.96519
G1 Z-0.25 F300.7
G03 X91.67299 Y237.56788 I-1.96661 J-0.36392 F902.2
X92.70108 Y232.0122 I0.51404 J-2.77784 F1203.
X91.67299 Y237.56788 I-0.51405 J2.77784
X90.0703 Y235.23734 I0.36393 J-1.96661 F1804.5
G0 Z15.675
X90.20469 Y87.37626
G1 Z-0.25 F300.7
G03 Y90.20469 I-1.41422 J1.41421 F902.2
X84.79532 Y84.79532 I-2.70469 J-2.70469 F1203.
X90.20469 Y90.20469 I2.70468 J2.70468
X87.37626 I-1.41422 J-1.41422 F1804.5
G0 Z15.675
(2 1/2 Axis Pocketing)
(Endmill 1/4in 6.35mm Carbide Roughing)
X86.26361 Y87.36414
G1 Z13.2 F1002.5
Z12.6 F3007.5
X86.26952 Y87.6879 Z12.5429
X86.36781 Y88.01558 Z12.48258
X86.55087 Y88.30459 Z12.42226
X86.80511 Y88.5335 Z12.36193
X87.11168 Y88.68532 Z12.30161
X87.44784 Y88.7488 Z12.24129
X87.78867 Y88.71923 Z12.18097
X88.10888 Y88.59881 Z12.12064
X88.38472 Y88.39646 Z12.06032
X88.59574 Y88.12719 Z12.
G02 X86.42564 Y86.86116 I-1.08505 J-0.63302 F4010.
X88.59574 Y88.12719 I1.08505 J0.63301
G1 X89.96696 Y88.92714
G03 X85.05443 Y86.0612 I-2.45627 J-1.43297
X89.96696 Y88.92714 I2.45626 J1.43297
G1 X91.33817 Y89.7271
G02 X83.68321 Y85.26125 I-3.82748 J-2.23293
X91.33817 Y89.7271 I3.82748 J2.23292
G1 X92.70938 Y90.52706
G03 X82.312 Y84.46129 I-5.19869 J-3.03289
X92.70938 Y90.52706 I5.19869 J3.03288
G1 X94.08059 Y91.32702
G02 X80.94079 Y83.66133 I-6.5699 J-3.83285
X94.08059 Y91.32702 I6.5699 J3.83284
G1 X95.45181 Y92.12697
G03 X79.56957 Y82.86137 I-7.94112 J-4.6328
X95.45181 Y92.12697 I7.94112 J4.6328
G1 X96.82302 Y92.92693
G02 X78.19836 Y82.06142 I-9.31233 J-5.43276
X96.82302 Y92.92693 I9.31233 J5.43275
G1 X98.19423 Y93.72689
G03 X76.82715 Y81.26146 I-10.68354 J-6.23272
X98.19423 Y93.72689 I10.68354 J6.23271
G1 X99.56544 Y94.52685
G02 X75.45594 Y80.4615 I-12.05475 J-7.03268
X99.56544 Y94.52685 I12.05475 J7.03267
G1 X100.93666 Y95.32681
G03 X74.08472 Y79.66154 I-13.42597 J-7.83264
X100.93666 Y95.32681 I13.42597 J7.83263
G1 X102.30787 Y96.12676
G02 X72.71351 Y78.86159 I-14.79718 J-8.63259
X102.30787 Y96.12676 I14.79718 J8.63258
G1 X103.67908 Y96.92672
G03 X71.3423 Y78.06163 I-16.16839 J-9.43255
X103.67908 Y96.92672 I16.16839 J9.43254
G1 X105.0503 Y97.72668
G02 X69.97109 Y77.26167 I-17.53961 J-10.23251
X105.0503 Y97.72668 I17.5396 J10.2325
G1 X106.42151 Y98.52664
G03 X68.59987 Y76.46171 I-18.91082 J-11.03247
X106.42151 Y98.52664 I18.91082 J11.03246
G1 X107.79272 Y99.32659
G02 X67.22866 Y75.66176 I-20.28203 J-11.83242
X107.79272 Y99.32659 I20.28203 J11.83241
G1 X109.16393 Y100.12655
G03 X65.85745 Y74.8618 I-21.65324 J-12.63238
X109.16393 Y100.12655 I21.65324 J12.63237
G1 X110.53515 Y100.92651
G02 X64.48624 Y74.06184 I-23.02446 J-13.43234
X110.53515 Y100.92651 I23.02445 J13.43233
G1 X111.90636 Y101.72647
G03 X63.11502 Y73.26188 I-24.39567 J-14.2323
X111.90636 Y101.72647 I24.39567 J14.23229
G1 X113.27757 Y102.52642
G02 X61.74381 Y72.46193 I-25.76688 J-15.03225
X113.27757 Y102.52642 I25.76688 J15.03224
G1 X114.64878 Y103.32638
G03 X60.3726 Y71.66197 I-27.13809 J-15.83221
X114.64878 Y103.32638 I27.13809 J15.8322
G1 X116.02 Y104.12634
G02 X59.00139 Y70.86201 I-28.50931 J-16.63217
X116.02 Y104.12634 I28.5093 J16.63216
G1 X117.39121 Y104.9263
G03 X57.63017 Y70.06205 I-29.88052 J-17.43213
X117.39121 Y104.9263 I29.88052 J17.43212
G1 X118.76242 Y105.72625
G02 X56.25896 Y69.2621 I-31.25173 J-18.23208
X118.76242 Y105.72625 I31.25173 J18.23207
G1 X120.13363 Y106.52621
G03 X54.88775 Y68.46214 I-32.62294 J-19.03204
X120.13363 Y106.52621 I32.62294 J19.03203
G1 X121.50485 Y107.32617
G02 X53.51654 Y67.66218 I-33.99416 J-19.832
X121.50485 Y107.32617 I33.99415 J19.83199
G1 X122.87606 Y108.12613
G03 X52.14532 Y66.86222 I-35.36537 J-20.63196
X122.87606 Y108.12613 I35.36537 J20.63195
G1 X124.24727 Y108.92608
G02 X50.77411 Y66.06227 I-36.73658 J-21.43191
X124.24727 Y108.92608 I36.73658 J21.4319
G1 X125.61848 Y109.72604
G03 X49.4029 Y65.26231 I-38.10779 J-22.23187
X125.61848 Y109.72604 I38.10779 J22.23186
G1 X126.9897 Y110.526
G02 X48.03168 Y64.46235 I-39.47901 J-23.03183
X126.9897 Y110.526 I39.47901 J23.03182
G1 X128.36091 Y111.32596
G03 X46.66047 Y63.66239 I-40.85022 J-23.83179
X128.36091 Y111.32596 I40.85022 J23.83178
G1 X129.73212 Y112.12591
G02 X45.28926 Y62.86243 I-42.22143 J-24.63174
X129.73212 Y112.12591 I42.22143 J24.63174
G1 X131.10334 Y112.92587
G03 X43.91805 Y62.06248 I-43.59265 J-25.4317
X131.10334 Y112.92587 I43.59264 J25.43169
G1 X132.47455 Y113.72583
G02 X42.54683 Y61.26252 I-44.96386 J-26.23166
X132.47455 Y113.72583 I44.96386 J26.23165
G1 X133.84576 Y114.52579
G03 X41.17562 Y60.46256 I-46.33507 J-27.03162
X133.84576 Y114.52579 I46.33507 J27.03161
G1 X135.21697 Y115.32574
G02 X39.80441 Y59.6626 I-47.70628 J-27.83157
X135.21697 Y115.32574 I47.70628 J27.83157
G1 X136.58819 Y116.1257
G03 X38.43319 Y58.86265 I-49.0775 J-28.63153
X136.58819 Y116.1257 I49.0775 J28.63152
G0 Z15.675
X88.59574 Y88.12719
G1 Z11.5 F1002.5
G02 X86.42564 Y86.86116 I-1.08505 J-0.63302 F4010.
X88.59574 Y88.12719 I1.08505 J0.63301
G1 X89.96696 Y88.92714
G03 X85.05443 Y86.0612 I-2.45627 J-1.43297
X89.96696 Y88.92714 I2.45626 J1.43297
G1 X91.33817 Y89.7271
G02 X83.68321 Y85.26125 I-3.82748 J-2.23293
X91.33817 Y89.7271 I3.82748 J2.23292
G1 X92.70938 Y90.52706
G03 X82.312 Y84.46129 I-5.19869 J-3.03289
X92.70938 Y90.52706 I5.19869 J3.03288
G1 X94.08059 Y91.32702
G02 X80.94079 Y83.66133 I-6.5699 J-3.83285
X94.08059 Y91.32702 I6.5699 J3.83284
G1 X95.45181 Y92.12697
G03 X79.56957 Y82.86137 I-7.94112 J-4.6328
X95.45181 Y92.12697 I7.94112 J4.6328
G1 X96.82302 Y92.92693
G02 X78.19836 Y82.06142 I-9.31233 J-5.43276
X96.82302 Y92.92693 I9.31233 J5.43275
G1 X98.19423 Y93.72689
G03 X76.82715 Y81.26146 I-10.68354 J-6.23272
X98.19423 Y93.72689 I10.68354 J6.23271
G1 X99.56544 Y94.52685
G02 X75.45594 Y80.4615 I-12.05475 J-7.03268
X99.56544 Y94.52685 I12.05475 J7.03267
G1 X100.93666 Y95.32681
G03 X74.08472 Y79.66154 I-13.42597 J-7.83264
X100.93666 Y95.32681 I13.42597 J7.83263
G1 X102.30787 Y96.12676
G02 X72.71351 Y78.86159 I-14.79718 J-8.63259
X102.30787 Y96.12676 I14.79718 J8.63258
G1 X103.67908 Y96.92672
G03 X71.3423 Y78.06163 I-16.16839 J-9.43255
X103.67908 Y96.92672 I16.16839 J9.43254
G1 X105.0503 Y97.72668
G02 X69.97109 Y77.26167 I-17.53961 J-10.23251
X105.0503 Y97.72668 I17.5396 J10.2325
G1 X106.42151 Y98.52664
G03 X68.59987 Y76.46171 I-18.91082 J-11.03247
X106.42151 Y98.52664 I18.91082 J11.03246
G1 X107.79272 Y99.32659
G02 X67.22866 Y75.66176 I-20.28203 J-11.83242
X107.79272 Y99.32659 I20.28203 J11.83241
G1 X109.16393 Y100.12655
G03 X65.85745 Y74.8618 I-21.65324 J-12.63238
X109.16393 Y100.12655 I21.65324 J12.63237
G1 X110.53515 Y100.92651
G02 X64.48624 Y74.06184 I-23.02446 J-13.43234
X110.53515 Y100.92651 I23.02445 J13.43233
G1 X111.90636 Y101.72647
G03 X63.11502 Y73.26188 I-24.39567 J-14.2323
X111.90636 Y101.72647 I24.39567 J14.23229
G1 X113.27757 Y102.52642
G02 X61.74381 Y72.46193 I-25.76688 J-15.03225
X113.27757 Y102.52642 I25.76688 J15.03224
G1 X114.64878 Y103.32638
G03 X60.3726 Y71.66197 I-27.13809 J-15.83221
X114.64878 Y103.32638 I27.13809 J15.8322
G1 X116.02 Y104.12634
G02 X59.00139 Y70.86201 I-28.50931 J-16.63217
X116.02 Y104.12634 I28.5093 J16.63216
G1 X117.39121 Y104.9263
G03 X57.63017 Y70.06205 I-29.88052 J-17.43213
X117.39121 Y104.9263 I29.88052 J17.43212
G1 X118.76242 Y105.72625
G02 X56.25896 Y69.2621 I-31.25173 J-18.23208
X118.76242 Y105.72625 I31.25173 J18.23207
G1 X120.13363 Y106.52621
G03 X54.88775 Y68.46214 I-32.62294 J-19.03204
X120.13363 Y106.52621 I32.62294 J19.03203
G1 X121.50485 Y107.32617
G02 X53.51654 Y67.66218 I-33.99416 J-19.832
X121.50485 Y107.32617 I33.99415 J19.83199
G1 X122.87606 Y108.12613
G03 X52.14532 Y66.86222 I-35.36537 J-20.63196
X122.87606 Y108.12613 I35.36537 J20.63195
G1 X124.24727 Y108.92608
G02 X50.77411 Y66.06227 I-36.73658 J-21.43191
X124.24727 Y108.92608 I36.73658 J21.4319
G1 X125.61848 Y109.72604
G03 X49.4029 Y65.26231 I-38.10779 J-22.23187
X125.61848 Y109.72604 I38.10779 J22.23186
G1 X126.9897 Y110.526
G02 X48.03168 Y64.46235 I-39.47901 J-23.03183
X126.9897 Y110.526 I39.47901 J23.03182
G1 X128.36091 Y111.32596
G03 X46.66047 Y63.66239 I-40.85022 J-23.83179
X128.36091 Y111.32596 I40.85022 J23.83178
G1 X129.73212 Y112.12591
G02 X45.28926 Y62.86243 I-42.22143 J-24.63174
X129.73212 Y112.12591 I42.22143 J24.63174
G1 X131.10334 Y112.92587
G03 X43.91805 Y62.06248 I-43.59265 J-25.4317
X131.10334 Y112.92587 I43.59264 J25.43169
G1 X132.47455 Y113.72583
G02 X42.54683 Y61.26252 I-44.96386 J-26.23166
X132.47455 Y113.72583 I44.96386 J26.23165
G1 X133.84576 Y114.52579
G03 X41.17562 Y60.46256 I-46.33507 J-27.03162
X133.84576 Y114.52579 I46.33507 J27.03161
G1 X135.21697 Y115.32574
G02 X39.80441 Y59.6626 I-47.70628 J-27.83157
X135.21697 Y115.32574 I47.70628 J27.83157
G1 X136.58819 Y116.1257
G03 X38.43319 Y58.86265 I-49.0775 J-28.63153
X136.58819 Y116.1257 I49.0775 J28.63152
G0 Z15.675
X88.59574 Y88.12719
G1 Z11. F1002.5
G02 X86.42564 Y86.86116 I-1.08505 J-0.63302 F4010.
X88.59574 Y88.12719 I1.08505 J0.63301
G1 X89.96696 Y88.92714
G03 X85.05443 Y86.0612 I-2.45627 J-1.43297
X89.96696 Y88.92714 I2.45626 J1.43297
G1 X91.33817 Y89.7271
G02 X83.68321 Y85.26125 I-3.82748 J-2.23293
X91.33817 Y89.7271 I3.82748 J2.23292
G1 X92.70938 Y90.52706
G03 X82.312 Y84.46129 I-5.19869 J-3.03289
X92.70938 Y90.52706 I5.19869 J3.03288
G1 X94.08059 Y91.32702
G02 X80.94079 Y83.66133 I-6.5699 J-3.83285
X94.08059 Y91.32702 I6.5699 J3.83284
G1 X95.45181 Y92.12697
G03 X79.56957 Y82.86137 I-7.94112 J-4.6328
X95.45181 Y92.12697 I7.94112 J4.6328
G1 X96.82302 Y92.92693
G02 X78.19836 Y82.06142 I-9.31233 J-5.43276
X96.82302 Y92.92693 I9.31233 J5.43275
G1 X98.19423 Y93.72689
G03 X76.82715 Y81.26146 I-10.68354 J-6.23272
X98.19423 Y93.72689 I10.68354 J6.23271
G1 X99.56544 Y94.52685
G02 X75.45594 Y80.4615 I-12.05475 J-7.03268
X99.56544 Y94.52685 I12.05475 J7.03267
G1 X100.93666 Y95.32681
G03 X74.08472 Y79.66154 I-13.42597 J-7.83264
X100.93666 Y95.32681 I13.42597 J7.83263
G1 X102.30787 Y96.12676
G02 X72.71351 Y78.86159 I-14.79718 J-8.63259
X102.30787 Y96.12676 I14.79718 J8.63258
G1 X103.67908 Y96.92672
G03 X71.3423 Y78.06163 I-16.16839 J-9.43255
X103.67908 Y96.92672 I16.16839 J9.43254
G1 X105.0503 Y97.72668
G02 X69.97109 Y77.26167 I-17.53961 J-10.23251
X105.0503 Y97.72668 I17.5396 J10.2325
G1 X106.42151 Y98.52664
G03 X68.59987 Y76.46171 I-18.91082 J-11.03247
X106.42151 Y98.52664 I18.91082 J11.03246
G1 X107.79272 Y99.32659
G02 X67.22866 Y75.66176 I-20.28203 J-11.83242
X107.79272 Y99.32659 I20.28203 J11.83241
G1 X109.16393 Y100.12655
G03 X65.85745 Y74.8618 I-21.65324 J-12.63238
X109.16393 Y100.12655 I21.65324 J12.63237
G1 X110.53515 Y100.92651
G02 X64.48624 Y74.06184 I-23.02446 J-13.43234
X110.53515 Y100.92651 I23.02445 J13.43233
G1 X111.90636 Y101.72647
G03 X63.11502 Y73.26188 I-24.39567 J-14.2323
X111.90636 Y101.72647 I24.39567 J14.23229
G1 X113.27757 Y102.52642
G02 X61.74381 Y72.46193 I-25.76688 J-15.03225
X113.27757 Y102.52642 I25.76688 J15.03224
G1 X114.64878 Y103.32638
G03 X60.3726 Y71.66197 I-27.13809 J-15.83221
X114.64878 Y103.32638 I27.13809 J15.8322
G1 X116.02 Y104.12634
G02 X59.00139 Y70.86201 I-28.50931 J-16.63217
X116.02 Y104.12634 I28.5093 J16.63216
G1 X117.39121 Y104.9263
G03 X57.63017 Y70.06205 I-29.88052 J-17.43213
X117.39121 Y104.9263 I29.88052 J17.43212
G1 X118.76242 Y105.72625
G02 X56.25896 Y69.2621 I-31.25173 J-18.23208
X118.76242 Y105.72625 I31.25173 J18.23207
G1 X120.13363 Y106.52621
G03 X54.88775 Y68.46214 I-32.62294 J-19.03204
X120.13363 Y106.52621 I32.62294 J19.03203
G1 X121.50485 Y107.32617
G02 X53.51654 Y67.66218 I-33.99416 J-19.832
X121.50485 Y107.32617 I33.99415 J19.83199
G1 X122.87606 Y108.12613
G03 X52.14532 Y66.86222 I-35.36537 J-20.63196
X122.87606 Y108.12613 I35.36537 J20.63195
G1 X124.24727 Y108.92608
G02 X50.77411 Y66.06227 I-36.73658 J-21.43191
X124.24727 Y108.92608 I36.73658 J21.4319
G1 X125.61848 Y109.72604
G03 X49.4029 Y65.26231 I-38.10779 J-22.23187
X125.61848 Y109.72604 I38.10779 J22.23186
G1 X126.9897 Y110.526
G02 X48.03168 Y64.46235 I-39.47901 J-23.03183
X126.9897 Y110.526 I39.47901 J23.03182
G1 X128.36091 Y111.32596
G03 X46.66047 Y63.66239 I-40.85022 J-23.83179
X128.36091 Y111.32596 I40.85022 J23.83178
G1 X129.73212 Y112.12591
G02 X45.28926 Y62.86243 I-42.22143 J-24.63174
X129.73212 Y112.12591 I42.22143 J24.63174
G1 X131.10334 Y112.92587
G03 X43.91805 Y62.06248 I-43.59265 J-25.4317
X131.10334 Y112.92587 I43.59264 J25.43169
G1 X132.47455 Y113.72583
G02 X42.54683 Y61.26252 I-44.96386 J-26.23166
X132.47455 Y113.72583 I44.96386 J26.23165
G1 X133.84576 Y114.52579
G03 X41.17562 Y60.46256 I-46.33507 J-27.03162
X133.84576 Y114.52579 I46.33507 J27.03161
G1 X135.21697 Y115.32574
G02 X39.80441 Y59.6626 I-47.70628 J-27.83157
X135.21697 Y115.32574 I47.70628 J27.83157
G1 X136.58819 Y116.1257
G03 X38.43319 Y58.86265 I-49.0775 J-28.63153
X136.58819 Y116.1257 I49.0775 J28.63152
G1 X136.57745 Y117.18631 Z12.06066 F5000.
Z12.66066
G0 Z15.675
(2 1/2 Axis Pocketing)
(Endmill 1/4in 6.35mm Carbide Roughing)
X105.68504 Y109.11187
G1 Z11.7 F1002.5
Z11.1 F3007.5
X104.42722 Y110.11707 Z10.81609
X102.95867 Y111.14513 Z10.5
G03 X72.04133 Y63.85488 I-15.45867 J-23.64513 F4010.
X102.95867 Y111.14513 I15.45867 J23.64512
G1 X103.82737 Y112.47386
G02 X71.17263 Y62.52615 I-16.32737 J-24.97386
X103.82737 Y112.47386 I16.32737 J24.97385
G1 X104.69606 Y113.80259
G03 X70.30393 Y61.19742 I-17.19606 J-26.30259
X104.69606 Y113.80259 I17.19607 J26.30258
G1 X105.56476 Y115.13132
G02 X69.43524 Y59.86869 I-18.06476 J-27.63132
X105.56476 Y115.13132 I18.06476 J27.63131
G1 X106.43345 Y116.46005
G03 X68.56654 Y58.53996 I-18.93345 J-28.96005
X106.43345 Y116.46005 I18.93346 J28.96004
G1 X107.30215 Y117.78878
G02 X67.69785 Y57.21123 I-19.80215 J-30.28878
X107.30215 Y117.78878 I19.80215 J30.28877
G1 X108.17084 Y119.11751
G03 X66.82915 Y55.8825 I-20.67084 J-31.61751
X108.17084 Y119.11751 I20.67085 J31.6175
G1 X109.03954 Y120.44624
G02 X65.96046 Y54.55376 I-21.53954 J-32.94624
X109.03954 Y120.44624 I21.53954 J32.94624
G1 X109.90824 Y121.77497
G03 X65.09176 Y53.22504 I-22.40824 J-34.27497
X109.90824 Y121.77497 I22.40824 J34.27496
G1 X110.77693 Y123.1037
G02 X64.22307 Y51.8963 I-23.27693 J-35.6037
X110.77693 Y123.1037 I23.27693 J35.6037
G1 X111.64563 Y124.43243
G03 X63.35437 Y50.56757 I-24.14563 J-36.93243
X111.64563 Y124.43243 I24.14563 J36.93243
G1 X112.51432 Y125.76116
G02 X62.48568 Y49.23884 I-25.01432 J-38.26116
X112.51432 Y125.76116 I25.01432 J38.26116
G1 X113.38302 Y127.08989
G03 X61.61698 Y47.91011 I-25.88302 J-39.58989
X113.38302 Y127.08989 I25.88302 J39.58989
G1 X114.25171 Y128.41862
G02 X60.74829 Y46.58138 I-26.75171 J-40.91862
X114.25171 Y128.41862 I26.75171 J40.91862
G1 X115.12041 Y129.74735
G03 X59.87959 Y45.25265 I-27.62041 J-42.24735
X115.12041 Y129.74735 I27.62041 J42.24735
G1 X115.9891 Y131.07608
G02 X59.01089 Y43.92392 I-28.4891 J-43.57608
X115.9891 Y131.07608 I28.48911 J43.57608
G1 X116.8578 Y132.40481
G03 X58.1422 Y42.59519 I-29.3578 J-44.90481
X116.8578 Y132.40481 I29.3578 J44.90481
G1 X117.72649 Y133.73354
G02 X57.2735 Y41.26646 I-30.22649 J-46.23354
X117.72649 Y133.73354 I30.2265 J46.23354
G1 X118.59519 Y135.06227
G03 X56.40481 Y39.93773 I-31.09519 J-47.56227
X118.59519 Y135.06227 I31.09519 J47.56227
G0 Z15.675
X102.95867 Y111.14513
G1 Z10. F1002.5
G03 X72.04133 Y63.85488 I-15.45867 J-23.64513 F4010.
X102.95867 Y111.14513 I15.45867 J23.64512
G1 X103.82737 Y112.47386
G02 X71.17263 Y62.52615 I-16.32737 J-24.97386
X103.82737 Y112.47386 I16.32737 J24.97385
G1 X104.69606 Y113.80259
G03 X70.30393 Y61.19742 I-17.19606 J-26.30259
X104.69606 Y113.80259 I17.19607 J26.30258
G1 X105.56476 Y115.13132
G02 X69.43524 Y59.86869 I-18.06476 J-27.63132
X105.56476 Y115.13132 I18.06476 J27.63131
G1 X106.43345 Y116.46005
G03 X68.56654 Y58.53996 I-18.93345 J-28.96005
X106.43345 Y116.46005 I18.93346 J28.96004
G1 X107.30215 Y117.78878
G02 X67.69785 Y57.21123 I-19.80215 J-30.28878
X107.30215 Y117.78878 I19.80215 J30.28877
G1 X108.17084 Y119.11751
G03 X66.82915 Y55.8825 I-20.67084 J-31.61751
X108.17084 Y119.11751 I20.67085 J31.6175
G1 X109.03954 Y120.44624
G02 X65.96046 Y54.55376 I-21.53954 J-32.94624
X109.03954 Y120.44624 I21.53954 J32.94624
G1 X109.90824 Y121.77497
G03 X65.09176 Y53.22504 I-22.40824 J-34.27497
X109.90824 Y121.77497 I22.40824 J34.27496
G1 X110.77693 Y123.1037
G02 X64.22307 Y51.8963 I-23.27693 J-35.6037
X110.77693 Y123.1037 I23.27693 J35.6037
G1 X111.64563 Y124.43243
G03 X63.35437 Y50.56757 I-24.14563 J-36.93243
X111.64563 Y124.43243 I24.14563 J36.93243
G1 X112.51432 Y125.76116
G02 X62.48568 Y49.23884 I-25.01432 J-38.26116
X112.51432 Y125.76116 I25.01432 J38.26116
G1 X113.38302 Y127.08989
G03 X61.61698 Y47.91011 I-25.88302 J-39.58989
X113.38302 Y127.08989 I25.88302 J39.58989
G1 X114.25171 Y128.41862
G02 X60.74829 Y46.58138 I-26.75171 J-40.91862
X114.25171 Y128.41862 I26.75171 J40.91862
G1 X115.12041 Y129.74735
G03 X59.87959 Y45.25265 I-27.62041 J-42.24735
X115.12041 Y129.74735 I27.62041 J42.24735
G1 X115.9891 Y131.07608
G02 X59.01089 Y43.92392 I-28.4891 J-43.57608
X115.9891 Y131.07608 I28.48911 J43.57608
G1 X116.8578 Y132.40481
G03 X58.1422 Y42.59519 I-29.3578 J-44.90481
X116.8578 Y132.40481 I29.3578 J44.90481
G1 X117.72649 Y133.73354
G02 X57.2735 Y41.26646 I-30.22649 J-46.23354
X117.72649 Y133.73354 I30.2265 J46.23354
G1 X118.59519 Y135.06227
G03 X56.40481 Y39.93773 I-31.09519 J-47.56227
X118.59519 Y135.06227 I31.09519 J47.56227
G0 Z15.675
X102.95867 Y111.14513
G1 Z9.5 F1002.5
G03 X72.04133 Y63.85488 I-15.45867 J-23.64513 F4010.
X102.95867 Y111.14513 I15.45867 J23.64512
G1 X103.82737 Y112.47386
G02 X71.17263 Y62.52615 I-16.32737 J-24.97386
X103.82737 Y112.47386 I16.32737 J24.97385
G1 X104.69606 Y113.80259
G03 X70.30393 Y61.19742 I-17.19606 J-26.30259
X104.69606 Y113.80259 I17.19607 J26.30258
G1 X105.56476 Y115.13132
G02 X69.43524 Y59.86869 I-18.06476 J-27.63132
X105.56476 Y115.13132 I18.06476 J27.63131
G1 X106.43345 Y116.46005
G03 X68.56654 Y58.53996 I-18.93345 J-28.96005
X106.43345 Y116.46005 I18.93346 J28.96004
G1 X107.30215 Y117.78878
G02 X67.69785 Y57.21123 I-19.80215 J-30.28878
X107.30215 Y117.78878 I19.80215 J30.28877
G1 X108.17084 Y119.11751
G03 X66.82915 Y55.8825 I-20.67084 J-31.61751
X108.17084 Y119.11751 I20.67085 J31.6175
G1 X109.03954 Y120.44624
G02 X65.96046 Y54.55376 I-21.53954 J-32.94624
X109.03954 Y120.44624 I21.53954 J32.94624
G1 X109.90824 Y121.77497
G03 X65.09176 Y53.22504 I-22.40824 J-34.27497
X109.90824 Y121.77497 I22.40824 J34.27496
G1 X110.77693 Y123.1037
G02 X64.22307 Y51.8963 I-23.27693 J-35.6037
X110.77693 Y123.1037 I23.27693 J35.6037
G1 X111.64563 Y124.43243
G03 X63.35437 Y50.56757 I-24.14563 J-36.93243
X111.64563 Y124.43243 I24.14563 J36.93243
G1 X112.51432 Y125.76116
G02 X62.48568 Y49.23884 I-25.01432 J-38.26116
X112.51432 Y125.76116 I25.01432 J38.26116
G1 X113.38302 Y127.08989
G03 X61.61698 Y47.91011 I-25.88302 J-39.58989
X113.38302 Y127.08989 I25.88302 J39.58989
G1 X114.25171 Y128.41862
G02 X60.74829 Y46.58138 I-26.75171 J-40.91862
X114.25171 Y128.41862 I26.75171 J40.91862
G1 X115.12041 Y129.74735
G03 X59.87959 Y45.25265 I-27.62041 J-42.24735
X115.12041 Y129.74735 I27.62041 J42.24735
G1 X115.9891 Y131.07608
G02 X59.01089 Y43.92392 I-28.4891 J-43.57608
X115.9891 Y131.07608 I28.48911 J43.57608
G1 X116.8578 Y132.40481
G03 X58.1422 Y42.59519 I-29.3578 J-44.90481
X116.8578 Y132.40481 I29.3578 J44.90481
G1 X117.72649 Y133.73354
G02 X57.2735 Y41.26646 I-30.22649 J-46.23354
X117.72649 Y133.73354 I30.2265 J46.23354
G1 X118.59519 Y135.06227
G03 X56.40481 Y39.93773 I-31.09519 J-47.56227
X118.59519 Y135.06227 I31.09519 J47.56227
G0 Z15.675
X102.95867 Y111.14513
G1 Z9. F1002.5
G03 X72.04133 Y63.85488 I-15.45867 J-23.64513 F4010.
X102.95867 Y111.14513 I15.45867 J23.64512
G1 X103.82737 Y112.47386
G02 X71.17263 Y62.52615 I-16.32737 J-24.97386
X103.82737 Y112.47386 I16.32737 J24.97385
G1 X104.69606 Y113.80259
G03 X70.30393 Y61.19742 I-17.19606 J-26.30259
X104.69606 Y113.80259 I17.19607 J26.30258
G1 X105.56476 Y115.13132
G02 X69.43524 Y59.86869 I-18.06476 J-27.63132
X105.56476 Y115.13132 I18.06476 J27.63131
G1 X106.43345 Y116.46005
G03 X68.56654 Y58.53996 I-18.93345 J-28.96005
X106.43345 Y116.46005 I18.93346 J28.96004
G1 X107.30215 Y117.78878
G02 X67.69785 Y57.21123 I-19.80215 J-30.28878
X107.30215 Y117.78878 I19.80215 J30.28877
G1 X108.17084 Y119.11751
G03 X66.82915 Y55.8825 I-20.67084 J-31.61751
X108.17084 Y119.11751 I20.67085 J31.6175
G1 X109.03954 Y120.44624
G02 X65.96046 Y54.55376 I-21.53954 J-32.94624
X109.03954 Y120.44624 I21.53954 J32.94624
G1 X109.90824 Y121.77497
G03 X65.09176 Y53.22504 I-22.40824 J-34.27497
X109.90824 Y121.77497 I22.40824 J34.27496
G1 X110.77693 Y123.1037
G02 X64.22307 Y51.8963 I-23.27693 J-35.6037
X110.77693 Y123.1037 I23.27693 J35.6037
G1 X111.64563 Y124.43243
G03 X63.35437 Y50.56757 I-24.14563 J-36.93243
X111.64563 Y124.43243 I24.14563 J36.93243
G1 X112.51432 Y125.76116
G02 X62.48568 Y49.23884 I-25.01432 J-38.26116
X112.51432 Y125.76116 I25.01432 J38.26116
G1 X113.38302 Y127.08989
G03 X61.61698 Y47.91011 I-25.88302 J-39.58989
X113.38302 Y127.08989 I25.88302 J39.58989
G1 X114.25171 Y128.41862
G02 X60.74829 Y46.58138 I-26.75171 J-40.91862
X114.25171 Y128.41862 I26.75171 J40.91862
G1 X115.12041 Y129.74735
G03 X59.87959 Y45.25265 I-27.62041 J-42.24735
X115.12041 Y129.74735 I27.62041 J42.24735
G1 X115.9891 Y131.07608
G02 X59.01089 Y43.92392 I-28.4891 J-43.57608
X115.9891 Y131.07608 I28.48911 J43.57608
G1 X116.8578 Y132.40481
G03 X58.1422 Y42.59519 I-29.3578 J-44.90481
X116.8578 Y132.40481 I29.3578 J44.90481
G1 X117.72649 Y133.73354
G02 X57.2735 Y41.26646 I-30.22649 J-46.23354
X117.72649 Y133.73354 I30.2265 J46.23354
G1 X118.59519 Y135.06227
G03 X56.40481 Y39.93773 I-31.09519 J-47.56227
X118.59519 Y135.06227 I31.09519 J47.56227
G0 Z15.675
X102.95867 Y111.14513
G1 Z8.5 F1002.5
G03 X72.04133 Y63.85488 I-15.45867 J-23.64513 F4010.
X102.95867 Y111.14513 I15.45867 J23.64512
G1 X103.82737 Y112.47386
G02 X71.17263 Y62.52615 I-16.32737 J-24.97386
X103.82737 Y112.47386 I16.32737 J24.97385
G1 X104.69606 Y113.80259
G03 X70.30393 Y61.19742 I-17.19606 J-26.30259
X104.69606 Y113.80259 I17.19607 J26.30258
G1 X105.56476 Y115.13132
G02 X69.43524 Y59.86869 I-18.06476 J-27.63132
X105.56476 Y115.13132 I18.06476 J27.63131
G1 X106.43345 Y116.46005
G03 X68.56654 Y58.53996 I-18.93345 J-28.96005
X106.43345 Y116.46005 I18.93346 J28.96004
G1 X107.30215 Y117.78878
G02 X67.69785 Y57.21123 I-19.80215 J-30.28878
X107.30215 Y117.78878 I19.80215 J30.28877
G1 X108.17084 Y119.11751
G03 X66.82915 Y55.8825 I-20.67084 J-31.61751
X108.17084 Y119.11751 I20.67085 J31.6175
G1 X109.03954 Y120.44624
G02 X65.96046 Y54.55376 I-21.53954 J-32.94624
X109.03954 Y120.44624 I21.53954 J32.94624
G1 X109.90824 Y121.77497
G03 X65.09176 Y53.22504 I-22.40824 J-34.27497
X109.90824 Y121.77497 I22.40824 J34.27496
G1 X110.77693 Y123.1037
G02 X64.22307 Y51.8963 I-23.27693 J-35.6037
X110.77693 Y123.1037 I23.27693 J35.6037
G1 X111.64563 Y124.43243
G03 X63.35437 Y50.56757 I-24.14563 J-36.93243
X111.64563 Y124.43243 I24.14563 J36.93243
G1 X112.51432 Y125.76116
G02 X62.48568 Y49.23884 I-25.01432 J-38.26116
X112.51432 Y125.76116 I25.01432 J38.26116
G1 X113.38302 Y127.08989
G03 X61.61698 Y47.91011 I-25.88302 J-39.58989
X113.38302 Y127.08989 I25.88302 J39.58989
G1 X114.25171 Y128.41862
G02 X60.74829 Y46.58138 I-26.75171 J-40.91862
X114.25171 Y128.41862 I26.75171 J40.91862
G1 X115.12041 Y129.74735
G03 X59.87959 Y45.25265 I-27.62041 J-42.24735
X115.12041 Y129.74735 I27.62041 J42.24735
G1 X115.9891 Y131.07608
G02 X59.01089 Y43.92392 I-28.4891 J-43.57608
X115.9891 Y131.07608 I28.48911 J43.57608
G1 X116.8578 Y132.40481
G03 X58.1422 Y42.59519 I-29.3578 J-44.90481
X116.8578 Y132.40481 I29.3578 J44.90481
G1 X117.72649 Y133.73354
G02 X57.2735 Y41.26646 I-30.22649 J-46.23354
X117.72649 Y133.73354 I30.2265 J46.23354
G1 X118.59519 Y135.06227
G03 X56.40481 Y39.93773 I-31.09519 J-47.56227
X118.59519 Y135.06227 I31.09519 J47.56227
G1 X118.09052 Y135.99517 Z9.56066 F5000.
Z10.16066
G0 Z15.675
(2 1/2 Axis Pocketing)
(Endmill 1/4in 6.35mm Carbide Roughing)
X110.32327 Y105.2982
G1 Z9.2 F1002.5
Z8.6 F3007.5
X109.33306 Y106.51104 Z8.32392
X108.08335 Y107.8575 Z8.
G03 X66.91664 Y67.1425 I-20.58335 J-20.3575 F4010.
X108.08335 Y107.8575 I20.58336 J20.3575
G1 X109.21206 Y108.97383
G02 X65.78794 Y66.02618 I-21.71206 J-21.47383
X109.21206 Y108.97383 I21.71206 J21.47382
G1 X110.34077 Y110.09015
G03 X64.65923 Y64.90986 I-22.84077 J-22.59015
X110.34077 Y110.09015 I22.84077 J22.59014
G1 X111.46947 Y111.20647
G02 X63.53052 Y63.79353 I-23.96947 J-23.70647
X111.46947 Y111.20647 I23.96948 J23.70647
G1 X112.59818 Y112.32279
G03 X62.40181 Y62.67721 I-25.09818 J-24.82279
X112.59818 Y112.32279 I25.09819 J24.82279
G1 X113.72689 Y113.43912
G02 X61.27311 Y61.56089 I-26.22689 J-25.93912
X113.72689 Y113.43912 I26.22689 J25.93911
G1 X114.85559 Y114.55544
G03 X60.1444 Y60.44456 I-27.35559 J-27.05544
X114.85559 Y114.55544 I27.3556 J27.05544
G1 X115.9843 Y115.67176
G02 X59.01569 Y59.32824 I-28.4843 J-28.17176
X115.9843 Y115.67176 I28.48431 J28.17176
G1 X117.11301 Y116.78808
G03 X57.88698 Y58.21192 I-29.61301 J-29.28808
X117.11301 Y116.78808 I29.61302 J29.28808
G1 X118.24172 Y117.90441
G02 X56.75828 Y57.0956 I-30.74172 J-30.40441
X118.24172 Y117.90441 I30.74172 J30.4044
G1 X119.37042 Y119.02073
G03 X55.62957 Y55.97928 I-31.87042 J-31.52073
X119.37042 Y119.02073 I31.87043 J31.52072
G0 Z15.675
X108.08335 Y107.8575
G1 Z7.5 F1002.5
G03 X66.91664 Y67.1425 I-20.58335 J-20.3575 F4010.
X108.08335 Y107.8575 I20.58336 J20.3575
G1 X109.21206 Y108.97383
G02 X65.78794 Y66.02618 I-21.71206 J-21.47383
X109.21206 Y108.97383 I21.71206 J21.47382
G1 X110.34077 Y110.09015
G03 X64.65923 Y64.90986 I-22.84077 J-22.59015
X110.34077 Y110.09015 I22.84077 J22.59014
G1 X111.46947 Y111.20647
G02 X63.53052 Y63.79353 I-23.96947 J-23.70647
X111.46947 Y111.20647 I23.96948 J23.70647
G1 X112.59818 Y112.32279
G03 X62.40181 Y62.67721 I-25.09818 J-24.82279
X112.59818 Y112.32279 I25.09819 J24.82279
G1 X113.72689 Y113.43912
G02 X61.27311 Y61.56089 I-26.22689 J-25.93912
X113.72689 Y113.43912 I26.22689 J25.93911
G1 X114.85559 Y114.55544
G03 X60.1444 Y60.44456 I-27.35559 J-27.05544
X114.85559 Y114.55544 I27.3556 J27.05544
G1 X115.9843 Y115.67176
G02 X59.01569 Y59.32824 I-28.4843 J-28.17176
X115.9843 Y115.67176 I28.48431 J28.17176
G1 X117.11301 Y116.78808
G03 X57.88698 Y58.21192 I-29.61301 J-29.28808
X117.11301 Y116.78808 I29.61302 J29.28808
G1 X118.24172 Y117.90441
G02 X56.75828 Y57.0956 I-30.74172 J-30.40441
X118.24172 Y117.90441 I30.74172 J30.4044
G1 X119.37042 Y119.02073
G03 X55.62957 Y55.97928 I-31.87042 J-31.52073
X119.37042 Y119.02073 I31.87043 J31.52072
G1 X120.1076 Y118.25812 Z8.56066 F5000.
Z9.16066
G0 Z15.675
(2 1/2 Axis Profiling - Finish)
(Endmill 1/4in 6.35mm Carbide Roughing)
X110.79567 Y118.26655
G1 Z7.5 F300.7
X107.91734 Y115.48891 F902.2
G03 X107.76631 Y107.00498 I4.16645 J-4.31748
G02 X114.02741 Y96.9095 I-20.26887 J-19.55981 F1203.
X115.20457 Y82.37288 I-26.09903 J-9.42944
X107.76631 Y107.00498 I-27.70713 J5.07229
G03 X116.74514 Y106.84513 I4.56934 J4.40949 F1804.5
G1 X118.90388 Y108.92835
G0 Z15.675
(2 1/2 Axis Profiling - Finish-2)
(Endmill 1/4in 6.35mm Carbide Roughing)
X115.95623 Y120.06108
G1 Z8.5 F300.7
X120.3339 Y126.75704 F902.2
G03 X118.59519 Y135.06227 I-5.02197 J3.28326
X56.40481 Y39.93773 I-31.09519 J-47.56227 F1203.
X118.59519 Y135.06227 I31.09519 J47.56227
X109.80549 Y133.22213 I-3.47478 J-5.31492 F1804.5
G1 X105.42781 Y126.52617
G0 Z15.675
(2 1/2 Axis Profiling - Finish-2-1)
(Endmill 1/4in 6.35mm Carbide Roughing)
X116.47963 Y107.7228
G1 Z7.5 F300.7
X119.32362 Y110.53558 F902.2
G03 X119.37042 Y119.02073 I-4.21918 J4.26598
X55.62957 Y55.97928 I-31.87042 J-31.52073 F1203.
X119.37042 Y119.02073 I31.87043 J31.52072
X110.3903 Y119.07027 I-4.51483 J-4.46529 F1804.5
G1 X108.25732 Y116.96068
G0 Z15.675
(2 1/2 Axis Pocketing)
(Endmill 1/4in 6.35mm Carbide Roughing)
X111.14539 Y115.06251
G1 Z8.2 F1002.5
Z7.6 F3007.5
X110.62687 Y115.5025 Z7.48009
X110.03184 Y115.98687 Z7.3448
X109.42703 Y116.45898 Z7.20952
X108.81271 Y116.91863 Z7.07423
Y117.3396 Z7.
G02 X113.75266 Y113.12893 I-20.9978 J-29.63764 F4010.
X117.37245 Y108.81237 I-25.93775 J-25.42697
G1 X116.91896
G03 X108.81271 Y116.91863 I-30.29259 J-22.18633
G1 Y117.3396
X107.22521
Y116.10258
G02 X116.10292 Y107.22487 I-20.59884 J-29.47654
G1 X120.31101
G03 X114.8863 Y114.24024 I-32.4961 J-19.52291
X107.22521 Y120.26545 I-27.07139 J-26.53828
G1 Y117.3396
X105.63771
Y122.94925
G02 X116.01994 Y115.35156 I-17.8228 J-35.24729
X123.00503 Y105.63737 I-28.20503 J-27.6496
G1 X115.26363
G03 X105.63771 Y115.26329 I-28.63726 J-19.01133
G1 Y117.3396
X104.05021
Y114.39865
G02 X114.39899 Y104.04987 I-17.42384 J-27.77261
G1 X125.50699
G03 X117.15358 Y116.46287 I-37.69208 J-16.34791
X104.05021 Y125.44268 I-29.33867 J-28.76091
G1 Y117.3396
X102.46271
Y127.78129
G02 X118.28722 Y117.57418 I-14.6478 J-40.07933
X127.83135 Y102.52073 I-30.47231 J-29.87222
G1 X127.83423 Y102.51296
X127.83507 Y102.48929
X127.82156 Y102.46985
X127.79909 Y102.46237
X113.50655
G03 X102.46271 Y113.50622 I-26.88018 J-15.83633
G1 Y117.3396
X100.87521
Y113.48063
G03 X101.39058 Y112.29347 I1.62498 J-0.00001
G02 X112.2938 Y101.39025 I-14.76421 J-25.66743
G03 X113.48098 Y100.87487 I1.18719 J1.10966
G1 X127.79909
G03 X129.32201 Y103.06674 I0. J1.62501
G1 X129.32005 Y103.07202
G03 X119.42085 Y118.6855 I-41.50514 J-15.37006
X102.59445 Y129.42103 I-31.60594 J-30.98354
X100.87521 Y127.79875 I-0.09423 J-1.62229
G1 Y117.3396
G0 Z15.675
X108.81271
G1 Z6.5 F1002.5
G02 X113.75266 Y113.12893 I-20.9978 J-29.63764 F4010.
X117.37245 Y108.81237 I-25.93775 J-25.42697
G1 X116.91896
G03 X108.81271 Y116.91863 I-30.29259 J-22.18633
G1 Y117.3396
X107.22521
Y116.10258
G02 X116.10292 Y107.22487 I-20.59884 J-29.47654
G1 X120.31101
G03 X114.8863 Y114.24024 I-32.4961 J-19.52291
X107.22521 Y120.26545 I-27.07139 J-26.53828
G1 Y117.3396
X105.63771
Y122.94925
G02 X116.01994 Y115.35156 I-17.8228 J-35.24729
X123.00503 Y105.63737 I-28.20503 J-27.6496
G1 X115.26363
G03 X105.63771 Y115.26329 I-28.63726 J-19.01133
G1 Y117.3396
X104.05021
Y114.39865
G02 X114.39899 Y104.04987 I-17.42384 J-27.77261
G1 X125.50699
G03 X117.15358 Y116.46287 I-37.69208 J-16.34791
X104.05021 Y125.44268 I-29.33867 J-28.76091
G1 Y117.3396
X102.46271
Y127.78129
G02 X118.28722 Y117.57418 I-14.6478 J-40.07933
X127.83135 Y102.52073 I-30.47231 J-29.87222
G1 X127.83423 Y102.51296
X127.83507 Y102.48929
X127.82156 Y102.46985
X127.79909 Y102.46237
X113.50655
G03 X102.46271 Y113.50622 I-26.88018 J-15.83633
G1 Y117.3396
X100.87521
Y113.48063
G03 X101.39058 Y112.29347 I1.62498 J-0.00001
G02 X112.2938 Y101.39025 I-14.76421 J-25.66743
G03 X113.48098 Y100.87487 I1.18719 J1.10966
G1 X127.79909
G03 X129.32201 Y103.06674 I0. J1.62501
G1 X129.32005 Y103.07202
G03 X119.42085 Y118.6855 I-41.50514 J-15.37006
X102.59445 Y129.42103 I-31.60594 J-30.98354
X100.87521 Y127.79875 I-0.09423 J-1.62229
G1 Y117.3396
G0 Z15.675
X108.81271
G1 Z6. F1002.5
G02 X113.75266 Y113.12893 I-20.9978 J-29.63764 F4010.
X117.37245 Y108.81237 I-25.93775 J-25.42697
G1 X116.91896
G03 X108.81271 Y116.91863 I-30.29259 J-22.18633
G1 Y117.3396
X107.22521
Y116.10258
G02 X116.10292 Y107.22487 I-20.59884 J-29.47654
G1 X120.31101
G03 X114.8863 Y114.24024 I-32.4961 J-19.52291
X107.22521 Y120.26545 I-27.07139 J-26.53828
G1 Y117.3396
X105.63771
Y122.94925
G02 X116.01994 Y115.35156 I-17.8228 J-35.24729
X123.00503 Y105.63737 I-28.20503 J-27.6496
G1 X115.26363
G03 X105.63771 Y115.26329 I-28.63726 J-19.01133
G1 Y117.3396
X104.05021
Y114.39865
G02 X114.39899 Y104.04987 I-17.42384 J-27.77261
G1 X125.50699
G03 X117.15358 Y116.46287 I-37.69208 J-16.34791
X104.05021 Y125.44268 I-29.33867 J-28.76091
G1 Y117.3396
X102.46271
Y127.78129
G02 X118.28722 Y117.57418 I-14.6478 J-40.07933
X127.83135 Y102.52073 I-30.47231 J-29.87222
G1 X127.83423 Y102.51296
X127.83507 Y102.48929
X127.82156 Y102.46985
X127.79909 Y102.46237
X113.50655
G03 X102.46271 Y113.50622 I-26.88018 J-15.83633
G1 Y117.3396
X100.87521
Y113.48063
G03 X101.39058 Y112.29347 I1.62498 J-0.00001
G02 X112.2938 Y101.39025 I-14.76421 J-25.66743
G03 X113.48098 Y100.87487 I1.18719 J1.10966
G1 X127.79909
G03 X129.32201 Y103.06674 I0. J1.62501
G1 X129.32005 Y103.07202
G03 X119.42085 Y118.6855 I-41.50514 J-15.37006
X102.59445 Y129.42103 I-31.60594 J-30.98354
X100.87521 Y127.79875 I-0.09423 J-1.62229
G1 Y117.3396
G0 Z15.675
X108.81271
G1 Z5.5 F1002.5
G02 X113.75266 Y113.12893 I-20.9978 J-29.63764 F4010.
X117.37245 Y108.81237 I-25.93775 J-25.42697
G1 X116.91896
G03 X108.81271 Y116.91863 I-30.29259 J-22.18633
G1 Y117.3396
X107.22521
Y116.10258
G02 X116.10292 Y107.22487 I-20.59884 J-29.47654
G1 X120.31101
G03 X114.8863 Y114.24024 I-32.4961 J-19.52291
X107.22521 Y120.26545 I-27.07139 J-26.53828
G1 Y117.3396
X105.63771
Y122.94925
G02 X116.01994 Y115.35156 I-17.8228 J-35.24729
X123.00503 Y105.63737 I-28.20503 J-27.6496
G1 X115.26363
G03 X105.63771 Y115.26329 I-28.63726 J-19.01133
G1 Y117.3396
X104.05021
Y114.39865
G02 X114.39899 Y104.04987 I-17.42384 J-27.77261
G1 X125.50699
G03 X117.15358 Y116.46287 I-37.69208 J-16.34791
X104.05021 Y125.44268 I-29.33867 J-28.76091
G1 Y117.3396
X102.46271
Y127.78129
G02 X118.28722 Y117.57418 I-14.6478 J-40.07933
X127.83135 Y102.52073 I-30.47231 J-29.87222
G1 X127.83423 Y102.51296
X127.83507 Y102.48929
X127.82156 Y102.46985
X127.79909 Y102.46237
X113.50655
G03 X102.46271 Y113.50622 I-26.88018 J-15.83633
G1 Y117.3396
X100.87521
Y113.48063
G03 X101.39058 Y112.29347 I1.62498 J-0.00001
G02 X112.2938 Y101.39025 I-14.76421 J-25.66743
G03 X113.48098 Y100.87487 I1.18719 J1.10966
G1 X127.79909
G03 X129.32201 Y103.06674 I0. J1.62501
G1 X129.32005 Y103.07202
G03 X119.42085 Y118.6855 I-41.50514 J-15.37006
X102.59445 Y129.42103 I-31.60594 J-30.98354
X100.87521 Y127.79875 I-0.09423 J-1.62229
G1 Y117.3396
G0 Z15.675
X108.81271
G1 Z5. F1002.5
G02 X113.75266 Y113.12893 I-20.9978 J-29.63764 F4010.
X117.37245 Y108.81237 I-25.93775 J-25.42697
G1 X116.91896
G03 X108.81271 Y116.91863 I-30.29259 J-22.18633
G1 Y117.3396
X107.22521
Y116.10258
G02 X116.10292 Y107.22487 I-20.59884 J-29.47654
G1 X120.31101
G03 X114.8863 Y114.24024 I-32.4961 J-19.52291
X107.22521 Y120.26545 I-27.07139 J-26.53828
G1 Y117.3396
X105.63771
Y122.94925
G02 X116.01994 Y115.35156 I-17.8228 J-35.24729
X123.00503 Y105.63737 I-28.20503 J-27.6496
G1 X115.26363
G03 X105.63771 Y115.26329 I-28.63726 J-19.01133
G1 Y117.3396
X104.05021
Y114.39865
G02 X114.39899 Y104.04987 I-17.42384 J-27.77261
G1 X125.50699
G03 X117.15358 Y116.46287 I-37.69208 J-16.34791
X104.05021 Y125.44268 I-29.33867 J-28.76091
G1 Y117.3396
X102.46271
Y127.78129
G02 X118.28722 Y117.57418 I-14.6478 J-40.07933
X127.83135 Y102.52073 I-30.47231 J-29.87222
G1 X127.83423 Y102.51296
X127.83507 Y102.48929
X127.82156 Y102.46985
X127.79909 Y102.46237
X113.50655
G03 X102.46271 Y113.50622 I-26.88018 J-15.83633
G1 Y117.3396
X100.87521
Y113.48063
G03 X101.39058 Y112.29347 I1.62498 J-0.00001
G02 X112.2938 Y101.39025 I-14.76421 J-25.66743
G03 X113.48098 Y100.87487 I1.18719 J1.10966
G1 X127.79909
G03 X129.32201 Y103.06674 I0. J1.62501
G1 X129.32005 Y103.07202
G03 X119.42085 Y118.6855 I-41.50514 J-15.37006
X102.59445 Y129.42103 I-31.60594 J-30.98354
X100.87521 Y127.79875 I-0.09423 J-1.62229
G1 Y117.3396
G0 Z15.675
X108.81271
G1 Z4.5 F1002.5
G02 X113.75266 Y113.12893 I-20.9978 J-29.63764 F4010.
X117.37245 Y108.81237 I-25.93775 J-25.42697
G1 X116.91896
G03 X108.81271 Y116.91863 I-30.29259 J-22.18633
G1 Y117.3396
X107.22521
Y116.10258
G02 X116.10292 Y107.22487 I-20.59884 J-29.47654
G1 X120.31101
G03 X114.8863 Y114.24024 I-32.4961 J-19.52291
X107.22521 Y120.26545 I-27.07139 J-26.53828
G1 Y117.3396
X105.63771
Y122.94925
G02 X116.01994 Y115.35156 I-17.8228 J-35.24729
X123.00503 Y105.63737 I-28.20503 J-27.6496
G1 X115.26363
G03 X105.63771 Y115.26329 I-28.63726 J-19.01133
G1 Y117.3396
X104.05021
Y114.39865
G02 X114.39899 Y104.04987 I-17.42384 J-27.77261
G1 X125.50699
G03 X117.15358 Y116.46287 I-37.69208 J-16.34791
X104.05021 Y125.44268 I-29.33867 J-28.76091
G1 Y117.3396
X102.46271
Y127.78129
G02 X118.28722 Y117.57418 I-14.6478 J-40.07933
X127.83135 Y102.52073 I-30.47231 J-29.87222
G1 X127.83423 Y102.51296
X127.83507 Y102.48929
X127.82156 Y102.46985
X127.79909 Y102.46237
X113.50655
G03 X102.46271 Y113.50622 I-26.88018 J-15.83633
G1 Y117.3396
X100.87521
Y113.48063
G03 X101.39058 Y112.29347 I1.62498 J-0.00001
G02 X112.2938 Y101.39025 I-14.76421 J-25.66743
G03 X113.48098 Y100.87487 I1.18719 J1.10966
G1 X127.79909
G03 X129.32201 Y103.06674 I0. J1.62501
G1 X129.32005 Y103.07202
G03 X119.42085 Y118.6855 I-41.50514 J-15.37006
X102.59445 Y129.42103 I-31.60594 J-30.98354
X100.87521 Y127.79875 I-0.09423 J-1.62229
G1 Y117.3396
G0 Z15.675
X108.81271
G1 Z4. F1002.5
G02 X113.75266 Y113.12893 I-20.9978 J-29.63764 F4010.
X117.37245 Y108.81237 I-25.93775 J-25.42697
G1 X116.91896
G03 X108.81271 Y116.91863 I-30.29259 J-22.18633
G1 Y117.3396
X107.22521
Y116.10258
G02 X116.10292 Y107.22487 I-20.59884 J-29.47654
G1 X120.31101
G03 X114.8863 Y114.24024 I-32.4961 J-19.52291
X107.22521 Y120.26545 I-27.07139 J-26.53828
G1 Y117.3396
X105.63771
Y122.94925
G02 X116.01994 Y115.35156 I-17.8228 J-35.24729
X123.00503 Y105.63737 I-28.20503 J-27.6496
G1 X115.26363
G03 X105.63771 Y115.26329 I-28.63726 J-19.01133
G1 Y117.3396
X104.05021
Y114.39865
G02 X114.39899 Y104.04987 I-17.42384 J-27.77261
G1 X125.50699
G03 X117.15358 Y116.46287 I-37.69208 J-16.34791
X104.05021 Y125.44268 I-29.33867 J-28.76091
G1 Y117.3396
X102.46271
Y127.78129
G02 X118.28722 Y117.57418 I-14.6478 J-40.07933
X127.83135 Y102.52073 I-30.47231 J-29.87222
G1 X127.83423 Y102.51296
X127.83507 Y102.48929
X127.82156 Y102.46985
X127.79909 Y102.46237
X113.50655
G03 X102.46271 Y113.50622 I-26.88018 J-15.83633
G1 Y117.3396
X100.87521
Y113.48063
G03 X101.39058 Y112.29347 I1.62498 J-0.00001
G02 X112.2938 Y101.39025 I-14.76421 J-25.66743
G03 X113.48098 Y100.87487 I1.18719 J1.10966
G1 X127.79909
G03 X129.32201 Y103.06674 I0. J1.62501
G1 X129.32005 Y103.07202
G03 X119.42085 Y118.6855 I-41.50514 J-15.37006
X102.59445 Y129.42103 I-31.60594 J-30.98354
X100.87521 Y127.79875 I-0.09423 J-1.62229
G1 Y117.3396
G0 Z15.675
X108.81271
G1 Z3.5 F1002.5
G02 X113.75266 Y113.12893 I-20.9978 J-29.63764 F4010.
X117.37245 Y108.81237 I-25.93775 J-25.42697
G1 X116.91896
G03 X108.81271 Y116.91863 I-30.29259 J-22.18633
G1 Y117.3396
X107.22521
Y116.10258
G02 X116.10292 Y107.22487 I-20.59884 J-29.47654
G1 X120.31101
G03 X114.8863 Y114.24024 I-32.4961 J-19.52291
X107.22521 Y120.26545 I-27.07139 J-26.53828
G1 Y117.3396
X105.63771
Y122.94925
G02 X116.01994 Y115.35156 I-17.8228 J-35.24729
X123.00503 Y105.63737 I-28.20503 J-27.6496
G1 X115.26363
G03 X105.63771 Y115.26329 I-28.63726 J-19.01133
G1 Y117.3396
X104.05021
Y114.39865
G02 X114.39899 Y104.04987 I-17.42384 J-27.77261
G1 X125.50699
G03 X117.15358 Y116.46287 I-37.69208 J-16.34791
X104.05021 Y125.44268 I-29.33867 J-28.76091
G1 Y117.3396
X102.46271
Y127.78129
G02 X118.28722 Y117.57418 I-14.6478 J-40.07933
X127.83135 Y102.52073 I-30.47231 J-29.87222
G1 X127.83423 Y102.51296
X127.83507 Y102.48929
X127.82156 Y102.46985
X127.79909 Y102.46237
X113.50655
G03 X102.46271 Y113.50622 I-26.88018 J-15.83633
G1 Y117.3396
X100.87521
Y113.48063
G03 X101.39058 Y112.29347 I1.62498 J-0.00001
G02 X112.2938 Y101.39025 I-14.76421 J-25.66743
G03 X113.48098 Y100.87487 I1.18719 J1.10966
G1 X127.79909
G03 X129.32201 Y103.06674 I0. J1.62501
G1 X129.32005 Y103.07202
G03 X119.42085 Y118.6855 I-41.50514 J-15.37006
X102.59445 Y129.42103 I-31.60594 J-30.98354
X100.87521 Y127.79875 I-0.09423 J-1.62229
G1 Y117.3396
G0 Z15.675
X108.81271
G1 Z3. F1002.5
G02 X113.75266 Y113.12893 I-20.9978 J-29.63764 F4010.
X117.37245 Y108.81237 I-25.93775 J-25.42697
G1 X116.91896
G03 X108.81271 Y116.91863 I-30.29259 J-22.18633
G1 Y117.3396
X107.22521
Y116.10258
G02 X116.10292 Y107.22487 I-20.59884 J-29.47654
G1 X120.31101
G03 X114.8863 Y114.24024 I-32.4961 J-19.52291
X107.22521 Y120.26545 I-27.07139 J-26.53828
G1 Y117.3396
X105.63771
Y122.94925
G02 X116.01994 Y115.35156 I-17.8228 J-35.24729
X123.00503 Y105.63737 I-28.20503 J-27.6496
G1 X115.26363
G03 X105.63771 Y115.26329 I-28.63726 J-19.01133
G1 Y117.3396
X104.05021
Y114.39865
G02 X114.39899 Y104.04987 I-17.42384 J-27.77261
G1 X125.50699
G03 X117.15358 Y116.46287 I-37.69208 J-16.34791
X104.05021 Y125.44268 I-29.33867 J-28.76091
G1 Y117.3396
X102.46271
Y127.78129
G02 X118.28722 Y117.57418 I-14.6478 J-40.07933
X127.83135 Y102.52073 I-30.47231 J-29.87222
G1 X127.83423 Y102.51296
X127.83507 Y102.48929
X127.82156 Y102.46985
X127.79909 Y102.46237
X113.50655
G03 X102.46271 Y113.50622 I-26.88018 J-15.83633
G1 Y117.3396
X100.87521
Y113.48063
G03 X101.39058 Y112.29347 I1.62498 J-0.00001
G02 X112.2938 Y101.39025 I-14.76421 J-25.66743
G03 X113.48098 Y100.87487 I1.18719 J1.10966
G1 X127.79909
G03 X129.32201 Y103.06674 I0. J1.62501
G1 X129.32005 Y103.07202
G03 X119.42085 Y118.6855 I-41.50514 J-15.37006
X102.59445 Y129.42103 I-31.60594 J-30.98354
X100.87521 Y127.79875 I-0.09423 J-1.62229
G1 Y117.3396
G0 Z15.675
X108.81271
G1 Z2.5 F1002.5
G02 X113.75266 Y113.12893 I-20.9978 J-29.63764 F4010.
X117.37245 Y108.81237 I-25.93775 J-25.42697
G1 X116.91896
G03 X108.81271 Y116.91863 I-30.29259 J-22.18633
G1 Y117.3396
X107.22521
Y116.10258
G02 X116.10292 Y107.22487 I-20.59884 J-29.47654
G1 X120.31101
G03 X114.8863 Y114.24024 I-32.4961 J-19.52291
X107.22521 Y120.26545 I-27.07139 J-26.53828
G1 Y117.3396
X105.63771
Y122.94925
G02 X116.01994 Y115.35156 I-17.8228 J-35.24729
X123.00503 Y105.63737 I-28.20503 J-27.6496
G1 X115.26363
G03 X105.63771 Y115.26329 I-28.63726 J-19.01133
G1 Y117.3396
X104.05021
Y114.39865
G02 X114.39899 Y104.04987 I-17.42384 J-27.77261
G1 X125.50699
G03 X117.15358 Y116.46287 I-37.69208 J-16.34791
X104.05021 Y125.44268 I-29.33867 J-28.76091
G1 Y117.3396
X102.46271
Y127.78129
G02 X118.28722 Y117.57418 I-14.6478 J-40.07933
X127.83135 Y102.52073 I-30.47231 J-29.87222
G1 X127.83423 Y102.51296
X127.83507 Y102.48929
X127.82156 Y102.46985
X127.79909 Y102.46237
X113.50655
G03 X102.46271 Y113.50622 I-26.88018 J-15.83633
G1 Y117.3396
X100.87521
Y113.48063
G03 X101.39058 Y112.29347 I1.62498 J-0.00001
G02 X112.2938 Y101.39025 I-14.76421 J-25.66743
G03 X113.48098 Y100.87487 I1.18719 J1.10966
G1 X127.79909
G03 X129.32201 Y103.06674 I0. J1.62501
G1 X129.32005 Y103.07202
G03 X119.42085 Y118.6855 I-41.50514 J-15.37006
X102.59445 Y129.42103 I-31.60594 J-30.98354
X100.87521 Y127.79875 I-0.09423 J-1.62229
G1 Y117.3396
G0 Z15.675
X108.81271
G1 Z2. F1002.5
G02 X113.75266 Y113.12893 I-20.9978 J-29.63764 F4010.
X117.37245 Y108.81237 I-25.93775 J-25.42697
G1 X116.91896
G03 X108.81271 Y116.91863 I-30.29259 J-22.18633
G1 Y117.3396
X107.22521
Y116.10258
G02 X116.10292 Y107.22487 I-20.59884 J-29.47654
G1 X120.31101
G03 X114.8863 Y114.24024 I-32.4961 J-19.52291
X107.22521 Y120.26545 I-27.07139 J-26.53828
G1 Y117.3396
X105.63771
Y122.94925
G02 X116.01994 Y115.35156 I-17.8228 J-35.24729
X123.00503 Y105.63737 I-28.20503 J-27.6496
G1 X115.26363
G03 X105.63771 Y115.26329 I-28.63726 J-19.01133
G1 Y117.3396
X104.05021
Y114.39865
G02 X114.39899 Y104.04987 I-17.42384 J-27.77261
G1 X125.50699
G03 X117.15358 Y116.46287 I-37.69208 J-16.34791
X104.05021 Y125.44268 I-29.33867 J-28.76091
G1 Y117.3396
X102.46271
Y127.78129
G02 X118.28722 Y117.57418 I-14.6478 J-40.07933
X127.83135 Y102.52073 I-30.47231 J-29.87222
G1 X127.83423 Y102.51296
X127.83507 Y102.48929
X127.82156 Y102.46985
X127.79909 Y102.46237
X113.50655
G03 X102.46271 Y113.50622 I-26.88018 J-15.83633
G1 Y117.3396
X100.87521
Y113.48063
G03 X101.39058 Y112.29347 I1.62498 J-0.00001
G02 X112.2938 Y101.39025 I-14.76421 J-25.66743
G03 X113.48098 Y100.87487 I1.18719 J1.10966
G1 X127.79909
G03 X129.32201 Y103.06674 I0. J1.62501
G1 X129.32005 Y103.07202
G03 X119.42085 Y118.6855 I-41.50514 J-15.37006
X102.59445 Y129.42103 I-31.60594 J-30.98354
X100.87521 Y127.79875 I-0.09423 J-1.62229
G1 Y117.3396
G0 Z15.675
X108.81271
G1 Z1.5 F1002.5
G02 X113.75266 Y113.12893 I-20.9978 J-29.63764 F4010.
X117.37245 Y108.81237 I-25.93775 J-25.42697
G1 X116.91896
G03 X108.81271 Y116.91863 I-30.29259 J-22.18633
G1 Y117.3396
X107.22521
Y116.10258
G02 X116.10292 Y107.22487 I-20.59884 J-29.47654
G1 X120.31101
G03 X114.8863 Y114.24024 I-32.4961 J-19.52291
X107.22521 Y120.26545 I-27.07139 J-26.53828
G1 Y117.3396
X105.63771
Y122.94925
G02 X116.01994 Y115.35156 I-17.8228 J-35.24729
X123.00503 Y105.63737 I-28.20503 J-27.6496
G1 X115.26363
G03 X105.63771 Y115.26329 I-28.63726 J-19.01133
G1 Y117.3396
X104.05021
Y114.39865
G02 X114.39899 Y104.04987 I-17.42384 J-27.77261
G1 X125.50699
G03 X117.15358 Y116.46287 I-37.69208 J-16.34791
X104.05021 Y125.44268 I-29.33867 J-28.76091
G1 Y117.3396
X102.46271
Y127.78129
G02 X118.28722 Y117.57418 I-14.6478 J-40.07933
X127.83135 Y102.52073 I-30.47231 J-29.87222
G1 X127.83423 Y102.51296
X127.83507 Y102.48929
X127.82156 Y102.46985
X127.79909 Y102.46237
X113.50655
G03 X102.46271 Y113.50622 I-26.88018 J-15.83633
G1 Y117.3396
X100.87521
Y113.48063
G03 X101.39058 Y112.29347 I1.62498 J-0.00001
G02 X112.2938 Y101.39025 I-14.76421 J-25.66743
G03 X113.48098 Y100.87487 I1.18719 J1.10966
G1 X127.79909
G03 X129.32201 Y103.06674 I0. J1.62501
G1 X129.32005 Y103.07202
G03 X119.42085 Y118.6855 I-41.50514 J-15.37006
X102.59445 Y129.42103 I-31.60594 J-30.98354
X100.87521 Y127.79875 I-0.09423 J-1.62229
G1 Y117.3396
G0 Z15.675
X108.81271
G1 Z1. F1002.5
G02 X113.75266 Y113.12893 I-20.9978 J-29.63764 F4010.
X117.37245 Y108.81237 I-25.93775 J-25.42697
G1 X116.91896
G03 X108.81271 Y116.91863 I-30.29259 J-22.18633
G1 Y117.3396
X107.22521
Y116.10258
G02 X116.10292 Y107.22487 I-20.59884 J-29.47654
G1 X120.31101
G03 X114.8863 Y114.24024 I-32.4961 J-19.52291
X107.22521 Y120.26545 I-27.07139 J-26.53828
G1 Y117.3396
X105.63771
Y122.94925
G02 X116.01994 Y115.35156 I-17.8228 J-35.24729
X123.00503 Y105.63737 I-28.20503 J-27.6496
G1 X115.26363
G03 X105.63771 Y115.26329 I-28.63726 J-19.01133
G1 Y117.3396
X104.05021
Y114.39865
G02 X114.39899 Y104.04987 I-17.42384 J-27.77261
G1 X125.50699
G03 X117.15358 Y116.46287 I-37.69208 J-16.34791
X104.05021 Y125.44268 I-29.33867 J-28.76091
G1 Y117.3396
X102.46271
Y127.78129
G02 X118.28722 Y117.57418 I-14.6478 J-40.07933
X127.83135 Y102.52073 I-30.47231 J-29.87222
G1 X127.83423 Y102.51296
X127.83507 Y102.48929
X127.82156 Y102.46985
X127.79909 Y102.46237
X113.50655
G03 X102.46271 Y113.50622 I-26.88018 J-15.83633
G1 Y117.3396
X100.87521
Y113.48063
G03 X101.39058 Y112.29347 I1.62498 J-0.00001
G02 X112.2938 Y101.39025 I-14.76421 J-25.66743
G03 X113.48098 Y100.87487 I1.18719 J1.10966
G1 X127.79909
G03 X129.32201 Y103.06674 I0. J1.62501
G1 X129.32005 Y103.07202
G03 X119.42085 Y118.6855 I-41.50514 J-15.37006
X102.59445 Y129.42103 I-31.60594 J-30.98354
X100.87521 Y127.79875 I-0.09423 J-1.62229
G1 Y117.3396
G0 Z15.675
X108.81271
G1 Z0.5 F1002.5
G02 X113.75266 Y113.12893 I-20.9978 J-29.63764 F4010.
X117.37245 Y108.81237 I-25.93775 J-25.42697
G1 X116.91896
G03 X108.81271 Y116.91863 I-30.29259 J-22.18633
G1 Y117.3396
X107.22521
Y116.10258
G02 X116.10292 Y107.22487 I-20.59884 J-29.47654
G1 X120.31101
G03 X114.8863 Y114.24024 I-32.4961 J-19.52291
X107.22521 Y120.26545 I-27.07139 J-26.53828
G1 Y117.3396
X105.63771
Y122.94925
G02 X116.01994 Y115.35156 I-17.8228 J-35.24729
X123.00503 Y105.63737 I-28.20503 J-27.6496
G1 X115.26363
G03 X105.63771 Y115.26329 I-28.63726 J-19.01133
G1 Y117.3396
X104.05021
Y114.39865
G02 X114.39899 Y104.04987 I-17.42384 J-27.77261
G1 X125.50699
G03 X117.15358 Y116.46287 I-37.69208 J-16.34791
X104.05021 Y125.44268 I-29.33867 J-28.76091
G1 Y117.3396
X102.46271
Y127.78129
G02 X118.28722 Y117.57418 I-14.6478 J-40.07933
X127.83135 Y102.52073 I-30.47231 J-29.87222
G1 X127.83423 Y102.51296
X127.83507 Y102.48929
X127.82156 Y102.46985
X127.79909 Y102.46237
X113.50655
G03 X102.46271 Y113.50622 I-26.88018 J-15.83633
G1 Y117.3396
X100.87521
Y113.48063
G03 X101.39058 Y112.29347 I1.62498 J-0.00001
G02 X112.2938 Y101.39025 I-14.76421 J-25.66743
G03 X113.48098 Y100.87487 I1.18719 J1.10966
G1 X127.79909
G03 X129.32201 Y103.06674 I0. J1.62501
G1 X129.32005 Y103.07202
G03 X119.42085 Y118.6855 I-41.50514 J-15.37006
X102.59445 Y129.42103 I-31.60594 J-30.98354
X100.87521 Y127.79875 I-0.09423 J-1.62229
G1 Y117.3396
G0 Z15.675
X108.81271
G1 Z0. F1002.5
G02 X113.75266 Y113.12893 I-20.9978 J-29.63764 F4010.
X117.37245 Y108.81237 I-25.93775 J-25.42697
G1 X116.91896
G03 X108.81271 Y116.91863 I-30.29259 J-22.18633
G1 Y117.3396
X107.22521
Y116.10258
G02 X116.10292 Y107.22487 I-20.59884 J-29.47654
G1 X120.31101
G03 X114.8863 Y114.24024 I-32.4961 J-19.52291
X107.22521 Y120.26545 I-27.07139 J-26.53828
G1 Y117.3396
X105.63771
Y122.94925
G02 X116.01994 Y115.35156 I-17.8228 J-35.24729
X123.00503 Y105.63737 I-28.20503 J-27.6496
G1 X115.26363
G03 X105.63771 Y115.26329 I-28.63726 J-19.01133
G1 Y117.3396
X104.05021
Y114.39865
G02 X114.39899 Y104.04987 I-17.42384 J-27.77261
G1 X125.50699
G03 X117.15358 Y116.46287 I-37.69208 J-16.34791
X104.05021 Y125.44268 I-29.33867 J-28.76091
G1 Y117.3396
X102.46271
Y127.78129
G02 X118.28722 Y117.57418 I-14.6478 J-40.07933
X127.83135 Y102.52073 I-30.47231 J-29.87222
G1 X127.83423 Y102.51296
X127.83507 Y102.48929
X127.82156 Y102.46985
X127.79909 Y102.46237
X113.50655
G03 X102.46271 Y113.50622 I-26.88018 J-15.83633
G1 Y117.3396
X100.87521
Y113.48063
G03 X101.39058 Y112.29347 I1.62498 J-0.00001
G02 X112.2938 Y101.39025 I-14.76421 J-25.66743
G03 X113.48098 Y100.87487 I1.18719 J1.10966
G1 X127.79909
G03 X129.32201 Y103.06674 I0. J1.62501
G1 X129.32005 Y103.07202
G03 X119.42085 Y118.6855 I-41.50514 J-15.37006
X102.59445 Y129.42103 I-31.60594 J-30.98354
X100.87521 Y127.79875 I-0.09423 J-1.62229
G1 Y117.3396
G0 Z15.675
X108.81271
G1 Z-0.5 F1002.5
G02 X113.75266 Y113.12893 I-20.9978 J-29.63764 F4010.
X117.37245 Y108.81237 I-25.93775 J-25.42697
G1 X116.91896
G03 X108.81271 Y116.91863 I-30.29259 J-22.18633
G1 Y117.3396
X107.22521
Y116.10258
G02 X116.10292 Y107.22487 I-20.59884 J-29.47654
G1 X120.31101
G03 X114.8863 Y114.24024 I-32.4961 J-19.52291
X107.22521 Y120.26545 I-27.07139 J-26.53828
G1 Y117.3396
X105.63771
Y122.94925
G02 X116.01994 Y115.35156 I-17.8228 J-35.24729
X123.00503 Y105.63737 I-28.20503 J-27.6496
G1 X115.26363
G03 X105.63771 Y115.26329 I-28.63726 J-19.01133
G1 Y117.3396
X104.05021
Y114.39865
G02 X114.39899 Y104.04987 I-17.42384 J-27.77261
G1 X125.50699
G03 X117.15358 Y116.46287 I-37.69208 J-16.34791
X104.05021 Y125.44268 I-29.33867 J-28.76091
G1 Y117.3396
X102.46271
Y127.78129
G02 X118.28722 Y117.57418 I-14.6478 J-40.07933
X127.83135 Y102.52073 I-30.47231 J-29.87222
G1 X127.83423 Y102.51296
X127.83507 Y102.48929
X127.82156 Y102.46985
X127.79909 Y102.46237
X113.50655
G03 X102.46271 Y113.50622 I-26.88018 J-15.83633
G1 Y117.3396
X100.87521
Y113.48063
G03 X101.39058 Y112.29347 I1.62498 J-0.00001
G02 X112.2938 Y101.39025 I-14.76421 J-25.66743
G03 X113.48098 Y100.87487 I1.18719 J1.10966
G1 X127.79909
G03 X129.32201 Y103.06674 I0. J1.62501
G1 X129.32005 Y103.07202
G03 X119.42085 Y118.6855 I-41.50514 J-15.37006
X102.59445 Y129.42103 I-31.60594 J-30.98354
X100.87521 Y127.79875 I-0.09423 J-1.62229
G1 Y117.3396
X101.93587 Z0.56066 F5000.
Z1.16066
G0 Z15.675
X115.06264 Y63.85482
G1 Z8.2 F1002.5
Z7.6 F3007.5
X115.50263 Y64.37334 Z7.48009
X115.987 Y64.96837 Z7.3448
X116.4591 Y65.57317 Z7.20952
X116.91875 Y66.1875 Z7.07423
X117.33973 Z7.
G02 X112.81432 Y60.94271 I-29.63765 J20.9978 F4010.
X108.8125 Y57.62776 I-25.11224 J26.24259
G1 Y58.08125
G03 X116.91875 Y66.1875 I-22.18633 J30.29259
G1 X117.33973
X118.63508 Y65.26977
G03 X120.26557 Y67.775 I-30.933 J21.91553
G1 X116.10271
G02 X107.225 Y58.89729 I-29.47654 J20.59884
G1 Y54.6892
G03 X113.91187 Y59.79575 I-19.52292 J32.4961
X118.63508 Y65.26977 I-26.20979 J27.38955
G1 X119.93042 Y64.35204
G02 X115.00943 Y58.64879 I-32.22834 J22.83326
X105.6375 Y51.99518 I-27.30735 J28.53651
G1 Y59.73658
G03 X115.26342 Y69.3625 I-19.01133 J28.63726
G1 X122.94938
G02 X119.93042 Y64.35204 I-35.2473 J17.8228
G1 X121.22577 Y63.4343
G03 X125.44281 Y70.95 I-33.52369 J23.751
G1 X114.39878
G02 X104.05 Y60.60122 I-27.77261 J17.42384
G1 Y49.49322
G03 X116.10699 Y57.50182 I-16.34792 J37.69208
X121.22577 Y63.4343 I-28.40491 J29.68348
G1 X122.52112 Y62.51657
G02 X117.20455 Y56.35486 I-34.81904 J24.66873
X102.52086 Y47.16886 I-29.50247 J30.83044
G1 X102.51308 Y47.16597
X102.48942 Y47.16514
X102.46997 Y47.17865
X102.4625 Y47.20112
Y61.49366
G03 X113.50634 Y72.5375 I-15.83633 J26.88018
G1 X127.78142
G02 X122.52112 Y62.51657 I-40.07934 J14.6478
G1 X123.81646 Y61.59884
G03 X129.42115 Y72.40576 I-36.11438 J25.58646
X127.79887 Y74.125 I-1.62228 J0.09422
G1 X113.48075
G03 X112.2936 Y73.60963 I0. J-1.62498
G02 X101.39038 Y62.70641 I-25.66743 J14.76421
G03 X100.875 Y61.51923 I1.10966 J-1.18719
G1 Y47.20112
G03 X103.06686 Y45.6782 I1.625 J0.
G1 X103.07215 Y45.68016
G03 X118.30211 Y55.2079 I-15.37007 J41.50514
X123.81646 Y61.59884 I-30.60003 J31.9774
G0 Z15.675
X117.33973 Y66.1875
G1 Z6.5 F1002.5
G02 X112.81432 Y60.94271 I-29.63765 J20.9978 F4010.
X108.8125 Y57.62776 I-25.11224 J26.24259
G1 Y58.08125
G03 X116.91875 Y66.1875 I-22.18633 J30.29259
G1 X117.33973
X118.63508 Y65.26977
G03 X120.26557 Y67.775 I-30.933 J21.91553
G1 X116.10271
G02 X107.225 Y58.89729 I-29.47654 J20.59884
G1 Y54.6892
G03 X113.91187 Y59.79575 I-19.52292 J32.4961
X118.63508 Y65.26977 I-26.20979 J27.38955
G1 X119.93042 Y64.35204
G02 X115.00943 Y58.64879 I-32.22834 J22.83326
X105.6375 Y51.99518 I-27.30735 J28.53651
G1 Y59.73658
G03 X115.26342 Y69.3625 I-19.01133 J28.63726
G1 X122.94938
G02 X119.93042 Y64.35204 I-35.2473 J17.8228
G1 X121.22577 Y63.4343
G03 X125.44281 Y70.95 I-33.52369 J23.751
G1 X114.39878
G02 X104.05 Y60.60122 I-27.77261 J17.42384
G1 Y49.49322
G03 X116.10699 Y57.50182 I-16.34792 J37.69208
X121.22577 Y63.4343 I-28.40491 J29.68348
G1 X122.52112 Y62.51657
G02 X117.20455 Y56.35486 I-34.81904 J24.66873
X102.52086 Y47.16886 I-29.50247 J30.83044
G1 X102.51308 Y47.16597
X102.48942 Y47.16514
X102.46997 Y47.17865
X102.4625 Y47.20112
Y61.49366
G03 X113.50634 Y72.5375 I-15.83633 J26.88018
G1 X127.78142
G02 X122.52112 Y62.51657 I-40.07934 J14.6478
G1 X123.81646 Y61.59884
G03 X129.42115 Y72.40576 I-36.11438 J25.58646
X127.79887 Y74.125 I-1.62228 J0.09422
G1 X113.48075
G03 X112.2936 Y73.60963 I0. J-1.62498
G02 X101.39038 Y62.70641 I-25.66743 J14.76421
G03 X100.875 Y61.51923 I1.10966 J-1.18719
G1 Y47.20112
G03 X103.06686 Y45.6782 I1.625 J0.
G1 X103.07215 Y45.68016
G03 X118.30211 Y55.2079 I-15.37007 J41.50514
X123.81646 Y61.59884 I-30.60003 J31.9774
G0 Z15.675
X117.33973 Y66.1875
G1 Z6. F1002.5
G02 X112.81432 Y60.94271 I-29.63765 J20.9978 F4010.
X108.8125 Y57.62776 I-25.11224 J26.24259
G1 Y58.08125
G03 X116.91875 Y66.1875 I-22.18633 J30.29259
G1 X117.33973
X118.63508 Y65.26977
G03 X120.26557 Y67.775 I-30.933 J21.91553
G1 X116.10271
G02 X107.225 Y58.89729 I-29.47654 J20.59884
G1 Y54.6892
G03 X113.91187 Y59.79575 I-19.52292 J32.4961
X118.63508 Y65.26977 I-26.20979 J27.38955
G1 X119.93042 Y64.35204
G02 X115.00943 Y58.64879 I-32.22834 J22.83326
X105.6375 Y51.99518 I-27.30735 J28.53651
G1 Y59.73658
G03 X115.26342 Y69.3625 I-19.01133 J28.63726
G1 X122.94938
G02 X119.93042 Y64.35204 I-35.2473 J17.8228
G1 X121.22577 Y63.4343
G03 X125.44281 Y70.95 I-33.52369 J23.751
G1 X114.39878
G02 X104.05 Y60.60122 I-27.77261 J17.42384
G1 Y49.49322
G03 X116.10699 Y57.50182 I-16.34792 J37.69208
X121.22577 Y63.4343 I-28.40491 J29.68348
G1 X122.52112 Y62.51657
G02 X117.20455 Y56.35486 I-34.81904 J24.66873
X102.52086 Y47.16886 I-29.50247 J30.83044
G1 X102.51308 Y47.16597
X102.48942 Y47.16514
X102.46997 Y47.17865
X102.4625 Y47.20112
Y61.49366
G03 X113.50634 Y72.5375 I-15.83633 J26.88018
G1 X127.78142
G02 X122.52112 Y62.51657 I-40.07934 J14.6478
G1 X123.81646 Y61.59884
G03 X129.42115 Y72.40576 I-36.11438 J25.58646
X127.79887 Y74.125 I-1.62228 J0.09422
G1 X113.48075
G03 X112.2936 Y73.60963 I0. J-1.62498
G02 X101.39038 Y62.70641 I-25.66743 J14.76421
G03 X100.875 Y61.51923 I1.10966 J-1.18719
G1 Y47.20112
G03 X103.06686 Y45.6782 I1.625 J0.
G1 X103.07215 Y45.68016
G03 X118.30211 Y55.2079 I-15.37007 J41.50514
X123.81646 Y61.59884 I-30.60003 J31.9774
G0 Z15.675
X117.33973 Y66.1875
G1 Z5.5 F1002.5
G02 X112.81432 Y60.94271 I-29.63765 J20.9978 F4010.
X108.8125 Y57.62776 I-25.11224 J26.24259
G1 Y58.08125
G03 X116.91875 Y66.1875 I-22.18633 J30.29259
G1 X117.33973
X118.63508 Y65.26977
G03 X120.26557 Y67.775 I-30.933 J21.91553
G1 X116.10271
G02 X107.225 Y58.89729 I-29.47654 J20.59884
G1 Y54.6892
G03 X113.91187 Y59.79575 I-19.52292 J32.4961
X118.63508 Y65.26977 I-26.20979 J27.38955
G1 X119.93042 Y64.35204
G02 X115.00943 Y58.64879 I-32.22834 J22.83326
X105.6375 Y51.99518 I-27.30735 J28.53651
G1 Y59.73658
G03 X115.26342 Y69.3625 I-19.01133 J28.63726
G1 X122.94938
G02 X119.93042 Y64.35204 I-35.2473 J17.8228
G1 X121.22577 Y63.4343
G03 X125.44281 Y70.95 I-33.52369 J23.751
G1 X114.39878
G02 X104.05 Y60.60122 I-27.77261 J17.42384
G1 Y49.49322
G03 X116.10699 Y57.50182 I-16.34792 J37.69208
X121.22577 Y63.4343 I-28.40491 J29.68348
G1 X122.52112 Y62.51657
G02 X117.20455 Y56.35486 I-34.81904 J24.66873
X102.52086 Y47.16886 I-29.50247 J30.83044
G1 X102.51308 Y47.16597
X102.48942 Y47.16514
X102.46997 Y47.17865
X102.4625 Y47.20112
Y61.49366
G03 X113.50634 Y72.5375 I-15.83633 J26.88018
G1 X127.78142
G02 X122.52112 Y62.51657 I-40.07934 J14.6478
G1 X123.81646 Y61.59884
G03 X129.42115 Y72.40576 I-36.11438 J25.58646
X127.79887 Y74.125 I-1.62228 J0.09422
G1 X113.48075
G03 X112.2936 Y73.60963 I0. J-1.62498
G02 X101.39038 Y62.70641 I-25.66743 J14.76421
G03 X100.875 Y61.51923 I1.10966 J-1.18719
G1 Y47.20112
G03 X103.06686 Y45.6782 I1.625 J0.
G1 X103.07215 Y45.68016
G03 X118.30211 Y55.2079 I-15.37007 J41.50514
X123.81646 Y61.59884 I-30.60003 J31.9774
G0 Z15.675
X117.33973 Y66.1875
G1 Z5. F1002.5
G02 X112.81432 Y60.94271 I-29.63765 J20.9978 F4010.
X108.8125 Y57.62776 I-25.11224 J26.24259
G1 Y58.08125
G03 X116.91875 Y66.1875 I-22.18633 J30.29259
G1 X117.33973
X118.63508 Y65.26977
G03 X120.26557 Y67.775 I-30.933 J21.91553
G1 X116.10271
G02 X107.225 Y58.89729 I-29.47654 J20.59884
G1 Y54.6892
G03 X113.91187 Y59.79575 I-19.52292 J32.4961
X118.63508 Y65.26977 I-26.20979 J27.38955
G1 X119.93042 Y64.35204
G02 X115.00943 Y58.64879 I-32.22834 J22.83326
X105.6375 Y51.99518 I-27.30735 J28.53651
G1 Y59.73658
G03 X115.26342 Y69.3625 I-19.01133 J28.63726
G1 X122.94938
G02 X119.93042 Y64.35204 I-35.2473 J17.8228
G1 X121.22577 Y63.4343
G03 X125.44281 Y70.95 I-33.52369 J23.751
G1 X114.39878
G02 X104.05 Y60.60122 I-27.77261 J17.42384
G1 Y49.49322
G03 X116.10699 Y57.50182 I-16.34792 J37.69208
X121.22577 Y63.4343 I-28.40491 J29.68348
G1 X122.52112 Y62.51657
G02 X117.20455 Y56.35486 I-34.81904 J24.66873
X102.52086 Y47.16886 I-29.50247 J30.83044
G1 X102.51308 Y47.16597
X102.48942 Y47.16514
X102.46997 Y47.17865
X102.4625 Y47.20112
Y61.49366
G03 X113.50634 Y72.5375 I-15.83633 J26.88018
G1 X127.78142
G02 X122.52112 Y62.51657 I-40.07934 J14.6478
G1 X123.81646 Y61.59884
G03 X129.42115 Y72.40576 I-36.11438 J25.58646
X127.79887 Y74.125 I-1.62228 J0.09422
G1 X113.48075
G03 X112.2936 Y73.60963 I0. J-1.62498
G02 X101.39038 Y62.70641 I-25.66743 J14.76421
G03 X100.875 Y61.51923 I1.10966 J-1.18719
G1 Y47.20112
G03 X103.06686 Y45.6782 I1.625 J0.
G1 X103.07215 Y45.68016
G03 X118.30211 Y55.2079 I-15.37007 J41.50514
X123.81646 Y61.59884 I-30.60003 J31.9774
G0 Z15.675
X117.33973 Y66.1875
G1 Z4.5 F1002.5
G02 X112.81432 Y60.94271 I-29.63765 J20.9978 F4010.
X108.8125 Y57.62776 I-25.11224 J26.24259
G1 Y58.08125
G03 X116.91875 Y66.1875 I-22.18633 J30.29259
G1 X117.33973
X118.63508 Y65.26977
G03 X120.26557 Y67.775 I-30.933 J21.91553
G1 X116.10271
G02 X107.225 Y58.89729 I-29.47654 J20.59884
G1 Y54.6892
G03 X113.91187 Y59.79575 I-19.52292 J32.4961
X118.63508 Y65.26977 I-26.20979 J27.38955
G1 X119.93042 Y64.35204
G02 X115.00943 Y58.64879 I-32.22834 J22.83326
X105.6375 Y51.99518 I-27.30735 J28.53651
G1 Y59.73658
G03 X115.26342 Y69.3625 I-19.01133 J28.63726
G1 X122.94938
G02 X119.93042 Y64.35204 I-35.2473 J17.8228
G1 X121.22577 Y63.4343
G03 X125.44281 Y70.95 I-33.52369 J23.751
G1 X114.39878
G02 X104.05 Y60.60122 I-27.77261 J17.42384
G1 Y49.49322
G03 X116.10699 Y57.50182 I-16.34792 J37.69208
X121.22577 Y63.4343 I-28.40491 J29.68348
G1 X122.52112 Y62.51657
G02 X117.20455 Y56.35486 I-34.81904 J24.66873
X102.52086 Y47.16886 I-29.50247 J30.83044
G1 X102.51308 Y47.16597
X102.48942 Y47.16514
X102.46997 Y47.17865
X102.4625 Y47.20112
Y61.49366
G03 X113.50634 Y72.5375 I-15.83633 J26.88018
G1 X127.78142
G02 X122.52112 Y62.51657 I-40.07934 J14.6478
G1 X123.81646 Y61.59884
G03 X129.42115 Y72.40576 I-36.11438 J25.58646
X127.79887 Y74.125 I-1.62228 J0.09422
G1 X113.48075
G03 X112.2936 Y73.60963 I0. J-1.62498
G02 X101.39038 Y62.70641 I-25.66743 J14.76421
G03 X100.875 Y61.51923 I1.10966 J-1.18719
G1 Y47.20112
G03 X103.06686 Y45.6782 I1.625 J0.
G1 X103.07215 Y45.68016
G03 X118.30211 Y55.2079 I-15.37007 J41.50514
X123.81646 Y61.59884 I-30.60003 J31.9774
G0 Z15.675
X117.33973 Y66.1875
G1 Z4. F1002.5
G02 X112.81432 Y60.94271 I-29.63765 J20.9978 F4010.
X108.8125 Y57.62776 I-25.11224 J26.24259
G1 Y58.08125
G03 X116.91875 Y66.1875 I-22.18633 J30.29259
G1 X117.33973
X118.63508 Y65.26977
G03 X120.26557 Y67.775 I-30.933 J21.91553
G1 X116.10271
G02 X107.225 Y58.89729 I-29.47654 J20.59884
G1 Y54.6892
G03 X113.91187 Y59.79575 I-19.52292 J32.4961
X118.63508 Y65.26977 I-26.20979 J27.38955
G1 X119.93042 Y64.35204
G02 X115.00943 Y58.64879 I-32.22834 J22.83326
X105.6375 Y51.99518 I-27.30735 J28.53651
G1 Y59.73658
G03 X115.26342 Y69.3625 I-19.01133 J28.63726
G1 X122.94938
G02 X119.93042 Y64.35204 I-35.2473 J17.8228
G1 X121.22577 Y63.4343
G03 X125.44281 Y70.95 I-33.52369 J23.751
G1 X114.39878
G02 X104.05 Y60.60122 I-27.77261 J17.42384
G1 Y49.49322
G03 X116.10699 Y57.50182 I-16.34792 J37.69208
X121.22577 Y63.4343 I-28.40491 J29.68348
G1 X122.52112 Y62.51657
G02 X117.20455 Y56.35486 I-34.81904 J24.66873
X102.52086 Y47.16886 I-29.50247 J30.83044
G1 X102.51308 Y47.16597
X102.48942 Y47.16514
X102.46997 Y47.17865
X102.4625 Y47.20112
Y61.49366
G03 X113.50634 Y72.5375 I-15.83633 J26.88018
G1 X127.78142
G02 X122.52112 Y62.51657 I-40.07934 J14.6478
G1 X123.81646 Y61.59884
G03 X129.42115 Y72.40576 I-36.11438 J25.58646
X127.79887 Y74.125 I-1.62228 J0.09422
G1 X113.48075
G03 X112.2936 Y73.60963 I0. J-1.62498
G02 X101.39038 Y62.70641 I-25.66743 J14.76421
G03 X100.875 Y61.51923 I1.10966 J-1.18719
G1 Y47.20112
G03 X103.06686 Y45.6782 I1.625 J0.
G1 X103.07215 Y45.68016
G03 X118.30211 Y55.2079 I-15.37007 J41.50514
X123.81646 Y61.59884 I-30.60003 J31.9774
G0 Z15.675
X117.33973 Y66.1875
G1 Z3.5 F1002.5
G02 X112.81432 Y60.94271 I-29.63765 J20.9978 F4010.
X108.8125 Y57.62776 I-25.11224 J26.24259
G1 Y58.08125
G03 X116.91875 Y66.1875 I-22.18633 J30.29259
G1 X117.33973
X118.63508 Y65.26977
G03 X120.26557 Y67.775 I-30.933 J21.91553
G1 X116.10271
G02 X107.225 Y58.89729 I-29.47654 J20.59884
G1 Y54.6892
G03 X113.91187 Y59.79575 I-19.52292 J32.4961
X118.63508 Y65.26977 I-26.20979 J27.38955
G1 X119.93042 Y64.35204
G02 X115.00943 Y58.64879 I-32.22834 J22.83326
X105.6375 Y51.99518 I-27.30735 J28.53651
G1 Y59.73658
G03 X115.26342 Y69.3625 I-19.01133 J28.63726
G1 X122.94938
G02 X119.93042 Y64.35204 I-35.2473 J17.8228
G1 X121.22577 Y63.4343
G03 X125.44281 Y70.95 I-33.52369 J23.751
G1 X114.39878
G02 X104.05 Y60.60122 I-27.77261 J17.42384
G1 Y49.49322
G03 X116.10699 Y57.50182 I-16.34792 J37.69208
X121.22577 Y63.4343 I-28.40491 J29.68348
G1 X122.52112 Y62.51657
G02 X117.20455 Y56.35486 I-34.81904 J24.66873
X102.52086 Y47.16886 I-29.50247 J30.83044
G1 X102.51308 Y47.16597
X102.48942 Y47.16514
X102.46997 Y47.17865
X102.4625 Y47.20112
Y61.49366
G03 X113.50634 Y72.5375 I-15.83633 J26.88018
G1 X127.78142
G02 X122.52112 Y62.51657 I-40.07934 J14.6478
G1 X123.81646 Y61.59884
G03 X129.42115 Y72.40576 I-36.11438 J25.58646
X127.79887 Y74.125 I-1.62228 J0.09422
G1 X113.48075
G03 X112.2936 Y73.60963 I0. J-1.62498
G02 X101.39038 Y62.70641 I-25.66743 J14.76421
G03 X100.875 Y61.51923 I1.10966 J-1.18719
G1 Y47.20112
G03 X103.06686 Y45.6782 I1.625 J0.
G1 X103.07215 Y45.68016
G03 X118.30211 Y55.2079 I-15.37007 J41.50514
X123.81646 Y61.59884 I-30.60003 J31.9774
G0 Z15.675
X117.33973 Y66.1875
G1 Z3. F1002.5
G02 X112.81432 Y60.94271 I-29.63765 J20.9978 F4010.
X108.8125 Y57.62776 I-25.11224 J26.24259
G1 Y58.08125
G03 X116.91875 Y66.1875 I-22.18633 J30.29259
G1 X117.33973
X118.63508 Y65.26977
G03 X120.26557 Y67.775 I-30.933 J21.91553
G1 X116.10271
G02 X107.225 Y58.89729 I-29.47654 J20.59884
G1 Y54.6892
G03 X113.91187 Y59.79575 I-19.52292 J32.4961
X118.63508 Y65.26977 I-26.20979 J27.38955
G1 X119.93042 Y64.35204
G02 X115.00943 Y58.64879 I-32.22834 J22.83326
X105.6375 Y51.99518 I-27.30735 J28.53651
G1 Y59.73658
G03 X115.26342 Y69.3625 I-19.01133 J28.63726
G1 X122.94938
G02 X119.93042 Y64.35204 I-35.2473 J17.8228
G1 X121.22577 Y63.4343
G03 X125.44281 Y70.95 I-33.52369 J23.751
G1 X114.39878
G02 X104.05 Y60.60122 I-27.77261 J17.42384
G1 Y49.49322
G03 X116.10699 Y57.50182 I-16.34792 J37.69208
X121.22577 Y63.4343 I-28.40491 J29.68348
G1 X122.52112 Y62.51657
G02 X117.20455 Y56.35486 I-34.81904 J24.66873
X102.52086 Y47.16886 I-29.50247 J30.83044
G1 X102.51308 Y47.16597
X102.48942 Y47.16514
X102.46997 Y47.17865
X102.4625 Y47.20112
Y61.49366
G03 X113.50634 Y72.5375 I-15.83633 J26.88018
G1 X127.78142
G02 X122.52112 Y62.51657 I-40.07934 J14.6478
G1 X123.81646 Y61.59884
G03 X129.42115 Y72.40576 I-36.11438 J25.58646
X127.79887 Y74.125 I-1.62228 J0.09422
G1 X113.48075
G03 X112.2936 Y73.60963 I0. J-1.62498
G02 X101.39038 Y62.70641 I-25.66743 J14.76421
G03 X100.875 Y61.51923 I1.10966 J-1.18719
G1 Y47.20112
G03 X103.06686 Y45.6782 I1.625 J0.
G1 X103.07215 Y45.68016
G03 X118.30211 Y55.2079 I-15.37007 J41.50514
X123.81646 Y61.59884 I-30.60003 J31.9774
G0 Z15.675
X117.33973 Y66.1875
G1 Z2.5 F1002.5
G02 X112.81432 Y60.94271 I-29.63765 J20.9978 F4010.
X108.8125 Y57.62776 I-25.11224 J26.24259
G1 Y58.08125
G03 X116.91875 Y66.1875 I-22.18633 J30.29259
G1 X117.33973
X118.63508 Y65.26977
G03 X120.26557 Y67.775 I-30.933 J21.91553
G1 X116.10271
G02 X107.225 Y58.89729 I-29.47654 J20.59884
G1 Y54.6892
G03 X113.91187 Y59.79575 I-19.52292 J32.4961
X118.63508 Y65.26977 I-26.20979 J27.38955
G1 X119.93042 Y64.35204
G02 X115.00943 Y58.64879 I-32.22834 J22.83326
X105.6375 Y51.99518 I-27.30735 J28.53651
G1 Y59.73658
G03 X115.26342 Y69.3625 I-19.01133 J28.63726
G1 X122.94938
G02 X119.93042 Y64.35204 I-35.2473 J17.8228
G1 X121.22577 Y63.4343
G03 X125.44281 Y70.95 I-33.52369 J23.751
G1 X114.39878
G02 X104.05 Y60.60122 I-27.77261 J17.42384
G1 Y49.49322
G03 X116.10699 Y57.50182 I-16.34792 J37.69208
X121.22577 Y63.4343 I-28.40491 J29.68348
G1 X122.52112 Y62.51657
G02 X117.20455 Y56.35486 I-34.81904 J24.66873
X102.52086 Y47.16886 I-29.50247 J30.83044
G1 X102.51308 Y47.16597
X102.48942 Y47.16514
X102.46997 Y47.17865
X102.4625 Y47.20112
Y61.49366
G03 X113.50634 Y72.5375 I-15.83633 J26.88018
G1 X127.78142
G02 X122.52112 Y62.51657 I-40.07934 J14.6478
G1 X123.81646 Y61.59884
G03 X129.42115 Y72.40576 I-36.11438 J25.58646
X127.79887 Y74.125 I-1.62228 J0.09422
G1 X113.48075
G03 X112.2936 Y73.60963 I0. J-1.62498
G02 X101.39038 Y62.70641 I-25.66743 J14.76421
G03 X100.875 Y61.51923 I1.10966 J-1.18719
G1 Y47.20112
G03 X103.06686 Y45.6782 I1.625 J0.
G1 X103.07215 Y45.68016
G03 X118.30211 Y55.2079 I-15.37007 J41.50514
X123.81646 Y61.59884 I-30.60003 J31.9774
G0 Z15.675
X117.33973 Y66.1875
G1 Z2. F1002.5
G02 X112.81432 Y60.94271 I-29.63765 J20.9978 F4010.
X108.8125 Y57.62776 I-25.11224 J26.24259
G1 Y58.08125
G03 X116.91875 Y66.1875 I-22.18633 J30.29259
G1 X117.33973
X118.63508 Y65.26977
G03 X120.26557 Y67.775 I-30.933 J21.91553
G1 X116.10271
G02 X107.225 Y58.89729 I-29.47654 J20.59884
G1 Y54.6892
G03 X113.91187 Y59.79575 I-19.52292 J32.4961
X118.63508 Y65.26977 I-26.20979 J27.38955
G1 X119.93042 Y64.35204
G02 X115.00943 Y58.64879 I-32.22834 J22.83326
X105.6375 Y51.99518 I-27.30735 J28.53651
G1 Y59.73658
G03 X115.26342 Y69.3625 I-19.01133 J28.63726
G1 X122.94938
G02 X119.93042 Y64.35204 I-35.2473 J17.8228
G1 X121.22577 Y63.4343
G03 X125.44281 Y70.95 I-33.52369 J23.751
G1 X114.39878
G02 X104.05 Y60.60122 I-27.77261 J17.42384
G1 Y49.49322
G03 X116.10699 Y57.50182 I-16.34792 J37.69208
X121.22577 Y63.4343 I-28.40491 J29.68348
G1 X122.52112 Y62.51657
G02 X117.20455 Y56.35486 I-34.81904 J24.66873
X102.52086 Y47.16886 I-29.50247 J30.83044
G1 X102.51308 Y47.16597
X102.48942 Y47.16514
X102.46997 Y47.17865
X102.4625 Y47.20112
Y61.49366
G03 X113.50634 Y72.5375 I-15.83633 J26.88018
G1 X127.78142
G02 X122.52112 Y62.51657 I-40.07934 J14.6478
G1 X123.81646 Y61.59884
G03 X129.42115 Y72.40576 I-36.11438 J25.58646
X127.79887 Y74.125 I-1.62228 J0.09422
G1 X113.48075
G03 X112.2936 Y73.60963 I0. J-1.62498
G02 X101.39038 Y62.70641 I-25.66743 J14.76421
G03 X100.875 Y61.51923 I1.10966 J-1.18719
G1 Y47.20112
G03 X103.06686 Y45.6782 I1.625 J0.
G1 X103.07215 Y45.68016
G03 X118.30211 Y55.2079 I-15.37007 J41.50514
X123.81646 Y61.59884 I-30.60003 J31.9774
G0 Z15.675
X117.33973 Y66.1875
G1 Z1.5 F1002.5
G02 X112.81432 Y60.94271 I-29.63765 J20.9978 F4010.
X108.8125 Y57.62776 I-25.11224 J26.24259
G1 Y58.08125
G03 X116.91875 Y66.1875 I-22.18633 J30.29259
G1 X117.33973
X118.63508 Y65.26977
G03 X120.26557 Y67.775 I-30.933 J21.91553
G1 X116.10271
G02 X107.225 Y58.89729 I-29.47654 J20.59884
G1 Y54.6892
G03 X113.91187 Y59.79575 I-19.52292 J32.4961
X118.63508 Y65.26977 I-26.20979 J27.38955
G1 X119.93042 Y64.35204
G02 X115.00943 Y58.64879 I-32.22834 J22.83326
X105.6375 Y51.99518 I-27.30735 J28.53651
G1 Y59.73658
G03 X115.26342 Y69.3625 I-19.01133 J28.63726
G1 X122.94938
G02 X119.93042 Y64.35204 I-35.2473 J17.8228
G1 X121.22577 Y63.4343
G03 X125.44281 Y70.95 I-33.52369 J23.751
G1 X114.39878
G02 X104.05 Y60.60122 I-27.77261 J17.42384
G1 Y49.49322
G03 X116.10699 Y57.50182 I-16.34792 J37.69208
X121.22577 Y63.4343 I-28.40491 J29.68348
G1 X122.52112 Y62.51657
G02 X117.20455 Y56.35486 I-34.81904 J24.66873
X102.52086 Y47.16886 I-29.50247 J30.83044
G1 X102.51308 Y47.16597
X102.48942 Y47.16514
X102.46997 Y47.17865
X102.4625 Y47.20112
Y61.49366
G03 X113.50634 Y72.5375 I-15.83633 J26.88018
G1 X127.78142
G02 X122.52112 Y62.51657 I-40.07934 J14.6478
G1 X123.81646 Y61.59884
G03 X129.42115 Y72.40576 I-36.11438 J25.58646
X127.79887 Y74.125 I-1.62228 J0.09422
G1 X113.48075
G03 X112.2936 Y73.60963 I0. J-1.62498
G02 X101.39038 Y62.70641 I-25.66743 J14.76421
G03 X100.875 Y61.51923 I1.10966 J-1.18719
G1 Y47.20112
G03 X103.06686 Y45.6782 I1.625 J0.
G1 X103.07215 Y45.68016
G03 X118.30211 Y55.2079 I-15.37007 J41.50514
X123.81646 Y61.59884 I-30.60003 J31.9774
G0 Z15.675
X117.33973 Y66.1875
G1 Z1. F1002.5
G02 X112.81432 Y60.94271 I-29.63765 J20.9978 F4010.
X108.8125 Y57.62776 I-25.11224 J26.24259
G1 Y58.08125
G03 X116.91875 Y66.1875 I-22.18633 J30.29259
G1 X117.33973
X118.63508 Y65.26977
G03 X120.26557 Y67.775 I-30.933 J21.91553
G1 X116.10271
G02 X107.225 Y58.89729 I-29.47654 J20.59884
G1 Y54.6892
G03 X113.91187 Y59.79575 I-19.52292 J32.4961
X118.63508 Y65.26977 I-26.20979 J27.38955
G1 X119.93042 Y64.35204
G02 X115.00943 Y58.64879 I-32.22834 J22.83326
X105.6375 Y51.99518 I-27.30735 J28.53651
G1 Y59.73658
G03 X115.26342 Y69.3625 I-19.01133 J28.63726
G1 X122.94938
G02 X119.93042 Y64.35204 I-35.2473 J17.8228
G1 X121.22577 Y63.4343
G03 X125.44281 Y70.95 I-33.52369 J23.751
G1 X114.39878
G02 X104.05 Y60.60122 I-27.77261 J17.42384
G1 Y49.49322
G03 X116.10699 Y57.50182 I-16.34792 J37.69208
X121.22577 Y63.4343 I-28.40491 J29.68348
G1 X122.52112 Y62.51657
G02 X117.20455 Y56.35486 I-34.81904 J24.66873
X102.52086 Y47.16886 I-29.50247 J30.83044
G1 X102.51308 Y47.16597
X102.48942 Y47.16514
X102.46997 Y47.17865
X102.4625 Y47.20112
Y61.49366
G03 X113.50634 Y72.5375 I-15.83633 J26.88018
G1 X127.78142
G02 X122.52112 Y62.51657 I-40.07934 J14.6478
G1 X123.81646 Y61.59884
G03 X129.42115 Y72.40576 I-36.11438 J25.58646
X127.79887 Y74.125 I-1.62228 J0.09422
G1 X113.48075
G03 X112.2936 Y73.60963 I0. J-1.62498
G02 X101.39038 Y62.70641 I-25.66743 J14.76421
G03 X100.875 Y61.51923 I1.10966 J-1.18719
G1 Y47.20112
G03 X103.06686 Y45.6782 I1.625 J0.
G1 X103.07215 Y45.68016
G03 X118.30211 Y55.2079 I-15.37007 J41.50514
X123.81646 Y61.59884 I-30.60003 J31.9774
G0 Z15.675
X117.33973 Y66.1875
G1 Z0.5 F1002.5
G02 X112.81432 Y60.94271 I-29.63765 J20.9978 F4010.
X108.8125 Y57.62776 I-25.11224 J26.24259
G1 Y58.08125
G03 X116.91875 Y66.1875 I-22.18633 J30.29259
G1 X117.33973
X118.63508 Y65.26977
G03 X120.26557 Y67.775 I-30.933 J21.91553
G1 X116.10271
G02 X107.225 Y58.89729 I-29.47654 J20.59884
G1 Y54.6892
G03 X113.91187 Y59.79575 I-19.52292 J32.4961
X118.63508 Y65.26977 I-26.20979 J27.38955
G1 X119.93042 Y64.35204
G02 X115.00943 Y58.64879 I-32.22834 J22.83326
X105.6375 Y51.99518 I-27.30735 J28.53651
G1 Y59.73658
G03 X115.26342 Y69.3625 I-19.01133 J28.63726
G1 X122.94938
G02 X119.93042 Y64.35204 I-35.2473 J17.8228
G1 X121.22577 Y63.4343
G03 X125.44281 Y70.95 I-33.52369 J23.751
G1 X114.39878
G02 X104.05 Y60.60122 I-27.77261 J17.42384
G1 Y49.49322
G03 X116.10699 Y57.50182 I-16.34792 J37.69208
X121.22577 Y63.4343 I-28.40491 J29.68348
G1 X122.52112 Y62.51657
G02 X117.20455 Y56.35486 I-34.81904 J24.66873
X102.52086 Y47.16886 I-29.50247 J30.83044
G1 X102.51308 Y47.16597
X102.48942 Y47.16514
X102.46997 Y47.17865
X102.4625 Y47.20112
Y61.49366
G03 X113.50634 Y72.5375 I-15.83633 J26.88018
G1 X127.78142
G02 X122.52112 Y62.51657 I-40.07934 J14.6478
G1 X123.81646 Y61.59884
G03 X129.42115 Y72.40576 I-36.11438 J25.58646
X127.79887 Y74.125 I-1.62228 J0.09422
G1 X113.48075
G03 X112.2936 Y73.60963 I0. J-1.62498
G02 X101.39038 Y62.70641 I-25.66743 J14.76421
G03 X100.875 Y61.51923 I1.10966 J-1.18719
G1 Y47.20112
G03 X103.06686 Y45.6782 I1.625 J0.
G1 X103.07215 Y45.68016
G03 X118.30211 Y55.2079 I-15.37007 J41.50514
X123.81646 Y61.59884 I-30.60003 J31.9774
G0 Z15.675
X117.33973 Y66.1875
G1 Z0. F1002.5
G02 X112.81432 Y60.94271 I-29.63765 J20.9978 F4010.
X108.8125 Y57.62776 I-25.11224 J26.24259
G1 Y58.08125
G03 X116.91875 Y66.1875 I-22.18633 J30.29259
G1 X117.33973
X118.63508 Y65.26977
G03 X120.26557 Y67.775 I-30.933 J21.91553
G1 X116.10271
G02 X107.225 Y58.89729 I-29.47654 J20.59884
G1 Y54.6892
G03 X113.91187 Y59.79575 I-19.52292 J32.4961
X118.63508 Y65.26977 I-26.20979 J27.38955
G1 X119.93042 Y64.35204
G02 X115.00943 Y58.64879 I-32.22834 J22.83326
X105.6375 Y51.99518 I-27.30735 J28.53651
G1 Y59.73658
G03 X115.26342 Y69.3625 I-19.01133 J28.63726
G1 X122.94938
G02 X119.93042 Y64.35204 I-35.2473 J17.8228
G1 X121.22577 Y63.4343
G03 X125.44281 Y70.95 I-33.52369 J23.751
G1 X114.39878
G02 X104.05 Y60.60122 I-27.77261 J17.42384
G1 Y49.49322
G03 X116.10699 Y57.50182 I-16.34792 J37.69208
X121.22577 Y63.4343 I-28.40491 J29.68348
G1 X122.52112 Y62.51657
G02 X117.20455 Y56.35486 I-34.81904 J24.66873
X102.52086 Y47.16886 I-29.50247 J30.83044
G1 X102.51308 Y47.16597
X102.48942 Y47.16514
X102.46997 Y47.17865
X102.4625 Y47.20112
Y61.49366
G03 X113.50634 Y72.5375 I-15.83633 J26.88018
G1 X127.78142
G02 X122.52112 Y62.51657 I-40.07934 J14.6478
G1 X123.81646 Y61.59884
G03 X129.42115 Y72.40576 I-36.11438 J25.58646
X127.79887 Y74.125 I-1.62228 J0.09422
G1 X113.48075
G03 X112.2936 Y73.60963 I0. J-1.62498
G02 X101.39038 Y62.70641 I-25.66743 J14.76421
G03 X100.875 Y61.51923 I1.10966 J-1.18719
G1 Y47.20112
G03 X103.06686 Y45.6782 I1.625 J0.
G1 X103.07215 Y45.68016
G03 X118.30211 Y55.2079 I-15.37007 J41.50514
X123.81646 Y61.59884 I-30.60003 J31.9774
G0 Z15.675
X117.33973 Y66.1875
G1 Z-0.5 F1002.5
G02 X112.81432 Y60.94271 I-29.63765 J20.9978 F4010.
X108.8125 Y57.62776 I-25.11224 J26.24259
G1 Y58.08125
G03 X116.91875 Y66.1875 I-22.18633 J30.29259
G1 X117.33973
X118.63508 Y65.26977
G03 X120.26557 Y67.775 I-30.933 J21.91553
G1 X116.10271
G02 X107.225 Y58.89729 I-29.47654 J20.59884
G1 Y54.6892
G03 X113.91187 Y59.79575 I-19.52292 J32.4961
X118.63508 Y65.26977 I-26.20979 J27.38955
G1 X119.93042 Y64.35204
G02 X115.00943 Y58.64879 I-32.22834 J22.83326
X105.6375 Y51.99518 I-27.30735 J28.53651
G1 Y59.73658
G03 X115.26342 Y69.3625 I-19.01133 J28.63726
G1 X122.94938
G02 X119.93042 Y64.35204 I-35.2473 J17.8228
G1 X121.22577 Y63.4343
G03 X125.44281 Y70.95 I-33.52369 J23.751
G1 X114.39878
G02 X104.05 Y60.60122 I-27.77261 J17.42384
G1 Y49.49322
G03 X116.10699 Y57.50182 I-16.34792 J37.69208
X121.22577 Y63.4343 I-28.40491 J29.68348
G1 X122.52112 Y62.51657
G02 X117.20455 Y56.35486 I-34.81904 J24.66873
X102.52086 Y47.16886 I-29.50247 J30.83044
G1 X102.51308 Y47.16597
X102.48942 Y47.16514
X102.46997 Y47.17865
X102.4625 Y47.20112
Y61.49366
G03 X113.50634 Y72.5375 I-15.83633 J26.88018
G1 X127.78142
G02 X122.52112 Y62.51657 I-40.07934 J14.6478
G1 X123.81646 Y61.59884
G03 X129.42115 Y72.40576 I-36.11438 J25.58646
X127.79887 Y74.125 I-1.62228 J0.09422
G1 X113.48075
G03 X112.2936 Y73.60963 I0. J-1.62498
G02 X101.39038 Y62.70641 I-25.66743 J14.76421
G03 X100.875 Y61.51923 I1.10966 J-1.18719
G1 Y47.20112
G03 X103.06686 Y45.6782 I1.625 J0.
G1 X103.07215 Y45.68016
G03 X118.30211 Y55.2079 I-15.37007 J41.50514
X123.81646 Y61.59884 I-30.60003 J31.9774
G1 X122.99889 Y62.27454 Z0.56066 F5000.
Z1.16066
G0 Z15.675
X63.85887 Y59.93393
G1 Z8.2 F1002.5
Z7.6 F3007.5
X64.37333 Y59.49737 Z7.48103
X64.96837 Y59.01301 Z7.34574
X65.57317 Y58.5409 Z7.21045
X66.1875 Y58.08125 Z7.07516
Y57.65497 Z7.
G02 X60.39078 Y62.76819 I20.96153 J29.6059 F4010.
X57.62263 Y66.1875 I26.75825 J24.49268
G1 X58.08125
G03 X66.1875 Y58.08125 I30.29258 J22.18634
G1 Y57.65497
X65.27017 Y56.35934
G03 X67.775 Y54.73032 I21.87886 J30.90153
G1 Y58.89729
G02 X58.89729 Y67.775 I20.59883 J29.47655
G1 X54.68535
G03 X59.21977 Y61.69633 I32.46368 J19.48587
X65.27017 Y56.35934 I27.92926 J25.56454
G1 X64.35284 Y55.0637
G02 X58.04876 Y60.62446 I22.79619 J32.19717
X51.99263 Y69.3625 I29.10027 J26.63641
G1 X59.73658
G03 X69.3625 Y59.73658 I28.63725 J19.01134
G1 Y52.04776
G02 X64.35284 Y55.0637 I17.78653 J35.21311
G1 X63.43551 Y53.76807
G03 X70.95 Y49.55556 I23.71352 J33.4928
G1 Y60.60122
G02 X60.60122 Y70.95 I17.42383 J27.77262
G1 X49.49197
G03 X56.87775 Y59.5526 I37.65706 J16.31087
X63.43551 Y53.76807 I30.27128 J27.70827
G1 X62.51818 Y52.47244
G02 X55.70674 Y58.48074 I24.63085 J34.78843
X47.16966 Y72.47698 I31.44229 J28.78013
G1 X47.16597 Y72.48692
X47.16514 Y72.51058
X47.17865 Y72.53003
X47.20111 Y72.5375
X61.49366
G03 X72.5375 Y61.49366 I26.88017 J15.83634
G1 Y47.50351
X72.48732 Y47.23653
G02 X62.51818 Y52.47244 I14.66171 J40.02434
G1 X61.60085 Y51.17681
G03 X72.40517 Y45.57889 I25.54818 J36.08406
X73.96305 Y46.49394 I0.09482 J1.62223
G1 X74.125 Y47.35563
Y61.51924
G03 X73.60962 Y62.7064 I-1.62503 J-0.00001
G02 X62.7064 Y73.60963 I14.76421 J25.66744
G03 X61.51924 Y74.125 I-1.18715 J-1.10962
G1 X47.20111
G03 X45.67819 Y71.93314 I0. J-1.625
G1 X45.6807 Y71.92638
G03 X54.53573 Y57.40887 I41.46833 J15.33449
X61.60085 Y51.17681 I32.6133 J29.852
G0 Z15.675
X66.1875 Y57.65497
G1 Z6.5 F1002.5
G02 X60.39078 Y62.76819 I20.96153 J29.6059 F4010.
X57.62263 Y66.1875 I26.75825 J24.49268
G1 X58.08125
G03 X66.1875 Y58.08125 I30.29258 J22.18634
G1 Y57.65497
X65.27017 Y56.35934
G03 X67.775 Y54.73032 I21.87886 J30.90153
G1 Y58.89729
G02 X58.89729 Y67.775 I20.59883 J29.47655
G1 X54.68535
G03 X59.21977 Y61.69633 I32.46368 J19.48587
X65.27017 Y56.35934 I27.92926 J25.56454
G1 X64.35284 Y55.0637
G02 X58.04876 Y60.62446 I22.79619 J32.19717
X51.99263 Y69.3625 I29.10027 J26.63641
G1 X59.73658
G03 X69.3625 Y59.73658 I28.63725 J19.01134
G1 Y52.04776
G02 X64.35284 Y55.0637 I17.78653 J35.21311
G1 X63.43551 Y53.76807
G03 X70.95 Y49.55556 I23.71352 J33.4928
G1 Y60.60122
G02 X60.60122 Y70.95 I17.42383 J27.77262
G1 X49.49197
G03 X56.87775 Y59.5526 I37.65706 J16.31087
X63.43551 Y53.76807 I30.27128 J27.70827
G1 X62.51818 Y52.47244
G02 X55.70674 Y58.48074 I24.63085 J34.78843
X47.16966 Y72.47698 I31.44229 J28.78013
G1 X47.16597 Y72.48692
X47.16514 Y72.51058
X47.17865 Y72.53003
X47.20111 Y72.5375
X61.49366
G03 X72.5375 Y61.49366 I26.88017 J15.83634
G1 Y47.50351
X72.48732 Y47.23653
G02 X62.51818 Y52.47244 I14.66171 J40.02434
G1 X61.60085 Y51.17681
G03 X72.40517 Y45.57889 I25.54818 J36.08406
X73.96305 Y46.49394 I0.09482 J1.62223
G1 X74.125 Y47.35563
Y61.51924
G03 X73.60962 Y62.7064 I-1.62503 J-0.00001
G02 X62.7064 Y73.60963 I14.76421 J25.66744
G03 X61.51924 Y74.125 I-1.18715 J-1.10962
G1 X47.20111
G03 X45.67819 Y71.93314 I0. J-1.625
G1 X45.6807 Y71.92638
G03 X54.53573 Y57.40887 I41.46833 J15.33449
X61.60085 Y51.17681 I32.6133 J29.852
G0 Z15.675
X66.1875 Y57.65497
G1 Z6. F1002.5
G02 X60.39078 Y62.76819 I20.96153 J29.6059 F4010.
X57.62263 Y66.1875 I26.75825 J24.49268
G1 X58.08125
G03 X66.1875 Y58.08125 I30.29258 J22.18634
G1 Y57.65497
X65.27017 Y56.35934
G03 X67.775 Y54.73032 I21.87886 J30.90153
G1 Y58.89729
G02 X58.89729 Y67.775 I20.59883 J29.47655
G1 X54.68535
G03 X59.21977 Y61.69633 I32.46368 J19.48587
X65.27017 Y56.35934 I27.92926 J25.56454
G1 X64.35284 Y55.0637
G02 X58.04876 Y60.62446 I22.79619 J32.19717
X51.99263 Y69.3625 I29.10027 J26.63641
G1 X59.73658
G03 X69.3625 Y59.73658 I28.63725 J19.01134
G1 Y52.04776
G02 X64.35284 Y55.0637 I17.78653 J35.21311
G1 X63.43551 Y53.76807
G03 X70.95 Y49.55556 I23.71352 J33.4928
G1 Y60.60122
G02 X60.60122 Y70.95 I17.42383 J27.77262
G1 X49.49197
G03 X56.87775 Y59.5526 I37.65706 J16.31087
X63.43551 Y53.76807 I30.27128 J27.70827
G1 X62.51818 Y52.47244
G02 X55.70674 Y58.48074 I24.63085 J34.78843
X47.16966 Y72.47698 I31.44229 J28.78013
G1 X47.16597 Y72.48692
X47.16514 Y72.51058
X47.17865 Y72.53003
X47.20111 Y72.5375
X61.49366
G03 X72.5375 Y61.49366 I26.88017 J15.83634
G1 Y47.50351
X72.48732 Y47.23653
G02 X62.51818 Y52.47244 I14.66171 J40.02434
G1 X61.60085 Y51.17681
G03 X72.40517 Y45.57889 I25.54818 J36.08406
X73.96305 Y46.49394 I0.09482 J1.62223
G1 X74.125 Y47.35563
Y61.51924
G03 X73.60962 Y62.7064 I-1.62503 J-0.00001
G02 X62.7064 Y73.60963 I14.76421 J25.66744
G03 X61.51924 Y74.125 I-1.18715 J-1.10962
G1 X47.20111
G03 X45.67819 Y71.93314 I0. J-1.625
G1 X45.6807 Y71.92638
G03 X54.53573 Y57.40887 I41.46833 J15.33449
X61.60085 Y51.17681 I32.6133 J29.852
G0 Z15.675
X66.1875 Y57.65497
G1 Z5.5 F1002.5
G02 X60.39078 Y62.76819 I20.96153 J29.6059 F4010.
X57.62263 Y66.1875 I26.75825 J24.49268
G1 X58.08125
G03 X66.1875 Y58.08125 I30.29258 J22.18634
G1 Y57.65497
X65.27017 Y56.35934
G03 X67.775 Y54.73032 I21.87886 J30.90153
G1 Y58.89729
G02 X58.89729 Y67.775 I20.59883 J29.47655
G1 X54.68535
G03 X59.21977 Y61.69633 I32.46368 J19.48587
X65.27017 Y56.35934 I27.92926 J25.56454
G1 X64.35284 Y55.0637
G02 X58.04876 Y60.62446 I22.79619 J32.19717
X51.99263 Y69.3625 I29.10027 J26.63641
G1 X59.73658
G03 X69.3625 Y59.73658 I28.63725 J19.01134
G1 Y52.04776
G02 X64.35284 Y55.0637 I17.78653 J35.21311
G1 X63.43551 Y53.76807
G03 X70.95 Y49.55556 I23.71352 J33.4928
G1 Y60.60122
G02 X60.60122 Y70.95 I17.42383 J27.77262
G1 X49.49197
G03 X56.87775 Y59.5526 I37.65706 J16.31087
X63.43551 Y53.76807 I30.27128 J27.70827
G1 X62.51818 Y52.47244
G02 X55.70674 Y58.48074 I24.63085 J34.78843
X47.16966 Y72.47698 I31.44229 J28.78013
G1 X47.16597 Y72.48692
X47.16514 Y72.51058
X47.17865 Y72.53003
X47.20111 Y72.5375
X61.49366
G03 X72.5375 Y61.49366 I26.88017 J15.83634
G1 Y47.50351
X72.48732 Y47.23653
G02 X62.51818 Y52.47244 I14.66171 J40.02434
G1 X61.60085 Y51.17681
G03 X72.40517 Y45.57889 I25.54818 J36.08406
X73.96305 Y46.49394 I0.09482 J1.62223
G1 X74.125 Y47.35563
Y61.51924
G03 X73.60962 Y62.7064 I-1.62503 J-0.00001
G02 X62.7064 Y73.60963 I14.76421 J25.66744
G03 X61.51924 Y74.125 I-1.18715 J-1.10962
G1 X47.20111
G03 X45.67819 Y71.93314 I0. J-1.625
G1 X45.6807 Y71.92638
G03 X54.53573 Y57.40887 I41.46833 J15.33449
X61.60085 Y51.17681 I32.6133 J29.852
G0 Z15.675
X66.1875 Y57.65497
G1 Z5. F1002.5
G02 X60.39078 Y62.76819 I20.96153 J29.6059 F4010.
X57.62263 Y66.1875 I26.75825 J24.49268
G1 X58.08125
G03 X66.1875 Y58.08125 I30.29258 J22.18634
G1 Y57.65497
X65.27017 Y56.35934
G03 X67.775 Y54.73032 I21.87886 J30.90153
G1 Y58.89729
G02 X58.89729 Y67.775 I20.59883 J29.47655
G1 X54.68535
G03 X59.21977 Y61.69633 I32.46368 J19.48587
X65.27017 Y56.35934 I27.92926 J25.56454
G1 X64.35284 Y55.0637
G02 X58.04876 Y60.62446 I22.79619 J32.19717
X51.99263 Y69.3625 I29.10027 J26.63641
G1 X59.73658
G03 X69.3625 Y59.73658 I28.63725 J19.01134
G1 Y52.04776
G02 X64.35284 Y55.0637 I17.78653 J35.21311
G1 X63.43551 Y53.76807
G03 X70.95 Y49.55556 I23.71352 J33.4928
G1 Y60.60122
G02 X60.60122 Y70.95 I17.42383 J27.77262
G1 X49.49197
G03 X56.87775 Y59.5526 I37.65706 J16.31087
X63.43551 Y53.76807 I30.27128 J27.70827
G1 X62.51818 Y52.47244
G02 X55.70674 Y58.48074 I24.63085 J34.78843
X47.16966 Y72.47698 I31.44229 J28.78013
G1 X47.16597 Y72.48692
X47.16514 Y72.51058
X47.17865 Y72.53003
X47.20111 Y72.5375
X61.49366
G03 X72.5375 Y61.49366 I26.88017 J15.83634
G1 Y47.50351
X72.48732 Y47.23653
G02 X62.51818 Y52.47244 I14.66171 J40.02434
G1 X61.60085 Y51.17681
G03 X72.40517 Y45.57889 I25.54818 J36.08406
X73.96305 Y46.49394 I0.09482 J1.62223
G1 X74.125 Y47.35563
Y61.51924
G03 X73.60962 Y62.7064 I-1.62503 J-0.00001
G02 X62.7064 Y73.60963 I14.76421 J25.66744
G03 X61.51924 Y74.125 I-1.18715 J-1.10962
G1 X47.20111
G03 X45.67819 Y71.93314 I0. J-1.625
G1 X45.6807 Y71.92638
G03 X54.53573 Y57.40887 I41.46833 J15.33449
X61.60085 Y51.17681 I32.6133 J29.852
G0 Z15.675
X66.1875 Y57.65497
G1 Z4.5 F1002.5
G02 X60.39078 Y62.76819 I20.96153 J29.6059 F4010.
X57.62263 Y66.1875 I26.75825 J24.49268
G1 X58.08125
G03 X66.1875 Y58.08125 I30.29258 J22.18634
G1 Y57.65497
X65.27017 Y56.35934
G03 X67.775 Y54.73032 I21.87886 J30.90153
G1 Y58.89729
G02 X58.89729 Y67.775 I20.59883 J29.47655
G1 X54.68535
G03 X59.21977 Y61.69633 I32.46368 J19.48587
X65.27017 Y56.35934 I27.92926 J25.56454
G1 X64.35284 Y55.0637
G02 X58.04876 Y60.62446 I22.79619 J32.19717
X51.99263 Y69.3625 I29.10027 J26.63641
G1 X59.73658
G03 X69.3625 Y59.73658 I28.63725 J19.01134
G1 Y52.04776
G02 X64.35284 Y55.0637 I17.78653 J35.21311
G1 X63.43551 Y53.76807
G03 X70.95 Y49.55556 I23.71352 J33.4928
G1 Y60.60122
G02 X60.60122 Y70.95 I17.42383 J27.77262
G1 X49.49197
G03 X56.87775 Y59.5526 I37.65706 J16.31087
X63.43551 Y53.76807 I30.27128 J27.70827
G1 X62.51818 Y52.47244
G02 X55.70674 Y58.48074 I24.63085 J34.78843
X47.16966 Y72.47698 I31.44229 J28.78013
G1 X47.16597 Y72.48692
X47.16514 Y72.51058
X47.17865 Y72.53003
X47.20111 Y72.5375
X61.49366
G03 X72.5375 Y61.49366 I26.88017 J15.83634
G1 Y47.50351
X72.48732 Y47.23653
G02 X62.51818 Y52.47244 I14.66171 J40.02434
G1 X61.60085 Y51.17681
G03 X72.40517 Y45.57889 I25.54818 J36.08406
X73.96305 Y46.49394 I0.09482 J1.62223
G1 X74.125 Y47.35563
Y61.51924
G03 X73.60962 Y62.7064 I-1.62503 J-0.00001
G02 X62.7064 Y73.60963 I14.76421 J25.66744
G03 X61.51924 Y74.125 I-1.18715 J-1.10962
G1 X47.20111
G03 X45.67819 Y71.93314 I0. J-1.625
G1 X45.6807 Y71.92638
G03 X54.53573 Y57.40887 I41.46833 J15.33449
X61.60085 Y51.17681 I32.6133 J29.852
G0 Z15.675
X66.1875 Y57.65497
G1 Z4. F1002.5
G02 X60.39078 Y62.76819 I20.96153 J29.6059 F4010.
X57.62263 Y66.1875 I26.75825 J24.49268
G1 X58.08125
G03 X66.1875 Y58.08125 I30.29258 J22.18634
G1 Y57.65497
X65.27017 Y56.35934
G03 X67.775 Y54.73032 I21.87886 J30.90153
G1 Y58.89729
G02 X58.89729 Y67.775 I20.59883 J29.47655
G1 X54.68535
G03 X59.21977 Y61.69633 I32.46368 J19.48587
X65.27017 Y56.35934 I27.92926 J25.56454
G1 X64.35284 Y55.0637
G02 X58.04876 Y60.62446 I22.79619 J32.19717
X51.99263 Y69.3625 I29.10027 J26.63641
G1 X59.73658
G03 X69.3625 Y59.73658 I28.63725 J19.01134
G1 Y52.04776
G02 X64.35284 Y55.0637 I17.78653 J35.21311
G1 X63.43551 Y53.76807
G03 X70.95 Y49.55556 I23.71352 J33.4928
G1 Y60.60122
G02 X60.60122 Y70.95 I17.42383 J27.77262
G1 X49.49197
G03 X56.87775 Y59.5526 I37.65706 J16.31087
X63.43551 Y53.76807 I30.27128 J27.70827
G1 X62.51818 Y52.47244
G02 X55.70674 Y58.48074 I24.63085 J34.78843
X47.16966 Y72.47698 I31.44229 J28.78013
G1 X47.16597 Y72.48692
X47.16514 Y72.51058
X47.17865 Y72.53003
X47.20111 Y72.5375
X61.49366
G03 X72.5375 Y61.49366 I26.88017 J15.83634
G1 Y47.50351
X72.48732 Y47.23653
G02 X62.51818 Y52.47244 I14.66171 J40.02434
G1 X61.60085 Y51.17681
G03 X72.40517 Y45.57889 I25.54818 J36.08406
X73.96305 Y46.49394 I0.09482 J1.62223
G1 X74.125 Y47.35563
Y61.51924
G03 X73.60962 Y62.7064 I-1.62503 J-0.00001
G02 X62.7064 Y73.60963 I14.76421 J25.66744
G03 X61.51924 Y74.125 I-1.18715 J-1.10962
G1 X47.20111
G03 X45.67819 Y71.93314 I0. J-1.625
G1 X45.6807 Y71.92638
G03 X54.53573 Y57.40887 I41.46833 J15.33449
X61.60085 Y51.17681 I32.6133 J29.852
G0 Z15.675
X66.1875 Y57.65497
G1 Z3.5 F1002.5
G02 X60.39078 Y62.76819 I20.96153 J29.6059 F4010.
X57.62263 Y66.1875 I26.75825 J24.49268
G1 X58.08125
G03 X66.1875 Y58.08125 I30.29258 J22.18634
G1 Y57.65497
X65.27017 Y56.35934
G03 X67.775 Y54.73032 I21.87886 J30.90153
G1 Y58.89729
G02 X58.89729 Y67.775 I20.59883 J29.47655
G1 X54.68535
G03 X59.21977 Y61.69633 I32.46368 J19.48587
X65.27017 Y56.35934 I27.92926 J25.56454
G1 X64.35284 Y55.0637
G02 X58.04876 Y60.62446 I22.79619 J32.19717
X51.99263 Y69.3625 I29.10027 J26.63641
G1 X59.73658
G03 X69.3625 Y59.73658 I28.63725 J19.01134
G1 Y52.04776
G02 X64.35284 Y55.0637 I17.78653 J35.21311
G1 X63.43551 Y53.76807
G03 X70.95 Y49.55556 I23.71352 J33.4928
G1 Y60.60122
G02 X60.60122 Y70.95 I17.42383 J27.77262
G1 X49.49197
G03 X56.87775 Y59.5526 I37.65706 J16.31087
X63.43551 Y53.76807 I30.27128 J27.70827
G1 X62.51818 Y52.47244
G02 X55.70674 Y58.48074 I24.63085 J34.78843
X47.16966 Y72.47698 I31.44229 J28.78013
G1 X47.16597 Y72.48692
X47.16514 Y72.51058
X47.17865 Y72.53003
X47.20111 Y72.5375
X61.49366
G03 X72.5375 Y61.49366 I26.88017 J15.83634
G1 Y47.50351
X72.48732 Y47.23653
G02 X62.51818 Y52.47244 I14.66171 J40.02434
G1 X61.60085 Y51.17681
G03 X72.40517 Y45.57889 I25.54818 J36.08406
X73.96305 Y46.49394 I0.09482 J1.62223
G1 X74.125 Y47.35563
Y61.51924
G03 X73.60962 Y62.7064 I-1.62503 J-0.00001
G02 X62.7064 Y73.60963 I14.76421 J25.66744
G03 X61.51924 Y74.125 I-1.18715 J-1.10962
G1 X47.20111
G03 X45.67819 Y71.93314 I0. J-1.625
G1 X45.6807 Y71.92638
G03 X54.53573 Y57.40887 I41.46833 J15.33449
X61.60085 Y51.17681 I32.6133 J29.852
G0 Z15.675
X66.1875 Y57.65497
G1 Z3. F1002.5
G02 X60.39078 Y62.76819 I20.96153 J29.6059 F4010.
X57.62263 Y66.1875 I26.75825 J24.49268
G1 X58.08125
G03 X66.1875 Y58.08125 I30.29258 J22.18634
G1 Y57.65497
X65.27017 Y56.35934
G03 X67.775 Y54.73032 I21.87886 J30.90153
G1 Y58.89729
G02 X58.89729 Y67.775 I20.59883 J29.47655
G1 X54.68535
G03 X59.21977 Y61.69633 I32.46368 J19.48587
X65.27017 Y56.35934 I27.92926 J25.56454
G1 X64.35284 Y55.0637
G02 X58.04876 Y60.62446 I22.79619 J32.19717
X51.99263 Y69.3625 I29.10027 J26.63641
G1 X59.73658
G03 X69.3625 Y59.73658 I28.63725 J19.01134
G1 Y52.04776
G02 X64.35284 Y55.0637 I17.78653 J35.21311
G1 X63.43551 Y53.76807
G03 X70.95 Y49.55556 I23.71352 J33.4928
G1 Y60.60122
G02 X60.60122 Y70.95 I17.42383 J27.77262
G1 X49.49197
G03 X56.87775 Y59.5526 I37.65706 J16.31087
X63.43551 Y53.76807 I30.27128 J27.70827
G1 X62.51818 Y52.47244
G02 X55.70674 Y58.48074 I24.63085 J34.78843
X47.16966 Y72.47698 I31.44229 J28.78013
G1 X47.16597 Y72.48692
X47.16514 Y72.51058
X47.17865 Y72.53003
X47.20111 Y72.5375
X61.49366
G03 X72.5375 Y61.49366 I26.88017 J15.83634
G1 Y47.50351
X72.48732 Y47.23653
G02 X62.51818 Y52.47244 I14.66171 J40.02434
G1 X61.60085 Y51.17681
G03 X72.40517 Y45.57889 I25.54818 J36.08406
X73.96305 Y46.49394 I0.09482 J1.62223
G1 X74.125 Y47.35563
Y61.51924
G03 X73.60962 Y62.7064 I-1.62503 J-0.00001
G02 X62.7064 Y73.60963 I14.76421 J25.66744
G03 X61.51924 Y74.125 I-1.18715 J-1.10962
G1 X47.20111
G03 X45.67819 Y71.93314 I0. J-1.625
G1 X45.6807 Y71.92638
G03 X54.53573 Y57.40887 I41.46833 J15.33449
X61.60085 Y51.17681 I32.6133 J29.852
G0 Z15.675
X66.1875 Y57.65497
G1 Z2.5 F1002.5
G02 X60.39078 Y62.76819 I20.96153 J29.6059 F4010.
X57.62263 Y66.1875 I26.75825 J24.49268
G1 X58.08125
G03 X66.1875 Y58.08125 I30.29258 J22.18634
G1 Y57.65497
X65.27017 Y56.35934
G03 X67.775 Y54.73032 I21.87886 J30.90153
G1 Y58.89729
G02 X58.89729 Y67.775 I20.59883 J29.47655
G1 X54.68535
G03 X59.21977 Y61.69633 I32.46368 J19.48587
X65.27017 Y56.35934 I27.92926 J25.56454
G1 X64.35284 Y55.0637
G02 X58.04876 Y60.62446 I22.79619 J32.19717
X51.99263 Y69.3625 I29.10027 J26.63641
G1 X59.73658
G03 X69.3625 Y59.73658 I28.63725 J19.01134
G1 Y52.04776
G02 X64.35284 Y55.0637 I17.78653 J35.21311
G1 X63.43551 Y53.76807
G03 X70.95 Y49.55556 I23.71352 J33.4928
G1 Y60.60122
G02 X60.60122 Y70.95 I17.42383 J27.77262
G1 X49.49197
G03 X56.87775 Y59.5526 I37.65706 J16.31087
X63.43551 Y53.76807 I30.27128 J27.70827
G1 X62.51818 Y52.47244
G02 X55.70674 Y58.48074 I24.63085 J34.78843
X47.16966 Y72.47698 I31.44229 J28.78013
G1 X47.16597 Y72.48692
X47.16514 Y72.51058
X47.17865 Y72.53003
X47.20111 Y72.5375
X61.49366
G03 X72.5375 Y61.49366 I26.88017 J15.83634
G1 Y47.50351
X72.48732 Y47.23653
G02 X62.51818 Y52.47244 I14.66171 J40.02434
G1 X61.60085 Y51.17681
G03 X72.40517 Y45.57889 I25.54818 J36.08406
X73.96305 Y46.49394 I0.09482 J1.62223
G1 X74.125 Y47.35563
Y61.51924
