%
G17 G21 G40 G90 G64 P0.1
(2 1/2 Axis Profiling - Rough)
(SlotDrill 2mm Carbide)
T12 M06
S24000 M3
G0 Z13.5
X75.99999 Y88.15
G1 Z12. F318.2
G17
G03 Y86.85 I0. J-0.65 F1273.
Y88.15 I0. J0.65
G1 Z11.5
G03 Y86.85 I0. J-0.65
Y88.15 I0. J0.65
G1 Z11.
G03 Y86.85 I0. J-0.65
Y88.15 I0. J0.65
G1 Z10.5
G03 Y86.85 I0. J-0.65
Y88.15 I0. J0.65
G1 Z10.
G03 Y86.85 I0. J-0.65
Y88.15 I0. J0.65
G1 Z9.5
G03 Y86.85 I0. J-0.65
Y88.15 I0. J0.65
G1 Z9.
G03 Y86.85 I0. J-0.65
Y88.15 I0. J0.65
G1 Z8.5
G03 Y86.85 I0. J-0.65
Y88.15 I0. J0.65
G1 Z8.
G03 Y86.85 I0. J-0.65
Y88.15 I0. J0.65
G1 Z7.5
G03 Y86.85 I0. J-0.65
Y88.15 I0. J0.65
G1 Z7.
G03 Y86.85 I0. J-0.65
Y88.15 I0. J0.65
G1 Z6.5
G03 Y86.85 I0. J-0.65
Y88.15 I0. J0.65
G1 Z6.
G03 Y86.85 I0. J-0.65
Y88.15 I0. J0.65
G1 Z5.5
G03 Y86.85 I0. J-0.65
Y88.15 I0. J0.65
G1 Z5.
G03 Y86.85 I0. J-0.65
Y88.15 I0. J0.65
G1 Z4.5
G03 Y86.85 I0. J-0.65
Y88.15 I0. J0.65
G1 Z4.
G03 Y86.85 I0. J-0.65
Y88.15 I0. J0.65
G1 Z3.5
G03 Y86.85 I0. J-0.65
Y88.15 I0. J0.65
G1 Z3.
G03 Y86.85 I0. J-0.65
Y88.15 I0. J0.65
G1 Z2.5
G03 Y86.85 I0. J-0.65
Y88.15 I0. J0.65
G1 Z2.
G03 Y86.85 I0. J-0.65
Y88.15 I0. J0.65
G1 Z1.5
G03 Y86.85 I0. J-0.65
Y88.15 I0. J0.65
G1 Z1.
G03 Y86.85 I0. J-0.65
Y88.15 I0. J0.65
G1 Z0.5
G03 Y86.85 I0. J-0.65
Y88.15 I0. J0.65
G1 Z0.
G03 Y86.85 I0. J-0.65
Y88.15 I0. J0.65
G1 Z-0.5
G03 Y86.85 I0. J-0.65
Y88.15 I0. J0.65
G0 Z13.5
X88.10435 Y99.23926
G1 Z12. F318.2
G03 X86.89563 Y98.76074 I-0.60436 J-0.23926 F1273.
X88.10435 Y99.23926 I0.60436 J0.23926
G1 Z11.5
G03 X86.89563 Y98.76074 I-0.60436 J-0.23926
X88.10435 Y99.23926 I0.60436 J0.23926
G1 Z11.
G03 X86.89563 Y98.76074 I-0.60436 J-0.23926
X88.10435 Y99.23926 I0.60436 J0.23926
G1 Z10.5
G03 X86.89563 Y98.76074 I-0.60436 J-0.23926
X88.10435 Y99.23926 I0.60436 J0.23926
G1 Z10.
G03 X86.89563 Y98.76074 I-0.60436 J-0.23926
X88.10435 Y99.23926 I0.60436 J0.23926
G1 Z9.5
G03 X86.89563 Y98.76074 I-0.60436 J-0.23926
X88.10435 Y99.23926 I0.60436 J0.23926
G1 Z9.
G03 X86.89563 Y98.76074 I-0.60436 J-0.23926
X88.10435 Y99.23926 I0.60436 J0.23926
G1 Z8.5
G03 X86.89563 Y98.76074 I-0.60436 J-0.23926
X88.10435 Y99.23926 I0.60436 J0.23926
G1 Z8.
G03 X86.89563 Y98.76074 I-0.60436 J-0.23926
X88.10435 Y99.23926 I0.60436 J0.23926
G1 Z7.5
G03 X86.89563 Y98.76074 I-0.60436 J-0.23926
X88.10435 Y99.23926 I0.60436 J0.23926
G1 Z7.
G03 X86.89563 Y98.76074 I-0.60436 J-0.23926
X88.10435 Y99.23926 I0.60436 J0.23926
G1 Z6.5
G03 X86.89563 Y98.76074 I-0.60436 J-0.23926
X88.10435 Y99.23926 I0.60436 J0.23926
G1 Z6.
G03 X86.89563 Y98.76074 I-0.60436 J-0.23926
X88.10435 Y99.23926 I0.60436 J0.23926
G1 Z5.5
G03 X86.89563 Y98.76074 I-0.60436 J-0.23926
X88.10435 Y99.23926 I0.60436 J0.23926
G1 Z5.
G03 X86.89563 Y98.76074 I-0.60436 J-0.23926
X88.10435 Y99.23926 I0.60436 J0.23926
G1 Z4.5
G03 X86.89563 Y98.76074 I-0.60436 J-0.23926
X88.10435 Y99.23926 I0.60436 J0.23926
G1 Z4.
G03 X86.89563 Y98.76074 I-0.60436 J-0.23926
X88.10435 Y99.23926 I0.60436 J0.23926
G1 Z3.5
G03 X86.89563 Y98.76074 I-0.60436 J-0.23926
X88.10435 Y99.23926 I0.60436 J0.23926
G1 Z3.
G03 X86.89563 Y98.76074 I-0.60436 J-0.23926
X88.10435 Y99.23926 I0.60436 J0.23926
G1 Z2.5
G03 X86.89563 Y98.76074 I-0.60436 J-0.23926
X88.10435 Y99.23926 I0.60436 J0.23926
G1 Z2.
G03 X86.89563 Y98.76074 I-0.60436 J-0.23926
X88.10435 Y99.23926 I0.60436 J0.23926
G1 Z1.5
G03 X86.89563 Y98.76074 I-0.60436 J-0.23926
X88.10435 Y99.23926 I0.60436 J0.23926
G1 Z1.
G03 X86.89563 Y98.76074 I-0.60436 J-0.23926
X88.10435 Y99.23926 I0.60436 J0.23926
G1 Z0.5
G03 X86.89563 Y98.76074 I-0.60436 J-0.23926
X88.10435 Y99.23926 I0.60436 J0.23926
G1 Z0.
G03 X86.89563 Y98.76074 I-0.60436 J-0.23926
X88.10435 Y99.23926 I0.60436 J0.23926
G1 Z-0.5
G03 X86.89563 Y98.76074 I-0.60436 J-0.23926
X88.10435 Y99.23926 I0.60436 J0.23926
G0 Z13.5
X98.76074 Y88.10436
G1 Z12. F318.2
G03 X99.23926 Y86.89563 I0.23926 J-0.60436 F1273.
X98.76074 Y88.10436 I-0.23926 J0.60437
G1 Z11.5
G03 X99.23926 Y86.89563 I0.23926 J-0.60436
X98.76074 Y88.10436 I-0.23926 J0.60437
G1 Z11.
G03 X99.23926 Y86.89563 I0.23926 J-0.60436
X98.76074 Y88.10436 I-0.23926 J0.60437
G1 Z10.5
G03 X99.23926 Y86.89563 I0.23926 J-0.60436
X98.76074 Y88.10436 I-0.23926 J0.60437
G1 Z10.
G03 X99.23926 Y86.89563 I0.23926 J-0.60436
X98.76074 Y88.10436 I-0.23926 J0.60437
G1 Z9.5
G03 X99.23926 Y86.89563 I0.23926 J-0.60436
X98.76074 Y88.10436 I-0.23926 J0.60437
G1 Z9.
G03 X99.23926 Y86.89563 I0.23926 J-0.60436
X98.76074 Y88.10436 I-0.23926 J0.60437
G1 Z8.5
G03 X99.23926 Y86.89563 I0.23926 J-0.60436
X98.76074 Y88.10436 I-0.23926 J0.60437
G1 Z8.
G03 X99.23926 Y86.89563 I0.23926 J-0.60436
X98.76074 Y88.10436 I-0.23926 J0.60437
G1 Z7.5
G03 X99.23926 Y86.89563 I0.23926 J-0.60436
X98.76074 Y88.10436 I-0.23926 J0.60437
G1 Z7.
G03 X99.23926 Y86.89563 I0.23926 J-0.60436
X98.76074 Y88.10436 I-0.23926 J0.60437
G1 Z6.5
G03 X99.23926 Y86.89563 I0.23926 J-0.60436
X98.76074 Y88.10436 I-0.23926 J0.60437
G1 Z6.
G03 X99.23926 Y86.89563 I0.23926 J-0.60436
X98.76074 Y88.10436 I-0.23926 J0.60437
G1 Z5.5
G03 X99.23926 Y86.89563 I0.23926 J-0.60436
X98.76074 Y88.10436 I-0.23926 J0.60437
G1 Z5.
G03 X99.23926 Y86.89563 I0.23926 J-0.60436
X98.76074 Y88.10436 I-0.23926 J0.60437
G1 Z4.5
G03 X99.23926 Y86.89563 I0.23926 J-0.60436
X98.76074 Y88.10436 I-0.23926 J0.60437
G1 Z4.
G03 X99.23926 Y86.89563 I0.23926 J-0.60436
X98.76074 Y88.10436 I-0.23926 J0.60437
G1 Z3.5
G03 X99.23926 Y86.89563 I0.23926 J-0.60436
X98.76074 Y88.10436 I-0.23926 J0.60437
G1 Z3.
G03 X99.23926 Y86.89563 I0.23926 J-0.60436
X98.76074 Y88.10436 I-0.23926 J0.60437
G1 Z2.5
G03 X99.23926 Y86.89563 I0.23926 J-0.60436
X98.76074 Y88.10436 I-0.23926 J0.60437
G1 Z2.
G03 X99.23926 Y86.89563 I0.23926 J-0.60436
X98.76074 Y88.10436 I-0.23926 J0.60437
G1 Z1.5
G03 X99.23926 Y86.89563 I0.23926 J-0.60436
X98.76074 Y88.10436 I-0.23926 J0.60437
G1 Z1.
G03 X99.23926 Y86.89563 I0.23926 J-0.60436
X98.76074 Y88.10436 I-0.23926 J0.60437
G1 Z0.5
G03 X99.23926 Y86.89563 I0.23926 J-0.60436
X98.76074 Y88.10436 I-0.23926 J0.60437
G1 Z0.
G03 X99.23926 Y86.89563 I0.23926 J-0.60436
X98.76074 Y88.10436 I-0.23926 J0.60437
G1 Z-0.5
G03 X99.23926 Y86.89563 I0.23926 J-0.60436
X98.76074 Y88.10436 I-0.23926 J0.60437
G0 Z13.5
X88.10435 Y76.23926
G1 Z12. F318.2
G03 X86.89563 Y75.76074 I-0.60436 J-0.23926 F1273.
X88.10435 Y76.23926 I0.60436 J0.23926
G1 Z11.5
G03 X86.89563 Y75.76074 I-0.60436 J-0.23926
X88.10435 Y76.23926 I0.60436 J0.23926
G1 Z11.
G03 X86.89563 Y75.76074 I-0.60436 J-0.23926
X88.10435 Y76.23926 I0.60436 J0.23926
G1 Z10.5
G03 X86.89563 Y75.76074 I-0.60436 J-0.23926
X88.10435 Y76.23926 I0.60436 J0.23926
G1 Z10.
G03 X86.89563 Y75.76074 I-0.60436 J-0.23926
X88.10435 Y76.23926 I0.60436 J0.23926
G1 Z9.5
G03 X86.89563 Y75.76074 I-0.60436 J-0.23926
X88.10435 Y76.23926 I0.60436 J0.23926
G1 Z9.
G03 X86.89563 Y75.76074 I-0.60436 J-0.23926
X88.10435 Y76.23926 I0.60436 J0.23926
G1 Z8.5
G03 X86.89563 Y75.76074 I-0.60436 J-0.23926
X88.10435 Y76.23926 I0.60436 J0.23926
G1 Z8.
G03 X86.89563 Y75.76074 I-0.60436 J-0.23926
X88.10435 Y76.23926 I0.60436 J0.23926
G1 Z7.5
G03 X86.89563 Y75.76074 I-0.60436 J-0.23926
X88.10435 Y76.23926 I0.60436 J0.23926
G1 Z7.
G03 X86.89563 Y75.76074 I-0.60436 J-0.23926
X88.10435 Y76.23926 I0.60436 J0.23926
G1 Z6.5
G03 X86.89563 Y75.76074 I-0.60436 J-0.23926
X88.10435 Y76.23926 I0.60436 J0.23926
G1 Z6.
G03 X86.89563 Y75.76074 I-0.60436 J-0.23926
X88.10435 Y76.23926 I0.60436 J0.23926
G1 Z5.5
G03 X86.89563 Y75.76074 I-0.60436 J-0.23926
X88.10435 Y76.23926 I0.60436 J0.23926
G1 Z5.
G03 X86.89563 Y75.76074 I-0.60436 J-0.23926
X88.10435 Y76.23926 I0.60436 J0.23926
G1 Z4.5
G03 X86.89563 Y75.76074 I-0.60436 J-0.23926
X88.10435 Y76.23926 I0.60436 J0.23926
G1 Z4.
G03 X86.89563 Y75.76074 I-0.60436 J-0.23926
X88.10435 Y76.23926 I0.60436 J0.23926
G1 Z3.5
G03 X86.89563 Y75.76074 I-0.60436 J-0.23926
X88.10435 Y76.23926 I0.60436 J0.23926
G1 Z3.
G03 X86.89563 Y75.76074 I-0.60436 J-0.23926
X88.10435 Y76.23926 I0.60436 J0.23926
G1 Z2.5
G03 X86.89563 Y75.76074 I-0.60436 J-0.23926
X88.10435 Y76.23926 I0.60436 J0.23926
G1 Z2.
G03 X86.89563 Y75.76074 I-0.60436 J-0.23926
X88.10435 Y76.23926 I0.60436 J0.23926
G1 Z1.5
G03 X86.89563 Y75.76074 I-0.60436 J-0.23926
X88.10435 Y76.23926 I0.60436 J0.23926
G1 Z1.
G03 X86.89563 Y75.76074 I-0.60436 J-0.23926
X88.10435 Y76.23926 I0.60436 J0.23926
G1 Z0.5
G03 X86.89563 Y75.76074 I-0.60436 J-0.23926
X88.10435 Y76.23926 I0.60436 J0.23926
G1 Z0.
G03 X86.89563 Y75.76074 I-0.60436 J-0.23926
X88.10435 Y76.23926 I0.60436 J0.23926
G1 Z-0.5
G03 X86.89563 Y75.76074 I-0.60436 J-0.23926
X88.10435 Y76.23926 I0.60436 J0.23926
G0 Z13.5
X84.72214 Y219.47409
G1 Z12. F318.2
G03 X85.65193 Y219.10599 I0.46489 J-0.18405 F1273.
X84.72214 Y219.47409 I-0.4649 J0.18405
G1 Z11.5
G03 X85.65193 Y219.10599 I0.46489 J-0.18405
X84.72214 Y219.47409 I-0.4649 J0.18405
G1 Z11.
G03 X85.65193 Y219.10599 I0.46489 J-0.18405
X84.72214 Y219.47409 I-0.4649 J0.18405
G1 Z10.5
G03 X85.65193 Y219.10599 I0.46489 J-0.18405
X84.72214 Y219.47409 I-0.4649 J0.18405
G1 Z10.
G03 X85.65193 Y219.10599 I0.46489 J-0.18405
X84.72214 Y219.47409 I-0.4649 J0.18405
G1 Z9.5
G03 X85.65193 Y219.10599 I0.46489 J-0.18405
X84.72214 Y219.47409 I-0.4649 J0.18405
G1 Z9.
G03 X85.65193 Y219.10599 I0.46489 J-0.18405
X84.72214 Y219.47409 I-0.4649 J0.18405
G1 Z8.5
G03 X85.65193 Y219.10599 I0.46489 J-0.18405
X84.72214 Y219.47409 I-0.4649 J0.18405
G1 Z8.
G03 X85.65193 Y219.10599 I0.46489 J-0.18405
X84.72214 Y219.47409 I-0.4649 J0.18405
G1 Z7.5
G03 X85.65193 Y219.10599 I0.46489 J-0.18405
X84.72214 Y219.47409 I-0.4649 J0.18405
G1 Z7.
G03 X85.65193 Y219.10599 I0.46489 J-0.18405
X84.72214 Y219.47409 I-0.4649 J0.18405
G1 Z6.5
G03 X85.65193 Y219.10599 I0.46489 J-0.18405
X84.72214 Y219.47409 I-0.4649 J0.18405
G1 Z6.
G03 X85.65193 Y219.10599 I0.46489 J-0.18405
X84.72214 Y219.47409 I-0.4649 J0.18405
G1 Z5.5
G03 X85.65193 Y219.10599 I0.46489 J-0.18405
X84.72214 Y219.47409 I-0.4649 J0.18405
G1 Z5.
G03 X85.65193 Y219.10599 I0.46489 J-0.18405
X84.72214 Y219.47409 I-0.4649 J0.18405
G1 Z4.5
G03 X85.65193 Y219.10599 I0.46489 J-0.18405
X84.72214 Y219.47409 I-0.4649 J0.18405
G1 Z4.
G03 X85.65193 Y219.10599 I0.46489 J-0.18405
X84.72214 Y219.47409 I-0.4649 J0.18405
G1 Z3.5
G03 X85.65193 Y219.10599 I0.46489 J-0.18405
X84.72214 Y219.47409 I-0.4649 J0.18405
G1 Z3.
G03 X85.65193 Y219.10599 I0.46489 J-0.18405
X84.72214 Y219.47409 I-0.4649 J0.18405
G1 Z2.5
G03 X85.65193 Y219.10599 I0.46489 J-0.18405
X84.72214 Y219.47409 I-0.4649 J0.18405
G1 Z2.
G03 X85.65193 Y219.10599 I0.46489 J-0.18405
X84.72214 Y219.47409 I-0.4649 J0.18405
G1 Z1.5
G03 X85.65193 Y219.10599 I0.46489 J-0.18405
X84.72214 Y219.47409 I-0.4649 J0.18405
G1 Z1.
G03 X85.65193 Y219.10599 I0.46489 J-0.18405
X84.72214 Y219.47409 I-0.4649 J0.18405
G1 Z0.5
G03 X85.65193 Y219.10599 I0.46489 J-0.18405
X84.72214 Y219.47409 I-0.4649 J0.18405
G1 Z0.
G03 X85.65193 Y219.10599 I0.46489 J-0.18405
X84.72214 Y219.47409 I-0.4649 J0.18405
G1 Z-0.5
G03 X85.65193 Y219.10599 I0.46489 J-0.18405
X84.72214 Y219.47409 I-0.4649 J0.18405
G0 Z13.5
X72.11719 Y227.39359
G1 Z12. F318.2
G03 X71.41009 Y226.68649 I-0.35355 J-0.35355 F1273.
X72.11719 Y227.39359 I0.35355 J0.35355
G1 Z11.5
G03 X71.41009 Y226.68649 I-0.35355 J-0.35355
X72.11719 Y227.39359 I0.35355 J0.35355
G1 Z11.
G03 X71.41009 Y226.68649 I-0.35355 J-0.35355
X72.11719 Y227.39359 I0.35355 J0.35355
G1 Z10.5
G03 X71.41009 Y226.68649 I-0.35355 J-0.35355
X72.11719 Y227.39359 I0.35355 J0.35355
G1 Z10.
G03 X71.41009 Y226.68649 I-0.35355 J-0.35355
X72.11719 Y227.39359 I0.35355 J0.35355
G1 Z9.5
G03 X71.41009 Y226.68649 I-0.35355 J-0.35355
X72.11719 Y227.39359 I0.35355 J0.35355
G1 Z9.
G03 X71.41009 Y226.68649 I-0.35355 J-0.35355
X72.11719 Y227.39359 I0.35355 J0.35355
G1 Z8.5
G03 X71.41009 Y226.68649 I-0.35355 J-0.35355
X72.11719 Y227.39359 I0.35355 J0.35355
G1 Z8.
G03 X71.41009 Y226.68649 I-0.35355 J-0.35355
X72.11719 Y227.39359 I0.35355 J0.35355
G1 Z7.5
G03 X71.41009 Y226.68649 I-0.35355 J-0.35355
X72.11719 Y227.39359 I0.35355 J0.35355
G1 Z7.
G03 X71.41009 Y226.68649 I-0.35355 J-0.35355
X72.11719 Y227.39359 I0.35355 J0.35355
G1 Z6.5
G03 X71.41009 Y226.68649 I-0.35355 J-0.35355
X72.11719 Y227.39359 I0.35355 J0.35355
G1 Z6.
G03 X71.41009 Y226.68649 I-0.35355 J-0.35355
X72.11719 Y227.39359 I0.35355 J0.35355
G1 Z5.5
G03 X71.41009 Y226.68649 I-0.35355 J-0.35355
X72.11719 Y227.39359 I0.35355 J0.35355
G1 Z5.
G03 X71.41009 Y226.68649 I-0.35355 J-0.35355
X72.11719 Y227.39359 I0.35355 J0.35355
G1 Z4.5
G03 X71.41009 Y226.68649 I-0.35355 J-0.35355
X72.11719 Y227.39359 I0.35355 J0.35355
G1 Z4.
G03 X71.41009 Y226.68649 I-0.35355 J-0.35355
X72.11719 Y227.39359 I0.35355 J0.35355
G1 Z3.5
G03 X71.41009 Y226.68649 I-0.35355 J-0.35355
X72.11719 Y227.39359 I0.35355 J0.35355
G1 Z3.
G03 X71.41009 Y226.68649 I-0.35355 J-0.35355
X72.11719 Y227.39359 I0.35355 J0.35355
G1 Z2.5
G03 X71.41009 Y226.68649 I-0.35355 J-0.35355
X72.11719 Y227.39359 I0.35355 J0.35355
G1 Z2.
G03 X71.41009 Y226.68649 I-0.35355 J-0.35355
X72.11719 Y227.39359 I0.35355 J0.35355
G1 Z1.5
G03 X71.41009 Y226.68649 I-0.35355 J-0.35355
X72.11719 Y227.39359 I0.35355 J0.35355
G1 Z1.
G03 X71.41009 Y226.68649 I-0.35355 J-0.35355
X72.11719 Y227.39359 I0.35355 J0.35355
G1 Z0.5
G03 X71.41009 Y226.68649 I-0.35355 J-0.35355
X72.11719 Y227.39359 I0.35355 J0.35355
G1 Z0.
G03 X71.41009 Y226.68649 I-0.35355 J-0.35355
X72.11719 Y227.39359 I0.35355 J0.35355
G1 Z-0.5
G03 X71.41009 Y226.68649 I-0.35355 J-0.35355
X72.11719 Y227.39359 I0.35355 J0.35355
G0 Z13.5
X72.22853 Y242.72409
G1 Z12. F318.2
G03 X71.29875 Y242.35599 I-0.46489 J-0.18405 F1273.
X72.22853 Y242.72409 I0.46489 J0.18405
G1 Z11.5
G03 X71.29875 Y242.35599 I-0.46489 J-0.18405
X72.22853 Y242.72409 I0.46489 J0.18405
G1 Z11.
G03 X71.29875 Y242.35599 I-0.46489 J-0.18405
X72.22853 Y242.72409 I0.46489 J0.18405
G1 Z10.5
G03 X71.29875 Y242.35599 I-0.46489 J-0.18405
X72.22853 Y242.72409 I0.46489 J0.18405
G1 Z10.
G03 X71.29875 Y242.35599 I-0.46489 J-0.18405
X72.22853 Y242.72409 I0.46489 J0.18405
G1 Z9.5
G03 X71.29875 Y242.35599 I-0.46489 J-0.18405
X72.22853 Y242.72409 I0.46489 J0.18405
G1 Z9.
G03 X71.29875 Y242.35599 I-0.46489 J-0.18405
X72.22853 Y242.72409 I0.46489 J0.18405
G1 Z8.5
G03 X71.29875 Y242.35599 I-0.46489 J-0.18405
X72.22853 Y242.72409 I0.46489 J0.18405
G1 Z8.
G03 X71.29875 Y242.35599 I-0.46489 J-0.18405
X72.22853 Y242.72409 I0.46489 J0.18405
G1 Z7.5
G03 X71.29875 Y242.35599 I-0.46489 J-0.18405
X72.22853 Y242.72409 I0.46489 J0.18405
G1 Z7.
G03 X71.29875 Y242.35599 I-0.46489 J-0.18405
X72.22853 Y242.72409 I0.46489 J0.18405
G1 Z6.5
G03 X71.29875 Y242.35599 I-0.46489 J-0.18405
X72.22853 Y242.72409 I0.46489 J0.18405
G1 Z6.
G03 X71.29875 Y242.35599 I-0.46489 J-0.18405
X72.22853 Y242.72409 I0.46489 J0.18405
G1 Z5.5
G03 X71.29875 Y242.35599 I-0.46489 J-0.18405
X72.22853 Y242.72409 I0.46489 J0.18405
G1 Z5.
G03 X71.29875 Y242.35599 I-0.46489 J-0.18405
X72.22853 Y242.72409 I0.46489 J0.18405
G1 Z4.5
G03 X71.29875 Y242.35599 I-0.46489 J-0.18405
X72.22853 Y242.72409 I0.46489 J0.18405
G1 Z4.
G03 X71.29875 Y242.35599 I-0.46489 J-0.18405
X72.22853 Y242.72409 I0.46489 J0.18405
G1 Z3.5
G03 X71.29875 Y242.35599 I-0.46489 J-0.18405
X72.22853 Y242.72409 I0.46489 J0.18405
G1 Z3.
G03 X71.29875 Y242.35599 I-0.46489 J-0.18405
X72.22853 Y242.72409 I0.46489 J0.18405
G1 Z2.5
G03 X71.29875 Y242.35599 I-0.46489 J-0.18405
X72.22853 Y242.72409 I0.46489 J0.18405
G1 Z2.
G03 X71.29875 Y242.35599 I-0.46489 J-0.18405
X72.22853 Y242.72409 I0.46489 J0.18405
G1 Z1.5
G03 X71.29875 Y242.35599 I-0.46489 J-0.18405
X72.22853 Y242.72409 I0.46489 J0.18405
G1 Z1.
G03 X71.29875 Y242.35599 I-0.46489 J-0.18405
X72.22853 Y242.72409 I0.46489 J0.18405
G1 Z0.5
G03 X71.29875 Y242.35599 I-0.46489 J-0.18405
X72.22853 Y242.72409 I0.46489 J0.18405
G1 Z0.
G03 X71.29875 Y242.35599 I-0.46489 J-0.18405
X72.22853 Y242.72409 I0.46489 J0.18405
G1 Z-0.5
G03 X71.29875 Y242.35599 I-0.46489 J-0.18405
X72.22853 Y242.72409 I0.46489 J0.18405
G0 Z13.5
X85.65193 Y250.47409
G1 Z12. F318.2
G03 X84.72214 Y250.10599 I-0.4649 J-0.18405 F1273.
X85.65193 Y250.47409 I0.46489 J0.18405
G1 Z11.5
G03 X84.72214 Y250.10599 I-0.4649 J-0.18405
X85.65193 Y250.47409 I0.46489 J0.18405
G1 Z11.
G03 X84.72214 Y250.10599 I-0.4649 J-0.18405
X85.65193 Y250.47409 I0.46489 J0.18405
G1 Z10.5
G03 X84.72214 Y250.10599 I-0.4649 J-0.18405
X85.65193 Y250.47409 I0.46489 J0.18405
G1 Z10.
G03 X84.72214 Y250.10599 I-0.4649 J-0.18405
X85.65193 Y250.47409 I0.46489 J0.18405
G1 Z9.5
G03 X84.72214 Y250.10599 I-0.4649 J-0.18405
X85.65193 Y250.47409 I0.46489 J0.18405
G1 Z9.
G03 X84.72214 Y250.10599 I-0.4649 J-0.18405
X85.65193 Y250.47409 I0.46489 J0.18405
G1 Z8.5
G03 X84.72214 Y250.10599 I-0.4649 J-0.18405
X85.65193 Y250.47409 I0.46489 J0.18405
G1 Z8.
G03 X84.72214 Y250.10599 I-0.4649 J-0.18405
X85.65193 Y250.47409 I0.46489 J0.18405
G1 Z7.5
G03 X84.72214 Y250.10599 I-0.4649 J-0.18405
X85.65193 Y250.47409 I0.46489 J0.18405
G1 Z7.
G03 X84.72214 Y250.10599 I-0.4649 J-0.18405
X85.65193 Y250.47409 I0.46489 J0.18405
G1 Z6.5
G03 X84.72214 Y250.10599 I-0.4649 J-0.18405
X85.65193 Y250.47409 I0.46489 J0.18405
G1 Z6.
G03 X84.72214 Y250.10599 I-0.4649 J-0.18405
X85.65193 Y250.47409 I0.46489 J0.18405
G1 Z5.5
G03 X84.72214 Y250.10599 I-0.4649 J-0.18405
X85.65193 Y250.47409 I0.46489 J0.18405
G1 Z5.
G03 X84.72214 Y250.10599 I-0.4649 J-0.18405
X85.65193 Y250.47409 I0.46489 J0.18405
G1 Z4.5
G03 X84.72214 Y250.10599 I-0.4649 J-0.18405
X85.65193 Y250.47409 I0.46489 J0.18405
G1 Z4.
G03 X84.72214 Y250.10599 I-0.4649 J-0.18405
X85.65193 Y250.47409 I0.46489 J0.18405
G1 Z3.5
G03 X84.72214 Y250.10599 I-0.4649 J-0.18405
X85.65193 Y250.47409 I0.46489 J0.18405
G1 Z3.
G03 X84.72214 Y250.10599 I-0.4649 J-0.18405
X85.65193 Y250.47409 I0.46489 J0.18405
G1 Z2.5
G03 X84.72214 Y250.10599 I-0.4649 J-0.18405
X85.65193 Y250.47409 I0.46489 J0.18405
G1 Z2.
G03 X84.72214 Y250.10599 I-0.4649 J-0.18405
X85.65193 Y250.47409 I0.46489 J0.18405
G1 Z1.5
G03 X84.72214 Y250.10599 I-0.4649 J-0.18405
X85.65193 Y250.47409 I0.46489 J0.18405
G1 Z1.
G03 X84.72214 Y250.10599 I-0.4649 J-0.18405
X85.65193 Y250.47409 I0.46489 J0.18405
G1 Z0.5
G03 X84.72214 Y250.10599 I-0.4649 J-0.18405
X85.65193 Y250.47409 I0.46489 J0.18405
G1 Z0.
G03 X84.72214 Y250.10599 I-0.4649 J-0.18405
X85.65193 Y250.47409 I0.46489 J0.18405
G1 Z-0.5
G03 X84.72214 Y250.10599 I-0.4649 J-0.18405
X85.65193 Y250.47409 I0.46489 J0.18405
G0 Z13.5
X99.07532 Y242.72409
G1 Z12. F318.2
G03 X98.14553 Y242.35599 I-0.46489 J-0.18405 F1273.
X99.07532 Y242.72409 I0.4649 J0.18405
G1 Z11.5
G03 X98.14553 Y242.35599 I-0.46489 J-0.18405
X99.07532 Y242.72409 I0.4649 J0.18405
G1 Z11.
G03 X98.14553 Y242.35599 I-0.46489 J-0.18405
X99.07532 Y242.72409 I0.4649 J0.18405
G1 Z10.5
G03 X98.14553 Y242.35599 I-0.46489 J-0.18405
X99.07532 Y242.72409 I0.4649 J0.18405
G1 Z10.
G03 X98.14553 Y242.35599 I-0.46489 J-0.18405
X99.07532 Y242.72409 I0.4649 J0.18405
G1 Z9.5
G03 X98.14553 Y242.35599 I-0.46489 J-0.18405
X99.07532 Y242.72409 I0.4649 J0.18405
G1 Z9.
G03 X98.14553 Y242.35599 I-0.46489 J-0.18405
X99.07532 Y242.72409 I0.4649 J0.18405
G1 Z8.5
G03 X98.14553 Y242.35599 I-0.46489 J-0.18405
X99.07532 Y242.72409 I0.4649 J0.18405
G1 Z8.
G03 X98.14553 Y242.35599 I-0.46489 J-0.18405
X99.07532 Y242.72409 I0.4649 J0.18405
G1 Z7.5
G03 X98.14553 Y242.35599 I-0.46489 J-0.18405
X99.07532 Y242.72409 I0.4649 J0.18405
G1 Z7.
G03 X98.14553 Y242.35599 I-0.46489 J-0.18405
X99.07532 Y242.72409 I0.4649 J0.18405
G1 Z6.5
G03 X98.14553 Y242.35599 I-0.46489 J-0.18405
X99.07532 Y242.72409 I0.4649 J0.18405
G1 Z6.
G03 X98.14553 Y242.35599 I-0.46489 J-0.18405
X99.07532 Y242.72409 I0.4649 J0.18405
G1 Z5.5
G03 X98.14553 Y242.35599 I-0.46489 J-0.18405
X99.07532 Y242.72409 I0.4649 J0.18405
G1 Z5.
G03 X98.14553 Y242.35599 I-0.46489 J-0.18405
X99.07532 Y242.72409 I0.4649 J0.18405
G1 Z4.5
G03 X98.14553 Y242.35599 I-0.46489 J-0.18405
X99.07532 Y242.72409 I0.4649 J0.18405
G1 Z4.
G03 X98.14553 Y242.35599 I-0.46489 J-0.18405
X99.07532 Y242.72409 I0.4649 J0.18405
G1 Z3.5
G03 X98.14553 Y242.35599 I-0.46489 J-0.18405
X99.07532 Y242.72409 I0.4649 J0.18405
G1 Z3.
G03 X98.14553 Y242.35599 I-0.46489 J-0.18405
X99.07532 Y242.72409 I0.4649 J0.18405
G1 Z2.5
G03 X98.14553 Y242.35599 I-0.46489 J-0.18405
X99.07532 Y242.72409 I0.4649 J0.18405
G1 Z2.
G03 X98.14553 Y242.35599 I-0.46489 J-0.18405
X99.07532 Y242.72409 I0.4649 J0.18405
G1 Z1.5
G03 X98.14553 Y242.35599 I-0.46489 J-0.18405
X99.07532 Y242.72409 I0.4649 J0.18405
G1 Z1.
G03 X98.14553 Y242.35599 I-0.46489 J-0.18405
X99.07532 Y242.72409 I0.4649 J0.18405
G1 Z0.5
G03 X98.14553 Y242.35599 I-0.46489 J-0.18405
X99.07532 Y242.72409 I0.4649 J0.18405
G1 Z0.
G03 X98.14553 Y242.35599 I-0.46489 J-0.18405
X99.07532 Y242.72409 I0.4649 J0.18405
G1 Z-0.5
G03 X98.14553 Y242.35599 I-0.46489 J-0.18405
X99.07532 Y242.72409 I0.4649 J0.18405
G0 Z13.5
X109.33604 Y255.67914
G1 Z12. F318.2
X109.54101 Y255.64004 F1273.
X114.93703
G03 Y255.94004 I0. J0.15
G1 X109.43703
G03 X109.33604 Y255.67914 I0. J-0.15
G1 Z11.5
X109.54101 Y255.64004
X114.93703
G03 Y255.94004 I0. J0.15
G1 X109.43703
G03 X109.33604 Y255.67914 I0. J-0.15
G1 Z11.
X109.54101 Y255.64004
X114.93703
G03 Y255.94004 I0. J0.15
G1 X109.43703
G03 X109.33604 Y255.67914 I0. J-0.15
G1 Z10.5
X109.54101 Y255.64004
X114.93703
G03 Y255.94004 I0. J0.15
G1 X109.43703
G03 X109.33604 Y255.67914 I0. J-0.15
G1 Z10.
X109.54101 Y255.64004
X114.93703
G03 Y255.94004 I0. J0.15
G1 X109.43703
G03 X109.33604 Y255.67914 I0. J-0.15
G1 Z9.5
X109.54101 Y255.64004
X114.93703
G03 Y255.94004 I0. J0.15
G1 X109.43703
G03 X109.33604 Y255.67914 I0. J-0.15
G1 Z9.
X109.54101 Y255.64004
X114.93703
G03 Y255.94004 I0. J0.15
G1 X109.43703
G03 X109.33604 Y255.67914 I0. J-0.15
G1 Z8.5
X109.54101 Y255.64004
X114.93703
G03 Y255.94004 I0. J0.15
G1 X109.43703
G03 X109.33604 Y255.67914 I0. J-0.15
G1 Z8.
X109.54101 Y255.64004
X114.93703
G03 Y255.94004 I0. J0.15
G1 X109.43703
G03 X109.33604 Y255.67914 I0. J-0.15
G1 Z7.5
X109.54101 Y255.64004
X114.93703
G03 Y255.94004 I0. J0.15
G1 X109.43703
G03 X109.33604 Y255.67914 I0. J-0.15
G1 Z7.
X109.54101 Y255.64004
X114.93703
G03 Y255.94004 I0. J0.15
G1 X109.43703
G03 X109.33604 Y255.67914 I0. J-0.15
G1 Z6.5
X109.54101 Y255.64004
X114.93703
G03 Y255.94004 I0. J0.15
G1 X109.43703
G03 X109.33604 Y255.67914 I0. J-0.15
G1 Z6.
X109.54101 Y255.64004
X114.93703
G03 Y255.94004 I0. J0.15
G1 X109.43703
G03 X109.33604 Y255.67914 I0. J-0.15
G1 Z5.5
X109.54101 Y255.64004
X114.93703
G03 Y255.94004 I0. J0.15
G1 X109.43703
G03 X109.33604 Y255.67914 I0. J-0.15
G1 Z5.
X109.54101 Y255.64004
X114.93703
G03 Y255.94004 I0. J0.15
G1 X109.43703
G03 X109.33604 Y255.67914 I0. J-0.15
G1 Z4.5
X109.54101 Y255.64004
X114.93703
G03 Y255.94004 I0. J0.15
G1 X109.43703
G03 X109.33604 Y255.67914 I0. J-0.15
G1 Z4.
X109.54101 Y255.64004
X114.93703
G03 Y255.94004 I0. J0.15
G1 X109.43703
G03 X109.33604 Y255.67914 I0. J-0.15
G1 Z3.5
X109.54101 Y255.64004
X114.93703
G03 Y255.94004 I0. J0.15
G1 X109.43703
G03 X109.33604 Y255.67914 I0. J-0.15
G1 Z3.
X109.54101 Y255.64004
X114.93703
G03 Y255.94004 I0. J0.15
G1 X109.43703
G03 X109.33604 Y255.67914 I0. J-0.15
G1 Z2.5
X109.54101 Y255.64004
X114.93703
G03 Y255.94004 I0. J0.15
G1 X109.43703
G03 X109.33604 Y255.67914 I0. J-0.15
G1 Z2.
X109.54101 Y255.64004
X114.93703
G03 Y255.94004 I0. J0.15
G1 X109.43703
G03 X109.33604 Y255.67914 I0. J-0.15
G1 Z1.5
X109.54101 Y255.64004
X114.93703
G03 Y255.94004 I0. J0.15
G1 X109.43703
G03 X109.33604 Y255.67914 I0. J-0.15
G1 Z1.
X109.54101 Y255.64004
X114.93703
G03 Y255.94004 I0. J0.15
G1 X109.43703
G03 X109.33604 Y255.67914 I0. J-0.15
G1 Z0.5
X109.54101 Y255.64004
X114.93703
G03 Y255.94004 I0. J0.15
G1 X109.43703
G03 X109.33604 Y255.67914 I0. J-0.15
G1 Z0.
X109.54101 Y255.64004
X114.93703
G03 Y255.94004 I0. J0.15
G1 X109.43703
G03 X109.33604 Y255.67914 I0. J-0.15
G1 Z-0.5
X109.54101 Y255.64004
X114.93703
G03 Y255.94004 I0. J0.15
G1 X109.43703
G03 X109.33604 Y255.67914 I0. J-0.15
G0 Z13.5
X98.79448 Y227.50493
G1 Z12. F318.2
G03 X98.42638 Y226.57515 I-0.18405 J-0.46489 F1273.
X98.79448 Y227.50493 I0.18405 J0.46489
G1 Z11.5
G03 X98.42638 Y226.57515 I-0.18405 J-0.46489
X98.79448 Y227.50493 I0.18405 J0.46489
G1 Z11.
G03 X98.42638 Y226.57515 I-0.18405 J-0.46489
X98.79448 Y227.50493 I0.18405 J0.46489
G1 Z10.5
G03 X98.42638 Y226.57515 I-0.18405 J-0.46489
X98.79448 Y227.50493 I0.18405 J0.46489
G1 Z10.
G03 X98.42638 Y226.57515 I-0.18405 J-0.46489
X98.79448 Y227.50493 I0.18405 J0.46489
G1 Z9.5
G03 X98.42638 Y226.57515 I-0.18405 J-0.46489
X98.79448 Y227.50493 I0.18405 J0.46489
G1 Z9.
G03 X98.42638 Y226.57515 I-0.18405 J-0.46489
X98.79448 Y227.50493 I0.18405 J0.46489
G1 Z8.5
G03 X98.42638 Y226.57515 I-0.18405 J-0.46489
X98.79448 Y227.50493 I0.18405 J0.46489
G1 Z8.
G03 X98.42638 Y226.57515 I-0.18405 J-0.46489
X98.79448 Y227.50493 I0.18405 J0.46489
G1 Z7.5
G03 X98.42638 Y226.57515 I-0.18405 J-0.46489
X98.79448 Y227.50493 I0.18405 J0.46489
G1 Z7.
G03 X98.42638 Y226.57515 I-0.18405 J-0.46489
X98.79448 Y227.50493 I0.18405 J0.46489
G1 Z6.5
G03 X98.42638 Y226.57515 I-0.18405 J-0.46489
X98.79448 Y227.50493 I0.18405 J0.46489
G1 Z6.
G03 X98.42638 Y226.57515 I-0.18405 J-0.46489
X98.79448 Y227.50493 I0.18405 J0.46489
G1 Z5.5
G03 X98.42638 Y226.57515 I-0.18405 J-0.46489
X98.79448 Y227.50493 I0.18405 J0.46489
G1 Z5.
G03 X98.42638 Y226.57515 I-0.18405 J-0.46489
X98.79448 Y227.50493 I0.18405 J0.46489
G1 Z4.5
G03 X98.42638 Y226.57515 I-0.18405 J-0.46489
X98.79448 Y227.50493 I0.18405 J0.46489
G1 Z4.
G03 X98.42638 Y226.57515 I-0.18405 J-0.46489
X98.79448 Y227.50493 I0.18405 J0.46489
G1 Z3.5
G03 X98.42638 Y226.57515 I-0.18405 J-0.46489
X98.79448 Y227.50493 I0.18405 J0.46489
G1 Z3.
G03 X98.42638 Y226.57515 I-0.18405 J-0.46489
X98.79448 Y227.50493 I0.18405 J0.46489
G1 Z2.5
G03 X98.42638 Y226.57515 I-0.18405 J-0.46489
X98.79448 Y227.50493 I0.18405 J0.46489
G1 Z2.
G03 X98.42638 Y226.57515 I-0.18405 J-0.46489
X98.79448 Y227.50493 I0.18405 J0.46489
G1 Z1.5
G03 X98.42638 Y226.57515 I-0.18405 J-0.46489
X98.79448 Y227.50493 I0.18405 J0.46489
G1 Z1.
G03 X98.42638 Y226.57515 I-0.18405 J-0.46489
X98.79448 Y227.50493 I0.18405 J0.46489
G1 Z0.5
G03 X98.42638 Y226.57515 I-0.18405 J-0.46489
X98.79448 Y227.50493 I0.18405 J0.46489
G1 Z0.
G03 X98.42638 Y226.57515 I-0.18405 J-0.46489
X98.79448 Y227.50493 I0.18405 J0.46489
G1 Z-0.5
G03 X98.42638 Y226.57515 I-0.18405 J-0.46489
X98.79448 Y227.50493 I0.18405 J0.46489
G0 Z13.5
(2 1/2 Axis Profiling - Finish)
(SlotDrill 2mm Carbide)
X76. Y88.25
G1 Z-0.5 F90.
G03 X75.99999 Y86.75 I-0.00001 J-0.75 F360.
X76. Y88.25 I0. J0.75
G0 Z13.5
X88.19733 Y99.27607
G1 Z-0.5 F90.
G03 X86.80265 Y98.72393 I-0.69734 J-0.27607 F360.
X88.19733 Y99.27607 I0.69734 J0.27607
G0 Z13.5
X98.72393 Y88.19734
G1 Z-0.5 F90.
G03 X99.27607 Y86.80266 I0.27607 J-0.69734 F360.
X98.72393 Y88.19734 I-0.27607 J0.69734
G0 Z13.5
X88.19733 Y76.27607
G1 Z-0.5 F90.
G03 X86.80265 Y75.72393 I-0.69734 J-0.27607 F360.
X88.19733 Y76.27607 I0.69734 J0.27607
G0 Z13.5
X84.62916 Y219.5109
G1 Z-0.5 F90.
G03 X85.74491 Y219.06918 I0.55787 J-0.22086 F360.
X84.62916 Y219.5109 I-0.55788 J0.22086
G0 Z13.5
X72.1879 Y227.46431
G1 Z-0.5 F90.
G03 X71.33938 Y226.61578 I-0.42426 J-0.42427 F360.
X72.1879 Y227.46431 I0.42426 J0.42426
G0 Z13.5
X72.32151 Y242.7609
G1 Z-0.5 F90.
G03 X71.20577 Y242.31918 I-0.55787 J-0.22086 F360.
X72.32151 Y242.7609 I0.55787 J0.22086
G0 Z13.5
X85.74491 Y250.5109
G1 Z-0.5 F90.
G03 X84.62916 Y250.06918 I-0.55788 J-0.22086 F360.
X85.74491 Y250.5109 I0.55787 J0.22086
G0 Z13.5
X99.1683 Y242.7609
G1 Z-0.5 F90.
G03 X98.05255 Y242.31918 I-0.55787 J-0.22086 F360.
X99.1683 Y242.7609 I0.55788 J0.22086
G0 Z13.5
X109.29331 Y255.58548
G1 Z-0.5 F90.
X109.53155 Y255.54004 F360.
X114.93703
G03 Y256.04004 I0. J0.25
G1 X109.43703
G03 X109.29331 Y255.58548 I0. J-0.25
G0 Z13.5
X98.83128 Y227.59791
G1 Z-0.5 F90.
G03 X98.38957 Y226.48217 I-0.22085 J-0.55787 F360.
X98.83128 Y227.59791 I0.22086 J0.55787
G0 Z13.5
M30
%
