%
G17 G21 G40 G90 G64 P0.1
(2 1/2 Axis Pocketing)
(SlotDrill 2mm Carbide)
T12 M06
S24000 M3
G0 Z4.
X102.94616 Y20.17471
G1 Z3.7 F318.2
Z3.1 F954.7
X102.96437 Y20.18718 Z3.09611
X103.02067 Y20.20196 Z3.08584
X103.07222 Y20.19689 Z3.07671
X103.1129 Y20.17633 Z3.06867
X103.1388 Y20.14627 Z3.06168
X103.14854 Y20.11346 Z3.05564
X103.14335 Y20.08444 Z3.05045
X103.12676 Y20.06464 Z3.04589
X103.104 Y20.05762 Z3.04169
X103.12676 Y20.06464 Z3.03749
X103.14335 Y20.08444 Z3.03294
X103.14854 Y20.11346 Z3.02774
X103.1388 Y20.14627 Z3.0217
X103.1129 Y20.17633 Z3.01471
X103.07222 Y20.19689 Z3.00667
X103.02067 Y20.20196 Z2.99754
X102.96437 Y20.18718 Z2.98727
X102.91094 Y20.15059 Z2.97586
X102.86857 Y20.09311 Z2.96326
X102.84503 Y20.01858 Z2.94948
X102.84659 Y19.93365 Z2.9345
X102.87711 Y19.84709 Z2.91832
X102.93734 Y19.76894 Z2.90092
X103.02453 Y19.70943 Z2.88231
X103.13247 Y19.67773 Z2.86247
X103.25188 Y19.68084 Z2.84141
X103.37121 Y19.72255 Z2.81912
X103.47778 Y19.80278 Z2.7956
X103.55904 Y19.91726 Z2.77085
X103.47778 Y19.80278 Z2.74609
X103.37121 Y19.72255 Z2.72257
X103.25188 Y19.68084 Z2.70028
X103.13247 Y19.67773 Z2.67922
X103.02453 Y19.70943 Z2.65938
X102.93734 Y19.76894 Z2.64077
X102.87711 Y19.84709 Z2.62337
X102.84659 Y19.93365 Z2.60719
X102.84503 Y20.01858 Z2.59221
X102.86857 Y20.09311 Z2.57843
X102.91094 Y20.15059 Z2.56583
X102.96437 Y20.18718 Z2.55442
X103.02067 Y20.20196 Z2.54415
X103.07222 Y20.19689 Z2.53502
X103.1129 Y20.17633 Z2.52698
X103.1388 Y20.14627 Z2.51999
X103.14854 Y20.11346 Z2.51395
X103.14335 Y20.08444 Z2.50875
X103.12676 Y20.06464 Z2.5042
X103.104 Y20.05762 Z2.5
G17
G03 X103.1129 Y20.17633 I-0.01252 J0.06063 F1273.
X102.84503 Y20.01858 I-0.08632 J-0.15973
X103.25188 Y19.68084 I0.32585 J-0.02139
X103.42519 Y20.53831 I-0.12741 J0.472
X102.38374 Y20.20089 I-0.41117 J-0.50684
X103.27776 Y19.18411 I0.78042 J-0.21524
X103.81774 Y20.85031 I-0.14323 J0.96701
X101.95549 Y20.47564 I-0.80594 J-0.80954
X103.15209 Y18.68068 I1.19928 J-0.49684
X104.30744 Y21.04167 I-0.00761 J1.46691
X101.52135 Y20.72646 I-1.29848 J-0.99346
X103.26504 Y18.1827 I1.63565 J-0.74831
X104.67865 Y21.3789 I-0.12184 J1.96459
X101.109 Y21.01836 I-1.66872 J-1.32983
X103.04484 Y17.68534 I2.04168 J-1.04287
X105.17961 Y21.53775 I0.10519 J2.45939
X100.59841 Y21.11175 I-2.17203 J-1.48818
X103.54937 Y17.20485 I2.56323 J-1.13185
X105.37408 Y22.1072 I-0.41304 J2.94451
X100.00746 Y20.96685 I-2.36484 J-2.06894
X103.99413 Y16.78024 I3.16272 J-0.97977
X105.33075 Y22.84987 I-0.86961 J3.37349
X99.40766 Y20.61475 I-2.31699 J-2.82563
X104.53057 Y16.42278 I3.77043 J-0.61853
X105.34749 Y23.46382 I-1.41563 J3.73215
X98.85946 Y20.20751 I-2.33012 J-3.44904
X105.26672 Y16.20777 I4.32624 J-0.20154
X105.35221 Y24.05269 I-2.16115 J3.94647
X98.35397 Y19.90048 I-2.33156 J-4.04394
X105.79556 Y15.93788 I4.83509 J0.11129
X105.27122 Y24.66319 I-2.69666 J4.21635
X97.88548 Y19.39837 I-2.24647 J-4.66149
X106.56522 Y15.87373 I5.30822 J0.62233
X104.8345 Y25.38353 I-3.47785 J4.27945
X97.54056 Y18.52221 I-1.80169 J-5.39228
X107.5794 Y16.14758 I5.65807 J1.51259
X104.242 Y26.0608 I-4.50437 J4.00195
X97.25986 Y17.75933 I-1.20143 J-6.07649
X108.06756 Y15.94659 I5.93864 J2.28208
X104.01247 Y26.60897 I-4.99636 J4.20209
X96.82172 Y17.50598 I-0.96838 J-6.62664
X108.58645 Y15.79046 I6.37745 J2.53742
X104.04827 Y27.10908 I-5.5175 J4.35686
X96.47103 Y17.04782 I-1.00281 J-7.12864
X109.31502 Y15.93738 I6.72946 J3.00113
X103.30028 Y27.67804 I-6.25443 J4.20687
X96.5267 Y15.87403 I-0.24509 J-7.70483
X110.4045 Y16.86712 I6.67458 J4.19023
X102.09248 Y28.12941 I-7.35638 J3.26915
X96.48654 Y15.04508 I0.97337 J-8.16013
X110.9073 Y16.76825 I6.71304 J5.02368
X111.58947 Y19.63413 I-7.78412 J3.36702
G0 Z4.
X111.59344 Y19.63393
G1 Z2.5 F318.2
G03 X94.61457 Y20.48131 I-8.48944 J0.42369 F1273.
X111.59344 Y19.63393 I8.48943 J-0.42369
G0 Z4.
X103.104 Y20.05762
G1 Z2. F318.2
G03 X103.1129 Y20.17633 I-0.01252 J0.06063 F1273.
X102.84503 Y20.01858 I-0.08632 J-0.15973
X103.25188 Y19.68084 I0.32585 J-0.02139
X103.42519 Y20.53831 I-0.12741 J0.472
X102.38374 Y20.20089 I-0.41117 J-0.50684
X103.27776 Y19.18411 I0.78042 J-0.21524
X103.81774 Y20.85031 I-0.14323 J0.96701
X101.95549 Y20.47564 I-0.80594 J-0.80954
X103.15209 Y18.68068 I1.19928 J-0.49684
X104.30744 Y21.04167 I-0.00761 J1.46691
X101.52135 Y20.72646 I-1.29848 J-0.99346
X103.26504 Y18.1827 I1.63565 J-0.74831
X104.67865 Y21.3789 I-0.12184 J1.96459
X101.109 Y21.01836 I-1.66872 J-1.32983
X103.04484 Y17.68534 I2.04168 J-1.04287
X105.17961 Y21.53775 I0.10519 J2.45939
X100.59841 Y21.11175 I-2.17203 J-1.48818
X103.54937 Y17.20485 I2.56323 J-1.13185
X105.37408 Y22.1072 I-0.41304 J2.94451
X100.00746 Y20.96685 I-2.36484 J-2.06894
X103.99413 Y16.78024 I3.16272 J-0.97977
X105.33075 Y22.84987 I-0.86961 J3.37349
X99.40766 Y20.61475 I-2.31699 J-2.82563
X104.53057 Y16.42278 I3.77043 J-0.61853
X105.34749 Y23.46382 I-1.41563 J3.73215
X98.85946 Y20.20751 I-2.33012 J-3.44904
X105.26672 Y16.20777 I4.32624 J-0.20154
X105.35221 Y24.05269 I-2.16115 J3.94647
X98.35397 Y19.90048 I-2.33156 J-4.04394
X105.79556 Y15.93788 I4.83509 J0.11129
X105.27122 Y24.66319 I-2.69666 J4.21635
X97.88548 Y19.39837 I-2.24647 J-4.66149
X106.56522 Y15.87373 I5.30822 J0.62233
X104.8345 Y25.38353 I-3.47785 J4.27945
X97.54056 Y18.52221 I-1.80169 J-5.39228
X107.5794 Y16.14758 I5.65807 J1.51259
X104.242 Y26.0608 I-4.50437 J4.00195
X97.25986 Y17.75933 I-1.20143 J-6.07649
X108.06756 Y15.94659 I5.93864 J2.28208
X104.01247 Y26.60897 I-4.99636 J4.20209
X96.82172 Y17.50598 I-0.96838 J-6.62664
X108.58645 Y15.79046 I6.37745 J2.53742
X104.04827 Y27.10908 I-5.5175 J4.35686
X96.47103 Y17.04782 I-1.00281 J-7.12864
X109.31502 Y15.93738 I6.72946 J3.00113
X103.30028 Y27.67804 I-6.25443 J4.20687
X96.5267 Y15.87403 I-0.24509 J-7.70483
X110.4045 Y16.86712 I6.67458 J4.19023
X102.09248 Y28.12941 I-7.35638 J3.26915
X96.48654 Y15.04508 I0.97337 J-8.16013
X110.9073 Y16.76825 I6.71304 J5.02368
X111.58947 Y19.63413 I-7.78412 J3.36702
G0 Z4.
X111.59344 Y19.63393
G1 Z2. F318.2
G03 X94.61457 Y20.48131 I-8.48944 J0.42369 F1273.
X111.59344 Y19.63393 I8.48943 J-0.42369
G1 X110.58175 Y19.95249 Z3.06066 F1909.5
Z3.66066
G0 Z4.
X60.93032 Y122.46411
G1 Z3.7 F318.2
Z3.1 F954.7
X60.94853 Y122.47658 Z3.09611
X61.00483 Y122.49136 Z3.08584
X61.05637 Y122.48629 Z3.07671
X61.09706 Y122.46573 Z3.06867
X61.12296 Y122.43567 Z3.06168
X61.1327 Y122.40287 Z3.05564
X61.12751 Y122.37384 Z3.05045
X61.11092 Y122.35404 Z3.04589
X61.08816 Y122.34702 Z3.04169
X61.11092 Y122.35404 Z3.03749
X61.12751 Y122.37384 Z3.03294
X61.1327 Y122.40287 Z3.02774
X61.12296 Y122.43567 Z3.0217
X61.09706 Y122.46573 Z3.01471
X61.05637 Y122.48629 Z3.00667
X61.00483 Y122.49136 Z2.99754
X60.94853 Y122.47658 Z2.98727
X60.8951 Y122.43999 Z2.97586
X60.85273 Y122.38251 Z2.96326
X60.82918 Y122.30798 Z2.94948
X60.83074 Y122.22305 Z2.9345
X60.86127 Y122.13649 Z2.91832
X60.9215 Y122.05834 Z2.90092
X61.00869 Y121.99883 Z2.88231
X61.11663 Y121.96713 Z2.86247
X61.23604 Y121.97024 Z2.84141
X61.35537 Y122.01195 Z2.81912
X61.46194 Y122.09218 Z2.7956
X61.5432 Y122.20666 Z2.77085
X61.46194 Y122.09218 Z2.74609
X61.35537 Y122.01195 Z2.72257
X61.23604 Y121.97024 Z2.70028
X61.11663 Y121.96713 Z2.67922
X61.00869 Y121.99883 Z2.65938
X60.9215 Y122.05834 Z2.64077
X60.86127 Y122.13649 Z2.62337
X60.83074 Y122.22305 Z2.60719
X60.82918 Y122.30798 Z2.59221
X60.85273 Y122.38251 Z2.57843
X60.8951 Y122.43999 Z2.56583
X60.94853 Y122.47658 Z2.55442
X61.00483 Y122.49136 Z2.54415
X61.05637 Y122.48629 Z2.53502
X61.09706 Y122.46573 Z2.52698
X61.12296 Y122.43567 Z2.51999
X61.1327 Y122.40287 Z2.51395
X61.12751 Y122.37384 Z2.50875
X61.11092 Y122.35404 Z2.5042
X61.08816 Y122.34702 Z2.5
G03 X61.09706 Y122.46573 I-0.01252 J0.06063 F1273.
X60.82918 Y122.30798 I-0.08632 J-0.15973
X61.23604 Y121.97024 I0.32586 J-0.02138
X61.40935 Y122.82771 I-0.12741 J0.472
X60.3679 Y122.49029 I-0.41117 J-0.50684
X61.26191 Y121.47351 I0.78041 J-0.21524
X61.8019 Y123.13971 I-0.14322 J0.96701
X59.93965 Y122.76505 I-0.80594 J-0.80954
X61.13625 Y120.97008 I1.19928 J-0.49685
X62.2916 Y123.33107 I-0.00762 J1.46691
X59.5055 Y123.01586 I-1.29848 J-0.99345
X61.2492 Y120.4721 I1.63566 J-0.74831
X62.66281 Y123.66831 I-0.12184 J1.9646
X59.09316 Y123.30776 I-1.66872 J-1.32983
X61.029 Y119.97474 I2.04168 J-1.04286
X63.16377 Y123.82715 I0.10518 J2.4594
X58.58256 Y123.40115 I-2.17203 J-1.48818
X61.53353 Y119.49425 I2.56323 J-1.13185
X63.35824 Y124.39661 I-0.41304 J2.94451
X57.99162 Y123.25625 I-2.36484 J-2.06895
X61.97829 Y119.06964 I3.16271 J-0.97977
X63.31491 Y125.13927 I-0.86961 J3.37349
X57.39182 Y122.90415 I-2.31699 J-2.82563
X62.51473 Y118.71218 I3.77042 J-0.61853
X63.33165 Y125.75322 I-1.41563 J3.73215
X56.84362 Y122.49691 I-2.33013 J-3.44904
X63.25088 Y118.49717 I4.32624 J-0.20154
X63.33637 Y126.34209 I-2.16115 J3.94648
X56.33813 Y122.18988 I-2.33157 J-4.04394
X63.77972 Y118.22728 I4.83509 J0.11129
X63.25538 Y126.95259 I-2.69666 J4.21635
X55.86964 Y121.68777 I-2.24647 J-4.66149
X64.54937 Y118.16313 I5.30822 J0.62233
X62.81866 Y127.67294 I-3.47784 J4.27945
X55.52472 Y120.81161 I-1.80169 J-5.39229
X65.56356 Y118.43698 I5.65807 J1.51259
X62.22616 Y128.3502 I-4.50437 J4.00195
X55.24402 Y120.04873 I-1.20143 J-6.07649
X66.05172 Y118.23599 I5.93864 J2.28208
X61.99662 Y128.89837 I-4.99636 J4.2021
X54.80588 Y119.79538 I-0.96837 J-6.62664
X66.57061 Y118.07986 I6.37745 J2.53742
X62.03243 Y129.39848 I-5.5175 J4.35686
X54.45519 Y119.33722 I-1.00282 J-7.12864
X67.29918 Y118.22679 I6.72946 J3.00113
X61.28444 Y129.96744 I-6.25443 J4.20686
X54.51086 Y118.16343 I-0.24509 J-7.70483
X68.38865 Y119.15652 I6.67458 J4.19023
X60.07664 Y130.41881 I-7.35637 J3.26915
X54.4707 Y117.33448 I0.97337 J-8.16013
X68.89146 Y119.05765 I6.71304 J5.02368
X69.57363 Y121.92353 I-7.78412 J3.36702
G0 Z4.
X69.5776 Y121.92333
G1 Z2.5 F318.2
G03 X52.59873 Y122.77071 I-8.48944 J0.42369 F1273.
X69.5776 Y121.92333 I8.48943 J-0.42369
G0 Z4.
X61.08816 Y122.34702
G1 Z2. F318.2
G03 X61.09706 Y122.46573 I-0.01252 J0.06063 F1273.
X60.82918 Y122.30798 I-0.08632 J-0.15973
X61.23604 Y121.97024 I0.32586 J-0.02138
X61.40935 Y122.82771 I-0.12741 J0.472
X60.3679 Y122.49029 I-0.41117 J-0.50684
X61.26191 Y121.47351 I0.78041 J-0.21524
X61.8019 Y123.13971 I-0.14322 J0.96701
X59.93965 Y122.76505 I-0.80594 J-0.80954
X61.13625 Y120.97008 I1.19928 J-0.49685
X62.2916 Y123.33107 I-0.00762 J1.46691
X59.5055 Y123.01586 I-1.29848 J-0.99345
X61.2492 Y120.4721 I1.63566 J-0.74831
X62.66281 Y123.66831 I-0.12184 J1.9646
X59.09316 Y123.30776 I-1.66872 J-1.32983
X61.029 Y119.97474 I2.04168 J-1.04286
X63.16377 Y123.82715 I0.10518 J2.4594
X58.58256 Y123.40115 I-2.17203 J-1.48818
X61.53353 Y119.49425 I2.56323 J-1.13185
X63.35824 Y124.39661 I-0.41304 J2.94451
X57.99162 Y123.25625 I-2.36484 J-2.06895
X61.97829 Y119.06964 I3.16271 J-0.97977
X63.31491 Y125.13927 I-0.86961 J3.37349
X57.39182 Y122.90415 I-2.31699 J-2.82563
X62.51473 Y118.71218 I3.77042 J-0.61853
X63.33165 Y125.75322 I-1.41563 J3.73215
X56.84362 Y122.49691 I-2.33013 J-3.44904
X63.25088 Y118.49717 I4.32624 J-0.20154
X63.33637 Y126.34209 I-2.16115 J3.94648
X56.33813 Y122.18988 I-2.33157 J-4.04394
X63.77972 Y118.22728 I4.83509 J0.11129
X63.25538 Y126.95259 I-2.69666 J4.21635
X55.86964 Y121.68777 I-2.24647 J-4.66149
X64.54937 Y118.16313 I5.30822 J0.62233
X62.81866 Y127.67294 I-3.47784 J4.27945
X55.52472 Y120.81161 I-1.80169 J-5.39229
X65.56356 Y118.43698 I5.65807 J1.51259
X62.22616 Y128.3502 I-4.50437 J4.00195
X55.24402 Y120.04873 I-1.20143 J-6.07649
X66.05172 Y118.23599 I5.93864 J2.28208
X61.99662 Y128.89837 I-4.99636 J4.2021
X54.80588 Y119.79538 I-0.96837 J-6.62664
X66.57061 Y118.07986 I6.37745 J2.53742
X62.03243 Y129.39848 I-5.5175 J4.35686
X54.45519 Y119.33722 I-1.00282 J-7.12864
X67.29918 Y118.22679 I6.72946 J3.00113
X61.28444 Y129.96744 I-6.25443 J4.20686
X54.51086 Y118.16343 I-0.24509 J-7.70483
X68.38865 Y119.15652 I6.67458 J4.19023
X60.07664 Y130.41881 I-7.35637 J3.26915
X54.4707 Y117.33448 I0.97337 J-8.16013
X68.89146 Y119.05765 I6.71304 J5.02368
X69.57363 Y121.92353 I-7.78412 J3.36702
G0 Z4.
X69.5776 Y121.92333
G1 Z2. F318.2
G03 X52.59873 Y122.77071 I-8.48944 J0.42369 F1273.
X69.5776 Y121.92333 I8.48943 J-0.42369
G1 X69.52362 Y122.98262 Z3.06066 F1909.5
Z3.66066
G0 Z4.
(2 1/2 Axis Profiling - Rough)
(SlotDrill 2mm Carbide)
X18.76624 Y14.09607
G1 Z2.5 F318.2
G03 X15.23305 Y12.69731 I-1.76659 J-0.69938 F1273.
X18.76624 Y14.09607 I1.7666 J0.69938
G1 Z2.
G03 X15.23305 Y12.69731 I-1.76659 J-0.69938
X18.76624 Y14.09607 I1.7666 J0.69938
G1 Z1.5
G03 X15.23305 Y12.69731 I-1.76659 J-0.69938
X18.76624 Y14.09607 I1.7666 J0.69938
G1 Z1.
G03 X15.23305 Y12.69731 I-1.76659 J-0.69938
X18.76624 Y14.09607 I1.7666 J0.69938
G1 Z0.5
G03 X15.23305 Y12.69731 I-1.76659 J-0.69938
X18.76624 Y14.09607 I1.7666 J0.69938
G1 Z0.
G03 X15.23305 Y12.69731 I-1.76659 J-0.69938
X18.76624 Y14.09607 I1.7666 J0.69938
G1 Z-0.5
G03 X15.23305 Y12.69731 I-1.76659 J-0.69938
X18.76624 Y14.09607 I1.7666 J0.69938
G0 Z4.
X50.80532 Y6.62986
G1 Z2.5 F318.2
G03 X51.371 Y6.06417 I0.28284 J-0.28284 F1273.
X50.80532 Y6.62986 I-0.28284 J0.28285
G1 Z2.
G03 X51.371 Y6.06417 I0.28284 J-0.28284
X50.80532 Y6.62986 I-0.28284 J0.28285
G1 Z1.5
G03 X51.371 Y6.06417 I0.28284 J-0.28284
X50.80532 Y6.62986 I-0.28284 J0.28285
G1 Z1.
G03 X51.371 Y6.06417 I0.28284 J-0.28284
X50.80532 Y6.62986 I-0.28284 J0.28285
G1 Z0.5
G03 X51.371 Y6.06417 I0.28284 J-0.28284
X50.80532 Y6.62986 I-0.28284 J0.28285
G1 Z0.
G03 X51.371 Y6.06417 I0.28284 J-0.28284
X50.80532 Y6.62986 I-0.28284 J0.28285
G1 Z-0.5
G03 X51.371 Y6.06417 I0.28284 J-0.28284
X50.80532 Y6.62986 I-0.28284 J0.28285
G0 Z4.
X70.80532
G1 Z2.5 F318.2
G03 X71.371 Y6.06417 I0.28284 J-0.28284 F1273.
X70.80532 Y6.62986 I-0.28284 J0.28285
G1 Z2.
G03 X71.371 Y6.06417 I0.28284 J-0.28284
X70.80532 Y6.62986 I-0.28284 J0.28285
G1 Z1.5
G03 X71.371 Y6.06417 I0.28284 J-0.28284
X70.80532 Y6.62986 I-0.28284 J0.28285
G1 Z1.
G03 X71.371 Y6.06417 I0.28284 J-0.28284
X70.80532 Y6.62986 I-0.28284 J0.28285
G1 Z0.5
G03 X71.371 Y6.06417 I0.28284 J-0.28284
X70.80532 Y6.62986 I-0.28284 J0.28285
G1 Z0.
G03 X71.371 Y6.06417 I0.28284 J-0.28284
X70.80532 Y6.62986 I-0.28284 J0.28285
G1 Z-0.5
G03 X71.371 Y6.06417 I0.28284 J-0.28284
X70.80532 Y6.62986 I-0.28284 J0.28285
G0 Z4.
X97.52095 Y20.09495
G1 Z2.5 F318.2
G03 X97.60098 Y20.21803 I0.15025 J-0.01014 F1273.
G1 X97.52095 Y20.09495
Z2.
G03 X97.60098 Y20.21803 I0.15025 J-0.01014
G1 X97.52095 Y20.09495
Z1.5
G03 X97.60098 Y20.21803 I0.15025 J-0.01014
G1 X97.52095 Y20.09495
Z1.
G03 X97.60098 Y20.21803 I0.15025 J-0.01014
G1 X97.52095 Y20.09495
Z0.5
G03 X97.60098 Y20.21803 I0.15025 J-0.01014
G1 X97.52095 Y20.09495
Z0.
G03 X97.60098 Y20.21803 I0.15025 J-0.01014
G1 X97.52095 Y20.09495
Z-0.5
G03 X97.60098 Y20.21803 I0.15025 J-0.01014
G1 X97.52095 Y20.09495
G0 Z4.
X103.54071 Y22.41755
G1 Z2.5 F318.2
G03 X102.6673 Y17.69768 I-0.4367 J-2.35993 F1273.
X103.54071 Y22.41755 I0.43671 J2.35994
G1 Z2.
G03 X102.6673 Y17.69768 I-0.4367 J-2.35993
X103.54071 Y22.41755 I0.43671 J2.35994
G1 Z1.5
G03 X102.6673 Y17.69768 I-0.4367 J-2.35993
X103.54071 Y22.41755 I0.43671 J2.35994
G1 Z1.
G03 X102.6673 Y17.69768 I-0.4367 J-2.35993
X103.54071 Y22.41755 I0.43671 J2.35994
G1 Z0.5
G03 X102.6673 Y17.69768 I-0.4367 J-2.35993
X103.54071 Y22.41755 I0.43671 J2.35994
G1 Z0.
G03 X102.6673 Y17.69768 I-0.4367 J-2.35993
X103.54071 Y22.41755 I0.43671 J2.35994
G1 Z-0.5
G03 X102.6673 Y17.69768 I-0.4367 J-2.35993
X103.54071 Y22.41755 I0.43671 J2.35994
G0 Z4.
X108.68704 Y20.02028
G1 Z2.5 F318.2
G03 X108.60701 Y19.89719 I-0.15025 J0.01013 F1273.
G1 X108.68704 Y20.02028
Z2.
G03 X108.60701 Y19.89719 I-0.15025 J0.01013
G1 X108.68704 Y20.02028
Z1.5
G03 X108.60701 Y19.89719 I-0.15025 J0.01013
G1 X108.68704 Y20.02028
Z1.
G03 X108.60701 Y19.89719 I-0.15025 J0.01013
G1 X108.68704 Y20.02028
Z0.5
G03 X108.60701 Y19.89719 I-0.15025 J0.01013
G1 X108.68704 Y20.02028
Z0.
G03 X108.60701 Y19.89719 I-0.15025 J0.01013
G1 X108.68704 Y20.02028
Z-0.5
G03 X108.60701 Y19.89719 I-0.15025 J0.01013
G1 X108.68704 Y20.02028
G0 Z4.
X114.97228 Y40.40335
G1 Z2.5 F318.2
G03 X111.23572 Y39.71189 I-1.86828 J-0.34573 F1273.
X114.97228 Y40.40335 I1.86828 J0.34573
G1 Z2.
G03 X111.23572 Y39.71189 I-1.86828 J-0.34573
X114.97228 Y40.40335 I1.86828 J0.34573
G1 Z1.5
G03 X111.23572 Y39.71189 I-1.86828 J-0.34573
X114.97228 Y40.40335 I1.86828 J0.34573
G1 Z1.
G03 X111.23572 Y39.71189 I-1.86828 J-0.34573
X114.97228 Y40.40335 I1.86828 J0.34573
G1 Z0.5
G03 X111.23572 Y39.71189 I-1.86828 J-0.34573
X114.97228 Y40.40335 I1.86828 J0.34573
G1 Z0.
G03 X111.23572 Y39.71189 I-1.86828 J-0.34573
X114.97228 Y40.40335 I1.86828 J0.34573
G1 Z-0.5
G03 X111.23572 Y39.71189 I-1.86828 J-0.34573
X114.97228 Y40.40335 I1.86828 J0.34573
G0 Z4.
X110.53448 Y55.48638
G1 Z2.5 F318.2
G03 X110.53368 Y55.50008 I-1.79577 J-0.09736 F1273.
G1 X109.42318 Y82.12913
G03 X107.51685 Y83.95762 I-1.93676 J-0.11122
G1 X98.68349
G03 X96.78515 Y82.13679 I0. J-1.89999
G1 X95.67432 Y55.50008
G03 X97.04201 Y53.59653 I1.89834 J-0.07917
G1 X97.0496 Y53.59429
G02 X102.24153 Y50.85465 I-4.32863 J-14.49267
G03 X103.97046 Y50.85668 I0.86247 J1.69297
G02 X109.41252 Y53.72161 I10.26472 J-12.89709
G03 X110.53448 Y55.48638 I-0.67381 J1.66741
G1 Z2.
G03 X110.53368 Y55.50008 I-1.79577 J-0.09736
G1 X109.42318 Y82.12913
G03 X107.51685 Y83.95762 I-1.93676 J-0.11122
G1 X98.68349
G03 X96.78515 Y82.13679 I0. J-1.89999
G1 X95.67432 Y55.50008
G03 X97.04201 Y53.59653 I1.89834 J-0.07917
G1 X97.0496 Y53.59429
G02 X102.24153 Y50.85465 I-4.32863 J-14.49267
G03 X103.97046 Y50.85668 I0.86247 J1.69297
G02 X109.41252 Y53.72161 I10.26472 J-12.89709
G03 X110.53448 Y55.48638 I-0.67381 J1.66741
G1 Z1.5
G03 X110.53368 Y55.50008 I-1.79577 J-0.09736
G1 X109.42318 Y82.12913
G03 X107.51685 Y83.95762 I-1.93676 J-0.11122
G1 X98.68349
G03 X96.78515 Y82.13679 I0. J-1.89999
G1 X95.67432 Y55.50008
G03 X97.04201 Y53.59653 I1.89834 J-0.07917
G1 X97.0496 Y53.59429
G02 X102.24153 Y50.85465 I-4.32863 J-14.49267
G03 X103.97046 Y50.85668 I0.86247 J1.69297
G02 X109.41252 Y53.72161 I10.26472 J-12.89709
G03 X110.53448 Y55.48638 I-0.67381 J1.66741
G1 Z1.
G03 X110.53368 Y55.50008 I-1.79577 J-0.09736
G1 X109.42318 Y82.12913
G03 X107.51685 Y83.95762 I-1.93676 J-0.11122
G1 X98.68349
G03 X96.78515 Y82.13679 I0. J-1.89999
G1 X95.67432 Y55.50008
G03 X97.04201 Y53.59653 I1.89834 J-0.07917
G1 X97.0496 Y53.59429
G02 X102.24153 Y50.85465 I-4.32863 J-14.49267
G03 X103.97046 Y50.85668 I0.86247 J1.69297
G02 X109.41252 Y53.72161 I10.26472 J-12.89709
G03 X110.53448 Y55.48638 I-0.67381 J1.66741
G1 Z0.5
G03 X110.53368 Y55.50008 I-1.79577 J-0.09736
G1 X109.42318 Y82.12913
G03 X107.51685 Y83.95762 I-1.93676 J-0.11122
G1 X98.68349
G03 X96.78515 Y82.13679 I0. J-1.89999
G1 X95.67432 Y55.50008
G03 X97.04201 Y53.59653 I1.89834 J-0.07917
G1 X97.0496 Y53.59429
G02 X102.24153 Y50.85465 I-4.32863 J-14.49267
G03 X103.97046 Y50.85668 I0.86247 J1.69297
G02 X109.41252 Y53.72161 I10.26472 J-12.89709
G03 X110.53448 Y55.48638 I-0.67381 J1.66741
G1 Z0.
G03 X110.53368 Y55.50008 I-1.79577 J-0.09736
G1 X109.42318 Y82.12913
G03 X107.51685 Y83.95762 I-1.93676 J-0.11122
G1 X98.68349
G03 X96.78515 Y82.13679 I0. J-1.89999
G1 X95.67432 Y55.50008
G03 X97.04201 Y53.59653 I1.89834 J-0.07917
G1 X97.0496 Y53.59429
G02 X102.24153 Y50.85465 I-4.32863 J-14.49267
G03 X103.97046 Y50.85668 I0.86247 J1.69297
G02 X109.41252 Y53.72161 I10.26472 J-12.89709
G03 X110.53448 Y55.48638 I-0.67381 J1.66741
G1 Z-0.5
G03 X110.53368 Y55.50008 I-1.79577 J-0.09736
G1 X109.42318 Y82.12913
G03 X107.51685 Y83.95762 I-1.93676 J-0.11122
G1 X98.68349
G03 X96.78515 Y82.13679 I0. J-1.89999
G1 X95.67432 Y55.50008
G03 X97.04201 Y53.59653 I1.89834 J-0.07917
G1 X97.0496 Y53.59429
G02 X102.24153 Y50.85465 I-4.32863 J-14.49267
G03 X103.97046 Y50.85668 I0.86247 J1.69297
G02 X109.41252 Y53.72161 I10.26472 J-12.89709
G03 X110.53448 Y55.48638 I-0.67381 J1.66741
G0 Z4.
X91.3374 Y40.757
G1 Z2.5 F318.2
G03 X94.87059 Y39.35824 I1.7666 J-0.69938 F1273.
X91.3374 Y40.757 I-1.76659 J0.69938
G1 Z2.
G03 X94.87059 Y39.35824 I1.7666 J-0.69938
X91.3374 Y40.757 I-1.76659 J0.69938
G1 Z1.5
G03 X94.87059 Y39.35824 I1.7666 J-0.69938
X91.3374 Y40.757 I-1.76659 J0.69938
G1 Z1.
G03 X94.87059 Y39.35824 I1.7666 J-0.69938
X91.3374 Y40.757 I-1.76659 J0.69938
G1 Z0.5
G03 X94.87059 Y39.35824 I1.7666 J-0.69938
X91.3374 Y40.757 I-1.76659 J0.69938
G1 Z0.
G03 X94.87059 Y39.35824 I1.7666 J-0.69938
X91.3374 Y40.757 I-1.76659 J0.69938
G1 Z-0.5
G03 X94.87059 Y39.35824 I1.7666 J-0.69938
X91.3374 Y40.757 I-1.76659 J0.69938
G0 Z4.
X55.43655 Y44.26786
G1 Z2.5 F318.2
X56.32052 Y23.07091 F1273.
G03 X58.47848 Y21.26789 I1.89835 J0.07916
G1 X58.49014 Y21.26944
G02 X64.18584 Y21.26385 I2.82603 J-22.24423
G03 X65.8558 Y23.07091 I-0.22839 J1.88622
G1 X65.85579 Y23.07078
X66.74131 Y44.36728
G03 X64.84142 Y46.24702 I-1.89989 J-0.02026
G1 X57.3349
G03 X55.43655 Y44.26786 I0.00001 J-1.90002
G1 Z2.
X56.32052 Y23.07091
G03 X58.47848 Y21.26789 I1.89835 J0.07916
G1 X58.49014 Y21.26944
G02 X64.18584 Y21.26385 I2.82603 J-22.24423
G03 X65.8558 Y23.07091 I-0.22839 J1.88622
G1 X65.85579 Y23.07078
X66.74131 Y44.36728
G03 X64.84142 Y46.24702 I-1.89989 J-0.02026
G1 X57.3349
G03 X55.43655 Y44.26786 I0.00001 J-1.90002
G1 Z1.5
X56.32052 Y23.07091
G03 X58.47848 Y21.26789 I1.89835 J0.07916
G1 X58.49014 Y21.26944
G02 X64.18584 Y21.26385 I2.82603 J-22.24423
G03 X65.8558 Y23.07091 I-0.22839 J1.88622
G1 X65.85579 Y23.07078
X66.74131 Y44.36728
G03 X64.84142 Y46.24702 I-1.89989 J-0.02026
G1 X57.3349
G03 X55.43655 Y44.26786 I0.00001 J-1.90002
G1 Z1.
X56.32052 Y23.07091
G03 X58.47848 Y21.26789 I1.89835 J0.07916
G1 X58.49014 Y21.26944
G02 X64.18584 Y21.26385 I2.82603 J-22.24423
G03 X65.8558 Y23.07091 I-0.22839 J1.88622
G1 X65.85579 Y23.07078
X66.74131 Y44.36728
G03 X64.84142 Y46.24702 I-1.89989 J-0.02026
G1 X57.3349
G03 X55.43655 Y44.26786 I0.00001 J-1.90002
G1 Z0.5
X56.32052 Y23.07091
G03 X58.47848 Y21.26789 I1.89835 J0.07916
G1 X58.49014 Y21.26944
G02 X64.18584 Y21.26385 I2.82603 J-22.24423
G03 X65.8558 Y23.07091 I-0.22839 J1.88622
G1 X65.85579 Y23.07078
X66.74131 Y44.36728
G03 X64.84142 Y46.24702 I-1.89989 J-0.02026
G1 X57.3349
G03 X55.43655 Y44.26786 I0.00001 J-1.90002
G1 Z0.
X56.32052 Y23.07091
G03 X58.47848 Y21.26789 I1.89835 J0.07916
G1 X58.49014 Y21.26944
G02 X64.18584 Y21.26385 I2.82603 J-22.24423
G03 X65.8558 Y23.07091 I-0.22839 J1.88622
G1 X65.85579 Y23.07078
X66.74131 Y44.36728
G03 X64.84142 Y46.24702 I-1.89989 J-0.02026
G1 X57.3349
G03 X55.43655 Y44.26786 I0.00001 J-1.90002
G1 Z-0.5
X56.32052 Y23.07091
G03 X58.47848 Y21.26789 I1.89835 J0.07916
G1 X58.49014 Y21.26944
G02 X64.18584 Y21.26385 I2.82603 J-22.24423
G03 X65.8558 Y23.07091 I-0.22839 J1.88622
G1 X65.85579 Y23.07078
X66.74131 Y44.36728
G03 X64.84142 Y46.24702 I-1.89989 J-0.02026
G1 X57.3349
G03 X55.43655 Y44.26786 I0.00001 J-1.90002
G0 Z4.
X53.77941 Y87.66164
G1 Z2.5 F318.2
X53.66255 Y86.80673 F1273.
X54.67829 Y62.25617
G03 X54.95011 Y59.5346 I7.649 J-0.61043
X56.66765 Y58.44702 I1.71754 J0.81242
G1 X65.50866
G03 X67.40702 Y60.26781 I0. J1.90001
G1 X68.51938 Y87.00399
G03 X67.15014 Y88.80811 I-1.89989 J-0.02027
G1 X67.14255 Y88.81035
G02 X61.94884 Y91.55145 I4.32865 J14.49268
G03 X60.08783 Y91.45654 I-0.84881 J-1.64937
G02 X54.77057 Y88.68019 I-10.00691 J12.68523
G03 X53.77941 Y87.66164 I0.61114 J-1.58622
G1 Z2.
X53.66255 Y86.80673
X54.67829 Y62.25617
G03 X54.95011 Y59.5346 I7.649 J-0.61043
X56.66765 Y58.44702 I1.71754 J0.81242
G1 X65.50866
G03 X67.40702 Y60.26781 I0. J1.90001
G1 X68.51938 Y87.00399
G03 X67.15014 Y88.80811 I-1.89989 J-0.02027
G1 X67.14255 Y88.81035
G02 X61.94884 Y91.55145 I4.32865 J14.49268
G03 X60.08783 Y91.45654 I-0.84881 J-1.64937
G02 X54.77057 Y88.68019 I-10.00691 J12.68523
G03 X53.77941 Y87.66164 I0.61114 J-1.58622
G1 Z1.5
X53.66255 Y86.80673
X54.67829 Y62.25617
G03 X54.95011 Y59.5346 I7.649 J-0.61043
X56.66765 Y58.44702 I1.71754 J0.81242
G1 X65.50866
G03 X67.40702 Y60.26781 I0. J1.90001
G1 X68.51938 Y87.00399
G03 X67.15014 Y88.80811 I-1.89989 J-0.02027
G1 X67.14255 Y88.81035
G02 X61.94884 Y91.55145 I4.32865 J14.49268
G03 X60.08783 Y91.45654 I-0.84881 J-1.64937
G02 X54.77057 Y88.68019 I-10.00691 J12.68523
G03 X53.77941 Y87.66164 I0.61114 J-1.58622
G1 Z1.
X53.66255 Y86.80673
X54.67829 Y62.25617
G03 X54.95011 Y59.5346 I7.649 J-0.61043
X56.66765 Y58.44702 I1.71754 J0.81242
G1 X65.50866
G03 X67.40702 Y60.26781 I0. J1.90001
G1 X68.51938 Y87.00399
G03 X67.15014 Y88.80811 I-1.89989 J-0.02027
G1 X67.14255 Y88.81035
G02 X61.94884 Y91.55145 I4.32865 J14.49268
G03 X60.08783 Y91.45654 I-0.84881 J-1.64937
G02 X54.77057 Y88.68019 I-10.00691 J12.68523
G03 X53.77941 Y87.66164 I0.61114 J-1.58622
G1 Z0.5
X53.66255 Y86.80673
X54.67829 Y62.25617
G03 X54.95011 Y59.5346 I7.649 J-0.61043
X56.66765 Y58.44702 I1.71754 J0.81242
G1 X65.50866
G03 X67.40702 Y60.26781 I0. J1.90001
G1 X68.51938 Y87.00399
G03 X67.15014 Y88.80811 I-1.89989 J-0.02027
G1 X67.14255 Y88.81035
G02 X61.94884 Y91.55145 I4.32865 J14.49268
G03 X60.08783 Y91.45654 I-0.84881 J-1.64937
G02 X54.77057 Y88.68019 I-10.00691 J12.68523
G03 X53.77941 Y87.66164 I0.61114 J-1.58622
G1 Z0.
X53.66255 Y86.80673
X54.67829 Y62.25617
G03 X54.95011 Y59.5346 I7.649 J-0.61043
X56.66765 Y58.44702 I1.71754 J0.81242
G1 X65.50866
G03 X67.40702 Y60.26781 I0. J1.90001
G1 X68.51938 Y87.00399
G03 X67.15014 Y88.80811 I-1.89989 J-0.02027
G1 X67.14255 Y88.81035
G02 X61.94884 Y91.55145 I4.32865 J14.49268
G03 X60.08783 Y91.45654 I-0.84881 J-1.64937
G02 X54.77057 Y88.68019 I-10.00691 J12.68523
G03 X53.77941 Y87.66164 I0.61114 J-1.58622
G1 Z-0.5
X53.66255 Y86.80673
X54.67829 Y62.25617
G03 X54.95011 Y59.5346 I7.649 J-0.61043
X56.66765 Y58.44702 I1.71754 J0.81242
G1 X65.50866
G03 X67.40702 Y60.26781 I0. J1.90001
G1 X68.51938 Y87.00399
G03 X67.15014 Y88.80811 I-1.89989 J-0.02027
G1 X67.14255 Y88.81035
G02 X61.94884 Y91.55145 I4.32865 J14.49268
G03 X60.08783 Y91.45654 I-0.84881 J-1.64937
G02 X54.77057 Y88.68019 I-10.00691 J12.68523
G03 X53.77941 Y87.66164 I0.61114 J-1.58622
G0 Z4.
X49.21987 Y102.00129
G1 Z2.5 F318.2
G03 X52.95643 Y102.69274 I1.86828 J0.34572 F1273.
X49.21987 Y102.00129 I-1.86828 J-0.34573
G1 Z2.
G03 X52.95643 Y102.69274 I1.86828 J0.34572
X49.21987 Y102.00129 I-1.86828 J-0.34573
G1 Z1.5
G03 X52.95643 Y102.69274 I1.86828 J0.34572
X49.21987 Y102.00129 I-1.86828 J-0.34573
G1 Z1.
G03 X52.95643 Y102.69274 I1.86828 J0.34572
X49.21987 Y102.00129 I-1.86828 J-0.34573
G1 Z0.5
G03 X52.95643 Y102.69274 I1.86828 J0.34572
X49.21987 Y102.00129 I-1.86828 J-0.34573
G1 Z0.
G03 X52.95643 Y102.69274 I1.86828 J0.34572
X49.21987 Y102.00129 I-1.86828 J-0.34573
G1 Z-0.5
G03 X52.95643 Y102.69274 I1.86828 J0.34572
X49.21987 Y102.00129 I-1.86828 J-0.34573
G0 Z4.
X52.7126 Y114.48518
G1 Z2.5 F318.2
G03 X53.44324 Y114.18839 I0.36532 J-0.1484 F1273.
X52.7126 Y114.48518 I-0.36532 J0.14839
G1 Z2.
G03 X53.44324 Y114.18839 I0.36532 J-0.1484
X52.7126 Y114.48518 I-0.36532 J0.14839
G1 Z1.5
G03 X53.44324 Y114.18839 I0.36532 J-0.1484
X52.7126 Y114.48518 I-0.36532 J0.14839
G1 Z1.
G03 X53.44324 Y114.18839 I0.36532 J-0.1484
X52.7126 Y114.48518 I-0.36532 J0.14839
G1 Z0.5
G03 X53.44324 Y114.18839 I0.36532 J-0.1484
X52.7126 Y114.48518 I-0.36532 J0.14839
G1 Z0.
G03 X53.44324 Y114.18839 I0.36532 J-0.1484
X52.7126 Y114.48518 I-0.36532 J0.14839
G1 Z-0.5
G03 X53.44324 Y114.18839 I0.36532 J-0.1484
X52.7126 Y114.48518 I-0.36532 J0.14839
G0 Z4.
X55.18846 Y122.34983
G1 Z2.5 F318.2
G03 X66.98827 Y122.34417 I5.89991 J-0.00283 F1273.
X55.18846 Y122.34983 I-5.8999 J0.00283
G1 Z2.
G03 X66.98827 Y122.34417 I5.89991 J-0.00283
X55.18846 Y122.34983 I-5.8999 J0.00283
G1 Z1.5
G03 X66.98827 Y122.34417 I5.89991 J-0.00283
X55.18846 Y122.34983 I-5.8999 J0.00283
G1 Z1.
G03 X66.98827 Y122.34417 I5.89991 J-0.00283
X55.18846 Y122.34983 I-5.8999 J0.00283
G1 Z0.5
G03 X66.98827 Y122.34417 I5.89991 J-0.00283
X55.18846 Y122.34983 I-5.8999 J0.00283
G1 Z0.
G03 X66.98827 Y122.34417 I5.89991 J-0.00283
X55.18846 Y122.34983 I-5.8999 J0.00283
G1 Z-0.5
G03 X66.98827 Y122.34417 I5.89991 J-0.00283
X55.18846 Y122.34983 I-5.8999 J0.00283
G0 Z4.
X52.68816 Y130.34702
G1 Z2.5 F318.2
G03 X53.48815 I0.39999 J0. F1273.
X52.68816 I-0.4 J0.
G1 Z2.
G03 X53.48815 I0.39999 J0.
X52.68816 I-0.4 J0.
G1 Z1.5
G03 X53.48815 I0.39999 J0.
X52.68816 I-0.4 J0.
G1 Z1.
G03 X53.48815 I0.39999 J0.
X52.68816 I-0.4 J0.
G1 Z0.5
G03 X53.48815 I0.39999 J0.
X52.68816 I-0.4 J0.
G1 Z0.
G03 X53.48815 I0.39999 J0.
X52.68816 I-0.4 J0.
G1 Z-0.5
G03 X53.48815 I0.39999 J0.
X52.68816 I-0.4 J0.
G0 Z4.
X68.71624 Y130.19978
G1 Z2.5 F318.2
G03 X69.46006 Y130.49425 I0.37191 J0.14724 F1273.
X68.71624 Y130.19978 I-0.37191 J-0.14723
G1 Z2.
G03 X69.46006 Y130.49425 I0.37191 J0.14724
X68.71624 Y130.19978 I-0.37191 J-0.14723
G1 Z1.5
G03 X69.46006 Y130.49425 I0.37191 J0.14724
X68.71624 Y130.19978 I-0.37191 J-0.14723
G1 Z1.
G03 X69.46006 Y130.49425 I0.37191 J0.14724
X68.71624 Y130.19978 I-0.37191 J-0.14723
G1 Z0.5
G03 X69.46006 Y130.49425 I0.37191 J0.14724
X68.71624 Y130.19978 I-0.37191 J-0.14723
G1 Z0.
G03 X69.46006 Y130.49425 I0.37191 J0.14724
X68.71624 Y130.19978 I-0.37191 J-0.14723
G1 Z-0.5
G03 X69.46006 Y130.49425 I0.37191 J0.14724
X68.71624 Y130.19978 I-0.37191 J-0.14723
G0 Z4.
X68.68816 Y114.34702
G1 Z2.5 F318.2
G03 X69.48816 I0.4 J0. F1273.
X68.68816 I-0.4 J0.
G1 Z2.
G03 X69.48816 I0.4 J0.
X68.68816 I-0.4 J0.
G1 Z1.5
G03 X69.48816 I0.4 J0.
X68.68816 I-0.4 J0.
G1 Z1.
G03 X69.48816 I0.4 J0.
X68.68816 I-0.4 J0.
G1 Z0.5
G03 X69.48816 I0.4 J0.
X68.68816 I-0.4 J0.
G1 Z0.
G03 X69.48816 I0.4 J0.
X68.68816 I-0.4 J0.
G1 Z-0.5
G03 X69.48816 I0.4 J0.
X68.68816 I-0.4 J0.
G0 Z4.
X69.21987 Y102.69275
G1 Z2.5 F318.2
G03 X72.95643 Y102.0013 I1.86828 J-0.34573 F1273.
X69.21987 Y102.69275 I-1.86828 J0.34572
G1 Z2.
G03 X72.95643 Y102.0013 I1.86828 J-0.34573
X69.21987 Y102.69275 I-1.86828 J0.34572
G1 Z1.5
G03 X72.95643 Y102.0013 I1.86828 J-0.34573
X69.21987 Y102.69275 I-1.86828 J0.34572
G1 Z1.
G03 X72.95643 Y102.0013 I1.86828 J-0.34573
X69.21987 Y102.69275 I-1.86828 J0.34572
G1 Z0.5
G03 X72.95643 Y102.0013 I1.86828 J-0.34573
X69.21987 Y102.69275 I-1.86828 J0.34572
G1 Z0.
G03 X72.95643 Y102.0013 I1.86828 J-0.34573
X69.21987 Y102.69275 I-1.86828 J0.34572
G1 Z-0.5
G03 X72.95643 Y102.0013 I1.86828 J-0.34573
X69.21987 Y102.69275 I-1.86828 J0.34572
G0 Z4.
X92.73208 Y135.91038
G1 Z2.5 F318.2
G03 X93.47591 Y136.20485 I0.37192 J0.14723 F1273.
X92.73208 Y135.91038 I-0.37191 J-0.14724
G1 Z2.
G03 X93.47591 Y136.20485 I0.37192 J0.14723
X92.73208 Y135.91038 I-0.37191 J-0.14724
G1 Z1.5
G03 X93.47591 Y136.20485 I0.37192 J0.14723
X92.73208 Y135.91038 I-0.37191 J-0.14724
G1 Z1.
G03 X93.47591 Y136.20485 I0.37192 J0.14723
X92.73208 Y135.91038 I-0.37191 J-0.14724
G1 Z0.5
G03 X93.47591 Y136.20485 I0.37192 J0.14723
X92.73208 Y135.91038 I-0.37191 J-0.14724
G1 Z0.
G03 X93.47591 Y136.20485 I0.37192 J0.14723
X92.73208 Y135.91038 I-0.37191 J-0.14724
G1 Z-0.5
G03 X93.47591 Y136.20485 I0.37192 J0.14723
X92.73208 Y135.91038 I-0.37191 J-0.14724
G0 Z4.
X107.19153 Y120.7126
G1 Z2.5 F318.2
G03 X107.19152 Y120.71261 I-1.21524 J-1.45449 F1273.
X105.71368 Y121.13674 I-1.21824 J-1.45808
G1 X105.70203 Y121.13519
G02 X100.00633 Y121.14078 I-2.82603 J22.24426
G03 X98.33637 Y119.33379 I0.22838 J-1.88621
G1 X97.45085 Y98.03736
G03 X99.35074 Y96.15762 I1.89989 J0.02026
G1 X106.85727
G03 X108.75561 Y98.13678 I0. J1.89999
G1 Y98.13679
X107.87163 Y119.33373
Y119.33374
G03 X107.19153 Y120.7126 I-1.89828 J-0.07914
G1 Z2.
G03 X107.19152 Y120.71261 I-1.21524 J-1.45449
X105.71368 Y121.13674 I-1.21824 J-1.45808
G1 X105.70203 Y121.13519
G02 X100.00633 Y121.14078 I-2.82603 J22.24426
G03 X98.33637 Y119.33379 I0.22838 J-1.88621
G1 X97.45085 Y98.03736
G03 X99.35074 Y96.15762 I1.89989 J0.02026
G1 X106.85727
G03 X108.75561 Y98.13678 I0. J1.89999
G1 Y98.13679
X107.87163 Y119.33373
Y119.33374
G03 X107.19153 Y120.7126 I-1.89828 J-0.07914
G1 Z1.5
G03 X107.19152 Y120.71261 I-1.21524 J-1.45449
X105.71368 Y121.13674 I-1.21824 J-1.45808
G1 X105.70203 Y121.13519
G02 X100.00633 Y121.14078 I-2.82603 J22.24426
G03 X98.33637 Y119.33379 I0.22838 J-1.88621
G1 X97.45085 Y98.03736
G03 X99.35074 Y96.15762 I1.89989 J0.02026
G1 X106.85727
G03 X108.75561 Y98.13678 I0. J1.89999
G1 Y98.13679
X107.87163 Y119.33373
Y119.33374
G03 X107.19153 Y120.7126 I-1.89828 J-0.07914
G1 Z1.
G03 X107.19152 Y120.71261 I-1.21524 J-1.45449
X105.71368 Y121.13674 I-1.21824 J-1.45808
G1 X105.70203 Y121.13519
G02 X100.00633 Y121.14078 I-2.82603 J22.24426
G03 X98.33637 Y119.33379 I0.22838 J-1.88621
G1 X97.45085 Y98.03736
G03 X99.35074 Y96.15762 I1.89989 J0.02026
G1 X106.85727
G03 X108.75561 Y98.13678 I0. J1.89999
G1 Y98.13679
X107.87163 Y119.33373
Y119.33374
G03 X107.19153 Y120.7126 I-1.89828 J-0.07914
G1 Z0.5
G03 X107.19152 Y120.71261 I-1.21524 J-1.45449
X105.71368 Y121.13674 I-1.21824 J-1.45808
G1 X105.70203 Y121.13519
G02 X100.00633 Y121.14078 I-2.82603 J22.24426
G03 X98.33637 Y119.33379 I0.22838 J-1.88621
G1 X97.45085 Y98.03736
G03 X99.35074 Y96.15762 I1.89989 J0.02026
G1 X106.85727
G03 X108.75561 Y98.13678 I0. J1.89999
G1 Y98.13679
X107.87163 Y119.33373
Y119.33374
G03 X107.19153 Y120.7126 I-1.89828 J-0.07914
G1 Z0.
G03 X107.19152 Y120.71261 I-1.21524 J-1.45449
X105.71368 Y121.13674 I-1.21824 J-1.45808
G1 X105.70203 Y121.13519
G02 X100.00633 Y121.14078 I-2.82603 J22.24426
G03 X98.33637 Y119.33379 I0.22838 J-1.88621
G1 X97.45085 Y98.03736
G03 X99.35074 Y96.15762 I1.89989 J0.02026
G1 X106.85727
G03 X108.75561 Y98.13678 I0. J1.89999
G1 Y98.13679
X107.87163 Y119.33373
Y119.33374
G03 X107.19153 Y120.7126 I-1.89828 J-0.07914
G1 Z-0.5
G03 X107.19152 Y120.71261 I-1.21524 J-1.45449
X105.71368 Y121.13674 I-1.21824 J-1.45808
G1 X105.70203 Y121.13519
G02 X100.00633 Y121.14078 I-2.82603 J22.24426
G03 X98.33637 Y119.33379 I0.22838 J-1.88621
G1 X97.45085 Y98.03736
G03 X99.35074 Y96.15762 I1.89989 J0.02026
G1 X106.85727
G03 X108.75561 Y98.13678 I0. J1.89999
G1 Y98.13679
X107.87163 Y119.33373
Y119.33374
G03 X107.19153 Y120.7126 I-1.89828 J-0.07914
G0 Z4.
X113.38658 Y135.77451
G1 Z2.5 F318.2
G03 X112.82117 Y136.33952 I-0.28271 J0.2825 F1273.
X113.38658 Y135.77451 I0.2827 J-0.28251
G1 Z2.
G03 X112.82117 Y136.33952 I-0.28271 J0.2825
X113.38658 Y135.77451 I0.2827 J-0.28251
G1 Z1.5
G03 X112.82117 Y136.33952 I-0.28271 J0.2825
X113.38658 Y135.77451 I0.2827 J-0.28251
G1 Z1.
G03 X112.82117 Y136.33952 I-0.28271 J0.2825
X113.38658 Y135.77451 I0.2827 J-0.28251
G1 Z0.5
G03 X112.82117 Y136.33952 I-0.28271 J0.2825
X113.38658 Y135.77451 I0.2827 J-0.28251
G1 Z0.
G03 X112.82117 Y136.33952 I-0.28271 J0.2825
X113.38658 Y135.77451 I0.2827 J-0.28251
G1 Z-0.5
G03 X112.82117 Y136.33952 I-0.28271 J0.2825
X113.38658 Y135.77451 I0.2827 J-0.28251
G0 Z4.
X98.07915 Y184.0811
G1 Z2.5 F318.2
G03 X97.71105 Y183.15131 I-0.18405 J-0.46489 F1273.
X98.07915 Y184.0811 I0.18405 J0.4649
G1 Z2.
G03 X97.71105 Y183.15131 I-0.18405 J-0.46489
X98.07915 Y184.0811 I0.18405 J0.4649
G1 Z1.5
G03 X97.71105 Y183.15131 I-0.18405 J-0.46489
X98.07915 Y184.0811 I0.18405 J0.4649
G1 Z1.
G03 X97.71105 Y183.15131 I-0.18405 J-0.46489
X98.07915 Y184.0811 I0.18405 J0.4649
G1 Z0.5
G03 X97.71105 Y183.15131 I-0.18405 J-0.46489
X98.07915 Y184.0811 I0.18405 J0.4649
G1 Z0.
G03 X97.71105 Y183.15131 I-0.18405 J-0.46489
X98.07915 Y184.0811 I0.18405 J0.4649
G1 Z-0.5
G03 X97.71105 Y183.15131 I-0.18405 J-0.46489
X98.07915 Y184.0811 I0.18405 J0.4649
G0 Z4.
X93.82328 Y195.22209
G1 Z2.5 F318.2
G03 X90.88106 Y194.21613 I-2.9745 J3.89412 F1273.
X93.82328 Y195.22209 I-0.09633 J5.08742
G1 Z2.
G03 X90.88106 Y194.21613 I-2.9745 J3.89412
X93.82328 Y195.22209 I-0.09633 J5.08742
G1 Z1.5
G03 X90.88106 Y194.21613 I-2.9745 J3.89412
X93.82328 Y195.22209 I-0.09633 J5.08742
G1 Z1.
G03 X90.88106 Y194.21613 I-2.9745 J3.89412
X93.82328 Y195.22209 I-0.09633 J5.08742
G1 Z0.5
G03 X90.88106 Y194.21613 I-2.9745 J3.89412
X93.82328 Y195.22209 I-0.09633 J5.08742
G1 Z0.
G03 X90.88106 Y194.21613 I-2.9745 J3.89412
X93.82328 Y195.22209 I-0.09633 J5.08742
G1 Z-0.5
G03 X90.88106 Y194.21613 I-2.9745 J3.89412
X93.82328 Y195.22209 I-0.09633 J5.08742
G0 Z4.
X84.47171 Y190.8662
G1 Z2.5 F318.2
G03 Y191.86621 I0. J0.50001 F1273.
Y190.8662 I0. J-0.5
G1 Z2.
G03 Y191.86621 I0. J0.50001
Y190.8662 I0. J-0.5
G1 Z1.5
G03 Y191.86621 I0. J0.50001
Y190.8662 I0. J-0.5
G1 Z1.
G03 Y191.86621 I0. J0.50001
Y190.8662 I0. J-0.5
G1 Z0.5
G03 Y191.86621 I0. J0.50001
Y190.8662 I0. J-0.5
G1 Z0.
G03 Y191.86621 I0. J0.50001
Y190.8662 I0. J-0.5
G1 Z-0.5
G03 Y191.86621 I0. J0.50001
Y190.8662 I0. J-0.5
G0 Z4.
X84.45627 Y207.34932
G1 Z2.5 F318.2
G03 X84.88552 Y207.15283 I0.03314 J-0.49473 F1273.
G1 X84.63963 Y207.31434
X84.45627 Y207.34932
Z2.
G03 X84.88552 Y207.15283 I0.03314 J-0.49473
G1 X84.63963 Y207.31434
X84.45627 Y207.34932
Z1.5
G03 X84.88552 Y207.15283 I0.03314 J-0.49473
G1 X84.63963 Y207.31434
X84.45627 Y207.34932
Z1.
G03 X84.88552 Y207.15283 I0.03314 J-0.49473
G1 X84.63963 Y207.31434
X84.45627 Y207.34932
Z0.5
G03 X84.88552 Y207.15283 I0.03314 J-0.49473
G1 X84.63963 Y207.31434
X84.45627 Y207.34932
Z0.
G03 X84.88552 Y207.15283 I0.03314 J-0.49473
G1 X84.63963 Y207.31434
X84.45627 Y207.34932
Z-0.5
G03 X84.88552 Y207.15283 I0.03314 J-0.49473
G1 X84.63963 Y207.31434
X84.45627 Y207.34932
G0 Z4.
X97.71105 Y214.15132
G1 Z2.5 F318.2
G03 X98.07916 Y215.08111 I0.18405 J0.4649 F1273.
X97.71105 Y214.15132 I-0.18406 J-0.46489
G1 Z2.
G03 X98.07916 Y215.08111 I0.18405 J0.4649
X97.71105 Y214.15132 I-0.18406 J-0.46489
G1 Z1.5
G03 X98.07916 Y215.08111 I0.18405 J0.4649
X97.71105 Y214.15132 I-0.18406 J-0.46489
G1 Z1.
G03 X98.07916 Y215.08111 I0.18405 J0.4649
X97.71105 Y214.15132 I-0.18406 J-0.46489
G1 Z0.5
G03 X98.07916 Y215.08111 I0.18405 J0.4649
X97.71105 Y214.15132 I-0.18406 J-0.46489
G1 Z0.
G03 X98.07916 Y215.08111 I0.18405 J0.4649
X97.71105 Y214.15132 I-0.18406 J-0.46489
G1 Z-0.5
G03 X98.07916 Y215.08111 I0.18405 J0.4649
X97.71105 Y214.15132 I-0.18406 J-0.46489
G0 Z4.
X110.8555 Y206.67734
G1 Z2.5 F318.2
G03 X111.77784 Y207.03746 I0.46117 J0.18006 F1273.
X110.8555 Y206.67734 I-0.46117 J-0.18006
G1 Z2.
G03 X111.77784 Y207.03746 I0.46117 J0.18006
X110.8555 Y206.67734 I-0.46117 J-0.18006
G1 Z1.5
G03 X111.77784 Y207.03746 I0.46117 J0.18006
X110.8555 Y206.67734 I-0.46117 J-0.18006
G1 Z1.
G03 X111.77784 Y207.03746 I0.46117 J0.18006
X110.8555 Y206.67734 I-0.46117 J-0.18006
G1 Z0.5
G03 X111.77784 Y207.03746 I0.46117 J0.18006
X110.8555 Y206.67734 I-0.46117 J-0.18006
G1 Z0.
G03 X111.77784 Y207.03746 I0.46117 J0.18006
X110.8555 Y206.67734 I-0.46117 J-0.18006
G1 Z-0.5
G03 X111.77784 Y207.03746 I0.46117 J0.18006
X110.8555 Y206.67734 I-0.46117 J-0.18006
G0 Z4.
X110.96494 Y191.71976
G1 Z2.5 F318.2
G03 X111.67205 Y191.01265 I0.35356 J-0.35355 F1273.
X110.96494 Y191.71976 I-0.35355 J0.35356
G1 Z2.
G03 X111.67205 Y191.01265 I0.35356 J-0.35355
X110.96494 Y191.71976 I-0.35355 J0.35356
G1 Z1.5
G03 X111.67205 Y191.01265 I0.35356 J-0.35355
X110.96494 Y191.71976 I-0.35355 J0.35356
G1 Z1.
G03 X111.67205 Y191.01265 I0.35356 J-0.35355
X110.96494 Y191.71976 I-0.35355 J0.35356
G1 Z0.5
G03 X111.67205 Y191.01265 I0.35356 J-0.35355
X110.96494 Y191.71976 I-0.35355 J0.35356
G1 Z0.
G03 X111.67205 Y191.01265 I0.35356 J-0.35355
X110.96494 Y191.71976 I-0.35355 J0.35356
G1 Z-0.5
G03 X111.67205 Y191.01265 I0.35356 J-0.35355
X110.96494 Y191.71976 I-0.35355 J0.35356
G0 Z4.
X57.18816 Y172.34701
G1 Z2.5 F318.2
G03 X64.98816 Y172.34702 I3.9 J0.00001 F1273.
X57.18816 Y172.34701 I-3.9 J0.
G1 Z2.
G03 X64.98816 Y172.34702 I3.9 J0.00001
X57.18816 Y172.34701 I-3.9 J0.
G1 Z1.5
G03 X64.98816 Y172.34702 I3.9 J0.00001
X57.18816 Y172.34701 I-3.9 J0.
G1 Z1.
G03 X64.98816 Y172.34702 I3.9 J0.00001
X57.18816 Y172.34701 I-3.9 J0.
G1 Z0.5
G03 X64.98816 Y172.34702 I3.9 J0.00001
X57.18816 Y172.34701 I-3.9 J0.
G1 Z0.
G03 X64.98816 Y172.34702 I3.9 J0.00001
X57.18816 Y172.34701 I-3.9 J0.
G1 Z-0.5
G03 X64.98816 Y172.34702 I3.9 J0.00001
X57.18816 Y172.34701 I-3.9 J0.
G0 Z4.
X40.19573 Y197.34961
G1 Z2.5 F318.2
G03 X41.59448 Y200.88281 I0.69937 J1.7666 F1273.
X40.19573 Y197.34961 I-0.69938 J-1.7666
G1 Z2.
G03 X41.59448 Y200.88281 I0.69937 J1.7666
X40.19573 Y197.34961 I-0.69938 J-1.7666
G1 Z1.5
G03 X41.59448 Y200.88281 I0.69937 J1.7666
X40.19573 Y197.34961 I-0.69938 J-1.7666
G1 Z1.
G03 X41.59448 Y200.88281 I0.69937 J1.7666
X40.19573 Y197.34961 I-0.69938 J-1.7666
G1 Z0.5
G03 X41.59448 Y200.88281 I0.69937 J1.7666
X40.19573 Y197.34961 I-0.69938 J-1.7666
G1 Z0.
G03 X41.59448 Y200.88281 I0.69937 J1.7666
X40.19573 Y197.34961 I-0.69938 J-1.7666
G1 Z-0.5
G03 X41.59448 Y200.88281 I0.69937 J1.7666
X40.19573 Y197.34961 I-0.69938 J-1.7666
G0 Z4.
X15.23306 Y183.69731
G1 Z2.5 F318.2
G03 X18.76626 Y185.09608 I1.7666 J0.69938 F1273.
X15.23306 Y183.69731 I-1.7666 J-0.69939
G1 Z2.
G03 X18.76626 Y185.09608 I1.7666 J0.69938
X15.23306 Y183.69731 I-1.7666 J-0.69939
G1 Z1.5
G03 X18.76626 Y185.09608 I1.7666 J0.69938
X15.23306 Y183.69731 I-1.7666 J-0.69939
G1 Z1.
G03 X18.76626 Y185.09608 I1.7666 J0.69938
X15.23306 Y183.69731 I-1.7666 J-0.69939
G1 Z0.5
G03 X18.76626 Y185.09608 I1.7666 J0.69938
X15.23306 Y183.69731 I-1.7666 J-0.69939
G1 Z0.
G03 X18.76626 Y185.09608 I1.7666 J0.69938
X15.23306 Y183.69731 I-1.7666 J-0.69939
G1 Z-0.5
G03 X18.76626 Y185.09608 I1.7666 J0.69938
X15.23306 Y183.69731 I-1.7666 J-0.69939
G0 Z4.
(2 1/2 Axis Profiling-Finish)
(SlotDrill 2mm Carbide)
X18.85922 Y14.13288
G1 Z-0.5 F249.2
G03 X15.14007 Y12.6605 I-1.85957 J-0.73619 F997.
X18.85922 Y14.13288 I1.85958 J0.73619
G0 Z4.
X50.73461 Y6.70057
G1 Z-0.5 F249.2
G03 X51.44171 Y5.99346 I0.35355 J-0.35355 F997.
X50.73461 Y6.70057 I-0.35355 J0.35356
G0 Z4.
X70.73461
G1 Z-0.5 F249.2
G03 X71.44171 Y5.99346 I0.35355 J-0.35355 F997.
X70.73461 Y6.70057 I-0.35355 J0.35356
G0 Z4.
X97.42173 Y20.10849
G1 Z-0.5 F249.2
G03 X97.52967 Y20.29161 I0.24947 J-0.02368 F997.
G1 X97.42678 Y20.13498
X97.42173 Y20.10849
G0 Z4.
X103.55891 Y22.51588
G1 Z-0.5 F249.2
G03 X102.6491 Y17.59935 I-0.4549 J-2.45826 F997.
X103.55891 Y22.51588 I0.45491 J2.45827
G0 Z4.
X108.78626 Y20.00674
G1 Z-0.5 F249.2
G03 X108.67832 Y19.82361 I-0.24947 J0.02367 F997.
G1 X108.78121 Y19.98025
X108.78626 Y20.00674
G0 Z4.
X115.07061 Y40.42155
G1 Z-0.5 F249.2
G03 X111.13739 Y39.6937 I-1.96661 J-0.36393 F997.
X115.07061 Y40.42155 I1.96661 J0.36392
G0 Z4.
X110.6339 Y55.49797
G1 Z-0.5 F249.2
X109.52306 Y82.13407 F997.
G03 X107.51762 Y84.05762 I-2.03664 J-0.11616
G1 X98.68349
G03 X96.68524 Y82.14096 I0. J-1.99999
G1 X95.57441 Y55.50425
G03 X97.01408 Y53.50051 I1.99825 J-0.08334
G1 X97.02098 Y53.49848
G02 X102.18664 Y50.77041 I-4.30001 J-14.39686
G03 X104.02505 Y50.77232 I0.91736 J1.77721
G02 X109.4459 Y53.62725 I10.21013 J-12.81273
G03 X110.6342 Y55.49169 I-0.70699 J1.7615
G1 X110.6339 Y55.49797
G0 Z4.
X91.24442 Y40.79381
G1 Z-0.5 F249.2
G03 X94.96357 Y39.32143 I1.85958 J-0.73619 F997.
X91.24442 Y40.79381 I-1.85957 J0.73619
G0 Z4.
X55.33663 Y44.26371
G1 Z-0.5 F249.2
G02 X56.2206 Y23.06674 I-4173246.06564 J-174046.73378 F997.
G03 X58.49214 Y21.16883 I1.99827 J0.08333
G1 X58.50274 Y21.17024
G02 X64.18526 Y21.16309 I2.81343 J-22.14503
G03 X65.95571 Y23.06674 I-0.22781 J1.98698
G1 X65.9557 Y23.06662
X66.84134 Y44.3657
G03 X64.84142 Y46.34702 I-1.99992 J-0.01868
G1 X57.3349
G03 X55.33663 Y44.26371 I0.00001 J-2.00002
G0 Z4.
X53.68171 Y87.68521
G1 Z-0.5 F249.2
X53.56226 Y86.81146 F997.
X54.58178 Y62.34492
X54.57861 Y62.26413
G03 X54.8562 Y59.4993 I7.74868 J-0.61839
X56.66765 Y58.34702 I1.81145 J0.84772
G1 X65.50866
G03 X67.50693 Y60.26364 I0. J2.00001
G1 X68.6194 Y87.00241
G03 X67.17807 Y88.90413 I-1.99991 J-0.01869
G1 X67.17117 Y88.90616
G02 X62.0039 Y91.63555 I4.30003 J14.39687
G03 X60.02941 Y91.53782 I-0.90387 J-1.73347
G02 X54.73809 Y88.77484 I-9.94849 J12.60395
G03 X53.68171 Y87.68521 I0.64362 J-1.68087
G0 Z4.
X49.12154 Y101.98309
G1 Z-0.5 F249.2
G03 X53.05476 Y102.71094 I1.96661 J0.36392 F997.
X49.12154 Y101.98309 I-1.96661 J-0.36393
G0 Z4.
X52.61995 Y114.52281
G1 Z-0.5 F249.2
G03 X53.53589 Y114.15075 I0.45797 J-0.18603 F997.
X52.61995 Y114.52281 I-0.45797 J0.18603
G0 Z4.
X55.08846 Y122.34987
G1 Z-0.5 F249.2
G03 X67.08827 Y122.34412 I5.99991 J-0.00287 F997.
X55.08846 Y122.34987 I-5.9999 J0.00288
G0 Z4.
X52.58816 Y130.34702
G1 Z-0.5 F249.2
G03 X53.58815 I0.49999 J0. F997.
X52.58816 I-0.5 J0.
G0 Z4.
X68.62326 Y130.16297
G1 Z-0.5 F249.2
G03 X69.55304 Y130.53106 I0.46489 J0.18405 F997.
X68.62326 Y130.16297 I-0.46489 J-0.18404
G0 Z4.
X68.58816 Y114.34702
G1 Z-0.5 F249.2
G03 X69.58816 I0.5 J0. F997.
X68.58816 I-0.5 J0.
G0 Z4.
X69.12154 Y102.71095
G1 Z-0.5 F249.2
G03 X73.05476 Y101.9831 I1.96661 J-0.36393 F997.
X69.12154 Y102.71095 I-1.96661 J0.36392
G0 Z4.
X92.6391 Y135.87357
G1 Z-0.5 F249.2
G03 X93.56889 Y136.24166 I0.4649 J0.18404 F997.
X92.6391 Y135.87357 I-0.46489 J-0.18405
G0 Z4.
X107.25564 Y120.78934
G1 Z-0.5 F249.2
G03 Y120.78935 I-1.28773 J-1.54126 F997.
X105.70002 Y121.2358 I-1.28236 J-1.53482
G1 X105.68943 Y121.23439
G02 X100.0069 Y121.24154 I-2.81343 J22.14506
G03 X98.23646 Y119.33795 I0.22781 J-1.98697
G1 X97.35083 Y98.03894
G03 X99.35074 Y96.05762 I1.99991 J0.01868
G1 X106.85727
G03 X108.85552 Y98.14095 I0. J1.99999
G1 X107.97155 Y119.33789
Y119.3379
G03 X107.25564 Y120.78934 I-1.9982 J-0.0833
G0 Z4.
X113.45731 Y135.70382
G1 Z-0.5 F249.2
G03 X112.75043 Y136.4102 I-0.35344 J0.35319 F997.
X113.45731 Y135.70382 I0.35344 J-0.35319
G0 Z4.
X98.11596 Y184.17408
G1 Z-0.5 F249.2
G03 X97.67424 Y183.05833 I-0.22086 J-0.55787 F997.
X98.11596 Y184.17408 I0.22086 J0.55788
G0 Z4.
X93.88349 Y195.14225
G1 Z-0.5 F249.2
G03 X90.88233 Y194.11614 I-3.03471 J3.97396 F997.
X93.88349 Y195.14225 I-0.0976 J5.18741
G0 Z4.
X84.47171 Y190.7662
G1 Z-0.5 F249.2
G03 Y191.96621 I0. J0.60001 F997.
Y190.7662 I0. J-0.6
G0 Z4.
X84.46298 Y207.44984
G1 Z-0.5 F249.2
G03 X84.95427 Y207.22732 I0.02643 J-0.59525 F997.
G1 X84.67791 Y207.40884
X84.46298 Y207.44984
G0 Z4.
X97.67424 Y214.05834
G1 Z-0.5 F249.2
G03 X98.11596 Y215.17409 I0.22086 J0.55788 F997.
X97.67424 Y214.05834 I-0.22086 J-0.55787
G0 Z4.
X110.76235 Y206.64097
G1 Z-0.5 F249.2
G03 X111.87099 Y207.07383 I0.55432 J0.21643 F997.
X110.76235 Y206.64097 I-0.55432 J-0.21643
G0 Z4.
X110.89423 Y191.79048
G1 Z-0.5 F249.2
G03 X111.74276 Y190.94194 I0.42427 J-0.42427 F997.
X110.89423 Y191.79048 I-0.42426 J0.42427
G0 Z4.
X57.08816 Y172.34701
G1 Z-0.5 F249.2
G03 X65.08816 Y172.34702 I4. J0.00001 F997.
X57.08816 Y172.34701 I-4. J0.
G0 Z4.
X40.15892 Y197.25663
G1 Z-0.5 F249.2
G03 X41.63129 Y200.97579 I0.73618 J1.85958 F997.
X40.15892 Y197.25663 I-0.73619 J-1.85958
G0 Z4.
X15.14008 Y183.6605
G1 Z-0.5 F249.2
G03 X18.85923 Y185.13289 I1.85958 J0.73619 F997.
X15.14008 Y183.6605 I-1.85957 J-0.7362
G0 Z4.
(2 1/2 Axis Profiling)
(SlotDrill 2mm Carbide)
X5.99965 Y162.57003
G1 Z2.5 F318.2
Y184.39669 F1273.
G02 X27.99966 I11. J0.
G1 Y13.39669
G02 X5.99965 I-11.00001 J0.
G1 Y162.57003
Z2.
Y184.39669
G02 X27.99966 I11. J0.
G1 Y13.39669
G02 X5.99965 I-11.00001 J0.
G1 Y162.57003
Z1.5
Y184.39669
G02 X27.99966 I11. J0.
G1 Y13.39669
G02 X5.99965 I-11.00001 J0.
G1 Y162.57003
Z1.
Y184.39669
G02 X27.99966 I11. J0.
G1 Y13.39669
G02 X5.99965 I-11.00001 J0.
G1 Y162.57003
Z0.5
Y184.39669
G02 X27.99966 I11. J0.
G1 Y13.39669
G02 X5.99965 I-11.00001 J0.
G1 Y162.57003
Z0.
Y184.39669
G02 X27.99966 I11. J0.
G1 Y13.39669
G02 X5.99965 I-11.00001 J0.
G1 Y162.57003
Z-0.5
Y184.39669
G02 X27.99966 I11. J0.
G1 Y13.39669
G02 X5.99965 I-11.00001 J0.
G1 Y162.57003
G0 Z4.
X46.22178 Y210.11621
G1 Z2.5 F318.2
X74.33667 F1273.
G02 Y188.11621 I23.55844 J-11.
G1 X40.8951
G02 Y210.11621 I0. J11.
G1 X46.22178
Z2.
X74.33667
G02 Y188.11621 I23.55844 J-11.
G1 X40.8951
G02 Y210.11621 I0. J11.
G1 X46.22178
Z1.5
X74.33667
G02 Y188.11621 I23.55844 J-11.
G1 X40.8951
G02 Y210.11621 I0. J11.
G1 X46.22178
Z1.
X74.33667
G02 Y188.11621 I23.55844 J-11.
G1 X40.8951
G02 Y210.11621 I0. J11.
G1 X46.22178
Z0.5
X74.33667
G02 Y188.11621 I23.55844 J-11.
G1 X40.8951
G02 Y210.11621 I0. J11.
G1 X46.22178
Z0.
X74.33667
G02 Y188.11621 I23.55844 J-11.
G1 X40.8951
G02 Y210.11621 I0. J11.
G1 X46.22178
Z-0.5
X74.33667
G02 Y188.11621 I23.55844 J-11.
G1 X40.8951
G02 Y210.11621 I0. J11.
G1 X46.22178
G0 Z4.
X72.09308 Y140.23234
G1 Z2.5 F318.2
G02 X82.08805 Y122.3505 I-11.00396 J-17.88485 F1273.
G1 X77.10033 Y2.3055
G02 X76.10119 Y1.34702 I-0.99914 J0.04152
G1 X46.07513
G02 X45.07599 Y2.3055 I0. J1.
G1 X40.08816 Y122.34701
G02 X50.08816 Y140.23556 I21. J0.
G1 Y172.34701
G02 X72.08816 Y172.34709 I11. J0.
G1 X72.09308 Y140.23234
Z2.
G02 X82.08805 Y122.3505 I-11.00396 J-17.88485
G1 X77.10033 Y2.3055
G02 X76.10119 Y1.34702 I-0.99914 J0.04152
G1 X46.07513
G02 X45.07599 Y2.3055 I0. J1.
G1 X40.08816 Y122.34701
G02 X50.08816 Y140.23556 I21. J0.
G1 Y172.34701
G02 X72.08816 Y172.34709 I11. J0.
G1 X72.09308 Y140.23234
Z1.5
G02 X82.08805 Y122.3505 I-11.00396 J-17.88485
G1 X77.10033 Y2.3055
G02 X76.10119 Y1.34702 I-0.99914 J0.04152
G1 X46.07513
G02 X45.07599 Y2.3055 I0. J1.
G1 X40.08816 Y122.34701
G02 X50.08816 Y140.23556 I21. J0.
G1 Y172.34701
G02 X72.08816 Y172.34709 I11. J0.
G1 X72.09308 Y140.23234
Z1.
G02 X82.08805 Y122.3505 I-11.00396 J-17.88485
G1 X77.10033 Y2.3055
G02 X76.10119 Y1.34702 I-0.99914 J0.04152
G1 X46.07513
G02 X45.07599 Y2.3055 I0. J1.
G1 X40.08816 Y122.34701
G02 X50.08816 Y140.23556 I21. J0.
G1 Y172.34701
G02 X72.08816 Y172.34709 I11. J0.
G1 X72.09308 Y140.23234
Z0.5
G02 X82.08805 Y122.3505 I-11.00396 J-17.88485
G1 X77.10033 Y2.3055
G02 X76.10119 Y1.34702 I-0.99914 J0.04152
G1 X46.07513
G02 X45.07599 Y2.3055 I0. J1.
G1 X40.08816 Y122.34701
G02 X50.08816 Y140.23556 I21. J0.
G1 Y172.34701
G02 X72.08816 Y172.34709 I11. J0.
G1 X72.09308 Y140.23234
Z0.
G02 X82.08805 Y122.3505 I-11.00396 J-17.88485
G1 X77.10033 Y2.3055
G02 X76.10119 Y1.34702 I-0.99914 J0.04152
G1 X46.07513
G02 X45.07599 Y2.3055 I0. J1.
G1 X40.08816 Y122.34701
G02 X50.08816 Y140.23556 I21. J0.
G1 Y172.34701
G02 X72.08816 Y172.34709 I11. J0.
G1 X72.09308 Y140.23234
Z-0.5
G02 X82.08805 Y122.3505 I-11.00396 J-17.88485
G1 X77.10033 Y2.3055
G02 X76.10119 Y1.34702 I-0.99914 J0.04152
G1 X46.07513
G02 X45.07599 Y2.3055 I0. J1.
G1 X40.08816 Y122.34701
G02 X50.08816 Y140.23556 I21. J0.
G1 Y172.34701
G02 X72.08816 Y172.34709 I11. J0.
G1 X72.09308 Y140.23234
G0 Z4.
X120.08559 Y116.77247
G1 Z2.5 F318.2
X124.10298 Y20.01265 F1273.
X124.0138 Y18.12448
X123.74357 Y16.18954
X123.27871 Y14.23244
X122.60994 Y12.28151
X121.73344 Y10.36782
X120.65165 Y8.52389
X119.37379 Y6.78206
X117.91573 Y5.17276
X116.2995 Y3.72281
X114.5521 Y2.45395
X112.70411 Y1.38176
X110.7879 Y0.51512
X108.83599 Y-0.14383
X106.87932 Y-0.59919
X104.94606 Y-0.86047
X103.05902 Y-0.94137
X101.17085 Y-0.85218
X99.23592 Y-0.58196
X97.27882 Y-0.11709
X95.32789 Y0.55168
X93.41421 Y1.42818
X91.57028 Y2.50996
X89.82844 Y3.78783
X88.21913 Y5.24589
X86.7692 Y6.86212
X85.50034 Y8.60952
X84.42815 Y10.45751
X83.5615 Y12.37371
X82.90255 Y14.32563
X82.44719 Y16.2823
X82.18591 Y18.21556
X82.10486 Y20.09914
X87.09183 Y140.09914
G02 X88.09096 Y141.05761 I0.99913 J-0.04153
G1 X118.11704
G02 X119.11618 Y140.09913 I0. J-1.
G1 X120.08559 Y116.77247
Z2.
X124.10298 Y20.01265
X124.0138 Y18.12448
X123.74357 Y16.18954
X123.27871 Y14.23244
X122.60994 Y12.28151
X121.73344 Y10.36782
X120.65165 Y8.52389
X119.37379 Y6.78206
X117.91573 Y5.17276
X116.2995 Y3.72281
X114.5521 Y2.45395
X112.70411 Y1.38176
X110.7879 Y0.51512
X108.83599 Y-0.14383
X106.87932 Y-0.59919
X104.94606 Y-0.86047
X103.05902 Y-0.94137
X101.17085 Y-0.85218
X99.23592 Y-0.58196
X97.27882 Y-0.11709
X95.32789 Y0.55168
X93.41421 Y1.42818
X91.57028 Y2.50996
X89.82844 Y3.78783
X88.21913 Y5.24589
X86.7692 Y6.86212
X85.50034 Y8.60952
X84.42815 Y10.45751
X83.5615 Y12.37371
X82.90255 Y14.32563
X82.44719 Y16.2823
X82.18591 Y18.21556
X82.10486 Y20.09914
X87.09183 Y140.09914
G02 X88.09096 Y141.05761 I0.99913 J-0.04153
G1 X118.11704
G02 X119.11618 Y140.09913 I0. J-1.
G1 X120.08559 Y116.77247
Z1.5
X124.10298 Y20.01265
X124.0138 Y18.12448
X123.74357 Y16.18954
X123.27871 Y14.23244
X122.60994 Y12.28151
X121.73344 Y10.36782
X120.65165 Y8.52389
X119.37379 Y6.78206
X117.91573 Y5.17276
X116.2995 Y3.72281
X114.5521 Y2.45395
X112.70411 Y1.38176
X110.7879 Y0.51512
X108.83599 Y-0.14383
X106.87932 Y-0.59919
X104.94606 Y-0.86047
X103.05902 Y-0.94137
X101.17085 Y-0.85218
X99.23592 Y-0.58196
X97.27882 Y-0.11709
X95.32789 Y0.55168
X93.41421 Y1.42818
X91.57028 Y2.50996
X89.82844 Y3.78783
X88.21913 Y5.24589
X86.7692 Y6.86212
X85.50034 Y8.60952
X84.42815 Y10.45751
X83.5615 Y12.37371
X82.90255 Y14.32563
X82.44719 Y16.2823
X82.18591 Y18.21556
X82.10486 Y20.09914
X87.09183 Y140.09914
G02 X88.09096 Y141.05761 I0.99913 J-0.04153
G1 X118.11704
G02 X119.11618 Y140.09913 I0. J-1.
G1 X120.08559 Y116.77247
Z1.
X124.10298 Y20.01265
X124.0138 Y18.12448
X123.74357 Y16.18954
X123.27871 Y14.23244
X122.60994 Y12.28151
X121.73344 Y10.36782
X120.65165 Y8.52389
X119.37379 Y6.78206
X117.91573 Y5.17276
X116.2995 Y3.72281
X114.5521 Y2.45395
X112.70411 Y1.38176
X110.7879 Y0.51512
X108.83599 Y-0.14383
X106.87932 Y-0.59919
X104.94606 Y-0.86047
X103.05902 Y-0.94137
X101.17085 Y-0.85218
X99.23592 Y-0.58196
X97.27882 Y-0.11709
X95.32789 Y0.55168
X93.41421 Y1.42818
X91.57028 Y2.50996
X89.82844 Y3.78783
X88.21913 Y5.24589
X86.7692 Y6.86212
X85.50034 Y8.60952
X84.42815 Y10.45751
X83.5615 Y12.37371
X82.90255 Y14.32563
X82.44719 Y16.2823
X82.18591 Y18.21556
X82.10486 Y20.09914
X87.09183 Y140.09914
G02 X88.09096 Y141.05761 I0.99913 J-0.04153
G1 X118.11704
G02 X119.11618 Y140.09913 I0. J-1.
G1 X120.08559 Y116.77247
Z0.5
X124.10298 Y20.01265
X124.0138 Y18.12448
X123.74357 Y16.18954
X123.27871 Y14.23244
X122.60994 Y12.28151
X121.73344 Y10.36782
X120.65165 Y8.52389
X119.37379 Y6.78206
X117.91573 Y5.17276
X116.2995 Y3.72281
X114.5521 Y2.45395
X112.70411 Y1.38176
X110.7879 Y0.51512
X108.83599 Y-0.14383
X106.87932 Y-0.59919
X104.94606 Y-0.86047
X103.05902 Y-0.94137
X101.17085 Y-0.85218
X99.23592 Y-0.58196
X97.27882 Y-0.11709
X95.32789 Y0.55168
X93.41421 Y1.42818
X91.57028 Y2.50996
X89.82844 Y3.78783
X88.21913 Y5.24589
X86.7692 Y6.86212
X85.50034 Y8.60952
X84.42815 Y10.45751
X83.5615 Y12.37371
X82.90255 Y14.32563
X82.44719 Y16.2823
X82.18591 Y18.21556
X82.10486 Y20.09914
X87.09183 Y140.09914
G02 X88.09096 Y141.05761 I0.99913 J-0.04153
G1 X118.11704
G02 X119.11618 Y140.09913 I0. J-1.
G1 X120.08559 Y116.77247
Z0.
X124.10298 Y20.01265
X124.0138 Y18.12448
X123.74357 Y16.18954
X123.27871 Y14.23244
X122.60994 Y12.28151
X121.73344 Y10.36782
X120.65165 Y8.52389
X119.37379 Y6.78206
X117.91573 Y5.17276
X116.2995 Y3.72281
X114.5521 Y2.45395
X112.70411 Y1.38176
X110.7879 Y0.51512
X108.83599 Y-0.14383
X106.87932 Y-0.59919
X104.94606 Y-0.86047
X103.05902 Y-0.94137
X101.17085 Y-0.85218
X99.23592 Y-0.58196
X97.27882 Y-0.11709
X95.32789 Y0.55168
X93.41421 Y1.42818
X91.57028 Y2.50996
X89.82844 Y3.78783
X88.21913 Y5.24589
X86.7692 Y6.86212
X85.50034 Y8.60952
X84.42815 Y10.45751
X83.5615 Y12.37371
X82.90255 Y14.32563
X82.44719 Y16.2823
X82.18591 Y18.21556
X82.10486 Y20.09914
X87.09183 Y140.09914
G02 X88.09096 Y141.05761 I0.99913 J-0.04153
G1 X118.11704
G02 X119.11618 Y140.09913 I0. J-1.
G1 X120.08559 Y116.77247
Z-0.5
X124.10298 Y20.01265
X124.0138 Y18.12448
X123.74357 Y16.18954
X123.27871 Y14.23244
X122.60994 Y12.28151
X121.73344 Y10.36782
X120.65165 Y8.52389
X119.37379 Y6.78206
X117.91573 Y5.17276
X116.2995 Y3.72281
X114.5521 Y2.45395
X112.70411 Y1.38176
X110.7879 Y0.51512
X108.83599 Y-0.14383
X106.87932 Y-0.59919
X104.94606 Y-0.86047
X103.05902 Y-0.94137
X101.17085 Y-0.85218
X99.23592 Y-0.58196
X97.27882 Y-0.11709
X95.32789 Y0.55168
X93.41421 Y1.42818
X91.57028 Y2.50996
X89.82844 Y3.78783
X88.21913 Y5.24589
X86.7692 Y6.86212
X85.50034 Y8.60952
X84.42815 Y10.45751
X83.5615 Y12.37371
X82.90255 Y14.32563
X82.44719 Y16.2823
X82.18591 Y18.21556
X82.10486 Y20.09914
X87.09183 Y140.09914
G02 X88.09096 Y141.05761 I0.99913 J-0.04153
G1 X118.11704
G02 X119.11618 Y140.09913 I0. J-1.
G1 X120.08559 Y116.77247
G0 Z4.
M30
%
