%
G17 G21 G40 G90 G64 P0.1
(2 1/2 Axis Pocketing)
(SlotDrill 2mm Carbide)
T12 M06
S24000 M3
G0 Z4.
X86.65169 Y86.11709
G1 Z3.7 F318.2
Z3.1 F954.7
X86.6699 Y86.12956 Z3.09611
X86.7262 Y86.14434 Z3.08584
X86.77774 Y86.13927 Z3.07671
X86.81842 Y86.11871 Z3.06867
X86.84432 Y86.08865 Z3.06168
X86.85406 Y86.05584 Z3.05564
X86.84887 Y86.02682 Z3.05045
X86.83228 Y86.00702 Z3.04589
X86.80953 Y86. Z3.04169
X86.83228 Y86.00702 Z3.03749
X86.84887 Y86.02682 Z3.03294
X86.85406 Y86.05584 Z3.02774
X86.84432 Y86.08865 Z3.0217
X86.81842 Y86.11871 Z3.01471
X86.77774 Y86.13927 Z3.00667
X86.7262 Y86.14434 Z2.99754
X86.6699 Y86.12956 Z2.98727
X86.61646 Y86.09297 Z2.97586
X86.57409 Y86.03548 Z2.96326
X86.55055 Y85.96096 Z2.94948
X86.55211 Y85.87603 Z2.9345
X86.58263 Y85.78947 Z2.91832
X86.64286 Y85.71132 Z2.90092
X86.73006 Y85.65181 Z2.88231
X86.838 Y85.62011 Z2.86247
X86.9574 Y85.62322 Z2.84141
X87.07674 Y85.66493 Z2.81912
X87.1833 Y85.74516 Z2.7956
X87.26456 Y85.85964 Z2.77085
X87.1833 Y85.74516 Z2.74609
X87.07674 Y85.66493 Z2.72257
X86.9574 Y85.62322 Z2.70028
X86.838 Y85.62011 Z2.67922
X86.73006 Y85.65181 Z2.65938
X86.64286 Y85.71132 Z2.64077
X86.58263 Y85.78947 Z2.62337
X86.55211 Y85.87603 Z2.60719
X86.55055 Y85.96096 Z2.59221
X86.57409 Y86.03548 Z2.57843
X86.61646 Y86.09297 Z2.56583
X86.6699 Y86.12956 Z2.55442
X86.7262 Y86.14434 Z2.54415
X86.77774 Y86.13927 Z2.53502
X86.81842 Y86.11871 Z2.52698
X86.84432 Y86.08865 Z2.51999
X86.85406 Y86.05584 Z2.51395
X86.84887 Y86.02682 Z2.50875
X86.83228 Y86.00702 Z2.5042
X86.80953 Y86. Z2.5
G17
G03 X86.81842 Y86.11871 I-0.01252 J0.06063 F1273.
X86.55055 Y85.96096 I-0.08631 J-0.15973
X86.9574 Y85.62322 I0.32586 J-0.02139
X87.13072 Y86.48069 I-0.12741 J0.472
X86.08926 Y86.14327 I-0.41118 J-0.50684
X86.98328 Y85.12649 I0.78042 J-0.21524
X87.52327 Y86.79269 I-0.14322 J0.96701
X85.66102 Y86.41802 I-0.80595 J-0.80954
X86.85761 Y84.62306 I1.19928 J-0.49684
X88.01297 Y86.98405 I-0.00761 J1.46691
X85.22687 Y86.66884 I-1.29849 J-0.99346
X86.97057 Y84.12508 I1.63565 J-0.74831
X88.38418 Y87.32128 I-0.12184 J1.96459
X84.81453 Y86.96074 I-1.66872 J-1.32983
X86.75037 Y83.62772 I2.04167 J-1.04287
X88.88513 Y87.48013 I0.10518 J2.45939
X84.30393 Y87.05412 I-2.17202 J-1.48818
X87.2549 Y83.14723 I2.56323 J-1.13184
X89.07961 Y88.04958 I-0.41305 J2.94451
X83.71298 Y86.90923 I-2.36484 J-2.06894
X87.69965 Y82.72262 I3.16272 J-0.97977
X89.03628 Y88.79225 I-0.86961 J3.37349
X83.11318 Y86.55713 I-2.317 J-2.82563
X88.2361 Y82.36516 I3.77043 J-0.61853
X89.05301 Y89.4062 I-1.41564 J3.73215
X82.56498 Y86.14989 I-2.33012 J-3.44904
X88.97225 Y82.15015 I4.32624 J-0.20154
X89.05773 Y89.99507 I-2.16115 J3.94647
X82.0595 Y85.84286 I-2.33156 J-4.04394
X89.50109 Y81.88026 I4.83508 J0.11129
X88.97675 Y90.60557 I-2.69667 J4.21635
X81.59101 Y85.34075 I-2.24648 J-4.66149
X90.27074 Y81.81611 I5.30821 J0.62233
X88.54002 Y91.32592 I-3.47785 J4.27945
X81.24609 Y84.46459 I-1.80169 J-5.39229
X91.28492 Y82.08996 I5.65806 J1.51259
X87.94753 Y92.00318 I-4.50436 J4.00195
X80.96539 Y83.70171 I-1.20143 J-6.07649
X91.77308 Y81.88897 I5.93863 J2.28208
X87.71799 Y92.55135 I-4.99636 J4.20209
X80.52725 Y83.44836 I-0.96838 J-6.62664
X92.29198 Y81.73284 I6.37745 J2.53742
X87.75379 Y93.05146 I-5.51751 J4.35686
X80.17656 Y82.9902 I-1.00281 J-7.12865
X93.02054 Y81.87976 I6.72946 J3.00113
X87.0058 Y93.62042 I-6.25442 J4.20687
X80.23223 Y81.81641 I-0.24508 J-7.70483
X94.11002 Y82.8095 I6.67458 J4.19023
X85.798 Y94.07179 I-7.35637 J3.26914
X80.19206 Y80.98746 I0.97337 J-8.16013
X94.61282 Y82.71063 I6.71304 J5.02368
X95.295 Y85.57651 I-7.78412 J3.36702
G0 Z4.
X95.29896 Y85.57631
G1 Z2.5 F318.2
G03 X78.32009 Y86.42369 I-8.48943 J0.42369 F1273.
X95.29896 Y85.57631 I8.48944 J-0.42369
G0 Z4.
X86.80953 Y86.
G1 Z2. F318.2
G03 X86.81842 Y86.11871 I-0.01252 J0.06063 F1273.
X86.55055 Y85.96096 I-0.08631 J-0.15973
X86.9574 Y85.62322 I0.32586 J-0.02139
X87.13072 Y86.48069 I-0.12741 J0.472
X86.08926 Y86.14327 I-0.41118 J-0.50684
X86.98328 Y85.12649 I0.78042 J-0.21524
X87.52327 Y86.79269 I-0.14322 J0.96701
X85.66102 Y86.41802 I-0.80595 J-0.80954
X86.85761 Y84.62306 I1.19928 J-0.49684
X88.01297 Y86.98405 I-0.00761 J1.46691
X85.22687 Y86.66884 I-1.29849 J-0.99346
X86.97057 Y84.12508 I1.63565 J-0.74831
X88.38418 Y87.32128 I-0.12184 J1.96459
X84.81453 Y86.96074 I-1.66872 J-1.32983
X86.75037 Y83.62772 I2.04167 J-1.04287
X88.88513 Y87.48013 I0.10518 J2.45939
X84.30393 Y87.05412 I-2.17202 J-1.48818
X87.2549 Y83.14723 I2.56323 J-1.13184
X89.07961 Y88.04958 I-0.41305 J2.94451
X83.71298 Y86.90923 I-2.36484 J-2.06894
X87.69965 Y82.72262 I3.16272 J-0.97977
X89.03628 Y88.79225 I-0.86961 J3.37349
X83.11318 Y86.55713 I-2.317 J-2.82563
X88.2361 Y82.36516 I3.77043 J-0.61853
X89.05301 Y89.4062 I-1.41564 J3.73215
X82.56498 Y86.14989 I-2.33012 J-3.44904
X88.97225 Y82.15015 I4.32624 J-0.20154
X89.05773 Y89.99507 I-2.16115 J3.94647
X82.0595 Y85.84286 I-2.33156 J-4.04394
X89.50109 Y81.88026 I4.83508 J0.11129
X88.97675 Y90.60557 I-2.69667 J4.21635
X81.59101 Y85.34075 I-2.24648 J-4.66149
X90.27074 Y81.81611 I5.30821 J0.62233
X88.54002 Y91.32592 I-3.47785 J4.27945
X81.24609 Y84.46459 I-1.80169 J-5.39229
X91.28492 Y82.08996 I5.65806 J1.51259
X87.94753 Y92.00318 I-4.50436 J4.00195
X80.96539 Y83.70171 I-1.20143 J-6.07649
X91.77308 Y81.88897 I5.93863 J2.28208
X87.71799 Y92.55135 I-4.99636 J4.20209
X80.52725 Y83.44836 I-0.96838 J-6.62664
X92.29198 Y81.73284 I6.37745 J2.53742
X87.75379 Y93.05146 I-5.51751 J4.35686
X80.17656 Y82.9902 I-1.00281 J-7.12865
X93.02054 Y81.87976 I6.72946 J3.00113
X87.0058 Y93.62042 I-6.25442 J4.20687
X80.23223 Y81.81641 I-0.24508 J-7.70483
X94.11002 Y82.8095 I6.67458 J4.19023
X85.798 Y94.07179 I-7.35637 J3.26914
X80.19206 Y80.98746 I0.97337 J-8.16013
X94.61282 Y82.71063 I6.71304 J5.02368
X95.295 Y85.57651 I-7.78412 J3.36702
G0 Z4.
X95.29896 Y85.57631
G1 Z2. F318.2
G03 X78.32009 Y86.42369 I-8.48943 J0.42369 F1273.
X95.29896 Y85.57631 I8.48944 J-0.42369
G1 X94.36606 Y86.08098 Z3.06066 F1909.5
Z3.66066
G0 Z4.
X28.13047 Y149.57617
G1 Z3.7 F318.2
Z3.1 F954.7
X28.14869 Y149.58864 Z3.09611
X28.20498 Y149.60342 Z3.08584
X28.25653 Y149.59835 Z3.07671
X28.29721 Y149.57779 Z3.06867
X28.32311 Y149.54773 Z3.06168
X28.33285 Y149.51492 Z3.05564
X28.32766 Y149.4859 Z3.05045
X28.31107 Y149.4661 Z3.04589
X28.28832 Y149.45908 Z3.04169
X28.31107 Y149.4661 Z3.03749
X28.32766 Y149.4859 Z3.03294
X28.33285 Y149.51492 Z3.02774
X28.32311 Y149.54773 Z3.0217
X28.29721 Y149.57779 Z3.01471
X28.25653 Y149.59835 Z3.00667
X28.20498 Y149.60342 Z2.99754
X28.14869 Y149.58864 Z2.98727
X28.09525 Y149.55205 Z2.97586
X28.05288 Y149.49457 Z2.96326
X28.02934 Y149.42004 Z2.94948
X28.0309 Y149.33511 Z2.9345
X28.06142 Y149.24855 Z2.91832
X28.12165 Y149.1704 Z2.90092
X28.20884 Y149.11089 Z2.88231
X28.31678 Y149.07919 Z2.86247
X28.43619 Y149.0823 Z2.84141
X28.55553 Y149.12401 Z2.81912
X28.66209 Y149.20424 Z2.7956
X28.74335 Y149.31872 Z2.77085
X28.66209 Y149.20424 Z2.74609
X28.55553 Y149.12401 Z2.72257
X28.43619 Y149.0823 Z2.70028
X28.31678 Y149.07919 Z2.67922
X28.20884 Y149.11089 Z2.65938
X28.12165 Y149.1704 Z2.64077
X28.06142 Y149.24855 Z2.62337
X28.0309 Y149.33511 Z2.60719
X28.02934 Y149.42004 Z2.59221
X28.05288 Y149.49457 Z2.57843
X28.09525 Y149.55205 Z2.56583
X28.14869 Y149.58864 Z2.55442
X28.20498 Y149.60342 Z2.54415
X28.25653 Y149.59835 Z2.53502
X28.29721 Y149.57779 Z2.52698
X28.32311 Y149.54773 Z2.51999
X28.33285 Y149.51492 Z2.51395
X28.32766 Y149.4859 Z2.50875
X28.31107 Y149.4661 Z2.5042
X28.28832 Y149.45908 Z2.5
G03 X28.29721 Y149.57779 I-0.01252 J0.06063 F1273.
X28.02934 Y149.42004 I-0.08632 J-0.15973
X28.43619 Y149.0823 I0.32586 J-0.02139
X28.6095 Y149.93977 I-0.12741 J0.472
X27.56805 Y149.60235 I-0.41117 J-0.50684
X28.46207 Y148.58557 I0.78042 J-0.21524
X29.00205 Y150.25177 I-0.14323 J0.96701
X27.1398 Y149.8771 I-0.80594 J-0.80954
X28.3364 Y148.08214 I1.19928 J-0.49684
X29.49175 Y150.44313 I-0.00761 J1.46691
X26.70566 Y150.12792 I-1.29848 J-0.99345
X28.44935 Y147.58416 I1.63565 J-0.74831
X29.86296 Y150.78036 I-0.12183 J1.96459
X26.29331 Y150.41982 I-1.66871 J-1.32982
X28.22915 Y147.0868 I2.04168 J-1.04287
X30.36392 Y150.93921 I0.10519 J2.4594
X25.78272 Y150.51321 I-2.17202 J-1.48818
X28.73368 Y146.60631 I2.56323 J-1.13185
X30.5584 Y151.50867 I-0.41304 J2.94451
X25.19177 Y150.36831 I-2.36484 J-2.06895
X29.17844 Y146.1817 I3.16272 J-0.97977
X30.51506 Y152.25133 I-0.86961 J3.37349
X24.59197 Y150.01621 I-2.31699 J-2.82563
X29.71489 Y145.82424 I3.77043 J-0.61853
X30.5318 Y152.86528 I-1.41564 J3.73215
X24.04377 Y149.60897 I-2.33012 J-3.44904
X30.45103 Y145.60923 I4.32624 J-0.20154
X30.53652 Y153.45415 I-2.16114 J3.94647
X23.53828 Y149.30194 I-2.33156 J-4.04394
X30.97988 Y145.33934 I4.83509 J0.11129
X30.45553 Y154.06465 I-2.69667 J4.21635
X23.06979 Y148.79983 I-2.24647 J-4.66149
X31.74953 Y145.27519 I5.30822 J0.62233
X30.01881 Y154.785 I-3.47785 J4.27945
X22.72487 Y147.92367 I-1.80169 J-5.39229
X32.76371 Y145.54904 I5.65807 J1.51259
X29.42631 Y155.46226 I-4.50436 J4.00195
X22.44418 Y147.16079 I-1.20143 J-6.07649
X33.25187 Y145.34805 I5.93863 J2.28208
X29.19678 Y156.01043 I-4.99636 J4.20209
X22.00604 Y146.90744 I-0.96838 J-6.62664
X33.77077 Y145.19192 I6.37744 J2.53742
X29.23258 Y156.51054 I-5.51751 J4.35686
X21.65534 Y146.44928 I-1.00281 J-7.12864
X34.49933 Y145.33884 I6.72946 J3.00113
X28.48459 Y157.0795 I-6.25442 J4.20687
X21.71102 Y145.27549 I-0.24509 J-7.70483
X35.58881 Y146.26858 I6.67457 J4.19023
X27.27679 Y157.53087 I-7.35638 J3.26914
X21.67085 Y144.44654 I0.97337 J-8.16013
X36.09161 Y146.16971 I6.71304 J5.02368
X27.24753 Y158.03074 I-7.86007 J3.36697
X21.42418 Y143.94624 I1.00354 J-8.66102
X36.75273 Y146.48084 I6.9597 J5.52837
X26.37366 Y158.39812 I-8.52726 J3.05173
X21.78037 Y142.79674 I1.88689 J-9.03239
X37.60705 Y147.69049 I6.60107 J6.69085
X24.92898 Y158.50898 I-9.39109 J1.83258
X22.1398 Y141.80068 I3.34321 J-9.14505
X38.18297 Y148.08904 I6.23845 J7.69339
X24.42792 Y158.85281 I-9.96993 J1.4301
X22.34973 Y141.01133 I3.84893 J-9.4901
X38.78832 Y149.45908 I6.02543 J8.49295
X22.55525 Y158.45818 I-10.5844 J0.04789
X23.70702 Y139.63445 I5.73803 J-9.09601
X39.20927 Y150.85756 I4.6595 J9.88195
X21.26541 Y158.15678 I-11.01049 J-1.36183
X24.50785 Y138.75933 I7.03865 J-8.79316
X39.45102 Y152.30538 I3.85227 J10.76563
X19.56155 Y157.24032 I-11.2573 J-2.82261
X26.68875 Y137.70316 I8.75998 J-7.87293
X38.91296 Y155.12066 I1.6554 J11.83662
X17.75781 Y155.63472 I-10.72133 J-5.65903
X28.54078 Y137.08503 I10.57895 J-6.25936
X38.383 Y156.91668 I-0.20898 J12.46183
X16.37292 Y153.91556 I-10.19103 J-7.47054
X31.08569 Y136.87382 I11.97877 J-4.53019
X37.20602 Y159.00761 I-2.77206 J12.67959
X15.25587 Y151.77162 I-9.01027 J-9.57816
X33.50939 Y137.11065 I13.10769 J-2.37406
X35.22913 Y161.13403 I-5.21485 J12.44656
X14.54536 Y148.9323 I-7.0246 J-11.72417
X36.29893 Y138.07041 I13.82981 J0.48321
X33.34393 Y162.61707 I-8.02174 J11.48551
X14.32621 Y146.52792 I-5.13031 J-13.22012
X38.44878 Y139.20259 I14.05483 J2.90216
X31.76357 Y163.6455 I-10.18545 J10.34991
X14.32183 Y144.63399 I-3.54105 J-14.25789
X40.04784 Y140.23258 I14.0622 J4.80854
X29.52239 Y164.52712 I-11.79768 J9.31605
X14.80052 Y142.25954 I-1.28828 J-15.14863
X41.79211 Y141.93279 I13.5849 J7.19759
X27.58714 Y165.07191 I-13.55386 J7.60911
X15.50585 Y140.17207 I0.65854 J-15.70033
X43.24132 Y143.84712 I12.87898 J9.29964
X24.61678 Y165.17928 I-15.01659 J5.68578
X17.06156 Y137.62158 I3.64508 J-15.81386
X44.51817 Y146.56449 I11.31952 J11.86693
X22.21649 Y164.96752 I-16.30401 J2.95666
X18.56438 Y135.72743 I6.05962 J-15.60497
X45.28832 Y149.45908 I9.81087 J13.77681
X18.87074 Y163.81733 I-17.08513 J0.04709
X21.37909 Y133.55244 I9.42489 J-14.45526
X45.55254 Y152.4031 I6.98563 J15.96681
X16.1036 Y162.27739 I-17.35661 J-2.91289
X24.3987 Y132.0303 I12.21036 J-12.91236
X44.90414 Y156.46324 I3.95221 J17.5042
X13.42239 Y159.96064 I-16.71205 J-6.99334
X27.22017 Y131.11979 I14.9076 J-10.58897
X44.34587 Y158.72991 I1.11896 J18.42228
X11.50465 Y157.73587 I-16.15496 J-9.27364
X30.75336 Y130.73523 I16.84012 J-8.35621
X42.29968 Y162.37952 I-2.432 J18.81603
X9.70079 Y154.38586 I-14.10563 J-12.94342
X34.16345 Y130.97063 I18.65753 J-4.99396
X47.77551 Y148.82772 I-5.82368 J18.55589
G0 Z4.
X47.77809 Y148.82763
G1 Z2.5 F318.2
G03 X8.79855 Y150.09053 I-19.48977 J0.63145 F1273.
X47.77809 Y148.82763 I19.48977 J-0.63145
G0 Z4.
X28.28832 Y149.45908
G1 Z2. F318.2
G03 X28.29721 Y149.57779 I-0.01252 J0.06063 F1273.
X28.02934 Y149.42004 I-0.08632 J-0.15973
X28.43619 Y149.0823 I0.32586 J-0.02139
X28.6095 Y149.93977 I-0.12741 J0.472
X27.56805 Y149.60235 I-0.41117 J-0.50684
X28.46207 Y148.58557 I0.78042 J-0.21524
X29.00205 Y150.25177 I-0.14323 J0.96701
X27.1398 Y149.8771 I-0.80594 J-0.80954
X28.3364 Y148.08214 I1.19928 J-0.49684
X29.49175 Y150.44313 I-0.00761 J1.46691
X26.70566 Y150.12792 I-1.29848 J-0.99345
X28.44935 Y147.58416 I1.63565 J-0.74831
X29.86296 Y150.78036 I-0.12183 J1.96459
X26.29331 Y150.41982 I-1.66871 J-1.32982
X28.22915 Y147.0868 I2.04168 J-1.04287
X30.36392 Y150.93921 I0.10519 J2.4594
X25.78272 Y150.51321 I-2.17202 J-1.48818
X28.73368 Y146.60631 I2.56323 J-1.13185
X30.5584 Y151.50867 I-0.41304 J2.94451
X25.19177 Y150.36831 I-2.36484 J-2.06895
X29.17844 Y146.1817 I3.16272 J-0.97977
X30.51506 Y152.25133 I-0.86961 J3.37349
X24.59197 Y150.01621 I-2.31699 J-2.82563
X29.71489 Y145.82424 I3.77043 J-0.61853
X30.5318 Y152.86528 I-1.41564 J3.73215
X24.04377 Y149.60897 I-2.33012 J-3.44904
X30.45103 Y145.60923 I4.32624 J-0.20154
X30.53652 Y153.45415 I-2.16114 J3.94647
X23.53828 Y149.30194 I-2.33156 J-4.04394
X30.97988 Y145.33934 I4.83509 J0.11129
X30.45553 Y154.06465 I-2.69667 J4.21635
X23.06979 Y148.79983 I-2.24647 J-4.66149
X31.74953 Y145.27519 I5.30822 J0.62233
X30.01881 Y154.785 I-3.47785 J4.27945
X22.72487 Y147.92367 I-1.80169 J-5.39229
X32.76371 Y145.54904 I5.65807 J1.51259
X29.42631 Y155.46226 I-4.50436 J4.00195
X22.44418 Y147.16079 I-1.20143 J-6.07649
X33.25187 Y145.34805 I5.93863 J2.28208
X29.19678 Y156.01043 I-4.99636 J4.20209
X22.00604 Y146.90744 I-0.96838 J-6.62664
X33.77077 Y145.19192 I6.37744 J2.53742
X29.23258 Y156.51054 I-5.51751 J4.35686
X21.65534 Y146.44928 I-1.00281 J-7.12864
X34.49933 Y145.33884 I6.72946 J3.00113
X28.48459 Y157.0795 I-6.25442 J4.20687
X21.71102 Y145.27549 I-0.24509 J-7.70483
X35.58881 Y146.26858 I6.67457 J4.19023
X27.27679 Y157.53087 I-7.35638 J3.26914
X21.67085 Y144.44654 I0.97337 J-8.16013
X36.09161 Y146.16971 I6.71304 J5.02368
X27.24753 Y158.03074 I-7.86007 J3.36697
X21.42418 Y143.94624 I1.00354 J-8.66102
X36.75273 Y146.48084 I6.9597 J5.52837
X26.37366 Y158.39812 I-8.52726 J3.05173
X21.78037 Y142.79674 I1.88689 J-9.03239
X37.60705 Y147.69049 I6.60107 J6.69085
X24.92898 Y158.50898 I-9.39109 J1.83258
X22.1398 Y141.80068 I3.34321 J-9.14505
X38.18297 Y148.08904 I6.23845 J7.69339
X24.42792 Y158.85281 I-9.96993 J1.4301
X22.34973 Y141.01133 I3.84893 J-9.4901
X38.78832 Y149.45908 I6.02543 J8.49295
X22.55525 Y158.45818 I-10.5844 J0.04789
X23.70702 Y139.63445 I5.73803 J-9.09601
X39.20927 Y150.85756 I4.6595 J9.88195
X21.26541 Y158.15678 I-11.01049 J-1.36183
X24.50785 Y138.75933 I7.03865 J-8.79316
X39.45102 Y152.30538 I3.85227 J10.76563
X19.56155 Y157.24032 I-11.2573 J-2.82261
X26.68875 Y137.70316 I8.75998 J-7.87293
X38.91296 Y155.12066 I1.6554 J11.83662
X17.75781 Y155.63472 I-10.72133 J-5.65903
X28.54078 Y137.08503 I10.57895 J-6.25936
X38.383 Y156.91668 I-0.20898 J12.46183
X16.37292 Y153.91556 I-10.19103 J-7.47054
X31.08569 Y136.87382 I11.97877 J-4.53019
X37.20602 Y159.00761 I-2.77206 J12.67959
X15.25587 Y151.77162 I-9.01027 J-9.57816
X33.50939 Y137.11065 I13.10769 J-2.37406
X35.22913 Y161.13403 I-5.21485 J12.44656
X14.54536 Y148.9323 I-7.0246 J-11.72417
X36.29893 Y138.07041 I13.82981 J0.48321
X33.34393 Y162.61707 I-8.02174 J11.48551
X14.32621 Y146.52792 I-5.13031 J-13.22012
X38.44878 Y139.20259 I14.05483 J2.90216
X31.76357 Y163.6455 I-10.18545 J10.34991
X14.32183 Y144.63399 I-3.54105 J-14.25789
X40.04784 Y140.23258 I14.0622 J4.80854
X29.52239 Y164.52712 I-11.79768 J9.31605
X14.80052 Y142.25954 I-1.28828 J-15.14863
X41.79211 Y141.93279 I13.5849 J7.19759
X27.58714 Y165.07191 I-13.55386 J7.60911
X15.50585 Y140.17207 I0.65854 J-15.70033
X43.24132 Y143.84712 I12.87898 J9.29964
X24.61678 Y165.17928 I-15.01659 J5.68578
X17.06156 Y137.62158 I3.64508 J-15.81386
X44.51817 Y146.56449 I11.31952 J11.86693
X22.21649 Y164.96752 I-16.30401 J2.95666
X18.56438 Y135.72743 I6.05962 J-15.60497
X45.28832 Y149.45908 I9.81087 J13.77681
X18.87074 Y163.81733 I-17.08513 J0.04709
X21.37909 Y133.55244 I9.42489 J-14.45526
X45.55254 Y152.4031 I6.98563 J15.96681
X16.1036 Y162.27739 I-17.35661 J-2.91289
X24.3987 Y132.0303 I12.21036 J-12.91236
X44.90414 Y156.46324 I3.95221 J17.5042
X13.42239 Y159.96064 I-16.71205 J-6.99334
X27.22017 Y131.11979 I14.9076 J-10.58897
X44.34587 Y158.72991 I1.11896 J18.42228
X11.50465 Y157.73587 I-16.15496 J-9.27364
X30.75336 Y130.73523 I16.84012 J-8.35621
X42.29968 Y162.37952 I-2.432 J18.81603
X9.70079 Y154.38586 I-14.10563 J-12.94342
X34.16345 Y130.97063 I18.65753 J-4.99396
X47.77551 Y148.82772 I-5.82368 J18.55589
G0 Z4.
X47.77809 Y148.82763
G1 Z2. F318.2
G03 X8.79855 Y150.09053 I-19.48977 J0.63145 F1273.
X47.77809 Y148.82763 I19.48977 J-0.63145
G1 X46.75128 Y149.09346 Z3.06066 F1909.5
Z3.66066
G0 Z4.
(2 1/2 Axis Profiling - Rough)
(SlotDrill 2mm Carbide)
X21.27435 Y16.09512
G1 Z2.5 F318.2
G03 X22.57436 I0.65 J0. F1273.
X21.27435 I-0.65001 J0.
G1 Z2.
G03 X22.57436 I0.65 J0.
X21.27435 I-0.65001 J0.
G1 Z1.5
G03 X22.57436 I0.65 J0.
X21.27435 I-0.65001 J0.
G1 Z1.
G03 X22.57436 I0.65 J0.
X21.27435 I-0.65001 J0.
G1 Z0.5
G03 X22.57436 I0.65 J0.
X21.27435 I-0.65001 J0.
G1 Z0.
G03 X22.57436 I0.65 J0.
X21.27435 I-0.65001 J0.
G1 Z-0.5
G03 X22.57436 I0.65 J0.
X21.27435 I-0.65001 J0.
G0 Z4.
X23.73235 Y24.26274
G1 Z2.5 F318.2
G03 X32.84428 Y20.65542 I4.55597 J-1.80366 F1273.
X23.73235 Y24.26274 I-4.55596 J1.80366
G1 Z2.
G03 X32.84428 Y20.65542 I4.55597 J-1.80366
X23.73235 Y24.26274 I-4.55596 J1.80366
G1 Z1.5
G03 X32.84428 Y20.65542 I4.55597 J-1.80366
X23.73235 Y24.26274 I-4.55596 J1.80366
G1 Z1.
G03 X32.84428 Y20.65542 I4.55597 J-1.80366
X23.73235 Y24.26274 I-4.55596 J1.80366
G1 Z0.5
G03 X32.84428 Y20.65542 I4.55597 J-1.80366
X23.73235 Y24.26274 I-4.55596 J1.80366
G1 Z0.
G03 X32.84428 Y20.65542 I4.55597 J-1.80366
X23.73235 Y24.26274 I-4.55596 J1.80366
G1 Z-0.5
G03 X32.84428 Y20.65542 I4.55597 J-1.80366
X23.73235 Y24.26274 I-4.55596 J1.80366
G0 Z4.
X21.31999 Y29.0623
G1 Z2.5 F318.2
G03 X22.52872 Y28.58378 I0.60437 J-0.23926 F1273.
X21.31999 Y29.0623 I-0.60436 J0.23926
G1 Z2.
G03 X22.52872 Y28.58378 I0.60437 J-0.23926
X21.31999 Y29.0623 I-0.60436 J0.23926
G1 Z1.5
G03 X22.52872 Y28.58378 I0.60437 J-0.23926
X21.31999 Y29.0623 I-0.60436 J0.23926
G1 Z1.
G03 X22.52872 Y28.58378 I0.60437 J-0.23926
X21.31999 Y29.0623 I-0.60436 J0.23926
G1 Z0.5
G03 X22.52872 Y28.58378 I0.60437 J-0.23926
X21.31999 Y29.0623 I-0.60436 J0.23926
G1 Z0.
G03 X22.52872 Y28.58378 I0.60437 J-0.23926
X21.31999 Y29.0623 I-0.60436 J0.23926
G1 Z-0.5
G03 X22.52872 Y28.58378 I0.60437 J-0.23926
X21.31999 Y29.0623 I-0.60436 J0.23926
G0 Z4.
X34.05429 Y29.03037
G1 Z2.5 F318.2
G03 X34.26489 Y29.35099 I0.61819 J-0.17658 F1273.
G1 X34.05429 Y29.03037
Z2.
G03 X34.26489 Y29.35099 I0.61819 J-0.17658
G1 X34.05429 Y29.03037
Z1.5
G03 X34.26489 Y29.35099 I0.61819 J-0.17658
G1 X34.05429 Y29.03037
Z1.
G03 X34.26489 Y29.35099 I0.61819 J-0.17658
G1 X34.05429 Y29.03037
Z0.5
G03 X34.26489 Y29.35099 I0.61819 J-0.17658
G1 X34.05429 Y29.03037
Z0.
G03 X34.26489 Y29.35099 I0.61819 J-0.17658
G1 X34.05429 Y29.03037
Z-0.5
G03 X34.26489 Y29.35099 I0.61819 J-0.17658
G1 X34.05429 Y29.03037
G0 Z4.
X34.00228 Y16.09512
G1 Z2.5 F318.2
G03 X35.30228 I0.65 J0. F1273.
X34.00228 I-0.65 J0.
G1 Z2.
G03 X35.30228 I0.65 J0.
X34.00228 I-0.65 J0.
G1 Z1.5
G03 X35.30228 I0.65 J0.
X34.00228 I-0.65 J0.
G1 Z1.
G03 X35.30228 I0.65 J0.
X34.00228 I-0.65 J0.
G1 Z0.5
G03 X35.30228 I0.65 J0.
X34.00228 I-0.65 J0.
G1 Z0.
G03 X35.30228 I0.65 J0.
X34.00228 I-0.65 J0.
G1 Z-0.5
G03 X35.30228 I0.65 J0.
X34.00228 I-0.65 J0.
G0 Z4.
X27.86991 Y48.62472
G1 Z2.5 F318.2
G03 X28.70672 Y48.29344 I0.41841 J-0.16564 F1273.
X27.86991 Y48.62472 I-0.4184 J0.16564
G1 Z2.
G03 X28.70672 Y48.29344 I0.41841 J-0.16564
X27.86991 Y48.62472 I-0.4184 J0.16564
G1 Z1.5
G03 X28.70672 Y48.29344 I0.41841 J-0.16564
X27.86991 Y48.62472 I-0.4184 J0.16564
G1 Z1.
G03 X28.70672 Y48.29344 I0.41841 J-0.16564
X27.86991 Y48.62472 I-0.4184 J0.16564
G1 Z0.5
G03 X28.70672 Y48.29344 I0.41841 J-0.16564
X27.86991 Y48.62472 I-0.4184 J0.16564
G1 Z0.
G03 X28.70672 Y48.29344 I0.41841 J-0.16564
X27.86991 Y48.62472 I-0.4184 J0.16564
G1 Z-0.5
G03 X28.70672 Y48.29344 I0.41841 J-0.16564
X27.86991 Y48.62472 I-0.4184 J0.16564
G0 Z4.
X33.38831 Y59.35976
G1 Z2.5 F318.2
Y40.82658 F1273.
G03 X38.11614 Y44.52196 I0.76973 J3.88727
G1 X38.57573 Y55.64658
G03 X33.38831 Y59.35976 I-3.96743 J-0.06253
G1 Z2.
Y40.82658
G03 X38.11614 Y44.52196 I0.76973 J3.88727
G1 X38.57573 Y55.64658
G03 X33.38831 Y59.35976 I-3.96743 J-0.06253
G1 Z1.5
Y40.82658
G03 X38.11614 Y44.52196 I0.76973 J3.88727
G1 X38.57573 Y55.64658
G03 X33.38831 Y59.35976 I-3.96743 J-0.06253
G1 Z1.
Y40.82658
G03 X38.11614 Y44.52196 I0.76973 J3.88727
G1 X38.57573 Y55.64658
G03 X33.38831 Y59.35976 I-3.96743 J-0.06253
G1 Z0.5
Y40.82658
G03 X38.11614 Y44.52196 I0.76973 J3.88727
G1 X38.57573 Y55.64658
G03 X33.38831 Y59.35976 I-3.96743 J-0.06253
G1 Z0.
Y40.82658
G03 X38.11614 Y44.52196 I0.76973 J3.88727
G1 X38.57573 Y55.64658
G03 X33.38831 Y59.35976 I-3.96743 J-0.06253
G1 Z-0.5
Y40.82658
G03 X38.11614 Y44.52196 I0.76973 J3.88727
G1 X38.57573 Y55.64658
G03 X33.38831 Y59.35976 I-3.96743 J-0.06253
G0 Z4.
X18.47482 Y57.49236
G1 Z2.5 F318.2
X18.11805 Y56.54667 F1273.
X18.00333 Y55.58771
X18.4605 Y44.52196
G03 X23.18832 Y40.82658 I3.95809 J0.19189
G1 Y59.35367
G03 X18.47482 Y57.49236 I-1.20906 J-3.83702
G1 Z2.
X18.11805 Y56.54667
X18.00333 Y55.58771
X18.4605 Y44.52196
G03 X23.18832 Y40.82658 I3.95809 J0.19189
G1 Y59.35367
G03 X18.47482 Y57.49236 I-1.20906 J-3.83702
G1 Z1.5
X18.11805 Y56.54667
X18.00333 Y55.58771
X18.4605 Y44.52196
G03 X23.18832 Y40.82658 I3.95809 J0.19189
G1 Y59.35367
G03 X18.47482 Y57.49236 I-1.20906 J-3.83702
G1 Z1.
X18.11805 Y56.54667
X18.00333 Y55.58771
X18.4605 Y44.52196
G03 X23.18832 Y40.82658 I3.95809 J0.19189
G1 Y59.35367
G03 X18.47482 Y57.49236 I-1.20906 J-3.83702
G1 Z0.5
X18.11805 Y56.54667
X18.00333 Y55.58771
X18.4605 Y44.52196
G03 X23.18832 Y40.82658 I3.95809 J0.19189
G1 Y59.35367
G03 X18.47482 Y57.49236 I-1.20906 J-3.83702
G1 Z0.
X18.11805 Y56.54667
X18.00333 Y55.58771
X18.4605 Y44.52196
G03 X23.18832 Y40.82658 I3.95809 J0.19189
G1 Y59.35367
G03 X18.47482 Y57.49236 I-1.20906 J-3.83702
G1 Z-0.5
X18.11805 Y56.54667
X18.00333 Y55.58771
X18.4605 Y44.52196
G03 X23.18832 Y40.82658 I3.95809 J0.19189
G1 Y59.35367
G03 X18.47482 Y57.49236 I-1.20906 J-3.83702
G0 Z4.
X26.52172 Y73.15846
G1 Z2.5 F318.2
G03 X30.05491 Y71.7597 I1.7666 J-0.69938 F1273.
X26.52172 Y73.15846 I-1.76659 J0.69938
G1 Z2.
G03 X30.05491 Y71.7597 I1.7666 J-0.69938
X26.52172 Y73.15846 I-1.76659 J0.69938
G1 Z1.5
G03 X30.05491 Y71.7597 I1.7666 J-0.69938
X26.52172 Y73.15846 I-1.76659 J0.69938
G1 Z1.
G03 X30.05491 Y71.7597 I1.7666 J-0.69938
X26.52172 Y73.15846 I-1.76659 J0.69938
G1 Z0.5
G03 X30.05491 Y71.7597 I1.7666 J-0.69938
X26.52172 Y73.15846 I-1.76659 J0.69938
G1 Z0.
G03 X30.05491 Y71.7597 I1.7666 J-0.69938
X26.52172 Y73.15846 I-1.76659 J0.69938
G1 Z-0.5
G03 X30.05491 Y71.7597 I1.7666 J-0.69938
X26.52172 Y73.15846 I-1.76659 J0.69938
G0 Z4.
X15.98398 Y105.89457
G1 Z2.5 F318.2
X15.93676 Y105.0391 F1273.
X16.62483 Y88.53965
G03 X22.20892 Y85.18114 I3.92279 J0.20081
G02 X34.36772 I6.0794 J-12.72201
G03 X39.9518 Y88.53952 I1.66129 J3.55932
G1 X40.64542 Y105.27621
G03 X38.51737 Y108.72909 I-3.89993 J-0.02137
G02 X31.83267 Y112.57255 I4.92211 J16.29558
G03 X29.84814 Y113.11522 I-1.98456 J-3.35743
G1 X26.72849
G03 X24.08728 Y112.08472 I0.00002 J-3.90005
G1 X24.07469 Y112.07331
G02 X18.05578 Y108.72731 I-10.45025 J11.71176
G03 X15.98398 Y105.89457 I1.77535 J-3.47246
G1 Z2.
X15.93676 Y105.0391
X16.62483 Y88.53965
G03 X22.20892 Y85.18114 I3.92279 J0.20081
G02 X34.36772 I6.0794 J-12.72201
G03 X39.9518 Y88.53952 I1.66129 J3.55932
G1 X40.64542 Y105.27621
G03 X38.51737 Y108.72909 I-3.89993 J-0.02137
G02 X31.83267 Y112.57255 I4.92211 J16.29558
G03 X29.84814 Y113.11522 I-1.98456 J-3.35743
G1 X26.72849
G03 X24.08728 Y112.08472 I0.00002 J-3.90005
G1 X24.07469 Y112.07331
G02 X18.05578 Y108.72731 I-10.45025 J11.71176
G03 X15.98398 Y105.89457 I1.77535 J-3.47246
G1 Z1.5
X15.93676 Y105.0391
X16.62483 Y88.53965
G03 X22.20892 Y85.18114 I3.92279 J0.20081
G02 X34.36772 I6.0794 J-12.72201
G03 X39.9518 Y88.53952 I1.66129 J3.55932
G1 X40.64542 Y105.27621
G03 X38.51737 Y108.72909 I-3.89993 J-0.02137
G02 X31.83267 Y112.57255 I4.92211 J16.29558
G03 X29.84814 Y113.11522 I-1.98456 J-3.35743
G1 X26.72849
G03 X24.08728 Y112.08472 I0.00002 J-3.90005
G1 X24.07469 Y112.07331
G02 X18.05578 Y108.72731 I-10.45025 J11.71176
G03 X15.98398 Y105.89457 I1.77535 J-3.47246
G1 Z1.
X15.93676 Y105.0391
X16.62483 Y88.53965
G03 X22.20892 Y85.18114 I3.92279 J0.20081
G02 X34.36772 I6.0794 J-12.72201
G03 X39.9518 Y88.53952 I1.66129 J3.55932
G1 X40.64542 Y105.27621
G03 X38.51737 Y108.72909 I-3.89993 J-0.02137
G02 X31.83267 Y112.57255 I4.92211 J16.29558
G03 X29.84814 Y113.11522 I-1.98456 J-3.35743
G1 X26.72849
G03 X24.08728 Y112.08472 I0.00002 J-3.90005
G1 X24.07469 Y112.07331
G02 X18.05578 Y108.72731 I-10.45025 J11.71176
G03 X15.98398 Y105.89457 I1.77535 J-3.47246
G1 Z0.5
X15.93676 Y105.0391
X16.62483 Y88.53965
G03 X22.20892 Y85.18114 I3.92279 J0.20081
G02 X34.36772 I6.0794 J-12.72201
G03 X39.9518 Y88.53952 I1.66129 J3.55932
G1 X40.64542 Y105.27621
G03 X38.51737 Y108.72909 I-3.89993 J-0.02137
G02 X31.83267 Y112.57255 I4.92211 J16.29558
G03 X29.84814 Y113.11522 I-1.98456 J-3.35743
G1 X26.72849
G03 X24.08728 Y112.08472 I0.00002 J-3.90005
G1 X24.07469 Y112.07331
G02 X18.05578 Y108.72731 I-10.45025 J11.71176
G03 X15.98398 Y105.89457 I1.77535 J-3.47246
G1 Z0.
X15.93676 Y105.0391
X16.62483 Y88.53965
G03 X22.20892 Y85.18114 I3.92279 J0.20081
G02 X34.36772 I6.0794 J-12.72201
G03 X39.9518 Y88.53952 I1.66129 J3.55932
G1 X40.64542 Y105.27621
G03 X38.51737 Y108.72909 I-3.89993 J-0.02137
G02 X31.83267 Y112.57255 I4.92211 J16.29558
G03 X29.84814 Y113.11522 I-1.98456 J-3.35743
G1 X26.72849
G03 X24.08728 Y112.08472 I0.00002 J-3.90005
G1 X24.07469 Y112.07331
G02 X18.05578 Y108.72731 I-10.45025 J11.71176
G03 X15.98398 Y105.89457 I1.77535 J-3.47246
G1 Z-0.5
X15.93676 Y105.0391
X16.62483 Y88.53965
G03 X22.20892 Y85.18114 I3.92279 J0.20081
G02 X34.36772 I6.0794 J-12.72201
G03 X39.9518 Y88.53952 I1.66129 J3.55932
G1 X40.64542 Y105.27621
G03 X38.51737 Y108.72909 I-3.89993 J-0.02137
G02 X31.83267 Y112.57255 I4.92211 J16.29558
G03 X29.84814 Y113.11522 I-1.98456 J-3.35743
G1 X26.72849
G03 X24.08728 Y112.08472 I0.00002 J-3.90005
G1 X24.07469 Y112.07331
G02 X18.05578 Y108.72731 I-10.45025 J11.71176
G03 X15.98398 Y105.89457 I1.77535 J-3.47246
G0 Z4.
X12.77172 Y123.15846
G1 Z2.5 F318.2
G03 X16.30491 Y121.7597 I1.7666 J-0.69938 F1273.
X12.77172 Y123.15846 I-1.76659 J0.69938
G1 Z2.
G03 X16.30491 Y121.7597 I1.7666 J-0.69938
X12.77172 Y123.15846 I-1.76659 J0.69938
G1 Z1.5
G03 X16.30491 Y121.7597 I1.7666 J-0.69938
X12.77172 Y123.15846 I-1.76659 J0.69938
G1 Z1.
G03 X16.30491 Y121.7597 I1.7666 J-0.69938
X12.77172 Y123.15846 I-1.76659 J0.69938
G1 Z0.5
G03 X16.30491 Y121.7597 I1.7666 J-0.69938
X12.77172 Y123.15846 I-1.76659 J0.69938
G1 Z0.
G03 X16.30491 Y121.7597 I1.7666 J-0.69938
X12.77172 Y123.15846 I-1.76659 J0.69938
G1 Z-0.5
G03 X16.30491 Y121.7597 I1.7666 J-0.69938
X12.77172 Y123.15846 I-1.76659 J0.69938
G0 Z4.
X20.89187 Y136.38923
G1 Z2.5 F318.2
G03 X20.18476 Y135.68213 I-0.35355 J-0.35355 F1273.
X20.89187 Y136.38923 I0.35356 J0.35355
G1 Z2.
G03 X20.18476 Y135.68213 I-0.35355 J-0.35355
X20.89187 Y136.38923 I0.35356 J0.35355
G1 Z1.5
G03 X20.18476 Y135.68213 I-0.35355 J-0.35355
X20.89187 Y136.38923 I0.35356 J0.35355
G1 Z1.
G03 X20.18476 Y135.68213 I-0.35355 J-0.35355
X20.89187 Y136.38923 I0.35356 J0.35355
G1 Z0.5
G03 X20.18476 Y135.68213 I-0.35355 J-0.35355
X20.89187 Y136.38923 I0.35356 J0.35355
G1 Z0.
G03 X20.18476 Y135.68213 I-0.35355 J-0.35355
X20.89187 Y136.38923 I0.35356 J0.35355
G1 Z-0.5
G03 X20.18476 Y135.68213 I-0.35355 J-0.35355
X20.89187 Y136.38923 I0.35356 J0.35355
G0 Z4.
X24.45028 Y145.45639
G1 Z2.5 F318.2
X24.44502 Y145.44942 F1273.
G03 X27.40466 Y147.27878 I3.88595 J-2.97807
G1 X27.3875 Y147.27562
G03 X24.45553 Y145.46335 I0.80836 J-4.58569
G1 X24.45028 Y145.45639
Z2.
X24.44502 Y145.44942
G03 X27.40466 Y147.27878 I3.88595 J-2.97807
G1 X27.3875 Y147.27562
G03 X24.45553 Y145.46335 I0.80836 J-4.58569
G1 X24.45028 Y145.45639
Z1.5
X24.44502 Y145.44942
G03 X27.40466 Y147.27878 I3.88595 J-2.97807
G1 X27.3875 Y147.27562
G03 X24.45553 Y145.46335 I0.80836 J-4.58569
G1 X24.45028 Y145.45639
Z1.
X24.44502 Y145.44942
G03 X27.40466 Y147.27878 I3.88595 J-2.97807
G1 X27.3875 Y147.27562
G03 X24.45553 Y145.46335 I0.80836 J-4.58569
G1 X24.45028 Y145.45639
Z0.5
X24.44502 Y145.44942
G03 X27.40466 Y147.27878 I3.88595 J-2.97807
G1 X27.3875 Y147.27562
G03 X24.45553 Y145.46335 I0.80836 J-4.58569
G1 X24.45028 Y145.45639
Z0.
X24.44502 Y145.44942
G03 X27.40466 Y147.27878 I3.88595 J-2.97807
G1 X27.3875 Y147.27562
G03 X24.45553 Y145.46335 I0.80836 J-4.58569
G1 X24.45028 Y145.45639
Z-0.5
X24.44502 Y145.44942
G03 X27.40466 Y147.27878 I3.88595 J-2.97807
G1 X27.3875 Y147.27562
G03 X24.45553 Y145.46335 I0.80836 J-4.58569
G1 X24.45028 Y145.45639
G0 Z4.
X12.31793 Y149.62952
G1 Z2.5 F318.2
G03 X13.226 Y149.25594 I0.45404 J-0.18679 F1273.
X12.31793 Y149.62952 I-0.45403 J0.18679
G1 Z2.
G03 X13.226 Y149.25594 I0.45404 J-0.18679
X12.31793 Y149.62952 I-0.45403 J0.18679
G1 Z1.5
G03 X13.226 Y149.25594 I0.45404 J-0.18679
X12.31793 Y149.62952 I-0.45403 J0.18679
G1 Z1.
G03 X13.226 Y149.25594 I0.45404 J-0.18679
X12.31793 Y149.62952 I-0.45403 J0.18679
G1 Z0.5
G03 X13.226 Y149.25594 I0.45404 J-0.18679
X12.31793 Y149.62952 I-0.45403 J0.18679
G1 Z0.
G03 X13.226 Y149.25594 I0.45404 J-0.18679
X12.31793 Y149.62952 I-0.45403 J0.18679
G1 Z-0.5
G03 X13.226 Y149.25594 I0.45404 J-0.18679
X12.31793 Y149.62952 I-0.45403 J0.18679
G0 Z4.
X20.07342 Y163.06652
G1 Z2.5 F318.2
G03 X21.00321 Y162.69842 I0.4649 J-0.18405 F1273.
X20.07342 Y163.06652 I-0.46489 J0.18405
G1 Z2.
G03 X21.00321 Y162.69842 I0.4649 J-0.18405
X20.07342 Y163.06652 I-0.46489 J0.18405
G1 Z1.5
G03 X21.00321 Y162.69842 I0.4649 J-0.18405
X20.07342 Y163.06652 I-0.46489 J0.18405
G1 Z1.
G03 X21.00321 Y162.69842 I0.4649 J-0.18405
X20.07342 Y163.06652 I-0.46489 J0.18405
G1 Z0.5
G03 X21.00321 Y162.69842 I0.4649 J-0.18405
X20.07342 Y163.06652 I-0.46489 J0.18405
G1 Z0.
G03 X21.00321 Y162.69842 I0.4649 J-0.18405
X20.07342 Y163.06652 I-0.46489 J0.18405
G1 Z-0.5
G03 X21.00321 Y162.69842 I0.4649 J-0.18405
X20.07342 Y163.06652 I-0.46489 J0.18405
G0 Z4.
X35.53832 Y162.88247
G1 Z2.5 F318.2
G03 X36.53832 I0.5 J0. F1273.
X35.53832 I-0.5 J0.
G1 Z2.
G03 X36.53832 I0.5 J0.
X35.53832 I-0.5 J0.
G1 Z1.5
G03 X36.53832 I0.5 J0.
X35.53832 I-0.5 J0.
G1 Z1.
G03 X36.53832 I0.5 J0.
X35.53832 I-0.5 J0.
G1 Z0.5
G03 X36.53832 I0.5 J0.
X35.53832 I-0.5 J0.
G1 Z0.
G03 X36.53832 I0.5 J0.
X35.53832 I-0.5 J0.
G1 Z-0.5
G03 X36.53832 I0.5 J0.
X35.53832 I-0.5 J0.
G0 Z4.
X43.29977 Y149.56549
G1 Z2.5 F318.2
G03 X43.49663 Y149.86519 I0.48855 J-0.1064 F1273.
G1 X43.29977 Y149.56549
Z2.
G03 X43.49663 Y149.86519 I0.48855 J-0.1064
G1 X43.29977 Y149.56549
Z1.5
G03 X43.49663 Y149.86519 I0.48855 J-0.1064
G1 X43.29977 Y149.56549
Z1.
G03 X43.49663 Y149.86519 I0.48855 J-0.1064
G1 X43.29977 Y149.56549
Z0.5
G03 X43.49663 Y149.86519 I0.48855 J-0.1064
G1 X43.29977 Y149.56549
Z0.
G03 X43.49663 Y149.86519 I0.48855 J-0.1064
G1 X43.29977 Y149.56549
Z-0.5
G03 X43.49663 Y149.86519 I0.48855 J-0.1064
G1 X43.29977 Y149.56549
G0 Z4.
X36.50321 Y136.21973
G1 Z2.5 F318.2
G03 X35.57342 Y135.85164 I-0.46489 J-0.18405 F1273.
X36.50321 Y136.21973 I0.4649 J0.18404
G1 Z2.
G03 X35.57342 Y135.85164 I-0.46489 J-0.18405
X36.50321 Y136.21973 I0.4649 J0.18404
G1 Z1.5
G03 X35.57342 Y135.85164 I-0.46489 J-0.18405
X36.50321 Y136.21973 I0.4649 J0.18404
G1 Z1.
G03 X35.57342 Y135.85164 I-0.46489 J-0.18405
X36.50321 Y136.21973 I0.4649 J0.18404
G1 Z0.5
G03 X35.57342 Y135.85164 I-0.46489 J-0.18405
X36.50321 Y136.21973 I0.4649 J0.18404
G1 Z0.
G03 X35.57342 Y135.85164 I-0.46489 J-0.18405
X36.50321 Y136.21973 I0.4649 J0.18404
G1 Z-0.5
G03 X35.57342 Y135.85164 I-0.46489 J-0.18405
X36.50321 Y136.21973 I0.4649 J0.18404
G0 Z4.
X40.44802 Y123.49878
G1 Z2.5 F318.2
G03 X43.62861 Y121.41939 I1.5903 J-1.0397 F1273.
X40.44802 Y123.49878 I-1.59029 J1.03969
G1 Z2.
G03 X43.62861 Y121.41939 I1.5903 J-1.0397
X40.44802 Y123.49878 I-1.59029 J1.03969
G1 Z1.5
G03 X43.62861 Y121.41939 I1.5903 J-1.0397
X40.44802 Y123.49878 I-1.59029 J1.03969
G1 Z1.
G03 X43.62861 Y121.41939 I1.5903 J-1.0397
X40.44802 Y123.49878 I-1.59029 J1.03969
G1 Z0.5
G03 X43.62861 Y121.41939 I1.5903 J-1.0397
X40.44802 Y123.49878 I-1.59029 J1.03969
G1 Z0.
G03 X43.62861 Y121.41939 I1.5903 J-1.0397
X40.44802 Y123.49878 I-1.59029 J1.03969
G1 Z-0.5
G03 X43.62861 Y121.41939 I1.5903 J-1.0397
X40.44802 Y123.49878 I-1.59029 J1.03969
G0 Z4.
X72.07667 Y107.6163
G1 Z2.5 F318.2
G03 X74.04776 Y104.37376 I0.98555 J-1.62127 F1273.
X72.07667 Y107.6163 I-0.98554 J1.62127
G1 Z2.
G03 X74.04776 Y104.37376 I0.98555 J-1.62127
X72.07667 Y107.6163 I-0.98554 J1.62127
G1 Z1.5
G03 X74.04776 Y104.37376 I0.98555 J-1.62127
X72.07667 Y107.6163 I-0.98554 J1.62127
G1 Z1.
G03 X74.04776 Y104.37376 I0.98555 J-1.62127
X72.07667 Y107.6163 I-0.98554 J1.62127
G1 Z0.5
G03 X74.04776 Y104.37376 I0.98555 J-1.62127
X72.07667 Y107.6163 I-0.98554 J1.62127
G1 Z0.
G03 X74.04776 Y104.37376 I0.98555 J-1.62127
X72.07667 Y107.6163 I-0.98554 J1.62127
G1 Z-0.5
G03 X74.04776 Y104.37376 I0.98555 J-1.62127
X72.07667 Y107.6163 I-0.98554 J1.62127
G0 Z4.
X78.20517 Y93.76074
G1 Z2.5 F318.2
G03 X79.41389 Y94.23926 I0.60436 J0.23926 F1273.
X78.20517 Y93.76074 I-0.60436 J-0.23926
G1 Z2.
G03 X79.41389 Y94.23926 I0.60436 J0.23926
X78.20517 Y93.76074 I-0.60436 J-0.23926
G1 Z1.5
G03 X79.41389 Y94.23926 I0.60436 J0.23926
X78.20517 Y93.76074 I-0.60436 J-0.23926
G1 Z1.
G03 X79.41389 Y94.23926 I0.60436 J0.23926
X78.20517 Y93.76074 I-0.60436 J-0.23926
G1 Z0.5
G03 X79.41389 Y94.23926 I0.60436 J0.23926
X78.20517 Y93.76074 I-0.60436 J-0.23926
G1 Z0.
G03 X79.41389 Y94.23926 I0.60436 J0.23926
X78.20517 Y93.76074 I-0.60436 J-0.23926
G1 Z-0.5
G03 X79.41389 Y94.23926 I0.60436 J0.23926
X78.20517 Y93.76074 I-0.60436 J-0.23926
G0 Z4.
X82.6376 Y81.82807
G1 Z2.5 F318.2
G03 X90.98146 Y90.17192 I4.17193 J4.17193 F1273.
X82.6376 Y81.82807 I-4.17193 J-4.17192
G1 Z2.
G03 X90.98146 Y90.17192 I4.17193 J4.17193
X82.6376 Y81.82807 I-4.17193 J-4.17192
G1 Z1.5
G03 X90.98146 Y90.17192 I4.17193 J4.17193
X82.6376 Y81.82807 I-4.17193 J-4.17192
G1 Z1.
G03 X90.98146 Y90.17192 I4.17193 J4.17193
X82.6376 Y81.82807 I-4.17193 J-4.17192
G1 Z0.5
G03 X90.98146 Y90.17192 I4.17193 J4.17193
X82.6376 Y81.82807 I-4.17193 J-4.17192
G1 Z0.
G03 X90.98146 Y90.17192 I4.17193 J4.17193
X82.6376 Y81.82807 I-4.17193 J-4.17192
G1 Z-0.5
G03 X90.98146 Y90.17192 I4.17193 J4.17193
X82.6376 Y81.82807 I-4.17193 J-4.17192
G0 Z4.
X78.15953 Y78.
G1 Z2.5 F318.2
G03 X79.45953 I0.65 J0. F1273.
X78.15953 I-0.65 J0.
G1 Z2.
G03 X79.45953 I0.65 J0.
X78.15953 I-0.65 J0.
G1 Z1.5
G03 X79.45953 I0.65 J0.
X78.15953 I-0.65 J0.
G1 Z1.
G03 X79.45953 I0.65 J0.
X78.15953 I-0.65 J0.
G1 Z0.5
G03 X79.45953 I0.65 J0.
X78.15953 I-0.65 J0.
G1 Z0.
G03 X79.45953 I0.65 J0.
X78.15953 I-0.65 J0.
G1 Z-0.5
G03 X79.45953 I0.65 J0.
X78.15953 I-0.65 J0.
G0 Z4.
X95.44011 Y77.84228
G1 Z2.5 F318.2
G03 X95.20473 Y77.48394 I-0.63058 J0.15773 F1273.
G1 X95.44011 Y77.84228
Z2.
G03 X95.20473 Y77.48394 I-0.63058 J0.15773
G1 X95.44011 Y77.84228
Z1.5
G03 X95.20473 Y77.48394 I-0.63058 J0.15773
G1 X95.44011 Y77.84228
Z1.
G03 X95.20473 Y77.48394 I-0.63058 J0.15773
G1 X95.44011 Y77.84228
Z0.5
G03 X95.20473 Y77.48394 I-0.63058 J0.15773
G1 X95.44011 Y77.84228
Z0.
G03 X95.20473 Y77.48394 I-0.63058 J0.15773
G1 X95.44011 Y77.84228
Z-0.5
G03 X95.20473 Y77.48394 I-0.63058 J0.15773
G1 X95.44011 Y77.84228
G0 Z4.
X94.80953 Y93.35
G1 Z2.5 F318.2
G03 Y94.65 I0. J0.65 F1273.
Y93.35 I0. J-0.65
G1 Z2.
G03 Y94.65 I0. J0.65
Y93.35 I0. J-0.65
G1 Z1.5
G03 Y94.65 I0. J0.65
Y93.35 I0. J-0.65
G1 Z1.
G03 Y94.65 I0. J0.65
Y93.35 I0. J-0.65
G1 Z0.5
G03 Y94.65 I0. J0.65
Y93.35 I0. J-0.65
G1 Z0.
G03 Y94.65 I0. J0.65
Y93.35 I0. J-0.65
G1 Z-0.5
G03 Y94.65 I0. J0.65
Y93.35 I0. J-0.65
G0 Z4.
X100.90526 Y107.86828
G1 Z2.5 F318.2
G03 X100.2138 Y104.13172 I-0.34573 J-1.86828 F1273.
X100.90526 Y107.86828 I0.34573 J1.86828
G1 Z2.
G03 X100.2138 Y104.13172 I-0.34573 J-1.86828
X100.90526 Y107.86828 I0.34573 J1.86828
G1 Z1.5
G03 X100.2138 Y104.13172 I-0.34573 J-1.86828
X100.90526 Y107.86828 I0.34573 J1.86828
G1 Z1.
G03 X100.2138 Y104.13172 I-0.34573 J-1.86828
X100.90526 Y107.86828 I0.34573 J1.86828
G1 Z0.5
G03 X100.2138 Y104.13172 I-0.34573 J-1.86828
X100.90526 Y107.86828 I0.34573 J1.86828
G1 Z0.
G03 X100.2138 Y104.13172 I-0.34573 J-1.86828
X100.90526 Y107.86828 I0.34573 J1.86828
G1 Z-0.5
G03 X100.2138 Y104.13172 I-0.34573 J-1.86828
X100.90526 Y107.86828 I0.34573 J1.86828
G0 Z4.
X77.74846 Y143.41813
G1 Z2.5 F318.2
X77.73165 Y143.4121 F1273.
G03 X75.14652 Y139.9313 I1.23243 J-3.61568
G1 X74.45258 Y123.18678
G03 X77.60959 Y119.32447 I4.00473 J0.05202
G1 X77.76898 Y119.2771
G02 X83.2609 Y115.88906 I-6.14965 J-16.11358
G03 X85.2497 Y115.34386 I1.98878 J3.3547
G1 X88.36936
G03 X91.01056 Y116.37435 I0.00001 J3.89997
G1 X91.01847 Y116.38156
G02 X97.04463 Y119.73308 I10.27784 J-11.38657
G03 X99.16331 Y123.36674 I-1.77797 J3.47119
G1 X98.47282 Y139.9243
G03 X92.89342 Y143.28008 I-3.89662 J-0.1625
G02 X80.72564 I-6.08389 J12.71994
G1 X80.71637 Y143.28457
G03 X77.76526 Y143.42416 I-1.63693 J-3.34165
G1 X77.74846 Y143.41813
Z2.
X77.73165 Y143.4121
G03 X75.14652 Y139.9313 I1.23243 J-3.61568
G1 X74.45258 Y123.18678
G03 X77.60959 Y119.32447 I4.00473 J0.05202
G1 X77.76898 Y119.2771
G02 X83.2609 Y115.88906 I-6.14965 J-16.11358
G03 X85.2497 Y115.34386 I1.98878 J3.3547
G1 X88.36936
G03 X91.01056 Y116.37435 I0.00001 J3.89997
G1 X91.01847 Y116.38156
G02 X97.04463 Y119.73308 I10.27784 J-11.38657
G03 X99.16331 Y123.36674 I-1.77797 J3.47119
G1 X98.47282 Y139.9243
G03 X92.89342 Y143.28008 I-3.89662 J-0.1625
G02 X80.72564 I-6.08389 J12.71994
G1 X80.71637 Y143.28457
G03 X77.76526 Y143.42416 I-1.63693 J-3.34165
G1 X77.74846 Y143.41813
Z1.5
X77.73165 Y143.4121
G03 X75.14652 Y139.9313 I1.23243 J-3.61568
G1 X74.45258 Y123.18678
G03 X77.60959 Y119.32447 I4.00473 J0.05202
G1 X77.76898 Y119.2771
G02 X83.2609 Y115.88906 I-6.14965 J-16.11358
G03 X85.2497 Y115.34386 I1.98878 J3.3547
G1 X88.36936
G03 X91.01056 Y116.37435 I0.00001 J3.89997
G1 X91.01847 Y116.38156
G02 X97.04463 Y119.73308 I10.27784 J-11.38657
G03 X99.16331 Y123.36674 I-1.77797 J3.47119
G1 X98.47282 Y139.9243
G03 X92.89342 Y143.28008 I-3.89662 J-0.1625
G02 X80.72564 I-6.08389 J12.71994
G1 X80.71637 Y143.28457
G03 X77.76526 Y143.42416 I-1.63693 J-3.34165
G1 X77.74846 Y143.41813
Z1.
X77.73165 Y143.4121
G03 X75.14652 Y139.9313 I1.23243 J-3.61568
G1 X74.45258 Y123.18678
G03 X77.60959 Y119.32447 I4.00473 J0.05202
G1 X77.76898 Y119.2771
G02 X83.2609 Y115.88906 I-6.14965 J-16.11358
G03 X85.2497 Y115.34386 I1.98878 J3.3547
G1 X88.36936
G03 X91.01056 Y116.37435 I0.00001 J3.89997
G1 X91.01847 Y116.38156
G02 X97.04463 Y119.73308 I10.27784 J-11.38657
G03 X99.16331 Y123.36674 I-1.77797 J3.47119
G1 X98.47282 Y139.9243
G03 X92.89342 Y143.28008 I-3.89662 J-0.1625
G02 X80.72564 I-6.08389 J12.71994
G1 X80.71637 Y143.28457
G03 X77.76526 Y143.42416 I-1.63693 J-3.34165
G1 X77.74846 Y143.41813
Z0.5
X77.73165 Y143.4121
G03 X75.14652 Y139.9313 I1.23243 J-3.61568
G1 X74.45258 Y123.18678
G03 X77.60959 Y119.32447 I4.00473 J0.05202
G1 X77.76898 Y119.2771
G02 X83.2609 Y115.88906 I-6.14965 J-16.11358
G03 X85.2497 Y115.34386 I1.98878 J3.3547
G1 X88.36936
G03 X91.01056 Y116.37435 I0.00001 J3.89997
G1 X91.01847 Y116.38156
G02 X97.04463 Y119.73308 I10.27784 J-11.38657
G03 X99.16331 Y123.36674 I-1.77797 J3.47119
G1 X98.47282 Y139.9243
G03 X92.89342 Y143.28008 I-3.89662 J-0.1625
G02 X80.72564 I-6.08389 J12.71994
G1 X80.71637 Y143.28457
G03 X77.76526 Y143.42416 I-1.63693 J-3.34165
G1 X77.74846 Y143.41813
Z0.
X77.73165 Y143.4121
G03 X75.14652 Y139.9313 I1.23243 J-3.61568
G1 X74.45258 Y123.18678
G03 X77.60959 Y119.32447 I4.00473 J0.05202
G1 X77.76898 Y119.2771
G02 X83.2609 Y115.88906 I-6.14965 J-16.11358
G03 X85.2497 Y115.34386 I1.98878 J3.3547
G1 X88.36936
G03 X91.01056 Y116.37435 I0.00001 J3.89997
G1 X91.01847 Y116.38156
G02 X97.04463 Y119.73308 I10.27784 J-11.38657
G03 X99.16331 Y123.36674 I-1.77797 J3.47119
G1 X98.47282 Y139.9243
G03 X92.89342 Y143.28008 I-3.89662 J-0.1625
G02 X80.72564 I-6.08389 J12.71994
G1 X80.71637 Y143.28457
G03 X77.76526 Y143.42416 I-1.63693 J-3.34165
G1 X77.74846 Y143.41813
Z-0.5
X77.73165 Y143.4121
G03 X75.14652 Y139.9313 I1.23243 J-3.61568
G1 X74.45258 Y123.18678
G03 X77.60959 Y119.32447 I4.00473 J0.05202
G1 X77.76898 Y119.2771
G02 X83.2609 Y115.88906 I-6.14965 J-16.11358
G03 X85.2497 Y115.34386 I1.98878 J3.3547
G1 X88.36936
G03 X91.01056 Y116.37435 I0.00001 J3.89997
G1 X91.01847 Y116.38156
G02 X97.04463 Y119.73308 I10.27784 J-11.38657
G03 X99.16331 Y123.36674 I-1.77797 J3.47119
G1 X98.47282 Y139.9243
G03 X92.89342 Y143.28008 I-3.89662 J-0.1625
G02 X80.72564 I-6.08389 J12.71994
G1 X80.71637 Y143.28457
G03 X77.76526 Y143.42416 I-1.63693 J-3.34165
G1 X77.74846 Y143.41813
G0 Z4.
X84.94125 Y156.34572
G1 Z2.5 F318.2
G03 X88.67781 Y155.65427 I1.86828 J-0.34572 F1273.
X84.94125 Y156.34572 I-1.86828 J0.34573
G1 Z2.
G03 X88.67781 Y155.65427 I1.86828 J-0.34572
X84.94125 Y156.34572 I-1.86828 J0.34573
G1 Z1.5
G03 X88.67781 Y155.65427 I1.86828 J-0.34572
X84.94125 Y156.34572 I-1.86828 J0.34573
G1 Z1.
G03 X88.67781 Y155.65427 I1.86828 J-0.34572
X84.94125 Y156.34572 I-1.86828 J0.34573
G1 Z0.5
G03 X88.67781 Y155.65427 I1.86828 J-0.34572
X84.94125 Y156.34572 I-1.86828 J0.34573
G1 Z0.
G03 X88.67781 Y155.65427 I1.86828 J-0.34572
X84.94125 Y156.34572 I-1.86828 J0.34573
G1 Z-0.5
G03 X88.67781 Y155.65427 I1.86828 J-0.34572
X84.94125 Y156.34572 I-1.86828 J0.34573
G0 Z4.
X76.64685 Y171.84891
G1 Z2.5 F318.2
G03 X81.80584 Y169.18231 I3.77499 J0.97957 F1273.
G1 X81.80725 Y169.18284
G02 X91.90818 Y169.15979 I5.02018 J-13.28051
G03 X97.0972 Y172.80632 I1.3027 J3.66152
G1 X96.63721 Y183.94059
G03 X91.7349 Y187.54598 I-3.8966 J-0.1627
G1 X91.73395 Y187.54573
G02 X81.81604 Y187.55553 I-4.9406 J18.57766
G03 X76.98189 Y183.94151 I-0.94795 J-3.77213
G1 X76.52455 Y172.87136
X76.64685 Y171.84891
Z2.
G03 X81.80584 Y169.18231 I3.77499 J0.97957
G1 X81.80725 Y169.18284
G02 X91.90818 Y169.15979 I5.02018 J-13.28051
G03 X97.0972 Y172.80632 I1.3027 J3.66152
G1 X96.63721 Y183.94059
G03 X91.7349 Y187.54598 I-3.8966 J-0.1627
G1 X91.73395 Y187.54573
G02 X81.81604 Y187.55553 I-4.9406 J18.57766
G03 X76.98189 Y183.94151 I-0.94795 J-3.77213
G1 X76.52455 Y172.87136
X76.64685 Y171.84891
Z1.5
G03 X81.80584 Y169.18231 I3.77499 J0.97957
G1 X81.80725 Y169.18284
G02 X91.90818 Y169.15979 I5.02018 J-13.28051
G03 X97.0972 Y172.80632 I1.3027 J3.66152
G1 X96.63721 Y183.94059
G03 X91.7349 Y187.54598 I-3.8966 J-0.1627
G1 X91.73395 Y187.54573
G02 X81.81604 Y187.55553 I-4.9406 J18.57766
G03 X76.98189 Y183.94151 I-0.94795 J-3.77213
G1 X76.52455 Y172.87136
X76.64685 Y171.84891
Z1.
G03 X81.80584 Y169.18231 I3.77499 J0.97957
G1 X81.80725 Y169.18284
G02 X91.90818 Y169.15979 I5.02018 J-13.28051
G03 X97.0972 Y172.80632 I1.3027 J3.66152
G1 X96.63721 Y183.94059
G03 X91.7349 Y187.54598 I-3.8966 J-0.1627
G1 X91.73395 Y187.54573
G02 X81.81604 Y187.55553 I-4.9406 J18.57766
G03 X76.98189 Y183.94151 I-0.94795 J-3.77213
G1 X76.52455 Y172.87136
X76.64685 Y171.84891
Z0.5
G03 X81.80584 Y169.18231 I3.77499 J0.97957
G1 X81.80725 Y169.18284
G02 X91.90818 Y169.15979 I5.02018 J-13.28051
G03 X97.0972 Y172.80632 I1.3027 J3.66152
G1 X96.63721 Y183.94059
G03 X91.7349 Y187.54598 I-3.8966 J-0.1627
G1 X91.73395 Y187.54573
G02 X81.81604 Y187.55553 I-4.9406 J18.57766
G03 X76.98189 Y183.94151 I-0.94795 J-3.77213
G1 X76.52455 Y172.87136
X76.64685 Y171.84891
Z0.
G03 X81.80584 Y169.18231 I3.77499 J0.97957
G1 X81.80725 Y169.18284
G02 X91.90818 Y169.15979 I5.02018 J-13.28051
G03 X97.0972 Y172.80632 I1.3027 J3.66152
G1 X96.63721 Y183.94059
G03 X91.7349 Y187.54598 I-3.8966 J-0.1627
G1 X91.73395 Y187.54573
G02 X81.81604 Y187.55553 I-4.9406 J18.57766
G03 X76.98189 Y183.94151 I-0.94795 J-3.77213
G1 X76.52455 Y172.87136
X76.64685 Y171.84891
Z-0.5
G03 X81.80584 Y169.18231 I3.77499 J0.97957
G1 X81.80725 Y169.18284
G02 X91.90818 Y169.15979 I5.02018 J-13.28051
G03 X97.0972 Y172.80632 I1.3027 J3.66152
G1 X96.63721 Y183.94059
G03 X91.7349 Y187.54598 I-3.8966 J-0.1627
G1 X91.73395 Y187.54573
G02 X81.81604 Y187.55553 I-4.9406 J18.57766
G03 X76.98189 Y183.94151 I-0.94795 J-3.77213
G1 X76.52455 Y172.87136
X76.64685 Y171.84891
G0 Z4.
X79.98595 Y200.09566
G1 Z2.5 F318.2
G03 X80.90519 Y199.17642 I0.45962 J-0.45962 F1273.
X79.98595 Y200.09566 I-0.45962 J0.45962
G1 Z2.
G03 X80.90519 Y199.17642 I0.45962 J-0.45962
X79.98595 Y200.09566 I-0.45962 J0.45962
G1 Z1.5
G03 X80.90519 Y199.17642 I0.45962 J-0.45962
X79.98595 Y200.09566 I-0.45962 J0.45962
G1 Z1.
G03 X80.90519 Y199.17642 I0.45962 J-0.45962
X79.98595 Y200.09566 I-0.45962 J0.45962
G1 Z0.5
G03 X80.90519 Y199.17642 I0.45962 J-0.45962
X79.98595 Y200.09566 I-0.45962 J0.45962
G1 Z0.
G03 X80.90519 Y199.17642 I0.45962 J-0.45962
X79.98595 Y200.09566 I-0.45962 J0.45962
G1 Z-0.5
G03 X80.90519 Y199.17642 I0.45962 J-0.45962
X79.98595 Y200.09566 I-0.45962 J0.45962
G0 Z4.
X82.95126 Y203.02868
G1 Z2.5 F318.2
X82.95762 Y203.02076 F1273.
G03 X81.9095 Y206.00884 I3.84749 J3.02744
G1 X81.90947 Y205.98853
G03 X82.94491 Y203.0366 I4.58918 J-0.04783
G1 X82.95126 Y203.02868
Z2.
X82.95762 Y203.02076
G03 X81.9095 Y206.00884 I3.84749 J3.02744
G1 X81.90947 Y205.98853
G03 X82.94491 Y203.0366 I4.58918 J-0.04783
G1 X82.95126 Y203.02868
Z1.5
X82.95762 Y203.02076
G03 X81.9095 Y206.00884 I3.84749 J3.02744
G1 X81.90947 Y205.98853
G03 X82.94491 Y203.0366 I4.58918 J-0.04783
G1 X82.95126 Y203.02868
Z1.
X82.95762 Y203.02076
G03 X81.9095 Y206.00884 I3.84749 J3.02744
G1 X81.90947 Y205.98853
G03 X82.94491 Y203.0366 I4.58918 J-0.04783
G1 X82.95126 Y203.02868
Z0.5
X82.95762 Y203.02076
G03 X81.9095 Y206.00884 I3.84749 J3.02744
G1 X81.90947 Y205.98853
G03 X82.94491 Y203.0366 I4.58918 J-0.04783
G1 X82.95126 Y203.02868
Z0.
X82.95762 Y203.02076
G03 X81.9095 Y206.00884 I3.84749 J3.02744
G1 X81.90947 Y205.98853
G03 X82.94491 Y203.0366 I4.58918 J-0.04783
G1 X82.95126 Y203.02868
Z-0.5
X82.95762 Y203.02076
G03 X81.9095 Y206.00884 I3.84749 J3.02744
G1 X81.90947 Y205.98853
G03 X82.94491 Y203.0366 I4.58918 J-0.04783
G1 X82.95126 Y203.02868
G0 Z4.
X92.58865 Y199.39841
G1 Z2.5 F318.2
G03 X92.60461 Y199.95734 I0.59477 J0.26271 F1273.
G1 X92.54332 Y199.63603
X92.58865 Y199.39841
Z2.
G03 X92.60461 Y199.95734 I0.59477 J0.26271
G1 X92.54332 Y199.63603
X92.58865 Y199.39841
Z1.5
G03 X92.60461 Y199.95734 I0.59477 J0.26271
G1 X92.54332 Y199.63603
X92.58865 Y199.39841
Z1.
G03 X92.60461 Y199.95734 I0.59477 J0.26271
G1 X92.54332 Y199.63603
X92.58865 Y199.39841
Z0.5
G03 X92.60461 Y199.95734 I0.59477 J0.26271
G1 X92.54332 Y199.63603
X92.58865 Y199.39841
Z0.
G03 X92.60461 Y199.95734 I0.59477 J0.26271
G1 X92.54332 Y199.63603
X92.58865 Y199.39841
Z-0.5
G03 X92.60461 Y199.95734 I0.59477 J0.26271
G1 X92.54332 Y199.63603
X92.58865 Y199.39841
G0 Z4.
X93.77785 Y212.60323
G1 Z2.5 F318.2
G03 X92.56913 Y212.1247 I-0.60436 J-0.23927 F1273.
X93.77785 Y212.60323 I0.60436 J0.23926
G1 Z2.
G03 X92.56913 Y212.1247 I-0.60436 J-0.23927
X93.77785 Y212.60323 I0.60436 J0.23926
G1 Z1.5
G03 X92.56913 Y212.1247 I-0.60436 J-0.23927
X93.77785 Y212.60323 I0.60436 J0.23926
G1 Z1.
G03 X92.56913 Y212.1247 I-0.60436 J-0.23927
X93.77785 Y212.60323 I0.60436 J0.23926
G1 Z0.5
G03 X92.56913 Y212.1247 I-0.60436 J-0.23927
X93.77785 Y212.60323 I0.60436 J0.23926
G1 Z0.
G03 X92.56913 Y212.1247 I-0.60436 J-0.23927
X93.77785 Y212.60323 I0.60436 J0.23926
G1 Z-0.5
G03 X92.56913 Y212.1247 I-0.60436 J-0.23927
X93.77785 Y212.60323 I0.60436 J0.23926
G0 Z4.
X79.98179 Y212.81945
G1 Z2.5 F318.2
G03 X80.88757 Y211.90397 I0.45289 J-0.45774 F1273.
X79.98179 Y212.81945 I-0.45289 J0.45774
G1 Z2.
G03 X80.88757 Y211.90397 I0.45289 J-0.45774
X79.98179 Y212.81945 I-0.45289 J0.45774
G1 Z1.5
G03 X80.88757 Y211.90397 I0.45289 J-0.45774
X79.98179 Y212.81945 I-0.45289 J0.45774
G1 Z1.
G03 X80.88757 Y211.90397 I0.45289 J-0.45774
X79.98179 Y212.81945 I-0.45289 J0.45774
G1 Z0.5
G03 X80.88757 Y211.90397 I0.45289 J-0.45774
X79.98179 Y212.81945 I-0.45289 J0.45774
G1 Z0.
G03 X80.88757 Y211.90397 I0.45289 J-0.45774
X79.98179 Y212.81945 I-0.45289 J0.45774
G1 Z-0.5
G03 X80.88757 Y211.90397 I0.45289 J-0.45774
X79.98179 Y212.81945 I-0.45289 J0.45774
G0 Z4.
X42.45151 Y212.79036
G1 Z2.5 F318.2
G03 X44.12513 Y212.12779 I0.83681 J-0.33128 F1273.
X42.45151 Y212.79036 I-0.83681 J0.33129
G1 Z2.
G03 X44.12513 Y212.12779 I0.83681 J-0.33128
X42.45151 Y212.79036 I-0.83681 J0.33129
G1 Z1.5
G03 X44.12513 Y212.12779 I0.83681 J-0.33128
X42.45151 Y212.79036 I-0.83681 J0.33129
G1 Z1.
G03 X44.12513 Y212.12779 I0.83681 J-0.33128
X42.45151 Y212.79036 I-0.83681 J0.33129
G1 Z0.5
G03 X44.12513 Y212.12779 I0.83681 J-0.33128
X42.45151 Y212.79036 I-0.83681 J0.33129
G1 Z0.
G03 X44.12513 Y212.12779 I0.83681 J-0.33128
X42.45151 Y212.79036 I-0.83681 J0.33129
G1 Z-0.5
G03 X44.12513 Y212.12779 I0.83681 J-0.33128
X42.45151 Y212.79036 I-0.83681 J0.33129
G0 Z4.
X26.52172 Y188.15846
G1 Z2.5 F318.2
G03 X30.05491 Y186.75969 I1.76659 J-0.69938 F1273.
X26.52172 Y188.15846 I-1.7666 J0.69939
G1 Z2.
G03 X30.05491 Y186.75969 I1.76659 J-0.69938
X26.52172 Y188.15846 I-1.7666 J0.69939
G1 Z1.5
G03 X30.05491 Y186.75969 I1.76659 J-0.69938
X26.52172 Y188.15846 I-1.7666 J0.69939
G1 Z1.
G03 X30.05491 Y186.75969 I1.76659 J-0.69938
X26.52172 Y188.15846 I-1.7666 J0.69939
G1 Z0.5
G03 X30.05491 Y186.75969 I1.76659 J-0.69938
X26.52172 Y188.15846 I-1.7666 J0.69939
G1 Z0.
G03 X30.05491 Y186.75969 I1.76659 J-0.69938
X26.52172 Y188.15846 I-1.7666 J0.69939
G1 Z-0.5
G03 X30.05491 Y186.75969 I1.76659 J-0.69938
X26.52172 Y188.15846 I-1.7666 J0.69939
G0 Z4.
X12.45236 Y212.12562
G1 Z2.5 F318.2
G03 X14.12095 Y212.78212 I0.8343 J0.32825 F1273.
X12.45236 Y212.12562 I-0.83429 J-0.32825
G1 Z2.
G03 X14.12095 Y212.78212 I0.8343 J0.32825
X12.45236 Y212.12562 I-0.83429 J-0.32825
G1 Z1.5
G03 X14.12095 Y212.78212 I0.8343 J0.32825
X12.45236 Y212.12562 I-0.83429 J-0.32825
G1 Z1.
G03 X14.12095 Y212.78212 I0.8343 J0.32825
X12.45236 Y212.12562 I-0.83429 J-0.32825
G1 Z0.5
G03 X14.12095 Y212.78212 I0.8343 J0.32825
X12.45236 Y212.12562 I-0.83429 J-0.32825
G1 Z0.
G03 X14.12095 Y212.78212 I0.8343 J0.32825
X12.45236 Y212.12562 I-0.83429 J-0.32825
G1 Z-0.5
G03 X14.12095 Y212.78212 I0.8343 J0.32825
X12.45236 Y212.12562 I-0.83429 J-0.32825
G0 Z4.
X78.21291 Y43.31577
G1 Z2.5 F318.2
G03 X79.1427 Y42.94768 I0.46489 J-0.18404 F1273.
X78.21291 Y43.31577 I-0.4649 J0.18405
G1 Z2.
G03 X79.1427 Y42.94768 I0.46489 J-0.18404
X78.21291 Y43.31577 I-0.4649 J0.18405
G1 Z1.5
G03 X79.1427 Y42.94768 I0.46489 J-0.18404
X78.21291 Y43.31577 I-0.4649 J0.18405
G1 Z1.
G03 X79.1427 Y42.94768 I0.46489 J-0.18404
X78.21291 Y43.31577 I-0.4649 J0.18405
G1 Z0.5
G03 X79.1427 Y42.94768 I0.46489 J-0.18404
X78.21291 Y43.31577 I-0.4649 J0.18405
G1 Z0.
G03 X79.1427 Y42.94768 I0.46489 J-0.18404
X78.21291 Y43.31577 I-0.4649 J0.18405
G1 Z-0.5
G03 X79.1427 Y42.94768 I0.46489 J-0.18404
X78.21291 Y43.31577 I-0.4649 J0.18405
G0 Z4.
X81.82775 Y38.161
G1 Z2.5 F318.2
G03 X82.09146 Y31.45743 I4.98178 J-3.161 F1273.
X88.45536 Y29.3342 I4.71807 J3.54257
X92.6913 Y34.53653 I-1.64583 J5.6658
X89.32244 Y40.33809 I-5.88177 J0.46347
G02 X88.69777 Y41.21111 I0.46851 J0.99524
G03 X86.80953 Y42.9 I-1.88824 J-0.21111
X84.9213 Y41.21111 I0. J-1.9
G02 X84.29662 Y40.33809 I-1.09319 J0.12222
G03 X81.82775 Y38.161 I2.51293 J-5.33812
G1 Z2.
G03 X82.09146 Y31.45743 I4.98178 J-3.161
X88.45536 Y29.3342 I4.71807 J3.54257
X92.6913 Y34.53653 I-1.64583 J5.6658
X89.32244 Y40.33809 I-5.88177 J0.46347
G02 X88.69777 Y41.21111 I0.46851 J0.99524
G03 X86.80953 Y42.9 I-1.88824 J-0.21111
X84.9213 Y41.21111 I0. J-1.9
G02 X84.29662 Y40.33809 I-1.09319 J0.12222
G03 X81.82775 Y38.161 I2.51293 J-5.33812
G1 Z1.5
G03 X82.09146 Y31.45743 I4.98178 J-3.161
X88.45536 Y29.3342 I4.71807 J3.54257
X92.6913 Y34.53653 I-1.64583 J5.6658
X89.32244 Y40.33809 I-5.88177 J0.46347
G02 X88.69777 Y41.21111 I0.46851 J0.99524
G03 X86.80953 Y42.9 I-1.88824 J-0.21111
X84.9213 Y41.21111 I0. J-1.9
G02 X84.29662 Y40.33809 I-1.09319 J0.12222
G03 X81.82775 Y38.161 I2.51293 J-5.33812
G1 Z1.
G03 X82.09146 Y31.45743 I4.98178 J-3.161
X88.45536 Y29.3342 I4.71807 J3.54257
X92.6913 Y34.53653 I-1.64583 J5.6658
X89.32244 Y40.33809 I-5.88177 J0.46347
G02 X88.69777 Y41.21111 I0.46851 J0.99524
G03 X86.80953 Y42.9 I-1.88824 J-0.21111
X84.9213 Y41.21111 I0. J-1.9
G02 X84.29662 Y40.33809 I-1.09319 J0.12222
G03 X81.82775 Y38.161 I2.51293 J-5.33812
G1 Z0.5
G03 X82.09146 Y31.45743 I4.98178 J-3.161
X88.45536 Y29.3342 I4.71807 J3.54257
X92.6913 Y34.53653 I-1.64583 J5.6658
X89.32244 Y40.33809 I-5.88177 J0.46347
G02 X88.69777 Y41.21111 I0.46851 J0.99524
G03 X86.80953 Y42.9 I-1.88824 J-0.21111
X84.9213 Y41.21111 I0. J-1.9
G02 X84.29662 Y40.33809 I-1.09319 J0.12222
G03 X81.82775 Y38.161 I2.51293 J-5.33812
G1 Z0.
G03 X82.09146 Y31.45743 I4.98178 J-3.161
X88.45536 Y29.3342 I4.71807 J3.54257
X92.6913 Y34.53653 I-1.64583 J5.6658
X89.32244 Y40.33809 I-5.88177 J0.46347
G02 X88.69777 Y41.21111 I0.46851 J0.99524
G03 X86.80953 Y42.9 I-1.88824 J-0.21111
X84.9213 Y41.21111 I0. J-1.9
G02 X84.29662 Y40.33809 I-1.09319 J0.12222
G03 X81.82775 Y38.161 I2.51293 J-5.33812
G1 Z-0.5
G03 X82.09146 Y31.45743 I4.98178 J-3.161
X88.45536 Y29.3342 I4.71807 J3.54257
X92.6913 Y34.53653 I-1.64583 J5.6658
X89.32244 Y40.33809 I-5.88177 J0.46347
G02 X88.69777 Y41.21111 I0.46851 J0.99524
G03 X86.80953 Y42.9 I-1.88824 J-0.21111
X84.9213 Y41.21111 I0. J-1.9
G02 X84.29662 Y40.33809 I-1.09319 J0.12222
G03 X81.82775 Y38.161 I2.51293 J-5.33812
G0 Z4.
X78.18925 Y26.97467
G1 Z2.5 F318.2
G03 X78.38611 Y27.27437 I0.48855 J-0.1064 F1273.
G1 X78.18925 Y26.97467
Z2.
G03 X78.38611 Y27.27437 I0.48855 J-0.1064
G1 X78.18925 Y26.97467
Z1.5
G03 X78.38611 Y27.27437 I0.48855 J-0.1064
G1 X78.18925 Y26.97467
Z1.
G03 X78.38611 Y27.27437 I0.48855 J-0.1064
G1 X78.18925 Y26.97467
Z0.5
G03 X78.38611 Y27.27437 I0.48855 J-0.1064
G1 X78.18925 Y26.97467
Z0.
G03 X78.38611 Y27.27437 I0.48855 J-0.1064
G1 X78.18925 Y26.97467
Z-0.5
G03 X78.38611 Y27.27437 I0.48855 J-0.1064
G1 X78.18925 Y26.97467
G0 Z4.
X71.05623 Y16.49249
G1 Z2.5 F318.2
G03 X72.56282 Y15.50751 I0.7533 J-0.49249 F1273.
X71.05623 Y16.49249 I-0.75329 J0.49249
G1 Z2.
G03 X72.56282 Y15.50751 I0.7533 J-0.49249
X71.05623 Y16.49249 I-0.75329 J0.49249
G1 Z1.5
G03 X72.56282 Y15.50751 I0.7533 J-0.49249
X71.05623 Y16.49249 I-0.75329 J0.49249
G1 Z1.
G03 X72.56282 Y15.50751 I0.7533 J-0.49249
X71.05623 Y16.49249 I-0.75329 J0.49249
G1 Z0.5
G03 X72.56282 Y15.50751 I0.7533 J-0.49249
X71.05623 Y16.49249 I-0.75329 J0.49249
G1 Z0.
G03 X72.56282 Y15.50751 I0.7533 J-0.49249
X71.05623 Y16.49249 I-0.75329 J0.49249
G1 Z-0.5
G03 X72.56282 Y15.50751 I0.7533 J-0.49249
X71.05623 Y16.49249 I-0.75329 J0.49249
G0 Z4.
X94.58771 Y27.22182
G1 Z2.5 F318.2
G03 X95.29481 Y26.51472 I0.35355 J-0.35355 F1273.
X94.58771 Y27.22182 I-0.35355 J0.35355
G1 Z2.
G03 X95.29481 Y26.51472 I0.35355 J-0.35355
X94.58771 Y27.22182 I-0.35355 J0.35355
G1 Z1.5
G03 X95.29481 Y26.51472 I0.35355 J-0.35355
X94.58771 Y27.22182 I-0.35355 J0.35355
G1 Z1.
G03 X95.29481 Y26.51472 I0.35355 J-0.35355
X94.58771 Y27.22182 I-0.35355 J0.35355
G1 Z0.5
G03 X95.29481 Y26.51472 I0.35355 J-0.35355
X94.58771 Y27.22182 I-0.35355 J0.35355
G1 Z0.
G03 X95.29481 Y26.51472 I0.35355 J-0.35355
X94.58771 Y27.22182 I-0.35355 J0.35355
G1 Z-0.5
G03 X95.29481 Y26.51472 I0.35355 J-0.35355
X94.58771 Y27.22182 I-0.35355 J0.35355
G0 Z4.
X100.97272 Y16.33129
G1 Z2.5 F318.2
G03 X102.64634 Y15.66871 I0.83681 J-0.33129 F1273.
X100.97272 Y16.33129 I-0.83681 J0.33129
G1 Z2.
G03 X102.64634 Y15.66871 I0.83681 J-0.33129
X100.97272 Y16.33129 I-0.83681 J0.33129
G1 Z1.5
G03 X102.64634 Y15.66871 I0.83681 J-0.33129
X100.97272 Y16.33129 I-0.83681 J0.33129
G1 Z1.
G03 X102.64634 Y15.66871 I0.83681 J-0.33129
X100.97272 Y16.33129 I-0.83681 J0.33129
G1 Z0.5
G03 X102.64634 Y15.66871 I0.83681 J-0.33129
X100.97272 Y16.33129 I-0.83681 J0.33129
G1 Z0.
G03 X102.64634 Y15.66871 I0.83681 J-0.33129
X100.97272 Y16.33129 I-0.83681 J0.33129
G1 Z-0.5
G03 X102.64634 Y15.66871 I0.83681 J-0.33129
X100.97272 Y16.33129 I-0.83681 J0.33129
G0 Z4.
X95.4298 Y43.02532
G1 Z2.5 F318.2
G03 X95.23294 Y42.72562 I-0.48855 J0.1064 F1273.
G1 X95.4298 Y43.02532
Z2.
G03 X95.23294 Y42.72562 I-0.48855 J0.1064
G1 X95.4298 Y43.02532
Z1.5
G03 X95.23294 Y42.72562 I-0.48855 J0.1064
G1 X95.4298 Y43.02532
Z1.
G03 X95.23294 Y42.72562 I-0.48855 J0.1064
G1 X95.4298 Y43.02532
Z0.5
G03 X95.23294 Y42.72562 I-0.48855 J0.1064
G1 X95.4298 Y43.02532
Z0.
G03 X95.23294 Y42.72562 I-0.48855 J0.1064
G1 X95.4298 Y43.02532
Z-0.5
G03 X95.23294 Y42.72562 I-0.48855 J0.1064
G1 X95.4298 Y43.02532
G0 Z4.
(2 1/2 Axis Profiling-Finish)
(SlotDrill 2mm Carbide)
X21.17435 Y16.09512
G1 Z-0.5 F249.2
G03 X22.67436 I0.75 J0. F997.
X21.17435 I-0.75001 J0.
G0 Z4.
X23.63937 Y24.29955
G1 Z-0.5 F249.2
G03 X32.93726 Y20.61861 I4.64895 J-1.84047 F997.
X23.63937 Y24.29955 I-4.64894 J1.84047
G0 Z4.
X21.22701 Y29.09911
G1 Z-0.5 F249.2
G03 X22.6217 Y28.54697 I0.69735 J-0.27607 F997.
X21.22701 Y29.09911 I-0.69734 J0.27607
G0 Z4.
X33.96231 Y29.07249
G1 Z-0.5 F249.2
X33.96159 Y29.06957 F997.
G03 X34.18938 Y29.41818 I0.71089 J-0.21578
G1 X33.96231 Y29.07249
G0 Z4.
X33.90228 Y16.09512
G1 Z-0.5 F249.2
G03 X35.40228 I0.75 J0. F997.
X33.90228 I-0.75 J0.
G0 Z4.
X27.77693 Y48.66153
G1 Z-0.5 F249.2
G03 X28.7997 Y48.25663 I0.51139 J-0.20245 F997.
X27.77693 Y48.66153 I-0.51138 J0.20245
G0 Z4.
X33.28831 Y59.43185
G1 Z-0.5 F249.2
Y40.74529 F997.
G03 X38.21604 Y44.51747 I0.86973 J3.96856
G1 X38.67576 Y55.64528
G03 X33.28831 Y59.43185 I-4.06746 J-0.06123
G0 Z4.
X18.38394 Y57.53476
G1 Z-0.5 F249.2
X18.0202 Y56.57061 F997.
X17.90309 Y55.59161
X18.3606 Y44.51748
G03 X23.28832 Y40.74529 I4.05799 J0.19637
G1 Y59.42632
G03 X18.38394 Y57.53476 I-1.30906 J-3.90967
G0 Z4.
X26.42874 Y73.19527
G1 Z-0.5 F249.2
G03 X30.14789 Y71.7229 I1.85958 J-0.73619 F997.
X26.42874 Y73.19527 I-1.85957 J0.73618
G0 Z4.
X15.88443 Y105.90553
G1 Z-0.5 F249.2
X15.83664 Y105.03977 F997.
X16.52494 Y88.53502
G03 X22.25163 Y85.09072 I4.02268 J0.20544
G02 X34.32501 I6.03669 J-12.63159
G03 X40.05169 Y88.53489 I1.704 J3.64974
G1 X40.74544 Y105.2744
G03 X38.55477 Y108.82225 I-3.99995 J-0.01956
G02 X31.89297 Y112.65305 I4.88471 J16.20242
G03 X29.84814 Y113.21522 I-2.04486 J-3.43793
G1 X26.72849
G03 X24.01956 Y112.1583 I0.00002 J-4.00005
G1 X24.00811 Y112.14792
G02 X18.01865 Y108.82063 I-10.38367 J11.63715
G03 X15.88443 Y105.90553 I1.81248 J-3.56578
G0 Z4.
X12.67874 Y123.19527
G1 Z-0.5 F249.2
G03 X16.39789 Y121.72289 I1.85958 J-0.73619 F997.
X12.67874 Y123.19527 I-1.85957 J0.73619
G0 Z4.
X20.96258 Y136.45995
G1 Z-0.5 F249.2
G03 X20.11405 Y135.61142 I-0.42426 J-0.42427 F997.
X20.96258 Y136.45995 I0.42427 J0.42426
G0 Z4.
X24.37043 Y145.51658
G1 Z-0.5 F249.2
X24.36565 Y145.51025 F997.
G03 X27.38574 Y147.37698 I3.96532 J-3.0389
G1 X27.37014 Y147.3741
G03 X24.3752 Y145.52291 I0.82572 J-4.68417
G1 X24.37043 Y145.51658
G0 Z4.
X12.22545 Y149.66757
G1 Z-0.5 F249.2
G03 X13.31848 Y149.21789 I0.54652 J-0.22484 F997.
X12.22545 Y149.66757 I-0.54651 J0.22484
G0 Z4.
X19.98044 Y163.10332
G1 Z-0.5 F249.2
G03 X21.09619 Y162.66161 I0.55788 J-0.22085 F997.
X19.98044 Y163.10332 I-0.55787 J0.22086
G0 Z4.
X35.43832 Y162.88247
G1 Z-0.5 F249.2
G03 X36.63832 I0.6 J0. F997.
X35.43832 I-0.6 J0.
G0 Z4.
X43.20648 Y149.60561
G1 Z-0.5 F249.2
G03 X43.42275 Y149.93486 I0.58184 J-0.14652 F997.
G1 X43.20648 Y149.60561
G0 Z4.
X36.59619 Y136.25654
G1 Z-0.5 F249.2
G03 X35.48044 Y135.81483 I-0.55787 J-0.22086 F997.
X36.59619 Y136.25654 I0.55788 J0.22085
G0 Z4.
X40.36433 Y123.5535
G1 Z-0.5 F249.2
G03 X43.71231 Y121.36467 I1.67399 J-1.09442 F997.
X40.36433 Y123.5535 I-1.67399 J1.09441
G0 Z4.
X72.02473 Y107.70175
G1 Z-0.5 F249.2
G03 X74.09971 Y104.28831 I1.03749 J-1.70672 F997.
X72.02473 Y107.70175 I-1.03749 J1.70672
G0 Z4.
X78.11219 Y93.72393
G1 Z-0.5 F249.2
G03 X79.50687 Y94.27607 I0.69734 J0.27607 F997.
X78.11219 Y93.72393 I-0.69734 J-0.27607
G0 Z4.
X82.56689 Y81.75736
G1 Z-0.5 F249.2
G03 X91.05217 Y90.24263 I4.24264 J4.24264 F997.
X82.56689 Y81.75736 I-4.24264 J-4.24263
G0 Z4.
X78.05953 Y78.
G1 Z-0.5 F249.2
G03 X79.55953 I0.75 J0. F997.
X78.05953 I-0.75 J0.
G0 Z4.
X95.53266 Y77.80104
G1 Z-0.5 F249.2
G03 X95.27934 Y77.41538 I-0.72313 J0.19897 F997.
G1 X95.53266 Y77.80104
G0 Z4.
X94.80953 Y93.25
G1 Z-0.5 F249.2
G03 Y94.75 I0. J0.75 F997.
Y93.25 I0. J-0.75
G0 Z4.
X100.92346 Y107.96661
G1 Z-0.5 F249.2
G03 X100.1956 Y104.03339 I-0.36393 J-1.96661 F997.
X100.92346 Y107.96661 I0.36393 J1.96661
G0 Z4.
X77.71467 Y143.51224
G1 Z-0.5 F249.2
X77.69939 Y143.50675 F997.
G03 X75.04658 Y139.93483 I1.26469 J-3.71033
G1 X74.35256 Y123.18822
G03 X77.58842 Y119.22674 I4.10475 J0.05058
G1 X77.68577 Y119.20046
X77.73332 Y119.18367
G02 X83.20096 Y115.80836 I-6.11399 J-16.02015
G03 X85.2497 Y115.24386 I2.04872 J3.4354
G1 X88.36936
G03 X91.07828 Y116.30077 I0.00001 J3.99997
G1 X91.08547 Y116.30732
G02 X97.08155 Y119.63965 I10.21084 J-11.31233
G03 X99.26323 Y123.37091 I-1.81489 J3.56462
G1 X98.57273 Y139.92847
G03 X92.85027 Y143.37029 I-3.99653 J-0.16667
G02 X80.76879 I-6.04074 J12.62973
G1 X80.76036 Y143.37437
G03 X77.72994 Y143.51772 I-1.68092 J-3.43145
G1 X77.71467 Y143.51224
G0 Z4.
X84.84292 Y156.36392
G1 Z-0.5 F249.2
G03 X88.77614 Y155.63607 I1.96661 J-0.36392 F997.
X84.84292 Y156.36392 I-1.96661 J0.36393
G0 Z4.
X76.54836 Y171.83037
G1 Z-0.5 F249.2
G03 X81.84133 Y169.08882 I3.87348 J0.99811 F997.
G1 X81.84261 Y169.0893
G02 X91.87351 Y169.06598 I4.98482 J-13.18697
G03 X97.19721 Y172.80821 I1.33737 J3.75533
G1 X96.73712 Y183.94474
G03 X91.70911 Y187.6426 I-3.99651 J-0.16685
G1 X91.70825 Y187.64237
G02 X81.84117 Y187.65232 I-4.9149 J18.48102
G03 X76.88197 Y183.94557 I-0.97308 J-3.86892
G1 X76.4243 Y172.86746
X76.54836 Y171.83037
G0 Z4.
X79.91524 Y200.16637
G1 Z-0.5 F249.2
G03 X80.9759 Y199.10571 I0.53033 J-0.53033 F997.
X79.91524 Y200.16637 I-0.53033 J0.53033
G0 Z4.
X82.87325 Y202.96613
G1 Z-0.5 F249.2
X82.87903 Y202.95892 F997.
G03 X81.8095 Y206.00804 I3.92608 J3.08928
G1 X81.80948 Y205.98958
G03 X82.86748 Y202.97333 I4.68917 J-0.04888
G1 X82.87325 Y202.96613
G0 Z4.
X92.49248 Y199.36886
G1 Z-0.5 F249.2
G03 X92.50897 Y199.98963 I0.69094 J0.29226 F997.
G1 X92.44152 Y199.63603
X92.49248 Y199.36886
G0 Z4.
X93.87083 Y212.64004
G1 Z-0.5 F249.2
G03 X92.47615 Y212.08789 I-0.69734 J-0.27608 F997.
X93.87083 Y212.64004 I0.69734 J0.27607
G0 Z4.
X79.91146 Y212.89053
G1 Z-0.5 F249.2
G03 X80.95791 Y211.83288 I0.52322 J-0.52882 F997.
X79.91146 Y212.89053 I-0.52323 J0.52883
G0 Z4.
X42.35853 Y212.82717
G1 Z-0.5 F249.2
G03 X44.2181 Y212.09098 I0.92979 J-0.36809 F997.
X42.35853 Y212.82717 I-0.92978 J0.3681
G0 Z4.
X26.42874 Y188.19527
G1 Z-0.5 F249.2
G03 X30.14789 Y186.72288 I1.85957 J-0.73619 F997.
X26.42874 Y188.19527 I-1.85958 J0.7362
G0 Z4.
X12.3593 Y212.08901
G1 Z-0.5 F249.2
G03 X14.21401 Y212.81873 I0.92736 J0.36486 F997.
X12.3593 Y212.08901 I-0.92735 J-0.36486
G0 Z4.
X78.11993 Y43.35258
G1 Z-0.5 F249.2
G03 X79.23568 Y42.91087 I0.55787 J-0.22085 F997.
X78.11993 Y43.35258 I-0.55788 J0.22086
G0 Z4.
X81.74332 Y38.21457
G1 Z-0.5 F249.2
G03 X82.01149 Y31.39739 I5.06621 J-3.21457 F997.
X88.48326 Y29.23817 I4.79804 J3.60261
X92.79099 Y34.52867 I-1.67373 J5.76183
X89.36504 Y40.42857 I-5.98146 J0.47133
G02 X88.79715 Y41.22222 I0.42591 J0.90476
G03 X86.80953 Y43. I-1.98762 J-0.22222
X84.82192 Y41.22222 I0. J-2.
G02 X84.25403 Y40.42857 I-0.99381 J0.11111
G03 X81.74332 Y38.21457 I2.55552 J-5.4286
G0 Z4.
X78.09597 Y27.0148
G1 Z-0.5 F249.2
G03 X78.31223 Y27.34404 I0.58183 J-0.14653 F997.
G1 X78.09597 Y27.0148
G0 Z4.
X70.97253 Y16.54721
G1 Z-0.5 F249.2
G03 X72.64652 Y15.45279 I0.837 J-0.54721 F997.
X70.97253 Y16.54721 I-0.83699 J0.54721
G0 Z4.
X94.517 Y27.29253
G1 Z-0.5 F249.2
G03 X95.36552 Y26.444 I0.42426 J-0.42426 F997.
X94.517 Y27.29253 I-0.42426 J0.42427
G0 Z4.
X100.87974 Y16.36809
G1 Z-0.5 F249.2
G03 X102.73932 Y15.63191 I0.92979 J-0.36809 F997.
X100.87974 Y16.36809 I-0.92979 J0.36809
G0 Z4.
X95.52308 Y42.98519
G1 Z-0.5 F249.2
G03 X95.30682 Y42.65595 I-0.58183 J0.14653 F997.
G1 X95.52308 Y42.98519
G0 Z4.
(2 1/2 Axis Profiling)
(SlotDrill 2mm Carbide)
X56.63395 Y198.16364
G1 Z2.5 F318.2
X49.28713 Y21.99284 F1273.
G02 X7.30656 Y21.58397 I-20.99684 J0.46849
G1 X-0.99912 Y220.74723
G02 X-0.50514 Y221.65193 I0.99913 J0.04166
X57.08177 I28.79346 J-49.19284
X57.57576 Y220.74723 I-0.50514 J-0.86304
G1 X56.63395 Y198.16364
Z2.
X49.28713 Y21.99284
G02 X7.30656 Y21.58397 I-20.99684 J0.46849
G1 X-0.99912 Y220.74723
G02 X-0.50514 Y221.65193 I0.99913 J0.04166
X57.08177 I28.79346 J-49.19284
X57.57576 Y220.74723 I-0.50514 J-0.86304
G1 X56.63395 Y198.16364
Z1.5
X49.28713 Y21.99284
G02 X7.30656 Y21.58397 I-20.99684 J0.46849
G1 X-0.99912 Y220.74723
G02 X-0.50514 Y221.65193 I0.99913 J0.04166
X57.08177 I28.79346 J-49.19284
X57.57576 Y220.74723 I-0.50514 J-0.86304
G1 X56.63395 Y198.16364
Z1.
X49.28713 Y21.99284
G02 X7.30656 Y21.58397 I-20.99684 J0.46849
G1 X-0.99912 Y220.74723
G02 X-0.50514 Y221.65193 I0.99913 J0.04166
X57.08177 I28.79346 J-49.19284
X57.57576 Y220.74723 I-0.50514 J-0.86304
G1 X56.63395 Y198.16364
Z0.5
X49.28713 Y21.99284
G02 X7.30656 Y21.58397 I-20.99684 J0.46849
G1 X-0.99912 Y220.74723
G02 X-0.50514 Y221.65193 I0.99913 J0.04166
X57.08177 I28.79346 J-49.19284
X57.57576 Y220.74723 I-0.50514 J-0.86304
G1 X56.63395 Y198.16364
Z0.
X49.28713 Y21.99284
G02 X7.30656 Y21.58397 I-20.99684 J0.46849
G1 X-0.99912 Y220.74723
G02 X-0.50514 Y221.65193 I0.99913 J0.04166
X57.08177 I28.79346 J-49.19284
X57.57576 Y220.74723 I-0.50514 J-0.86304
G1 X56.63395 Y198.16364
Z-0.5
X49.28713 Y21.99284
G02 X7.30656 Y21.58397 I-20.99684 J0.46849
G1 X-0.99912 Y220.74723
G02 X-0.50514 Y221.65193 I0.99913 J0.04166
X57.08177 I28.79346 J-49.19284
X57.57576 Y220.74723 I-0.50514 J-0.86304
G1 X56.63395 Y198.16364
G0 Z4.
X110.25701 Y147.74917
G1 Z2.5 F318.2
X116.09697 Y7.71184 F1273.
G02 X115.60299 Y6.80715 I-0.99913 J-0.04166
X58.01607 I-28.79346 J49.19285
X57.52209 Y7.71184 I0.50515 J0.86303
G1 X65.81072 Y206.46625
G02 X107.30109 Y210.59301 I20.99703 J-0.46868
G1 X107.3114 Y210.54051
G02 X108.01312 Y201.55559 I-49.91234 J-8.41803
G1 X110.25701 Y147.74917
Z2.
X116.09697 Y7.71184
G02 X115.60299 Y6.80715 I-0.99913 J-0.04166
X58.01607 I-28.79346 J49.19285
X57.52209 Y7.71184 I0.50515 J0.86303
G1 X65.81072 Y206.46625
G02 X107.30109 Y210.59301 I20.99703 J-0.46868
G1 X107.3114 Y210.54051
G02 X108.01312 Y201.55559 I-49.91234 J-8.41803
G1 X110.25701 Y147.74917
Z1.5
X116.09697 Y7.71184
G02 X115.60299 Y6.80715 I-0.99913 J-0.04166
X58.01607 I-28.79346 J49.19285
X57.52209 Y7.71184 I0.50515 J0.86303
G1 X65.81072 Y206.46625
G02 X107.30109 Y210.59301 I20.99703 J-0.46868
G1 X107.3114 Y210.54051
G02 X108.01312 Y201.55559 I-49.91234 J-8.41803
G1 X110.25701 Y147.74917
Z1.
X116.09697 Y7.71184
G02 X115.60299 Y6.80715 I-0.99913 J-0.04166
X58.01607 I-28.79346 J49.19285
X57.52209 Y7.71184 I0.50515 J0.86303
G1 X65.81072 Y206.46625
G02 X107.30109 Y210.59301 I20.99703 J-0.46868
G1 X107.3114 Y210.54051
G02 X108.01312 Y201.55559 I-49.91234 J-8.41803
G1 X110.25701 Y147.74917
Z0.5
X116.09697 Y7.71184
G02 X115.60299 Y6.80715 I-0.99913 J-0.04166
X58.01607 I-28.79346 J49.19285
X57.52209 Y7.71184 I0.50515 J0.86303
G1 X65.81072 Y206.46625
G02 X107.30109 Y210.59301 I20.99703 J-0.46868
G1 X107.3114 Y210.54051
G02 X108.01312 Y201.55559 I-49.91234 J-8.41803
G1 X110.25701 Y147.74917
Z0.
X116.09697 Y7.71184
G02 X115.60299 Y6.80715 I-0.99913 J-0.04166
X58.01607 I-28.79346 J49.19285
X57.52209 Y7.71184 I0.50515 J0.86303
G1 X65.81072 Y206.46625
G02 X107.30109 Y210.59301 I20.99703 J-0.46868
G1 X107.3114 Y210.54051
G02 X108.01312 Y201.55559 I-49.91234 J-8.41803
G1 X110.25701 Y147.74917
Z-0.5
X116.09697 Y7.71184
G02 X115.60299 Y6.80715 I-0.99913 J-0.04166
X58.01607 I-28.79346 J49.19285
X57.52209 Y7.71184 I0.50515 J0.86303
G1 X65.81072 Y206.46625
G02 X107.30109 Y210.59301 I20.99703 J-0.46868
G1 X107.3114 Y210.54051
G02 X108.01312 Y201.55559 I-49.91234 J-8.41803
G1 X110.25701 Y147.74917
G0 Z4.
M30
%
