%
G17 G21 G40 G90 G64 P0.1
(2 1/2 Axis Profiling)
(SlotDrill 2mm Carbide)
T12 M06
S24000 M3
G0 Z1.
X50.49427 Y20.28424
G1 Z0.1 F48.
X50.4819 Y20.28992 Z0.09881 F144.
X50.38909 Y20.30083 Z0.09063
X50.29744 Y20.28265 Z0.08246
X50.21583 Y20.23713 Z0.07428
X50.15218 Y20.16871 Z0.06611
X50.11269 Y20.08402 Z0.05793
X50.10118 Y19.99129 Z0.04976
X50.11878 Y19.89952 Z0.04158
X50.16376 Y19.81762 Z0.03341
X50.23177 Y19.75354 Z0.02523
X50.31621 Y19.7135 Z0.01706
X50.40886 Y19.7014 Z0.00888
X50.50075 Y19.7184 Z0.00071
X50.58294 Y19.76286 Z-0.00747
X50.58305 Y19.76295 Z-0.00748
X50.58317 Y19.76304 Z-0.0075
X50.58329 Y19.76313 Z-0.00751
X50.58341 Y19.76322 Z-0.00752
X50.58353 Y19.76331 Z-0.00754
X50.58365 Y19.7634 Z-0.00755
X50.58377 Y19.7635 Z-0.00756
X50.58389 Y19.76359 Z-0.00757
X50.58401 Y19.76368 Z-0.00759
X50.58413 Y19.76377 Z-0.0076
X50.58425 Y19.76386 Z-0.00761
X50.58437 Y19.76396 Z-0.00763
X50.58448 Y19.76405 Z-0.00764
X50.5846 Y19.76414 Z-0.00765
X50.58472 Y19.76423 Z-0.00767
X50.65055 Y19.83499 Z-0.01612
X50.65177 Y19.83686 Z-0.01632
X50.69016 Y19.92205 Z-0.02449
X50.70048 Y20.01492 Z-0.03267
X50.6817 Y20.10646 Z-0.04084
X50.63567 Y20.18777 Z-0.04902
X50.56684 Y20.25097 Z-0.05719
X50.4819 Y20.28992 Z-0.06537
X50.38909 Y20.30083 Z-0.07354
X50.29744 Y20.28265 Z-0.08172
X50.21583 Y20.23713 Z-0.08989
X50.15218 Y20.16871 Z-0.09807
X50.11269 Y20.08402 Z-0.10624
X50.10118 Y19.99129 Z-0.11442
X50.11878 Y19.89952 Z-0.1226
X50.16376 Y19.81762 Z-0.13077
X50.23177 Y19.75354 Z-0.13894
X50.31621 Y19.7135 Z-0.14712
X50.40886 Y19.7014 Z-0.1553
X50.50075 Y19.7184 Z-0.16347
X50.58294 Y19.76286 Z-0.17165
X50.58305 Y19.76295 Z-0.17166
X50.58317 Y19.76304 Z-0.17167
X50.58329 Y19.76313 Z-0.17169
X50.58341 Y19.76322 Z-0.1717
X50.58353 Y19.76331 Z-0.17171
X50.58365 Y19.7634 Z-0.17173
X50.58377 Y19.7635 Z-0.17174
X50.58389 Y19.76359 Z-0.17175
X50.58401 Y19.76368 Z-0.17176
X50.58413 Y19.76377 Z-0.17178
X50.58425 Y19.76386 Z-0.17179
X50.58437 Y19.76396 Z-0.1718
X50.58448 Y19.76405 Z-0.17182
X50.5846 Y19.76414 Z-0.17183
X50.58472 Y19.76423 Z-0.17184
X50.65055 Y19.83499 Z-0.1803
X50.65177 Y19.83686 Z-0.18049
X50.69016 Y19.92205 Z-0.18867
X50.70048 Y20.01492 Z-0.19684
X50.6817 Y20.10646 Z-0.20502
X50.63567 Y20.18777 Z-0.2132
X50.56684 Y20.25097 Z-0.22137
X50.4819 Y20.28992 Z-0.22955
X50.38909 Y20.30083 Z-0.23772
X50.29744 Y20.28265 Z-0.2459
X50.21583 Y20.23713 Z-0.25407
X50.15218 Y20.16871 Z-0.26225
X50.11269 Y20.08402 Z-0.27042
X50.10118 Y19.99129 Z-0.2786
X50.11878 Y19.89952 Z-0.28677
X50.16376 Y19.81762 Z-0.29495
X50.23177 Y19.75354 Z-0.30312
X50.31621 Y19.7135 Z-0.3113
X50.40886 Y19.7014 Z-0.31947
X50.50075 Y19.7184 Z-0.32765
X50.58294 Y19.76286 Z-0.33582
X50.58305 Y19.76295 Z-0.33584
X50.58317 Y19.76304 Z-0.33585
X50.58329 Y19.76313 Z-0.33586
X50.58341 Y19.76322 Z-0.33588
X50.58353 Y19.76331 Z-0.33589
X50.58365 Y19.7634 Z-0.3359
X50.58377 Y19.7635 Z-0.33592
X50.58389 Y19.76359 Z-0.33593
X50.58401 Y19.76368 Z-0.33594
X50.58413 Y19.76377 Z-0.33596
X50.58425 Y19.76386 Z-0.33597
X50.58437 Y19.76396 Z-0.33598
X50.58448 Y19.76405 Z-0.33599
X50.5846 Y19.76414 Z-0.33601
X50.58472 Y19.76423 Z-0.33602
X50.65055 Y19.83499 Z-0.34447
X50.65177 Y19.83686 Z-0.34467
X50.69016 Y19.92205 Z-0.35285
X50.70048 Y20.01492 Z-0.36102
X50.6817 Y20.10646 Z-0.3692
X50.63567 Y20.18777 Z-0.37737
X50.56684 Y20.25097 Z-0.38555
X50.4819 Y20.28992 Z-0.39372
X50.38909 Y20.30083 Z-0.4019
X50.29744 Y20.28265 Z-0.41007
X50.21583 Y20.23713 Z-0.41825
X50.15218 Y20.16871 Z-0.42642
X50.11269 Y20.08402 Z-0.4346
X50.10118 Y19.99129 Z-0.44277
X50.11878 Y19.89952 Z-0.45095
X50.16376 Y19.81762 Z-0.45912
X50.23177 Y19.75354 Z-0.4673
X50.31621 Y19.7135 Z-0.47547
X50.40886 Y19.7014 Z-0.48365
X50.50075 Y19.7184 Z-0.49183
X50.58294 Y19.76286 Z-0.5
G17
G03 X50.58472 Y19.76423 I-0.18203 J0.23832 F192.
G1 X50.65055 Y19.83499
X50.65177 Y19.83686
G03 X50.58294 Y19.76286 I-0.25086 J0.16432
G0 Z1.
X50.49427 Y20.28424
G1 Z-0.4 F48.
X50.4819 Y20.28992 Z-0.40119 F144.
X50.38909 Y20.30083 Z-0.40937
X50.29744 Y20.28265 Z-0.41754
X50.21583 Y20.23713 Z-0.42572
X50.15218 Y20.16871 Z-0.43389
X50.11269 Y20.08402 Z-0.44207
X50.10118 Y19.99129 Z-0.45024
X50.11878 Y19.89952 Z-0.45842
X50.16376 Y19.81762 Z-0.46659
X50.23177 Y19.75354 Z-0.47477
X50.31621 Y19.7135 Z-0.48294
X50.40886 Y19.7014 Z-0.49112
X50.50075 Y19.7184 Z-0.49929
X50.58294 Y19.76286 Z-0.50747
X50.58305 Y19.76295 Z-0.50748
X50.58317 Y19.76304 Z-0.5075
X50.58329 Y19.76313 Z-0.50751
X50.58341 Y19.76322 Z-0.50752
X50.58353 Y19.76331 Z-0.50753
X50.58365 Y19.7634 Z-0.50755
X50.58377 Y19.7635 Z-0.50756
X50.58389 Y19.76359 Z-0.50757
X50.58401 Y19.76368 Z-0.50759
X50.58413 Y19.76377 Z-0.5076
X50.58425 Y19.76386 Z-0.50761
X50.58437 Y19.76396 Z-0.50763
X50.58448 Y19.76405 Z-0.50764
X50.5846 Y19.76414 Z-0.50765
X50.58472 Y19.76423 Z-0.50767
X50.65055 Y19.83499 Z-0.51612
X50.65177 Y19.83686 Z-0.51632
X50.69016 Y19.92205 Z-0.52449
X50.70048 Y20.01492 Z-0.53267
X50.6817 Y20.10646 Z-0.54084
X50.63567 Y20.18777 Z-0.54902
X50.56684 Y20.25097 Z-0.55719
X50.4819 Y20.28992 Z-0.56537
X50.38909 Y20.30083 Z-0.57354
X50.29744 Y20.28265 Z-0.58172
X50.21583 Y20.23713 Z-0.58989
X50.15218 Y20.16871 Z-0.59807
X50.11269 Y20.08402 Z-0.60624
X50.10118 Y19.99129 Z-0.61442
X50.11878 Y19.89952 Z-0.6226
X50.16376 Y19.81762 Z-0.63077
X50.23177 Y19.75354 Z-0.63895
X50.31621 Y19.7135 Z-0.64712
X50.40886 Y19.7014 Z-0.6553
X50.50075 Y19.7184 Z-0.66347
X50.58294 Y19.76286 Z-0.67165
X50.58305 Y19.76295 Z-0.67166
X50.58317 Y19.76304 Z-0.67167
X50.58329 Y19.76313 Z-0.67169
X50.58341 Y19.76322 Z-0.6717
X50.58353 Y19.76331 Z-0.67171
X50.58365 Y19.7634 Z-0.67173
X50.58377 Y19.7635 Z-0.67174
X50.58389 Y19.76359 Z-0.67175
X50.58401 Y19.76368 Z-0.67176
X50.58413 Y19.76377 Z-0.67178
X50.58425 Y19.76386 Z-0.67179
X50.58437 Y19.76396 Z-0.6718
X50.58448 Y19.76405 Z-0.67182
X50.5846 Y19.76414 Z-0.67183
X50.58472 Y19.76423 Z-0.67184
X50.65055 Y19.83499 Z-0.6803
X50.65177 Y19.83686 Z-0.68049
X50.69016 Y19.92205 Z-0.68867
X50.70048 Y20.01492 Z-0.69684
X50.6817 Y20.10646 Z-0.70502
X50.63567 Y20.18777 Z-0.7132
X50.56684 Y20.25097 Z-0.72137
X50.4819 Y20.28992 Z-0.72955
X50.38909 Y20.30083 Z-0.73772
X50.29744 Y20.28265 Z-0.7459
X50.21583 Y20.23713 Z-0.75407
X50.15218 Y20.16871 Z-0.76225
X50.11269 Y20.08402 Z-0.77042
X50.10118 Y19.99129 Z-0.7786
X50.11878 Y19.89952 Z-0.78677
X50.16376 Y19.81762 Z-0.79495
X50.23177 Y19.75354 Z-0.80312
X50.31621 Y19.7135 Z-0.8113
X50.40886 Y19.7014 Z-0.81947
X50.50075 Y19.7184 Z-0.82765
X50.58294 Y19.76286 Z-0.83582
X50.58305 Y19.76295 Z-0.83584
X50.58317 Y19.76304 Z-0.83585
X50.58329 Y19.76313 Z-0.83586
X50.58341 Y19.76322 Z-0.83588
X50.58353 Y19.76331 Z-0.83589
X50.58365 Y19.7634 Z-0.8359
X50.58377 Y19.7635 Z-0.83592
X50.58389 Y19.76359 Z-0.83593
X50.58401 Y19.76368 Z-0.83594
X50.58413 Y19.76377 Z-0.83596
X50.58425 Y19.76386 Z-0.83597
X50.58437 Y19.76396 Z-0.83598
X50.58448 Y19.76405 Z-0.83599
X50.5846 Y19.76414 Z-0.83601
X50.58472 Y19.76423 Z-0.83602
X50.65055 Y19.83499 Z-0.84448
X50.65177 Y19.83686 Z-0.84467
X50.69016 Y19.92205 Z-0.85285
X50.70048 Y20.01492 Z-0.86102
X50.6817 Y20.10646 Z-0.8692
X50.63567 Y20.18777 Z-0.87737
X50.56684 Y20.25097 Z-0.88555
X50.4819 Y20.28992 Z-0.89372
X50.38909 Y20.30083 Z-0.9019
X50.29744 Y20.28265 Z-0.91007
X50.21583 Y20.23713 Z-0.91825
X50.15218 Y20.16871 Z-0.92642
X50.11269 Y20.08402 Z-0.9346
X50.10118 Y19.99129 Z-0.94277
X50.11878 Y19.89952 Z-0.95095
X50.16376 Y19.81762 Z-0.95912
X50.23177 Y19.75354 Z-0.9673
X50.31621 Y19.7135 Z-0.97547
X50.40886 Y19.7014 Z-0.98365
X50.50075 Y19.7184 Z-0.99183
X50.58294 Y19.76286 Z-1.
G03 X50.58472 Y19.76423 I-0.18203 J0.23832 F192.
G1 X50.65055 Y19.83499
X50.65177 Y19.83686
G03 X50.58294 Y19.76286 I-0.25086 J0.16432
G0 Z1.
X50.49427 Y20.28424
G1 Z-0.9 F48.
X50.4819 Y20.28992 Z-0.90119 F144.
X50.38909 Y20.30083 Z-0.90937
X50.29744 Y20.28265 Z-0.91754
X50.21583 Y20.23713 Z-0.92572
X50.15218 Y20.16871 Z-0.93389
X50.11269 Y20.08402 Z-0.94207
X50.10118 Y19.99129 Z-0.95024
X50.11878 Y19.89952 Z-0.95842
X50.16376 Y19.81762 Z-0.96659
X50.23177 Y19.75354 Z-0.97477
X50.31621 Y19.7135 Z-0.98294
X50.40886 Y19.7014 Z-0.99112
X50.50075 Y19.7184 Z-0.99929
X50.58294 Y19.76286 Z-1.00747
X50.58305 Y19.76295 Z-1.00748
X50.58317 Y19.76304 Z-1.0075
X50.58329 Y19.76313 Z-1.00751
X50.58341 Y19.76322 Z-1.00752
X50.58353 Y19.76331 Z-1.00754
X50.58365 Y19.7634 Z-1.00755
X50.58377 Y19.7635 Z-1.00756
X50.58389 Y19.76359 Z-1.00757
X50.58401 Y19.76368 Z-1.00759
X50.58413 Y19.76377 Z-1.0076
X50.58425 Y19.76386 Z-1.00761
X50.58437 Y19.76396 Z-1.00763
X50.58448 Y19.76405 Z-1.00764
X50.5846 Y19.76414 Z-1.00765
X50.58472 Y19.76423 Z-1.00767
X50.65055 Y19.83499 Z-1.01612
X50.65177 Y19.83686 Z-1.01632
X50.69016 Y19.92205 Z-1.02449
X50.70048 Y20.01492 Z-1.03267
X50.6817 Y20.10646 Z-1.04084
X50.63567 Y20.18777 Z-1.04902
X50.56684 Y20.25097 Z-1.05719
X50.4819 Y20.28992 Z-1.06537
X50.38909 Y20.30083 Z-1.07354
X50.29744 Y20.28265 Z-1.08172
X50.21583 Y20.23713 Z-1.08989
X50.15218 Y20.16871 Z-1.09807
X50.11269 Y20.08402 Z-1.10624
X50.10118 Y19.99129 Z-1.11442
X50.11878 Y19.89952 Z-1.1226
X50.16376 Y19.81762 Z-1.13077
X50.23177 Y19.75354 Z-1.13894
X50.31621 Y19.7135 Z-1.14712
X50.40886 Y19.7014 Z-1.1553
X50.50075 Y19.7184 Z-1.16347
X50.58294 Y19.76286 Z-1.17165
X50.58305 Y19.76295 Z-1.17166
X50.58317 Y19.76304 Z-1.17167
X50.58329 Y19.76313 Z-1.17169
X50.58341 Y19.76322 Z-1.1717
X50.58353 Y19.76331 Z-1.17171
X50.58365 Y19.7634 Z-1.17173
X50.58377 Y19.7635 Z-1.17174
X50.58389 Y19.76359 Z-1.17175
X50.58401 Y19.76368 Z-1.17176
X50.58413 Y19.76377 Z-1.17178
X50.58425 Y19.76386 Z-1.17179
X50.58437 Y19.76396 Z-1.1718
X50.58448 Y19.76405 Z-1.17182
X50.5846 Y19.76414 Z-1.17183
X50.58472 Y19.76423 Z-1.17184
X50.65055 Y19.83499 Z-1.1803
X50.65177 Y19.83686 Z-1.18049
X50.69016 Y19.92205 Z-1.18867
X50.70048 Y20.01492 Z-1.19684
X50.6817 Y20.10646 Z-1.20502
X50.63567 Y20.18777 Z-1.2132
X50.56684 Y20.25097 Z-1.22137
X50.4819 Y20.28992 Z-1.22955
X50.38909 Y20.30083 Z-1.23772
X50.29744 Y20.28265 Z-1.2459
X50.21583 Y20.23713 Z-1.25407
X50.15218 Y20.16871 Z-1.26225
X50.11269 Y20.08402 Z-1.27042
X50.10118 Y19.99129 Z-1.2786
X50.11878 Y19.89952 Z-1.28677
X50.16376 Y19.81762 Z-1.29495
X50.23177 Y19.75354 Z-1.30312
X50.31621 Y19.7135 Z-1.3113
X50.40886 Y19.7014 Z-1.31947
X50.50075 Y19.7184 Z-1.32765
X50.58294 Y19.76286 Z-1.33582
X50.58305 Y19.76295 Z-1.33584
X50.58317 Y19.76304 Z-1.33585
X50.58329 Y19.76313 Z-1.33586
X50.58341 Y19.76322 Z-1.33588
X50.58353 Y19.76331 Z-1.33589
X50.58365 Y19.7634 Z-1.3359
X50.58377 Y19.7635 Z-1.33592
X50.58389 Y19.76359 Z-1.33593
X50.58401 Y19.76368 Z-1.33594
X50.58413 Y19.76377 Z-1.33596
X50.58425 Y19.76386 Z-1.33597
X50.58437 Y19.76396 Z-1.33598
X50.58448 Y19.76405 Z-1.33599
X50.5846 Y19.76414 Z-1.33601
X50.58472 Y19.76423 Z-1.33602
X50.65055 Y19.83499 Z-1.34448
X50.65177 Y19.83686 Z-1.34467
X50.69016 Y19.92205 Z-1.35285
X50.70048 Y20.01492 Z-1.36102
X50.6817 Y20.10646 Z-1.3692
X50.63567 Y20.18777 Z-1.37737
X50.56684 Y20.25097 Z-1.38555
X50.4819 Y20.28992 Z-1.39372
X50.38909 Y20.30083 Z-1.4019
X50.29744 Y20.28265 Z-1.41007
X50.21583 Y20.23713 Z-1.41825
X50.15218 Y20.16871 Z-1.42642
X50.11269 Y20.08402 Z-1.4346
X50.10118 Y19.99129 Z-1.44277
X50.11878 Y19.89952 Z-1.45095
X50.16376 Y19.81762 Z-1.45912
X50.23177 Y19.75354 Z-1.4673
X50.31621 Y19.7135 Z-1.47547
X50.40886 Y19.7014 Z-1.48365
X50.50075 Y19.7184 Z-1.49183
X50.58294 Y19.76286 Z-1.5
G03 X50.58472 Y19.76423 I-0.18203 J0.23832 F192.
G1 X50.65055 Y19.83499
X50.65177 Y19.83686
G03 X50.58294 Y19.76286 I-0.25086 J0.16432
G0 Z1.
X50.49427 Y20.28424
G1 Z-1.4 F48.
X50.4819 Y20.28992 Z-1.40119 F144.
X50.38909 Y20.30083 Z-1.40937
X50.29744 Y20.28265 Z-1.41754
X50.21583 Y20.23713 Z-1.42572
X50.15218 Y20.16871 Z-1.43389
X50.11269 Y20.08402 Z-1.44207
X50.10118 Y19.99129 Z-1.45024
X50.11878 Y19.89952 Z-1.45842
X50.16376 Y19.81762 Z-1.46659
X50.23177 Y19.75354 Z-1.47477
X50.31621 Y19.7135 Z-1.48294
X50.40886 Y19.7014 Z-1.49112
X50.50075 Y19.7184 Z-1.49929
X50.58294 Y19.76286 Z-1.50747
X50.58305 Y19.76295 Z-1.50748
X50.58317 Y19.76304 Z-1.5075
X50.58329 Y19.76313 Z-1.50751
X50.58341 Y19.76322 Z-1.50752
X50.58353 Y19.76331 Z-1.50754
X50.58365 Y19.7634 Z-1.50755
X50.58377 Y19.7635 Z-1.50756
X50.58389 Y19.76359 Z-1.50757
X50.58401 Y19.76368 Z-1.50759
X50.58413 Y19.76377 Z-1.5076
X50.58425 Y19.76386 Z-1.50761
X50.58437 Y19.76396 Z-1.50763
X50.58448 Y19.76405 Z-1.50764
X50.5846 Y19.76414 Z-1.50765
X50.58472 Y19.76423 Z-1.50767
X50.65055 Y19.83499 Z-1.51612
X50.65177 Y19.83686 Z-1.51632
X50.69016 Y19.92205 Z-1.52449
X50.70048 Y20.01492 Z-1.53267
X50.6817 Y20.10646 Z-1.54084
X50.63567 Y20.18777 Z-1.54902
X50.56684 Y20.25097 Z-1.55719
X50.4819 Y20.28992 Z-1.56537
X50.38909 Y20.30083 Z-1.57354
X50.29744 Y20.28265 Z-1.58172
X50.21583 Y20.23713 Z-1.58989
X50.15218 Y20.16871 Z-1.59807
X50.11269 Y20.08402 Z-1.60624
X50.10118 Y19.99129 Z-1.61442
X50.11878 Y19.89952 Z-1.6226
X50.16376 Y19.81762 Z-1.63077
X50.23177 Y19.75354 Z-1.63895
X50.31621 Y19.7135 Z-1.64712
X50.40886 Y19.7014 Z-1.6553
X50.50075 Y19.7184 Z-1.66347
X50.58294 Y19.76286 Z-1.67165
X50.58305 Y19.76295 Z-1.67166
X50.58317 Y19.76304 Z-1.67167
X50.58329 Y19.76313 Z-1.67169
X50.58341 Y19.76322 Z-1.6717
X50.58353 Y19.76331 Z-1.67171
X50.58365 Y19.7634 Z-1.67173
X50.58377 Y19.7635 Z-1.67174
X50.58389 Y19.76359 Z-1.67175
X50.58401 Y19.76368 Z-1.67176
X50.58413 Y19.76377 Z-1.67178
X50.58425 Y19.76386 Z-1.67179
X50.58437 Y19.76396 Z-1.6718
X50.58448 Y19.76405 Z-1.67182
X50.5846 Y19.76414 Z-1.67183
X50.58472 Y19.76423 Z-1.67184
X50.65055 Y19.83499 Z-1.6803
X50.65177 Y19.83686 Z-1.68049
X50.69016 Y19.92205 Z-1.68867
X50.70048 Y20.01492 Z-1.69684
X50.6817 Y20.10646 Z-1.70502
X50.63567 Y20.18777 Z-1.7132
X50.56684 Y20.25097 Z-1.72137
X50.4819 Y20.28992 Z-1.72955
X50.38909 Y20.30083 Z-1.73772
X50.29744 Y20.28265 Z-1.7459
X50.21583 Y20.23713 Z-1.75407
X50.15218 Y20.16871 Z-1.76225
X50.11269 Y20.08402 Z-1.77042
X50.10118 Y19.99129 Z-1.7786
X50.11878 Y19.89952 Z-1.78677
X50.16376 Y19.81762 Z-1.79495
X50.23177 Y19.75354 Z-1.80312
X50.31621 Y19.7135 Z-1.8113
X50.40886 Y19.7014 Z-1.81947
X50.50075 Y19.7184 Z-1.82765
X50.58294 Y19.76286 Z-1.83582
X50.58305 Y19.76295 Z-1.83584
X50.58317 Y19.76304 Z-1.83585
X50.58329 Y19.76313 Z-1.83586
X50.58341 Y19.76322 Z-1.83588
X50.58353 Y19.76331 Z-1.83589
X50.58365 Y19.7634 Z-1.8359
X50.58377 Y19.7635 Z-1.83592
X50.58389 Y19.76359 Z-1.83593
X50.58401 Y19.76368 Z-1.83594
X50.58413 Y19.76377 Z-1.83596
X50.58425 Y19.76386 Z-1.83597
X50.58437 Y19.76396 Z-1.83598
X50.58448 Y19.76405 Z-1.83599
X50.5846 Y19.76414 Z-1.83601
X50.58472 Y19.76423 Z-1.83602
X50.65055 Y19.83499 Z-1.84448
X50.65177 Y19.83686 Z-1.84467
X50.69016 Y19.92205 Z-1.85285
X50.70048 Y20.01492 Z-1.86102
X50.6817 Y20.10646 Z-1.8692
X50.63567 Y20.18777 Z-1.87737
X50.56684 Y20.25097 Z-1.88555
X50.4819 Y20.28992 Z-1.89372
X50.38909 Y20.30083 Z-1.9019
X50.29744 Y20.28265 Z-1.91007
X50.21583 Y20.23713 Z-1.91825
X50.15218 Y20.16871 Z-1.92642
X50.11269 Y20.08402 Z-1.9346
X50.10118 Y19.99129 Z-1.94277
X50.11878 Y19.89952 Z-1.95095
X50.16376 Y19.81762 Z-1.95912
X50.23177 Y19.75354 Z-1.9673
X50.31621 Y19.7135 Z-1.97547
X50.40886 Y19.7014 Z-1.98365
X50.50075 Y19.7184 Z-1.99183
X50.58294 Y19.76286 Z-2.
G03 X50.58472 Y19.76423 I-0.18203 J0.23832 F192.
G1 X50.65055 Y19.83499
X50.65177 Y19.83686
G03 X50.58294 Y19.76286 I-0.25086 J0.16432
G0 Z1.
X50.49427 Y20.28424
G1 Z-1.9 F48.
X50.4819 Y20.28992 Z-1.90119 F144.
X50.38909 Y20.30083 Z-1.90937
X50.29744 Y20.28265 Z-1.91754
X50.21583 Y20.23713 Z-1.92572
X50.15218 Y20.16871 Z-1.93389
X50.11269 Y20.08402 Z-1.94207
X50.10118 Y19.99129 Z-1.95024
X50.11878 Y19.89952 Z-1.95842
X50.16376 Y19.81762 Z-1.96659
X50.23177 Y19.75354 Z-1.97477
X50.31621 Y19.7135 Z-1.98294
X50.40886 Y19.7014 Z-1.99112
X50.50075 Y19.7184 Z-1.99929
X50.58294 Y19.76286 Z-2.00747
X50.58305 Y19.76295 Z-2.00748
X50.58317 Y19.76304 Z-2.0075
X50.58329 Y19.76313 Z-2.00751
X50.58341 Y19.76322 Z-2.00752
X50.58353 Y19.76331 Z-2.00754
X50.58365 Y19.7634 Z-2.00755
X50.58377 Y19.7635 Z-2.00756
X50.58389 Y19.76359 Z-2.00757
X50.58401 Y19.76368 Z-2.00759
X50.58413 Y19.76377 Z-2.0076
X50.58425 Y19.76386 Z-2.00761
X50.58437 Y19.76396 Z-2.00763
X50.58448 Y19.76405 Z-2.00764
X50.5846 Y19.76414 Z-2.00765
X50.58472 Y19.76423 Z-2.00767
X50.65055 Y19.83499 Z-2.01612
X50.65177 Y19.83686 Z-2.01632
X50.69016 Y19.92205 Z-2.02449
X50.70048 Y20.01492 Z-2.03267
X50.6817 Y20.10646 Z-2.04084
X50.63567 Y20.18777 Z-2.04902
X50.56684 Y20.25097 Z-2.05719
X50.4819 Y20.28992 Z-2.06537
X50.38909 Y20.30083 Z-2.07354
X50.29744 Y20.28265 Z-2.08172
X50.21583 Y20.23713 Z-2.08989
X50.15218 Y20.16871 Z-2.09807
X50.11269 Y20.08402 Z-2.10624
X50.10118 Y19.99129 Z-2.11442
X50.11878 Y19.89952 Z-2.1226
X50.16376 Y19.81762 Z-2.13077
X50.23177 Y19.75354 Z-2.13894
X50.31621 Y19.7135 Z-2.14712
X50.40886 Y19.7014 Z-2.1553
X50.50075 Y19.7184 Z-2.16347
X50.58294 Y19.76286 Z-2.17165
X50.58305 Y19.76295 Z-2.17166
X50.58317 Y19.76304 Z-2.17167
X50.58329 Y19.76313 Z-2.17169
X50.58341 Y19.76322 Z-2.1717
X50.58353 Y19.76331 Z-2.17171
X50.58365 Y19.7634 Z-2.17173
X50.58377 Y19.7635 Z-2.17174
X50.58389 Y19.76359 Z-2.17175
X50.58401 Y19.76368 Z-2.17176
X50.58413 Y19.76377 Z-2.17178
X50.58425 Y19.76386 Z-2.17179
X50.58437 Y19.76396 Z-2.1718
X50.58448 Y19.76405 Z-2.17182
X50.5846 Y19.76414 Z-2.17183
X50.58472 Y19.76423 Z-2.17184
X50.65055 Y19.83499 Z-2.1803
X50.65177 Y19.83686 Z-2.18049
X50.69016 Y19.92205 Z-2.18867
X50.70048 Y20.01492 Z-2.19684
X50.6817 Y20.10646 Z-2.20502
X50.63567 Y20.18777 Z-2.21319
X50.56684 Y20.25097 Z-2.22137
X50.4819 Y20.28992 Z-2.22955
X50.38909 Y20.30083 Z-2.23772
X50.29744 Y20.28265 Z-2.2459
X50.21583 Y20.23713 Z-2.25407
X50.15218 Y20.16871 Z-2.26225
X50.11269 Y20.08402 Z-2.27042
X50.10118 Y19.99129 Z-2.2786
X50.11878 Y19.89952 Z-2.28677
X50.16376 Y19.81762 Z-2.29495
X50.23177 Y19.75354 Z-2.30312
X50.31621 Y19.7135 Z-2.3113
X50.40886 Y19.7014 Z-2.31947
X50.50075 Y19.7184 Z-2.32765
X50.58294 Y19.76286 Z-2.33582
X50.58305 Y19.76295 Z-2.33584
X50.58317 Y19.76304 Z-2.33585
X50.58329 Y19.76313 Z-2.33586
X50.58341 Y19.76322 Z-2.33588
X50.58353 Y19.76331 Z-2.33589
X50.58365 Y19.7634 Z-2.3359
X50.58377 Y19.7635 Z-2.33592
X50.58389 Y19.76359 Z-2.33593
X50.58401 Y19.76368 Z-2.33594
X50.58413 Y19.76377 Z-2.33596
X50.58425 Y19.76386 Z-2.33597
X50.58437 Y19.76396 Z-2.33598
X50.58448 Y19.76405 Z-2.33599
X50.5846 Y19.76414 Z-2.33601
X50.58472 Y19.76423 Z-2.33602
X50.65055 Y19.83499 Z-2.34448
X50.65177 Y19.83686 Z-2.34467
X50.69016 Y19.92205 Z-2.35285
X50.70048 Y20.01492 Z-2.36102
X50.6817 Y20.10646 Z-2.3692
X50.63567 Y20.18777 Z-2.37737
X50.56684 Y20.25097 Z-2.38555
X50.4819 Y20.28992 Z-2.39372
X50.38909 Y20.30083 Z-2.4019
X50.29744 Y20.28265 Z-2.41007
X50.21583 Y20.23713 Z-2.41825
X50.15218 Y20.16871 Z-2.42642
X50.11269 Y20.08402 Z-2.4346
X50.10118 Y19.99129 Z-2.44277
X50.11878 Y19.89952 Z-2.45095
X50.16376 Y19.81762 Z-2.45912
X50.23177 Y19.75354 Z-2.4673
X50.31621 Y19.7135 Z-2.47547
X50.40886 Y19.7014 Z-2.48365
X50.50075 Y19.7184 Z-2.49183
X50.58294 Y19.76286 Z-2.5
G03 X50.58472 Y19.76423 I-0.18203 J0.23832 F192.
G1 X50.65055 Y19.83499
X50.65177 Y19.83686
G03 X50.58294 Y19.76286 I-0.25086 J0.16432
G0 Z1.
X50.49427 Y20.28424
G1 Z-2.4 F48.
X50.4819 Y20.28992 Z-2.40119 F144.
X50.38909 Y20.30083 Z-2.40937
X50.29744 Y20.28265 Z-2.41754
X50.21583 Y20.23713 Z-2.42572
X50.15218 Y20.16871 Z-2.43389
X50.11269 Y20.08402 Z-2.44207
X50.10118 Y19.99129 Z-2.45024
X50.11878 Y19.89952 Z-2.45842
X50.16376 Y19.81762 Z-2.46659
X50.23177 Y19.75354 Z-2.47477
X50.31621 Y19.7135 Z-2.48294
X50.40886 Y19.7014 Z-2.49112
X50.50075 Y19.7184 Z-2.49929
X50.58294 Y19.76286 Z-2.50747
X50.58305 Y19.76295 Z-2.50748
X50.58317 Y19.76304 Z-2.50749
X50.58329 Y19.76313 Z-2.50751
X50.58341 Y19.76322 Z-2.50752
X50.58353 Y19.76331 Z-2.50754
X50.58365 Y19.7634 Z-2.50755
X50.58377 Y19.7635 Z-2.50756
X50.58389 Y19.76359 Z-2.50757
X50.58401 Y19.76368 Z-2.50759
X50.58413 Y19.76377 Z-2.5076
X50.58425 Y19.76386 Z-2.50761
X50.58437 Y19.76396 Z-2.50763
X50.58448 Y19.76405 Z-2.50764
X50.5846 Y19.76414 Z-2.50765
X50.58472 Y19.76423 Z-2.50767
X50.65055 Y19.83499 Z-2.51612
X50.65177 Y19.83686 Z-2.51632
X50.69016 Y19.92205 Z-2.52449
X50.70048 Y20.01492 Z-2.53267
X50.6817 Y20.10646 Z-2.54084
X50.63567 Y20.18777 Z-2.54902
X50.56684 Y20.25097 Z-2.55719
X50.4819 Y20.28992 Z-2.56537
X50.38909 Y20.30083 Z-2.57354
X50.29744 Y20.28265 Z-2.58172
X50.21583 Y20.23713 Z-2.58989
X50.15218 Y20.16871 Z-2.59807
X50.11269 Y20.08402 Z-2.60624
X50.10118 Y19.99129 Z-2.61442
X50.11878 Y19.89952 Z-2.6226
X50.16376 Y19.81762 Z-2.63077
X50.23177 Y19.75354 Z-2.63895
X50.31621 Y19.7135 Z-2.64712
X50.40886 Y19.7014 Z-2.6553
X50.50075 Y19.7184 Z-2.66347
X50.58294 Y19.76286 Z-2.67165
X50.58305 Y19.76295 Z-2.67166
X50.58317 Y19.76304 Z-2.67167
X50.58329 Y19.76313 Z-2.67169
X50.58341 Y19.76322 Z-2.6717
X50.58353 Y19.76331 Z-2.67171
X50.58365 Y19.7634 Z-2.67173
X50.58377 Y19.7635 Z-2.67174
X50.58389 Y19.76359 Z-2.67175
X50.58401 Y19.76368 Z-2.67176
X50.58413 Y19.76377 Z-2.67178
X50.58425 Y19.76386 Z-2.67179
X50.58437 Y19.76396 Z-2.6718
X50.58448 Y19.76405 Z-2.67182
X50.5846 Y19.76414 Z-2.67183
X50.58472 Y19.76423 Z-2.67184
X50.65055 Y19.83499 Z-2.6803
X50.65177 Y19.83686 Z-2.68049
X50.69016 Y19.92205 Z-2.68867
X50.70048 Y20.01492 Z-2.69684
X50.6817 Y20.10646 Z-2.70502
X50.63567 Y20.18777 Z-2.7132
X50.56684 Y20.25097 Z-2.72137
X50.4819 Y20.28992 Z-2.72955
X50.38909 Y20.30083 Z-2.73772
X50.29744 Y20.28265 Z-2.7459
X50.21583 Y20.23713 Z-2.75407
X50.15218 Y20.16871 Z-2.76225
X50.11269 Y20.08402 Z-2.77042
X50.10118 Y19.99129 Z-2.7786
X50.11878 Y19.89952 Z-2.78677
X50.16376 Y19.81762 Z-2.79495
X50.23177 Y19.75354 Z-2.80312
X50.31621 Y19.7135 Z-2.8113
X50.40886 Y19.7014 Z-2.81947
X50.50075 Y19.7184 Z-2.82765
X50.58294 Y19.76286 Z-2.83582
X50.58305 Y19.76295 Z-2.83584
X50.58317 Y19.76304 Z-2.83585
X50.58329 Y19.76313 Z-2.83586
X50.58341 Y19.76322 Z-2.83588
X50.58353 Y19.76331 Z-2.83589
X50.58365 Y19.7634 Z-2.8359
X50.58377 Y19.7635 Z-2.83592
X50.58389 Y19.76359 Z-2.83593
X50.58401 Y19.76368 Z-2.83594
X50.58413 Y19.76377 Z-2.83596
X50.58425 Y19.76386 Z-2.83597
X50.58437 Y19.76396 Z-2.83598
X50.58448 Y19.76405 Z-2.83599
X50.5846 Y19.76414 Z-2.83601
X50.58472 Y19.76423 Z-2.83602
X50.65055 Y19.83499 Z-2.84448
X50.65177 Y19.83686 Z-2.84467
X50.69016 Y19.92205 Z-2.85285
X50.70048 Y20.01492 Z-2.86102
X50.6817 Y20.10646 Z-2.8692
X50.63567 Y20.18777 Z-2.87737
X50.56684 Y20.25097 Z-2.88555
X50.4819 Y20.28992 Z-2.89372
X50.38909 Y20.30083 Z-2.9019
X50.29744 Y20.28265 Z-2.91007
X50.21583 Y20.23713 Z-2.91825
X50.15218 Y20.16871 Z-2.92642
X50.11269 Y20.08402 Z-2.9346
X50.10118 Y19.99129 Z-2.94277
X50.11878 Y19.89952 Z-2.95095
X50.16376 Y19.81762 Z-2.95912
X50.23177 Y19.75354 Z-2.9673
X50.31621 Y19.7135 Z-2.97547
X50.40886 Y19.7014 Z-2.98365
X50.50075 Y19.7184 Z-2.99183
X50.58294 Y19.76286 Z-3.
G03 X50.58472 Y19.76423 I-0.18203 J0.23832 F192.
G1 X50.65055 Y19.83499
X50.65177 Y19.83686
G03 X50.58294 Y19.76286 I-0.25086 J0.16432
G0 Z1.
X50.49427 Y20.28424
G1 Z-2.9 F48.
X50.4819 Y20.28992 Z-2.90119 F144.
X50.38909 Y20.30083 Z-2.90937
X50.29744 Y20.28265 Z-2.91754
X50.21583 Y20.23713 Z-2.92572
X50.15218 Y20.16871 Z-2.93389
X50.11269 Y20.08402 Z-2.94207
X50.10118 Y19.99129 Z-2.95024
X50.11878 Y19.89952 Z-2.95842
X50.16376 Y19.81762 Z-2.96659
X50.23177 Y19.75354 Z-2.97477
X50.31621 Y19.7135 Z-2.98294
X50.40886 Y19.7014 Z-2.99112
X50.50075 Y19.7184 Z-2.99929
X50.58294 Y19.76286 Z-3.00747
X50.58305 Y19.76295 Z-3.00748
X50.58317 Y19.76304 Z-3.0075
X50.58329 Y19.76313 Z-3.00751
X50.58341 Y19.76322 Z-3.00752
X50.58353 Y19.76331 Z-3.00754
X50.58365 Y19.7634 Z-3.00755
X50.58377 Y19.7635 Z-3.00756
X50.58389 Y19.76359 Z-3.00757
X50.58401 Y19.76368 Z-3.00759
X50.58413 Y19.76377 Z-3.0076
X50.58425 Y19.76386 Z-3.00761
X50.58437 Y19.76396 Z-3.00763
X50.58448 Y19.76405 Z-3.00764
X50.5846 Y19.76414 Z-3.00765
X50.58472 Y19.76423 Z-3.00767
X50.65055 Y19.83499 Z-3.01612
X50.65177 Y19.83686 Z-3.01632
X50.69016 Y19.92205 Z-3.02449
X50.70048 Y20.01492 Z-3.03267
X50.6817 Y20.10646 Z-3.04084
X50.63567 Y20.18777 Z-3.04902
X50.56684 Y20.25097 Z-3.05719
X50.4819 Y20.28992 Z-3.06537
X50.38909 Y20.30083 Z-3.07354
X50.29744 Y20.28265 Z-3.08172
X50.21583 Y20.23713 Z-3.08989
X50.15218 Y20.16871 Z-3.09807
X50.11269 Y20.08402 Z-3.10624
X50.10118 Y19.99129 Z-3.11442
X50.11878 Y19.89952 Z-3.1226
X50.16376 Y19.81762 Z-3.13077
X50.23177 Y19.75354 Z-3.13895
X50.31621 Y19.7135 Z-3.14712
X50.40886 Y19.7014 Z-3.1553
X50.50075 Y19.7184 Z-3.16347
X50.58294 Y19.76286 Z-3.17165
X50.58305 Y19.76295 Z-3.17166
X50.58317 Y19.76304 Z-3.17167
X50.58329 Y19.76313 Z-3.17169
X50.58341 Y19.76322 Z-3.1717
X50.58353 Y19.76331 Z-3.17171
X50.58365 Y19.7634 Z-3.17173
X50.58377 Y19.7635 Z-3.17174
X50.58389 Y19.76359 Z-3.17175
X50.58401 Y19.76368 Z-3.17176
X50.58413 Y19.76377 Z-3.17178
X50.58425 Y19.76386 Z-3.17179
X50.58437 Y19.76396 Z-3.1718
X50.58448 Y19.76405 Z-3.17182
X50.5846 Y19.76414 Z-3.17183
X50.58472 Y19.76423 Z-3.17184
X50.65055 Y19.83499 Z-3.1803
X50.65177 Y19.83686 Z-3.18049
X50.69016 Y19.92205 Z-3.18867
X50.70048 Y20.01492 Z-3.19684
X50.6817 Y20.10646 Z-3.20502
X50.63567 Y20.18777 Z-3.2132
X50.56684 Y20.25097 Z-3.22137
X50.4819 Y20.28992 Z-3.22955
X50.38909 Y20.30083 Z-3.23772
X50.29744 Y20.28265 Z-3.2459
X50.21583 Y20.23713 Z-3.25407
X50.15218 Y20.16871 Z-3.26225
X50.11269 Y20.08402 Z-3.27042
X50.10118 Y19.99129 Z-3.2786
X50.11878 Y19.89952 Z-3.28677
X50.16376 Y19.81762 Z-3.29495
X50.23177 Y19.75354 Z-3.30312
X50.31621 Y19.7135 Z-3.3113
X50.40886 Y19.7014 Z-3.31947
X50.50075 Y19.7184 Z-3.32765
X50.58294 Y19.76286 Z-3.33582
X50.58305 Y19.76295 Z-3.33584
X50.58317 Y19.76304 Z-3.33585
X50.58329 Y19.76313 Z-3.33586
X50.58341 Y19.76322 Z-3.33588
X50.58353 Y19.76331 Z-3.33589
X50.58365 Y19.7634 Z-3.3359
X50.58377 Y19.7635 Z-3.33592
X50.58389 Y19.76359 Z-3.33593
X50.58401 Y19.76368 Z-3.33594
X50.58413 Y19.76377 Z-3.33596
X50.58425 Y19.76386 Z-3.33597
X50.58437 Y19.76396 Z-3.33598
X50.58448 Y19.76405 Z-3.33599
X50.5846 Y19.76414 Z-3.33601
X50.58472 Y19.76423 Z-3.33602
X50.65055 Y19.83499 Z-3.34448
X50.65177 Y19.83686 Z-3.34467
X50.69016 Y19.92205 Z-3.35285
X50.70048 Y20.01492 Z-3.36102
X50.6817 Y20.10646 Z-3.3692
X50.63567 Y20.18777 Z-3.37737
X50.56684 Y20.25097 Z-3.38555
X50.4819 Y20.28992 Z-3.39372
X50.38909 Y20.30083 Z-3.4019
X50.29744 Y20.28265 Z-3.41007
X50.21583 Y20.23713 Z-3.41825
X50.15218 Y20.16871 Z-3.42642
X50.11269 Y20.08402 Z-3.4346
X50.10118 Y19.99129 Z-3.44277
X50.11878 Y19.89952 Z-3.45095
X50.16376 Y19.81762 Z-3.45912
X50.23177 Y19.75354 Z-3.4673
X50.31621 Y19.7135 Z-3.47547
X50.40886 Y19.7014 Z-3.48365
X50.50075 Y19.7184 Z-3.49183
X50.58294 Y19.76286 Z-3.5
G03 X50.58472 Y19.76423 I-0.18203 J0.23832 F192.
G1 X50.65055 Y19.83499
X50.65177 Y19.83686
G03 X50.58294 Y19.76286 I-0.25086 J0.16432
G0 Z1.
X50.49427 Y20.28424
G1 Z-3.4 F48.
X50.4819 Y20.28992 Z-3.40119 F144.
X50.38909 Y20.30083 Z-3.40937
X50.29744 Y20.28265 Z-3.41754
X50.21583 Y20.23713 Z-3.42572
X50.15218 Y20.16871 Z-3.43389
X50.11269 Y20.08402 Z-3.44207
X50.10118 Y19.99129 Z-3.45024
X50.11878 Y19.89952 Z-3.45842
X50.16376 Y19.81762 Z-3.46659
X50.23177 Y19.75354 Z-3.47477
X50.31621 Y19.7135 Z-3.48294
X50.40886 Y19.7014 Z-3.49112
X50.50075 Y19.7184 Z-3.49929
X50.58294 Y19.76286 Z-3.50747
X50.58305 Y19.76295 Z-3.50748
X50.58317 Y19.76304 Z-3.5075
X50.58329 Y19.76313 Z-3.50751
X50.58341 Y19.76322 Z-3.50752
X50.58353 Y19.76331 Z-3.50754
X50.58365 Y19.7634 Z-3.50755
X50.58377 Y19.7635 Z-3.50756
X50.58389 Y19.76359 Z-3.50757
X50.58401 Y19.76368 Z-3.50759
X50.58413 Y19.76377 Z-3.5076
X50.58425 Y19.76386 Z-3.50761
X50.58437 Y19.76396 Z-3.50763
X50.58448 Y19.76405 Z-3.50764
X50.5846 Y19.76414 Z-3.50765
X50.58472 Y19.76423 Z-3.50767
X50.65055 Y19.83499 Z-3.51612
X50.65177 Y19.83686 Z-3.51632
X50.69016 Y19.92205 Z-3.52449
X50.70048 Y20.01492 Z-3.53267
X50.6817 Y20.10646 Z-3.54084
X50.63567 Y20.18777 Z-3.54902
X50.56684 Y20.25097 Z-3.55719
X50.4819 Y20.28992 Z-3.56537
X50.38909 Y20.30083 Z-3.57354
X50.29744 Y20.28265 Z-3.58172
X50.21583 Y20.23713 Z-3.58989
X50.15218 Y20.16871 Z-3.59807
X50.11269 Y20.08402 Z-3.60624
X50.10118 Y19.99129 Z-3.61442
X50.11878 Y19.89952 Z-3.6226
X50.16376 Y19.81762 Z-3.63077
X50.23177 Y19.75354 Z-3.63895
X50.31621 Y19.7135 Z-3.64712
X50.40886 Y19.7014 Z-3.6553
X50.50075 Y19.7184 Z-3.66347
X50.58294 Y19.76286 Z-3.67165
X50.58305 Y19.76295 Z-3.67166
X50.58317 Y19.76304 Z-3.67167
X50.58329 Y19.76313 Z-3.67169
X50.58341 Y19.76322 Z-3.6717
X50.58353 Y19.76331 Z-3.67171
X50.58365 Y19.7634 Z-3.67173
X50.58377 Y19.7635 Z-3.67174
X50.58389 Y19.76359 Z-3.67175
X50.58401 Y19.76368 Z-3.67176
X50.58413 Y19.76377 Z-3.67178
X50.58425 Y19.76386 Z-3.67179
X50.58437 Y19.76396 Z-3.6718
X50.58448 Y19.76405 Z-3.67182
X50.5846 Y19.76414 Z-3.67183
X50.58472 Y19.76423 Z-3.67184
X50.65055 Y19.83499 Z-3.6803
X50.65177 Y19.83686 Z-3.68049
X50.69016 Y19.92205 Z-3.68867
X50.70048 Y20.01492 Z-3.69684
X50.6817 Y20.10646 Z-3.70502
X50.63567 Y20.18777 Z-3.7132
X50.56684 Y20.25097 Z-3.72137
X50.4819 Y20.28992 Z-3.72955
X50.38909 Y20.30083 Z-3.73772
X50.29744 Y20.28265 Z-3.7459
X50.21583 Y20.23713 Z-3.75407
X50.15218 Y20.16871 Z-3.76225
X50.11269 Y20.08402 Z-3.77042
X50.10118 Y19.99129 Z-3.7786
X50.11878 Y19.89952 Z-3.78677
X50.16376 Y19.81762 Z-3.79495
X50.23177 Y19.75354 Z-3.80312
X50.31621 Y19.7135 Z-3.8113
X50.40886 Y19.7014 Z-3.81947
X50.50075 Y19.7184 Z-3.82765
X50.58294 Y19.76286 Z-3.83582
X50.58305 Y19.76295 Z-3.83584
X50.58317 Y19.76304 Z-3.83585
X50.58329 Y19.76313 Z-3.83586
X50.58341 Y19.76322 Z-3.83588
X50.58353 Y19.76331 Z-3.83589
X50.58365 Y19.7634 Z-3.8359
X50.58377 Y19.7635 Z-3.83592
X50.58389 Y19.76359 Z-3.83593
X50.58401 Y19.76368 Z-3.83594
X50.58413 Y19.76377 Z-3.83596
X50.58425 Y19.76386 Z-3.83597
X50.58437 Y19.76396 Z-3.83598
X50.58448 Y19.76405 Z-3.83599
X50.5846 Y19.76414 Z-3.83601
X50.58472 Y19.76423 Z-3.83602
X50.65055 Y19.83499 Z-3.84448
X50.65177 Y19.83686 Z-3.84467
X50.69016 Y19.92205 Z-3.85285
X50.70048 Y20.01492 Z-3.86102
X50.6817 Y20.10646 Z-3.8692
X50.63567 Y20.18777 Z-3.87737
X50.56684 Y20.25097 Z-3.88555
X50.4819 Y20.28992 Z-3.89372
X50.38909 Y20.30083 Z-3.9019
X50.29744 Y20.28265 Z-3.91007
X50.21583 Y20.23713 Z-3.91825
X50.15218 Y20.16871 Z-3.92642
X50.11269 Y20.08402 Z-3.9346
X50.10118 Y19.99129 Z-3.94277
X50.11878 Y19.89952 Z-3.95095
X50.16376 Y19.81762 Z-3.95912
X50.23177 Y19.75354 Z-3.9673
X50.31621 Y19.7135 Z-3.97547
X50.40886 Y19.7014 Z-3.98365
X50.50075 Y19.7184 Z-3.99183
X50.58294 Y19.76286 Z-4.
G03 X50.58472 Y19.76423 I-0.18203 J0.23832 F192.
G1 X50.65055 Y19.83499
X50.65177 Y19.83686
G03 X50.58294 Y19.76286 I-0.25086 J0.16432
G0 Z1.
X50.49427 Y20.28424
G1 Z-3.9 F48.
X50.4819 Y20.28992 Z-3.90119 F144.
X50.38909 Y20.30083 Z-3.90937
X50.29744 Y20.28265 Z-3.91754
X50.21583 Y20.23713 Z-3.92572
X50.15218 Y20.16871 Z-3.93389
X50.11269 Y20.08402 Z-3.94207
X50.10118 Y19.99129 Z-3.95024
X50.11878 Y19.89952 Z-3.95842
X50.16376 Y19.81762 Z-3.96659
X50.23177 Y19.75354 Z-3.97477
X50.31621 Y19.7135 Z-3.98294
X50.40886 Y19.7014 Z-3.99112
X50.50075 Y19.7184 Z-3.99929
X50.58294 Y19.76286 Z-4.00747
X50.58305 Y19.76295 Z-4.00748
X50.58317 Y19.76304 Z-4.0075
X50.58329 Y19.76313 Z-4.00751
X50.58341 Y19.76322 Z-4.00752
X50.58353 Y19.76331 Z-4.00754
X50.58365 Y19.7634 Z-4.00755
X50.58377 Y19.7635 Z-4.00756
X50.58389 Y19.76359 Z-4.00757
X50.58401 Y19.76368 Z-4.00759
X50.58413 Y19.76377 Z-4.0076
X50.58425 Y19.76386 Z-4.00761
X50.58437 Y19.76396 Z-4.00763
X50.58448 Y19.76405 Z-4.00764
X50.5846 Y19.76414 Z-4.00765
X50.58472 Y19.76423 Z-4.00767
X50.65055 Y19.83499 Z-4.01612
X50.65177 Y19.83686 Z-4.01632
X50.69016 Y19.92205 Z-4.02449
X50.70048 Y20.01492 Z-4.03267
X50.6817 Y20.10646 Z-4.04084
X50.63567 Y20.18777 Z-4.04902
X50.56684 Y20.25097 Z-4.05719
X50.4819 Y20.28992 Z-4.06537
X50.38909 Y20.30083 Z-4.07354
X50.29744 Y20.28265 Z-4.08172
X50.21583 Y20.23713 Z-4.08989
X50.15218 Y20.16871 Z-4.09807
X50.11269 Y20.08402 Z-4.10624
X50.10118 Y19.99129 Z-4.11442
X50.11878 Y19.89952 Z-4.1226
X50.16376 Y19.81762 Z-4.13077
X50.23177 Y19.75354 Z-4.13895
X50.31621 Y19.7135 Z-4.14712
X50.40886 Y19.7014 Z-4.1553
X50.50075 Y19.7184 Z-4.16347
X50.58294 Y19.76286 Z-4.17165
X50.58305 Y19.76295 Z-4.17166
X50.58317 Y19.76304 Z-4.17167
X50.58329 Y19.76313 Z-4.17169
X50.58341 Y19.76322 Z-4.1717
X50.58353 Y19.76331 Z-4.17171
X50.58365 Y19.7634 Z-4.17173
X50.58377 Y19.7635 Z-4.17174
X50.58389 Y19.76359 Z-4.17175
X50.58401 Y19.76368 Z-4.17176
X50.58413 Y19.76377 Z-4.17178
X50.58425 Y19.76386 Z-4.17179
X50.58437 Y19.76396 Z-4.1718
X50.58448 Y19.76405 Z-4.17182
X50.5846 Y19.76414 Z-4.17183
X50.58472 Y19.76423 Z-4.17184
X50.65055 Y19.83499 Z-4.1803
X50.65177 Y19.83686 Z-4.18049
X50.69016 Y19.92205 Z-4.18867
X50.70048 Y20.01492 Z-4.19684
X50.6817 Y20.10646 Z-4.20502
X50.63567 Y20.18777 Z-4.2132
X50.56684 Y20.25097 Z-4.22137
X50.4819 Y20.28992 Z-4.22955
X50.38909 Y20.30083 Z-4.23772
X50.29744 Y20.28265 Z-4.2459
X50.21583 Y20.23713 Z-4.25407
X50.15218 Y20.16871 Z-4.26225
X50.11269 Y20.08402 Z-4.27042
X50.10118 Y19.99129 Z-4.2786
X50.11878 Y19.89952 Z-4.28677
X50.16376 Y19.81762 Z-4.29495
X50.23177 Y19.75354 Z-4.30312
X50.31621 Y19.7135 Z-4.3113
X50.40886 Y19.7014 Z-4.31947
X50.50075 Y19.7184 Z-4.32765
X50.58294 Y19.76286 Z-4.33582
X50.58305 Y19.76295 Z-4.33584
X50.58317 Y19.76304 Z-4.33585
X50.58329 Y19.76313 Z-4.33586
X50.58341 Y19.76322 Z-4.33588
X50.58353 Y19.76331 Z-4.33589
X50.58365 Y19.7634 Z-4.3359
X50.58377 Y19.7635 Z-4.33592
X50.58389 Y19.76359 Z-4.33593
X50.58401 Y19.76368 Z-4.33594
X50.58413 Y19.76377 Z-4.33596
X50.58425 Y19.76386 Z-4.33597
X50.58437 Y19.76396 Z-4.33598
X50.58448 Y19.76405 Z-4.33599
X50.5846 Y19.76414 Z-4.33601
X50.58472 Y19.76423 Z-4.33602
X50.65055 Y19.83499 Z-4.34448
X50.65177 Y19.83686 Z-4.34467
X50.69016 Y19.92205 Z-4.35285
X50.70048 Y20.01492 Z-4.36102
X50.6817 Y20.10646 Z-4.3692
X50.63567 Y20.18777 Z-4.37737
X50.56684 Y20.25097 Z-4.38555
X50.4819 Y20.28992 Z-4.39372
X50.38909 Y20.30083 Z-4.4019
X50.29744 Y20.28265 Z-4.41007
X50.21583 Y20.23713 Z-4.41825
X50.15218 Y20.16871 Z-4.42642
X50.11269 Y20.08402 Z-4.4346
X50.10118 Y19.99129 Z-4.44277
X50.11878 Y19.89952 Z-4.45095
X50.16376 Y19.81762 Z-4.45912
X50.23177 Y19.75354 Z-4.4673
X50.31621 Y19.7135 Z-4.47547
X50.40886 Y19.7014 Z-4.48365
X50.50075 Y19.7184 Z-4.49183
X50.58294 Y19.76286 Z-4.5
G03 X50.58472 Y19.76423 I-0.18203 J0.23832 F192.
G1 X50.65055 Y19.83499
X50.65177 Y19.83686
G03 X50.58294 Y19.76286 I-0.25086 J0.16432
G0 Z1.
X50.49427 Y20.28424
G1 Z-4.4 F48.
X50.4819 Y20.28992 Z-4.40119 F144.
X50.38909 Y20.30083 Z-4.40937
X50.29744 Y20.28265 Z-4.41754
X50.21583 Y20.23713 Z-4.42572
X50.15218 Y20.16871 Z-4.43389
X50.11269 Y20.08402 Z-4.44207
X50.10118 Y19.99129 Z-4.45024
X50.11878 Y19.89952 Z-4.45842
X50.16376 Y19.81762 Z-4.46659
X50.23177 Y19.75354 Z-4.47477
X50.31621 Y19.7135 Z-4.48294
X50.40886 Y19.7014 Z-4.49112
X50.50075 Y19.7184 Z-4.49929
X50.58294 Y19.76286 Z-4.50747
X50.58305 Y19.76295 Z-4.50748
X50.58317 Y19.76304 Z-4.5075
X50.58329 Y19.76313 Z-4.50751
X50.58341 Y19.76322 Z-4.50752
X50.58353 Y19.76331 Z-4.50754
X50.58365 Y19.7634 Z-4.50755
X50.58377 Y19.7635 Z-4.50756
X50.58389 Y19.76359 Z-4.50757
X50.58401 Y19.76368 Z-4.50759
X50.58413 Y19.76377 Z-4.5076
X50.58425 Y19.76386 Z-4.50761
X50.58437 Y19.76396 Z-4.50763
X50.58448 Y19.76405 Z-4.50764
X50.5846 Y19.76414 Z-4.50765
X50.58472 Y19.76423 Z-4.50767
X50.65055 Y19.83499 Z-4.51612
X50.65177 Y19.83686 Z-4.51632
X50.69016 Y19.92205 Z-4.52449
X50.70048 Y20.01492 Z-4.53267
X50.6817 Y20.10646 Z-4.54084
X50.63567 Y20.18777 Z-4.54902
X50.56684 Y20.25097 Z-4.55719
X50.4819 Y20.28992 Z-4.56537
X50.38909 Y20.30083 Z-4.57354
X50.29744 Y20.28265 Z-4.58172
X50.21583 Y20.23713 Z-4.58989
X50.15218 Y20.16871 Z-4.59807
X50.11269 Y20.08402 Z-4.60624
X50.10118 Y19.99129 Z-4.61442
X50.11878 Y19.89952 Z-4.6226
X50.16376 Y19.81762 Z-4.63077
X50.23177 Y19.75354 Z-4.63895
X50.31621 Y19.7135 Z-4.64712
X50.40886 Y19.7014 Z-4.6553
X50.50075 Y19.7184 Z-4.66347
X50.58294 Y19.76286 Z-4.67165
X50.58305 Y19.76295 Z-4.67166
X50.58317 Y19.76304 Z-4.67167
X50.58329 Y19.76313 Z-4.67169
X50.58341 Y19.76322 Z-4.6717
X50.58353 Y19.76331 Z-4.67171
X50.58365 Y19.7634 Z-4.67173
X50.58377 Y19.7635 Z-4.67174
X50.58389 Y19.76359 Z-4.67175
X50.58401 Y19.76368 Z-4.67176
X50.58413 Y19.76377 Z-4.67178
X50.58425 Y19.76386 Z-4.67179
X50.58437 Y19.76396 Z-4.6718
X50.58448 Y19.76405 Z-4.67182
X50.5846 Y19.76414 Z-4.67183
X50.58472 Y19.76423 Z-4.67184
X50.65055 Y19.83499 Z-4.6803
X50.65177 Y19.83686 Z-4.68049
X50.69016 Y19.92205 Z-4.68867
X50.70048 Y20.01492 Z-4.69684
X50.6817 Y20.10646 Z-4.70502
X50.63567 Y20.18777 Z-4.7132
X50.56684 Y20.25097 Z-4.72137
X50.4819 Y20.28992 Z-4.72955
X50.38909 Y20.30083 Z-4.73772
X50.29744 Y20.28265 Z-4.7459
X50.21583 Y20.23713 Z-4.75407
X50.15218 Y20.16871 Z-4.76225
X50.11269 Y20.08402 Z-4.77042
X50.10118 Y19.99129 Z-4.7786
X50.11878 Y19.89952 Z-4.78677
X50.16376 Y19.81762 Z-4.79495
X50.23177 Y19.75354 Z-4.80312
X50.31621 Y19.7135 Z-4.8113
X50.40886 Y19.7014 Z-4.81947
X50.50075 Y19.7184 Z-4.82765
X50.58294 Y19.76286 Z-4.83582
X50.58305 Y19.76295 Z-4.83584
X50.58317 Y19.76304 Z-4.83585
X50.58329 Y19.76313 Z-4.83586
X50.58341 Y19.76322 Z-4.83588
X50.58353 Y19.76331 Z-4.83589
X50.58365 Y19.7634 Z-4.8359
X50.58377 Y19.7635 Z-4.83592
X50.58389 Y19.76359 Z-4.83593
X50.58401 Y19.76368 Z-4.83594
X50.58413 Y19.76377 Z-4.83596
X50.58425 Y19.76386 Z-4.83597
X50.58437 Y19.76396 Z-4.83598
X50.58448 Y19.76405 Z-4.83599
X50.5846 Y19.76414 Z-4.83601
X50.58472 Y19.76423 Z-4.83602
X50.65055 Y19.83499 Z-4.84448
X50.65177 Y19.83686 Z-4.84467
X50.69016 Y19.92205 Z-4.85285
X50.70048 Y20.01492 Z-4.86102
X50.6817 Y20.10646 Z-4.8692
X50.63567 Y20.18777 Z-4.87737
X50.56684 Y20.25097 Z-4.88555
X50.4819 Y20.28992 Z-4.89372
X50.38909 Y20.30083 Z-4.9019
X50.29744 Y20.28265 Z-4.91007
X50.21583 Y20.23713 Z-4.91825
X50.15218 Y20.16871 Z-4.92642
X50.11269 Y20.08402 Z-4.9346
X50.10118 Y19.99129 Z-4.94277
X50.11878 Y19.89952 Z-4.95095
X50.16376 Y19.81762 Z-4.95912
X50.23177 Y19.75354 Z-4.9673
X50.31621 Y19.7135 Z-4.97547
X50.40886 Y19.7014 Z-4.98365
X50.50075 Y19.7184 Z-4.99183
X50.58294 Y19.76286 Z-5.
G03 X50.58472 Y19.76423 I-0.18203 J0.23832 F192.
G1 X50.65055 Y19.83499
X50.65177 Y19.83686
G03 X50.58294 Y19.76286 I-0.25086 J0.16432
G0 Z1.
X50.49427 Y20.28424
G1 Z-4.9 F48.
X50.4819 Y20.28992 Z-4.90119 F144.
X50.38909 Y20.30083 Z-4.90937
X50.29744 Y20.28265 Z-4.91754
X50.21583 Y20.23713 Z-4.92572
X50.15218 Y20.16871 Z-4.93389
X50.11269 Y20.08402 Z-4.94207
X50.10118 Y19.99129 Z-4.95024
X50.11878 Y19.89952 Z-4.95842
X50.16376 Y19.81762 Z-4.96659
X50.23177 Y19.75354 Z-4.97477
X50.31621 Y19.7135 Z-4.98294
X50.40886 Y19.7014 Z-4.99112
X50.50075 Y19.7184 Z-4.99929
X50.58294 Y19.76286 Z-5.00747
X50.58305 Y19.76295 Z-5.00748
X50.58317 Y19.76304 Z-5.0075
X50.58329 Y19.76313 Z-5.00751
X50.58341 Y19.76322 Z-5.00752
X50.58353 Y19.76331 Z-5.00754
X50.58365 Y19.7634 Z-5.00755
X50.58377 Y19.7635 Z-5.00756
X50.58389 Y19.76359 Z-5.00757
X50.58401 Y19.76368 Z-5.00759
X50.58413 Y19.76377 Z-5.0076
X50.58425 Y19.76386 Z-5.00761
X50.58437 Y19.76396 Z-5.00763
X50.58448 Y19.76405 Z-5.00764
X50.5846 Y19.76414 Z-5.00765
X50.58472 Y19.76423 Z-5.00767
X50.65055 Y19.83499 Z-5.01612
X50.65177 Y19.83686 Z-5.01632
X50.69016 Y19.92205 Z-5.02449
X50.70048 Y20.01492 Z-5.03267
X50.6817 Y20.10646 Z-5.04084
X50.63567 Y20.18777 Z-5.04902
X50.56684 Y20.25097 Z-5.05719
X50.4819 Y20.28992 Z-5.06537
X50.38909 Y20.30083 Z-5.07354
X50.29744 Y20.28265 Z-5.08172
X50.21583 Y20.23713 Z-5.08989
X50.15218 Y20.16871 Z-5.09807
X50.11269 Y20.08402 Z-5.10624
X50.10118 Y19.99129 Z-5.11442
X50.11878 Y19.89952 Z-5.1226
X50.16376 Y19.81762 Z-5.13077
X50.23177 Y19.75354 Z-5.13895
X50.31621 Y19.7135 Z-5.14712
X50.40886 Y19.7014 Z-5.1553
X50.50075 Y19.7184 Z-5.16347
X50.58294 Y19.76286 Z-5.17165
X50.58305 Y19.76295 Z-5.17166
X50.58317 Y19.76304 Z-5.17167
X50.58329 Y19.76313 Z-5.17169
X50.58341 Y19.76322 Z-5.1717
X50.58353 Y19.76331 Z-5.17171
X50.58365 Y19.7634 Z-5.17173
X50.58377 Y19.7635 Z-5.17174
X50.58389 Y19.76359 Z-5.17175
X50.58401 Y19.76368 Z-5.17176
X50.58413 Y19.76377 Z-5.17178
X50.58425 Y19.76386 Z-5.17179
X50.58437 Y19.76396 Z-5.1718
X50.58448 Y19.76405 Z-5.17182
X50.5846 Y19.76414 Z-5.17183
X50.58472 Y19.76423 Z-5.17184
X50.65055 Y19.83499 Z-5.1803
X50.65177 Y19.83686 Z-5.18049
X50.69016 Y19.92205 Z-5.18867
X50.70048 Y20.01492 Z-5.19684
X50.6817 Y20.10646 Z-5.20502
X50.63567 Y20.18777 Z-5.2132
X50.56684 Y20.25097 Z-5.22137
X50.4819 Y20.28992 Z-5.22955
X50.38909 Y20.30083 Z-5.23772
X50.29744 Y20.28265 Z-5.2459
X50.21583 Y20.23713 Z-5.25407
X50.15218 Y20.16871 Z-5.26225
X50.11269 Y20.08402 Z-5.27042
X50.10118 Y19.99129 Z-5.2786
X50.11878 Y19.89952 Z-5.28677
X50.16376 Y19.81762 Z-5.29495
X50.23177 Y19.75354 Z-5.30312
X50.31621 Y19.7135 Z-5.3113
X50.40886 Y19.7014 Z-5.31947
X50.50075 Y19.7184 Z-5.32765
X50.58294 Y19.76286 Z-5.33582
X50.58305 Y19.76295 Z-5.33584
X50.58317 Y19.76304 Z-5.33585
X50.58329 Y19.76313 Z-5.33586
X50.58341 Y19.76322 Z-5.33588
X50.58353 Y19.76331 Z-5.33589
X50.58365 Y19.7634 Z-5.3359
X50.58377 Y19.7635 Z-5.33592
X50.58389 Y19.76359 Z-5.33593
X50.58401 Y19.76368 Z-5.33594
X50.58413 Y19.76377 Z-5.33596
X50.58425 Y19.76386 Z-5.33597
X50.58437 Y19.76396 Z-5.33598
X50.58448 Y19.76405 Z-5.33599
X50.5846 Y19.76414 Z-5.33601
X50.58472 Y19.76423 Z-5.33602
X50.65055 Y19.83499 Z-5.34448
X50.65177 Y19.83686 Z-5.34467
X50.69016 Y19.92205 Z-5.35285
X50.70048 Y20.01492 Z-5.36102
X50.6817 Y20.10646 Z-5.3692
X50.63567 Y20.18777 Z-5.37737
X50.56684 Y20.25097 Z-5.38555
X50.4819 Y20.28992 Z-5.39372
X50.38909 Y20.30083 Z-5.4019
X50.29744 Y20.28265 Z-5.41007
X50.21583 Y20.23713 Z-5.41825
X50.15218 Y20.16871 Z-5.42642
X50.11269 Y20.08402 Z-5.4346
X50.10118 Y19.99129 Z-5.44277
X50.11878 Y19.89952 Z-5.45095
X50.16376 Y19.81762 Z-5.45912
X50.23177 Y19.75354 Z-5.4673
X50.31621 Y19.7135 Z-5.47547
X50.40886 Y19.7014 Z-5.48365
X50.50075 Y19.7184 Z-5.49183
X50.58294 Y19.76286 Z-5.5
G03 X50.58472 Y19.76423 I-0.18203 J0.23832 F192.
G1 X50.65055 Y19.83499
X50.65177 Y19.83686
G03 X50.58294 Y19.76286 I-0.25086 J0.16432
G0 Z1.
X43.74535 Y26.33485
G1 Z0.1 F48.
X43.747 Y26.25101 Z0.09266 F144.
X43.77693 Y26.15599 Z0.08395
X43.83243 Y26.07326 Z0.07523
X43.90898 Y26.00952 Z0.06652
X44.00039 Y25.96992 Z0.0578
X44.09926 Y25.95768 Z0.04908
X44.19757 Y25.97379 Z0.04037
X44.28736 Y26.01695 Z0.03165
X44.36135 Y26.08365 Z0.02294
X44.41355 Y26.1685 Z0.01422
X44.43974 Y26.26461 Z0.00551
X44.43778 Y26.36421 Z-0.00321
X44.40784 Y26.45923 Z-0.01192
X44.35235 Y26.54196 Z-0.02064
X44.2758 Y26.60571 Z-0.02936
X44.18438 Y26.64531 Z-0.03807
X44.08552 Y26.65754 Z-0.04679
X43.98721 Y26.64143 Z-0.0555
X43.89742 Y26.59828 Z-0.06422
X43.82343 Y26.53158 Z-0.07293
X43.77123 Y26.44673 Z-0.08165
X43.74504 Y26.35061 Z-0.09037
X43.747 Y26.25101 Z-0.09908
X43.77693 Y26.15599 Z-0.1078
X43.83243 Y26.07326 Z-0.11651
X43.90898 Y26.00952 Z-0.12523
X44.00039 Y25.96992 Z-0.13394
X44.09926 Y25.95768 Z-0.14266
X44.19757 Y25.97379 Z-0.15138
X44.28736 Y26.01695 Z-0.16009
X44.36135 Y26.08365 Z-0.16881
X44.41355 Y26.1685 Z-0.17752
X44.43974 Y26.26461 Z-0.18624
X44.43778 Y26.36421 Z-0.19495
X44.40784 Y26.45923 Z-0.20367
X44.35235 Y26.54196 Z-0.21238
X44.2758 Y26.60571 Z-0.2211
X44.18438 Y26.64531 Z-0.22981
X44.08552 Y26.65754 Z-0.23853
X43.98721 Y26.64143 Z-0.24725
X43.89742 Y26.59828 Z-0.25596
X43.82343 Y26.53158 Z-0.26468
X43.77123 Y26.44673 Z-0.27339
X43.74504 Y26.35061 Z-0.28211
X43.747 Y26.25101 Z-0.29082
X43.77693 Y26.15599 Z-0.29954
X43.83243 Y26.07326 Z-0.30826
X43.90898 Y26.00952 Z-0.31697
X44.00039 Y25.96992 Z-0.32569
X44.09926 Y25.95768 Z-0.3344
X44.19757 Y25.97379 Z-0.34312
X44.28736 Y26.01695 Z-0.35183
X44.36135 Y26.08365 Z-0.36055
X44.41355 Y26.1685 Z-0.36927
X44.43974 Y26.26461 Z-0.37798
X44.43778 Y26.36421 Z-0.3867
X44.40784 Y26.45923 Z-0.39541
X44.35235 Y26.54196 Z-0.40413
X44.2758 Y26.60571 Z-0.41284
X44.18438 Y26.64531 Z-0.42156
X44.08552 Y26.65754 Z-0.43028
X43.98721 Y26.64143 Z-0.43899
X43.89742 Y26.59828 Z-0.44771
X43.82343 Y26.53158 Z-0.45642
X43.77123 Y26.44673 Z-0.46514
X43.74504 Y26.35061 Z-0.47385
X43.747 Y26.25101 Z-0.48257
X43.77693 Y26.15599 Z-0.49128
X43.83243 Y26.07326 Z-0.5
G03 X44.35235 Y26.54196 I0.25996 J0.23435 F192.
X43.83243 Y26.07326 I-0.25996 J-0.23435
G0 Z1.
X43.74535 Y26.33485
G1 Z-0.4 F48.
X43.747 Y26.25101 Z-0.40734 F144.
X43.77693 Y26.15599 Z-0.41605
X43.83243 Y26.07326 Z-0.42477
X43.90898 Y26.00952 Z-0.43348
X44.00039 Y25.96992 Z-0.4422
X44.09926 Y25.95768 Z-0.45092
X44.19757 Y25.97379 Z-0.45963
X44.28736 Y26.01695 Z-0.46835
X44.36135 Y26.08365 Z-0.47706
X44.41355 Y26.1685 Z-0.48578
X44.43974 Y26.26461 Z-0.49449
X44.43778 Y26.36421 Z-0.50321
X44.40784 Y26.45923 Z-0.51192
X44.35235 Y26.54196 Z-0.52064
X44.2758 Y26.60571 Z-0.52936
X44.18438 Y26.64531 Z-0.53807
X44.08552 Y26.65754 Z-0.54679
X43.98721 Y26.64143 Z-0.5555
X43.89742 Y26.59828 Z-0.56422
X43.82343 Y26.53158 Z-0.57293
X43.77123 Y26.44673 Z-0.58165
X43.74504 Y26.35061 Z-0.59037
X43.747 Y26.25101 Z-0.59908
X43.77693 Y26.15599 Z-0.6078
X43.83243 Y26.07326 Z-0.61651
X43.90898 Y26.00952 Z-0.62523
X44.00039 Y25.96992 Z-0.63394
X44.09926 Y25.95768 Z-0.64266
X44.19757 Y25.97379 Z-0.65138
X44.28736 Y26.01695 Z-0.66009
X44.36135 Y26.08365 Z-0.66881
X44.41355 Y26.1685 Z-0.67752
X44.43974 Y26.26461 Z-0.68624
X44.43778 Y26.36421 Z-0.69495
X44.40784 Y26.45923 Z-0.70367
X44.35235 Y26.54196 Z-0.71238
X44.2758 Y26.60571 Z-0.7211
X44.18438 Y26.64531 Z-0.72982
X44.08552 Y26.65754 Z-0.73853
X43.98721 Y26.64143 Z-0.74725
X43.89742 Y26.59828 Z-0.75596
X43.82343 Y26.53158 Z-0.76468
X43.77123 Y26.44673 Z-0.77339
X43.74504 Y26.35061 Z-0.78211
X43.747 Y26.25101 Z-0.79082
X43.77693 Y26.15599 Z-0.79954
X43.83243 Y26.07326 Z-0.80826
X43.90898 Y26.00952 Z-0.81697
X44.00039 Y25.96992 Z-0.82569
X44.09926 Y25.95768 Z-0.8344
X44.19757 Y25.97379 Z-0.84312
X44.28736 Y26.01695 Z-0.85183
X44.36135 Y26.08365 Z-0.86055
X44.41355 Y26.1685 Z-0.86927
X44.43974 Y26.26461 Z-0.87798
X44.43778 Y26.36421 Z-0.8867
X44.40784 Y26.45923 Z-0.89541
X44.35235 Y26.54196 Z-0.90413
X44.2758 Y26.60571 Z-0.91284
X44.18438 Y26.64531 Z-0.92156
X44.08552 Y26.65754 Z-0.93028
X43.98721 Y26.64143 Z-0.93899
X43.89742 Y26.59828 Z-0.94771
X43.82343 Y26.53158 Z-0.95642
X43.77123 Y26.44673 Z-0.96514
X43.74504 Y26.35061 Z-0.97385
X43.747 Y26.25101 Z-0.98257
X43.77693 Y26.15599 Z-0.99128
X43.83243 Y26.07326 Z-1.
G03 X44.35235 Y26.54196 I0.25996 J0.23435 F192.
X43.83243 Y26.07326 I-0.25996 J-0.23435
G0 Z1.
X43.74535 Y26.33485
G1 Z-0.9 F48.
X43.747 Y26.25101 Z-0.90734 F144.
X43.77693 Y26.15599 Z-0.91605
X43.83243 Y26.07326 Z-0.92477
X43.90898 Y26.00952 Z-0.93348
X44.00039 Y25.96992 Z-0.9422
X44.09926 Y25.95768 Z-0.95092
X44.19757 Y25.97379 Z-0.95963
X44.28736 Y26.01695 Z-0.96835
X44.36135 Y26.08365 Z-0.97706
X44.41355 Y26.1685 Z-0.98578
X44.43974 Y26.26461 Z-0.99449
X44.43778 Y26.36421 Z-1.00321
X44.40784 Y26.45923 Z-1.01192
X44.35235 Y26.54196 Z-1.02064
X44.2758 Y26.60571 Z-1.02936
X44.18438 Y26.64531 Z-1.03807
X44.08552 Y26.65754 Z-1.04679
X43.98721 Y26.64143 Z-1.0555
X43.89742 Y26.59828 Z-1.06422
X43.82343 Y26.53158 Z-1.07293
X43.77123 Y26.44673 Z-1.08165
X43.74504 Y26.35061 Z-1.09037
X43.747 Y26.25101 Z-1.09908
X43.77693 Y26.15599 Z-1.1078
X43.83243 Y26.07326 Z-1.11651
X43.90898 Y26.00952 Z-1.12523
X44.00039 Y25.96992 Z-1.13394
X44.09926 Y25.95768 Z-1.14266
X44.19757 Y25.97379 Z-1.15138
X44.28736 Y26.01695 Z-1.16009
X44.36135 Y26.08365 Z-1.16881
X44.41355 Y26.1685 Z-1.17752
X44.43974 Y26.26461 Z-1.18624
X44.43778 Y26.36421 Z-1.19495
X44.40784 Y26.45923 Z-1.20367
X44.35235 Y26.54196 Z-1.21238
X44.2758 Y26.60571 Z-1.2211
X44.18438 Y26.64531 Z-1.22982
X44.08552 Y26.65754 Z-1.23853
X43.98721 Y26.64143 Z-1.24725
X43.89742 Y26.59828 Z-1.25596
X43.82343 Y26.53158 Z-1.26468
X43.77123 Y26.44673 Z-1.27339
X43.74504 Y26.35061 Z-1.28211
X43.747 Y26.25101 Z-1.29082
X43.77693 Y26.15599 Z-1.29954
X43.83243 Y26.07326 Z-1.30826
X43.90898 Y26.00952 Z-1.31697
X44.00039 Y25.96992 Z-1.32569
X44.09926 Y25.95768 Z-1.3344
X44.19757 Y25.97379 Z-1.34312
X44.28736 Y26.01695 Z-1.35183
X44.36135 Y26.08365 Z-1.36055
X44.41355 Y26.1685 Z-1.36927
X44.43974 Y26.26461 Z-1.37798
X44.43778 Y26.36421 Z-1.3867
X44.40784 Y26.45923 Z-1.39541
X44.35235 Y26.54196 Z-1.40413
X44.2758 Y26.60571 Z-1.41284
X44.18438 Y26.64531 Z-1.42156
X44.08552 Y26.65754 Z-1.43028
X43.98721 Y26.64143 Z-1.43899
X43.89742 Y26.59828 Z-1.44771
X43.82343 Y26.53158 Z-1.45642
X43.77123 Y26.44673 Z-1.46514
X43.74504 Y26.35061 Z-1.47385
X43.747 Y26.25101 Z-1.48257
X43.77693 Y26.15599 Z-1.49128
X43.83243 Y26.07326 Z-1.5
G03 X44.35235 Y26.54196 I0.25996 J0.23435 F192.
X43.83243 Y26.07326 I-0.25996 J-0.23435
G0 Z1.
X43.74535 Y26.33485
G1 Z-1.4 F48.
X43.747 Y26.25101 Z-1.40734 F144.
X43.77693 Y26.15599 Z-1.41605
X43.83243 Y26.07326 Z-1.42477
X43.90898 Y26.00952 Z-1.43348
X44.00039 Y25.96992 Z-1.4422
X44.09926 Y25.95768 Z-1.45092
X44.19757 Y25.97379 Z-1.45963
X44.28736 Y26.01695 Z-1.46835
X44.36135 Y26.08365 Z-1.47706
X44.41355 Y26.1685 Z-1.48578
X44.43974 Y26.26461 Z-1.49449
X44.43778 Y26.36421 Z-1.50321
X44.40784 Y26.45923 Z-1.51192
X44.35235 Y26.54196 Z-1.52064
X44.2758 Y26.60571 Z-1.52936
X44.18438 Y26.64531 Z-1.53807
X44.08552 Y26.65754 Z-1.54679
X43.98721 Y26.64143 Z-1.5555
X43.89742 Y26.59828 Z-1.56422
X43.82343 Y26.53158 Z-1.57293
X43.77123 Y26.44673 Z-1.58165
X43.74504 Y26.35061 Z-1.59037
X43.747 Y26.25101 Z-1.59908
X43.77693 Y26.15599 Z-1.6078
X43.83243 Y26.07326 Z-1.61651
X43.90898 Y26.00952 Z-1.62523
X44.00039 Y25.96992 Z-1.63394
X44.09926 Y25.95768 Z-1.64266
X44.19757 Y25.97379 Z-1.65138
X44.28736 Y26.01695 Z-1.66009
X44.36135 Y26.08365 Z-1.66881
X44.41355 Y26.1685 Z-1.67752
X44.43974 Y26.26461 Z-1.68624
X44.43778 Y26.36421 Z-1.69495
X44.40784 Y26.45923 Z-1.70367
X44.35235 Y26.54196 Z-1.71238
X44.2758 Y26.60571 Z-1.7211
X44.18438 Y26.64531 Z-1.72981
X44.08552 Y26.65754 Z-1.73853
X43.98721 Y26.64143 Z-1.74725
X43.89742 Y26.59828 Z-1.75596
X43.82343 Y26.53158 Z-1.76468
X43.77123 Y26.44673 Z-1.77339
X43.74504 Y26.35061 Z-1.78211
X43.747 Y26.25101 Z-1.79083
X43.77693 Y26.15599 Z-1.79954
X43.83243 Y26.07326 Z-1.80826
X43.90898 Y26.00952 Z-1.81697
X44.00039 Y25.96992 Z-1.82569
X44.09926 Y25.95768 Z-1.8344
X44.19757 Y25.97379 Z-1.84312
X44.28736 Y26.01695 Z-1.85183
X44.36135 Y26.08365 Z-1.86055
X44.41355 Y26.1685 Z-1.86927
X44.43974 Y26.26461 Z-1.87798
X44.43778 Y26.36421 Z-1.8867
X44.40784 Y26.45923 Z-1.89541
X44.35235 Y26.54196 Z-1.90413
X44.2758 Y26.60571 Z-1.91284
X44.18438 Y26.64531 Z-1.92156
X44.08552 Y26.65754 Z-1.93028
X43.98721 Y26.64143 Z-1.93899
X43.89742 Y26.59828 Z-1.94771
X43.82343 Y26.53158 Z-1.95642
X43.77123 Y26.44673 Z-1.96514
X43.74504 Y26.35061 Z-1.97385
X43.747 Y26.25101 Z-1.98257
X43.77693 Y26.15599 Z-1.99128
X43.83243 Y26.07326 Z-2.
G03 X44.35235 Y26.54196 I0.25996 J0.23435 F192.
X43.83243 Y26.07326 I-0.25996 J-0.23435
G0 Z1.
X43.74535 Y26.33485
G1 Z-1.9 F48.
X43.747 Y26.25101 Z-1.90734 F144.
X43.77693 Y26.15599 Z-1.91605
X43.83243 Y26.07326 Z-1.92477
X43.90898 Y26.00952 Z-1.93348
X44.00039 Y25.96992 Z-1.9422
X44.09926 Y25.95768 Z-1.95092
X44.19757 Y25.97379 Z-1.95963
X44.28736 Y26.01695 Z-1.96835
X44.36135 Y26.08365 Z-1.97706
X44.41355 Y26.1685 Z-1.98578
X44.43974 Y26.26461 Z-1.99449
X44.43778 Y26.36421 Z-2.00321
X44.40784 Y26.45923 Z-2.01192
X44.35235 Y26.54196 Z-2.02064
X44.2758 Y26.60571 Z-2.02936
X44.18438 Y26.64531 Z-2.03807
X44.08552 Y26.65754 Z-2.04679
X43.98721 Y26.64143 Z-2.0555
X43.89742 Y26.59828 Z-2.06422
X43.82343 Y26.53158 Z-2.07293
X43.77123 Y26.44673 Z-2.08165
X43.74504 Y26.35061 Z-2.09036
X43.747 Y26.25101 Z-2.09908
X43.77693 Y26.15599 Z-2.1078
X43.83243 Y26.07326 Z-2.11651
X43.90898 Y26.00952 Z-2.12523
X44.00039 Y25.96992 Z-2.13394
X44.09926 Y25.95768 Z-2.14266
X44.19757 Y25.97379 Z-2.15138
X44.28736 Y26.01695 Z-2.16009
X44.36135 Y26.08365 Z-2.16881
X44.41355 Y26.1685 Z-2.17752
X44.43974 Y26.26461 Z-2.18624
X44.43778 Y26.36421 Z-2.19495
X44.40784 Y26.45923 Z-2.20367
X44.35235 Y26.54196 Z-2.21238
X44.2758 Y26.60571 Z-2.2211
X44.18438 Y26.64531 Z-2.22981
X44.08552 Y26.65754 Z-2.23853
X43.98721 Y26.64143 Z-2.24725
X43.89742 Y26.59828 Z-2.25596
X43.82343 Y26.53158 Z-2.26468
X43.77123 Y26.44673 Z-2.27339
X43.74504 Y26.35061 Z-2.28211
X43.747 Y26.25101 Z-2.29083
X43.77693 Y26.15599 Z-2.29954
X43.83243 Y26.07326 Z-2.30826
X43.90898 Y26.00952 Z-2.31697
X44.00039 Y25.96992 Z-2.32569
X44.09926 Y25.95768 Z-2.3344
X44.19757 Y25.97379 Z-2.34312
X44.28736 Y26.01695 Z-2.35183
X44.36135 Y26.08365 Z-2.36055
X44.41355 Y26.1685 Z-2.36926
X44.43974 Y26.26461 Z-2.37798
X44.43778 Y26.36421 Z-2.3867
X44.40784 Y26.45923 Z-2.39541
X44.35235 Y26.54196 Z-2.40413
X44.2758 Y26.60571 Z-2.41284
X44.18438 Y26.64531 Z-2.42156
X44.08552 Y26.65754 Z-2.43028
X43.98721 Y26.64143 Z-2.43899
X43.89742 Y26.59828 Z-2.44771
X43.82343 Y26.53158 Z-2.45642
X43.77123 Y26.44673 Z-2.46514
X43.74504 Y26.35061 Z-2.47385
X43.747 Y26.25101 Z-2.48257
X43.77693 Y26.15599 Z-2.49128
X43.83243 Y26.07326 Z-2.5
G03 X44.35235 Y26.54196 I0.25996 J0.23435 F192.
X43.83243 Y26.07326 I-0.25996 J-0.23435
G0 Z1.
X43.74535 Y26.33485
G1 Z-2.4 F48.
X43.747 Y26.25101 Z-2.40734 F144.
X43.77693 Y26.15599 Z-2.41605
X43.83243 Y26.07326 Z-2.42477
X43.90898 Y26.00952 Z-2.43348
X44.00039 Y25.96992 Z-2.4422
X44.09926 Y25.95768 Z-2.45092
X44.19757 Y25.97379 Z-2.45963
X44.28736 Y26.01695 Z-2.46835
X44.36135 Y26.08365 Z-2.47706
X44.41355 Y26.1685 Z-2.48578
X44.43974 Y26.26461 Z-2.49449
X44.43778 Y26.36421 Z-2.50321
X44.40784 Y26.45923 Z-2.51192
X44.35235 Y26.54196 Z-2.52064
X44.2758 Y26.60571 Z-2.52936
X44.18438 Y26.64531 Z-2.53807
X44.08552 Y26.65754 Z-2.54679
X43.98721 Y26.64143 Z-2.5555
X43.89742 Y26.59828 Z-2.56422
X43.82343 Y26.53158 Z-2.57293
X43.77123 Y26.44673 Z-2.58165
X43.74504 Y26.35061 Z-2.59036
X43.747 Y26.25101 Z-2.59908
X43.77693 Y26.15599 Z-2.6078
X43.83243 Y26.07326 Z-2.61651
X43.90898 Y26.00952 Z-2.62523
X44.00039 Y25.96992 Z-2.63394
X44.09926 Y25.95768 Z-2.64266
X44.19757 Y25.97379 Z-2.65138
X44.28736 Y26.01695 Z-2.66009
X44.36135 Y26.08365 Z-2.66881
X44.41355 Y26.1685 Z-2.67752
X44.43974 Y26.26461 Z-2.68624
X44.43778 Y26.36421 Z-2.69495
X44.40784 Y26.45923 Z-2.70367
X44.35235 Y26.54196 Z-2.71238
X44.2758 Y26.60571 Z-2.7211
X44.18438 Y26.64531 Z-2.72981
X44.08552 Y26.65754 Z-2.73853
X43.98721 Y26.64143 Z-2.74725
X43.89742 Y26.59828 Z-2.75596
X43.82343 Y26.53158 Z-2.76468
X43.77123 Y26.44673 Z-2.77339
X43.74504 Y26.35061 Z-2.78211
X43.747 Y26.25101 Z-2.79083
X43.77693 Y26.15599 Z-2.79954
X43.83243 Y26.07326 Z-2.80826
X43.90898 Y26.00952 Z-2.81697
X44.00039 Y25.96992 Z-2.82569
X44.09926 Y25.95768 Z-2.8344
X44.19757 Y25.97379 Z-2.84312
X44.28736 Y26.01695 Z-2.85183
X44.36135 Y26.08365 Z-2.86055
X44.41355 Y26.1685 Z-2.86927
X44.43974 Y26.26461 Z-2.87798
X44.43778 Y26.36421 Z-2.8867
X44.40784 Y26.45923 Z-2.89541
X44.35235 Y26.54196 Z-2.90413
X44.2758 Y26.60571 Z-2.91284
X44.18438 Y26.64531 Z-2.92156
X44.08552 Y26.65754 Z-2.93027
X43.98721 Y26.64143 Z-2.93899
X43.89742 Y26.59828 Z-2.94771
X43.82343 Y26.53158 Z-2.95642
X43.77123 Y26.44673 Z-2.96514
X43.74504 Y26.35061 Z-2.97385
X43.747 Y26.25101 Z-2.98257
X43.77693 Y26.15599 Z-2.99128
X43.83243 Y26.07326 Z-3.
G03 X44.35235 Y26.54196 I0.25996 J0.23435 F192.
X43.83243 Y26.07326 I-0.25996 J-0.23435
G0 Z1.
X43.74535 Y26.33485
G1 Z-2.9 F48.
X43.747 Y26.25101 Z-2.90734 F144.
X43.77693 Y26.15599 Z-2.91605
X43.83243 Y26.07326 Z-2.92477
X43.90898 Y26.00952 Z-2.93348
X44.00039 Y25.96992 Z-2.9422
X44.09926 Y25.95768 Z-2.95092
X44.19757 Y25.97379 Z-2.95963
X44.28736 Y26.01695 Z-2.96835
X44.36135 Y26.08365 Z-2.97706
X44.41355 Y26.1685 Z-2.98578
X44.43974 Y26.26461 Z-2.99449
X44.43778 Y26.36421 Z-3.00321
X44.40784 Y26.45923 Z-3.01192
X44.35235 Y26.54196 Z-3.02064
X44.2758 Y26.60571 Z-3.02936
X44.18438 Y26.64531 Z-3.03807
X44.08552 Y26.65754 Z-3.04679
X43.98721 Y26.64143 Z-3.0555
X43.89742 Y26.59828 Z-3.06422
X43.82343 Y26.53158 Z-3.07293
X43.77123 Y26.44673 Z-3.08165
X43.74504 Y26.35061 Z-3.09037
X43.747 Y26.25101 Z-3.09908
X43.77693 Y26.15599 Z-3.1078
X43.83243 Y26.07326 Z-3.11651
X43.90898 Y26.00952 Z-3.12523
X44.00039 Y25.96992 Z-3.13394
X44.09926 Y25.95768 Z-3.14266
X44.19757 Y25.97379 Z-3.15138
X44.28736 Y26.01695 Z-3.16009
X44.36135 Y26.08365 Z-3.16881
X44.41355 Y26.1685 Z-3.17752
X44.43974 Y26.26461 Z-3.18624
X44.43778 Y26.36421 Z-3.19495
X44.40784 Y26.45923 Z-3.20367
X44.35235 Y26.54196 Z-3.21238
X44.2758 Y26.60571 Z-3.2211
X44.18438 Y26.64531 Z-3.22981
X44.08552 Y26.65754 Z-3.23853
X43.98721 Y26.64143 Z-3.24725
X43.89742 Y26.59828 Z-3.25596
X43.82343 Y26.53158 Z-3.26468
X43.77123 Y26.44673 Z-3.27339
X43.74504 Y26.35061 Z-3.28211
X43.747 Y26.25101 Z-3.29083
X43.77693 Y26.15599 Z-3.29954
X43.83243 Y26.07326 Z-3.30826
X43.90898 Y26.00952 Z-3.31697
X44.00039 Y25.96992 Z-3.32569
X44.09926 Y25.95768 Z-3.3344
X44.19757 Y25.97379 Z-3.34312
X44.28736 Y26.01695 Z-3.35183
X44.36135 Y26.08365 Z-3.36055
X44.41355 Y26.1685 Z-3.36927
X44.43974 Y26.26461 Z-3.37798
X44.43778 Y26.36421 Z-3.3867
X44.40784 Y26.45923 Z-3.39541
X44.35235 Y26.54196 Z-3.40413
X44.2758 Y26.60571 Z-3.41284
X44.18438 Y26.64531 Z-3.42156
X44.08552 Y26.65754 Z-3.43028
X43.98721 Y26.64143 Z-3.43899
X43.89742 Y26.59828 Z-3.44771
X43.82343 Y26.53158 Z-3.45642
X43.77123 Y26.44673 Z-3.46514
X43.74504 Y26.35061 Z-3.47385
X43.747 Y26.25101 Z-3.48257
X43.77693 Y26.15599 Z-3.49128
X43.83243 Y26.07326 Z-3.5
G03 X44.35235 Y26.54196 I0.25996 J0.23435 F192.
X43.83243 Y26.07326 I-0.25996 J-0.23435
G0 Z1.
X43.74535 Y26.33485
G1 Z-3.4 F48.
X43.747 Y26.25101 Z-3.40734 F144.
X43.77693 Y26.15599 Z-3.41605
X43.83243 Y26.07326 Z-3.42477
X43.90898 Y26.00952 Z-3.43348
X44.00039 Y25.96992 Z-3.4422
X44.09926 Y25.95768 Z-3.45092
X44.19757 Y25.97379 Z-3.45963
X44.28736 Y26.01695 Z-3.46835
X44.36135 Y26.08365 Z-3.47706
X44.41355 Y26.1685 Z-3.48578
X44.43974 Y26.26461 Z-3.49449
X44.43778 Y26.36421 Z-3.50321
X44.40784 Y26.45923 Z-3.51192
X44.35235 Y26.54196 Z-3.52064
X44.2758 Y26.60571 Z-3.52936
X44.18438 Y26.64531 Z-3.53807
X44.08552 Y26.65754 Z-3.54679
X43.98721 Y26.64143 Z-3.5555
X43.89742 Y26.59828 Z-3.56422
X43.82343 Y26.53158 Z-3.57293
X43.77123 Y26.44673 Z-3.58165
X43.74504 Y26.35061 Z-3.59036
X43.747 Y26.25101 Z-3.59908
X43.77693 Y26.15599 Z-3.6078
X43.83243 Y26.07326 Z-3.61651
X43.90898 Y26.00952 Z-3.62523
X44.00039 Y25.96992 Z-3.63394
X44.09926 Y25.95768 Z-3.64266
X44.19757 Y25.97379 Z-3.65138
X44.28736 Y26.01695 Z-3.66009
X44.36135 Y26.08365 Z-3.66881
X44.41355 Y26.1685 Z-3.67752
X44.43974 Y26.26461 Z-3.68624
X44.43778 Y26.36421 Z-3.69495
X44.40784 Y26.45923 Z-3.70367
X44.35235 Y26.54196 Z-3.71238
X44.2758 Y26.60571 Z-3.7211
X44.18438 Y26.64531 Z-3.72981
X44.08552 Y26.65754 Z-3.73853
X43.98721 Y26.64143 Z-3.74725
X43.89742 Y26.59828 Z-3.75596
X43.82343 Y26.53158 Z-3.76468
X43.77123 Y26.44673 Z-3.77339
X43.74504 Y26.35061 Z-3.78211
X43.747 Y26.25101 Z-3.79083
X43.77693 Y26.15599 Z-3.79954
X43.83243 Y26.07326 Z-3.80826
X43.90898 Y26.00952 Z-3.81697
X44.00039 Y25.96992 Z-3.82569
X44.09926 Y25.95768 Z-3.8344
X44.19757 Y25.97379 Z-3.84312
X44.28736 Y26.01695 Z-3.85183
X44.36135 Y26.08365 Z-3.86055
X44.41355 Y26.1685 Z-3.86927
X44.43974 Y26.26461 Z-3.87798
X44.43778 Y26.36421 Z-3.8867
X44.40784 Y26.45923 Z-3.89541
X44.35235 Y26.54196 Z-3.90413
X44.2758 Y26.60571 Z-3.91284
X44.18438 Y26.64531 Z-3.92156
X44.08552 Y26.65754 Z-3.93028
X43.98721 Y26.64143 Z-3.93899
X43.89742 Y26.59828 Z-3.94771
X43.82343 Y26.53158 Z-3.95642
X43.77123 Y26.44673 Z-3.96514
X43.74504 Y26.35061 Z-3.97385
X43.747 Y26.25101 Z-3.98257
X43.77693 Y26.15599 Z-3.99128
X43.83243 Y26.07326 Z-4.
G03 X44.35235 Y26.54196 I0.25996 J0.23435 F192.
X43.83243 Y26.07326 I-0.25996 J-0.23435
G0 Z1.
X43.74535 Y26.33485
G1 Z-3.9 F48.
X43.747 Y26.25101 Z-3.90734 F144.
X43.77693 Y26.15599 Z-3.91605
X43.83243 Y26.07326 Z-3.92477
X43.90898 Y26.00952 Z-3.93348
X44.00039 Y25.96992 Z-3.9422
X44.09926 Y25.95768 Z-3.95092
X44.19757 Y25.97379 Z-3.95963
X44.28736 Y26.01695 Z-3.96835
X44.36135 Y26.08365 Z-3.97706
X44.41355 Y26.1685 Z-3.98578
X44.43974 Y26.26461 Z-3.99449
X44.43778 Y26.36421 Z-4.00321
X44.40784 Y26.45923 Z-4.01192
X44.35235 Y26.54196 Z-4.02064
X44.2758 Y26.60571 Z-4.02936
X44.18438 Y26.64531 Z-4.03807
X44.08552 Y26.65754 Z-4.04679
X43.98721 Y26.64143 Z-4.0555
X43.89742 Y26.59828 Z-4.06422
X43.82343 Y26.53158 Z-4.07293
X43.77123 Y26.44673 Z-4.08165
X43.74504 Y26.35061 Z-4.09036
X43.747 Y26.25101 Z-4.09908
X43.77693 Y26.15599 Z-4.1078
X43.83243 Y26.07326 Z-4.11651
X43.90898 Y26.00952 Z-4.12523
X44.00039 Y25.96992 Z-4.13394
X44.09926 Y25.95768 Z-4.14266
X44.19757 Y25.97379 Z-4.15138
X44.28736 Y26.01695 Z-4.16009
X44.36135 Y26.08365 Z-4.16881
X44.41355 Y26.1685 Z-4.17752
X44.43974 Y26.26461 Z-4.18624
X44.43778 Y26.36421 Z-4.19495
X44.40784 Y26.45923 Z-4.20367
X44.35235 Y26.54196 Z-4.21238
X44.2758 Y26.60571 Z-4.2211
X44.18438 Y26.64531 Z-4.22982
X44.08552 Y26.65754 Z-4.23853
X43.98721 Y26.64143 Z-4.24725
X43.89742 Y26.59828 Z-4.25596
X43.82343 Y26.53158 Z-4.26468
X43.77123 Y26.44673 Z-4.27339
X43.74504 Y26.35061 Z-4.28211
X43.747 Y26.25101 Z-4.29083
X43.77693 Y26.15599 Z-4.29954
X43.83243 Y26.07326 Z-4.30826
X43.90898 Y26.00952 Z-4.31697
X44.00039 Y25.96992 Z-4.32569
X44.09926 Y25.95768 Z-4.3344
X44.19757 Y25.97379 Z-4.34312
X44.28736 Y26.01695 Z-4.35183
X44.36135 Y26.08365 Z-4.36055
X44.41355 Y26.1685 Z-4.36927
X44.43974 Y26.26461 Z-4.37798
X44.43778 Y26.36421 Z-4.3867
X44.40784 Y26.45923 Z-4.39541
X44.35235 Y26.54196 Z-4.40413
X44.2758 Y26.60571 Z-4.41284
X44.18438 Y26.64531 Z-4.42156
X44.08552 Y26.65754 Z-4.43028
X43.98721 Y26.64143 Z-4.43899
X43.89742 Y26.59828 Z-4.44771
X43.82343 Y26.53158 Z-4.45642
X43.77123 Y26.44673 Z-4.46514
X43.74504 Y26.35061 Z-4.47385
X43.747 Y26.25101 Z-4.48257
X43.77693 Y26.15599 Z-4.49128
X43.83243 Y26.07326 Z-4.5
G03 X44.35235 Y26.54196 I0.25996 J0.23435 F192.
X43.83243 Y26.07326 I-0.25996 J-0.23435
G0 Z1.
X43.74535 Y26.33485
G1 Z-4.4 F48.
X43.747 Y26.25101 Z-4.40734 F144.
X43.77693 Y26.15599 Z-4.41605
X43.83243 Y26.07326 Z-4.42477
X43.90898 Y26.00952 Z-4.43348
X44.00039 Y25.96992 Z-4.4422
X44.09926 Y25.95768 Z-4.45092
X44.19757 Y25.97379 Z-4.45963
X44.28736 Y26.01695 Z-4.46835
X44.36135 Y26.08365 Z-4.47706
X44.41355 Y26.1685 Z-4.48578
X44.43974 Y26.26461 Z-4.49449
X44.43778 Y26.36421 Z-4.50321
X44.40784 Y26.45923 Z-4.51192
X44.35235 Y26.54196 Z-4.52064
X44.2758 Y26.60571 Z-4.52936
X44.18438 Y26.64531 Z-4.53807
X44.08552 Y26.65754 Z-4.54679
X43.98721 Y26.64143 Z-4.5555
X43.89742 Y26.59828 Z-4.56422
X43.82343 Y26.53158 Z-4.57293
X43.77123 Y26.44673 Z-4.58165
X43.74504 Y26.35061 Z-4.59036
X43.747 Y26.25101 Z-4.59908
X43.77693 Y26.15599 Z-4.6078
X43.83243 Y26.07326 Z-4.61651
X43.90898 Y26.00952 Z-4.62523
X44.00039 Y25.96992 Z-4.63394
X44.09926 Y25.95768 Z-4.64266
X44.19757 Y25.97379 Z-4.65138
X44.28736 Y26.01695 Z-4.66009
X44.36135 Y26.08365 Z-4.66881
X44.41355 Y26.1685 Z-4.67752
X44.43974 Y26.26461 Z-4.68624
X44.43778 Y26.36421 Z-4.69495
X44.40784 Y26.45923 Z-4.70367
X44.35235 Y26.54196 Z-4.71238
X44.2758 Y26.60571 Z-4.7211
X44.18438 Y26.64531 Z-4.72982
X44.08552 Y26.65754 Z-4.73853
X43.98721 Y26.64143 Z-4.74725
X43.89742 Y26.59828 Z-4.75596
X43.82343 Y26.53158 Z-4.76468
X43.77123 Y26.44673 Z-4.77339
X43.74504 Y26.35061 Z-4.78211
X43.747 Y26.25101 Z-4.79083
X43.77693 Y26.15599 Z-4.79954
X43.83243 Y26.07326 Z-4.80826
X43.90898 Y26.00952 Z-4.81697
X44.00039 Y25.96992 Z-4.82569
X44.09926 Y25.95768 Z-4.8344
X44.19757 Y25.97379 Z-4.84312
X44.28736 Y26.01695 Z-4.85183
X44.36135 Y26.08365 Z-4.86055
X44.41355 Y26.1685 Z-4.86927
X44.43974 Y26.26461 Z-4.87798
X44.43778 Y26.36421 Z-4.8867
X44.40784 Y26.45923 Z-4.89541
X44.35235 Y26.54196 Z-4.90413
X44.2758 Y26.60571 Z-4.91284
X44.18438 Y26.64531 Z-4.92156
X44.08552 Y26.65754 Z-4.93028
X43.98721 Y26.64143 Z-4.93899
X43.89742 Y26.59828 Z-4.94771
X43.82343 Y26.53158 Z-4.95642
X43.77123 Y26.44673 Z-4.96514
X43.74504 Y26.35061 Z-4.97385
X43.747 Y26.25101 Z-4.98257
X43.77693 Y26.15599 Z-4.99128
X43.83243 Y26.07326 Z-5.
G03 X44.35235 Y26.54196 I0.25996 J0.23435 F192.
X43.83243 Y26.07326 I-0.25996 J-0.23435
G0 Z1.
X43.74535 Y26.33485
G1 Z-4.9 F48.
X43.747 Y26.25101 Z-4.90734 F144.
X43.77693 Y26.15599 Z-4.91605
X43.83243 Y26.07326 Z-4.92477
X43.90898 Y26.00952 Z-4.93348
X44.00039 Y25.96992 Z-4.9422
X44.09926 Y25.95768 Z-4.95092
X44.19757 Y25.97379 Z-4.95963
X44.28736 Y26.01695 Z-4.96835
X44.36135 Y26.08365 Z-4.97706
X44.41355 Y26.1685 Z-4.98578
X44.43974 Y26.26461 Z-4.99449
X44.43778 Y26.36421 Z-5.00321
X44.40784 Y26.45923 Z-5.01192
X44.35235 Y26.54196 Z-5.02064
X44.2758 Y26.60571 Z-5.02936
X44.18438 Y26.64531 Z-5.03807
X44.08552 Y26.65754 Z-5.04679
X43.98721 Y26.64143 Z-5.0555
X43.89742 Y26.59828 Z-5.06422
X43.82343 Y26.53158 Z-5.07293
X43.77123 Y26.44673 Z-5.08165
X43.74504 Y26.35061 Z-5.09036
X43.747 Y26.25101 Z-5.09908
X43.77693 Y26.15599 Z-5.1078
X43.83243 Y26.07326 Z-5.11651
X43.90898 Y26.00952 Z-5.12523
X44.00039 Y25.96992 Z-5.13394
X44.09926 Y25.95768 Z-5.14266
X44.19757 Y25.97379 Z-5.15138
X44.28736 Y26.01695 Z-5.16009
X44.36135 Y26.08365 Z-5.16881
X44.41355 Y26.1685 Z-5.17752
X44.43974 Y26.26461 Z-5.18624
X44.43778 Y26.36421 Z-5.19495
X44.40784 Y26.45923 Z-5.20367
X44.35235 Y26.54196 Z-5.21238
X44.2758 Y26.60571 Z-5.2211
X44.18438 Y26.64531 Z-5.22982
X44.08552 Y26.65754 Z-5.23853
X43.98721 Y26.64143 Z-5.24725
X43.89742 Y26.59828 Z-5.25596
X43.82343 Y26.53158 Z-5.26468
X43.77123 Y26.44673 Z-5.27339
X43.74504 Y26.35061 Z-5.28211
X43.747 Y26.25101 Z-5.29083
X43.77693 Y26.15599 Z-5.29954
X43.83243 Y26.07326 Z-5.30826
X43.90898 Y26.00952 Z-5.31697
X44.00039 Y25.96992 Z-5.32569
X44.09926 Y25.95768 Z-5.3344
X44.19757 Y25.97379 Z-5.34312
X44.28736 Y26.01695 Z-5.35183
X44.36135 Y26.08365 Z-5.36055
X44.41355 Y26.1685 Z-5.36927
X44.43974 Y26.26461 Z-5.37798
X44.43778 Y26.36421 Z-5.3867
X44.40784 Y26.45923 Z-5.39541
X44.35235 Y26.54196 Z-5.40413
X44.2758 Y26.60571 Z-5.41284
X44.18438 Y26.64531 Z-5.42156
X44.08552 Y26.65754 Z-5.43028
X43.98721 Y26.64143 Z-5.43899
X43.89742 Y26.59828 Z-5.44771
X43.82343 Y26.53158 Z-5.45642
X43.77123 Y26.44673 Z-5.46514
X43.74504 Y26.35061 Z-5.47385
X43.747 Y26.25101 Z-5.48257
X43.77693 Y26.15599 Z-5.49128
X43.83243 Y26.07326 Z-5.5
G03 X44.35235 Y26.54196 I0.25996 J0.23435 F192.
X43.83243 Y26.07326 I-0.25996 J-0.23435
G0 Z1.
X34.04361 Y26.74537
G1 Z0.1 F48.
X34.19972 Y26.72791 Z0.08626 F144.
X34.75749 Y26.70115 Z0.0374
X35.31584 Y26.70983 Z-0.01145
X35.87251 Y26.7539 Z-0.06031
X36.42526 Y26.83319 Z-0.10916
X36.97187 Y26.94738 Z-0.15802
X37.51014 Y27.09601 Z-0.20687
X38.0379 Y27.27847 Z-0.25573
X38.55303 Y27.49404 Z-0.30458
X39.05344 Y27.74185 Z-0.35344
X39.53713 Y28.0209 Z-0.40229
X40.00215 Y28.33006 Z-0.45115
X40.44662 Y28.66809 Z-0.5
G03 X29.35338 Y42.33191 I-5.54662 J6.83191 F192.
X40.44662 Y28.66809 I5.54662 J-6.83191
G0 Z1.
X34.04361 Y26.74537
G1 Z-0.4 F48.
X34.19972 Y26.72791 Z-0.41374 F144.
X34.75749 Y26.70115 Z-0.4626
X35.31584 Y26.70983 Z-0.51145
X35.87251 Y26.7539 Z-0.56031
X36.42526 Y26.83319 Z-0.60916
X36.97187 Y26.94738 Z-0.65802
X37.51014 Y27.09601 Z-0.70687
X38.0379 Y27.27847 Z-0.75573
X38.55303 Y27.49404 Z-0.80458
X39.05344 Y27.74185 Z-0.85344
X39.53713 Y28.0209 Z-0.90229
X40.00215 Y28.33006 Z-0.95115
X40.44662 Y28.66809 Z-1.
G03 X29.35338 Y42.33191 I-5.54662 J6.83191 F192.
X40.44662 Y28.66809 I5.54662 J-6.83191
G0 Z1.
X34.04361 Y26.74537
G1 Z-0.9 F48.
X34.19972 Y26.72791 Z-0.91374 F144.
X34.75749 Y26.70115 Z-0.9626
X35.31584 Y26.70983 Z-1.01145
X35.87251 Y26.7539 Z-1.06031
X36.42526 Y26.83319 Z-1.10916
X36.97187 Y26.94738 Z-1.15802
X37.51014 Y27.09601 Z-1.20687
X38.0379 Y27.27847 Z-1.25573
X38.55303 Y27.49404 Z-1.30458
X39.05344 Y27.74185 Z-1.35344
X39.53713 Y28.0209 Z-1.40229
X40.00215 Y28.33006 Z-1.45115
X40.44662 Y28.66809 Z-1.5
G03 X29.35338 Y42.33191 I-5.54662 J6.83191 F192.
X40.44662 Y28.66809 I5.54662 J-6.83191
G0 Z1.
X34.04361 Y26.74537
G1 Z-1.4 F48.
X34.19972 Y26.72791 Z-1.41374 F144.
X34.75749 Y26.70115 Z-1.4626
X35.31584 Y26.70983 Z-1.51145
X35.87251 Y26.7539 Z-1.56031
X36.42526 Y26.83319 Z-1.60916
X36.97187 Y26.94738 Z-1.65802
X37.51014 Y27.09601 Z-1.70687
X38.0379 Y27.27847 Z-1.75573
X38.55303 Y27.49404 Z-1.80458
X39.05344 Y27.74185 Z-1.85344
X39.53713 Y28.0209 Z-1.90229
X40.00215 Y28.33006 Z-1.95115
X40.44662 Y28.66809 Z-2.
G03 X29.35338 Y42.33191 I-5.54662 J6.83191 F192.
X40.44662 Y28.66809 I5.54662 J-6.83191
G0 Z1.
X34.04361 Y26.74537
G1 Z-1.9 F48.
X34.19972 Y26.72791 Z-1.91374 F144.
X34.75749 Y26.70115 Z-1.9626
X35.31584 Y26.70983 Z-2.01145
X35.87251 Y26.7539 Z-2.06031
X36.42526 Y26.83319 Z-2.10916
X36.97187 Y26.94738 Z-2.15802
X37.51014 Y27.09601 Z-2.20687
X38.0379 Y27.27847 Z-2.25573
X38.55303 Y27.49404 Z-2.30458
X39.05344 Y27.74185 Z-2.35344
X39.53713 Y28.0209 Z-2.40229
X40.00215 Y28.33006 Z-2.45115
X40.44662 Y28.66809 Z-2.5
G03 X29.35338 Y42.33191 I-5.54662 J6.83191 F192.
X40.44662 Y28.66809 I5.54662 J-6.83191
G0 Z1.
X34.04361 Y26.74537
G1 Z-2.4 F48.
X34.19972 Y26.72791 Z-2.41374 F144.
X34.75749 Y26.70115 Z-2.4626
X35.31584 Y26.70983 Z-2.51145
X35.87251 Y26.7539 Z-2.56031
X36.42526 Y26.83319 Z-2.60916
X36.97187 Y26.94738 Z-2.65802
X37.51014 Y27.09601 Z-2.70687
X38.0379 Y27.27847 Z-2.75573
X38.55303 Y27.49404 Z-2.80458
X39.05344 Y27.74185 Z-2.85344
X39.53713 Y28.0209 Z-2.90229
X40.00215 Y28.33006 Z-2.95115
X40.44662 Y28.66809 Z-3.
G03 X29.35338 Y42.33191 I-5.54662 J6.83191 F192.
X40.44662 Y28.66809 I5.54662 J-6.83191
G0 Z1.
X34.04361 Y26.74537
G1 Z-2.9 F48.
X34.19972 Y26.72791 Z-2.91374 F144.
X34.75749 Y26.70115 Z-2.9626
X35.31584 Y26.70983 Z-3.01145
X35.87251 Y26.7539 Z-3.06031
X36.42526 Y26.83319 Z-3.10916
X36.97187 Y26.94738 Z-3.15802
X37.51014 Y27.09601 Z-3.20687
X38.0379 Y27.27847 Z-3.25573
X38.55303 Y27.49404 Z-3.30458
X39.05344 Y27.74185 Z-3.35344
X39.53713 Y28.0209 Z-3.40229
X40.00215 Y28.33006 Z-3.45115
X40.44662 Y28.66809 Z-3.5
G03 X29.35338 Y42.33191 I-5.54662 J6.83191 F192.
X40.44662 Y28.66809 I5.54662 J-6.83191
G0 Z1.
X34.04361 Y26.74537
G1 Z-3.4 F48.
X34.19972 Y26.72791 Z-3.41374 F144.
X34.75749 Y26.70115 Z-3.4626
X35.31584 Y26.70983 Z-3.51145
X35.87251 Y26.7539 Z-3.56031
X36.42526 Y26.83319 Z-3.60916
X36.97187 Y26.94738 Z-3.65802
X37.51014 Y27.09601 Z-3.70687
X38.0379 Y27.27847 Z-3.75573
X38.55303 Y27.49404 Z-3.80458
X39.05344 Y27.74185 Z-3.85344
X39.53713 Y28.0209 Z-3.90229
X40.00215 Y28.33006 Z-3.95115
X40.44662 Y28.66809 Z-4.
G03 X29.35338 Y42.33191 I-5.54662 J6.83191 F192.
X40.44662 Y28.66809 I5.54662 J-6.83191
G0 Z1.
X34.04361 Y26.74537
G1 Z-3.9 F48.
X34.19972 Y26.72791 Z-3.91374 F144.
X34.75749 Y26.70115 Z-3.9626
X35.31584 Y26.70983 Z-4.01145
X35.87251 Y26.7539 Z-4.06031
X36.42526 Y26.83319 Z-4.10916
X36.97187 Y26.94738 Z-4.15802
X37.51014 Y27.09601 Z-4.20687
X38.0379 Y27.27847 Z-4.25573
X38.55303 Y27.49404 Z-4.30458
X39.05344 Y27.74185 Z-4.35344
X39.53713 Y28.0209 Z-4.40229
X40.00215 Y28.33006 Z-4.45115
X40.44662 Y28.66809 Z-4.5
G03 X29.35338 Y42.33191 I-5.54662 J6.83191 F192.
X40.44662 Y28.66809 I5.54662 J-6.83191
G0 Z1.
X34.04361 Y26.74537
G1 Z-4.4 F48.
X34.19972 Y26.72791 Z-4.41374 F144.
X34.75749 Y26.70115 Z-4.4626
X35.31584 Y26.70983 Z-4.51145
X35.87251 Y26.7539 Z-4.56031
X36.42526 Y26.83319 Z-4.60916
X36.97187 Y26.94738 Z-4.65802
X37.51014 Y27.09601 Z-4.70687
X38.0379 Y27.27847 Z-4.75573
X38.55303 Y27.49404 Z-4.80458
X39.05344 Y27.74185 Z-4.85344
X39.53713 Y28.0209 Z-4.90229
X40.00215 Y28.33006 Z-4.95115
X40.44662 Y28.66809 Z-5.
G03 X29.35338 Y42.33191 I-5.54662 J6.83191 F192.
X40.44662 Y28.66809 I5.54662 J-6.83191
G0 Z1.
X34.04361 Y26.74537
G1 Z-4.9 F48.
X34.19972 Y26.72791 Z-4.91374 F144.
X34.75749 Y26.70115 Z-4.9626
X35.31584 Y26.70983 Z-5.01145
X35.87251 Y26.7539 Z-5.06031
X36.42526 Y26.83319 Z-5.10916
X36.97187 Y26.94738 Z-5.15802
X37.51014 Y27.09601 Z-5.20687
X38.0379 Y27.27847 Z-5.25573
X38.55303 Y27.49404 Z-5.30458
X39.05344 Y27.74185 Z-5.35344
X39.53713 Y28.0209 Z-5.40229
X40.00215 Y28.33006 Z-5.45115
X40.44662 Y28.66809 Z-5.5
G03 X29.35338 Y42.33191 I-5.54662 J6.83191 F192.
X40.44662 Y28.66809 I5.54662 J-6.83191
G0 Z1.
X25.44931 Y26.07626
G1 Z0.1 F48.
X25.51119 Y26.01926 Z0.09264 F144.
X25.60097 Y25.97506 Z0.08388
X25.6996 Y25.95808 Z0.07513
X25.69977 Y25.95807 Z0.07511
X25.69995 Z0.0751
X25.70013 Y25.95806 Z0.07508
X25.7003 Z0.07507
X25.70048 Y25.95805 Z0.07505
X25.70066 Z0.07504
X25.70084 Y25.95804 Z0.07502
X25.70101 Z0.075
X25.70119 Z0.07499
X25.70136 Y25.95803 Z0.07497
X25.70154 Z0.07496
X25.70172 Y25.95802 Z0.07494
X25.7019 Z0.07493
X25.70207 Z0.07491
X25.70225 Y25.95801 Z0.0749
X25.78619 Y25.96654 Z0.06751
X25.78874 Y25.96714 Z0.06728
X25.88192 Y26.00363 Z0.05853
X25.96097 Y26.06501 Z0.04977
X26.01941 Y26.14625 Z0.04102
X26.05247 Y26.2407 Z0.03226
X26.05744 Y26.34066 Z0.02351
X26.03391 Y26.43793 Z0.01475
X25.98382 Y26.52456 Z0.006
X25.91125 Y26.59348 Z-0.00276
X25.82214 Y26.63903 Z-0.01152
X25.72378 Y26.6575 Z-0.02027
X25.62422 Y26.64737 Z-0.02903
X25.5316 Y26.60948 Z-0.03778
X25.45348 Y26.54692 Z-0.04654
X25.39628 Y26.4648 Z-0.05529
X25.36465 Y26.36986 Z-0.06405
X25.36119 Y26.26984 Z-0.0728
X25.38618 Y26.17293 Z-0.08156
X25.43758 Y26.08707 Z-0.09032
X25.51119 Y26.01926 Z-0.09907
X25.60097 Y25.97506 Z-0.10783
X25.6996 Y25.95808 Z-0.11658
X25.69977 Y25.95807 Z-0.1166
X25.69995 Z-0.11661
X25.70013 Y25.95806 Z-0.11663
X25.7003 Z-0.11664
X25.70048 Y25.95805 Z-0.11666
X25.70066 Z-0.11667
X25.70084 Y25.95804 Z-0.11669
X25.70101 Z-0.11671
X25.70119 Z-0.11672
X25.70136 Y25.95803 Z-0.11674
X25.70154 Z-0.11675
X25.70172 Y25.95802 Z-0.11677
X25.7019 Z-0.11678
X25.70207 Z-0.1168
X25.70225 Y25.95801 Z-0.11681
X25.78619 Y25.96654 Z-0.1242
X25.78874 Y25.96714 Z-0.12442
X25.88192 Y26.00363 Z-0.13318
X25.96097 Y26.06501 Z-0.14194
X26.01941 Y26.14625 Z-0.15069
X26.05247 Y26.2407 Z-0.15945
X26.05744 Y26.34066 Z-0.1682
X26.03391 Y26.43793 Z-0.17696
X25.98382 Y26.52456 Z-0.18571
X25.91125 Y26.59348 Z-0.19447
X25.82214 Y26.63903 Z-0.20322
X25.72378 Y26.6575 Z-0.21198
X25.62422 Y26.64737 Z-0.22074
X25.5316 Y26.60948 Z-0.22949
X25.45348 Y26.54692 Z-0.23825
X25.39628 Y26.4648 Z-0.247
X25.36465 Y26.36986 Z-0.25576
X25.36119 Y26.26984 Z-0.26451
X25.38618 Y26.17293 Z-0.27327
X25.43758 Y26.08707 Z-0.28202
X25.51119 Y26.01926 Z-0.29078
X25.60097 Y25.97506 Z-0.29954
X25.6996 Y25.95808 Z-0.30829
X25.69977 Y25.95807 Z-0.30831
X25.69995 Z-0.30832
X25.70013 Y25.95806 Z-0.30834
X25.7003 Z-0.30835
X25.70048 Y25.95805 Z-0.30837
X25.70066 Z-0.30838
X25.70084 Y25.95804 Z-0.3084
X25.70101 Z-0.30841
X25.70119 Z-0.30843
X25.70136 Y25.95803 Z-0.30845
X25.70154 Z-0.30846
X25.70172 Y25.95802 Z-0.30848
X25.7019 Z-0.30849
X25.70207 Z-0.30851
X25.70225 Y25.95801 Z-0.30852
X25.78619 Y25.96654 Z-0.3159
X25.78874 Y25.96714 Z-0.31613
X25.88192 Y26.00363 Z-0.32489
X25.96097 Y26.06501 Z-0.33364
X26.01941 Y26.14625 Z-0.3424
X26.05247 Y26.2407 Z-0.35116
X26.05744 Y26.34066 Z-0.35991
X26.03391 Y26.43793 Z-0.36867
X25.98382 Y26.52456 Z-0.37742
X25.91125 Y26.59348 Z-0.38618
X25.82214 Y26.63903 Z-0.39493
X25.72378 Y26.6575 Z-0.40369
X25.62422 Y26.64737 Z-0.41244
X25.5316 Y26.60948 Z-0.4212
X25.45348 Y26.54692 Z-0.42996
X25.39628 Y26.4648 Z-0.43871
X25.36465 Y26.36986 Z-0.44747
X25.36119 Y26.26984 Z-0.45622
X25.38618 Y26.17293 Z-0.46498
X25.43758 Y26.08707 Z-0.47373
X25.51119 Y26.01926 Z-0.48249
X25.60097 Y25.97506 Z-0.49124
X25.6996 Y25.95808 Z-0.5
G03 X25.70225 Y25.95801 I0.00945 J0.3498 F192.
G1 X25.78619 Y25.96654
X25.78874 Y25.96714
G03 X25.6996 Y25.95808 I-0.07969 J0.34074
G0 Z1.
X25.44931 Y26.07626
G1 Z-0.4 F48.
X25.51119 Y26.01926 Z-0.40736 F144.
X25.60097 Y25.97506 Z-0.41612
X25.6996 Y25.95808 Z-0.42487
X25.69977 Y25.95807 Z-0.42489
X25.69995 Z-0.4249
X25.70013 Y25.95806 Z-0.42492
X25.7003 Z-0.42493
X25.70048 Y25.95805 Z-0.42495
X25.70066 Z-0.42497
X25.70084 Y25.95804 Z-0.42498
X25.70101 Z-0.425
X25.70119 Z-0.42501
X25.70136 Y25.95803 Z-0.42503
X25.70154 Z-0.42504
X25.70172 Y25.95802 Z-0.42506
X25.7019 Z-0.42507
X25.70207 Z-0.42509
X25.70225 Y25.95801 Z-0.4251
X25.78619 Y25.96654 Z-0.43249
X25.78874 Y25.96714 Z-0.43272
X25.88192 Y26.00363 Z-0.44147
X25.96097 Y26.06501 Z-0.45023
X26.01941 Y26.14625 Z-0.45898
X26.05247 Y26.2407 Z-0.46774
X26.05744 Y26.34066 Z-0.47649
X26.03391 Y26.43793 Z-0.48525
X25.98382 Y26.52456 Z-0.494
X25.91125 Y26.59348 Z-0.50276
X25.82214 Y26.63903 Z-0.51152
X25.72378 Y26.6575 Z-0.52027
X25.62422 Y26.64737 Z-0.52903
X25.5316 Y26.60948 Z-0.53778
X25.45348 Y26.54692 Z-0.54654
X25.39628 Y26.4648 Z-0.55529
X25.36465 Y26.36986 Z-0.56405
X25.36119 Y26.26984 Z-0.5728
X25.38618 Y26.17293 Z-0.58156
X25.43758 Y26.08707 Z-0.59032
X25.51119 Y26.01926 Z-0.59907
X25.60097 Y25.97506 Z-0.60783
X25.6996 Y25.95808 Z-0.61658
X25.69977 Y25.95807 Z-0.6166
X25.69995 Z-0.61661
X25.70013 Y25.95806 Z-0.61663
X25.7003 Z-0.61664
X25.70048 Y25.95805 Z-0.61666
X25.70066 Z-0.61667
X25.70084 Y25.95804 Z-0.61669
X25.70101 Z-0.6167
X25.70119 Z-0.61672
X25.70136 Y25.95803 Z-0.61674
X25.70154 Z-0.61675
X25.70172 Y25.95802 Z-0.61677
X25.7019 Z-0.61678
X25.70207 Z-0.6168
X25.70225 Y25.95801 Z-0.61681
X25.78619 Y25.96654 Z-0.6242
X25.78874 Y25.96714 Z-0.62442
X25.88192 Y26.00363 Z-0.63318
X25.96097 Y26.06501 Z-0.64193
X26.01941 Y26.14625 Z-0.65069
X26.05247 Y26.2407 Z-0.65945
X26.05744 Y26.34066 Z-0.6682
X26.03391 Y26.43793 Z-0.67696
X25.98382 Y26.52456 Z-0.68571
X25.91125 Y26.59348 Z-0.69447
X25.82214 Y26.63903 Z-0.70322
X25.72378 Y26.6575 Z-0.71198
X25.62422 Y26.64737 Z-0.72073
X25.5316 Y26.60948 Z-0.72949
X25.45348 Y26.54692 Z-0.73825
X25.39628 Y26.4648 Z-0.747
X25.36465 Y26.36986 Z-0.75576
X25.36119 Y26.26984 Z-0.76451
X25.38618 Y26.17293 Z-0.77327
X25.43758 Y26.08707 Z-0.78202
X25.51119 Y26.01926 Z-0.79078
X25.60097 Y25.97506 Z-0.79954
X25.6996 Y25.95808 Z-0.80829
X25.69977 Y25.95807 Z-0.80831
X25.69995 Z-0.80832
X25.70013 Y25.95806 Z-0.80834
X25.7003 Z-0.80835
X25.70048 Y25.95805 Z-0.80837
X25.70066 Z-0.80838
X25.70084 Y25.95804 Z-0.8084
X25.70101 Z-0.80841
X25.70119 Z-0.80843
X25.70136 Y25.95803 Z-0.80845
X25.70154 Z-0.80846
X25.70172 Y25.95802 Z-0.80848
X25.7019 Z-0.80849
X25.70207 Z-0.80851
X25.70225 Y25.95801 Z-0.80852
X25.78619 Y25.96654 Z-0.81591
X25.78874 Y25.96714 Z-0.81613
X25.88192 Y26.00363 Z-0.82489
X25.96097 Y26.06501 Z-0.83364
X26.01941 Y26.14625 Z-0.8424
X26.05247 Y26.2407 Z-0.85116
X26.05744 Y26.34066 Z-0.85991
X26.03391 Y26.43793 Z-0.86867
X25.98382 Y26.52456 Z-0.87742
X25.91125 Y26.59348 Z-0.88618
X25.82214 Y26.63903 Z-0.89493
X25.72378 Y26.6575 Z-0.90369
X25.62422 Y26.64737 Z-0.91244
X25.5316 Y26.60948 Z-0.9212
X25.45348 Y26.54692 Z-0.92996
X25.39628 Y26.4648 Z-0.93871
X25.36465 Y26.36986 Z-0.94747
X25.36119 Y26.26984 Z-0.95622
X25.38618 Y26.17293 Z-0.96498
X25.43758 Y26.08707 Z-0.97373
X25.51119 Y26.01926 Z-0.98249
X25.60097 Y25.97506 Z-0.99124
X25.6996 Y25.95808 Z-1.
G03 X25.70225 Y25.95801 I0.00945 J0.3498 F192.
G1 X25.78619 Y25.96654
X25.78874 Y25.96714
G03 X25.6996 Y25.95808 I-0.07969 J0.34074
G0 Z1.
X25.44931 Y26.07626
G1 Z-0.9 F48.
X25.51119 Y26.01926 Z-0.90736 F144.
X25.60097 Y25.97506 Z-0.91612
X25.6996 Y25.95808 Z-0.92487
X25.69977 Y25.95807 Z-0.92489
X25.69995 Z-0.9249
X25.70013 Y25.95806 Z-0.92492
X25.7003 Z-0.92493
X25.70048 Y25.95805 Z-0.92495
X25.70066 Z-0.92497
X25.70084 Y25.95804 Z-0.92498
X25.70101 Z-0.925
X25.70119 Z-0.92501
X25.70136 Y25.95803 Z-0.92503
X25.70154 Z-0.92504
X25.70172 Y25.95802 Z-0.92506
X25.7019 Z-0.92507
X25.70207 Z-0.92509
X25.70225 Y25.95801 Z-0.9251
X25.78619 Y25.96654 Z-0.93249
X25.78874 Y25.96714 Z-0.93272
X25.88192 Y26.00363 Z-0.94147
X25.96097 Y26.06501 Z-0.95023
X26.01941 Y26.14625 Z-0.95898
X26.05247 Y26.2407 Z-0.96774
X26.05744 Y26.34066 Z-0.97649
X26.03391 Y26.43793 Z-0.98525
X25.98382 Y26.52456 Z-0.994
X25.91125 Y26.59348 Z-1.00276
X25.82214 Y26.63903 Z-1.01152
X25.72378 Y26.6575 Z-1.02027
X25.62422 Y26.64737 Z-1.02903
X25.5316 Y26.60948 Z-1.03778
X25.45348 Y26.54692 Z-1.04654
X25.39628 Y26.4648 Z-1.05529
X25.36465 Y26.36986 Z-1.06405
X25.36119 Y26.26984 Z-1.0728
X25.38618 Y26.17293 Z-1.08156
X25.43758 Y26.08707 Z-1.09032
X25.51119 Y26.01926 Z-1.09907
X25.60097 Y25.97506 Z-1.10783
X25.6996 Y25.95808 Z-1.11658
X25.69977 Y25.95807 Z-1.1166
X25.69995 Z-1.11661
X25.70013 Y25.95806 Z-1.11663
X25.7003 Z-1.11664
X25.70048 Y25.95805 Z-1.11666
X25.70066 Z-1.11667
X25.70084 Y25.95804 Z-1.11669
X25.70101 Z-1.11671
X25.70119 Z-1.11672
X25.70136 Y25.95803 Z-1.11674
X25.70154 Z-1.11675
X25.70172 Y25.95802 Z-1.11677
X25.7019 Z-1.11678
X25.70207 Z-1.1168
X25.70225 Y25.95801 Z-1.11681
X25.78619 Y25.96654 Z-1.1242
X25.78874 Y25.96714 Z-1.12442
X25.88192 Y26.00363 Z-1.13318
X25.96097 Y26.06501 Z-1.14193
X26.01941 Y26.14625 Z-1.15069
X26.05247 Y26.2407 Z-1.15945
X26.05744 Y26.34066 Z-1.1682
X26.03391 Y26.43793 Z-1.17696
X25.98382 Y26.52456 Z-1.18571
X25.91125 Y26.59348 Z-1.19447
X25.82214 Y26.63903 Z-1.20322
X25.72378 Y26.6575 Z-1.21198
X25.62422 Y26.64737 Z-1.22073
X25.5316 Y26.60948 Z-1.22949
X25.45348 Y26.54692 Z-1.23825
X25.39628 Y26.4648 Z-1.247
X25.36465 Y26.36986 Z-1.25576
X25.36119 Y26.26984 Z-1.26451
X25.38618 Y26.17293 Z-1.27327
X25.43758 Y26.08707 Z-1.28202
X25.51119 Y26.01926 Z-1.29078
X25.60097 Y25.97506 Z-1.29954
X25.6996 Y25.95808 Z-1.30829
X25.69977 Y25.95807 Z-1.30831
X25.69995 Z-1.30832
X25.70013 Y25.95806 Z-1.30834
X25.7003 Z-1.30835
X25.70048 Y25.95805 Z-1.30837
X25.70066 Z-1.30838
X25.70084 Y25.95804 Z-1.3084
X25.70101 Z-1.30841
X25.70119 Z-1.30843
X25.70136 Y25.95803 Z-1.30845
X25.70154 Z-1.30846
X25.70172 Y25.95802 Z-1.30848
X25.7019 Z-1.30849
X25.70207 Z-1.30851
X25.70225 Y25.95801 Z-1.30852
X25.78619 Y25.96654 Z-1.31591
X25.78874 Y25.96714 Z-1.31613
X25.88192 Y26.00363 Z-1.32489
X25.96097 Y26.06501 Z-1.33364
X26.01941 Y26.14625 Z-1.3424
X26.05247 Y26.2407 Z-1.35116
X26.05744 Y26.34066 Z-1.35991
X26.03391 Y26.43793 Z-1.36867
X25.98382 Y26.52456 Z-1.37742
X25.91125 Y26.59348 Z-1.38618
X25.82214 Y26.63903 Z-1.39493
X25.72378 Y26.6575 Z-1.40369
X25.62422 Y26.64737 Z-1.41244
X25.5316 Y26.60948 Z-1.4212
X25.45348 Y26.54692 Z-1.42996
X25.39628 Y26.4648 Z-1.43871
X25.36465 Y26.36986 Z-1.44747
X25.36119 Y26.26984 Z-1.45622
X25.38618 Y26.17293 Z-1.46498
X25.43758 Y26.08707 Z-1.47373
X25.51119 Y26.01926 Z-1.48249
X25.60097 Y25.97506 Z-1.49124
X25.6996 Y25.95808 Z-1.5
G03 X25.70225 Y25.95801 I0.00945 J0.3498 F192.
G1 X25.78619 Y25.96654
X25.78874 Y25.96714
G03 X25.6996 Y25.95808 I-0.07969 J0.34074
G0 Z1.
X25.44931 Y26.07626
G1 Z-1.4 F48.
X25.51119 Y26.01926 Z-1.40736 F144.
X25.60097 Y25.97506 Z-1.41612
X25.6996 Y25.95808 Z-1.42487
X25.69977 Y25.95807 Z-1.42489
X25.69995 Z-1.4249
X25.70013 Y25.95806 Z-1.42492
X25.7003 Z-1.42493
X25.70048 Y25.95805 Z-1.42495
X25.70066 Z-1.42497
X25.70084 Y25.95804 Z-1.42498
X25.70101 Z-1.425
X25.70119 Z-1.42501
X25.70136 Y25.95803 Z-1.42503
X25.70154 Z-1.42504
X25.70172 Y25.95802 Z-1.42506
X25.7019 Z-1.42507
X25.70207 Z-1.42509
X25.70225 Y25.95801 Z-1.4251
X25.78619 Y25.96654 Z-1.43249
X25.78874 Y25.96714 Z-1.43272
X25.88192 Y26.00363 Z-1.44147
X25.96097 Y26.06501 Z-1.45023
X26.01941 Y26.14625 Z-1.45898
X26.05247 Y26.2407 Z-1.46774
X26.05744 Y26.34066 Z-1.47649
X26.03391 Y26.43793 Z-1.48525
X25.98382 Y26.52456 Z-1.494
X25.91125 Y26.59348 Z-1.50276
X25.82214 Y26.63903 Z-1.51151
X25.72378 Y26.6575 Z-1.52027
X25.62422 Y26.64737 Z-1.52903
X25.5316 Y26.60948 Z-1.53778
X25.45348 Y26.54692 Z-1.54654
X25.39628 Y26.4648 Z-1.55529
X25.36465 Y26.36986 Z-1.56405
X25.36119 Y26.26984 Z-1.5728
X25.38618 Y26.17293 Z-1.58156
X25.43758 Y26.08707 Z-1.59032
X25.51119 Y26.01926 Z-1.59907
X25.60097 Y25.97506 Z-1.60783
X25.6996 Y25.95808 Z-1.61658
X25.69977 Y25.95807 Z-1.6166
X25.69995 Z-1.61661
X25.70013 Y25.95806 Z-1.61663
X25.7003 Z-1.61664
X25.70048 Y25.95805 Z-1.61666
X25.70066 Z-1.61667
X25.70084 Y25.95804 Z-1.61669
X25.70101 Z-1.61671
X25.70119 Z-1.61672
X25.70136 Y25.95803 Z-1.61674
X25.70154 Z-1.61675
X25.70172 Y25.95802 Z-1.61677
X25.7019 Z-1.61678
X25.70207 Z-1.6168
X25.70225 Y25.95801 Z-1.61681
X25.78619 Y25.96654 Z-1.6242
X25.78874 Y25.96714 Z-1.62442
X25.88192 Y26.00363 Z-1.63318
X25.96097 Y26.06501 Z-1.64194
X26.01941 Y26.14625 Z-1.65069
X26.05247 Y26.2407 Z-1.65945
X26.05744 Y26.34066 Z-1.6682
X26.03391 Y26.43793 Z-1.67696
X25.98382 Y26.52456 Z-1.68571
X25.91125 Y26.59348 Z-1.69447
X25.82214 Y26.63903 Z-1.70322
X25.72378 Y26.6575 Z-1.71198
X25.62422 Y26.64737 Z-1.72074
X25.5316 Y26.60948 Z-1.72949
X25.45348 Y26.54692 Z-1.73825
X25.39628 Y26.4648 Z-1.747
X25.36465 Y26.36986 Z-1.75576
X25.36119 Y26.26984 Z-1.76451
X25.38618 Y26.17293 Z-1.77327
X25.43758 Y26.08707 Z-1.78202
X25.51119 Y26.01926 Z-1.79078
X25.60097 Y25.97506 Z-1.79954
X25.6996 Y25.95808 Z-1.80829
X25.69977 Y25.95807 Z-1.80831
X25.69995 Z-1.80832
X25.70013 Y25.95806 Z-1.80834
X25.7003 Z-1.80835
X25.70048 Y25.95805 Z-1.80837
X25.70066 Z-1.80838
X25.70084 Y25.95804 Z-1.8084
X25.70101 Z-1.80841
X25.70119 Z-1.80843
X25.70136 Y25.95803 Z-1.80845
X25.70154 Z-1.80846
X25.70172 Y25.95802 Z-1.80848
X25.7019 Z-1.80849
X25.70207 Z-1.80851
X25.70225 Y25.95801 Z-1.80852
X25.78619 Y25.96654 Z-1.81591
X25.78874 Y25.96714 Z-1.81613
X25.88192 Y26.00363 Z-1.82489
X25.96097 Y26.06501 Z-1.83364
X26.01941 Y26.14625 Z-1.8424
X26.05247 Y26.2407 Z-1.85116
X26.05744 Y26.34066 Z-1.85991
X26.03391 Y26.43793 Z-1.86867
X25.98382 Y26.52456 Z-1.87742
X25.91125 Y26.59348 Z-1.88618
X25.82214 Y26.63903 Z-1.89493
X25.72378 Y26.6575 Z-1.90369
X25.62422 Y26.64737 Z-1.91244
X25.5316 Y26.60948 Z-1.9212
X25.45348 Y26.54692 Z-1.92996
X25.39628 Y26.4648 Z-1.93871
X25.36465 Y26.36986 Z-1.94747
X25.36119 Y26.26984 Z-1.95622
X25.38618 Y26.17293 Z-1.96498
X25.43758 Y26.08707 Z-1.97373
X25.51119 Y26.01926 Z-1.98249
X25.60097 Y25.97506 Z-1.99124
X25.6996 Y25.95808 Z-2.
G03 X25.70225 Y25.95801 I0.00945 J0.3498 F192.
G1 X25.78619 Y25.96654
X25.78874 Y25.96714
G03 X25.6996 Y25.95808 I-0.07969 J0.34074
G0 Z1.
X25.44931 Y26.07626
G1 Z-1.9 F48.
X25.51119 Y26.01926 Z-1.90736 F144.
X25.60097 Y25.97506 Z-1.91612
X25.6996 Y25.95808 Z-1.92487
X25.69977 Y25.95807 Z-1.92489
X25.69995 Z-1.9249
X25.70013 Y25.95806 Z-1.92492
X25.7003 Z-1.92493
X25.70048 Y25.95805 Z-1.92495
X25.70066 Z-1.92496
X25.70084 Y25.95804 Z-1.92498
X25.70101 Z-1.925
X25.70119 Z-1.92501
X25.70136 Y25.95803 Z-1.92503
X25.70154 Z-1.92504
X25.70172 Y25.95802 Z-1.92506
X25.7019 Z-1.92507
X25.70207 Z-1.92509
X25.70225 Y25.95801 Z-1.9251
X25.78619 Y25.96654 Z-1.93249
X25.78874 Y25.96714 Z-1.93272
X25.88192 Y26.00363 Z-1.94147
X25.96097 Y26.06501 Z-1.95023
X26.01941 Y26.14625 Z-1.95898
X26.05247 Y26.2407 Z-1.96774
X26.05744 Y26.34066 Z-1.97649
X26.03391 Y26.43793 Z-1.98525
X25.98382 Y26.52456 Z-1.994
X25.91125 Y26.59348 Z-2.00276
X25.82214 Y26.63903 Z-2.01151
X25.72378 Y26.6575 Z-2.02027
X25.62422 Y26.64737 Z-2.02903
X25.5316 Y26.60948 Z-2.03778
X25.45348 Y26.54692 Z-2.04654
X25.39628 Y26.4648 Z-2.05529
X25.36465 Y26.36986 Z-2.06405
X25.36119 Y26.26984 Z-2.0728
X25.38618 Y26.17293 Z-2.08156
X25.43758 Y26.08707 Z-2.09032
X25.51119 Y26.01926 Z-2.09907
X25.60097 Y25.97506 Z-2.10783
X25.6996 Y25.95808 Z-2.11658
X25.69977 Y25.95807 Z-2.1166
X25.69995 Z-2.11661
X25.70013 Y25.95806 Z-2.11663
X25.7003 Z-2.11664
X25.70048 Y25.95805 Z-2.11666
X25.70066 Z-2.11667
X25.70084 Y25.95804 Z-2.11669
X25.70101 Z-2.11671
X25.70119 Z-2.11672
X25.70136 Y25.95803 Z-2.11674
X25.70154 Z-2.11675
X25.70172 Y25.95802 Z-2.11677
X25.7019 Z-2.11678
X25.70207 Z-2.1168
X25.70225 Y25.95801 Z-2.11681
X25.78619 Y25.96654 Z-2.1242
X25.78874 Y25.96714 Z-2.12442
X25.88192 Y26.00363 Z-2.13318
X25.96097 Y26.06501 Z-2.14194
X26.01941 Y26.14625 Z-2.15069
X26.05247 Y26.2407 Z-2.15945
X26.05744 Y26.34066 Z-2.1682
X26.03391 Y26.43793 Z-2.17696
X25.98382 Y26.52456 Z-2.18571
X25.91125 Y26.59348 Z-2.19447
X25.82214 Y26.63903 Z-2.20322
X25.72378 Y26.6575 Z-2.21198
X25.62422 Y26.64737 Z-2.22074
X25.5316 Y26.60948 Z-2.22949
X25.45348 Y26.54692 Z-2.23825
X25.39628 Y26.4648 Z-2.247
X25.36465 Y26.36986 Z-2.25576
X25.36119 Y26.26984 Z-2.26451
X25.38618 Y26.17293 Z-2.27327
X25.43758 Y26.08707 Z-2.28202
X25.51119 Y26.01926 Z-2.29078
X25.60097 Y25.97506 Z-2.29954
X25.6996 Y25.95808 Z-2.30829
X25.69977 Y25.95807 Z-2.30831
X25.69995 Z-2.30832
X25.70013 Y25.95806 Z-2.30834
X25.7003 Z-2.30835
X25.70048 Y25.95805 Z-2.30837
X25.70066 Z-2.30838
X25.70084 Y25.95804 Z-2.3084
X25.70101 Z-2.30841
X25.70119 Z-2.30843
X25.70136 Y25.95803 Z-2.30844
X25.70154 Z-2.30846
X25.70172 Y25.95802 Z-2.30848
X25.7019 Z-2.30849
X25.70207 Z-2.30851
X25.70225 Y25.95801 Z-2.30852
X25.78619 Y25.96654 Z-2.31591
X25.78874 Y25.96714 Z-2.31613
X25.88192 Y26.00363 Z-2.32489
X25.96097 Y26.06501 Z-2.33364
X26.01941 Y26.14625 Z-2.3424
X26.05247 Y26.2407 Z-2.35116
X26.05744 Y26.34066 Z-2.35991
X26.03391 Y26.43793 Z-2.36867
X25.98382 Y26.52456 Z-2.37742
X25.91125 Y26.59348 Z-2.38618
X25.82214 Y26.63903 Z-2.39493
X25.72378 Y26.6575 Z-2.40369
X25.62422 Y26.64737 Z-2.41244
X25.5316 Y26.60948 Z-2.4212
X25.45348 Y26.54692 Z-2.42996
X25.39628 Y26.4648 Z-2.43871
X25.36465 Y26.36986 Z-2.44747
X25.36119 Y26.26984 Z-2.45622
X25.38618 Y26.17293 Z-2.46498
X25.43758 Y26.08707 Z-2.47373
X25.51119 Y26.01926 Z-2.48249
X25.60097 Y25.97506 Z-2.49124
X25.6996 Y25.95808 Z-2.5
G03 X25.70225 Y25.95801 I0.00945 J0.3498 F192.
G1 X25.78619 Y25.96654
X25.78874 Y25.96714
G03 X25.6996 Y25.95808 I-0.07969 J0.34074
G0 Z1.
X25.44931 Y26.07626
G1 Z-2.4 F48.
X25.51119 Y26.01926 Z-2.40736 F144.
X25.60097 Y25.97506 Z-2.41612
X25.6996 Y25.95808 Z-2.42487
X25.69977 Y25.95807 Z-2.42489
X25.69995 Z-2.4249
X25.70013 Y25.95806 Z-2.42492
X25.7003 Z-2.42493
X25.70048 Y25.95805 Z-2.42495
X25.70066 Z-2.42497
X25.70084 Y25.95804 Z-2.42498
X25.70101 Z-2.425
X25.70119 Z-2.42501
X25.70136 Y25.95803 Z-2.42503
X25.70154 Z-2.42504
X25.70172 Y25.95802 Z-2.42506
X25.7019 Z-2.42507
X25.70207 Z-2.42509
X25.70225 Y25.95801 Z-2.4251
X25.78619 Y25.96654 Z-2.43249
X25.78874 Y25.96714 Z-2.43272
X25.88192 Y26.00363 Z-2.44147
X25.96097 Y26.06501 Z-2.45023
X26.01941 Y26.14625 Z-2.45898
X26.05247 Y26.2407 Z-2.46774
X26.05744 Y26.34066 Z-2.47649
X26.03391 Y26.43793 Z-2.48525
X25.98382 Y26.52456 Z-2.494
X25.91125 Y26.59348 Z-2.50276
X25.82214 Y26.63903 Z-2.51151
X25.72378 Y26.6575 Z-2.52027
X25.62422 Y26.64737 Z-2.52903
X25.5316 Y26.60948 Z-2.53778
X25.45348 Y26.54692 Z-2.54654
X25.39628 Y26.4648 Z-2.55529
X25.36465 Y26.36986 Z-2.56405
X25.36119 Y26.26984 Z-2.5728
X25.38618 Y26.17293 Z-2.58156
X25.43758 Y26.08707 Z-2.59032
X25.51119 Y26.01926 Z-2.59907
X25.60097 Y25.97506 Z-2.60783
X25.6996 Y25.95808 Z-2.61658
X25.69977 Y25.95807 Z-2.6166
X25.69995 Z-2.61661
X25.70013 Y25.95806 Z-2.61663
X25.7003 Z-2.61664
X25.70048 Y25.95805 Z-2.61666
X25.70066 Z-2.61667
X25.70084 Y25.95804 Z-2.61669
X25.70101 Z-2.61671
X25.70119 Z-2.61672
X25.70136 Y25.95803 Z-2.61674
X25.70154 Z-2.61675
X25.70172 Y25.95802 Z-2.61677
X25.7019 Z-2.61678
X25.70207 Z-2.6168
X25.70225 Y25.95801 Z-2.61681
X25.78619 Y25.96654 Z-2.6242
X25.78874 Y25.96714 Z-2.62442
X25.88192 Y26.00363 Z-2.63318
X25.96097 Y26.06501 Z-2.64194
X26.01941 Y26.14625 Z-2.65069
X26.05247 Y26.2407 Z-2.65945
X26.05744 Y26.34066 Z-2.6682
X26.03391 Y26.43793 Z-2.67696
X25.98382 Y26.52456 Z-2.68571
X25.91125 Y26.59348 Z-2.69447
X25.82214 Y26.63903 Z-2.70322
X25.72378 Y26.6575 Z-2.71198
X25.62422 Y26.64737 Z-2.72074
X25.5316 Y26.60948 Z-2.72949
X25.45348 Y26.54692 Z-2.73825
X25.39628 Y26.4648 Z-2.747
X25.36465 Y26.36986 Z-2.75576
X25.36119 Y26.26984 Z-2.76451
X25.38618 Y26.17293 Z-2.77327
X25.43758 Y26.08707 Z-2.78202
X25.51119 Y26.01926 Z-2.79078
X25.60097 Y25.97506 Z-2.79954
X25.6996 Y25.95808 Z-2.80829
X25.69977 Y25.95807 Z-2.80831
X25.69995 Z-2.80832
X25.70013 Y25.95806 Z-2.80834
X25.7003 Z-2.80835
X25.70048 Y25.95805 Z-2.80837
X25.70066 Z-2.80838
X25.70084 Y25.95804 Z-2.8084
X25.70101 Z-2.80841
X25.70119 Z-2.80843
X25.70136 Y25.95803 Z-2.80845
X25.70154 Z-2.80846
X25.70172 Y25.95802 Z-2.80848
X25.7019 Z-2.80849
X25.70207 Z-2.80851
X25.70225 Y25.95801 Z-2.80852
X25.78619 Y25.96654 Z-2.81591
X25.78874 Y25.96714 Z-2.81613
X25.88192 Y26.00363 Z-2.82489
X25.96097 Y26.06501 Z-2.83364
X26.01941 Y26.14625 Z-2.8424
X26.05247 Y26.2407 Z-2.85116
X26.05744 Y26.34066 Z-2.85991
X26.03391 Y26.43793 Z-2.86867
X25.98382 Y26.52456 Z-2.87742
X25.91125 Y26.59348 Z-2.88618
X25.82214 Y26.63903 Z-2.89493
X25.72378 Y26.6575 Z-2.90369
X25.62422 Y26.64737 Z-2.91244
X25.5316 Y26.60948 Z-2.9212
X25.45348 Y26.54692 Z-2.92996
X25.39628 Y26.4648 Z-2.93871
X25.36465 Y26.36986 Z-2.94747
X25.36119 Y26.26984 Z-2.95622
X25.38618 Y26.17293 Z-2.96498
X25.43758 Y26.08707 Z-2.97373
X25.51119 Y26.01926 Z-2.98249
X25.60097 Y25.97506 Z-2.99124
X25.6996 Y25.95808 Z-3.
G03 X25.70225 Y25.95801 I0.00945 J0.3498 F192.
G1 X25.78619 Y25.96654
X25.78874 Y25.96714
G03 X25.6996 Y25.95808 I-0.07969 J0.34074
G0 Z1.
X25.44931 Y26.07626
G1 Z-2.9 F48.
X25.51119 Y26.01926 Z-2.90736 F144.
X25.60097 Y25.97506 Z-2.91612
X25.6996 Y25.95808 Z-2.92487
X25.69977 Y25.95807 Z-2.92489
X25.69995 Z-2.9249
X25.70013 Y25.95806 Z-2.92492
X25.7003 Z-2.92493
X25.70048 Y25.95805 Z-2.92495
X25.70066 Z-2.92497
X25.70084 Y25.95804 Z-2.92498
X25.70101 Z-2.925
X25.70119 Z-2.92501
X25.70136 Y25.95803 Z-2.92503
X25.70154 Z-2.92504
X25.70172 Y25.95802 Z-2.92506
X25.7019 Z-2.92507
X25.70207 Z-2.92509
X25.70225 Y25.95801 Z-2.9251
X25.78619 Y25.96654 Z-2.93249
X25.78874 Y25.96714 Z-2.93272
X25.88192 Y26.00363 Z-2.94147
X25.96097 Y26.06501 Z-2.95023
X26.01941 Y26.14625 Z-2.95898
X26.05247 Y26.2407 Z-2.96774
X26.05744 Y26.34066 Z-2.97649
X26.03391 Y26.43793 Z-2.98525
X25.98382 Y26.52456 Z-2.994
X25.91125 Y26.59348 Z-3.00276
X25.82214 Y26.63903 Z-3.01152
X25.72378 Y26.6575 Z-3.02027
X25.62422 Y26.64737 Z-3.02903
X25.5316 Y26.60948 Z-3.03778
X25.45348 Y26.54692 Z-3.04654
X25.39628 Y26.4648 Z-3.05529
X25.36465 Y26.36986 Z-3.06405
X25.36119 Y26.26984 Z-3.0728
X25.38618 Y26.17293 Z-3.08156
X25.43758 Y26.08707 Z-3.09032
X25.51119 Y26.01926 Z-3.09907
X25.60097 Y25.97506 Z-3.10783
X25.6996 Y25.95808 Z-3.11658
X25.69977 Y25.95807 Z-3.1166
X25.69995 Z-3.11661
X25.70013 Y25.95806 Z-3.11663
X25.7003 Z-3.11664
X25.70048 Y25.95805 Z-3.11666
X25.70066 Z-3.11667
X25.70084 Y25.95804 Z-3.11669
X25.70101 Z-3.11671
X25.70119 Z-3.11672
X25.70136 Y25.95803 Z-3.11674
X25.70154 Z-3.11675
X25.70172 Y25.95802 Z-3.11677
X25.7019 Z-3.11678
X25.70207 Z-3.1168
X25.70225 Y25.95801 Z-3.11681
X25.78619 Y25.96654 Z-3.1242
X25.78874 Y25.96714 Z-3.12442
X25.88192 Y26.00363 Z-3.13318
X25.96097 Y26.06501 Z-3.14194
X26.01941 Y26.14625 Z-3.15069
X26.05247 Y26.2407 Z-3.15945
X26.05744 Y26.34066 Z-3.1682
X26.03391 Y26.43793 Z-3.17696
X25.98382 Y26.52456 Z-3.18571
X25.91125 Y26.59348 Z-3.19447
X25.82214 Y26.63903 Z-3.20322
X25.72378 Y26.6575 Z-3.21198
X25.62422 Y26.64737 Z-3.22074
X25.5316 Y26.60948 Z-3.22949
X25.45348 Y26.54692 Z-3.23825
X25.39628 Y26.4648 Z-3.247
X25.36465 Y26.36986 Z-3.25576
X25.36119 Y26.26984 Z-3.26451
X25.38618 Y26.17293 Z-3.27327
X25.43758 Y26.08707 Z-3.28202
X25.51119 Y26.01926 Z-3.29078
X25.60097 Y25.97506 Z-3.29954
X25.6996 Y25.95808 Z-3.30829
X25.69977 Y25.95807 Z-3.30831
X25.69995 Z-3.30832
X25.70013 Y25.95806 Z-3.30834
X25.7003 Z-3.30835
X25.70048 Y25.95805 Z-3.30837
X25.70066 Z-3.30838
X25.70084 Y25.95804 Z-3.3084
X25.70101 Z-3.30841
X25.70119 Z-3.30843
X25.70136 Y25.95803 Z-3.30845
X25.70154 Z-3.30846
X25.70172 Y25.95802 Z-3.30848
X25.7019 Z-3.30849
X25.70207 Z-3.30851
X25.70225 Y25.95801 Z-3.30852
X25.78619 Y25.96654 Z-3.31591
X25.78874 Y25.96714 Z-3.31613
X25.88192 Y26.00363 Z-3.32489
X25.96097 Y26.06501 Z-3.33364
X26.01941 Y26.14625 Z-3.3424
X26.05247 Y26.2407 Z-3.35116
X26.05744 Y26.34066 Z-3.35991
X26.03391 Y26.43793 Z-3.36867
X25.98382 Y26.52456 Z-3.37742
X25.91125 Y26.59348 Z-3.38618
X25.82214 Y26.63903 Z-3.39493
X25.72378 Y26.6575 Z-3.40369
X25.62422 Y26.64737 Z-3.41244
X25.5316 Y26.60948 Z-3.4212
X25.45348 Y26.54692 Z-3.42996
X25.39628 Y26.4648 Z-3.43871
X25.36465 Y26.36986 Z-3.44747
X25.36119 Y26.26984 Z-3.45622
X25.38618 Y26.17293 Z-3.46498
X25.43758 Y26.08707 Z-3.47373
X25.51119 Y26.01926 Z-3.48249
X25.60097 Y25.97506 Z-3.49124
X25.6996 Y25.95808 Z-3.5
G03 X25.70225 Y25.95801 I0.00945 J0.3498 F192.
G1 X25.78619 Y25.96654
X25.78874 Y25.96714
G03 X25.6996 Y25.95808 I-0.07969 J0.34074
G0 Z1.
X25.44931 Y26.07626
G1 Z-3.4 F48.
X25.51119 Y26.01926 Z-3.40736 F144.
X25.60097 Y25.97506 Z-3.41612
X25.6996 Y25.95808 Z-3.42487
X25.69977 Y25.95807 Z-3.42489
X25.69995 Z-3.4249
X25.70013 Y25.95806 Z-3.42492
X25.7003 Z-3.42493
X25.70048 Y25.95805 Z-3.42495
X25.70066 Z-3.42496
X25.70084 Y25.95804 Z-3.42498
X25.70101 Z-3.425
X25.70119 Z-3.42501
X25.70136 Y25.95803 Z-3.42503
X25.70154 Z-3.42504
X25.70172 Y25.95802 Z-3.42506
X25.7019 Z-3.42507
X25.70207 Z-3.42509
X25.70225 Y25.95801 Z-3.4251
X25.78619 Y25.96654 Z-3.43249
X25.78874 Y25.96714 Z-3.43272
X25.88192 Y26.00363 Z-3.44147
X25.96097 Y26.06501 Z-3.45023
X26.01941 Y26.14625 Z-3.45898
X26.05247 Y26.2407 Z-3.46774
X26.05744 Y26.34066 Z-3.47649
X26.03391 Y26.43793 Z-3.48525
X25.98382 Y26.52456 Z-3.494
X25.91125 Y26.59348 Z-3.50276
X25.82214 Y26.63903 Z-3.51152
X25.72378 Y26.6575 Z-3.52027
X25.62422 Y26.64737 Z-3.52903
X25.5316 Y26.60948 Z-3.53778
X25.45348 Y26.54692 Z-3.54654
X25.39628 Y26.4648 Z-3.55529
X25.36465 Y26.36986 Z-3.56405
X25.36119 Y26.26984 Z-3.5728
X25.38618 Y26.17293 Z-3.58156
X25.43758 Y26.08707 Z-3.59031
X25.51119 Y26.01926 Z-3.59907
X25.60097 Y25.97506 Z-3.60783
X25.6996 Y25.95808 Z-3.61658
X25.69977 Y25.95807 Z-3.6166
X25.69995 Z-3.61661
X25.70013 Y25.95806 Z-3.61663
X25.7003 Z-3.61664
X25.70048 Y25.95805 Z-3.61666
X25.70066 Z-3.61667
X25.70084 Y25.95804 Z-3.61669
