%
G17 G21 G40 G90 G64 P0.1
(Hole Pocketing)
(SlotDrill 2mm Carbide)
T12 M06
S24000 M3
G0 Z5. F100
G1 X44.
G1 Y-4.27451
G0 Z1.
(2 1/2 Axis Profiling-1)
(SlotDrill 2mm Carbide)
X42.64254 Y1.
G1 Z-3.23 F44.
X44. Z-3.46936 F42.
X44.06038 Y0.99818 Z-3.48001
X44.12054 Y0.99271 Z-3.49066
X44.18025 Y0.98362 Z-3.50131
X44.23932 Y0.97094 Z-3.51196
X44.2975 Y0.95472 Z-3.52261
X44.3546 Y0.93502 Z-3.53327
X44.41041 Y0.9119 Z-3.54392
X44.46472 Y0.88546 Z-3.55457
X44.51734 Y0.85578 Z-3.56522
X44.56806 Y0.82298 Z-3.57587
X44.61672 Y0.78718 Z-3.58652
X44.66312 Y0.74851 Z-3.59717
X44.70711 Y0.70711 Z-3.60782
X44.74851 Y0.66312 Z-3.61848
X44.78718 Y0.61672 Z-3.62913
X44.82298 Y0.56807 Z-3.63978
X44.85578 Y0.51734 Z-3.65043
X44.88546 Y0.46472 Z-3.66108
X44.9119 Y0.41041 Z-3.67173
X44.93502 Y0.3546 Z-3.68238
X44.95472 Y0.2975 Z-3.69303
X44.97094 Y0.23932 Z-3.70368
X44.98362 Y0.18025 Z-3.71434
X44.99271 Y0.12054 Z-3.72499
X44.99818 Y0.06038 Z-3.73564
X45. Y0. Z-3.74629
Y-4.27451 Z-4.5
Y-6. F56.
X51.02533
G03 X51.14128 Y-5.97148 I0. J0.25
G02 X58.57021 Y-1.0003 I7.51781 J-3.19813
X59.10132 Y-17. I0.52056 J-7.99139
G1 X1.25
G02 X-1. Y-14.75 I0. J2.25
G1 Y-9.25
G02 X1.25 Y-7. I2.25 J0.
G1 X29.7889
G03 X30.03756 Y-6.72414 I0. J0.25
G02 X37. Y1. I6.96244 J0.72414
G1 X44.
G02 X45. Y0. I0. J-1.
G1 Y-4.27451
G0 Z1.
X42.64254 Y1.
G1 Z-4.23 F14.
X44. Z-4.46936 F42.
X44.06038 Y0.99818 Z-4.48001
X44.12054 Y0.99271 Z-4.49066
X44.18025 Y0.98362 Z-4.50131
X44.23932 Y0.97094 Z-4.51196
X44.2975 Y0.95472 Z-4.52261
X44.3546 Y0.93502 Z-4.53327
X44.41041 Y0.9119 Z-4.54392
X44.46472 Y0.88546 Z-4.55457
X44.51734 Y0.85578 Z-4.56522
X44.56806 Y0.82298 Z-4.57587
X44.61672 Y0.78718 Z-4.58652
X44.66312 Y0.74851 Z-4.59717
X44.70711 Y0.70711 Z-4.60782
X44.74851 Y0.66312 Z-4.61848
X44.78718 Y0.61672 Z-4.62913
X44.82298 Y0.56807 Z-4.63978
X44.85578 Y0.51734 Z-4.65043
X44.88546 Y0.46472 Z-4.66108
X44.9119 Y0.41041 Z-4.67173
X44.93502 Y0.3546 Z-4.68238
X44.95472 Y0.2975 Z-4.69303
X44.97094 Y0.23932 Z-4.70368
X44.98362 Y0.18025 Z-4.71434
X44.99271 Y0.12054 Z-4.72499
X44.99818 Y0.06038 Z-4.73564
X45. Y0. Z-4.74629
Y-4.27451 Z-5.5
Y-6. F56.
X51.02533
G03 X51.14128 Y-5.97148 I0. J0.25
G02 X58.57021 Y-1.0003 I7.51781 J-3.19813
X59.10132 Y-17. I0.52056 J-7.99139
G1 X1.25
G02 X-1. Y-14.75 I0. J2.25
G1 Y-9.25
G02 X1.25 Y-7. I2.25 J0.
G1 X29.7889
G03 X30.03756 Y-6.72414 I0. J0.25
G02 X37. Y1. I6.96244 J0.72414
G1 X44.
G02 X45. Y0. I0. J-1.
G1 Y-4.27451
G0 Z1.
M30
%
