%
N1 G17 G21 G40 G90
(Standard Drill )
(2.5mm HSS Drill)
N2 T27 M06
N3 S24000 M3
N4 G0 Z3.75
N5 X-29.16815 Y29.16816
N6 G21 S24000 M3
N7 G81 X-29.16815 Y29.16816 Z-8.72169 R2.5 F500.0
N8 G80
N9 G0 Z3.75
N10 G21 S24000 M3
N11 G81 X-29.16815 Y-29.16816 Z-8.72169 R2.5 F500.0
N12 G80
N13 G0 Z3.75
N14 G21 S24000 M3
N15 G81 X29.16816 Y-29.16816 Z-8.72169 R2.5 F500.0
N16 G80
N17 G0 Z3.75
N18 G21 S24000 M3
N19 G81 X29.16816 Y29.16816 Z-8.72169 R2.5 F500.0
N20 G80
N21 G0 Z3.75
(2 1/2 Axis Facing)
(Endmill 1/4in 6.35mm Carbide)
N22 T22 M06
N23 Z3.175
N24 X-66.0001 Y-50.5875
N25 G1 Z-2. F250.
N26 X-65.26164 F500.
N27 X66.03369 Y-50.58714
N28 G17
N29 G03 X69.90065 Y-49. I-0.03341 J5.58575
N30 G1 X-69.90065
N31 G02 X-71.03884 Y-47.4125 I3.87965 J3.9834
N32 G1 X71.03884
N33 G03 X71.52535 Y-45.825 I-4.98386 J2.39565
N34 G1 X-71.52535
N35 G02 X-71.58714 Y-44.2375 I7.81281 J1.09907
N36 G1 X71.5875
N37 X71.58749 Y-42.65
N38 X-71.58714
N39 Y-41.0625
N40 X71.58748
N41 Y-39.475
N42 X-71.58714
N43 Y-37.8875
N44 X-9.96083
N45 G02 X-14.7306 Y-36.3 I9.96083 J37.8875
N46 G1 X-71.58714
N47 Y-34.7125
N48 X-18.15828
N49 G02 X-20.91447 Y-33.125 I18.15828 J34.7125
N50 G1 X-71.58714
N51 Y-31.5375
N52 X-23.23934
N53 G02 X-25.25229 Y-29.95 I23.23934 J31.5375
N54 G1 X-71.58714
N55 Y-28.3625
N56 X-27.02312
N57 G02 X-28.59685 Y-26.775 I27.02312 J28.3625
N58 G1 X-71.58714
N59 Y-25.1875
N60 X-30.00451
N61 G02 X-31.26853 Y-23.6 I30.00451 J25.1875
N62 G1 X-71.58714
N63 Y-22.0125
N64 X-32.40572
N65 G02 X-33.42903 Y-20.425 I32.40572 J22.0125
N66 G1 X-71.58714
N67 Y-18.8375
N68 X-34.34864
N69 G02 X-35.17269 Y-17.25 I34.34864 J18.8375
N70 G1 X-71.58714
N71 Y-15.6625
N72 X-35.90775
N73 G02 X-36.5592 Y-14.075 I35.90775 J15.6625
N74 G1 X-71.58714
N75 Y-12.4875
N76 X-37.13143
N77 G02 X-37.62806 Y-10.9 I37.13143 J12.4875
N78 G1 X-71.58714
N79 Y-9.3125
N80 X-38.05204
N81 G02 X-38.40579 Y-7.725 I38.05204 J9.3125
N82 G1 X-71.58714
N83 Y-6.1375
N84 X-38.69124
N85 G02 X-38.90987 Y-4.55 I38.69124 J6.1375
N86 G1 X-71.58714
N87 Y-2.9625
N88 X-39.06282
N89 G02 X-39.15086 Y-1.375 I39.06282 J2.9625
N90 G1 X-71.58714
N91 Y0.2125
N92 X-39.17442
N93 G02 X-39.13362 Y1.8 I39.17442 J-0.2125
N94 G1 X-71.58714
N95 Y3.3875
N96 X-39.02826
N97 G02 X-38.85782 Y4.975 I39.02826 J-3.3875
N98 G1 X-71.58714
N99 Y6.5625
N100 X-38.62142
N101 G02 X-38.31786 Y8.15 I38.62142 J-6.5625
N102 G1 X-71.58714
N103 Y9.7375
N104 X-37.94551
N105 G02 X-37.50233 Y11.325 I37.94551 J-9.7375
N106 G1 X-71.58714
N107 Y12.9125
N108 X-36.98578
N109 G02 X-36.39273 Y14.5 I36.98578 J-12.9125
N110 G1 X-71.58714
N111 Y16.0875
N112 X-35.71936
N113 G02 X-34.96105 Y17.675 I35.71936 J-16.0875
N114 G1 X-71.58714
N115 Y19.2625
N116 X-34.11212
N117 G02 X-33.16561 Y20.85 I34.11212 J-19.2625
N118 G1 X-71.58714
N119 Y22.4375
N120 X-32.11291
N121 G02 X-30.94317 Y24.025 I32.11291 J-22.4375
N122 G1 X-71.58714
N123 Y25.6125
N124 X-29.64254
N125 G02 X-28.19291 Y27.2 I29.64254 J-25.6125
N126 G1 X-71.58714
N127 Y28.7875
N128 X-26.56991
N129 G02 X-24.73944 Y30.375 I26.56991 J-28.7875
N130 G1 X-71.58714
N131 Y31.9625
N132 X-22.65125
N133 G02 X-20.22568 Y33.55 I22.65125 J-31.9625
N134 G1 X-71.58714
N135 Y35.1375
N136 X-17.32156
N137 G02 X-13.63652 Y36.725 I17.32156 J-35.1375
N138 G1 X-71.58714
N139 Y38.3125
N140 X-8.17513
N141 G02 X8.17513 I8.17513 J-38.3125
N142 G0 Z3.175
N143 X9.96082 Y-37.8875
N144 G1 Z-2. F250.
N145 X71.58747 F500.
N146 X71.58746 Y-36.3
N147 X14.7306
N148 G03 X18.15828 Y-34.7125 I-14.7306 J36.3
N149 G1 X71.58746
N150 X71.58745 Y-33.125
N151 X20.91447
N152 G03 X23.23934 Y-31.5375 I-20.91447 J33.125
N153 G1 X71.58745
N154 X71.58744 Y-29.95
N155 X25.25229
N156 G03 X27.02312 Y-28.3625 I-25.25229 J29.95
N157 G1 X71.58743
N158 Y-26.775
N159 X28.59685
N160 G03 X30.00451 Y-25.1875 I-28.59685 J26.775
N161 G1 X71.58742
N162 X71.58741 Y-23.6
N163 X31.26852
N164 G03 X32.40572 Y-22.0125 I-31.26852 J23.6
N165 G1 X71.58741
N166 X71.5874 Y-20.425
N167 X33.42903
N168 G03 X34.34864 Y-18.8375 I-33.42903 J20.425
N169 G1 X71.5874
N170 X71.58739 Y-17.25
N171 X35.17269
N172 G03 X35.45367 Y-16.66488 I-35.17269 J17.25
N173 X35.90775 Y-15.6625 I-35.45367 J16.66488
N174 G1 X71.58738
N175 Y-14.075
N176 X36.5592
N177 G03 X37.13143 Y-12.4875 I-36.5592 J14.075
N178 G1 X71.58737
N179 X71.58736 Y-10.9
N180 X37.62806
N181 G03 X38.05204 Y-9.3125 I-37.62806 J10.9
N182 G1 X71.58736
N183 X71.58735 Y-7.725
N184 X38.40579
N185 G03 X38.69123 Y-6.1375 I-38.40579 J7.725
N186 G1 X71.58735
N187 X71.58734 Y-4.55
N188 X38.90987
N189 G03 X39.06282 Y-2.9625 I-38.90987 J4.55
N190 G1 X71.58733
N191 Y-1.375
N192 X39.15086
N193 G03 X39.17442 Y0.2125 I-39.15086 J1.375
N194 G1 X71.58732
N195 X71.58731 Y1.8
N196 X39.13362
N197 G03 X39.02826 Y3.3875 I-39.13362 J-1.8
N198 G1 X71.58731
N199 X71.5873 Y4.975
N200 X38.85782
N201 G03 X38.62142 Y6.5625 I-38.85782 J-4.975
N202 G1 X71.58729
N203 Y8.15
N204 X38.31786
N205 G03 X37.94551 Y9.7375 I-38.31786 J-8.15
N206 G1 X71.58728
N207 Y11.325
N208 X37.50233
N209 G03 X36.98578 Y12.9125 I-37.50233 J-11.325
N210 G1 X71.58727
N211 X71.58726 Y14.5
N212 X36.39273
N213 G03 X35.71936 Y16.0875 I-36.39273 J-14.5
N214 G1 X71.58726
N215 X71.58725 Y17.675
N216 X34.96105
N217 G03 X34.11212 Y19.2625 I-34.96105 J-17.675
N218 G1 X71.58724
N219 Y20.85
N220 X33.16561
N221 G03 X32.11291 Y22.4375 I-33.16561 J-20.85
N222 G1 X71.58723
N223 Y24.025
N224 X30.94317
N225 G03 X29.64254 Y25.6125 I-30.94317 J-24.025
N226 G1 X71.58722
N227 X71.58721 Y27.2
N228 X28.19291
N229 G03 X26.56991 Y28.7875 I-28.19291 J-27.2
N230 G1 X71.58721
N231 X71.5872 Y30.375
N232 X24.73944
N233 G03 X22.65125 Y31.9625 I-24.73944 J-30.375
N234 G1 X71.58719
N235 Y33.55
N236 X20.22567
N237 G03 X17.32156 Y35.1375 I-20.22567 J-33.55
N238 G1 X71.58718
N239 X71.58717 Y36.725
N240 X13.63652
N241 G03 X8.17513 Y38.3125 I-13.63652 J-36.725
N242 G1 X71.58717
N243 X71.58716 Y39.9
N244 X-71.58714
N245 Y41.4875
N246 X71.58716
N247 X71.58715 Y43.075
N248 X-71.58714
N249 Y44.6625
N250 X71.58714
N251 G03 X71.44514 Y46.25 I-5.9632 J0.26667
N252 G1 X-71.44514
N253 G02 X-70.81236 Y47.8375 I5.40175 J-1.23327
N254 G1 X70.81236
N255 G03 X69.41021 Y49.425 I-4.78618 J-2.8144
N256 G1 X-69.41021
N257 G02 X-66.0337 Y50.58714 I3.40908 J-4.41865
N258 G1 X65.63082 Y50.5875
N259 X66.00005
N260 G0 Z3.175
N261 X35.45367 Y-16.66488
N262 G1 Z-2. F250.
N263 G02 X-35.45367 Y16.66488 I-35.45367 J16.66488 F500.
N264 X35.45367 Y-16.66488 I35.45367 J-16.66488
N265 G0 Z3.175
(2 1/2 Axis Profiling)
(Endmill 1/4in 6.35mm Carbide)
N266 X49.42227 Y-16.21426
N267 G1 Z-2. F250.
N268 X43.67547 Y-13.51299 F250.
N269 G03 X35.22741 Y-16.55853 I-2.70126 J-5.7468
N270 G02 X-35.22741 Y16.55853 I-35.22741 J16.55853 F500.
N271 X35.22741 Y-16.55853 I35.22741 J-16.55853
N272 G1 X35.1248 Y-16.62991
N273 X35.01167 Y-16.57674
N274 X35.00116 Y-16.45218
N275 X34.99065 Y-16.32762
N276 X34.87752 Y-16.27445
N277 X34.77491 Y-16.34583
N278 G02 X-34.77491 Y16.34583 I-34.77491 J16.34583
N279 X34.77491 Y-16.34583 I34.77491 J-16.34583
N280 G03 X37.82044 Y-24.79389 I5.7468 J-2.70126 F1500.
N281 G1 X43.56724 Y-27.49515
N282 G0 Z3.175
(2 1/2 Axis Profiling-1)
(Endmill 1/4in 6.35mm Carbide)
N283 X48.74352 Y-15.89521
N284 G1 Z-2. F250.
N285 X42.99672 Y-13.19395 F250.
N286 G03 X34.54866 Y-16.23948 I-2.70126 J-5.74679
N287 G02 X-34.54866 Y16.23948 I-34.54866 J16.23948 F500.
N288 X34.54866 Y-16.23948 I34.54866 J-16.23948
N289 G03 X37.59419 Y-24.68754 I5.7468 J-2.70126 F1500.
N290 G1 X43.34099 Y-27.3888
N291 G0 Z3.175
(2 1/2 Axis Facing)
(Endmill 1/4in 6.35mm Carbide)
N292 X6.29756 Y-36.8875
N293 G1 Z-2.5 F250.
N294 Y-43.2375 F250.
N295 G03 X12.64756 Y-49.5875 I6.35 J0.
N296 G1 X69.18858 F500.
N297 G03 X70.71289 Y-48. I-3.17053 J4.5699
N298 G1 X17.74488
N299 G03 X21.55831 Y-46.4125 I-17.74488 J48.
N300 G1 X71.40565
N301 G03 X71.5875 Y-44.825 I-5.52753 J1.43736
N302 G1 X24.69008
N303 G03 X27.37516 Y-43.2375 I-24.69008 J44.825
N304 G1 X71.58749
N305 Y-41.65
N306 X29.7348
N307 G03 X31.84143 Y-40.0625 I-29.7348 J41.65
N308 G1 X71.58748
N309 X71.58747 Y-38.475
N310 X33.74248
N311 G03 X35.47102 Y-36.8875 I-33.74248 J38.475
N312 G1 X71.58747
N313 X71.58746 Y-35.3
N314 X37.05119
N315 G03 X38.50127 Y-33.7125 I-37.05119 J35.3
N316 G1 X71.58745
N317 Y-32.125
N318 X39.83548
N319 G03 X41.06509 Y-30.5375 I-39.83548 J32.125
N320 G1 X71.58744
N321 Y-28.95
N322 X42.19927
N323 G03 X43.24551 Y-27.3625 I-42.19927 J28.95
N324 G1 X71.58743
N325 X71.58742 Y-25.775
N326 X44.21007
N327 G03 X45.09818 Y-24.1875 I-44.21007 J25.775
N328 G1 X71.58742
N329 X71.58741 Y-22.6
N330 X45.91428
N331 G03 X46.66214 Y-21.0125 I-45.91428 J22.6
N332 G1 X71.5874
N333 Y-19.425
N334 X47.34501
N335 G03 X47.96566 Y-17.8375 I-47.34501 J19.425
N336 G1 X71.58739
N337 Y-16.25
N338 X48.52647
N339 G03 X49.0295 Y-14.6625 I-48.52647 J16.25
N340 G1 X71.58738
N341 X71.58737 Y-13.075
N342 X49.47651
N343 G03 X49.86901 Y-11.4875 I-49.47651 J13.075
N344 G1 X71.58737
N345 X71.58736 Y-9.9
N346 X50.20827
N347 G03 X50.49538 Y-8.3125 I-50.20827 J9.9
N348 G1 X71.58735
N349 Y-6.725
N350 X50.7312
N351 G03 X50.91647 Y-5.1375 I-50.7312 J6.725
N352 G1 X71.58734
N353 X71.58733 Y-3.55
N354 X51.05172
N355 G03 X51.13736 Y-1.9625 I-51.05172 J3.55
N356 G1 X71.58733
N357 X71.58732 Y-0.375
N358 X51.17363
N359 G03 X51.16063 Y1.2125 I-51.17363 J0.375
N360 G1 X71.58732
N361 X71.58731 Y2.8
N362 X51.09834
N363 G03 X50.98657 Y4.3875 I-51.09834 J-2.8
N364 G1 X71.5873
N365 Y5.975
N366 X50.82499
N367 G03 X50.61313 Y7.5625 I-50.82499 J-5.975
N368 G1 X71.58729
N369 X71.58728 Y9.15
N370 X50.35035
N371 G03 X50.03585 Y10.7375 I-50.35035 J-9.15
N372 G1 X71.58728
N373 X71.58727 Y12.325
N374 X49.66865
N375 G03 X49.24757 Y13.9125 I-49.66865 J-12.325
N376 G1 X71.58727
N377 X71.58726 Y15.5
N378 X48.77121
N379 G03 X48.23793 Y17.0875 I-48.77121 J-15.5
N380 G1 X71.58725
N381 Y18.675
N382 X47.64583
N383 G03 X46.99268 Y20.2625 I-47.64583 J-18.675
N384 G1 X71.58724
N385 X71.58723 Y21.85
N386 X46.27589
N387 G03 X45.49246 Y23.4375 I-46.27589 J-21.85
N388 G1 X71.58723
N389 X71.58722 Y25.025
N390 X44.63888
N391 G03 X43.71104 Y26.6125 I-44.63888 J-25.025
N392 G1 X71.58722
N393 X71.58721 Y28.2
N394 X42.7041
N395 G03 X41.61232 Y29.7875 I-42.7041 J-28.2
N396 G1 X71.5872
N397 Y31.375
N398 X40.42882
N399 G03 X39.14529 Y32.9625 I-40.42882 J-31.375
N400 G1 X71.58719
N401 X71.58718 Y34.55
N402 X37.75153
N403 G03 X36.23481 Y36.1375 I-37.75153 J-34.55
N404 G1 X71.58718
N405 X71.58717 Y37.725
N406 X34.57896
N407 G03 X32.7629 Y39.3125 I-34.57896 J-37.725
N408 G1 X71.58717
N409 X71.58716 Y40.9
N410 X30.75826
N411 G03 X28.5253 Y42.4875 I-30.75826 J-40.9
N412 G1 X71.58715
N413 Y44.075
N414 X26.00528
N415 G03 X23.10447 Y45.6625 I-26.00528 J-44.075
N416 G1 X71.54763
N417 G03 X71.11385 Y47.25 I-5.52624 J-0.65702
N418 G1 X19.65497
N419 G03 X15.28983 Y48.8375 I-19.65497 J-47.25
N420 G1 X70.06078
N421 G03 X67.33465 Y50.425 I-4.05686 J-3.83216
N422 G1 X8.72925
N423 G0 Z3.175
N424 X-75.53858 Y-62.2875
N425 G1 Z-2.5 F250.
N426 Y-55.9375 F250.
N427 G02 X-69.18858 Y-49.5875 I6.35 J0.
N428 G1 X-12.64756 F500.
N429 G02 X-14.76078 Y-49. I12.64756 J49.5875
N430 X-17.74488 Y-48. I14.76078 J49.
N431 G1 X-70.71289
N432 G02 X-71.40565 Y-46.4125 I4.68754 J2.99047
N433 G1 X-21.55831
N434 G02 X-24.69008 Y-44.825 I21.55831 J46.4125
N435 G1 X-71.58714
N436 X-71.58715 Y-43.2375
N437 X-27.37516
N438 G02 X-29.7348 Y-41.65 I27.37516 J43.2375
N439 G1 X-71.58716
N440 Y-40.0625
N441 X-31.84143
N442 G02 X-33.74248 Y-38.475 I31.84143 J40.0625
N443 G1 X-71.58717
N444 X-71.58718 Y-36.8875
N445 X-35.47102
N446 G02 X-37.05119 Y-35.3 I35.47102 J36.8875
N447 G1 X-71.58718
N448 X-71.58719 Y-33.7125
N449 X-38.50127
N450 G02 X-39.83548 Y-32.125 I38.50127 J33.7125
N451 G1 X-71.58719
N452 X-71.5872 Y-30.5375
N453 X-41.06509
N454 G02 X-42.19927 Y-28.95 I41.06509 J30.5375
N455 G1 X-71.58721
N456 Y-27.3625
N457 X-43.24551
N458 G02 X-44.21007 Y-25.775 I43.24551 J27.3625
N459 G1 X-71.58722
N460 X-71.58723 Y-24.1875
N461 X-45.09818
N462 G02 X-45.91428 Y-22.6 I45.09818 J24.1875
N463 G1 X-71.58723
N464 X-71.58724 Y-21.0125
N465 X-46.66214
N466 G02 X-47.34501 Y-19.425 I46.66214 J21.0125
N467 G1 X-71.58724
N468 X-71.58725 Y-17.8375
N469 X-47.96566
N470 G02 X-48.52647 Y-16.25 I47.96566 J17.8375
N471 G1 X-71.58726
N472 Y-14.6625
N473 X-49.0295
N474 G02 X-49.47651 Y-13.075 I49.0295 J14.6625
N475 G1 X-71.58727
N476 X-71.58728 Y-11.4875
N477 X-49.86901
N478 G02 X-50.20827 Y-9.9 I49.86901 J11.4875
N479 G1 X-71.58728
N480 X-71.58729 Y-8.3125
N481 X-50.49538
N482 G02 X-50.7312 Y-6.725 I50.49538 J8.3125
N483 G1 X-71.5873
N484 Y-5.1375
N485 X-50.91647
N486 G02 X-51.05172 Y-3.55 I50.91647 J5.1375
N487 G1 X-71.58731
N488 Y-1.9625
N489 X-51.13736
N490 G02 X-51.17363 Y-0.375 I51.13736 J1.9625
N491 G1 X-71.58732
N492 X-71.58733 Y1.2125
N493 X-51.16063
N494 G02 X-51.09834 Y2.8 I51.16063 J-1.2125
N495 G1 X-71.58733
N496 X-71.58734 Y4.3875
N497 X-50.98657
N498 G02 X-50.82499 Y5.975 I50.98657 J-4.3875
N499 G1 X-71.58735
N500 Y7.5625
N501 X-50.61313
N502 G02 X-50.35035 Y9.15 I50.61313 J-7.5625
N503 G1 X-71.58736
N504 Y10.7375
N505 X-50.03585
N506 G02 X-49.66865 Y12.325 I50.03585 J-10.7375
N507 G1 X-71.58737
N508 X-71.58738 Y13.9125
N509 X-49.24757
N510 G02 X-48.77121 Y15.5 I49.24757 J-13.9125
N511 G1 X-71.58738
N512 X-71.58739 Y17.0875
N513 X-48.23793
N514 G02 X-47.64583 Y18.675 I48.23793 J-17.0875
N515 G1 X-71.5874
N516 Y20.2625
N517 X-46.99268
N518 G02 X-46.27589 Y21.85 I46.99268 J-20.2625
N519 G1 X-71.58741
N520 Y23.4375
N521 X-45.49246
N522 G02 X-44.63888 Y25.025 I45.49246 J-23.4375
N523 G1 X-71.58742
N524 X-71.58743 Y26.6125
N525 X-43.71104
N526 G02 X-42.7041 Y28.2 I43.71104 J-26.6125
N527 G1 X-71.58743
N528 X-71.58744 Y29.7875
N529 X-41.61232
N530 G02 X-40.42882 Y31.375 I41.61232 J-29.7875
N531 G1 X-71.58745
N532 Y32.9625
N533 X-39.14529
N534 G02 X-37.75153 Y34.55 I39.14529 J-32.9625
N535 G1 X-71.58746
N536 Y36.1375
N537 X-36.23481
N538 G02 X-34.57896 Y37.725 I36.23481 J-36.1375
N539 G1 X-71.58747
N540 X-71.58748 Y39.3125
N541 X-32.7629
N542 G02 X-30.75826 Y40.9 I32.7629 J-39.3125
N543 G1 X-71.58748
N544 X-71.58749 Y42.4875
N545 X-28.5253
N546 G02 X-26.00528 Y44.075 I28.5253 J-42.4875
N547 G1 X-71.5875
N548 G02 X-71.54763 Y45.6625 I10.1158 J0.54024
N549 G1 X-23.10447
N550 G02 X-19.65497 Y47.25 I23.10447 J-45.6625
N551 G1 X-71.11385
N552 G02 X-70.06078 Y48.8375 I5.10214 J-2.24148
N553 G1 X-15.28983
N554 G02 X-14.76078 Y49. I15.28983 J-48.8375
N555 X-8.72925 Y50.425 I14.76078 J-49.
N556 G1 X-67.33465
N557 G0 Z3.175
(2 1/2 Axis Profiling-2)
(Endmill 1/4in 6.35mm Carbide)
N558 X-0.05989 Y-50.92496
N559 G1 Z-2.5 F250.
N560 G02 X0.05989 Y50.92496 I0.05989 J50.92496 F500.
N561 X-0.05989 Y-50.92496 I-0.05989 J-50.92496
N562 G1 X-0.16807 Y-50.86234
N563 X-0.16792 Y-50.73734
N564 X-0.05959 Y-50.67496
N565 X0.04873 Y-50.61259
N566 X0.04888 Y-50.48759
N567 X-0.0593 Y-50.42496
N568 G02 X0.0593 Y50.42496 I0.0593 J50.42496
N569 X-0.0593 Y-50.42496 I-0.0593 J-50.42496
N570 G0 Z3.175
(2 1/2 Axis Profiling-1-1)
(Endmill 1/4in 6.35mm Carbide)
N571 X-0.05901 Y-50.17496
N572 G1 Z-2.5 F250.
N573 G02 X0.059 Y50.17497 I0.05901 J50.17496 F500.
N574 X-0.05901 Y-50.17496 I-0.059 J-50.17497
N575 G0 Z3.175
N576 M30
%
