%
G17 G21 G40 G90 G64 P0.1
(2 1/2 Axis Profiling)
(SlotDrill 2mm Carbide)
T12 M06
S24000 M3
G0 Z1.
X55.35609 Y34.35216
G1 Z0.78333 F390.
X55.4735 Y34.31072 Z0.76138 F1170.
X56.57653 Y33.89244 Z0.55337
X57.66956 Y33.4487 Z0.34536
X58.75201 Y32.97975 Z0.13735
X59.8233 Y32.48583 Z-0.07065
X60.88285 Y31.96721 Z-0.27866
X61.9301 Y31.42417 Z-0.48667
G17
G02 X61.93435 Y31.4219 I-23.94744 J-44.90108 F1560.
G1 X63.74408 Y30.44547
G02 X64.13526 Y29.0654 I-0.47484 J-0.88007
G1 X62.97334 Y27.05289
X64.27238 Y26.30289
X65.4343 Y28.3154
G02 X66.80033 Y28.68142 I0.86603 J-0.5
G1 X71.77997 Y25.80642
G02 X72.146 Y24.4404 I-0.5 J-0.86602
G1 X70.05767 Y20.82331
G02 X11.73265 Y13.28003 I-32.04294 J18.5
G1 X11.71899 Y13.29409
G02 X3.85484 Y24.49362 I33.36273 J31.78763
X4.24949 Y25.80642 I0.89465 J0.44678
G1 X9.22914 Y28.68142
G02 X10.59516 Y28.3154 I0.5 J-0.86602
G1 X11.75708 Y26.30289
X13.05612 Y27.05289
X11.8942 Y29.0654
G02 X12.25464 Y30.42818 I0.86603 J0.5
X61.9301 Y31.42417 I25.72802 J-43.90509
G1 Z-0.97333
G02 X61.93435 Y31.4219 I-23.94744 J-44.90108
G1 X63.74408 Y30.44547
G02 X64.13526 Y29.0654 I-0.47484 J-0.88007
G1 X62.97334 Y27.05289
X64.27238 Y26.30289
X65.4343 Y28.3154
G02 X66.80033 Y28.68142 I0.86603 J-0.5
G1 X71.77997 Y25.80642
G02 X72.146 Y24.4404 I-0.5 J-0.86602
G1 X70.05767 Y20.82331
G02 X11.73265 Y13.28003 I-32.04294 J18.5
G1 X11.71899 Y13.29409
G02 X3.85484 Y24.49362 I33.36273 J31.78763
X4.24949 Y25.80642 I0.89465 J0.44678
G1 X9.22914 Y28.68142
G02 X10.59516 Y28.3154 I0.5 J-0.86602
G1 X11.75708 Y26.30289
X13.05612 Y27.05289
X11.8942 Y29.0654
G02 X12.25464 Y30.42818 I0.86603 J0.5
X61.9301 Y31.42417 I25.72802 J-43.90509
G1 Z-1.46
G02 X61.93435 Y31.4219 I-23.94744 J-44.90108
G1 X63.74408 Y30.44547
G02 X64.13526 Y29.0654 I-0.47484 J-0.88007
G1 X62.97334 Y27.05289
X64.27238 Y26.30289
X65.4343 Y28.3154
G02 X66.80033 Y28.68142 I0.86603 J-0.5
G1 X71.77997 Y25.80642
G02 X72.146 Y24.4404 I-0.5 J-0.86602
G1 X70.05767 Y20.82331
G02 X11.73265 Y13.28003 I-32.04294 J18.5
G1 X11.71899 Y13.29409
G02 X3.85484 Y24.49362 I33.36273 J31.78763
X4.24949 Y25.80642 I0.89465 J0.44678
G1 X9.22914 Y28.68142
G02 X10.59516 Y28.3154 I0.5 J-0.86602
G1 X11.75708 Y26.30289
X13.05612 Y27.05289
X11.8942 Y29.0654
G02 X12.25464 Y30.42818 I0.86603 J0.5
X61.9301 Y31.42417 I25.72802 J-43.90509
G1 Z-1.94667
G02 X61.93435 Y31.4219 I-23.94744 J-44.90108
G1 X63.74408 Y30.44547
G02 X64.13526 Y29.0654 I-0.47484 J-0.88007
G1 X62.97334 Y27.05289
X64.27238 Y26.30289
X65.4343 Y28.3154
G02 X66.80033 Y28.68142 I0.86603 J-0.5
G1 X71.77997 Y25.80642
G02 X72.146 Y24.4404 I-0.5 J-0.86602
G1 X70.05767 Y20.82331
G02 X11.73265 Y13.28003 I-32.04294 J18.5
G1 X11.71899 Y13.29409
G02 X3.85484 Y24.49362 I33.36273 J31.78763
X4.24949 Y25.80642 I0.89465 J0.44678
G1 X9.22914 Y28.68142
G02 X10.59516 Y28.3154 I0.5 J-0.86602
G1 X11.75708 Y26.30289
X13.05612 Y27.05289
X11.8942 Y29.0654
G02 X12.25464 Y30.42818 I0.86603 J0.5
X61.9301 Y31.42417 I25.72802 J-43.90509
G1 Z-2.43333
G02 X61.93435 Y31.4219 I-23.94744 J-44.90108
G1 X63.74408 Y30.44547
G02 X64.13526 Y29.0654 I-0.47484 J-0.88007
G1 X62.97334 Y27.05289
X64.27238 Y26.30289
X65.4343 Y28.3154
G02 X66.80033 Y28.68142 I0.86603 J-0.5
G1 X71.77997 Y25.80642
G02 X72.146 Y24.4404 I-0.5 J-0.86602
G1 X70.05767 Y20.82331
G02 X11.73265 Y13.28003 I-32.04294 J18.5
G1 X11.71899 Y13.29409
G02 X3.85484 Y24.49362 I33.36273 J31.78763
X4.24949 Y25.80642 I0.89465 J0.44678
G1 X9.22914 Y28.68142
G02 X10.59516 Y28.3154 I0.5 J-0.86602
G1 X11.75708 Y26.30289
X13.05612 Y27.05289
X11.8942 Y29.0654
G02 X12.25464 Y30.42818 I0.86603 J0.5
X61.9301 Y31.42417 I25.72802 J-43.90509
G1 Z-2.92
G02 X61.93435 Y31.4219 I-23.94744 J-44.90108
G1 X63.74408 Y30.44547
G02 X64.13526 Y29.0654 I-0.47484 J-0.88007
G1 X62.97334 Y27.05289
X64.27238 Y26.30289
X65.4343 Y28.3154
G02 X66.80033 Y28.68142 I0.86603 J-0.5
G1 X71.77997 Y25.80642
G02 X72.146 Y24.4404 I-0.5 J-0.86602
G1 X70.05767 Y20.82331
G02 X11.73265 Y13.28003 I-32.04294 J18.5
G1 X11.71899 Y13.29409
G02 X3.85484 Y24.49362 I33.36273 J31.78763
X4.24949 Y25.80642 I0.89465 J0.44678
G1 X9.22914 Y28.68142
G02 X10.59516 Y28.3154 I0.5 J-0.86602
G1 X11.75708 Y26.30289
X13.05612 Y27.05289
X11.8942 Y29.0654
G02 X12.25464 Y30.42818 I0.86603 J0.5
X61.9301 Y31.42417 I25.72802 J-43.90509
G1 Z-3.40667
G02 X61.93435 Y31.4219 I-23.94744 J-44.90108
G1 X63.74408 Y30.44547
G02 X64.13526 Y29.0654 I-0.47484 J-0.88007
G1 X62.97334 Y27.05289
X64.27238 Y26.30289
X65.4343 Y28.3154
G02 X66.80033 Y28.68142 I0.86603 J-0.5
G1 X71.77997 Y25.80642
G02 X72.146 Y24.4404 I-0.5 J-0.86602
G1 X70.05767 Y20.82331
G02 X11.73265 Y13.28003 I-32.04294 J18.5
G1 X11.71899 Y13.29409
G02 X3.85484 Y24.49362 I33.36273 J31.78763
X4.24949 Y25.80642 I0.89465 J0.44678
G1 X9.22914 Y28.68142
G02 X10.59516 Y28.3154 I0.5 J-0.86602
G1 X11.75708 Y26.30289
X13.05612 Y27.05289
X11.8942 Y29.0654
G02 X12.25464 Y30.42818 I0.86603 J0.5
X61.9301 Y31.42417 I25.72802 J-43.90509
G1 Z-3.89333
G02 X61.93435 Y31.4219 I-23.94744 J-44.90108
G1 X63.74408 Y30.44547
G02 X64.13526 Y29.0654 I-0.47484 J-0.88007
G1 X62.97334 Y27.05289
X64.27238 Y26.30289
X65.4343 Y28.3154
G02 X66.80033 Y28.68142 I0.86603 J-0.5
G1 X71.77997 Y25.80642
G02 X72.146 Y24.4404 I-0.5 J-0.86602
G1 X70.05767 Y20.82331
G02 X11.73265 Y13.28003 I-32.04294 J18.5
G1 X11.71899 Y13.29409
G02 X3.85484 Y24.49362 I33.36273 J31.78763
X4.24949 Y25.80642 I0.89465 J0.44678
G1 X9.22914 Y28.68142
G02 X10.59516 Y28.3154 I0.5 J-0.86602
G1 X11.75708 Y26.30289
X13.05612 Y27.05289
X11.8942 Y29.0654
G02 X12.25464 Y30.42818 I0.86603 J0.5
X61.9301 Y31.42417 I25.72802 J-43.90509
G1 Z-4.38
G02 X61.93435 Y31.4219 I-23.94744 J-44.90108
G1 X63.74408 Y30.44547
G02 X64.13526 Y29.0654 I-0.47484 J-0.88007
G1 X62.97334 Y27.05289
X64.27238 Y26.30289
X65.4343 Y28.3154
G02 X66.80033 Y28.68142 I0.86603 J-0.5
G1 X71.77997 Y25.80642
G02 X72.146 Y24.4404 I-0.5 J-0.86602
G1 X70.05767 Y20.82331
G02 X11.73265 Y13.28003 I-32.04294 J18.5
G1 X11.71899 Y13.29409
G02 X3.85484 Y24.49362 I33.36273 J31.78763
X4.24949 Y25.80642 I0.89465 J0.44678
G1 X9.22914 Y28.68142
G02 X10.59516 Y28.3154 I0.5 J-0.86602
G1 X11.75708 Y26.30289
X13.05612 Y27.05289
X11.8942 Y29.0654
G02 X12.25464 Y30.42818 I0.86603 J0.5
X61.9301 Y31.42417 I25.72802 J-43.90509
G1 Z-4.86667
G02 X61.93435 Y31.4219 I-23.94744 J-44.90108
G1 X63.74408 Y30.44547
G02 X64.13526 Y29.0654 I-0.47484 J-0.88007
G1 X62.97334 Y27.05289
X64.27238 Y26.30289
X65.4343 Y28.3154
G02 X66.80033 Y28.68142 I0.86603 J-0.5
G1 X71.77997 Y25.80642
G02 X72.146 Y24.4404 I-0.5 J-0.86602
G1 X70.05767 Y20.82331
G02 X11.73265 Y13.28003 I-32.04294 J18.5
G1 X11.71899 Y13.29409
G02 X3.85484 Y24.49362 I33.36273 J31.78763
X4.24949 Y25.80642 I0.89465 J0.44678
G1 X9.22914 Y28.68142
G02 X10.59516 Y28.3154 I0.5 J-0.86602
G1 X11.75708 Y26.30289
X13.05612 Y27.05289
X11.8942 Y29.0654
G02 X12.25464 Y30.42818 I0.86603 J0.5
X61.9301 Y31.42417 I25.72802 J-43.90509
G1 Z-5.35333
X61.93038 Y31.42402
X61.93067 Y31.42387
X61.93095 Y31.42372
X61.93124 Y31.42357
X61.93152 Y31.42342
X61.9318 Y31.42326
X61.93209 Y31.42311
X61.93237 Y31.42296
X61.93265 Y31.42281
X61.93294 Y31.42266
X61.93322 Y31.42251
X61.9335 Y31.42236
X61.93379 Y31.42221
G02 X63.95916 Y30.28928 I-27.36048 J-51.29024
X64.13526 Y29.0654 I-0.68992 J-0.72388
G1 X62.97334 Y27.05289
X64.27238 Y26.30289
X65.4343 Y28.3154
G02 X66.80033 Y28.68142 I0.86603 J-0.5
G1 X71.77997 Y25.80642
G02 X72.146 Y24.4404 I-0.5 J-0.86602
X67.87537 Y17.47514 I-55.69324 J29.35552
X58.13992 Y8.27934 I-29.78125 J21.77766
G1 Z-5.3
G02 X52.71509 Y5.37234 I-19.67811 J30.20662
G1 Z-5.35333
G02 X6.5964 Y19.73601 I-14.70734 J33.99835
X3.77176 Y24.73054 I32.91947 J21.91349
X4.24949 Y25.80642 I0.97773 J0.20986
G1 X9.22914 Y28.68142
G02 X10.59516 Y28.3154 I0.5 J-0.86602
G1 X11.75708 Y26.30289
X13.05612 Y27.05289
X11.8942 Y29.0654
G02 X12.25464 Y30.42818 I0.86603 J0.5
X17.47973 Y33.0976 I25.68978 J-43.83623
G1 Z-5.3
G02 X23.23446 Y35.22496 I20.29556 J-46.05445
G1 Z-5.35333
G02 X61.9301 Y31.42417 I14.75214 J-48.68879
G1 Z-5.84
X61.93038 Y31.42402
X61.93067 Y31.42387
X61.93095 Y31.42372
X61.93124 Y31.42357
X61.93152 Y31.42342
X61.9318 Y31.42326
X61.93209 Y31.42311
X61.93237 Y31.42296
X61.93265 Y31.42281
X61.93294 Y31.42266
X61.93322 Y31.42251
X61.9335 Y31.42236
X61.93379 Y31.42221
G02 X63.95916 Y30.28928 I-27.36048 J-51.29024
X64.13526 Y29.0654 I-0.68992 J-0.72388
G1 X62.97334 Y27.05289
X64.27238 Y26.30289
X65.4343 Y28.3154
G02 X66.80033 Y28.68142 I0.86603 J-0.5
G1 X71.77997 Y25.80642
G02 X72.146 Y24.4404 I-0.5 J-0.86602
X67.87537 Y17.47514 I-55.69324 J29.35552
X58.13992 Y8.27934 I-29.78125 J21.77766
G1 Z-5.3
G02 X52.71509 Y5.37234 I-19.67811 J30.20662
G1 Z-5.84
G02 X6.5964 Y19.73601 I-14.70734 J33.99835
X3.77176 Y24.73054 I32.91947 J21.91349
X4.24949 Y25.80642 I0.97773 J0.20986
G1 X9.22914 Y28.68142
G02 X10.59516 Y28.3154 I0.5 J-0.86602
G1 X11.75708 Y26.30289
X13.05612 Y27.05289
X11.8942 Y29.0654
G02 X12.25464 Y30.42818 I0.86603 J0.5
X17.47973 Y33.0976 I25.68978 J-43.83623
G1 Z-5.3
G02 X23.23446 Y35.22496 I20.29556 J-46.05445
G1 Z-5.84
G02 X61.9301 Y31.42417 I14.75214 J-48.68879
G1 Z-6.32667
X61.93038 Y31.42402
X61.93067 Y31.42387
X61.93095 Y31.42372
X61.93124 Y31.42357
X61.93152 Y31.42342
X61.9318 Y31.42326
X61.93209 Y31.42311
X61.93237 Y31.42296
X61.93265 Y31.42281
X61.93294 Y31.42266
X61.93322 Y31.42251
X61.9335 Y31.42236
X61.93379 Y31.42221
G02 X63.95916 Y30.28928 I-27.36048 J-51.29024
X64.13526 Y29.0654 I-0.68992 J-0.72388
G1 X62.97334 Y27.05289
X64.27238 Y26.30289
X65.4343 Y28.3154
G02 X66.80033 Y28.68142 I0.86603 J-0.5
G1 X71.77997 Y25.80642
G02 X72.146 Y24.4404 I-0.5 J-0.86602
X67.87537 Y17.47514 I-55.69324 J29.35552
X58.13992 Y8.27934 I-29.78125 J21.77766
G1 Z-5.3
G02 X52.71509 Y5.37234 I-19.67811 J30.20662
G1 Z-6.32667
G02 X6.5964 Y19.73601 I-14.70734 J33.99835
X3.77176 Y24.73054 I32.91947 J21.91349
X4.24949 Y25.80642 I0.97773 J0.20986
G1 X9.22914 Y28.68142
G02 X10.59516 Y28.3154 I0.5 J-0.86602
G1 X11.75708 Y26.30289
X13.05612 Y27.05289
X11.8942 Y29.0654
G02 X12.25464 Y30.42818 I0.86603 J0.5
X17.47973 Y33.0976 I25.68978 J-43.83623
G1 Z-5.3
G02 X23.23446 Y35.22496 I20.29556 J-46.05445
G1 Z-6.32667
G02 X61.9301 Y31.42417 I14.75214 J-48.68879
G1 Z-6.81333
X61.93038 Y31.42402
X61.93067 Y31.42387
X61.93095 Y31.42372
X61.93124 Y31.42357
X61.93152 Y31.42342
X61.9318 Y31.42326
X61.93209 Y31.42311
X61.93237 Y31.42296
X61.93265 Y31.42281
X61.93294 Y31.42266
X61.93322 Y31.42251
X61.9335 Y31.42236
X61.93379 Y31.42221
G02 X63.95916 Y30.28928 I-27.36048 J-51.29024
X64.13526 Y29.0654 I-0.68992 J-0.72388
G1 X62.97334 Y27.05289
X64.27238 Y26.30289
X65.4343 Y28.3154
G02 X66.80033 Y28.68142 I0.86603 J-0.5
G1 X71.77997 Y25.80642
G02 X72.146 Y24.4404 I-0.5 J-0.86602
X67.87537 Y17.47514 I-55.69324 J29.35552
X58.13992 Y8.27934 I-29.78125 J21.77766
G1 Z-5.3
G02 X52.71509 Y5.37234 I-19.67811 J30.20662
G1 Z-6.81333
G02 X6.5964 Y19.73601 I-14.70734 J33.99835
X3.77176 Y24.73054 I32.91947 J21.91349
X4.24949 Y25.80642 I0.97773 J0.20986
G1 X9.22914 Y28.68142
G02 X10.59516 Y28.3154 I0.5 J-0.86602
G1 X11.75708 Y26.30289
X13.05612 Y27.05289
X11.8942 Y29.0654
G02 X12.25464 Y30.42818 I0.86603 J0.5
X17.47973 Y33.0976 I25.68978 J-43.83623
G1 Z-5.3
G02 X23.23446 Y35.22496 I20.29556 J-46.05445
G1 Z-6.81333
G02 X61.9301 Y31.42417 I14.75214 J-48.68879
G1 Z-7.3
X61.93038 Y31.42402
X61.93067 Y31.42387
X61.93095 Y31.42372
X61.93124 Y31.42357
X61.93152 Y31.42342
X61.9318 Y31.42326
X61.93209 Y31.42311
X61.93237 Y31.42296
X61.93265 Y31.42281
X61.93294 Y31.42266
X61.93322 Y31.42251
X61.9335 Y31.42236
X61.93379 Y31.42221
G02 X63.95916 Y30.28928 I-27.36048 J-51.29024
X64.13526 Y29.0654 I-0.68992 J-0.72388
G1 X62.97334 Y27.05289
X64.27238 Y26.30289
X65.4343 Y28.3154
G02 X66.80033 Y28.68142 I0.86603 J-0.5
G1 X71.77997 Y25.80642
G02 X72.146 Y24.4404 I-0.5 J-0.86602
X67.87537 Y17.47514 I-55.69324 J29.35552
X58.13992 Y8.27934 I-29.78125 J21.77766
G1 Z-5.3
G02 X52.71509 Y5.37234 I-19.67811 J30.20662
G1 Z-7.3
G02 X6.5964 Y19.73601 I-14.70734 J33.99835
X3.77176 Y24.73054 I32.91947 J21.91349
X4.24949 Y25.80642 I0.97773 J0.20986
G1 X9.22914 Y28.68142
G02 X10.59516 Y28.3154 I0.5 J-0.86602
G1 X11.75708 Y26.30289
X13.05612 Y27.05289
X11.8942 Y29.0654
G02 X12.25464 Y30.42818 I0.86603 J0.5
X17.47973 Y33.0976 I25.68978 J-43.83623
G1 Z-5.3
G02 X23.23446 Y35.22496 I20.29556 J-46.05445
G1 Z-7.3
G02 X61.9301 Y31.42417 I14.75214 J-48.68879
G0 Z1.
X88.00189 Y69.04286
G1 Z0.78333 F390.
X88.11931 Y69.00142 Z0.76138 F1170.
X89.22233 Y68.58314 Z0.55337
X90.31536 Y68.1394 Z0.34536
X91.39781 Y67.67045 Z0.13735
X92.4691 Y67.17653 Z-0.07065
X93.52865 Y66.65791 Z-0.27866
X94.5759 Y66.11487 Z-0.48667
G02 X94.58016 Y66.1126 I-23.94743 J-44.90106 F1560.
G1 X96.38988 Y65.13617
G02 X96.78107 Y63.7561 I-0.47484 J-0.88007
G1 X95.61914 Y61.74359
X96.91818 Y60.99359
X98.0801 Y63.0061
G02 X99.44613 Y63.37212 I0.86603 J-0.5
G1 X104.42578 Y60.49712
G02 X104.7918 Y59.1311 I-0.5 J-0.86602
G1 X102.70347 Y55.51401
G02 X44.37846 Y47.97073 I-32.04294 J18.5
G1 X44.36479 Y47.98479
G02 X36.50064 Y59.18432 I33.36273 J31.78763
X36.89529 Y60.49712 I0.89465 J0.44678
G1 X41.87494 Y63.37212
G02 X43.24096 Y63.0061 I0.5 J-0.86602
G1 X44.40288 Y60.99359
X45.70192 Y61.74359
X44.54 Y63.7561
G02 X44.90045 Y65.11888 I0.86603 J0.5
X94.5759 Y66.11487 I25.72801 J-43.90509
G1 Z-0.97333
G02 X94.58016 Y66.1126 I-23.94743 J-44.90106
G1 X96.38988 Y65.13617
G02 X96.78107 Y63.7561 I-0.47484 J-0.88007
G1 X95.61914 Y61.74359
X96.91818 Y60.99359
X98.0801 Y63.0061
G02 X99.44613 Y63.37212 I0.86603 J-0.5
G1 X104.42578 Y60.49712
G02 X104.7918 Y59.1311 I-0.5 J-0.86602
G1 X102.70347 Y55.51401
G02 X44.37846 Y47.97073 I-32.04294 J18.5
G1 X44.36479 Y47.98479
G02 X36.50064 Y59.18432 I33.36273 J31.78763
X36.89529 Y60.49712 I0.89465 J0.44678
G1 X41.87494 Y63.37212
G02 X43.24096 Y63.0061 I0.5 J-0.86602
G1 X44.40288 Y60.99359
X45.70192 Y61.74359
X44.54 Y63.7561
G02 X44.90045 Y65.11888 I0.86603 J0.5
X94.5759 Y66.11487 I25.72801 J-43.90509
G1 Z-1.46
G02 X94.58016 Y66.1126 I-23.94743 J-44.90106
G1 X96.38988 Y65.13617
G02 X96.78107 Y63.7561 I-0.47484 J-0.88007
G1 X95.61914 Y61.74359
X96.91818 Y60.99359
X98.0801 Y63.0061
G02 X99.44613 Y63.37212 I0.86603 J-0.5
G1 X104.42578 Y60.49712
G02 X104.7918 Y59.1311 I-0.5 J-0.86602
G1 X102.70347 Y55.51401
G02 X44.37846 Y47.97073 I-32.04294 J18.5
G1 X44.36479 Y47.98479
G02 X36.50064 Y59.18432 I33.36273 J31.78763
X36.89529 Y60.49712 I0.89465 J0.44678
G1 X41.87494 Y63.37212
G02 X43.24096 Y63.0061 I0.5 J-0.86602
G1 X44.40288 Y60.99359
X45.70192 Y61.74359
X44.54 Y63.7561
G02 X44.90045 Y65.11888 I0.86603 J0.5
X94.5759 Y66.11487 I25.72801 J-43.90509
G1 Z-1.94667
G02 X94.58016 Y66.1126 I-23.94743 J-44.90106
G1 X96.38988 Y65.13617
G02 X96.78107 Y63.7561 I-0.47484 J-0.88007
G1 X95.61914 Y61.74359
X96.91818 Y60.99359
X98.0801 Y63.0061
G02 X99.44613 Y63.37212 I0.86603 J-0.5
G1 X104.42578 Y60.49712
G02 X104.7918 Y59.1311 I-0.5 J-0.86602
G1 X102.70347 Y55.51401
G02 X44.37846 Y47.97073 I-32.04294 J18.5
G1 X44.36479 Y47.98479
G02 X36.50064 Y59.18432 I33.36273 J31.78763
X36.89529 Y60.49712 I0.89465 J0.44678
G1 X41.87494 Y63.37212
G02 X43.24096 Y63.0061 I0.5 J-0.86602
G1 X44.40288 Y60.99359
X45.70192 Y61.74359
X44.54 Y63.7561
G02 X44.90045 Y65.11888 I0.86603 J0.5
X94.5759 Y66.11487 I25.72801 J-43.90509
G1 Z-2.43333
G02 X94.58016 Y66.1126 I-23.94743 J-44.90106
G1 X96.38988 Y65.13617
G02 X96.78107 Y63.7561 I-0.47484 J-0.88007
G1 X95.61914 Y61.74359
X96.91818 Y60.99359
X98.0801 Y63.0061
G02 X99.44613 Y63.37212 I0.86603 J-0.5
G1 X104.42578 Y60.49712
G02 X104.7918 Y59.1311 I-0.5 J-0.86602
G1 X102.70347 Y55.51401
G02 X44.37846 Y47.97073 I-32.04294 J18.5
G1 X44.36479 Y47.98479
G02 X36.50064 Y59.18432 I33.36273 J31.78763
X36.89529 Y60.49712 I0.89465 J0.44678
G1 X41.87494 Y63.37212
G02 X43.24096 Y63.0061 I0.5 J-0.86602
G1 X44.40288 Y60.99359
X45.70192 Y61.74359
X44.54 Y63.7561
G02 X44.90045 Y65.11888 I0.86603 J0.5
X94.5759 Y66.11487 I25.72801 J-43.90509
G1 Z-2.92
G02 X94.58016 Y66.1126 I-23.94743 J-44.90106
G1 X96.38988 Y65.13617
G02 X96.78107 Y63.7561 I-0.47484 J-0.88007
G1 X95.61914 Y61.74359
X96.91818 Y60.99359
X98.0801 Y63.0061
G02 X99.44613 Y63.37212 I0.86603 J-0.5
G1 X104.42578 Y60.49712
G02 X104.7918 Y59.1311 I-0.5 J-0.86602
G1 X102.70347 Y55.51401
G02 X44.37846 Y47.97073 I-32.04294 J18.5
G1 X44.36479 Y47.98479
G02 X36.50064 Y59.18432 I33.36273 J31.78763
X36.89529 Y60.49712 I0.89465 J0.44678
G1 X41.87494 Y63.37212
G02 X43.24096 Y63.0061 I0.5 J-0.86602
G1 X44.40288 Y60.99359
X45.70192 Y61.74359
X44.54 Y63.7561
G02 X44.90045 Y65.11888 I0.86603 J0.5
X94.5759 Y66.11487 I25.72801 J-43.90509
G1 Z-3.40667
G02 X94.58016 Y66.1126 I-23.94743 J-44.90106
G1 X96.38988 Y65.13617
G02 X96.78107 Y63.7561 I-0.47484 J-0.88007
G1 X95.61914 Y61.74359
X96.91818 Y60.99359
X98.0801 Y63.0061
G02 X99.44613 Y63.37212 I0.86603 J-0.5
G1 X104.42578 Y60.49712
G02 X104.7918 Y59.1311 I-0.5 J-0.86602
G1 X102.70347 Y55.51401
G02 X44.37846 Y47.97073 I-32.04294 J18.5
G1 X44.36479 Y47.98479
G02 X36.50064 Y59.18432 I33.36273 J31.78763
X36.89529 Y60.49712 I0.89465 J0.44678
G1 X41.87494 Y63.37212
G02 X43.24096 Y63.0061 I0.5 J-0.86602
G1 X44.40288 Y60.99359
X45.70192 Y61.74359
X44.54 Y63.7561
G02 X44.90045 Y65.11888 I0.86603 J0.5
X94.5759 Y66.11487 I25.72801 J-43.90509
G1 Z-3.89333
G02 X94.58016 Y66.1126 I-23.94743 J-44.90106
G1 X96.38988 Y65.13617
G02 X96.78107 Y63.7561 I-0.47484 J-0.88007
G1 X95.61914 Y61.74359
X96.91818 Y60.99359
X98.0801 Y63.0061
G02 X99.44613 Y63.37212 I0.86603 J-0.5
G1 X104.42578 Y60.49712
G02 X104.7918 Y59.1311 I-0.5 J-0.86602
G1 X102.70347 Y55.51401
G02 X44.37846 Y47.97073 I-32.04294 J18.5
G1 X44.36479 Y47.98479
G02 X36.50064 Y59.18432 I33.36273 J31.78763
X36.89529 Y60.49712 I0.89465 J0.44678
G1 X41.87494 Y63.37212
G02 X43.24096 Y63.0061 I0.5 J-0.86602
G1 X44.40288 Y60.99359
X45.70192 Y61.74359
X44.54 Y63.7561
G02 X44.90045 Y65.11888 I0.86603 J0.5
X94.5759 Y66.11487 I25.72801 J-43.90509
G1 Z-4.38
G02 X94.58016 Y66.1126 I-23.94743 J-44.90106
G1 X96.38988 Y65.13617
G02 X96.78107 Y63.7561 I-0.47484 J-0.88007
G1 X95.61914 Y61.74359
X96.91818 Y60.99359
X98.0801 Y63.0061
G02 X99.44613 Y63.37212 I0.86603 J-0.5
G1 X104.42578 Y60.49712
G02 X104.7918 Y59.1311 I-0.5 J-0.86602
G1 X102.70347 Y55.51401
G02 X44.37846 Y47.97073 I-32.04294 J18.5
G1 X44.36479 Y47.98479
G02 X36.50064 Y59.18432 I33.36273 J31.78763
X36.89529 Y60.49712 I0.89465 J0.44678
G1 X41.87494 Y63.37212
G02 X43.24096 Y63.0061 I0.5 J-0.86602
G1 X44.40288 Y60.99359
X45.70192 Y61.74359
X44.54 Y63.7561
G02 X44.90045 Y65.11888 I0.86603 J0.5
X94.5759 Y66.11487 I25.72801 J-43.90509
G1 Z-4.86667
G02 X94.58016 Y66.1126 I-23.94743 J-44.90106
G1 X96.38988 Y65.13617
G02 X96.78107 Y63.7561 I-0.47484 J-0.88007
G1 X95.61914 Y61.74359
X96.91818 Y60.99359
X98.0801 Y63.0061
G02 X99.44613 Y63.37212 I0.86603 J-0.5
G1 X104.42578 Y60.49712
G02 X104.7918 Y59.1311 I-0.5 J-0.86602
G1 X102.70347 Y55.51401
G02 X44.37846 Y47.97073 I-32.04294 J18.5
G1 X44.36479 Y47.98479
G02 X36.50064 Y59.18432 I33.36273 J31.78763
X36.89529 Y60.49712 I0.89465 J0.44678
G1 X41.87494 Y63.37212
G02 X43.24096 Y63.0061 I0.5 J-0.86602
G1 X44.40288 Y60.99359
X45.70192 Y61.74359
X44.54 Y63.7561
G02 X44.90045 Y65.11888 I0.86603 J0.5
X94.5759 Y66.11487 I25.72801 J-43.90509
G1 Z-5.35333
X94.57618 Y66.11472
X94.57647 Y66.11457
X94.57675 Y66.11442
X94.57704 Y66.11427
X94.57732 Y66.11412
X94.5776 Y66.11397
X94.57789 Y66.11381
X94.57817 Y66.11366
X94.57845 Y66.11351
X94.57874 Y66.11336
X94.57902 Y66.11321
X94.5793 Y66.11306
X94.57959 Y66.11291
G02 X96.60497 Y64.97998 I-27.36048 J-51.29024
X96.78107 Y63.7561 I-0.68993 J-0.72388
G1 X95.61914 Y61.74359
X96.91818 Y60.99359
X98.0801 Y63.0061
G02 X99.44613 Y63.37212 I0.86603 J-0.5
G1 X104.42578 Y60.49712
G02 X104.7918 Y59.1311 I-0.5 J-0.86602
X100.52117 Y52.16585 I-55.69324 J29.35552
X90.78572 Y42.97004 I-29.78125 J21.77765
G1 Z-5.3
G02 X85.36089 Y40.06304 I-19.67811 J30.20662
G1 Z-5.35333
G02 X39.2422 Y54.42671 I-14.70734 J33.99835
X36.41756 Y59.42124 I32.91947 J21.91349
X36.89529 Y60.49712 I0.97773 J0.20986
G1 X41.87494 Y63.37212
G02 X43.24096 Y63.0061 I0.5 J-0.86602
G1 X44.40288 Y60.99359
X45.70192 Y61.74359
X44.54 Y63.7561
G02 X44.90045 Y65.11888 I0.86603 J0.5
X50.12553 Y67.7883 I25.68977 J-43.83623
G1 Z-5.3
G02 X55.88026 Y69.91566 I20.29556 J-46.05445
G1 Z-5.35333
G02 X94.5759 Y66.11487 I14.75214 J-48.68879
G1 Z-5.84
X94.57618 Y66.11472
X94.57647 Y66.11457
X94.57675 Y66.11442
X94.57704 Y66.11427
X94.57732 Y66.11412
X94.5776 Y66.11397
X94.57789 Y66.11381
X94.57817 Y66.11366
X94.57845 Y66.11351
X94.57874 Y66.11336
X94.57902 Y66.11321
X94.5793 Y66.11306
X94.57959 Y66.11291
G02 X96.60497 Y64.97998 I-27.36048 J-51.29024
X96.78107 Y63.7561 I-0.68993 J-0.72388
G1 X95.61914 Y61.74359
X96.91818 Y60.99359
X98.0801 Y63.0061
G02 X99.44613 Y63.37212 I0.86603 J-0.5
G1 X104.42578 Y60.49712
G02 X104.7918 Y59.1311 I-0.5 J-0.86602
X100.52117 Y52.16585 I-55.69324 J29.35552
X90.78572 Y42.97004 I-29.78125 J21.77765
G1 Z-5.3
G02 X85.36089 Y40.06304 I-19.67811 J30.20662
G1 Z-5.84
G02 X39.2422 Y54.42671 I-14.70734 J33.99835
X36.41756 Y59.42124 I32.91947 J21.91349
X36.89529 Y60.49712 I0.97773 J0.20986
G1 X41.87494 Y63.37212
G02 X43.24096 Y63.0061 I0.5 J-0.86602
G1 X44.40288 Y60.99359
X45.70192 Y61.74359
X44.54 Y63.7561
G02 X44.90045 Y65.11888 I0.86603 J0.5
X50.12553 Y67.7883 I25.68977 J-43.83623
G1 Z-5.3
G02 X55.88026 Y69.91566 I20.29556 J-46.05445
G1 Z-5.84
G02 X94.5759 Y66.11487 I14.75214 J-48.68879
G1 Z-6.32667
X94.57618 Y66.11472
X94.57647 Y66.11457
X94.57675 Y66.11442
X94.57704 Y66.11427
X94.57732 Y66.11412
X94.5776 Y66.11397
X94.57789 Y66.11381
X94.57817 Y66.11366
X94.57845 Y66.11351
X94.57874 Y66.11336
X94.57902 Y66.11321
X94.5793 Y66.11306
X94.57959 Y66.11291
G02 X96.60497 Y64.97998 I-27.36048 J-51.29024
X96.78107 Y63.7561 I-0.68993 J-0.72388
G1 X95.61914 Y61.74359
X96.91818 Y60.99359
X98.0801 Y63.0061
G02 X99.44613 Y63.37212 I0.86603 J-0.5
G1 X104.42578 Y60.49712
G02 X104.7918 Y59.1311 I-0.5 J-0.86602
X100.52117 Y52.16585 I-55.69324 J29.35552
X90.78572 Y42.97004 I-29.78125 J21.77765
G1 Z-5.3
G02 X85.36089 Y40.06304 I-19.67811 J30.20662
G1 Z-6.32667
G02 X39.2422 Y54.42671 I-14.70734 J33.99835
X36.41756 Y59.42124 I32.91947 J21.91349
X36.89529 Y60.49712 I0.97773 J0.20986
G1 X41.87494 Y63.37212
G02 X43.24096 Y63.0061 I0.5 J-0.86602
G1 X44.40288 Y60.99359
X45.70192 Y61.74359
X44.54 Y63.7561
G02 X44.90045 Y65.11888 I0.86603 J0.5
X50.12553 Y67.7883 I25.68977 J-43.83623
G1 Z-5.3
G02 X55.88026 Y69.91566 I20.29556 J-46.05445
G1 Z-6.32667
G02 X94.5759 Y66.11487 I14.75214 J-48.68879
G1 Z-6.81333
X94.57618 Y66.11472
X94.57647 Y66.11457
X94.57675 Y66.11442
X94.57704 Y66.11427
X94.57732 Y66.11412
X94.5776 Y66.11397
X94.57789 Y66.11381
X94.57817 Y66.11366
X94.57845 Y66.11351
X94.57874 Y66.11336
X94.57902 Y66.11321
X94.5793 Y66.11306
X94.57959 Y66.11291
G02 X96.60497 Y64.97998 I-27.36048 J-51.29024
X96.78107 Y63.7561 I-0.68993 J-0.72388
G1 X95.61914 Y61.74359
X96.91818 Y60.99359
X98.0801 Y63.0061
G02 X99.44613 Y63.37212 I0.86603 J-0.5
G1 X104.42578 Y60.49712
G02 X104.7918 Y59.1311 I-0.5 J-0.86602
X100.52117 Y52.16585 I-55.69324 J29.35552
X90.78572 Y42.97004 I-29.78125 J21.77765
G1 Z-5.3
G02 X85.36089 Y40.06304 I-19.67811 J30.20662
G1 Z-6.81333
G02 X39.2422 Y54.42671 I-14.70734 J33.99835
X36.41756 Y59.42124 I32.91947 J21.91349
X36.89529 Y60.49712 I0.97773 J0.20986
G1 X41.87494 Y63.37212
G02 X43.24096 Y63.0061 I0.5 J-0.86602
G1 X44.40288 Y60.99359
X45.70192 Y61.74359
X44.54 Y63.7561
G02 X44.90045 Y65.11888 I0.86603 J0.5
X50.12553 Y67.7883 I25.68977 J-43.83623
G1 Z-5.3
G02 X55.88026 Y69.91566 I20.29556 J-46.05445
G1 Z-6.81333
G02 X94.5759 Y66.11487 I14.75214 J-48.68879
G1 Z-7.3
X94.57618 Y66.11472
X94.57647 Y66.11457
X94.57675 Y66.11442
X94.57704 Y66.11427
X94.57732 Y66.11412
X94.5776 Y66.11397
X94.57789 Y66.11381
X94.57817 Y66.11366
X94.57845 Y66.11351
X94.57874 Y66.11336
X94.57902 Y66.11321
X94.5793 Y66.11306
X94.57959 Y66.11291
G02 X96.60497 Y64.97998 I-27.36048 J-51.29024
X96.78107 Y63.7561 I-0.68993 J-0.72388
G1 X95.61914 Y61.74359
X96.91818 Y60.99359
X98.0801 Y63.0061
G02 X99.44613 Y63.37212 I0.86603 J-0.5
G1 X104.42578 Y60.49712
G02 X104.7918 Y59.1311 I-0.5 J-0.86602
X100.52117 Y52.16585 I-55.69324 J29.35552
X90.78572 Y42.97004 I-29.78125 J21.77765
G1 Z-5.3
G02 X85.36089 Y40.06304 I-19.67811 J30.20662
G1 Z-7.3
G02 X39.2422 Y54.42671 I-14.70734 J33.99835
X36.41756 Y59.42124 I32.91947 J21.91349
X36.89529 Y60.49712 I0.97773 J0.20986
G1 X41.87494 Y63.37212
G02 X43.24096 Y63.0061 I0.5 J-0.86602
G1 X44.40288 Y60.99359
X45.70192 Y61.74359
X44.54 Y63.7561
G02 X44.90045 Y65.11888 I0.86603 J0.5
X50.12553 Y67.7883 I25.68977 J-43.83623
G1 Z-5.3
G02 X55.88026 Y69.91566 I20.29556 J-46.05445
G1 Z-7.3
G02 X94.5759 Y66.11487 I14.75214 J-48.68879
G0 Z1.
X55.35609 Y107.02206
G1 Z0.78333 F390.
X55.4735 Y106.98062 Z0.76138 F1170.
X56.57653 Y106.56234 Z0.55337
X57.66956 Y106.1186 Z0.34536
X58.75201 Y105.64965 Z0.13735
X59.8233 Y105.15573 Z-0.07065
X60.88285 Y104.63711 Z-0.27866
X61.9301 Y104.09407 Z-0.48667
G02 X61.93435 Y104.0918 I-23.94746 J-44.90111 F1560.
G1 X63.74408 Y103.11537
G02 X64.13526 Y101.7353 I-0.47484 J-0.88007
G1 X62.97334 Y99.72279
X64.27238 Y98.97279
X65.4343 Y100.9853
G02 X66.80033 Y101.35132 I0.86603 J-0.5
G1 X71.77997 Y98.47632
G02 X72.146 Y97.1103 I-0.5 J-0.86602
G1 X70.05767 Y93.49321
G02 X11.73265 Y85.94993 I-32.04294 J18.5
G1 X11.71899 Y85.96399
G02 X3.85484 Y97.16352 I33.36273 J31.78763
X4.24949 Y98.47632 I0.89465 J0.44678
G1 X9.22914 Y101.35132
G02 X10.59516 Y100.9853 I0.5 J-0.86602
G1 X11.75708 Y98.97279
X13.05612 Y99.72279
X11.8942 Y101.7353
G02 X12.25464 Y103.09808 I0.86603 J0.5
X61.9301 Y104.09407 I25.72802 J-43.90509
G1 Z-0.97333
G02 X61.93435 Y104.0918 I-23.94746 J-44.90111
G1 X63.74408 Y103.11537
G02 X64.13526 Y101.7353 I-0.47484 J-0.88007
G1 X62.97334 Y99.72279
X64.27238 Y98.97279
X65.4343 Y100.9853
G02 X66.80033 Y101.35132 I0.86603 J-0.5
G1 X71.77997 Y98.47632
G02 X72.146 Y97.1103 I-0.5 J-0.86602
G1 X70.05767 Y93.49321
G02 X11.73265 Y85.94993 I-32.04294 J18.5
G1 X11.71899 Y85.96399
G02 X3.85484 Y97.16352 I33.36273 J31.78763
X4.24949 Y98.47632 I0.89465 J0.44678
G1 X9.22914 Y101.35132
G02 X10.59516 Y100.9853 I0.5 J-0.86602
G1 X11.75708 Y98.97279
X13.05612 Y99.72279
X11.8942 Y101.7353
G02 X12.25464 Y103.09808 I0.86603 J0.5
X61.9301 Y104.09407 I25.72802 J-43.90509
G1 Z-1.46
G02 X61.93435 Y104.0918 I-23.94746 J-44.90111
G1 X63.74408 Y103.11537
G02 X64.13526 Y101.7353 I-0.47484 J-0.88007
G1 X62.97334 Y99.72279
X64.27238 Y98.97279
X65.4343 Y100.9853
G02 X66.80033 Y101.35132 I0.86603 J-0.5
G1 X71.77997 Y98.47632
G02 X72.146 Y97.1103 I-0.5 J-0.86602
G1 X70.05767 Y93.49321
G02 X11.73265 Y85.94993 I-32.04294 J18.5
G1 X11.71899 Y85.96399
G02 X3.85484 Y97.16352 I33.36273 J31.78763
X4.24949 Y98.47632 I0.89465 J0.44678
G1 X9.22914 Y101.35132
G02 X10.59516 Y100.9853 I0.5 J-0.86602
G1 X11.75708 Y98.97279
X13.05612 Y99.72279
X11.8942 Y101.7353
G02 X12.25464 Y103.09808 I0.86603 J0.5
X61.9301 Y104.09407 I25.72802 J-43.90509
G1 Z-1.94667
G02 X61.93435 Y104.0918 I-23.94746 J-44.90111
G1 X63.74408 Y103.11537
G02 X64.13526 Y101.7353 I-0.47484 J-0.88007
G1 X62.97334 Y99.72279
X64.27238 Y98.97279
X65.4343 Y100.9853
G02 X66.80033 Y101.35132 I0.86603 J-0.5
G1 X71.77997 Y98.47632
G02 X72.146 Y97.1103 I-0.5 J-0.86602
G1 X70.05767 Y93.49321
G02 X11.73265 Y85.94993 I-32.04294 J18.5
G1 X11.71899 Y85.96399
G02 X3.85484 Y97.16352 I33.36273 J31.78763
X4.24949 Y98.47632 I0.89465 J0.44678
G1 X9.22914 Y101.35132
G02 X10.59516 Y100.9853 I0.5 J-0.86602
G1 X11.75708 Y98.97279
X13.05612 Y99.72279
X11.8942 Y101.7353
G02 X12.25464 Y103.09808 I0.86603 J0.5
X61.9301 Y104.09407 I25.72802 J-43.90509
G1 Z-2.43333
G02 X61.93435 Y104.0918 I-23.94746 J-44.90111
G1 X63.74408 Y103.11537
G02 X64.13526 Y101.7353 I-0.47484 J-0.88007
G1 X62.97334 Y99.72279
X64.27238 Y98.97279
X65.4343 Y100.9853
G02 X66.80033 Y101.35132 I0.86603 J-0.5
G1 X71.77997 Y98.47632
G02 X72.146 Y97.1103 I-0.5 J-0.86602
G1 X70.05767 Y93.49321
G02 X11.73265 Y85.94993 I-32.04294 J18.5
G1 X11.71899 Y85.96399
G02 X3.85484 Y97.16352 I33.36273 J31.78763
X4.24949 Y98.47632 I0.89465 J0.44678
G1 X9.22914 Y101.35132
G02 X10.59516 Y100.9853 I0.5 J-0.86602
G1 X11.75708 Y98.97279
X13.05612 Y99.72279
X11.8942 Y101.7353
G02 X12.25464 Y103.09808 I0.86603 J0.5
X61.9301 Y104.09407 I25.72802 J-43.90509
G1 Z-2.92
G02 X61.93435 Y104.0918 I-23.94746 J-44.90111
G1 X63.74408 Y103.11537
G02 X64.13526 Y101.7353 I-0.47484 J-0.88007
G1 X62.97334 Y99.72279
X64.27238 Y98.97279
X65.4343 Y100.9853
G02 X66.80033 Y101.35132 I0.86603 J-0.5
G1 X71.77997 Y98.47632
G02 X72.146 Y97.1103 I-0.5 J-0.86602
G1 X70.05767 Y93.49321
G02 X11.73265 Y85.94993 I-32.04294 J18.5
G1 X11.71899 Y85.96399
G02 X3.85484 Y97.16352 I33.36273 J31.78763
X4.24949 Y98.47632 I0.89465 J0.44678
G1 X9.22914 Y101.35132
G02 X10.59516 Y100.9853 I0.5 J-0.86602
G1 X11.75708 Y98.97279
X13.05612 Y99.72279
X11.8942 Y101.7353
G02 X12.25464 Y103.09808 I0.86603 J0.5
X61.9301 Y104.09407 I25.72802 J-43.90509
G1 Z-3.40667
G02 X61.93435 Y104.0918 I-23.94746 J-44.90111
G1 X63.74408 Y103.11537
G02 X64.13526 Y101.7353 I-0.47484 J-0.88007
G1 X62.97334 Y99.72279
X64.27238 Y98.97279
X65.4343 Y100.9853
G02 X66.80033 Y101.35132 I0.86603 J-0.5
G1 X71.77997 Y98.47632
G02 X72.146 Y97.1103 I-0.5 J-0.86602
G1 X70.05767 Y93.49321
G02 X11.73265 Y85.94993 I-32.04294 J18.5
G1 X11.71899 Y85.96399
G02 X3.85484 Y97.16352 I33.36273 J31.78763
X4.24949 Y98.47632 I0.89465 J0.44678
G1 X9.22914 Y101.35132
G02 X10.59516 Y100.9853 I0.5 J-0.86602
G1 X11.75708 Y98.97279
X13.05612 Y99.72279
X11.8942 Y101.7353
G02 X12.25464 Y103.09808 I0.86603 J0.5
X61.9301 Y104.09407 I25.72802 J-43.90509
G1 Z-3.89333
G02 X61.93435 Y104.0918 I-23.94746 J-44.90111
G1 X63.74408 Y103.11537
G02 X64.13526 Y101.7353 I-0.47484 J-0.88007
G1 X62.97334 Y99.72279
X64.27238 Y98.97279
X65.4343 Y100.9853
G02 X66.80033 Y101.35132 I0.86603 J-0.5
G1 X71.77997 Y98.47632
G02 X72.146 Y97.1103 I-0.5 J-0.86602
G1 X70.05767 Y93.49321
G02 X11.73265 Y85.94993 I-32.04294 J18.5
G1 X11.71899 Y85.96399
G02 X3.85484 Y97.16352 I33.36273 J31.78763
X4.24949 Y98.47632 I0.89465 J0.44678
G1 X9.22914 Y101.35132
G02 X10.59516 Y100.9853 I0.5 J-0.86602
G1 X11.75708 Y98.97279
X13.05612 Y99.72279
X11.8942 Y101.7353
G02 X12.25464 Y103.09808 I0.86603 J0.5
X61.9301 Y104.09407 I25.72802 J-43.90509
G1 Z-4.38
G02 X61.93435 Y104.0918 I-23.94746 J-44.90111
G1 X63.74408 Y103.11537
G02 X64.13526 Y101.7353 I-0.47484 J-0.88007
G1 X62.97334 Y99.72279
X64.27238 Y98.97279
X65.4343 Y100.9853
G02 X66.80033 Y101.35132 I0.86603 J-0.5
G1 X71.77997 Y98.47632
G02 X72.146 Y97.1103 I-0.5 J-0.86602
G1 X70.05767 Y93.49321
G02 X11.73265 Y85.94993 I-32.04294 J18.5
G1 X11.71899 Y85.96399
G02 X3.85484 Y97.16352 I33.36273 J31.78763
X4.24949 Y98.47632 I0.89465 J0.44678
G1 X9.22914 Y101.35132
G02 X10.59516 Y100.9853 I0.5 J-0.86602
G1 X11.75708 Y98.97279
X13.05612 Y99.72279
X11.8942 Y101.7353
G02 X12.25464 Y103.09808 I0.86603 J0.5
X61.9301 Y104.09407 I25.72802 J-43.90509
G1 Z-4.86667
G02 X61.93435 Y104.0918 I-23.94746 J-44.90111
G1 X63.74408 Y103.11537
G02 X64.13526 Y101.7353 I-0.47484 J-0.88007
G1 X62.97334 Y99.72279
X64.27238 Y98.97279
X65.4343 Y100.9853
G02 X66.80033 Y101.35132 I0.86603 J-0.5
G1 X71.77997 Y98.47632
G02 X72.146 Y97.1103 I-0.5 J-0.86602
G1 X70.05767 Y93.49321
G02 X11.73265 Y85.94993 I-32.04294 J18.5
G1 X11.71899 Y85.96399
G02 X3.85484 Y97.16352 I33.36273 J31.78763
X4.24949 Y98.47632 I0.89465 J0.44678
G1 X9.22914 Y101.35132
G02 X10.59516 Y100.9853 I0.5 J-0.86602
G1 X11.75708 Y98.97279
X13.05612 Y99.72279
X11.8942 Y101.7353
G02 X12.25464 Y103.09808 I0.86603 J0.5
X61.9301 Y104.09407 I25.72802 J-43.90509
G1 Z-5.35333
X61.93038 Y104.09392
X61.93067 Y104.09377
X61.93095 Y104.09362
X61.93124 Y104.09347
X61.93152 Y104.09331
X61.9318 Y104.09316
X61.93209 Y104.09301
X61.93237 Y104.09286
X61.93265 Y104.09271
X61.93294 Y104.09256
X61.93322 Y104.09241
X61.9335 Y104.09226
X61.93379 Y104.0921
G02 X63.95916 Y102.95918 I-27.36048 J-51.29023
X64.13526 Y101.7353 I-0.68992 J-0.72388
G1 X62.97334 Y99.72279
X64.27238 Y98.97279
X65.4343 Y100.9853
G02 X66.80033 Y101.35132 I0.86603 J-0.5
G1 X71.77997 Y98.47632
G02 X72.146 Y97.1103 I-0.5 J-0.86602
X67.87537 Y90.14504 I-55.69324 J29.35552
X58.13992 Y80.94924 I-29.78125 J21.77766
G1 Z-5.3
G02 X52.71509 Y78.04224 I-19.67811 J30.20662
G1 Z-5.35333
G02 X6.5964 Y92.40591 I-14.70734 J33.99835
X3.77176 Y97.40044 I32.91947 J21.91349
X4.24949 Y98.47632 I0.97773 J0.20986
G1 X9.22914 Y101.35132
G02 X10.59516 Y100.9853 I0.5 J-0.86602
G1 X11.75708 Y98.97279
X13.05612 Y99.72279
X11.8942 Y101.7353
G02 X12.25464 Y103.09808 I0.86603 J0.5
X17.47973 Y105.7675 I25.68978 J-43.83623
G1 Z-5.3
G02 X23.23446 Y107.89486 I20.29556 J-46.05445
G1 Z-5.35333
G02 X61.9301 Y104.09407 I14.75214 J-48.68879
G1 Z-5.84
X61.93038 Y104.09392
X61.93067 Y104.09377
X61.93095 Y104.09362
X61.93124 Y104.09347
X61.93152 Y104.09331
X61.9318 Y104.09316
X61.93209 Y104.09301
X61.93237 Y104.09286
X61.93265 Y104.09271
X61.93294 Y104.09256
X61.93322 Y104.09241
X61.9335 Y104.09226
X61.93379 Y104.0921
G02 X63.95916 Y102.95918 I-27.36048 J-51.29023
X64.13526 Y101.7353 I-0.68992 J-0.72388
G1 X62.97334 Y99.72279
X64.27238 Y98.97279
X65.4343 Y100.9853
G02 X66.80033 Y101.35132 I0.86603 J-0.5
G1 X71.77997 Y98.47632
G02 X72.146 Y97.1103 I-0.5 J-0.86602
X67.87537 Y90.14504 I-55.69324 J29.35552
X58.13992 Y80.94924 I-29.78125 J21.77766
G1 Z-5.3
G02 X52.71509 Y78.04224 I-19.67811 J30.20662
G1 Z-5.84
G02 X6.5964 Y92.40591 I-14.70734 J33.99835
X3.77176 Y97.40044 I32.91947 J21.91349
X4.24949 Y98.47632 I0.97773 J0.20986
G1 X9.22914 Y101.35132
G02 X10.59516 Y100.9853 I0.5 J-0.86602
G1 X11.75708 Y98.97279
X13.05612 Y99.72279
X11.8942 Y101.7353
G02 X12.25464 Y103.09808 I0.86603 J0.5
X17.47973 Y105.7675 I25.68978 J-43.83623
G1 Z-5.3
G02 X23.23446 Y107.89486 I20.29556 J-46.05445
G1 Z-5.84
G02 X61.9301 Y104.09407 I14.75214 J-48.68879
G1 Z-6.32667
X61.93038 Y104.09392
X61.93067 Y104.09377
X61.93095 Y104.09362
X61.93124 Y104.09347
X61.93152 Y104.09331
X61.9318 Y104.09316
X61.93209 Y104.09301
X61.93237 Y104.09286
X61.93265 Y104.09271
X61.93294 Y104.09256
X61.93322 Y104.09241
X61.9335 Y104.09226
X61.93379 Y104.0921
G02 X63.95916 Y102.95918 I-27.36048 J-51.29023
X64.13526 Y101.7353 I-0.68992 J-0.72388
G1 X62.97334 Y99.72279
X64.27238 Y98.97279
X65.4343 Y100.9853
G02 X66.80033 Y101.35132 I0.86603 J-0.5
G1 X71.77997 Y98.47632
G02 X72.146 Y97.1103 I-0.5 J-0.86602
X67.87537 Y90.14504 I-55.69324 J29.35552
X58.13992 Y80.94924 I-29.78125 J21.77766
G1 Z-5.3
G02 X52.71509 Y78.04224 I-19.67811 J30.20662
G1 Z-6.32667
G02 X6.5964 Y92.40591 I-14.70734 J33.99835
X3.77176 Y97.40044 I32.91947 J21.91349
X4.24949 Y98.47632 I0.97773 J0.20986
G1 X9.22914 Y101.35132
G02 X10.59516 Y100.9853 I0.5 J-0.86602
G1 X11.75708 Y98.97279
X13.05612 Y99.72279
X11.8942 Y101.7353
G02 X12.25464 Y103.09808 I0.86603 J0.5
X17.47973 Y105.7675 I25.68978 J-43.83623
G1 Z-5.3
G02 X23.23446 Y107.89486 I20.29556 J-46.05445
G1 Z-6.32667
G02 X61.9301 Y104.09407 I14.75214 J-48.68879
G1 Z-6.81333
X61.93038 Y104.09392
X61.93067 Y104.09377
X61.93095 Y104.09362
X61.93124 Y104.09347
X61.93152 Y104.09331
X61.9318 Y104.09316
X61.93209 Y104.09301
X61.93237 Y104.09286
X61.93265 Y104.09271
X61.93294 Y104.09256
X61.93322 Y104.09241
X61.9335 Y104.09226
X61.93379 Y104.0921
G02 X63.95916 Y102.95918 I-27.36048 J-51.29023
X64.13526 Y101.7353 I-0.68992 J-0.72388
G1 X62.97334 Y99.72279
X64.27238 Y98.97279
X65.4343 Y100.9853
G02 X66.80033 Y101.35132 I0.86603 J-0.5
G1 X71.77997 Y98.47632
G02 X72.146 Y97.1103 I-0.5 J-0.86602
X67.87537 Y90.14504 I-55.69324 J29.35552
X58.13992 Y80.94924 I-29.78125 J21.77766
G1 Z-5.3
G02 X52.71509 Y78.04224 I-19.67811 J30.20662
G1 Z-6.81333
G02 X6.5964 Y92.40591 I-14.70734 J33.99835
X3.77176 Y97.40044 I32.91947 J21.91349
X4.24949 Y98.47632 I0.97773 J0.20986
G1 X9.22914 Y101.35132
G02 X10.59516 Y100.9853 I0.5 J-0.86602
G1 X11.75708 Y98.97279
X13.05612 Y99.72279
X11.8942 Y101.7353
G02 X12.25464 Y103.09808 I0.86603 J0.5
X17.47973 Y105.7675 I25.68978 J-43.83623
G1 Z-5.3
G02 X23.23446 Y107.89486 I20.29556 J-46.05445
G1 Z-6.81333
G02 X61.9301 Y104.09407 I14.75214 J-48.68879
G1 Z-7.3
X61.93038 Y104.09392
X61.93067 Y104.09377
X61.93095 Y104.09362
X61.93124 Y104.09347
X61.93152 Y104.09331
X61.9318 Y104.09316
X61.93209 Y104.09301
X61.93237 Y104.09286
X61.93265 Y104.09271
X61.93294 Y104.09256
X61.93322 Y104.09241
X61.9335 Y104.09226
X61.93379 Y104.0921
G02 X63.95916 Y102.95918 I-27.36048 J-51.29023
X64.13526 Y101.7353 I-0.68992 J-0.72388
G1 X62.97334 Y99.72279
X64.27238 Y98.97279
X65.4343 Y100.9853
G02 X66.80033 Y101.35132 I0.86603 J-0.5
G1 X71.77997 Y98.47632
G02 X72.146 Y97.1103 I-0.5 J-0.86602
X67.87537 Y90.14504 I-55.69324 J29.35552
X58.13992 Y80.94924 I-29.78125 J21.77766
G1 Z-5.3
G02 X52.71509 Y78.04224 I-19.67811 J30.20662
G1 Z-7.3
G02 X6.5964 Y92.40591 I-14.70734 J33.99835
X3.77176 Y97.40044 I32.91947 J21.91349
X4.24949 Y98.47632 I0.97773 J0.20986
G1 X9.22914 Y101.35132
G02 X10.59516 Y100.9853 I0.5 J-0.86602
G1 X11.75708 Y98.97279
X13.05612 Y99.72279
X11.8942 Y101.7353
G02 X12.25464 Y103.09808 I0.86603 J0.5
X17.47973 Y105.7675 I25.68978 J-43.83623
G1 Z-5.3
G02 X23.23446 Y107.89486 I20.29556 J-46.05445
G1 Z-7.3
G02 X61.9301 Y104.09407 I14.75214 J-48.68879
G0 Z1.
X88.00189 Y141.71276
G1 Z0.78333 F390.
X88.11931 Y141.67132 Z0.76138 F1170.
X89.22233 Y141.25304 Z0.55337
X90.31536 Y140.8093 Z0.34536
X91.39781 Y140.34035 Z0.13735
X92.4691 Y139.84643 Z-0.07065
X93.52865 Y139.32781 Z-0.27866
X94.5759 Y138.78477 Z-0.48667
G02 X94.58016 Y138.7825 I-23.94744 J-44.90108 F1560.
G1 X96.38988 Y137.80607
G02 X96.78107 Y136.426 I-0.47484 J-0.88007
G1 X95.61914 Y134.41349
X96.91818 Y133.66349
X98.0801 Y135.676
G02 X99.44613 Y136.04202 I0.86603 J-0.5
G1 X104.42578 Y133.16702
G02 X104.7918 Y131.801 I-0.5 J-0.86602
G1 X102.70347 Y128.18391
G02 X44.37846 Y120.64063 I-32.04294 J18.5
G1 X44.36479 Y120.65469
G02 X36.50064 Y131.85422 I33.36273 J31.78763
X36.89529 Y133.16702 I0.89465 J0.44678
G1 X41.87494 Y136.04202
G02 X43.24096 Y135.676 I0.5 J-0.86602
G1 X44.40288 Y133.66349
X45.70192 Y134.41349
X44.54 Y136.426
G02 X44.90045 Y137.78878 I0.86603 J0.5
X94.5759 Y138.78477 I25.72801 J-43.90509
G1 Z-0.97333
G02 X94.58016 Y138.7825 I-23.94744 J-44.90108
G1 X96.38988 Y137.80607
G02 X96.78107 Y136.426 I-0.47484 J-0.88007
G1 X95.61914 Y134.41349
X96.91818 Y133.66349
X98.0801 Y135.676
G02 X99.44613 Y136.04202 I0.86603 J-0.5
G1 X104.42578 Y133.16702
G02 X104.7918 Y131.801 I-0.5 J-0.86602
G1 X102.70347 Y128.18391
G02 X44.37846 Y120.64063 I-32.04294 J18.5
G1 X44.36479 Y120.65469
G02 X36.50064 Y131.85422 I33.36273 J31.78763
X36.89529 Y133.16702 I0.89465 J0.44678
G1 X41.87494 Y136.04202
G02 X43.24096 Y135.676 I0.5 J-0.86602
G1 X44.40288 Y133.66349
X45.70192 Y134.41349
X44.54 Y136.426
G02 X44.90045 Y137.78878 I0.86603 J0.5
X94.5759 Y138.78477 I25.72801 J-43.90509
G1 Z-1.46
G02 X94.58016 Y138.7825 I-23.94744 J-44.90108
G1 X96.38988 Y137.80607
G02 X96.78107 Y136.426 I-0.47484 J-0.88007
G1 X95.61914 Y134.41349
X96.91818 Y133.66349
X98.0801 Y135.676
G02 X99.44613 Y136.04202 I0.86603 J-0.5
G1 X104.42578 Y133.16702
G02 X104.7918 Y131.801 I-0.5 J-0.86602
G1 X102.70347 Y128.18391
G02 X44.37846 Y120.64063 I-32.04294 J18.5
G1 X44.36479 Y120.65469
G02 X36.50064 Y131.85422 I33.36273 J31.78763
X36.89529 Y133.16702 I0.89465 J0.44678
G1 X41.87494 Y136.04202
G02 X43.24096 Y135.676 I0.5 J-0.86602
G1 X44.40288 Y133.66349
X45.70192 Y134.41349
X44.54 Y136.426
G02 X44.90045 Y137.78878 I0.86603 J0.5
X94.5759 Y138.78477 I25.72801 J-43.90509
G1 Z-1.94667
G02 X94.58016 Y138.7825 I-23.94744 J-44.90108
G1 X96.38988 Y137.80607
G02 X96.78107 Y136.426 I-0.47484 J-0.88007
G1 X95.61914 Y134.41349
X96.91818 Y133.66349
X98.0801 Y135.676
G02 X99.44613 Y136.04202 I0.86603 J-0.5
G1 X104.42578 Y133.16702
G02 X104.7918 Y131.801 I-0.5 J-0.86602
G1 X102.70347 Y128.18391
G02 X44.37846 Y120.64063 I-32.04294 J18.5
G1 X44.36479 Y120.65469
G02 X36.50064 Y131.85422 I33.36273 J31.78763
X36.89529 Y133.16702 I0.89465 J0.44678
G1 X41.87494 Y136.04202
G02 X43.24096 Y135.676 I0.5 J-0.86602
G1 X44.40288 Y133.66349
X45.70192 Y134.41349
X44.54 Y136.426
G02 X44.90045 Y137.78878 I0.86603 J0.5
X94.5759 Y138.78477 I25.72801 J-43.90509
G1 Z-2.43333
G02 X94.58016 Y138.7825 I-23.94744 J-44.90108
G1 X96.38988 Y137.80607
G02 X96.78107 Y136.426 I-0.47484 J-0.88007
G1 X95.61914 Y134.41349
X96.91818 Y133.66349
X98.0801 Y135.676
G02 X99.44613 Y136.04202 I0.86603 J-0.5
G1 X104.42578 Y133.16702
G02 X104.7918 Y131.801 I-0.5 J-0.86602
G1 X102.70347 Y128.18391
G02 X44.37846 Y120.64063 I-32.04294 J18.5
G1 X44.36479 Y120.65469
G02 X36.50064 Y131.85422 I33.36273 J31.78763
X36.89529 Y133.16702 I0.89465 J0.44678
G1 X41.87494 Y136.04202
G02 X43.24096 Y135.676 I0.5 J-0.86602
G1 X44.40288 Y133.66349
X45.70192 Y134.41349
X44.54 Y136.426
G02 X44.90045 Y137.78878 I0.86603 J0.5
X94.5759 Y138.78477 I25.72801 J-43.90509
G1 Z-2.92
G02 X94.58016 Y138.7825 I-23.94744 J-44.90108
G1 X96.38988 Y137.80607
G02 X96.78107 Y136.426 I-0.47484 J-0.88007
G1 X95.61914 Y134.41349
X96.91818 Y133.66349
X98.0801 Y135.676
G02 X99.44613 Y136.04202 I0.86603 J-0.5
G1 X104.42578 Y133.16702
G02 X104.7918 Y131.801 I-0.5 J-0.86602
G1 X102.70347 Y128.18391
G02 X44.37846 Y120.64063 I-32.04294 J18.5
G1 X44.36479 Y120.65469
G02 X36.50064 Y131.85422 I33.36273 J31.78763
X36.89529 Y133.16702 I0.89465 J0.44678
G1 X41.87494 Y136.04202
G02 X43.24096 Y135.676 I0.5 J-0.86602
G1 X44.40288 Y133.66349
X45.70192 Y134.41349
X44.54 Y136.426
G02 X44.90045 Y137.78878 I0.86603 J0.5
X94.5759 Y138.78477 I25.72801 J-43.90509
G1 Z-3.40667
G02 X94.58016 Y138.7825 I-23.94744 J-44.90108
G1 X96.38988 Y137.80607
G02 X96.78107 Y136.426 I-0.47484 J-0.88007
G1 X95.61914 Y134.41349
X96.91818 Y133.66349
X98.0801 Y135.676
G02 X99.44613 Y136.04202 I0.86603 J-0.5
G1 X104.42578 Y133.16702
G02 X104.7918 Y131.801 I-0.5 J-0.86602
G1 X102.70347 Y128.18391
G02 X44.37846 Y120.64063 I-32.04294 J18.5
G1 X44.36479 Y120.65469
G02 X36.50064 Y131.85422 I33.36273 J31.78763
X36.89529 Y133.16702 I0.89465 J0.44678
G1 X41.87494 Y136.04202
G02 X43.24096 Y135.676 I0.5 J-0.86602
G1 X44.40288 Y133.66349
X45.70192 Y134.41349
X44.54 Y136.426
G02 X44.90045 Y137.78878 I0.86603 J0.5
X94.5759 Y138.78477 I25.72801 J-43.90509
G1 Z-3.89333
G02 X94.58016 Y138.7825 I-23.94744 J-44.90108
G1 X96.38988 Y137.80607
G02 X96.78107 Y136.426 I-0.47484 J-0.88007
G1 X95.61914 Y134.41349
X96.91818 Y133.66349
X98.0801 Y135.676
G02 X99.44613 Y136.04202 I0.86603 J-0.5
G1 X104.42578 Y133.16702
G02 X104.7918 Y131.801 I-0.5 J-0.86602
G1 X102.70347 Y128.18391
G02 X44.37846 Y120.64063 I-32.04294 J18.5
G1 X44.36479 Y120.65469
G02 X36.50064 Y131.85422 I33.36273 J31.78763
X36.89529 Y133.16702 I0.89465 J0.44678
G1 X41.87494 Y136.04202
G02 X43.24096 Y135.676 I0.5 J-0.86602
G1 X44.40288 Y133.66349
X45.70192 Y134.41349
X44.54 Y136.426
G02 X44.90045 Y137.78878 I0.86603 J0.5
X94.5759 Y138.78477 I25.72801 J-43.90509
G1 Z-4.38
G02 X94.58016 Y138.7825 I-23.94744 J-44.90108
G1 X96.38988 Y137.80607
G02 X96.78107 Y136.426 I-0.47484 J-0.88007
G1 X95.61914 Y134.41349
X96.91818 Y133.66349
X98.0801 Y135.676
G02 X99.44613 Y136.04202 I0.86603 J-0.5
G1 X104.42578 Y133.16702
G02 X104.7918 Y131.801 I-0.5 J-0.86602
G1 X102.70347 Y128.18391
G02 X44.37846 Y120.64063 I-32.04294 J18.5
G1 X44.36479 Y120.65469
G02 X36.50064 Y131.85422 I33.36273 J31.78763
X36.89529 Y133.16702 I0.89465 J0.44678
G1 X41.87494 Y136.04202
G02 X43.24096 Y135.676 I0.5 J-0.86602
G1 X44.40288 Y133.66349
X45.70192 Y134.41349
X44.54 Y136.426
G02 X44.90045 Y137.78878 I0.86603 J0.5
X94.5759 Y138.78477 I25.72801 J-43.90509
G1 Z-4.86667
G02 X94.58016 Y138.7825 I-23.94744 J-44.90108
G1 X96.38988 Y137.80607
G02 X96.78107 Y136.426 I-0.47484 J-0.88007
G1 X95.61914 Y134.41349
X96.91818 Y133.66349
X98.0801 Y135.676
G02 X99.44613 Y136.04202 I0.86603 J-0.5
G1 X104.42578 Y133.16702
G02 X104.7918 Y131.801 I-0.5 J-0.86602
G1 X102.70347 Y128.18391
G02 X44.37846 Y120.64063 I-32.04294 J18.5
G1 X44.36479 Y120.65469
G02 X36.50064 Y131.85422 I33.36273 J31.78763
X36.89529 Y133.16702 I0.89465 J0.44678
G1 X41.87494 Y136.04202
G02 X43.24096 Y135.676 I0.5 J-0.86602
G1 X44.40288 Y133.66349
X45.70192 Y134.41349
X44.54 Y136.426
G02 X44.90045 Y137.78878 I0.86603 J0.5
X94.5759 Y138.78477 I25.72801 J-43.90509
G1 Z-5.35333
X94.57618 Y138.78462
X94.57647 Y138.78447
X94.57675 Y138.78432
X94.57704 Y138.78417
X94.57732 Y138.78402
X94.5776 Y138.78386
X94.57789 Y138.78371
X94.57817 Y138.78356
X94.57845 Y138.78341
X94.57874 Y138.78326
X94.57902 Y138.78311
X94.5793 Y138.78296
X94.57959 Y138.7828
G02 X96.60497 Y137.64988 I-27.36048 J-51.29023
X96.78107 Y136.426 I-0.68993 J-0.72388
G1 X95.61914 Y134.41349
X96.91818 Y133.66349
X98.0801 Y135.676
G02 X99.44613 Y136.04202 I0.86603 J-0.5
G1 X104.42578 Y133.16702
G02 X104.7918 Y131.801 I-0.5 J-0.86602
X100.52117 Y124.83574 I-55.69324 J29.35552
X90.78572 Y115.63994 I-29.78125 J21.77766
G1 Z-5.3
G02 X85.36089 Y112.73294 I-19.67811 J30.20662
G1 Z-5.35333
G02 X39.2422 Y127.09661 I-14.70734 J33.99835
X36.41756 Y132.09114 I32.91947 J21.91349
X36.89529 Y133.16702 I0.97773 J0.20986
G1 X41.87494 Y136.04202
G02 X43.24096 Y135.676 I0.5 J-0.86602
G1 X44.40288 Y133.66349
X45.70192 Y134.41349
X44.54 Y136.426
G02 X44.90045 Y137.78878 I0.86603 J0.5
X50.12553 Y140.4582 I25.68977 J-43.83623
G1 Z-5.3
G02 X55.88026 Y142.58556 I20.29556 J-46.05445
G1 Z-5.35333
G02 X94.5759 Y138.78477 I14.75214 J-48.68879
G1 Z-5.84
X94.57618 Y138.78462
X94.57647 Y138.78447
X94.57675 Y138.78432
X94.57704 Y138.78417
X94.57732 Y138.78402
X94.5776 Y138.78386
X94.57789 Y138.78371
X94.57817 Y138.78356
X94.57845 Y138.78341
X94.57874 Y138.78326
X94.57902 Y138.78311
X94.5793 Y138.78296
X94.57959 Y138.7828
G02 X96.60497 Y137.64988 I-27.36048 J-51.29023
X96.78107 Y136.426 I-0.68993 J-0.72388
G1 X95.61914 Y134.41349
X96.91818 Y133.66349
X98.0801 Y135.676
G02 X99.44613 Y136.04202 I0.86603 J-0.5
G1 X104.42578 Y133.16702
G02 X104.7918 Y131.801 I-0.5 J-0.86602
X100.52117 Y124.83574 I-55.69324 J29.35552
X90.78572 Y115.63994 I-29.78125 J21.77766
G1 Z-5.3
G02 X85.36089 Y112.73294 I-19.67811 J30.20662
G1 Z-5.84
G02 X39.2422 Y127.09661 I-14.70734 J33.99835
X36.41756 Y132.09114 I32.91947 J21.91349
X36.89529 Y133.16702 I0.97773 J0.20986
G1 X41.87494 Y136.04202
G02 X43.24096 Y135.676 I0.5 J-0.86602
G1 X44.40288 Y133.66349
X45.70192 Y134.41349
X44.54 Y136.426
G02 X44.90045 Y137.78878 I0.86603 J0.5
X50.12553 Y140.4582 I25.68977 J-43.83623
G1 Z-5.3
G02 X55.88026 Y142.58556 I20.29556 J-46.05445
G1 Z-5.84
G02 X94.5759 Y138.78477 I14.75214 J-48.68879
G1 Z-6.32667
X94.57618 Y138.78462
X94.57647 Y138.78447
X94.57675 Y138.78432
X94.57704 Y138.78417
X94.57732 Y138.78402
X94.5776 Y138.78386
X94.57789 Y138.78371
X94.57817 Y138.78356
X94.57845 Y138.78341
X94.57874 Y138.78326
X94.57902 Y138.78311
X94.5793 Y138.78296
X94.57959 Y138.7828
G02 X96.60497 Y137.64988 I-27.36048 J-51.29023
X96.78107 Y136.426 I-0.68993 J-0.72388
G1 X95.61914 Y134.41349
X96.91818 Y133.66349
X98.0801 Y135.676
G02 X99.44613 Y136.04202 I0.86603 J-0.5
G1 X104.42578 Y133.16702
G02 X104.7918 Y131.801 I-0.5 J-0.86602
X100.52117 Y124.83574 I-55.69324 J29.35552
X90.78572 Y115.63994 I-29.78125 J21.77766
G1 Z-5.3
G02 X85.36089 Y112.73294 I-19.67811 J30.20662
G1 Z-6.32667
G02 X39.2422 Y127.09661 I-14.70734 J33.99835
X36.41756 Y132.09114 I32.91947 J21.91349
X36.89529 Y133.16702 I0.97773 J0.20986
G1 X41.87494 Y136.04202
G02 X43.24096 Y135.676 I0.5 J-0.86602
G1 X44.40288 Y133.66349
X45.70192 Y134.41349
X44.54 Y136.426
G02 X44.90045 Y137.78878 I0.86603 J0.5
X50.12553 Y140.4582 I25.68977 J-43.83623
G1 Z-5.3
G02 X55.88026 Y142.58556 I20.29556 J-46.05445
G1 Z-6.32667
G02 X94.5759 Y138.78477 I14.75214 J-48.68879
G1 Z-6.81333
X94.57618 Y138.78462
X94.57647 Y138.78447
X94.57675 Y138.78432
X94.57704 Y138.78417
X94.57732 Y138.78402
X94.5776 Y138.78386
X94.57789 Y138.78371
X94.57817 Y138.78356
X94.57845 Y138.78341
X94.57874 Y138.78326
X94.57902 Y138.78311
X94.5793 Y138.78296
X94.57959 Y138.7828
G02 X96.60497 Y137.64988 I-27.36048 J-51.29023
X96.78107 Y136.426 I-0.68993 J-0.72388
G1 X95.61914 Y134.41349
X96.91818 Y133.66349
X98.0801 Y135.676
G02 X99.44613 Y136.04202 I0.86603 J-0.5
G1 X104.42578 Y133.16702
G02 X104.7918 Y131.801 I-0.5 J-0.86602
X100.52117 Y124.83574 I-55.69324 J29.35552
X90.78572 Y115.63994 I-29.78125 J21.77766
G1 Z-5.3
G02 X85.36089 Y112.73294 I-19.67811 J30.20662
G1 Z-6.81333
G02 X39.2422 Y127.09661 I-14.70734 J33.99835
X36.41756 Y132.09114 I32.91947 J21.91349
X36.89529 Y133.16702 I0.97773 J0.20986
G1 X41.87494 Y136.04202
G02 X43.24096 Y135.676 I0.5 J-0.86602
G1 X44.40288 Y133.66349
X45.70192 Y134.41349
X44.54 Y136.426
G02 X44.90045 Y137.78878 I0.86603 J0.5
X50.12553 Y140.4582 I25.68977 J-43.83623
G1 Z-5.3
G02 X55.88026 Y142.58556 I20.29556 J-46.05445
G1 Z-6.81333
G02 X94.5759 Y138.78477 I14.75214 J-48.68879
G1 Z-7.3
X94.57618 Y138.78462
X94.57647 Y138.78447
X94.57675 Y138.78432
X94.57704 Y138.78417
X94.57732 Y138.78402
X94.5776 Y138.78386
X94.57789 Y138.78371
X94.57817 Y138.78356
X94.57845 Y138.78341
X94.57874 Y138.78326
X94.57902 Y138.78311
X94.5793 Y138.78296
X94.57959 Y138.7828
G02 X96.60497 Y137.64988 I-27.36048 J-51.29023
X96.78107 Y136.426 I-0.68993 J-0.72388
G1 X95.61914 Y134.41349
X96.91818 Y133.66349
X98.0801 Y135.676
G02 X99.44613 Y136.04202 I0.86603 J-0.5
G1 X104.42578 Y133.16702
G02 X104.7918 Y131.801 I-0.5 J-0.86602
X100.52117 Y124.83574 I-55.69324 J29.35552
X90.78572 Y115.63994 I-29.78125 J21.77766
G1 Z-5.3
G02 X85.36089 Y112.73294 I-19.67811 J30.20662
G1 Z-7.3
G02 X39.2422 Y127.09661 I-14.70734 J33.99835
X36.41756 Y132.09114 I32.91947 J21.91349
X36.89529 Y133.16702 I0.97773 J0.20986
G1 X41.87494 Y136.04202
G02 X43.24096 Y135.676 I0.5 J-0.86602
G1 X44.40288 Y133.66349
X45.70192 Y134.41349
X44.54 Y136.426
G02 X44.90045 Y137.78878 I0.86603 J0.5
X50.12553 Y140.4582 I25.68977 J-43.83623
G1 Z-5.3
G02 X55.88026 Y142.58556 I20.29556 J-46.05445
G1 Z-7.3
G02 X94.5759 Y138.78477 I14.75214 J-48.68879
G0 Z1.
X55.35609 Y179.69196
G1 Z0.78333 F390.
X55.4735 Y179.65052 Z0.76138 F1170.
X56.57653 Y179.23224 Z0.55337
X57.66956 Y178.7885 Z0.34536
X58.75201 Y178.31955 Z0.13735
X59.8233 Y177.82563 Z-0.07065
X60.88285 Y177.30701 Z-0.27866
X61.9301 Y176.76397 Z-0.48667
G02 X61.93435 Y176.7617 I-23.94746 J-44.90112 F1560.
G1 X63.74408 Y175.78527
G02 X64.13526 Y174.40519 I-0.47484 J-0.88008
G1 X62.97334 Y172.39269
X64.27238 Y171.64269
X65.4343 Y173.65519
G02 X66.80033 Y174.02122 I0.86603 J-0.5
G1 X71.77997 Y171.14622
G02 X72.146 Y169.78019 I-0.5 J-0.86603
G1 X70.05767 Y166.16311
G02 X11.73265 Y158.61983 I-32.04294 J18.5
G1 X11.71899 Y158.63389
G02 X3.85484 Y169.83342 I33.36273 J31.78763
X4.24949 Y171.14622 I0.89465 J0.44677
G1 X9.22914 Y174.02122
G02 X10.59516 Y173.65519 I0.5 J-0.86603
G1 X11.75708 Y171.64269
X13.05612 Y172.39269
X11.8942 Y174.40519
G02 X12.25464 Y175.76797 I0.86603 J0.5
X61.9301 Y176.76397 I25.72802 J-43.90508
G1 Z-0.97333
G02 X61.93435 Y176.7617 I-23.94746 J-44.90112
G1 X63.74408 Y175.78527
G02 X64.13526 Y174.40519 I-0.47484 J-0.88008
G1 X62.97334 Y172.39269
X64.27238 Y171.64269
X65.4343 Y173.65519
G02 X66.80033 Y174.02122 I0.86603 J-0.5
G1 X71.77997 Y171.14622
G02 X72.146 Y169.78019 I-0.5 J-0.86603
G1 X70.05767 Y166.16311
G02 X11.73265 Y158.61983 I-32.04294 J18.5
G1 X11.71899 Y158.63389
G02 X3.85484 Y169.83342 I33.36273 J31.78763
X4.24949 Y171.14622 I0.89465 J0.44677
G1 X9.22914 Y174.02122
G02 X10.59516 Y173.65519 I0.5 J-0.86603
G1 X11.75708 Y171.64269
X13.05612 Y172.39269
X11.8942 Y174.40519
G02 X12.25464 Y175.76797 I0.86603 J0.5
X61.9301 Y176.76397 I25.72802 J-43.90508
G1 Z-1.46
G02 X61.93435 Y176.7617 I-23.94746 J-44.90112
G1 X63.74408 Y175.78527
G02 X64.13526 Y174.40519 I-0.47484 J-0.88008
G1 X62.97334 Y172.39269
X64.27238 Y171.64269
X65.4343 Y173.65519
G02 X66.80033 Y174.02122 I0.86603 J-0.5
G1 X71.77997 Y171.14622
G02 X72.146 Y169.78019 I-0.5 J-0.86603
G1 X70.05767 Y166.16311
G02 X11.73265 Y158.61983 I-32.04294 J18.5
G1 X11.71899 Y158.63389
G02 X3.85484 Y169.83342 I33.36273 J31.78763
X4.24949 Y171.14622 I0.89465 J0.44677
G1 X9.22914 Y174.02122
G02 X10.59516 Y173.65519 I0.5 J-0.86603
G1 X11.75708 Y171.64269
X13.05612 Y172.39269
X11.8942 Y174.40519
G02 X12.25464 Y175.76797 I0.86603 J0.5
X61.9301 Y176.76397 I25.72802 J-43.90508
G1 Z-1.94667
G02 X61.93435 Y176.7617 I-23.94746 J-44.90112
G1 X63.74408 Y175.78527
G02 X64.13526 Y174.40519 I-0.47484 J-0.88008
G1 X62.97334 Y172.39269
X64.27238 Y171.64269
X65.4343 Y173.65519
G02 X66.80033 Y174.02122 I0.86603 J-0.5
G1 X71.77997 Y171.14622
G02 X72.146 Y169.78019 I-0.5 J-0.86603
G1 X70.05767 Y166.16311
G02 X11.73265 Y158.61983 I-32.04294 J18.5
G1 X11.71899 Y158.63389
G02 X3.85484 Y169.83342 I33.36273 J31.78763
X4.24949 Y171.14622 I0.89465 J0.44677
G1 X9.22914 Y174.02122
G02 X10.59516 Y173.65519 I0.5 J-0.86603
G1 X11.75708 Y171.64269
X13.05612 Y172.39269
X11.8942 Y174.40519
G02 X12.25464 Y175.76797 I0.86603 J0.5
X61.9301 Y176.76397 I25.72802 J-43.90508
G1 Z-2.43333
G02 X61.93435 Y176.7617 I-23.94746 J-44.90112
G1 X63.74408 Y175.78527
G02 X64.13526 Y174.40519 I-0.47484 J-0.88008
G1 X62.97334 Y172.39269
X64.27238 Y171.64269
X65.4343 Y173.65519
G02 X66.80033 Y174.02122 I0.86603 J-0.5
G1 X71.77997 Y171.14622
G02 X72.146 Y169.78019 I-0.5 J-0.86603
G1 X70.05767 Y166.16311
G02 X11.73265 Y158.61983 I-32.04294 J18.5
G1 X11.71899 Y158.63389
G02 X3.85484 Y169.83342 I33.36273 J31.78763
X4.24949 Y171.14622 I0.89465 J0.44677
G1 X9.22914 Y174.02122
G02 X10.59516 Y173.65519 I0.5 J-0.86603
G1 X11.75708 Y171.64269
X13.05612 Y172.39269
X11.8942 Y174.40519
G02 X12.25464 Y175.76797 I0.86603 J0.5
X61.9301 Y176.76397 I25.72802 J-43.90508
G1 Z-2.92
G02 X61.93435 Y176.7617 I-23.94746 J-44.90112
G1 X63.74408 Y175.78527
G02 X64.13526 Y174.40519 I-0.47484 J-0.88008
G1 X62.97334 Y172.39269
X64.27238 Y171.64269
X65.4343 Y173.65519
G02 X66.80033 Y174.02122 I0.86603 J-0.5
G1 X71.77997 Y171.14622
G02 X72.146 Y169.78019 I-0.5 J-0.86603
G1 X70.05767 Y166.16311
G02 X11.73265 Y158.61983 I-32.04294 J18.5
G1 X11.71899 Y158.63389
G02 X3.85484 Y169.83342 I33.36273 J31.78763
X4.24949 Y171.14622 I0.89465 J0.44677
G1 X9.22914 Y174.02122
G02 X10.59516 Y173.65519 I0.5 J-0.86603
G1 X11.75708 Y171.64269
X13.05612 Y172.39269
X11.8942 Y174.40519
G02 X12.25464 Y175.76797 I0.86603 J0.5
X61.9301 Y176.76397 I25.72802 J-43.90508
G1 Z-3.40667
G02 X61.93435 Y176.7617 I-23.94746 J-44.90112
G1 X63.74408 Y175.78527
G02 X64.13526 Y174.40519 I-0.47484 J-0.88008
G1 X62.97334 Y172.39269
X64.27238 Y171.64269
X65.4343 Y173.65519
G02 X66.80033 Y174.02122 I0.86603 J-0.5
G1 X71.77997 Y171.14622
G02 X72.146 Y169.78019 I-0.5 J-0.86603
G1 X70.05767 Y166.16311
G02 X11.73265 Y158.61983 I-32.04294 J18.5
G1 X11.71899 Y158.63389
G02 X3.85484 Y169.83342 I33.36273 J31.78763
X4.24949 Y171.14622 I0.89465 J0.44677
G1 X9.22914 Y174.02122
G02 X10.59516 Y173.65519 I0.5 J-0.86603
G1 X11.75708 Y171.64269
X13.05612 Y172.39269
X11.8942 Y174.40519
G02 X12.25464 Y175.76797 I0.86603 J0.5
X61.9301 Y176.76397 I25.72802 J-43.90508
G1 Z-3.89333
G02 X61.93435 Y176.7617 I-23.94746 J-44.90112
G1 X63.74408 Y175.78527
G02 X64.13526 Y174.40519 I-0.47484 J-0.88008
G1 X62.97334 Y172.39269
X64.27238 Y171.64269
X65.4343 Y173.65519
G02 X66.80033 Y174.02122 I0.86603 J-0.5
G1 X71.77997 Y171.14622
G02 X72.146 Y169.78019 I-0.5 J-0.86603
G1 X70.05767 Y166.16311
G02 X11.73265 Y158.61983 I-32.04294 J18.5
G1 X11.71899 Y158.63389
G02 X3.85484 Y169.83342 I33.36273 J31.78763
X4.24949 Y171.14622 I0.89465 J0.44677
G1 X9.22914 Y174.02122
G02 X10.59516 Y173.65519 I0.5 J-0.86603
G1 X11.75708 Y171.64269
X13.05612 Y172.39269
X11.8942 Y174.40519
G02 X12.25464 Y175.76797 I0.86603 J0.5
X61.9301 Y176.76397 I25.72802 J-43.90508
G1 Z-4.38
G02 X61.93435 Y176.7617 I-23.94746 J-44.90112
G1 X63.74408 Y175.78527
G02 X64.13526 Y174.40519 I-0.47484 J-0.88008
G1 X62.97334 Y172.39269
X64.27238 Y171.64269
X65.4343 Y173.65519
G02 X66.80033 Y174.02122 I0.86603 J-0.5
G1 X71.77997 Y171.14622
G02 X72.146 Y169.78019 I-0.5 J-0.86603
G1 X70.05767 Y166.16311
G02 X11.73265 Y158.61983 I-32.04294 J18.5
G1 X11.71899 Y158.63389
G02 X3.85484 Y169.83342 I33.36273 J31.78763
X4.24949 Y171.14622 I0.89465 J0.44677
G1 X9.22914 Y174.02122
G02 X10.59516 Y173.65519 I0.5 J-0.86603
G1 X11.75708 Y171.64269
X13.05612 Y172.39269
X11.8942 Y174.40519
G02 X12.25464 Y175.76797 I0.86603 J0.5
X61.9301 Y176.76397 I25.72802 J-43.90508
G1 Z-4.86667
G02 X61.93435 Y176.7617 I-23.94746 J-44.90112
G1 X63.74408 Y175.78527
G02 X64.13526 Y174.40519 I-0.47484 J-0.88008
G1 X62.97334 Y172.39269
X64.27238 Y171.64269
X65.4343 Y173.65519
G02 X66.80033 Y174.02122 I0.86603 J-0.5
G1 X71.77997 Y171.14622
G02 X72.146 Y169.78019 I-0.5 J-0.86603
G1 X70.05767 Y166.16311
G02 X11.73265 Y158.61983 I-32.04294 J18.5
G1 X11.71899 Y158.63389
G02 X3.85484 Y169.83342 I33.36273 J31.78763
X4.24949 Y171.14622 I0.89465 J0.44677
G1 X9.22914 Y174.02122
G02 X10.59516 Y173.65519 I0.5 J-0.86603
G1 X11.75708 Y171.64269
X13.05612 Y172.39269
X11.8942 Y174.40519
G02 X12.25464 Y175.76797 I0.86603 J0.5
X61.9301 Y176.76397 I25.72802 J-43.90508
G1 Z-5.35333
X61.93038 Y176.76382
X61.93067 Y176.76367
X61.93095 Y176.76352
X61.93124 Y176.76337
X61.93152 Y176.76321
X61.9318 Y176.76306
X61.93209 Y176.76291
X61.93237 Y176.76276
X61.93265 Y176.76261
X61.93294 Y176.76246
X61.93322 Y176.76231
X61.9335 Y176.76216
X61.93379 Y176.762
G02 X63.95916 Y175.62908 I-27.36048 J-51.29023
X64.13526 Y174.40519 I-0.68992 J-0.72389
G1 X62.97334 Y172.39269
X64.27238 Y171.64269
X65.4343 Y173.65519
G02 X66.80033 Y174.02122 I0.86603 J-0.5
G1 X71.77997 Y171.14622
G02 X72.146 Y169.78019 I-0.5 J-0.86603
X67.87537 Y162.81494 I-55.69324 J29.35553
X58.13992 Y153.61914 I-29.78125 J21.77766
G1 Z-5.3
G02 X52.71509 Y150.71214 I-19.67811 J30.20662
G1 Z-5.35333
G02 X6.5964 Y165.07581 I-14.70734 J33.99835
X3.77176 Y170.07034 I32.91947 J21.91349
X4.24949 Y171.14622 I0.97773 J0.20985
G1 X9.22914 Y174.02122
G02 X10.59516 Y173.65519 I0.5 J-0.86603
G1 X11.75708 Y171.64269
X13.05612 Y172.39269
X11.8942 Y174.40519
G02 X12.25464 Y175.76797 I0.86603 J0.5
X17.47973 Y178.4374 I25.68978 J-43.83622
G1 Z-5.3
G02 X23.23446 Y180.56476 I20.29556 J-46.05445
G1 Z-5.35333
G02 X61.9301 Y176.76397 I14.75214 J-48.68879
G1 Z-5.84
X61.93038 Y176.76382
X61.93067 Y176.76367
X61.93095 Y176.76352
X61.93124 Y176.76337
X61.93152 Y176.76321
X61.9318 Y176.76306
X61.93209 Y176.76291
X61.93237 Y176.76276
X61.93265 Y176.76261
X61.93294 Y176.76246
X61.93322 Y176.76231
X61.9335 Y176.76216
X61.93379 Y176.762
G02 X63.95916 Y175.62908 I-27.36048 J-51.29023
X64.13526 Y174.40519 I-0.68992 J-0.72389
G1 X62.97334 Y172.39269
X64.27238 Y171.64269
X65.4343 Y173.65519
G02 X66.80033 Y174.02122 I0.86603 J-0.5
G1 X71.77997 Y171.14622
G02 X72.146 Y169.78019 I-0.5 J-0.86603
X67.87537 Y162.81494 I-55.69324 J29.35553
X58.13992 Y153.61914 I-29.78125 J21.77766
G1 Z-5.3
G02 X52.71509 Y150.71214 I-19.67811 J30.20662
G1 Z-5.84
G02 X6.5964 Y165.07581 I-14.70734 J33.99835
X3.77176 Y170.07034 I32.91947 J21.91349
X4.24949 Y171.14622 I0.97773 J0.20985
G1 X9.22914 Y174.02122
G02 X10.59516 Y173.65519 I0.5 J-0.86603
G1 X11.75708 Y171.64269
X13.05612 Y172.39269
X11.8942 Y174.40519
G02 X12.25464 Y175.76797 I0.86603 J0.5
X17.47973 Y178.4374 I25.68978 J-43.83622
G1 Z-5.3
G02 X23.23446 Y180.56476 I20.29556 J-46.05445
G1 Z-5.84
G02 X61.9301 Y176.76397 I14.75214 J-48.68879
G1 Z-6.32667
X61.93038 Y176.76382
X61.93067 Y176.76367
X61.93095 Y176.76352
X61.93124 Y176.76337
X61.93152 Y176.76321
X61.9318 Y176.76306
X61.93209 Y176.76291
X61.93237 Y176.76276
X61.93265 Y176.76261
X61.93294 Y176.76246
X61.93322 Y176.76231
X61.9335 Y176.76216
X61.93379 Y176.762
G02 X63.95916 Y175.62908 I-27.36048 J-51.29023
X64.13526 Y174.40519 I-0.68992 J-0.72389
G1 X62.97334 Y172.39269
X64.27238 Y171.64269
X65.4343 Y173.65519
G02 X66.80033 Y174.02122 I0.86603 J-0.5
G1 X71.77997 Y171.14622
G02 X72.146 Y169.78019 I-0.5 J-0.86603
X67.87537 Y162.81494 I-55.69324 J29.35553
X58.13992 Y153.61914 I-29.78125 J21.77766
G1 Z-5.3
G02 X52.71509 Y150.71214 I-19.67811 J30.20662
G1 Z-6.32667
G02 X6.5964 Y165.07581 I-14.70734 J33.99835
X3.77176 Y170.07034 I32.91947 J21.91349
X4.24949 Y171.14622 I0.97773 J0.20985
G1 X9.22914 Y174.02122
G02 X10.59516 Y173.65519 I0.5 J-0.86603
G1 X11.75708 Y171.64269
X13.05612 Y172.39269
X11.8942 Y174.40519
G02 X12.25464 Y175.76797 I0.86603 J0.5
X17.47973 Y178.4374 I25.68978 J-43.83622
G1 Z-5.3
G02 X23.23446 Y180.56476 I20.29556 J-46.05445
G1 Z-6.32667
G02 X61.9301 Y176.76397 I14.75214 J-48.68879
G1 Z-6.81333
X61.93038 Y176.76382
X61.93067 Y176.76367
X61.93095 Y176.76352
X61.93124 Y176.76337
X61.93152 Y176.76321
X61.9318 Y176.76306
X61.93209 Y176.76291
X61.93237 Y176.76276
X61.93265 Y176.76261
X61.93294 Y176.76246
X61.93322 Y176.76231
X61.9335 Y176.76216
X61.93379 Y176.762
G02 X63.95916 Y175.62908 I-27.36048 J-51.29023
X64.13526 Y174.40519 I-0.68992 J-0.72389
G1 X62.97334 Y172.39269
X64.27238 Y171.64269
X65.4343 Y173.65519
G02 X66.80033 Y174.02122 I0.86603 J-0.5
G1 X71.77997 Y171.14622
G02 X72.146 Y169.78019 I-0.5 J-0.86603
X67.87537 Y162.81494 I-55.69324 J29.35553
X58.13992 Y153.61914 I-29.78125 J21.77766
G1 Z-5.3
G02 X52.71509 Y150.71214 I-19.67811 J30.20662
G1 Z-6.81333
G02 X6.5964 Y165.07581 I-14.70734 J33.99835
X3.77176 Y170.07034 I32.91947 J21.91349
X4.24949 Y171.14622 I0.97773 J0.20985
G1 X9.22914 Y174.02122
G02 X10.59516 Y173.65519 I0.5 J-0.86603
G1 X11.75708 Y171.64269
X13.05612 Y172.39269
X11.8942 Y174.40519
G02 X12.25464 Y175.76797 I0.86603 J0.5
X17.47973 Y178.4374 I25.68978 J-43.83622
G1 Z-5.3
G02 X23.23446 Y180.56476 I20.29556 J-46.05445
G1 Z-6.81333
G02 X61.9301 Y176.76397 I14.75214 J-48.68879
G1 Z-7.3
X61.93038 Y176.76382
X61.93067 Y176.76367
X61.93095 Y176.76352
X61.93124 Y176.76337
X61.93152 Y176.76321
X61.9318 Y176.76306
X61.93209 Y176.76291
X61.93237 Y176.76276
X61.93265 Y176.76261
X61.93294 Y176.76246
X61.93322 Y176.76231
X61.9335 Y176.76216
X61.93379 Y176.762
G02 X63.95916 Y175.62908 I-27.36048 J-51.29023
X64.13526 Y174.40519 I-0.68992 J-0.72389
G1 X62.97334 Y172.39269
X64.27238 Y171.64269
X65.4343 Y173.65519
G02 X66.80033 Y174.02122 I0.86603 J-0.5
G1 X71.77997 Y171.14622
G02 X72.146 Y169.78019 I-0.5 J-0.86603
X67.87537 Y162.81494 I-55.69324 J29.35553
X58.13992 Y153.61914 I-29.78125 J21.77766
G1 Z-5.3
G02 X52.71509 Y150.71214 I-19.67811 J30.20662
G1 Z-7.3
G02 X6.5964 Y165.07581 I-14.70734 J33.99835
X3.77176 Y170.07034 I32.91947 J21.91349
X4.24949 Y171.14622 I0.97773 J0.20985
G1 X9.22914 Y174.02122
G02 X10.59516 Y173.65519 I0.5 J-0.86603
G1 X11.75708 Y171.64269
X13.05612 Y172.39269
X11.8942 Y174.40519
G02 X12.25464 Y175.76797 I0.86603 J0.5
X17.47973 Y178.4374 I25.68978 J-43.83622
G1 Z-5.3
G02 X23.23446 Y180.56476 I20.29556 J-46.05445
G1 Z-7.3
G02 X61.9301 Y176.76397 I14.75214 J-48.68879
G0 Z1.
X88.00189 Y214.38266
G1 Z0.78333 F390.
X88.11931 Y214.34122 Z0.76138 F1170.
X89.22233 Y213.92294 Z0.55337
X90.31536 Y213.4792 Z0.34536
X91.39781 Y213.01025 Z0.13735
X92.4691 Y212.51633 Z-0.07065
X93.52865 Y211.99771 Z-0.27866
X94.5759 Y211.45467 Z-0.48667
G02 X94.58016 Y211.4524 I-23.94744 J-44.90108 F1560.
G1 X96.38988 Y210.47597
G02 X96.78107 Y209.0959 I-0.47484 J-0.88007
G1 X95.61914 Y207.08339
X96.91818 Y206.33339
X98.0801 Y208.3459
G02 X99.44613 Y208.71192 I0.86603 J-0.5
G1 X104.42578 Y205.83692
G02 X104.7918 Y204.4709 I-0.5 J-0.86602
G1 X102.70347 Y200.85381
G02 X44.37846 Y193.31053 I-32.04294 J18.5
G1 X44.36479 Y193.32459
G02 X36.50064 Y204.52412 I33.36273 J31.78763
X36.89529 Y205.83692 I0.89465 J0.44678
G1 X41.87494 Y208.71192
G02 X43.24096 Y208.3459 I0.5 J-0.86602
G1 X44.40288 Y206.33339
X45.70192 Y207.08339
X44.54 Y209.0959
G02 X44.90045 Y210.45867 I0.86603 J0.5
X94.5759 Y211.45467 I25.72801 J-43.90508
G1 Z-0.97333
G02 X94.58016 Y211.4524 I-23.94744 J-44.90108
G1 X96.38988 Y210.47597
G02 X96.78107 Y209.0959 I-0.47484 J-0.88007
G1 X95.61914 Y207.08339
X96.91818 Y206.33339
X98.0801 Y208.3459
G02 X99.44613 Y208.71192 I0.86603 J-0.5
G1 X104.42578 Y205.83692
G02 X104.7918 Y204.4709 I-0.5 J-0.86602
G1 X102.70347 Y200.85381
G02 X44.37846 Y193.31053 I-32.04294 J18.5
G1 X44.36479 Y193.32459
G02 X36.50064 Y204.52412 I33.36273 J31.78763
X36.89529 Y205.83692 I0.89465 J0.44678
G1 X41.87494 Y208.71192
G02 X43.24096 Y208.3459 I0.5 J-0.86602
G1 X44.40288 Y206.33339
X45.70192 Y207.08339
X44.54 Y209.0959
G02 X44.90045 Y210.45867 I0.86603 J0.5
X94.5759 Y211.45467 I25.72801 J-43.90508
G1 Z-1.46
G02 X94.58016 Y211.4524 I-23.94744 J-44.90108
G1 X96.38988 Y210.47597
G02 X96.78107 Y209.0959 I-0.47484 J-0.88007
G1 X95.61914 Y207.08339
X96.91818 Y206.33339
X98.0801 Y208.3459
G02 X99.44613 Y208.71192 I0.86603 J-0.5
G1 X104.42578 Y205.83692
G02 X104.7918 Y204.4709 I-0.5 J-0.86602
G1 X102.70347 Y200.85381
G02 X44.37846 Y193.31053 I-32.04294 J18.5
G1 X44.36479 Y193.32459
G02 X36.50064 Y204.52412 I33.36273 J31.78763
X36.89529 Y205.83692 I0.89465 J0.44678
G1 X41.87494 Y208.71192
G02 X43.24096 Y208.3459 I0.5 J-0.86602
G1 X44.40288 Y206.33339
X45.70192 Y207.08339
X44.54 Y209.0959
G02 X44.90045 Y210.45867 I0.86603 J0.5
X94.5759 Y211.45467 I25.72801 J-43.90508
G1 Z-1.94667
G02 X94.58016 Y211.4524 I-23.94744 J-44.90108
G1 X96.38988 Y210.47597
G02 X96.78107 Y209.0959 I-0.47484 J-0.88007
G1 X95.61914 Y207.08339
X96.91818 Y206.33339
X98.0801 Y208.3459
G02 X99.44613 Y208.71192 I0.86603 J-0.5
G1 X104.42578 Y205.83692
G02 X104.7918 Y204.4709 I-0.5 J-0.86602
G1 X102.70347 Y200.85381
G02 X44.37846 Y193.31053 I-32.04294 J18.5
G1 X44.36479 Y193.32459
G02 X36.50064 Y204.52412 I33.36273 J31.78763
X36.89529 Y205.83692 I0.89465 J0.44678
G1 X41.87494 Y208.71192
G02 X43.24096 Y208.3459 I0.5 J-0.86602
G1 X44.40288 Y206.33339
X45.70192 Y207.08339
X44.54 Y209.0959
G02 X44.90045 Y210.45867 I0.86603 J0.5
X94.5759 Y211.45467 I25.72801 J-43.90508
G1 Z-2.43333
G02 X94.58016 Y211.4524 I-23.94744 J-44.90108
G1 X96.38988 Y210.47597
G02 X96.78107 Y209.0959 I-0.47484 J-0.88007
G1 X95.61914 Y207.08339
X96.91818 Y206.33339
X98.0801 Y208.3459
G02 X99.44613 Y208.71192 I0.86603 J-0.5
G1 X104.42578 Y205.83692
G02 X104.7918 Y204.4709 I-0.5 J-0.86602
G1 X102.70347 Y200.85381
G02 X44.37846 Y193.31053 I-32.04294 J18.5
G1 X44.36479 Y193.32459
G02 X36.50064 Y204.52412 I33.36273 J31.78763
X36.89529 Y205.83692 I0.89465 J0.44678
G1 X41.87494 Y208.71192
G02 X43.24096 Y208.3459 I0.5 J-0.86602
G1 X44.40288 Y206.33339
X45.70192 Y207.08339
X44.54 Y209.0959
G02 X44.90045 Y210.45867 I0.86603 J0.5
X94.5759 Y211.45467 I25.72801 J-43.90508
G1 Z-2.92
G02 X94.58016 Y211.4524 I-23.94744 J-44.90108
G1 X96.38988 Y210.47597
G02 X96.78107 Y209.0959 I-0.47484 J-0.88007
G1 X95.61914 Y207.08339
X96.91818 Y206.33339
X98.0801 Y208.3459
G02 X99.44613 Y208.71192 I0.86603 J-0.5
G1 X104.42578 Y205.83692
G02 X104.7918 Y204.4709 I-0.5 J-0.86602
G1 X102.70347 Y200.85381
G02 X44.37846 Y193.31053 I-32.04294 J18.5
G1 X44.36479 Y193.32459
G02 X36.50064 Y204.52412 I33.36273 J31.78763
X36.89529 Y205.83692 I0.89465 J0.44678
G1 X41.87494 Y208.71192
G02 X43.24096 Y208.3459 I0.5 J-0.86602
G1 X44.40288 Y206.33339
X45.70192 Y207.08339
X44.54 Y209.0959
G02 X44.90045 Y210.45867 I0.86603 J0.5
X94.5759 Y211.45467 I25.72801 J-43.90508
G1 Z-3.40667
G02 X94.58016 Y211.4524 I-23.94744 J-44.90108
G1 X96.38988 Y210.47597
G02 X96.78107 Y209.0959 I-0.47484 J-0.88007
G1 X95.61914 Y207.08339
X96.91818 Y206.33339
X98.0801 Y208.3459
G02 X99.44613 Y208.71192 I0.86603 J-0.5
G1 X104.42578 Y205.83692
G02 X104.7918 Y204.4709 I-0.5 J-0.86602
G1 X102.70347 Y200.85381
G02 X44.37846 Y193.31053 I-32.04294 J18.5
G1 X44.36479 Y193.32459
G02 X36.50064 Y204.52412 I33.36273 J31.78763
X36.89529 Y205.83692 I0.89465 J0.44678
G1 X41.87494 Y208.71192
G02 X43.24096 Y208.3459 I0.5 J-0.86602
G1 X44.40288 Y206.33339
X45.70192 Y207.08339
X44.54 Y209.0959
G02 X44.90045 Y210.45867 I0.86603 J0.5
X94.5759 Y211.45467 I25.72801 J-43.90508
G1 Z-3.89333
G02 X94.58016 Y211.4524 I-23.94744 J-44.90108
G1 X96.38988 Y210.47597
G02 X96.78107 Y209.0959 I-0.47484 J-0.88007
G1 X95.61914 Y207.08339
X96.91818 Y206.33339
X98.0801 Y208.3459
G02 X99.44613 Y208.71192 I0.86603 J-0.5
G1 X104.42578 Y205.83692
G02 X104.7918 Y204.4709 I-0.5 J-0.86602
G1 X102.70347 Y200.85381
G02 X44.37846 Y193.31053 I-32.04294 J18.5
G1 X44.36479 Y193.32459
G02 X36.50064 Y204.52412 I33.36273 J31.78763
X36.89529 Y205.83692 I0.89465 J0.44678
G1 X41.87494 Y208.71192
G02 X43.24096 Y208.3459 I0.5 J-0.86602
G1 X44.40288 Y206.33339
X45.70192 Y207.08339
X44.54 Y209.0959
G02 X44.90045 Y210.45867 I0.86603 J0.5
X94.5759 Y211.45467 I25.72801 J-43.90508
G1 Z-4.38
G02 X94.58016 Y211.4524 I-23.94744 J-44.90108
G1 X96.38988 Y210.47597
G02 X96.78107 Y209.0959 I-0.47484 J-0.88007
G1 X95.61914 Y207.08339
X96.91818 Y206.33339
X98.0801 Y208.3459
G02 X99.44613 Y208.71192 I0.86603 J-0.5
G1 X104.42578 Y205.83692
G02 X104.7918 Y204.4709 I-0.5 J-0.86602
G1 X102.70347 Y200.85381
G02 X44.37846 Y193.31053 I-32.04294 J18.5
G1 X44.36479 Y193.32459
G02 X36.50064 Y204.52412 I33.36273 J31.78763
X36.89529 Y205.83692 I0.89465 J0.44678
G1 X41.87494 Y208.71192
G02 X43.24096 Y208.3459 I0.5 J-0.86602
G1 X44.40288 Y206.33339
X45.70192 Y207.08339
X44.54 Y209.0959
G02 X44.90045 Y210.45867 I0.86603 J0.5
X94.5759 Y211.45467 I25.72801 J-43.90508
G1 Z-4.86667
G02 X94.58016 Y211.4524 I-23.94744 J-44.90108
G1 X96.38988 Y210.47597
G02 X96.78107 Y209.0959 I-0.47484 J-0.88007
G1 X95.61914 Y207.08339
X96.91818 Y206.33339
X98.0801 Y208.3459
G02 X99.44613 Y208.71192 I0.86603 J-0.5
G1 X104.42578 Y205.83692
G02 X104.7918 Y204.4709 I-0.5 J-0.86602
G1 X102.70347 Y200.85381
G02 X44.37846 Y193.31053 I-32.04294 J18.5
G1 X44.36479 Y193.32459
G02 X36.50064 Y204.52412 I33.36273 J31.78763
X36.89529 Y205.83692 I0.89465 J0.44678
G1 X41.87494 Y208.71192
G02 X43.24096 Y208.3459 I0.5 J-0.86602
G1 X44.40288 Y206.33339
X45.70192 Y207.08339
X44.54 Y209.0959
G02 X44.90045 Y210.45867 I0.86603 J0.5
X94.5759 Y211.45467 I25.72801 J-43.90508
G1 Z-5.35333
X94.57618 Y211.45452
X94.57647 Y211.45437
X94.57675 Y211.45422
X94.57704 Y211.45407
X94.57732 Y211.45391
X94.5776 Y211.45376
X94.57789 Y211.45361
X94.57817 Y211.45346
X94.57845 Y211.45331
X94.57874 Y211.45316
X94.57902 Y211.45301
X94.5793 Y211.45286
X94.57959 Y211.4527
G02 X96.60497 Y210.31978 I-27.36048 J-51.29023
X96.78107 Y209.0959 I-0.68993 J-0.72388
G1 X95.61914 Y207.08339
X96.91818 Y206.33339
X98.0801 Y208.3459
G02 X99.44613 Y208.71192 I0.86603 J-0.5
G1 X104.42578 Y205.83692
G02 X104.7918 Y204.4709 I-0.5 J-0.86602
X100.52117 Y197.50564 I-55.69324 J29.35552
X90.78572 Y188.30984 I-29.78125 J21.77766
G1 Z-5.3
G02 X85.36089 Y185.40284 I-19.67811 J30.20662
G1 Z-5.35333
G02 X39.2422 Y199.76651 I-14.70734 J33.99835
X36.41756 Y204.76104 I32.91947 J21.91349
X36.89529 Y205.83692 I0.97773 J0.20986
G1 X41.87494 Y208.71192
G02 X43.24096 Y208.3459 I0.5 J-0.86602
G1 X44.40288 Y206.33339
X45.70192 Y207.08339
X44.54 Y209.0959
G02 X44.90045 Y210.45867 I0.86603 J0.5
X50.12553 Y213.1281 I25.68977 J-43.83622
G1 Z-5.3
G02 X55.88026 Y215.25546 I20.29556 J-46.05445
G1 Z-5.35333
G02 X94.5759 Y211.45467 I14.75214 J-48.68879
G1 Z-5.84
X94.57618 Y211.45452
X94.57647 Y211.45437
X94.57675 Y211.45422
X94.57704 Y211.45407
X94.57732 Y211.45391
X94.5776 Y211.45376
X94.57789 Y211.45361
X94.57817 Y211.45346
X94.57845 Y211.45331
X94.57874 Y211.45316
X94.57902 Y211.45301
X94.5793 Y211.45286
X94.57959 Y211.4527
G02 X96.60497 Y210.31978 I-27.36048 J-51.29023
X96.78107 Y209.0959 I-0.68993 J-0.72388
G1 X95.61914 Y207.08339
X96.91818 Y206.33339
X98.0801 Y208.3459
G02 X99.44613 Y208.71192 I0.86603 J-0.5
G1 X104.42578 Y205.83692
G02 X104.7918 Y204.4709 I-0.5 J-0.86602
X100.52117 Y197.50564 I-55.69324 J29.35552
X90.78572 Y188.30984 I-29.78125 J21.77766
G1 Z-5.3
G02 X85.36089 Y185.40284 I-19.67811 J30.20662
G1 Z-5.84
G02 X39.2422 Y199.76651 I-14.70734 J33.99835
X36.41756 Y204.76104 I32.91947 J21.91349
X36.89529 Y205.83692 I0.97773 J0.20986
G1 X41.87494 Y208.71192
G02 X43.24096 Y208.3459 I0.5 J-0.86602
G1 X44.40288 Y206.33339
X45.70192 Y207.08339
X44.54 Y209.0959
G02 X44.90045 Y210.45867 I0.86603 J0.5
X50.12553 Y213.1281 I25.68977 J-43.83622
G1 Z-5.3
G02 X55.88026 Y215.25546 I20.29556 J-46.05445
G1 Z-5.84
G02 X94.5759 Y211.45467 I14.75214 J-48.68879
G1 Z-6.32667
X94.57618 Y211.45452
X94.57647 Y211.45437
X94.57675 Y211.45422
X94.57704 Y211.45407
X94.57732 Y211.45391
X94.5776 Y211.45376
X94.57789 Y211.45361
X94.57817 Y211.45346
X94.57845 Y211.45331
X94.57874 Y211.45316
X94.57902 Y211.45301
X94.5793 Y211.45286
X94.57959 Y211.4527
G02 X96.60497 Y210.31978 I-27.36048 J-51.29023
X96.78107 Y209.0959 I-0.68993 J-0.72388
G1 X95.61914 Y207.08339
X96.91818 Y206.33339
X98.0801 Y208.3459
G02 X99.44613 Y208.71192 I0.86603 J-0.5
G1 X104.42578 Y205.83692
G02 X104.7918 Y204.4709 I-0.5 J-0.86602
X100.52117 Y197.50564 I-55.69324 J29.35552
X90.78572 Y188.30984 I-29.78125 J21.77766
G1 Z-5.3
G02 X85.36089 Y185.40284 I-19.67811 J30.20662
G1 Z-6.32667
G02 X39.2422 Y199.76651 I-14.70734 J33.99835
X36.41756 Y204.76104 I32.91947 J21.91349
X36.89529 Y205.83692 I0.97773 J0.20986
G1 X41.87494 Y208.71192
G02 X43.24096 Y208.3459 I0.5 J-0.86602
G1 X44.40288 Y206.33339
X45.70192 Y207.08339
X44.54 Y209.0959
G02 X44.90045 Y210.45867 I0.86603 J0.5
X50.12553 Y213.1281 I25.68977 J-43.83622
G1 Z-5.3
G02 X55.88026 Y215.25546 I20.29556 J-46.05445
G1 Z-6.32667
G02 X94.5759 Y211.45467 I14.75214 J-48.68879
G1 Z-6.81333
X94.57618 Y211.45452
X94.57647 Y211.45437
X94.57675 Y211.45422
X94.57704 Y211.45407
X94.57732 Y211.45391
X94.5776 Y211.45376
X94.57789 Y211.45361
X94.57817 Y211.45346
X94.57845 Y211.45331
X94.57874 Y211.45316
X94.57902 Y211.45301
X94.5793 Y211.45286
X94.57959 Y211.4527
G02 X96.60497 Y210.31978 I-27.36048 J-51.29023
X96.78107 Y209.0959 I-0.68993 J-0.72388
G1 X95.61914 Y207.08339
X96.91818 Y206.33339
X98.0801 Y208.3459
G02 X99.44613 Y208.71192 I0.86603 J-0.5
G1 X104.42578 Y205.83692
G02 X104.7918 Y204.4709 I-0.5 J-0.86602
X100.52117 Y197.50564 I-55.69324 J29.35552
X90.78572 Y188.30984 I-29.78125 J21.77766
G1 Z-5.3
G02 X85.36089 Y185.40284 I-19.67811 J30.20662
G1 Z-6.81333
G02 X39.2422 Y199.76651 I-14.70734 J33.99835
X36.41756 Y204.76104 I32.91947 J21.91349
X36.89529 Y205.83692 I0.97773 J0.20986
G1 X41.87494 Y208.71192
G02 X43.24096 Y208.3459 I0.5 J-0.86602
G1 X44.40288 Y206.33339
X45.70192 Y207.08339
X44.54 Y209.0959
G02 X44.90045 Y210.45867 I0.86603 J0.5
X50.12553 Y213.1281 I25.68977 J-43.83622
G1 Z-5.3
G02 X55.88026 Y215.25546 I20.29556 J-46.05445
G1 Z-6.81333
G02 X94.5759 Y211.45467 I14.75214 J-48.68879
G1 Z-7.3
X94.57618 Y211.45452
X94.57647 Y211.45437
X94.57675 Y211.45422
X94.57704 Y211.45407
X94.57732 Y211.45391
X94.5776 Y211.45376
X94.57789 Y211.45361
X94.57817 Y211.45346
X94.57845 Y211.45331
X94.57874 Y211.45316
X94.57902 Y211.45301
X94.5793 Y211.45286
X94.57959 Y211.4527
G02 X96.60497 Y210.31978 I-27.36048 J-51.29023
X96.78107 Y209.0959 I-0.68993 J-0.72388
G1 X95.61914 Y207.08339
X96.91818 Y206.33339
X98.0801 Y208.3459
G02 X99.44613 Y208.71192 I0.86603 J-0.5
G1 X104.42578 Y205.83692
G02 X104.7918 Y204.4709 I-0.5 J-0.86602
X100.52117 Y197.50564 I-55.69324 J29.35552
X90.78572 Y188.30984 I-29.78125 J21.77766
G1 Z-5.3
G02 X85.36089 Y185.40284 I-19.67811 J30.20662
G1 Z-7.3
G02 X39.2422 Y199.76651 I-14.70734 J33.99835
X36.41756 Y204.76104 I32.91947 J21.91349
X36.89529 Y205.83692 I0.97773 J0.20986
G1 X41.87494 Y208.71192
G02 X43.24096 Y208.3459 I0.5 J-0.86602
G1 X44.40288 Y206.33339
X45.70192 Y207.08339
X44.54 Y209.0959
G02 X44.90045 Y210.45867 I0.86603 J0.5
X50.12553 Y213.1281 I25.68977 J-43.83622
G1 Z-5.3
G02 X55.88026 Y215.25546 I20.29556 J-46.05445
G1 Z-7.3
G02 X94.5759 Y211.45467 I14.75214 J-48.68879
G0 Z1.
X127.92129 Y179.69196
G1 Z0.78333 F390.
X128.03871 Y179.65052 Z0.76138 F1170.
X129.14173 Y179.23224 Z0.55337
X130.23476 Y178.7885 Z0.34536
X131.31721 Y178.31955 Z0.13735
X132.3885 Y177.82563 Z-0.07065
X133.44805 Y177.30701 Z-0.27866
X134.4953 Y176.76397 Z-0.48667
G02 X134.49956 Y176.7617 I-23.94744 J-44.90109 F1560.
G1 X136.30928 Y175.78527
G02 X136.70046 Y174.40519 I-0.47484 J-0.88008
G1 X135.53854 Y172.39269
X136.83758 Y171.64269
X137.9995 Y173.65519
G02 X139.36553 Y174.02122 I0.86603 J-0.5
G1 X144.34518 Y171.14622
G02 X144.7112 Y169.78019 I-0.5 J-0.86603
G1 X142.62287 Y166.16311
G02 X84.29785 Y158.61983 I-32.04294 J18.5
G1 X84.28419 Y158.63389
G02 X76.42004 Y169.83342 I33.36273 J31.78763
X76.81469 Y171.14622 I0.89465 J0.44677
G1 X81.79434 Y174.02122
G02 X83.16036 Y173.65519 I0.5 J-0.86603
G1 X84.32228 Y171.64269
X85.62132 Y172.39269
X84.4594 Y174.40519
G02 X84.81984 Y175.76797 I0.86603 J0.5
X134.4953 Y176.76397 I25.72802 J-43.90508
G1 Z-0.97333
G02 X134.49956 Y176.7617 I-23.94744 J-44.90109
G1 X136.30928 Y175.78527
G02 X136.70046 Y174.40519 I-0.47484 J-0.88008
G1 X135.53854 Y172.39269
X136.83758 Y171.64269
X137.9995 Y173.65519
G02 X139.36553 Y174.02122 I0.86603 J-0.5
G1 X144.34518 Y171.14622
G02 X144.7112 Y169.78019 I-0.5 J-0.86603
G1 X142.62287 Y166.16311
G02 X84.29785 Y158.61983 I-32.04294 J18.5
G1 X84.28419 Y158.63389
G02 X76.42004 Y169.83342 I33.36273 J31.78763
X76.81469 Y171.14622 I0.89465 J0.44677
G1 X81.79434 Y174.02122
G02 X83.16036 Y173.65519 I0.5 J-0.86603
G1 X84.32228 Y171.64269
X85.62132 Y172.39269
X84.4594 Y174.40519
G02 X84.81984 Y175.76797 I0.86603 J0.5
X134.4953 Y176.76397 I25.72802 J-43.90508
G1 Z-1.46
G02 X134.49956 Y176.7617 I-23.94744 J-44.90109
G1 X136.30928 Y175.78527
G02 X136.70046 Y174.40519 I-0.47484 J-0.88008
G1 X135.53854 Y172.39269
X136.83758 Y171.64269
X137.9995 Y173.65519
G02 X139.36553 Y174.02122 I0.86603 J-0.5
G1 X144.34518 Y171.14622
G02 X144.7112 Y169.78019 I-0.5 J-0.86603
G1 X142.62287 Y166.16311
G02 X84.29785 Y158.61983 I-32.04294 J18.5
G1 X84.28419 Y158.63389
G02 X76.42004 Y169.83342 I33.36273 J31.78763
X76.81469 Y171.14622 I0.89465 J0.44677
G1 X81.79434 Y174.02122
G02 X83.16036 Y173.65519 I0.5 J-0.86603
G1 X84.32228 Y171.64269
X85.62132 Y172.39269
X84.4594 Y174.40519
G02 X84.81984 Y175.76797 I0.86603 J0.5
X134.4953 Y176.76397 I25.72802 J-43.90508
G1 Z-1.94667
G02 X134.49956 Y176.7617 I-23.94744 J-44.90109
G1 X136.30928 Y175.78527
G02 X136.70046 Y174.40519 I-0.47484 J-0.88008
G1 X135.53854 Y172.39269
X136.83758 Y171.64269
X137.9995 Y173.65519
G02 X139.36553 Y174.02122 I0.86603 J-0.5
G1 X144.34518 Y171.14622
G02 X144.7112 Y169.78019 I-0.5 J-0.86603
G1 X142.62287 Y166.16311
G02 X84.29785 Y158.61983 I-32.04294 J18.5
G1 X84.28419 Y158.63389
G02 X76.42004 Y169.83342 I33.36273 J31.78763
X76.81469 Y171.14622 I0.89465 J0.44677
G1 X81.79434 Y174.02122
G02 X83.16036 Y173.65519 I0.5 J-0.86603
G1 X84.32228 Y171.64269
X85.62132 Y172.39269
X84.4594 Y174.40519
G02 X84.81984 Y175.76797 I0.86603 J0.5
X134.4953 Y176.76397 I25.72802 J-43.90508
G1 Z-2.43333
G02 X134.49956 Y176.7617 I-23.94744 J-44.90109
G1 X136.30928 Y175.78527
G02 X136.70046 Y174.40519 I-0.47484 J-0.88008
G1 X135.53854 Y172.39269
X136.83758 Y171.64269
X137.9995 Y173.65519
G02 X139.36553 Y174.02122 I0.86603 J-0.5
G1 X144.34518 Y171.14622
G02 X144.7112 Y169.78019 I-0.5 J-0.86603
G1 X142.62287 Y166.16311
G02 X84.29785 Y158.61983 I-32.04294 J18.5
G1 X84.28419 Y158.63389
G02 X76.42004 Y169.83342 I33.36273 J31.78763
X76.81469 Y171.14622 I0.89465 J0.44677
G1 X81.79434 Y174.02122
G02 X83.16036 Y173.65519 I0.5 J-0.86603
G1 X84.32228 Y171.64269
X85.62132 Y172.39269
X84.4594 Y174.40519
G02 X84.81984 Y175.76797 I0.86603 J0.5
X134.4953 Y176.76397 I25.72802 J-43.90508
G1 Z-2.92
G02 X134.49956 Y176.7617 I-23.94744 J-44.90109
G1 X136.30928 Y175.78527
G02 X136.70046 Y174.40519 I-0.47484 J-0.88008
G1 X135.53854 Y172.39269
X136.83758 Y171.64269
X137.9995 Y173.65519
G02 X139.36553 Y174.02122 I0.86603 J-0.5
G1 X144.34518 Y171.14622
G02 X144.7112 Y169.78019 I-0.5 J-0.86603
G1 X142.62287 Y166.16311
G02 X84.29785 Y158.61983 I-32.04294 J18.5
G1 X84.28419 Y158.63389
G02 X76.42004 Y169.83342 I33.36273 J31.78763
X76.81469 Y171.14622 I0.89465 J0.44677
G1 X81.79434 Y174.02122
G02 X83.16036 Y173.65519 I0.5 J-0.86603
G1 X84.32228 Y171.64269
X85.62132 Y172.39269
X84.4594 Y174.40519
G02 X84.81984 Y175.76797 I0.86603 J0.5
X134.4953 Y176.76397 I25.72802 J-43.90508
G1 Z-3.40667
G02 X134.49956 Y176.7617 I-23.94744 J-44.90109
G1 X136.30928 Y175.78527
G02 X136.70046 Y174.40519 I-0.47484 J-0.88008
G1 X135.53854 Y172.39269
X136.83758 Y171.64269
X137.9995 Y173.65519
G02 X139.36553 Y174.02122 I0.86603 J-0.5
G1 X144.34518 Y171.14622
G02 X144.7112 Y169.78019 I-0.5 J-0.86603
G1 X142.62287 Y166.16311
G02 X84.29785 Y158.61983 I-32.04294 J18.5
G1 X84.28419 Y158.63389
G02 X76.42004 Y169.83342 I33.36273 J31.78763
X76.81469 Y171.14622 I0.89465 J0.44677
G1 X81.79434 Y174.02122
G02 X83.16036 Y173.65519 I0.5 J-0.86603
G1 X84.32228 Y171.64269
X85.62132 Y172.39269
X84.4594 Y174.40519
G02 X84.81984 Y175.76797 I0.86603 J0.5
X134.4953 Y176.76397 I25.72802 J-43.90508
G1 Z-3.89333
G02 X134.49956 Y176.7617 I-23.94744 J-44.90109
G1 X136.30928 Y175.78527
G02 X136.70046 Y174.40519 I-0.47484 J-0.88008
G1 X135.53854 Y172.39269
X136.83758 Y171.64269
X137.9995 Y173.65519
G02 X139.36553 Y174.02122 I0.86603 J-0.5
G1 X144.34518 Y171.14622
G02 X144.7112 Y169.78019 I-0.5 J-0.86603
G1 X142.62287 Y166.16311
G02 X84.29785 Y158.61983 I-32.04294 J18.5
G1 X84.28419 Y158.63389
G02 X76.42004 Y169.83342 I33.36273 J31.78763
X76.81469 Y171.14622 I0.89465 J0.44677
G1 X81.79434 Y174.02122
G02 X83.16036 Y173.65519 I0.5 J-0.86603
G1 X84.32228 Y171.64269
X85.62132 Y172.39269
X84.4594 Y174.40519
G02 X84.81984 Y175.76797 I0.86603 J0.5
X134.4953 Y176.76397 I25.72802 J-43.90508
G1 Z-4.38
G02 X134.49956 Y176.7617 I-23.94744 J-44.90109
G1 X136.30928 Y175.78527
G02 X136.70046 Y174.40519 I-0.47484 J-0.88008
G1 X135.53854 Y172.39269
X136.83758 Y171.64269
X137.9995 Y173.65519
G02 X139.36553 Y174.02122 I0.86603 J-0.5
G1 X144.34518 Y171.14622
G02 X144.7112 Y169.78019 I-0.5 J-0.86603
G1 X142.62287 Y166.16311
G02 X84.29785 Y158.61983 I-32.04294 J18.5
G1 X84.28419 Y158.63389
G02 X76.42004 Y169.83342 I33.36273 J31.78763
X76.81469 Y171.14622 I0.89465 J0.44677
G1 X81.79434 Y174.02122
G02 X83.16036 Y173.65519 I0.5 J-0.86603
G1 X84.32228 Y171.64269
X85.62132 Y172.39269
X84.4594 Y174.40519
G02 X84.81984 Y175.76797 I0.86603 J0.5
X134.4953 Y176.76397 I25.72802 J-43.90508
G1 Z-4.86667
G02 X134.49956 Y176.7617 I-23.94744 J-44.90109
G1 X136.30928 Y175.78527
G02 X136.70046 Y174.40519 I-0.47484 J-0.88008
G1 X135.53854 Y172.39269
X136.83758 Y171.64269
X137.9995 Y173.65519
G02 X139.36553 Y174.02122 I0.86603 J-0.5
G1 X144.34518 Y171.14622
G02 X144.7112 Y169.78019 I-0.5 J-0.86603
G1 X142.62287 Y166.16311
G02 X84.29785 Y158.61983 I-32.04294 J18.5
G1 X84.28419 Y158.63389
G02 X76.42004 Y169.83342 I33.36273 J31.78763
X76.81469 Y171.14622 I0.89465 J0.44677
G1 X81.79434 Y174.02122
G02 X83.16036 Y173.65519 I0.5 J-0.86603
G1 X84.32228 Y171.64269
X85.62132 Y172.39269
X84.4594 Y174.40519
G02 X84.81984 Y175.76797 I0.86603 J0.5
X134.4953 Y176.76397 I25.72802 J-43.90508
G1 Z-5.35333
X134.49558 Y176.76382
X134.49587 Y176.76367
X134.49615 Y176.76352
X134.49643 Y176.76337
X134.49672 Y176.76321
X134.497 Y176.76306
X134.49729 Y176.76291
X134.49757 Y176.76276
X134.49785 Y176.76261
X134.49814 Y176.76246
X134.49842 Y176.76231
X134.4987 Y176.76216
X134.49899 Y176.762
G02 X136.52436 Y175.62908 I-27.36048 J-51.29023
X136.70046 Y174.40519 I-0.68992 J-0.72389
G1 X135.53854 Y172.39269
X136.83758 Y171.64269
X137.9995 Y173.65519
G02 X139.36553 Y174.02122 I0.86603 J-0.5
G1 X144.34518 Y171.14622
G02 X144.7112 Y169.78019 I-0.5 J-0.86603
X140.44057 Y162.81494 I-55.69324 J29.35553
X130.70512 Y153.61914 I-29.78125 J21.77766
G1 Z-5.3
G02 X125.28029 Y150.71214 I-19.67811 J30.20662
G1 Z-5.35333
G02 X79.1616 Y165.07581 I-14.70734 J33.99835
X76.33696 Y170.07034 I32.91947 J21.91349
X76.81469 Y171.14622 I0.97773 J0.20985
G1 X81.79434 Y174.02122
G02 X83.16036 Y173.65519 I0.5 J-0.86603
G1 X84.32228 Y171.64269
X85.62132 Y172.39269
X84.4594 Y174.40519
G02 X84.81984 Y175.76797 I0.86603 J0.5
X90.04493 Y178.4374 I25.68978 J-43.83622
G1 Z-5.3
G02 X95.79966 Y180.56476 I20.29556 J-46.05445
G1 Z-5.35333
G02 X134.4953 Y176.76397 I14.75214 J-48.68879
G1 Z-5.84
X134.49558 Y176.76382
X134.49587 Y176.76367
X134.49615 Y176.76352
X134.49643 Y176.76337
X134.49672 Y176.76321
X134.497 Y176.76306
X134.49729 Y176.76291
X134.49757 Y176.76276
X134.49785 Y176.76261
X134.49814 Y176.76246
X134.49842 Y176.76231
X134.4987 Y176.76216
X134.49899 Y176.762
G02 X136.52436 Y175.62908 I-27.36048 J-51.29023
X136.70046 Y174.40519 I-0.68992 J-0.72389
G1 X135.53854 Y172.39269
X136.83758 Y171.64269
X137.9995 Y173.65519
G02 X139.36553 Y174.02122 I0.86603 J-0.5
G1 X144.34518 Y171.14622
G02 X144.7112 Y169.78019 I-0.5 J-0.86603
X140.44057 Y162.81494 I-55.69324 J29.35553
X130.70512 Y153.61914 I-29.78125 J21.77766
G1 Z-5.3
G02 X125.28029 Y150.71214 I-19.67811 J30.20662
G1 Z-5.84
G02 X79.1616 Y165.07581 I-14.70734 J33.99835
X76.33696 Y170.07034 I32.91947 J21.91349
X76.81469 Y171.14622 I0.97773 J0.20985
G1 X81.79434 Y174.02122
G02 X83.16036 Y173.65519 I0.5 J-0.86603
G1 X84.32228 Y171.64269
X85.62132 Y172.39269
X84.4594 Y174.40519
G02 X84.81984 Y175.76797 I0.86603 J0.5
X90.04493 Y178.4374 I25.68978 J-43.83622
G1 Z-5.3
G02 X95.79966 Y180.56476 I20.29556 J-46.05445
G1 Z-5.84
G02 X134.4953 Y176.76397 I14.75214 J-48.68879
G1 Z-6.32667
X134.49558 Y176.76382
X134.49587 Y176.76367
X134.49615 Y176.76352
X134.49643 Y176.76337
X134.49672 Y176.76321
X134.497 Y176.76306
X134.49729 Y176.76291
X134.49757 Y176.76276
X134.49785 Y176.76261
X134.49814 Y176.76246
X134.49842 Y176.76231
X134.4987 Y176.76216
X134.49899 Y176.762
G02 X136.52436 Y175.62908 I-27.36048 J-51.29023
X136.70046 Y174.40519 I-0.68992 J-0.72389
G1 X135.53854 Y172.39269
X136.83758 Y171.64269
X137.9995 Y173.65519
G02 X139.36553 Y174.02122 I0.86603 J-0.5
G1 X144.34518 Y171.14622
G02 X144.7112 Y169.78019 I-0.5 J-0.86603
X140.44057 Y162.81494 I-55.69324 J29.35553
X130.70512 Y153.61914 I-29.78125 J21.77766
G1 Z-5.3
G02 X125.28029 Y150.71214 I-19.67811 J30.20662
G1 Z-6.32667
G02 X79.1616 Y165.07581 I-14.70734 J33.99835
X76.33696 Y170.07034 I32.91947 J21.91349
X76.81469 Y171.14622 I0.97773 J0.20985
G1 X81.79434 Y174.02122
G02 X83.16036 Y173.65519 I0.5 J-0.86603
G1 X84.32228 Y171.64269
X85.62132 Y172.39269
X84.4594 Y174.40519
G02 X84.81984 Y175.76797 I0.86603 J0.5
X90.04493 Y178.4374 I25.68978 J-43.83622
G1 Z-5.3
G02 X95.79966 Y180.56476 I20.29556 J-46.05445
G1 Z-6.32667
G02 X134.4953 Y176.76397 I14.75214 J-48.68879
G1 Z-6.81333
X134.49558 Y176.76382
X134.49587 Y176.76367
X134.49615 Y176.76352
X134.49643 Y176.76337
X134.49672 Y176.76321
X134.497 Y176.76306
X134.49729 Y176.76291
X134.49757 Y176.76276
X134.49785 Y176.76261
X134.49814 Y176.76246
X134.49842 Y176.76231
X134.4987 Y176.76216
X134.49899 Y176.762
G02 X136.52436 Y175.62908 I-27.36048 J-51.29023
X136.70046 Y174.40519 I-0.68992 J-0.72389
G1 X135.53854 Y172.39269
X136.83758 Y171.64269
X137.9995 Y173.65519
G02 X139.36553 Y174.02122 I0.86603 J-0.5
G1 X144.34518 Y171.14622
G02 X144.7112 Y169.78019 I-0.5 J-0.86603
X140.44057 Y162.81494 I-55.69324 J29.35553
X130.70512 Y153.61914 I-29.78125 J21.77766
G1 Z-5.3
G02 X125.28029 Y150.71214 I-19.67811 J30.20662
G1 Z-6.81333
G02 X79.1616 Y165.07581 I-14.70734 J33.99835
X76.33696 Y170.07034 I32.91947 J21.91349
X76.81469 Y171.14622 I0.97773 J0.20985
G1 X81.79434 Y174.02122
G02 X83.16036 Y173.65519 I0.5 J-0.86603
G1 X84.32228 Y171.64269
X85.62132 Y172.39269
X84.4594 Y174.40519
G02 X84.81984 Y175.76797 I0.86603 J0.5
X90.04493 Y178.4374 I25.68978 J-43.83622
G1 Z-5.3
G02 X95.79966 Y180.56476 I20.29556 J-46.05445
G1 Z-6.81333
G02 X134.4953 Y176.76397 I14.75214 J-48.68879
G1 Z-7.3
X134.49558 Y176.76382
X134.49587 Y176.76367
X134.49615 Y176.76352
X134.49643 Y176.76337
X134.49672 Y176.76321
X134.497 Y176.76306
X134.49729 Y176.76291
X134.49757 Y176.76276
X134.49785 Y176.76261
X134.49814 Y176.76246
X134.49842 Y176.76231
X134.4987 Y176.76216
X134.49899 Y176.762
G02 X136.52436 Y175.62908 I-27.36048 J-51.29023
X136.70046 Y174.40519 I-0.68992 J-0.72389
G1 X135.53854 Y172.39269
X136.83758 Y171.64269
X137.9995 Y173.65519
G02 X139.36553 Y174.02122 I0.86603 J-0.5
G1 X144.34518 Y171.14622
G02 X144.7112 Y169.78019 I-0.5 J-0.86603
X140.44057 Y162.81494 I-55.69324 J29.35553
X130.70512 Y153.61914 I-29.78125 J21.77766
G1 Z-5.3
G02 X125.28029 Y150.71214 I-19.67811 J30.20662
G1 Z-7.3
G02 X79.1616 Y165.07581 I-14.70734 J33.99835
X76.33696 Y170.07034 I32.91947 J21.91349
X76.81469 Y171.14622 I0.97773 J0.20985
G1 X81.79434 Y174.02122
G02 X83.16036 Y173.65519 I0.5 J-0.86603
G1 X84.32228 Y171.64269
X85.62132 Y172.39269
X84.4594 Y174.40519
G02 X84.81984 Y175.76797 I0.86603 J0.5
X90.04493 Y178.4374 I25.68978 J-43.83622
G1 Z-5.3
G02 X95.79966 Y180.56476 I20.29556 J-46.05445
G1 Z-7.3
G02 X134.4953 Y176.76397 I14.75214 J-48.68879
G0 Z1.
X160.56709 Y214.38266
G1 Z0.78333 F390.
X160.68451 Y214.34122 Z0.76138 F1170.
X161.78753 Y213.92294 Z0.55337
X162.88056 Y213.4792 Z0.34536
X163.96301 Y213.01025 Z0.13735
X165.0343 Y212.51633 Z-0.07065
X166.09385 Y211.99771 Z-0.27866
X167.1411 Y211.45467 Z-0.48667
G02 X167.14536 Y211.4524 I-23.94744 J-44.90109 F1560.
G1 X168.95508 Y210.47597
G02 X169.34627 Y209.0959 I-0.47484 J-0.88007
G1 X168.18435 Y207.08339
X169.48338 Y206.33339
X170.6453 Y208.3459
G02 X172.01133 Y208.71192 I0.86603 J-0.5
G1 X176.99098 Y205.83692
G02 X177.357 Y204.4709 I-0.5 J-0.86602
G1 X175.26867 Y200.85381
G02 X116.94366 Y193.31053 I-32.04294 J18.5
G1 X116.92999 Y193.32459
G02 X109.06585 Y204.52412 I33.36273 J31.78763
X109.46049 Y205.83692 I0.89464 J0.44678
G1 X114.44014 Y208.71192
G02 X115.80616 Y208.3459 I0.5 J-0.86602
G1 X116.96808 Y206.33339
X118.26712 Y207.08339
X117.1052 Y209.0959
G02 X117.46565 Y210.45867 I0.86603 J0.5
X167.1411 Y211.45467 I25.72801 J-43.90508
G1 Z-0.97333
G02 X167.14536 Y211.4524 I-23.94744 J-44.90109
G1 X168.95508 Y210.47597
G02 X169.34627 Y209.0959 I-0.47484 J-0.88007
G1 X168.18435 Y207.08339
X169.48338 Y206.33339
X170.6453 Y208.3459
G02 X172.01133 Y208.71192 I0.86603 J-0.5
G1 X176.99098 Y205.83692
G02 X177.357 Y204.4709 I-0.5 J-0.86602
G1 X175.26867 Y200.85381
G02 X116.94366 Y193.31053 I-32.04294 J18.5
G1 X116.92999 Y193.32459
G02 X109.06585 Y204.52412 I33.36273 J31.78763
X109.46049 Y205.83692 I0.89464 J0.44678
G1 X114.44014 Y208.71192
G02 X115.80616 Y208.3459 I0.5 J-0.86602
G1 X116.96808 Y206.33339
X118.26712 Y207.08339
X117.1052 Y209.0959
G02 X117.46565 Y210.45867 I0.86603 J0.5
X167.1411 Y211.45467 I25.72801 J-43.90508
G1 Z-1.46
G02 X167.14536 Y211.4524 I-23.94744 J-44.90109
G1 X168.95508 Y210.47597
G02 X169.34627 Y209.0959 I-0.47484 J-0.88007
G1 X168.18435 Y207.08339
X169.48338 Y206.33339
X170.6453 Y208.3459
G02 X172.01133 Y208.71192 I0.86603 J-0.5
G1 X176.99098 Y205.83692
G02 X177.357 Y204.4709 I-0.5 J-0.86602
G1 X175.26867 Y200.85381
G02 X116.94366 Y193.31053 I-32.04294 J18.5
G1 X116.92999 Y193.32459
G02 X109.06585 Y204.52412 I33.36273 J31.78763
X109.46049 Y205.83692 I0.89464 J0.44678
G1 X114.44014 Y208.71192
G02 X115.80616 Y208.3459 I0.5 J-0.86602
G1 X116.96808 Y206.33339
X118.26712 Y207.08339
X117.1052 Y209.0959
G02 X117.46565 Y210.45867 I0.86603 J0.5
X167.1411 Y211.45467 I25.72801 J-43.90508
G1 Z-1.94667
G02 X167.14536 Y211.4524 I-23.94744 J-44.90109
G1 X168.95508 Y210.47597
G02 X169.34627 Y209.0959 I-0.47484 J-0.88007
G1 X168.18435 Y207.08339
X169.48338 Y206.33339
X170.6453 Y208.3459
G02 X172.01133 Y208.71192 I0.86603 J-0.5
G1 X176.99098 Y205.83692
G02 X177.357 Y204.4709 I-0.5 J-0.86602
G1 X175.26867 Y200.85381
G02 X116.94366 Y193.31053 I-32.04294 J18.5
G1 X116.92999 Y193.32459
G02 X109.06585 Y204.52412 I33.36273 J31.78763
X109.46049 Y205.83692 I0.89464 J0.44678
G1 X114.44014 Y208.71192
G02 X115.80616 Y208.3459 I0.5 J-0.86602
G1 X116.96808 Y206.33339
X118.26712 Y207.08339
X117.1052 Y209.0959
G02 X117.46565 Y210.45867 I0.86603 J0.5
X167.1411 Y211.45467 I25.72801 J-43.90508
G1 Z-2.43333
G02 X167.14536 Y211.4524 I-23.94744 J-44.90109
G1 X168.95508 Y210.47597
G02 X169.34627 Y209.0959 I-0.47484 J-0.88007
G1 X168.18435 Y207.08339
X169.48338 Y206.33339
X170.6453 Y208.3459
G02 X172.01133 Y208.71192 I0.86603 J-0.5
G1 X176.99098 Y205.83692
G02 X177.357 Y204.4709 I-0.5 J-0.86602
G1 X175.26867 Y200.85381
G02 X116.94366 Y193.31053 I-32.04294 J18.5
G1 X116.92999 Y193.32459
G02 X109.06585 Y204.52412 I33.36273 J31.78763
X109.46049 Y205.83692 I0.89464 J0.44678
G1 X114.44014 Y208.71192
G02 X115.80616 Y208.3459 I0.5 J-0.86602
G1 X116.96808 Y206.33339
X118.26712 Y207.08339
X117.1052 Y209.0959
G02 X117.46565 Y210.45867 I0.86603 J0.5
X167.1411 Y211.45467 I25.72801 J-43.90508
G1 Z-2.92
G02 X167.14536 Y211.4524 I-23.94744 J-44.90109
G1 X168.95508 Y210.47597
G02 X169.34627 Y209.0959 I-0.47484 J-0.88007
G1 X168.18435 Y207.08339
X169.48338 Y206.33339
X170.6453 Y208.3459
G02 X172.01133 Y208.71192 I0.86603 J-0.5
G1 X176.99098 Y205.83692
G02 X177.357 Y204.4709 I-0.5 J-0.86602
G1 X175.26867 Y200.85381
G02 X116.94366 Y193.31053 I-32.04294 J18.5
G1 X116.92999 Y193.32459
G02 X109.06585 Y204.52412 I33.36273 J31.78763
X109.46049 Y205.83692 I0.89464 J0.44678
G1 X114.44014 Y208.71192
G02 X115.80616 Y208.3459 I0.5 J-0.86602
G1 X116.96808 Y206.33339
X118.26712 Y207.08339
X117.1052 Y209.0959
G02 X117.46565 Y210.45867 I0.86603 J0.5
X167.1411 Y211.45467 I25.72801 J-43.90508
G1 Z-3.40667
G02 X167.14536 Y211.4524 I-23.94744 J-44.90109
G1 X168.95508 Y210.47597
G02 X169.34627 Y209.0959 I-0.47484 J-0.88007
G1 X168.18435 Y207.08339
X169.48338 Y206.33339
X170.6453 Y208.3459
G02 X172.01133 Y208.71192 I0.86603 J-0.5
G1 X176.99098 Y205.83692
G02 X177.357 Y204.4709 I-0.5 J-0.86602
G1 X175.26867 Y200.85381
G02 X116.94366 Y193.31053 I-32.04294 J18.5
G1 X116.92999 Y193.32459
G02 X109.06585 Y204.52412 I33.36273 J31.78763
X109.46049 Y205.83692 I0.89464 J0.44678
G1 X114.44014 Y208.71192
G02 X115.80616 Y208.3459 I0.5 J-0.86602
G1 X116.96808 Y206.33339
X118.26712 Y207.08339
X117.1052 Y209.0959
G02 X117.46565 Y210.45867 I0.86603 J0.5
X167.1411 Y211.45467 I25.72801 J-43.90508
G1 Z-3.89333
G02 X167.14536 Y211.4524 I-23.94744 J-44.90109
G1 X168.95508 Y210.47597
G02 X169.34627 Y209.0959 I-0.47484 J-0.88007
G1 X168.18435 Y207.08339
X169.48338 Y206.33339
X170.6453 Y208.3459
G02 X172.01133 Y208.71192 I0.86603 J-0.5
G1 X176.99098 Y205.83692
G02 X177.357 Y204.4709 I-0.5 J-0.86602
G1 X175.26867 Y200.85381
G02 X116.94366 Y193.31053 I-32.04294 J18.5
G1 X116.92999 Y193.32459
G02 X109.06585 Y204.52412 I33.36273 J31.78763
X109.46049 Y205.83692 I0.89464 J0.44678
G1 X114.44014 Y208.71192
G02 X115.80616 Y208.3459 I0.5 J-0.86602
G1 X116.96808 Y206.33339
X118.26712 Y207.08339
X117.1052 Y209.0959
G02 X117.46565 Y210.45867 I0.86603 J0.5
X167.1411 Y211.45467 I25.72801 J-43.90508
G1 Z-4.38
G02 X167.14536 Y211.4524 I-23.94744 J-44.90109
G1 X168.95508 Y210.47597
G02 X169.34627 Y209.0959 I-0.47484 J-0.88007
G1 X168.18435 Y207.08339
X169.48338 Y206.33339
X170.6453 Y208.3459
G02 X172.01133 Y208.71192 I0.86603 J-0.5
G1 X176.99098 Y205.83692
G02 X177.357 Y204.4709 I-0.5 J-0.86602
G1 X175.26867 Y200.85381
G02 X116.94366 Y193.31053 I-32.04294 J18.5
G1 X116.92999 Y193.32459
G02 X109.06585 Y204.52412 I33.36273 J31.78763
X109.46049 Y205.83692 I0.89464 J0.44678
G1 X114.44014 Y208.71192
G02 X115.80616 Y208.3459 I0.5 J-0.86602
G1 X116.96808 Y206.33339
X118.26712 Y207.08339
X117.1052 Y209.0959
G02 X117.46565 Y210.45867 I0.86603 J0.5
X167.1411 Y211.45467 I25.72801 J-43.90508
G1 Z-4.86667
G02 X167.14536 Y211.4524 I-23.94744 J-44.90109
G1 X168.95508 Y210.47597
G02 X169.34627 Y209.0959 I-0.47484 J-0.88007
G1 X168.18435 Y207.08339
X169.48338 Y206.33339
X170.6453 Y208.3459
G02 X172.01133 Y208.71192 I0.86603 J-0.5
G1 X176.99098 Y205.83692
G02 X177.357 Y204.4709 I-0.5 J-0.86602
G1 X175.26867 Y200.85381
G02 X116.94366 Y193.31053 I-32.04294 J18.5
G1 X116.92999 Y193.32459
G02 X109.06585 Y204.52412 I33.36273 J31.78763
X109.46049 Y205.83692 I0.89464 J0.44678
G1 X114.44014 Y208.71192
G02 X115.80616 Y208.3459 I0.5 J-0.86602
G1 X116.96808 Y206.33339
X118.26712 Y207.08339
X117.1052 Y209.0959
G02 X117.46565 Y210.45867 I0.86603 J0.5
X167.1411 Y211.45467 I25.72801 J-43.90508
G1 Z-5.35333
X167.14139 Y211.45452
X167.14167 Y211.45437
X167.14195 Y211.45422
X167.14224 Y211.45407
X167.14252 Y211.45391
X167.1428 Y211.45376
X167.14309 Y211.45361
X167.14337 Y211.45346
X167.14365 Y211.45331
X167.14394 Y211.45316
X167.14422 Y211.45301
X167.14451 Y211.45286
X167.14479 Y211.4527
G02 X169.17017 Y210.31978 I-27.36048 J-51.29023
X169.34627 Y209.0959 I-0.68993 J-0.72388
G1 X168.18435 Y207.08339
X169.48338 Y206.33339
X170.6453 Y208.3459
G02 X172.01133 Y208.71192 I0.86603 J-0.5
G1 X176.99098 Y205.83692
G02 X177.357 Y204.4709 I-0.5 J-0.86602
X173.08637 Y197.50564 I-55.69324 J29.35552
X163.35092 Y188.30984 I-29.78125 J21.77766
G1 Z-5.3
G02 X157.92609 Y185.40284 I-19.67811 J30.20662
G1 Z-5.35333
G02 X111.8074 Y199.76651 I-14.70734 J33.99835
X108.98276 Y204.76104 I32.91947 J21.91349
X109.46049 Y205.83692 I0.97773 J0.20986
G1 X114.44014 Y208.71192
G02 X115.80616 Y208.3459 I0.5 J-0.86602
G1 X116.96808 Y206.33339
X118.26712 Y207.08339
X117.1052 Y209.0959
G02 X117.46565 Y210.45867 I0.86603 J0.5
X122.69073 Y213.1281 I25.68977 J-43.83622
G1 Z-5.3
G02 X128.44546 Y215.25546 I20.29556 J-46.05445
G1 Z-5.35333
G02 X167.1411 Y211.45467 I14.75214 J-48.68879
G1 Z-5.84
X167.14139 Y211.45452
X167.14167 Y211.45437
X167.14195 Y211.45422
X167.14224 Y211.45407
X167.14252 Y211.45391
X167.1428 Y211.45376
X167.14309 Y211.45361
X167.14337 Y211.45346
X167.14365 Y211.45331
X167.14394 Y211.45316
X167.14422 Y211.45301
X167.14451 Y211.45286
X167.14479 Y211.4527
G02 X169.17017 Y210.31978 I-27.36048 J-51.29023
X169.34627 Y209.0959 I-0.68993 J-0.72388
G1 X168.18435 Y207.08339
X169.48338 Y206.33339
X170.6453 Y208.3459
