%
N1 G17 G21 G40 G90
(Hole Pocketing)
(1/4in 6.35mm 2 Flute Carbide Router)
N2 T30 M06
N3 S20051 M3
N4 G0 Z3.175
N5 X0.08749 Y-0.00023
N6 G1 Z0.635 F1002.5
N7 G17
N8 G3 Z0.00889 I-0.08749 J0.00023 F4010.
N9 Z-0.61722 I-0.08749 J0.00023
N10 Z-1.24333 I-0.08749 J0.00023
N11 Z-1.86944 I-0.08749 J0.00023
N12 Z-2.49556 I-0.08749 J0.00023
N13 Z-3.12167 I-0.08749 J0.00023
N14 Z-3.74778 I-0.08749 J0.00023
N15 Z-4.37389 I-0.08749 J0.00023
N16 Z-5. I-0.08749 J0.00023
N17 G1 X0.09619 Y0.02018
N18 X0.09977 Y0.0441
N19 X0.09717 Y0.0702
N20 X0.08769 Y0.09687
N21 X0.07106 Y0.12232
N22 X0.04744 Y0.14467
N23 X0.01748 Y0.16211
N24 X-0.0177 Y0.17294
N25 X-0.05658 Y0.17575
N26 X-0.09726 Y0.16951
N27 X-0.13758 Y0.15362
N28 X-0.17523 Y0.12803
N29 X-0.20787 Y0.09322
N30 X-0.23326 Y0.05023
N31 X-0.2494 Y0.00067
N32 X-0.25465 Y-0.05341
N33 X-0.24785 Y-0.10956
N34 X-0.22841 Y-0.16502
N35 X-0.19635 Y-0.2169
N36 X-0.15239 Y-0.26232
N37 X-0.09788 Y-0.29853
N38 X-0.03471 Y-0.32196
N39 G03 X0.03472 Y0.32196 I0.03471 J0.32196
N40 X-0.03471 Y-0.32196 I-0.03472 J-0.32196
N41 G1 X0.08749 Y-0.00023
N42 X0. Y0.
N43 G0 Z3.175
(2 1/2 Axis Facing)
(1/4in 6.35mm 2 Flute Carbide Router)
N44 X-66.0001 Y-50.5875
N45 G1 Z-2. F1002.5
N46 X-65.26164 F4010.
N47 X66.03369 Y-50.58714
N48 G03 X69.90065 Y-49. I-0.03341 J5.58575
N49 G1 X-69.90065
N50 G02 X-71.03884 Y-47.4125 I3.87965 J3.9834
N51 G1 X71.03884
N52 G03 X71.52535 Y-45.825 I-4.98386 J2.39565
N53 G1 X-71.52535
N54 G02 X-71.58714 Y-44.2375 I7.81281 J1.09907
N55 G1 X71.5875
N56 X71.58749 Y-42.65
N57 X-71.58714
N58 Y-41.0625
N59 X71.58748
N60 Y-39.475
N61 X-71.58714
N62 Y-37.8875
N63 X-9.96083
N64 G02 X-14.7306 Y-36.3 I9.96083 J37.8875
N65 G1 X-71.58714
N66 Y-34.7125
N67 X-18.15828
N68 G02 X-20.91447 Y-33.125 I18.15828 J34.7125
N69 G1 X-71.58714
N70 Y-31.5375
N71 X-23.23934
N72 G02 X-25.25229 Y-29.95 I23.23934 J31.5375
N73 G1 X-71.58714
N74 Y-28.3625
N75 X-27.02312
N76 G02 X-28.59685 Y-26.775 I27.02312 J28.3625
N77 G1 X-71.58714
N78 Y-25.1875
N79 X-30.00451
N80 G02 X-31.26853 Y-23.6 I30.00451 J25.1875
N81 G1 X-71.58714
N82 Y-22.0125
N83 X-32.40572
N84 G02 X-33.42903 Y-20.425 I32.40572 J22.0125
N85 G1 X-71.58714
N86 Y-18.8375
N87 X-34.34864
N88 G02 X-35.17269 Y-17.25 I34.34864 J18.8375
N89 G1 X-71.58714
N90 Y-15.6625
N91 X-35.90775
N92 G02 X-36.5592 Y-14.075 I35.90775 J15.6625
N93 G1 X-71.58714
N94 Y-12.4875
N95 X-37.13143
N96 G02 X-37.62806 Y-10.9 I37.13143 J12.4875
N97 G1 X-71.58714
N98 Y-9.3125
N99 X-38.05204
N100 G02 X-38.40579 Y-7.725 I38.05204 J9.3125
N101 G1 X-71.58714
N102 Y-6.1375
N103 X-38.69124
N104 G02 X-38.90987 Y-4.55 I38.69124 J6.1375
N105 G1 X-71.58714
N106 Y-2.9625
N107 X-39.06282
N108 G02 X-39.15086 Y-1.375 I39.06282 J2.9625
N109 G1 X-71.58714
N110 Y0.2125
N111 X-39.17442
N112 G02 X-39.13362 Y1.8 I39.17442 J-0.2125
N113 G1 X-71.58714
N114 Y3.3875
N115 X-39.02826
N116 G02 X-38.85782 Y4.975 I39.02826 J-3.3875
N117 G1 X-71.58714
N118 Y6.5625
N119 X-38.62142
N120 G02 X-38.31786 Y8.15 I38.62142 J-6.5625
N121 G1 X-71.58714
N122 Y9.7375
N123 X-37.94551
N124 G02 X-37.50233 Y11.325 I37.94551 J-9.7375
N125 G1 X-71.58714
N126 Y12.9125
N127 X-36.98578
N128 G02 X-36.39273 Y14.5 I36.98578 J-12.9125
N129 G1 X-71.58714
N130 Y16.0875
N131 X-35.71936
N132 G02 X-34.96105 Y17.675 I35.71936 J-16.0875
N133 G1 X-71.58714
N134 Y19.2625
N135 X-34.11212
N136 G02 X-33.16561 Y20.85 I34.11212 J-19.2625
N137 G1 X-71.58714
N138 Y22.4375
N139 X-32.11291
N140 G02 X-30.94317 Y24.025 I32.11291 J-22.4375
N141 G1 X-71.58714
N142 Y25.6125
N143 X-29.64254
N144 G02 X-28.19291 Y27.2 I29.64254 J-25.6125
N145 G1 X-71.58714
N146 Y28.7875
N147 X-26.56991
N148 G02 X-24.73944 Y30.375 I26.56991 J-28.7875
N149 G1 X-71.58714
N150 Y31.9625
N151 X-22.65125
N152 G02 X-20.22568 Y33.55 I22.65125 J-31.9625
N153 G1 X-71.58714
N154 Y35.1375
N155 X-17.32156
N156 G02 X-13.63652 Y36.725 I17.32156 J-35.1375
N157 G1 X-71.58714
N158 Y38.3125
N159 X-8.17513
N160 G02 X8.17513 I8.17513 J-38.3125
N161 G0 Z3.175
N162 X9.96082 Y-37.8875
N163 G1 Z-2. F1002.5
N164 X71.58747 F4010.
N165 X71.58746 Y-36.3
N166 X14.7306
N167 G03 X18.15828 Y-34.7125 I-14.7306 J36.3
N168 G1 X71.58746
N169 X71.58745 Y-33.125
N170 X20.91447
N171 G03 X23.23934 Y-31.5375 I-20.91447 J33.125
N172 G1 X71.58745
N173 X71.58744 Y-29.95
N174 X25.25229
N175 G03 X27.02312 Y-28.3625 I-25.25229 J29.95
N176 G1 X71.58743
N177 Y-26.775
N178 X28.59685
N179 G03 X30.00451 Y-25.1875 I-28.59685 J26.775
N180 G1 X71.58742
N181 X71.58741 Y-23.6
N182 X31.26852
N183 G03 X32.40572 Y-22.0125 I-31.26852 J23.6
N184 G1 X71.58741
N185 X71.5874 Y-20.425
N186 X33.42903
N187 G03 X34.34864 Y-18.8375 I-33.42903 J20.425
N188 G1 X71.5874
N189 X71.58739 Y-17.25
N190 X35.17269
N191 G03 X35.45367 Y-16.66488 I-35.17269 J17.25
N192 X35.90775 Y-15.6625 I-35.45367 J16.66488
N193 G1 X71.58738
N194 Y-14.075
N195 X36.5592
N196 G03 X37.13143 Y-12.4875 I-36.5592 J14.075
N197 G1 X71.58737
N198 X71.58736 Y-10.9
N199 X37.62806
N200 G03 X38.05204 Y-9.3125 I-37.62806 J10.9
N201 G1 X71.58736
N202 X71.58735 Y-7.725
N203 X38.40579
N204 G03 X38.69123 Y-6.1375 I-38.40579 J7.725
N205 G1 X71.58735
N206 X71.58734 Y-4.55
N207 X38.90987
N208 G03 X39.06282 Y-2.9625 I-38.90987 J4.55
N209 G1 X71.58733
N210 Y-1.375
N211 X39.15086
N212 G03 X39.17442 Y0.2125 I-39.15086 J1.375
N213 G1 X71.58732
N214 X71.58731 Y1.8
N215 X39.13362
N216 G03 X39.02826 Y3.3875 I-39.13362 J-1.8
N217 G1 X71.58731
N218 X71.5873 Y4.975
N219 X38.85782
N220 G03 X38.62142 Y6.5625 I-38.85782 J-4.975
N221 G1 X71.58729
N222 Y8.15
N223 X38.31786
N224 G03 X37.94551 Y9.7375 I-38.31786 J-8.15
N225 G1 X71.58728
N226 Y11.325
N227 X37.50233
N228 G03 X36.98578 Y12.9125 I-37.50233 J-11.325
N229 G1 X71.58727
N230 X71.58726 Y14.5
N231 X36.39273
N232 G03 X35.71936 Y16.0875 I-36.39273 J-14.5
N233 G1 X71.58726
N234 X71.58725 Y17.675
N235 X34.96105
N236 G03 X34.11212 Y19.2625 I-34.96105 J-17.675
N237 G1 X71.58724
N238 Y20.85
N239 X33.16561
N240 G03 X32.11291 Y22.4375 I-33.16561 J-20.85
N241 G1 X71.58723
N242 Y24.025
N243 X30.94317
N244 G03 X29.64254 Y25.6125 I-30.94317 J-24.025
N245 G1 X71.58722
N246 X71.58721 Y27.2
N247 X28.19291
N248 G03 X26.56991 Y28.7875 I-28.19291 J-27.2
N249 G1 X71.58721
N250 X71.5872 Y30.375
N251 X24.73944
N252 G03 X22.65125 Y31.9625 I-24.73944 J-30.375
N253 G1 X71.58719
N254 Y33.55
N255 X20.22567
N256 G03 X17.32156 Y35.1375 I-20.22567 J-33.55
N257 G1 X71.58718
N258 X71.58717 Y36.725
N259 X13.63652
N260 G03 X8.17513 Y38.3125 I-13.63652 J-36.725
N261 G1 X71.58717
N262 X71.58716 Y39.9
N263 X-71.58714
N264 Y41.4875
N265 X71.58716
N266 X71.58715 Y43.075
N267 X-71.58714
N268 Y44.6625
N269 X71.58714
N270 G03 X71.44514 Y46.25 I-5.9632 J0.26667
N271 G1 X-71.44514
N272 G02 X-70.81236 Y47.8375 I5.40175 J-1.23327
N273 G1 X70.81236
N274 G03 X69.41021 Y49.425 I-4.78618 J-2.8144
N275 G1 X-69.41021
N276 G02 X-66.0337 Y50.58714 I3.40908 J-4.41865
N277 G1 X65.63082 Y50.5875
N278 X66.00005
N279 G0 Z3.175
N280 X35.45367 Y-16.66488
N281 G1 Z-2. F1002.5
N282 G02 X-35.45367 Y16.66488 I-35.45367 J16.66488 F4010.
N283 X35.45367 Y-16.66488 I35.45367 J-16.66488
N284 G0 Z3.175
(2 1/2 Axis Profiling)
(1/4in 6.35mm 2 Flute Carbide Router)
N285 X49.42227 Y-16.21426
N286 G1 Z-2. F1002.5
N287 X43.67547 Y-13.51299 F3007.5
N288 G03 X35.22741 Y-16.55853 I-2.70126 J-5.7468
N289 G02 X-35.22741 Y16.55853 I-35.22741 J16.55853 F4010.
N290 X35.22741 Y-16.55853 I35.22741 J-16.55853
N291 G1 X35.1248 Y-16.62991
N292 X35.01167 Y-16.57674
N293 X35.00116 Y-16.45218
N294 X34.99065 Y-16.32762
N295 X34.87752 Y-16.27445
N296 X34.77491 Y-16.34583
N297 G02 X-34.77491 Y16.34583 I-34.77491 J16.34583
N298 X34.77491 Y-16.34583 I34.77491 J-16.34583
N299 G03 X37.82044 Y-24.79389 I5.7468 J-2.70126 F5000.
N300 G1 X43.56724 Y-27.49515
N301 G0 Z3.175
(2 1/2 Axis Profiling-1)
(1/4in 6.35mm 2 Flute Carbide Router)
N302 X48.74352 Y-15.89521
N303 G1 Z-2. F1002.5
N304 X42.99672 Y-13.19395 F3007.5
N305 G03 X34.54866 Y-16.23948 I-2.70126 J-5.74679
N306 G02 X-34.54866 Y16.23948 I-34.54866 J16.23948 F4010.
N307 X34.54866 Y-16.23948 I34.54866 J-16.23948
N308 G03 X37.59419 Y-24.68754 I5.7468 J-2.70126 F5000.
N309 G1 X43.34099 Y-27.3888
N310 G0 Z3.175
(2 1/2 Axis Facing)
(1/4in 6.35mm 2 Flute Carbide Router)
N311 X-61.98605 Y-49.5875
N312 G1 Z-1.23 F1002.5
N313 X-69.18858 Z-2.5 F3007.5
N314 X-12.64756 F4010.
N315 G02 X-14.76078 Y-49. I12.64756 J49.5875
N316 X-17.74488 Y-48. I14.76078 J49.
N317 G1 X-70.71289
N318 G02 X-71.40565 Y-46.4125 I4.68754 J2.99047
N319 G1 X-21.55831
N320 G02 X-24.69008 Y-44.825 I21.55831 J46.4125
N321 G1 X-71.58714
N322 X-71.58715 Y-43.2375
N323 X-27.37516
N324 G02 X-29.7348 Y-41.65 I27.37516 J43.2375
N325 G1 X-71.58716
N326 Y-40.0625
N327 X-31.84143
N328 G02 X-33.74248 Y-38.475 I31.84143 J40.0625
N329 G1 X-71.58717
N330 X-71.58718 Y-36.8875
N331 X-35.47102
N332 G02 X-37.05119 Y-35.3 I35.47102 J36.8875
N333 G1 X-71.58718
N334 X-71.58719 Y-33.7125
N335 X-38.50127
N336 G02 X-39.83548 Y-32.125 I38.50127 J33.7125
N337 G1 X-71.58719
N338 X-71.5872 Y-30.5375
N339 X-41.06509
N340 G02 X-42.19927 Y-28.95 I41.06509 J30.5375
N341 G1 X-71.58721
N342 Y-27.3625
N343 X-43.24551
N344 G02 X-44.21007 Y-25.775 I43.24551 J27.3625
N345 G1 X-71.58722
N346 X-71.58723 Y-24.1875
N347 X-45.09818
N348 G02 X-45.91428 Y-22.6 I45.09818 J24.1875
N349 G1 X-71.58723
N350 X-71.58724 Y-21.0125
N351 X-46.66214
N352 G02 X-47.34501 Y-19.425 I46.66214 J21.0125
N353 G1 X-71.58724
N354 X-71.58725 Y-17.8375
N355 X-47.96566
N356 G02 X-48.52647 Y-16.25 I47.96566 J17.8375
N357 G1 X-71.58726
N358 Y-14.6625
N359 X-49.0295
N360 G02 X-49.47651 Y-13.075 I49.0295 J14.6625
N361 G1 X-71.58727
N362 X-71.58728 Y-11.4875
N363 X-49.86901
N364 G02 X-50.20827 Y-9.9 I49.86901 J11.4875
N365 G1 X-71.58728
N366 X-71.58729 Y-8.3125
N367 X-50.49538
N368 G02 X-50.7312 Y-6.725 I50.49538 J8.3125
N369 G1 X-71.5873
N370 Y-5.1375
N371 X-50.91647
N372 G02 X-51.05172 Y-3.55 I50.91647 J5.1375
N373 G1 X-71.58731
N374 Y-1.9625
N375 X-51.13736
N376 G02 X-51.17363 Y-0.375 I51.13736 J1.9625
N377 G1 X-71.58732
N378 X-71.58733 Y1.2125
N379 X-51.16063
N380 G02 X-51.09834 Y2.8 I51.16063 J-1.2125
N381 G1 X-71.58733
N382 X-71.58734 Y4.3875
N383 X-50.98657
N384 G02 X-50.82499 Y5.975 I50.98657 J-4.3875
N385 G1 X-71.58735
N386 Y7.5625
N387 X-50.61313
N388 G02 X-50.35035 Y9.15 I50.61313 J-7.5625
N389 G1 X-71.58736
N390 Y10.7375
N391 X-50.03585
N392 G02 X-49.66865 Y12.325 I50.03585 J-10.7375
N393 G1 X-71.58737
N394 X-71.58738 Y13.9125
N395 X-49.24757
N396 G02 X-48.77121 Y15.5 I49.24757 J-13.9125
N397 G1 X-71.58738
N398 X-71.58739 Y17.0875
N399 X-48.23793
N400 G02 X-47.64583 Y18.675 I48.23793 J-17.0875
N401 G1 X-71.5874
N402 Y20.2625
N403 X-46.99268
N404 G02 X-46.27589 Y21.85 I46.99268 J-20.2625
N405 G1 X-71.58741
N406 Y23.4375
N407 X-45.49246
N408 G02 X-44.63888 Y25.025 I45.49246 J-23.4375
N409 G1 X-71.58742
N410 X-71.58743 Y26.6125
N411 X-43.71104
N412 G02 X-42.7041 Y28.2 I43.71104 J-26.6125
N413 G1 X-71.58743
N414 X-71.58744 Y29.7875
N415 X-41.61232
N416 G02 X-40.42882 Y31.375 I41.61232 J-29.7875
N417 G1 X-71.58745
N418 Y32.9625
N419 X-39.14529
N420 G02 X-37.75153 Y34.55 I39.14529 J-32.9625
N421 G1 X-71.58746
N422 Y36.1375
N423 X-36.23481
N424 G02 X-34.57896 Y37.725 I36.23481 J-36.1375
N425 G1 X-71.58747
N426 X-71.58748 Y39.3125
N427 X-32.7629
N428 G02 X-30.75826 Y40.9 I32.7629 J-39.3125
N429 G1 X-71.58748
N430 X-71.58749 Y42.4875
N431 X-28.5253
N432 G02 X-26.00528 Y44.075 I28.5253 J-42.4875
N433 G1 X-71.5875
N434 G02 X-71.54763 Y45.6625 I10.1158 J0.54024
N435 G1 X-23.10447
N436 G02 X-19.65497 Y47.25 I23.10447 J-45.6625
N437 G1 X-71.11385
N438 G02 X-70.06078 Y48.8375 I5.10214 J-2.24148
N439 G1 X-15.28983
N440 G02 X-14.76078 Y49. I15.28983 J-48.8375
N441 X-8.72925 Y50.425 I14.76078 J-49.
N442 G1 X-67.33465
N443 G0 Z3.175
N444 X19.85008 Y-49.5875
N445 G1 Z-1.23 F1002.5
N446 X12.64756 Z-2.5 F3007.5
N447 X69.18858 F4010.
N448 G03 X70.71289 Y-48. I-3.17053 J4.5699
N449 G1 X17.74488
N450 G03 X21.55831 Y-46.4125 I-17.74488 J48.
N451 G1 X71.40565
N452 G03 X71.5875 Y-44.825 I-5.52753 J1.43736
N453 G1 X24.69008
N454 G03 X27.37516 Y-43.2375 I-24.69008 J44.825
N455 G1 X71.58749
N456 Y-41.65
N457 X29.7348
N458 G03 X31.84143 Y-40.0625 I-29.7348 J41.65
N459 G1 X71.58748
N460 X71.58747 Y-38.475
N461 X33.74248
N462 G03 X35.47102 Y-36.8875 I-33.74248 J38.475
N463 G1 X71.58747
N464 X71.58746 Y-35.3
N465 X37.05119
N466 G03 X38.50127 Y-33.7125 I-37.05119 J35.3
N467 G1 X71.58745
N468 Y-32.125
N469 X39.83548
N470 G03 X41.06509 Y-30.5375 I-39.83548 J32.125
N471 G1 X71.58744
N472 Y-28.95
N473 X42.19927
N474 G03 X43.24551 Y-27.3625 I-42.19927 J28.95
N475 G1 X71.58743
N476 X71.58742 Y-25.775
N477 X44.21007
N478 G03 X45.09818 Y-24.1875 I-44.21007 J25.775
N479 G1 X71.58742
N480 X71.58741 Y-22.6
N481 X45.91428
N482 G03 X46.66214 Y-21.0125 I-45.91428 J22.6
N483 G1 X71.5874
N484 Y-19.425
N485 X47.34501
N486 G03 X47.96566 Y-17.8375 I-47.34501 J19.425
N487 G1 X71.58739
N488 Y-16.25
N489 X48.52647
N490 G03 X49.0295 Y-14.6625 I-48.52647 J16.25
N491 G1 X71.58738
N492 X71.58737 Y-13.075
N493 X49.47651
N494 G03 X49.86901 Y-11.4875 I-49.47651 J13.075
N495 G1 X71.58737
N496 X71.58736 Y-9.9
N497 X50.20827
N498 G03 X50.49538 Y-8.3125 I-50.20827 J9.9
N499 G1 X71.58735
N500 Y-6.725
N501 X50.7312
N502 G03 X50.91647 Y-5.1375 I-50.7312 J6.725
N503 G1 X71.58734
N504 X71.58733 Y-3.55
N505 X51.05172
N506 G03 X51.13736 Y-1.9625 I-51.05172 J3.55
N507 G1 X71.58733
N508 X71.58732 Y-0.375
N509 X51.17363
N510 G03 X51.16063 Y1.2125 I-51.17363 J0.375
N511 G1 X71.58732
N512 X71.58731 Y2.8
N513 X51.09834
N514 G03 X50.98657 Y4.3875 I-51.09834 J-2.8
N515 G1 X71.5873
N516 Y5.975
N517 X50.82499
N518 G03 X50.61313 Y7.5625 I-50.82499 J-5.975
N519 G1 X71.58729
N520 X71.58728 Y9.15
N521 X50.35035
N522 G03 X50.03585 Y10.7375 I-50.35035 J-9.15
N523 G1 X71.58728
N524 X71.58727 Y12.325
N525 X49.66865
N526 G03 X49.24757 Y13.9125 I-49.66865 J-12.325
N527 G1 X71.58727
N528 X71.58726 Y15.5
N529 X48.77121
N530 G03 X48.23793 Y17.0875 I-48.77121 J-15.5
N531 G1 X71.58725
N532 Y18.675
N533 X47.64583
N534 G03 X46.99268 Y20.2625 I-47.64583 J-18.675
N535 G1 X71.58724
N536 X71.58723 Y21.85
N537 X46.27589
N538 G03 X45.49246 Y23.4375 I-46.27589 J-21.85
N539 G1 X71.58723
N540 X71.58722 Y25.025
N541 X44.63888
N542 G03 X43.71104 Y26.6125 I-44.63888 J-25.025
N543 G1 X71.58722
N544 X71.58721 Y28.2
N545 X42.7041
N546 G03 X41.61232 Y29.7875 I-42.7041 J-28.2
N547 G1 X71.5872
N548 Y31.375
N549 X40.42882
N550 G03 X39.14529 Y32.9625 I-40.42882 J-31.375
N551 G1 X71.58719
N552 X71.58718 Y34.55
N553 X37.75153
N554 G03 X36.23481 Y36.1375 I-37.75153 J-34.55
N555 G1 X71.58718
N556 X71.58717 Y37.725
N557 X34.57896
N558 G03 X32.7629 Y39.3125 I-34.57896 J-37.725
N559 G1 X71.58717
N560 X71.58716 Y40.9
N561 X30.75826
N562 G03 X28.5253 Y42.4875 I-30.75826 J-40.9
N563 G1 X71.58715
N564 Y44.075
N565 X26.00528
N566 G03 X23.10447 Y45.6625 I-26.00528 J-44.075
N567 G1 X71.54763
N568 G03 X71.11385 Y47.25 I-5.52624 J-0.65702
N569 G1 X19.65497
N570 G03 X15.28983 Y48.8375 I-19.65497 J-47.25
N571 G1 X70.06078
N572 G03 X67.33465 Y50.425 I-4.05686 J-3.83216
N573 G1 X8.72925
N574 G0 Z3.175
(2 1/2 Axis Profiling-2)
(1/4in 6.35mm 2 Flute Carbide Router)
N575 X-0.05989 Y-50.92496
N576 G1 Z-2.5 F1002.5
N577 G02 X0.05989 Y50.92496 I0.05989 J50.92496 F4010.
N578 X-0.05989 Y-50.92496 I-0.05989 J-50.92496
N579 G1 X-0.16807 Y-50.86234
N580 X-0.16792 Y-50.73734
N581 X-0.05959 Y-50.67496
N582 X0.04873 Y-50.61259
N583 X0.04888 Y-50.48759
N584 X-0.0593 Y-50.42496
N585 G02 X0.0593 Y50.42496 I0.0593 J50.42496
N586 X-0.0593 Y-50.42496 I-0.0593 J-50.42496
N587 G0 Z3.175
(2 1/2 Axis Profiling-1-1)
(1/4in 6.35mm 2 Flute Carbide Router)
N588 X-0.05901 Y-50.17496
N589 G1 Z-2.5 F1002.5
N590 G02 X0.059 Y50.17497 I0.05901 J50.17496 F4010.
N591 X-0.05901 Y-50.17496 I-0.059 J-50.17497
N592 G0 Z3.175
N593 M30
%
