%
N1 G17 G21 G40 G90
(2 1/2 Axis Profiling)
(SlotDrill 1/8in 3.175mm Carbide Aluminium Cut)
N2 T6 M06
N3 S24000 M3
N4 G0 Z1.5875
N5 X26.2875 Y4.19478
N6 G1 Z-0.875 F250.
N7 X25.9375 F250.
N8 G17
N9 G03 X23.5875 Y1.84478 I0. J-2.35
N10 G02 X22.26753 Y-1.17318 I-2.6612 J-0.6337 F500.
N11 X21.19804 Y-1.5875 I-1.06949 J1.17318
N12 G1 X0.80196
N13 G02 X-0.32057 Y-1.12253 I0. J1.5875
N14 X-1.58073 Y0.65548 I1.17324 J2.1671
N15 G1 X-1.58581 Y0.72864
N16 X-1.5875 Y0.80196
N17 Y21.19804
N18 G02 X-1.12253 Y22.32057 I1.5875 J0.
N19 X0.65548 Y23.58073 I2.1671 J-1.17324
N20 G1 X0.72864 Y23.58581
N21 X0.80196 Y23.5875
N22 X21.19804
N23 G02 X22.32057 Y23.12253 I0. J-1.5875
N24 X23.58073 Y21.34451 I-1.17324 J-2.1671
N25 G1 X23.58581 Y21.27135
N26 X23.5875 Y21.19804
N27 Y1.84478
N28 G03 X25.9375 Y-0.50522 I2.35 J0. F1500.
N29 G1 X26.2875
N30 G0 Z1.5875
N31 Y4.19478
N32 G1 Z-1.75 F250.
N33 X25.9375 F250.
N34 G03 X23.5875 Y1.84478 I0. J-2.35
N35 G02 X22.26753 Y-1.17318 I-2.6612 J-0.6337 F500.
N36 X21.19804 Y-1.5875 I-1.06949 J1.17318
N37 G1 X0.80196
N38 G02 X-0.32057 Y-1.12253 I0. J1.5875
N39 X-1.58073 Y0.65548 I1.17324 J2.1671
N40 G1 X-1.58581 Y0.72864
N41 X-1.5875 Y0.80196
N42 Y21.19804
N43 G02 X-1.12253 Y22.32057 I1.5875 J0.
N44 X0.65548 Y23.58073 I2.1671 J-1.17324
N45 G1 X0.72864 Y23.58581
N46 X0.80196 Y23.5875
N47 X21.19804
N48 G02 X22.32057 Y23.12253 I0. J-1.5875
N49 X23.58073 Y21.34451 I-1.17324 J-2.1671
N50 G1 X23.58581 Y21.27135
N51 X23.5875 Y21.19804
N52 Y1.84478
N53 G03 X25.9375 Y-0.50522 I2.35 J0. F1500.
N54 G1 X26.2875
N55 G0 Z1.5875
N56 Y4.19478
N57 G1 Z-2.625 F250.
N58 X25.9375 F250.
N59 G03 X23.5875 Y1.84478 I0. J-2.35
N60 G02 X22.26753 Y-1.17318 I-2.6612 J-0.6337 F500.
N61 X21.19804 Y-1.5875 I-1.06949 J1.17318
N62 G1 X0.80196
N63 G02 X-0.32057 Y-1.12253 I0. J1.5875
N64 X-1.58073 Y0.65548 I1.17324 J2.1671
N65 G1 X-1.58581 Y0.72864
N66 X-1.5875 Y0.80196
N67 Y21.19804
N68 G02 X-1.12253 Y22.32057 I1.5875 J0.
N69 X0.65548 Y23.58073 I2.1671 J-1.17324
N70 G1 X0.72864 Y23.58581
N71 X0.80196 Y23.5875
N72 X21.19804
N73 G02 X22.32057 Y23.12253 I0. J-1.5875
N74 X23.58073 Y21.34451 I-1.17324 J-2.1671
N75 G1 X23.58581 Y21.27135
N76 X23.5875 Y21.19804
N77 Y1.84478
N78 G03 X25.9375 Y-0.50522 I2.35 J0. F1500.
N79 G1 X26.2875
N80 G0 Z1.5875
N81 Y4.19478
N82 G1 Z-3.5 F250.
N83 X25.9375 F250.
N84 G03 X23.5875 Y1.84478 I0. J-2.35
N85 G02 X22.26753 Y-1.17318 I-2.6612 J-0.6337 F500.
N86 X21.19804 Y-1.5875 I-1.06949 J1.17318
N87 G1 X0.80196
N88 G02 X-0.32057 Y-1.12253 I0. J1.5875
N89 X-1.58073 Y0.65548 I1.17324 J2.1671
N90 G1 X-1.58581 Y0.72864
N91 X-1.5875 Y0.80196
N92 Y21.19804
N93 G02 X-1.12253 Y22.32057 I1.5875 J0.
N94 X0.65548 Y23.58073 I2.1671 J-1.17324
N95 G1 X0.72864 Y23.58581
N96 X0.80196 Y23.5875
N97 X21.19804
N98 G02 X22.32057 Y23.12253 I0. J-1.5875
N99 X23.58073 Y21.34451 I-1.17324 J-2.1671
N100 G1 X23.58581 Y21.27135
N101 X23.5875 Y21.19804
N102 Y1.84478
N103 G03 X25.9375 Y-0.50522 I2.35 J0. F1500.
N104 G1 X26.2875
N105 G0 Z1.5875
N106 X58.2875 Y4.71021
N107 G1 Z-0.875 F250.
N108 X57.9375 F250.
N109 G03 X55.5875 Y2.36021 I0. J-2.35
N110 G02 X55.45223 Y0.16074 I-3.81175 J-0.86948 F500.
N111 X53.34451 Y-1.58073 I-2.79598 J1.23779
N112 G1 X53.27135 Y-1.58581
N113 X53.19804 Y-1.5875
N114 X32.80196
N115 G02 X31.67943 Y-1.12253 I0. J1.5875
N116 X30.41927 Y0.65548 I1.17324 J2.1671
N117 G1 X30.41419 Y0.72864
N118 X30.4125 Y0.80196
N119 Y21.19804
N120 G02 X30.87747 Y22.32057 I1.5875 J0.
N121 X32.65548 Y23.58073 I2.1671 J-1.17324
N122 G1 X32.72864 Y23.58581
N123 X32.80196 Y23.5875
N124 X53.19804
N125 G02 X54.32057 Y23.12253 I0. J-1.5875
N126 X55.58073 Y21.34451 I-1.17324 J-2.1671
N127 G1 X55.58581 Y21.27135
N128 X55.5875 Y21.19804
N129 Y2.36021
N130 G03 X57.9375 Y0.01021 I2.35 J0. F1500.
N131 G1 X58.2875
N132 G0 Z1.5875
N133 Y4.71021
N134 G1 Z-1.75 F250.
N135 X57.9375 F250.
N136 G03 X55.5875 Y2.36021 I0. J-2.35
N137 G02 X55.45223 Y0.16074 I-3.81175 J-0.86948 F500.
N138 X53.34451 Y-1.58073 I-2.79598 J1.23779
N139 G1 X53.27135 Y-1.58581
N140 X53.19804 Y-1.5875
N141 X32.80196
N142 G02 X31.67943 Y-1.12253 I0. J1.5875
N143 X30.41927 Y0.65548 I1.17324 J2.1671
N144 G1 X30.41419 Y0.72864
N145 X30.4125 Y0.80196
N146 Y21.19804
N147 G02 X30.87747 Y22.32057 I1.5875 J0.
N148 X32.65548 Y23.58073 I2.1671 J-1.17324
N149 G1 X32.72864 Y23.58581
N150 X32.80196 Y23.5875
N151 X53.19804
N152 G02 X54.32057 Y23.12253 I0. J-1.5875
N153 X55.58073 Y21.34451 I-1.17324 J-2.1671
N154 G1 X55.58581 Y21.27135
N155 X55.5875 Y21.19804
N156 Y2.36021
N157 G03 X57.9375 Y0.01021 I2.35 J0. F1500.
N158 G1 X58.2875
N159 G0 Z1.5875
N160 Y4.71021
N161 G1 Z-2.625 F250.
N162 X57.9375 F250.
N163 G03 X55.5875 Y2.36021 I0. J-2.35
N164 G02 X55.45223 Y0.16074 I-3.81175 J-0.86948 F500.
N165 X53.34451 Y-1.58073 I-2.79598 J1.23779
N166 G1 X53.27135 Y-1.58581
N167 X53.19804 Y-1.5875
N168 X32.80196
N169 G02 X31.67943 Y-1.12253 I0. J1.5875
N170 X30.41927 Y0.65548 I1.17324 J2.1671
N171 G1 X30.41419 Y0.72864
N172 X30.4125 Y0.80196
N173 Y21.19804
N174 G02 X30.87747 Y22.32057 I1.5875 J0.
N175 X32.65548 Y23.58073 I2.1671 J-1.17324
N176 G1 X32.72864 Y23.58581
N177 X32.80196 Y23.5875
N178 X53.19804
N179 G02 X54.32057 Y23.12253 I0. J-1.5875
N180 X55.58073 Y21.34451 I-1.17324 J-2.1671
N181 G1 X55.58581 Y21.27135
N182 X55.5875 Y21.19804
N183 Y2.36021
N184 G03 X57.9375 Y0.01021 I2.35 J0. F1500.
N185 G1 X58.2875
N186 G0 Z1.5875
N187 Y4.71021
N188 G1 Z-3.5 F250.
N189 X57.9375 F250.
N190 G03 X55.5875 Y2.36021 I0. J-2.35
N191 G02 X55.45223 Y0.16074 I-3.81175 J-0.86948 F500.
N192 X53.34451 Y-1.58073 I-2.79598 J1.23779
N193 G1 X53.27135 Y-1.58581
N194 X53.19804 Y-1.5875
N195 X32.80196
N196 G02 X31.67943 Y-1.12253 I0. J1.5875
N197 X30.41927 Y0.65548 I1.17324 J2.1671
N198 G1 X30.41419 Y0.72864
N199 X30.4125 Y0.80196
N200 Y21.19804
N201 G02 X30.87747 Y22.32057 I1.5875 J0.
N202 X32.65548 Y23.58073 I2.1671 J-1.17324
N203 G1 X32.72864 Y23.58581
N204 X32.80196 Y23.5875
N205 X53.19804
N206 G02 X54.32057 Y23.12253 I0. J-1.5875
N207 X55.58073 Y21.34451 I-1.17324 J-2.1671
N208 G1 X55.58581 Y21.27135
N209 X55.5875 Y21.19804
N210 Y2.36021
N211 G03 X57.9375 Y0.01021 I2.35 J0. F1500.
N212 G1 X58.2875
N213 G0 Z1.5875
N214 X90.2875 Y5.32986
N215 G1 Z-0.875 F250.
N216 X89.9375 F250.
N217 G03 X87.5875 Y2.97986 I0. J-2.35
N218 G02 X87.5269 Y0.36752 I-7.13218 J-1.14142 F500.
N219 X85.19804 Y-1.5875 I-2.82121 J0.99608
N220 G1 X64.80196
N221 G02 X63.67943 Y-1.12253 I0. J1.5875
N222 X62.41927 Y0.65548 I1.17324 J2.1671
N223 G1 X62.41419 Y0.72864
N224 X62.4125 Y0.80196
N225 Y21.19804
N226 G02 X62.87747 Y22.32057 I1.5875 J0.
N227 X64.65548 Y23.58073 I2.1671 J-1.17324
N228 G1 X64.72865 Y23.58581
N229 X64.80196 Y23.5875
N230 X85.19804
N231 G02 X86.32057 Y23.12253 I0. J-1.5875
N232 X87.58073 Y21.34451 I-1.17324 J-2.1671
N233 G1 X87.58581 Y21.27135
N234 X87.5875 Y21.19804
N235 Y2.97986
N236 G03 X89.9375 Y0.62986 I2.35 J0. F1500.
N237 G1 X90.2875
N238 G0 Z1.5875
N239 Y5.32986
N240 G1 Z-1.75 F250.
N241 X89.9375 F250.
N242 G03 X87.5875 Y2.97986 I0. J-2.35
N243 G02 X87.5269 Y0.36752 I-7.13218 J-1.14142 F500.
N244 X85.19804 Y-1.5875 I-2.82121 J0.99608
N245 G1 X64.80196
N246 G02 X63.67943 Y-1.12253 I0. J1.5875
N247 X62.41927 Y0.65548 I1.17324 J2.1671
N248 G1 X62.41419 Y0.72864
N249 X62.4125 Y0.80196
N250 Y21.19804
N251 G02 X62.87747 Y22.32057 I1.5875 J0.
N252 X64.65548 Y23.58073 I2.1671 J-1.17324
N253 G1 X64.72865 Y23.58581
N254 X64.80196 Y23.5875
N255 X85.19804
N256 G02 X86.32057 Y23.12253 I0. J-1.5875
N257 X87.58073 Y21.34451 I-1.17324 J-2.1671
N258 G1 X87.58581 Y21.27135
N259 X87.5875 Y21.19804
N260 Y2.97986
N261 G03 X89.9375 Y0.62986 I2.35 J0. F1500.
N262 G1 X90.2875
N263 G0 Z1.5875
N264 Y5.32986
N265 G1 Z-2.625 F250.
N266 X89.9375 F250.
N267 G03 X87.5875 Y2.97986 I0. J-2.35
N268 G02 X87.5269 Y0.36752 I-7.13218 J-1.14142 F500.
N269 X85.19804 Y-1.5875 I-2.82121 J0.99608
N270 G1 X64.80196
N271 G02 X63.67943 Y-1.12253 I0. J1.5875
N272 X62.41927 Y0.65548 I1.17324 J2.1671
N273 G1 X62.41419 Y0.72864
N274 X62.4125 Y0.80196
N275 Y21.19804
N276 G02 X62.87747 Y22.32057 I1.5875 J0.
N277 X64.65548 Y23.58073 I2.1671 J-1.17324
N278 G1 X64.72865 Y23.58581
N279 X64.80196 Y23.5875
N280 X85.19804
N281 G02 X86.32057 Y23.12253 I0. J-1.5875
N282 X87.58073 Y21.34451 I-1.17324 J-2.1671
N283 G1 X87.58581 Y21.27135
N284 X87.5875 Y21.19804
N285 Y2.97986
N286 G03 X89.9375 Y0.62986 I2.35 J0. F1500.
N287 G1 X90.2875
N288 G0 Z1.5875
N289 Y5.32986
N290 G1 Z-3.5 F250.
N291 X89.9375 F250.
N292 G03 X87.5875 Y2.97986 I0. J-2.35
N293 G02 X87.5269 Y0.36752 I-7.13218 J-1.14142 F500.
N294 X85.19804 Y-1.5875 I-2.82121 J0.99608
N295 G1 X64.80196
N296 G02 X63.67943 Y-1.12253 I0. J1.5875
N297 X62.41927 Y0.65548 I1.17324 J2.1671
N298 G1 X62.41419 Y0.72864
N299 X62.4125 Y0.80196
N300 Y21.19804
N301 G02 X62.87747 Y22.32057 I1.5875 J0.
N302 X64.65548 Y23.58073 I2.1671 J-1.17324
N303 G1 X64.72865 Y23.58581
N304 X64.80196 Y23.5875
N305 X85.19804
N306 G02 X86.32057 Y23.12253 I0. J-1.5875
N307 X87.58073 Y21.34451 I-1.17324 J-2.1671
N308 G1 X87.58581 Y21.27135
N309 X87.5875 Y21.19804
N310 Y2.97986
N311 G03 X89.9375 Y0.62986 I2.35 J0. F1500.
N312 G1 X90.2875
N313 G0 Z1.5875
N314 X122.2875 Y4.91241
N315 G1 Z-0.875 F250.
N316 X121.9375 F250.
N317 G03 X119.5875 Y2.56241 I0. J-2.35
N318 G02 X119.4803 Y0.22849 I-4.69321 J-0.95386 F500.
N319 X117.34451 Y-1.58073 I-2.89622 J1.25373
N320 G1 X117.27135 Y-1.58581
N321 X117.19804 Y-1.5875
N322 X96.80196
N323 G02 X95.67943 Y-1.12253 I0. J1.5875
N324 X94.41927 Y0.65548 I1.17324 J2.1671
N325 G1 X94.41419 Y0.72864
N326 X94.4125 Y0.80196
N327 Y21.19804
N328 G02 X94.87747 Y22.32057 I1.5875 J0.
N329 X96.65548 Y23.58073 I2.1671 J-1.17324
N330 G1 X96.72864 Y23.58581
N331 X96.80196 Y23.5875
N332 X117.19804
N333 G02 X118.32057 Y23.12253 I0. J-1.5875
N334 X119.58073 Y21.34451 I-1.17324 J-2.1671
N335 G1 X119.58581 Y21.27135
N336 X119.5875 Y21.19804
N337 Y2.56241
N338 G03 X121.9375 Y0.21241 I2.35 J0. F1500.
N339 G1 X122.2875
N340 G0 Z1.5875
N341 Y4.91241
N342 G1 Z-1.75 F250.
N343 X121.9375 F250.
N344 G03 X119.5875 Y2.56241 I0. J-2.35
N345 G02 X119.4803 Y0.22849 I-4.69321 J-0.95386 F500.
N346 X117.34451 Y-1.58073 I-2.89622 J1.25373
N347 G1 X117.27135 Y-1.58581
N348 X117.19804 Y-1.5875
N349 X96.80196
N350 G02 X95.67943 Y-1.12253 I0. J1.5875
N351 X94.41927 Y0.65548 I1.17324 J2.1671
N352 G1 X94.41419 Y0.72864
N353 X94.4125 Y0.80196
N354 Y21.19804
N355 G02 X94.87747 Y22.32057 I1.5875 J0.
N356 X96.65548 Y23.58073 I2.1671 J-1.17324
N357 G1 X96.72864 Y23.58581
N358 X96.80196 Y23.5875
N359 X117.19804
N360 G02 X118.32057 Y23.12253 I0. J-1.5875
N361 X119.58073 Y21.34451 I-1.17324 J-2.1671
N362 G1 X119.58581 Y21.27135
N363 X119.5875 Y21.19804
N364 Y2.56241
N365 G03 X121.9375 Y0.21241 I2.35 J0. F1500.
N366 G1 X122.2875
N367 G0 Z1.5875
N368 Y4.91241
N369 G1 Z-2.625 F250.
N370 X121.9375 F250.
N371 G03 X119.5875 Y2.56241 I0. J-2.35
N372 G02 X119.4803 Y0.22849 I-4.69321 J-0.95386 F500.
N373 X117.34451 Y-1.58073 I-2.89622 J1.25373
N374 G1 X117.27135 Y-1.58581
N375 X117.19804 Y-1.5875
N376 X96.80196
N377 G02 X95.67943 Y-1.12253 I0. J1.5875
N378 X94.41927 Y0.65548 I1.17324 J2.1671
N379 G1 X94.41419 Y0.72864
N380 X94.4125 Y0.80196
N381 Y21.19804
N382 G02 X94.87747 Y22.32057 I1.5875 J0.
N383 X96.65548 Y23.58073 I2.1671 J-1.17324
N384 G1 X96.72864 Y23.58581
N385 X96.80196 Y23.5875
N386 X117.19804
N387 G02 X118.32057 Y23.12253 I0. J-1.5875
N388 X119.58073 Y21.34451 I-1.17324 J-2.1671
N389 G1 X119.58581 Y21.27135
N390 X119.5875 Y21.19804
N391 Y2.56241
N392 G03 X121.9375 Y0.21241 I2.35 J0. F1500.
N393 G1 X122.2875
N394 G0 Z1.5875
N395 Y4.91241
N396 G1 Z-3.5 F250.
N397 X121.9375 F250.
N398 G03 X119.5875 Y2.56241 I0. J-2.35
N399 G02 X119.4803 Y0.22849 I-4.69321 J-0.95386 F500.
N400 X117.34451 Y-1.58073 I-2.89622 J1.25373
N401 G1 X117.27135 Y-1.58581
N402 X117.19804 Y-1.5875
N403 X96.80196
N404 G02 X95.67943 Y-1.12253 I0. J1.5875
N405 X94.41927 Y0.65548 I1.17324 J2.1671
N406 G1 X94.41419 Y0.72864
N407 X94.4125 Y0.80196
N408 Y21.19804
N409 G02 X94.87747 Y22.32057 I1.5875 J0.
N410 X96.65548 Y23.58073 I2.1671 J-1.17324
N411 G1 X96.72864 Y23.58581
N412 X96.80196 Y23.5875
N413 X117.19804
N414 G02 X118.32057 Y23.12253 I0. J-1.5875
N415 X119.58073 Y21.34451 I-1.17324 J-2.1671
N416 G1 X119.58581 Y21.27135
N417 X119.5875 Y21.19804
N418 Y2.56241
N419 G03 X121.9375 Y0.21241 I2.35 J0. F1500.
N420 G1 X122.2875
N421 G0 Z1.5875
N422 M30
%
