%
G17 G21 G40 G90 G64 P0.1
(Standard Drill )
(1/8in Carbide Drill)
T13 M06
S23960 M3
G0 Z4.0875
X2.5 Y50.
G21 S23960 M3
G81 X2.5 Y50. Z-3.5 R2.5 F1000.0
X2.5Y15.
X37.5Y15.
X52.5Y15.
X52.5Y50.
X87.5Y15.
G80
G0 Z4.0875
(SlotDrill 1/8in 3.175mm Carbide Aluminium Cut)
T6 M06
S23960 M3
Z1.5875
X-1.45324 Y53.1232
G1 Z0.33333 F4198.
X-1.43029 Y53.18879 Z0.32108 F3594.
X-1.24116 Y53.48979 Z0.2584
X-0.98979 Y53.74116 Z0.19572
X-0.68879 Y53.93029 Z0.13303
X-0.35325 Y54.0477 Z0.07035
X0. Y54.0875 Z0.00767
X6.66 Z-1.16667
X40. F4792.
G17
G02 X41.5875 Y52.5 I0. J-1.5875
G1 Y0.
G02 X40. Y-1.5875 I-1.5875 J0.
G1 X0.
G02 X-1.5875 Y0. I0. J1.5875
G1 Y52.5
G02 X0. Y54.0875 I1.5875 J0.
G1 X6.66
Z-2.33333
X40.
G02 X41.5875 Y52.5 I0. J-1.5875
G1 Y0.
G02 X40. Y-1.5875 I-1.5875 J0.
G1 X0.
G02 X-1.5875 Y0. I0. J1.5875
G1 Y52.5
G02 X0. Y54.0875 I1.5875 J0.
G1 X6.66
Z-3.5
X40.
G02 X41.5875 Y52.5 I0. J-1.5875
G1 Y0.
G02 X40. Y-1.5875 I-1.5875 J0.
G1 X0.
G02 X-1.5875 Y0. I0. J1.5875
G1 Y52.5
G02 X0. Y54.0875 I1.5875 J0.
G1 X6.66
G0 Z1.5875
X48.54676 Y53.1232
G1 Z0.33333 F4198.
X48.56971 Y53.18879 Z0.32108 F3594.
X48.75884 Y53.48979 Z0.2584
X49.01021 Y53.74116 Z0.19572
X49.31121 Y53.93029 Z0.13303
X49.64675 Y54.0477 Z0.07035
X50. Y54.0875 Z0.00767
X56.66 Z-1.16667
X90. F4792.
G02 X91.5875 Y52.5 I0. J-1.5875
G1 Y0.
G02 X90. Y-1.5875 I-1.5875 J0.
G1 X50.
G02 X48.4125 Y0. I0. J1.5875
G1 Y52.5
G02 X50. Y54.0875 I1.5875 J0.
G1 X56.66
Z-2.33333
X90.
G02 X91.5875 Y52.5 I0. J-1.5875
G1 Y0.
G02 X90. Y-1.5875 I-1.5875 J0.
G1 X50.
G02 X48.4125 Y0. I0. J1.5875
G1 Y52.5
G02 X50. Y54.0875 I1.5875 J0.
G1 X56.66
Z-3.5
X90.
G02 X91.5875 Y52.5 I0. J-1.5875
G1 Y0.
G02 X90. Y-1.5875 I-1.5875 J0.
G1 X50.
G02 X48.4125 Y0. I0. J1.5875
G1 Y52.5
G02 X50. Y54.0875 I1.5875 J0.
G1 X56.66
G0 Z1.5875
M30
%
