%
G17 G21 G40 G90 G64 P0.1
(2 1/2 Axis Profiling)
(SlotDrill 2mm Carbide)
T12 M06
S24000 M3
G0 Z1.
X46.86787 Y-90.70914
G1 Z-3. F96.
G17
G03 X45.75213 Y-91.15086 I-0.55787 J-0.22086 F384.
X46.86787 Y-90.70914 I0.55787 J0.22086
G1 Z-4.
G03 X45.75213 Y-91.15086 I-0.55787 J-0.22086
X46.86787 Y-90.70914 I0.55787 J0.22086
G1 Z-5.
G03 X45.75213 Y-91.15086 I-0.55787 J-0.22086
X46.86787 Y-90.70914 I0.55787 J0.22086
G1 Z-6.
G03 X45.75213 Y-91.15086 I-0.55787 J-0.22086
X46.86787 Y-90.70914 I0.55787 J0.22086
G0 Z1.
X46.08914 Y-30.52787
G1 Z-3. F96.
G03 X46.53086 Y-29.41213 I0.22086 J0.55787 F384.
X46.08914 Y-30.52787 I-0.22086 J-0.55787
G1 Z-4.
G03 X46.53086 Y-29.41213 I0.22086 J0.55787
X46.08914 Y-30.52787 I-0.22086 J-0.55787
G1 Z-5.
G03 X46.53086 Y-29.41213 I0.22086 J0.55787
X46.08914 Y-30.52787 I-0.22086 J-0.55787
G1 Z-6.
G03 X46.53086 Y-29.41213 I0.22086 J0.55787
X46.08914 Y-30.52787 I-0.22086 J-0.55787
G0 Z1.
X71.42426 Y-18.87427
G1 Z-3. F96.
G03 X70.57574 Y-18.02574 I-0.42426 J0.42427 F384.
X71.42426 Y-18.87427 I0.42426 J-0.42426
G1 Z-4.
G03 X70.57574 Y-18.02574 I-0.42426 J0.42427
X71.42426 Y-18.87427 I0.42426 J-0.42426
G1 Z-5.
G03 X70.57574 Y-18.02574 I-0.42426 J0.42427
X71.42426 Y-18.87427 I0.42426 J-0.42426
G1 Z-6.
G03 X70.57574 Y-18.02574 I-0.42426 J0.42427
X71.42426 Y-18.87427 I0.42426 J-0.42426
G0 Z1.
X165.46914 Y-30.52787
G1 Z-3. F96.
G03 X165.91086 Y-29.41213 I0.22086 J0.55787 F384.
X165.46914 Y-30.52787 I-0.22086 J-0.55787
G1 Z-4.
G03 X165.91086 Y-29.41213 I0.22086 J0.55787
X165.46914 Y-30.52787 I-0.22086 J-0.55787
G1 Z-5.
G03 X165.91086 Y-29.41213 I0.22086 J0.55787
X165.46914 Y-30.52787 I-0.22086 J-0.55787
G1 Z-6.
G03 X165.91086 Y-29.41213 I0.22086 J0.55787
X165.46914 Y-30.52787 I-0.22086 J-0.55787
G0 Z1.
X165.69 Y-90.33
G1 Z-3. F96.
G03 Y-91.53 I0. J-0.6 F384.
Y-90.33 I0. J0.6
G1 Z-4.
G03 Y-91.53 I0. J-0.6
Y-90.33 I0. J0.6
G1 Z-5.
G03 Y-91.53 I0. J-0.6
Y-90.33 I0. J0.6
G1 Z-6.
G03 Y-91.53 I0. J-0.6
Y-90.33 I0. J0.6
G0 Z1.
M30
%
