%
G17 G21 G40 G90 G64 P0.1
(2 1/2 Axis Profiling)
(SlotDrill 2mm Carbide)
T12 M06
S24000 M3
G0 Z6.
X46.03556 Y68.03644
G1 Z2.27 F192.2
X46.0274 Y68.02076 Z2.26688 F576.7
X45.95745 Y67.94409 Z2.24858
X45.87014 Y67.888 Z2.23028
X45.77134 Y67.85625 Z2.21198
X45.6677 Y67.85097 Z2.19368
X45.56618 Y67.87253 Z2.17538
X45.47363 Y67.91947 Z2.15708
X45.39625 Y67.98863 Z2.13879
X45.33927 Y68.07537 Z2.12049
X45.30651 Y68.17384 Z2.10219
X45.30018 Y68.27742 Z2.08389
X45.3207 Y68.37915 Z2.06559
X45.3667 Y68.47218 Z2.04729
X45.43507 Y68.55026 Z2.02899
X45.52122 Y68.60812 Z2.01069
X45.61935 Y68.64188 Z1.99239
X45.72286 Y68.64927 Z1.9741
X45.8248 Y68.62979 Z1.9558
X45.91829 Y68.58475 Z1.9375
X46.09366 Y68.31781 Z1.88118
X46.09787 Y68.21412 Z1.86288
X46.07528 Y68.11283 Z1.84458
X46.0274 Y68.02076 Z1.82629
X45.95745 Y67.94409 Z1.80799
X45.87014 Y67.888 Z1.78969
X45.77134 Y67.85625 Z1.77139
X45.6677 Y67.85097 Z1.75309
X45.56618 Y67.87253 Z1.73479
X45.47363 Y67.91947 Z1.71649
X45.39625 Y67.98863 Z1.69819
X45.33927 Y68.07537 Z1.67989
X45.30651 Y68.17384 Z1.6616
X45.30018 Y68.27742 Z1.6433
X45.3207 Y68.37915 Z1.625
X45.3667 Y68.47218 Z1.6067
X45.43507 Y68.55026 Z1.5884
X45.52122 Y68.60812 Z1.5701
X45.61935 Y68.64188 Z1.5518
X45.72286 Y68.64927 Z1.5335
X45.8248 Y68.62979 Z1.5152
X45.91829 Y68.58475 Z1.49691
X46.09366 Y68.31781 Z1.44059
X46.09787 Y68.21412 Z1.42229
X46.07528 Y68.11283 Z1.40399
X46.0274 Y68.02076 Z1.38569
X45.95745 Y67.94409 Z1.36739
X45.87014 Y67.888 Z1.34909
X45.77134 Y67.85625 Z1.3308
X45.6677 Y67.85097 Z1.3125
X45.56618 Y67.87253 Z1.2942
X45.47363 Y67.91947 Z1.2759
X45.39625 Y67.98863 Z1.2576
X45.33927 Y68.07537 Z1.2393
X45.30651 Y68.17384 Z1.221
X45.30018 Y68.27742 Z1.2027
X45.3207 Y68.37915 Z1.1844
X45.3667 Y68.47218 Z1.16611
X45.43507 Y68.55026 Z1.14781
X45.52122 Y68.60812 Z1.12951
X45.61935 Y68.64188 Z1.11121
X45.72286 Y68.64927 Z1.09291
X45.8248 Y68.62979 Z1.07461
X45.91829 Y68.58475 Z1.05631
X46.09366 Y68.31781 Z1.
G17
G02 X45.91829 Y68.58475 I-0.39431 J-0.06797 F769.
G1 X46.09366 Y68.31781
X46.28129 Y68.39646
X46.06497 Y68.72572
G03 X46.28129 Y68.39646 I-0.36562 J-0.47588
G0 Z6.
X46.09366 Y68.31781
G1 Z0. F192.2
G02 X45.91829 Y68.58475 I-0.39431 J-0.06797 F769.
G1 X46.09366 Y68.31781
X46.28129 Y68.39646
X46.06497 Y68.72572
G03 X46.28129 Y68.39646 I-0.36562 J-0.47588
G0 Z6.
X46.09366 Y68.31781
G1 Z-1. F192.2
G02 X45.91829 Y68.58475 I-0.39431 J-0.06797 F769.
G1 X46.09366 Y68.31781
X46.28129 Y68.39646
X46.06497 Y68.72572
G03 X46.28129 Y68.39646 I-0.36562 J-0.47588
G0 Z6.
X46.09366 Y68.31781
G1 Z-2. F192.2
G02 X45.91829 Y68.58475 I-0.39431 J-0.06797 F769.
G1 X46.09366 Y68.31781
X46.28129 Y68.39646
X46.06497 Y68.72572
G03 X46.28129 Y68.39646 I-0.36562 J-0.47588
G0 Z6.
X40.24855 Y87.1392
G1 Z2.27 F192.2
Y79.93667 Z1. F576.7
Y71.61 F769.
X34.29746
G03 X33.49733 Y71.29783 I0.00381 J-1.19126
X32.69721 Y71.61 I-0.80393 J-0.87909
G1 X23.2956
Y89.29
X32.69721
G03 X33.49733 Y89.60218 I-0.00381 J1.19126
X34.29746 Y89.29 I0.80394 J0.87908
G1 X40.24855
Y79.93667
X40.44855
Y89.49
X34.29746
G02 X33.49733 Y89.90412 I-0.0111 J0.95859
G1 X33.40432 Y89.7829
G02 X32.69721 Y89.49 I-0.70711 J0.7071
G1 X23.0956
Y71.41
X32.69721
G02 X33.49733 Y70.99589 I0.0111 J-0.95859
G1 X33.59035 Y71.11711
G02 X34.29746 Y71.41 I0.70711 J-0.70711
G1 X40.44855
Y79.93667
G0 Z6.
X40.24855
G1 Z0. F192.2
Y71.61 F769.
X34.29746
G03 X33.49733 Y71.29783 I0.00381 J-1.19126
X32.69721 Y71.61 I-0.80393 J-0.87909
G1 X23.2956
Y89.29
X32.69721
G03 X33.49733 Y89.60218 I-0.00381 J1.19126
X34.29746 Y89.29 I0.80394 J0.87908
G1 X40.24855
Y79.93667
X40.44855
Y89.49
X34.29746
G02 X33.49733 Y89.90412 I-0.0111 J0.95859
G1 X33.40432 Y89.7829
G02 X32.69721 Y89.49 I-0.70711 J0.7071
G1 X23.0956
Y71.41
X32.69721
G02 X33.49733 Y70.99589 I0.0111 J-0.95859
G1 X33.59035 Y71.11711
G02 X34.29746 Y71.41 I0.70711 J-0.70711
G1 X40.44855
Y79.93667
G0 Z6.
X40.24855
G1 Z-1. F192.2
Y71.61 F769.
X34.29746
G03 X33.49733 Y71.29783 I0.00381 J-1.19126
X32.69721 Y71.61 I-0.80393 J-0.87909
G1 X23.2956
Y89.29
X32.69721
G03 X33.49733 Y89.60218 I-0.00381 J1.19126
X34.29746 Y89.29 I0.80394 J0.87908
G1 X40.24855
Y79.93667
X40.44855
Y89.49
X34.29746
G02 X33.49733 Y89.90412 I-0.0111 J0.95859
G1 X33.40432 Y89.7829
G02 X32.69721 Y89.49 I-0.70711 J0.7071
G1 X23.0956
Y71.41
X32.69721
G02 X33.49733 Y70.99589 I0.0111 J-0.95859
G1 X33.59035 Y71.11711
G02 X34.29746 Y71.41 I0.70711 J-0.70711
G1 X40.44855
Y79.93667
G0 Z6.
X40.24855
G1 Z-2. F192.2
Y71.61 F769.
X34.29746
G03 X33.49733 Y71.29783 I0.00381 J-1.19126
X32.69721 Y71.61 I-0.80393 J-0.87909
G1 X23.2956
Y89.29
X32.69721
G03 X33.49733 Y89.60218 I-0.00381 J1.19126
X34.29746 Y89.29 I0.80394 J0.87908
G1 X40.24855
Y79.93667
X40.44855
Y89.49
X34.29746
G02 X33.49733 Y89.90412 I-0.0111 J0.95859
G1 X33.40432 Y89.7829
G02 X32.69721 Y89.49 I-0.70711 J0.7071
G1 X23.0956
Y71.41
X32.69721
G02 X33.49733 Y70.99589 I0.0111 J-0.95859
G1 X33.59035 Y71.11711
G02 X34.29746 Y71.41 I0.70711 J-0.70711
G1 X40.44855
Y79.93667
G0 Z6.
X46.03556 Y92.43644
G1 Z2.27 F192.2
X46.0274 Y92.42076 Z2.26688 F576.7
X45.95745 Y92.3441 Z2.24858
X45.87014 Y92.288 Z2.23028
X45.77134 Y92.25625 Z2.21198
X45.6677 Y92.25097 Z2.19368
X45.56618 Y92.27253 Z2.17538
X45.47363 Y92.31947 Z2.15708
X45.39625 Y92.38863 Z2.13879
X45.33927 Y92.47537 Z2.12049
X45.30651 Y92.57384 Z2.10219
X45.30018 Y92.67743 Z2.08389
X45.3207 Y92.77916 Z2.06559
X45.3667 Y92.87219 Z2.04729
X45.43507 Y92.95026 Z2.02899
X45.52122 Y93.00812 Z2.01069
X45.61935 Y93.04188 Z1.99239
X45.72286 Y93.04927 Z1.9741
X45.8248 Y93.02979 Z1.9558
X45.91829 Y92.98475 Z1.9375
X46.09366 Y92.71781 Z1.88118
X46.09787 Y92.61412 Z1.86288
X46.07528 Y92.51283 Z1.84458
X46.0274 Y92.42076 Z1.82629
X45.95745 Y92.3441 Z1.80799
X45.87014 Y92.288 Z1.78969
X45.77134 Y92.25625 Z1.77139
X45.6677 Y92.25097 Z1.75309
X45.56618 Y92.27253 Z1.73479
X45.47363 Y92.31947 Z1.71649
X45.39625 Y92.38863 Z1.69819
X45.33927 Y92.47537 Z1.67989
X45.30651 Y92.57384 Z1.6616
X45.30018 Y92.67743 Z1.6433
X45.3207 Y92.77916 Z1.625
X45.3667 Y92.87219 Z1.6067
X45.43507 Y92.95026 Z1.5884
X45.52122 Y93.00812 Z1.5701
X45.61935 Y93.04188 Z1.5518
X45.72286 Y93.04927 Z1.5335
X45.8248 Y93.02979 Z1.5152
X45.91829 Y92.98475 Z1.49691
X46.09366 Y92.71781 Z1.44059
X46.09787 Y92.61412 Z1.42229
X46.07528 Y92.51283 Z1.40399
X46.0274 Y92.42076 Z1.38569
X45.95745 Y92.3441 Z1.36739
X45.87014 Y92.288 Z1.34909
X45.77134 Y92.25625 Z1.3308
X45.6677 Y92.25097 Z1.3125
X45.56618 Y92.27253 Z1.2942
X45.47363 Y92.31947 Z1.2759
X45.39625 Y92.38863 Z1.2576
X45.33927 Y92.47537 Z1.2393
X45.30651 Y92.57384 Z1.221
X45.30018 Y92.67743 Z1.2027
X45.3207 Y92.77916 Z1.1844
X45.3667 Y92.87219 Z1.16611
X45.43507 Y92.95026 Z1.14781
X45.52122 Y93.00812 Z1.12951
X45.61935 Y93.04188 Z1.11121
X45.72286 Y93.04927 Z1.09291
X45.8248 Y93.02979 Z1.07461
X45.91829 Y92.98475 Z1.05631
X46.09366 Y92.71781 Z1.
G02 X45.91829 Y92.98475 I-0.39431 J-0.06797 F769.
G1 X46.09366 Y92.71781
X46.28129 Y92.79646
X46.06497 Y93.12573
G03 X46.28129 Y92.79646 I-0.36562 J-0.47589
G0 Z6.
X46.09366 Y92.71781
G1 Z0. F192.2
G02 X45.91829 Y92.98475 I-0.39431 J-0.06797 F769.
G1 X46.09366 Y92.71781
X46.28129 Y92.79646
X46.06497 Y93.12573
G03 X46.28129 Y92.79646 I-0.36562 J-0.47589
G0 Z6.
X46.09366 Y92.71781
G1 Z-1. F192.2
G02 X45.91829 Y92.98475 I-0.39431 J-0.06797 F769.
G1 X46.09366 Y92.71781
X46.28129 Y92.79646
X46.06497 Y93.12573
G03 X46.28129 Y92.79646 I-0.36562 J-0.47589
G0 Z6.
X46.09366 Y92.71781
G1 Z-2. F192.2
G02 X45.91829 Y92.98475 I-0.39431 J-0.06797 F769.
G1 X46.09366 Y92.71781
X46.28129 Y92.79646
X46.06497 Y93.12573
G03 X46.28129 Y92.79646 I-0.36562 J-0.47589
G0 Z6.
X21.66257 Y68.09216
G1 Z2.27 F192.2
X21.61225 Y68.00559 Z2.25234 F576.7
X21.53817 Y67.93196 Z2.23392
X21.44756 Y67.88 Z2.21551
X21.3466 Y67.85327 Z2.19709
X21.24215 Y67.85358 Z2.17867
X21.14134 Y67.88091 Z2.16026
X21.05104 Y67.93341 Z2.14184
X20.97741 Y68.00748 Z2.12342
X20.92545 Y68.09809 Z2.10501
X20.89872 Y68.19906 Z2.08659
X20.89903 Y68.3035 Z2.06817
X20.92636 Y68.40431 Z2.04976
X20.97886 Y68.49461 Z2.03134
X21.05293 Y68.56824 Z2.01292
X21.14354 Y68.6202 Z1.9945
X21.24451 Y68.64693 Z1.97609
X21.34895 Y68.64662 Z1.95767
X21.44976 Y68.61929 Z1.93926
X21.54006 Y68.5668 Z1.92084
X21.61369 Y68.49272 Z1.90242
X21.66565 Y68.40211 Z1.884
X21.69238 Y68.30115 Z1.86559
X21.69207 Y68.1967 Z1.84717
X21.66474 Y68.09589 Z1.82875
X21.61225 Y68.00559 Z1.81034
X21.53817 Y67.93196 Z1.79192
X21.44756 Y67.88 Z1.7735
X21.3466 Y67.85327 Z1.75509
X21.24215 Y67.85358 Z1.73667
X21.14134 Y67.88091 Z1.71825
X21.05104 Y67.93341 Z1.69984
X20.97741 Y68.00748 Z1.68142
X20.92545 Y68.09809 Z1.663
X20.89872 Y68.19906 Z1.64458
X20.89903 Y68.3035 Z1.62617
X20.92636 Y68.40431 Z1.60775
X20.97886 Y68.49461 Z1.58933
X21.05293 Y68.56824 Z1.57092
X21.14354 Y68.6202 Z1.5525
X21.24451 Y68.64693 Z1.53408
X21.34895 Y68.64662 Z1.51567
X21.44976 Y68.61929 Z1.49725
X21.54006 Y68.5668 Z1.47883
X21.61369 Y68.49272 Z1.46042
X21.66565 Y68.40211 Z1.442
X21.69238 Y68.30115 Z1.42358
X21.69207 Y68.1967 Z1.40517
X21.66474 Y68.09589 Z1.38675
X21.61225 Y68.00559 Z1.36833
X21.53817 Y67.93196 Z1.34992
X21.44756 Y67.88 Z1.3315
X21.3466 Y67.85327 Z1.31308
X21.24215 Y67.85358 Z1.29467
X21.14134 Y67.88091 Z1.27625
X21.05104 Y67.93341 Z1.25783
X20.97741 Y68.00748 Z1.23941
X20.92545 Y68.09809 Z1.221
X20.89872 Y68.19906 Z1.20258
X20.89903 Y68.3035 Z1.18416
X20.92636 Y68.40431 Z1.16575
X20.97886 Y68.49461 Z1.14733
X21.05293 Y68.56824 Z1.12891
X21.14354 Y68.6202 Z1.1105
X21.24451 Y68.64693 Z1.09208
X21.34895 Y68.64662 Z1.07366
X21.44976 Y68.61929 Z1.05525
X21.54006 Y68.5668 Z1.03683
X21.61369 Y68.49272 Z1.01841
X21.66565 Y68.40211 Z1.
G02 X20.92545 Y68.09809 I-0.3701 J-0.15201 F769.
X21.66565 Y68.40211 I0.3701 J0.15201
G1 X21.85065 Y68.4781
G03 X20.74045 Y68.0221 I-0.5551 J-0.228
X21.85065 Y68.4781 I0.5551 J0.228
G0 Z6.
X21.66565 Y68.40211
G1 Z0. F192.2
G02 X20.92545 Y68.09809 I-0.3701 J-0.15201 F769.
X21.66565 Y68.40211 I0.3701 J0.15201
G1 X21.85065 Y68.4781
G03 X20.74045 Y68.0221 I-0.5551 J-0.228
X21.85065 Y68.4781 I0.5551 J0.228
G0 Z6.
X21.66565 Y68.40211
G1 Z-1. F192.2
G02 X20.92545 Y68.09809 I-0.3701 J-0.15201 F769.
X21.66565 Y68.40211 I0.3701 J0.15201
G1 X21.85065 Y68.4781
G03 X20.74045 Y68.0221 I-0.5551 J-0.228
X21.85065 Y68.4781 I0.5551 J0.228
G0 Z6.
X21.66565 Y68.40211
G1 Z-2. F192.2
G02 X20.92545 Y68.09809 I-0.3701 J-0.15201 F769.
X21.66565 Y68.40211 I0.3701 J0.15201
G1 X21.85065 Y68.4781
G03 X20.74045 Y68.0221 I-0.5551 J-0.228
X21.85065 Y68.4781 I0.5551 J0.228
G0 Z6.
X21.66048 Y92.48741
G1 Z2.27 F192.2
X21.60908 Y92.40154 Z2.25235 F576.7
X21.53406 Y92.32887 Z2.23393
X21.44279 Y92.27808 Z2.21552
X21.34149 Y92.25265 Z2.1971
X21.23705 Y92.2543 Z2.17868
X21.1366 Y92.28293 Z2.16026
X21.04699 Y92.33658 Z2.14185
X20.97431 Y92.4116 Z2.12343
X20.92352 Y92.50287 Z2.10501
X20.89809 Y92.60417 Z2.0866
X20.89975 Y92.7086 Z2.06818
X20.92837 Y92.80905 Z2.04976
X20.98202 Y92.89867 Z2.03135
X21.05704 Y92.97135 Z2.01293
X21.14831 Y93.02213 Z1.99451
X21.24961 Y93.04756 Z1.9761
X21.35405 Y93.04591 Z1.95768
X21.4545 Y93.01728 Z1.93926
X21.54411 Y92.96363 Z1.92084
X21.61679 Y92.88862 Z1.90243
X21.66757 Y92.79735 Z1.88401
X21.69301 Y92.69604 Z1.86559
X21.69135 Y92.59161 Z1.84718
X21.66273 Y92.49116 Z1.82876
X21.60908 Y92.40154 Z1.81034
X21.53406 Y92.32887 Z1.79193
X21.44279 Y92.27808 Z1.77351
X21.34149 Y92.25265 Z1.75509
X21.23705 Y92.2543 Z1.73667
X21.1366 Y92.28293 Z1.71826
X21.04699 Y92.33658 Z1.69984
X20.97431 Y92.4116 Z1.68142
X20.92352 Y92.50287 Z1.66301
X20.89809 Y92.60417 Z1.64459
X20.89975 Y92.7086 Z1.62617
X20.92837 Y92.80905 Z1.60776
X20.98202 Y92.89867 Z1.58934
X21.05704 Y92.97135 Z1.57092
X21.14831 Y93.02213 Z1.5525
X21.24961 Y93.04756 Z1.53409
X21.35405 Y93.04591 Z1.51567
X21.4545 Y93.01728 Z1.49725
X21.54411 Y92.96363 Z1.47884
X21.61679 Y92.88862 Z1.46042
X21.66757 Y92.79735 Z1.442
X21.69301 Y92.69604 Z1.42359
X21.69135 Y92.59161 Z1.40517
X21.66273 Y92.49116 Z1.38675
X21.60908 Y92.40154 Z1.36834
X21.53406 Y92.32887 Z1.34992
X21.44279 Y92.27808 Z1.3315
X21.34149 Y92.25265 Z1.31308
X21.23705 Y92.2543 Z1.29467
X21.1366 Y92.28293 Z1.27625
X21.04699 Y92.33658 Z1.25783
X20.97431 Y92.4116 Z1.23942
X20.92352 Y92.50287 Z1.221
X20.89809 Y92.60417 Z1.20258
X20.89975 Y92.7086 Z1.18417
X20.92837 Y92.80905 Z1.16575
X20.98202 Y92.89867 Z1.14733
X21.05704 Y92.97135 Z1.12891
X21.14831 Y93.02213 Z1.1105
X21.24961 Y93.04756 Z1.09208
X21.35405 Y93.04591 Z1.07366
X21.4545 Y93.01728 Z1.05525
X21.54411 Y92.96363 Z1.03683
X21.61679 Y92.88862 Z1.01841
X21.66757 Y92.79735 Z1.
G02 X20.92352 Y92.50287 I-0.37202 J-0.14724 F769.
X21.66757 Y92.79735 I0.37203 J0.14724
G1 X21.85354 Y92.87095
G03 X20.73756 Y92.42926 I-0.55799 J-0.22084
X21.85354 Y92.87095 I0.55799 J0.22085
G0 Z6.
X21.66757 Y92.79735
G1 Z0. F192.2
G02 X20.92352 Y92.50287 I-0.37202 J-0.14724 F769.
X21.66757 Y92.79735 I0.37203 J0.14724
G1 X21.85354 Y92.87095
G03 X20.73756 Y92.42926 I-0.55799 J-0.22084
X21.85354 Y92.87095 I0.55799 J0.22085
G0 Z6.
X21.66757 Y92.79735
G1 Z-1. F192.2
G02 X20.92352 Y92.50287 I-0.37202 J-0.14724 F769.
X21.66757 Y92.79735 I0.37203 J0.14724
G1 X21.85354 Y92.87095
G03 X20.73756 Y92.42926 I-0.55799 J-0.22084
X21.85354 Y92.87095 I0.55799 J0.22085
G0 Z6.
X21.66757 Y92.79735
G1 Z-2. F192.2
G02 X20.92352 Y92.50287 I-0.37202 J-0.14724 F769.
X21.66757 Y92.79735 I0.37203 J0.14724
G1 X21.85354 Y92.87095
G03 X20.73756 Y92.42926 I-0.55799 J-0.22084
X21.85354 Y92.87095 I0.55799 J0.22085
G0 Z6.
M30
%
