%
G17 G21 G40 G90 G64 P0.1
(2 1/2 Axis Profiling)
(SlotDrill 2mm Carbide)
T12 M06
S24000 M3
G0 Z1.
X157.58252 Y-15.46427
G1 Z0.27 F192.2
X157.72208 Y-15.32937 Z0.23577 F576.7
X158.03661 Y-15.06286 Z0.16308
X158.36789 Y-14.81748 Z0.09039
X158.71452 Y-14.59429 Z0.0177
X159.07499 Y-14.39426 Z-0.055
X159.44778 Y-14.21823 Z-0.12769
X159.83128 Y-14.06695 Z-0.20038
X160.22386 Y-13.94108 Z-0.27307
X160.62383 Y-13.84116 Z-0.34577
X161.02947 Y-13.76761 Z-0.41846
X161.43906 Y-13.72075 Z-0.49115
X161.85084 Y-13.70078 Z-0.56385
X162.26304 Y-13.70778 Z-0.63654
X162.6739 Y-13.74173 Z-0.70923
X163.08166 Y-13.80247 Z-0.78192
X163.48458 Y-13.88976 Z-0.85462
X163.88092 Y-14.00321 Z-0.92731
X164.26899 Y-14.14233 Z-1.
G17
G02 X159.631 Y-25.85766 I-2.31899 J-5.85767 F769.
X164.26899 Y-14.14233 I2.319 J5.85766
G1 X164.34261 Y-13.95638
G03 X159.55738 Y-26.04362 I-2.39261 J-6.04362
X164.34261 Y-13.95638 I2.39262 J6.04362
G0 Z1.
X164.26899 Y-14.14233
G1 Z-2. F192.2
G02 X159.631 Y-25.85766 I-2.31899 J-5.85767 F769.
X164.26899 Y-14.14233 I2.319 J5.85766
G1 X164.34261 Y-13.95638
G03 X159.55738 Y-26.04362 I-2.39261 J-6.04362
X164.34261 Y-13.95638 I2.39262 J6.04362
G0 Z1.
X164.26899 Y-14.14233
G1 Z-3. F192.2
G02 X159.631 Y-25.85766 I-2.31899 J-5.85767 F769.
X164.26899 Y-14.14233 I2.319 J5.85766
G1 X164.34261 Y-13.95638
G03 X159.55738 Y-26.04362 I-2.39261 J-6.04362
X164.34261 Y-13.95638 I2.39262 J6.04362
G0 Z1.
X164.26899 Y-14.14233
G1 Z-4. F192.2
G02 X159.631 Y-25.85766 I-2.31899 J-5.85767 F769.
X164.26899 Y-14.14233 I2.319 J5.85766
G1 X164.34261 Y-13.95638
G03 X159.55738 Y-26.04362 I-2.39261 J-6.04362
X164.34261 Y-13.95638 I2.39262 J6.04362
G0 Z1.
M30
%
