%
G17 G21 G40 G90 G64 P0.1
(2 1/2 Axis Profiling)
(SlotDrill 2mm Carbide)
T12 M06
S24000 M3
G0 Z0.96
X55.67343 Y-22.4872
G1 Z0.23 F192.2
X55.77031 Y-22.31918 Z0.1958 F576.7
X55.97742 Y-22.01393 Z0.13076
X56.20625 Y-21.72462 Z0.06571
X56.45559 Y-21.45278 Z0.00067
X56.72411 Y-21.19987 Z-0.06437
X57.01038 Y-20.96724 Z-0.12941
X57.31286 Y-20.75611 Z-0.19445
X57.62994 Y-20.56764 Z-0.2595
X57.95994 Y-20.40281 Z-0.32454
X58.30109 Y-20.26251 Z-0.38958
X58.65157 Y-20.14749 Z-0.45462
X59.00951 Y-20.05835 Z-0.51966
X59.37301 Y-19.99558 Z-0.58471
X59.74011 Y-19.95952 Z-0.64975
X60.10887 Y-19.95034 Z-0.71479
X60.47731 Y-19.96811 Z-0.77983
X60.84348 Y-20.01273 Z-0.84488
X61.20541 Y-20.08395 Z-0.90992
X61.56117 Y-20.18141 Z-0.97496
X61.90888 Y-20.30457 Z-1.04
G17
G02 X58.19112 Y-29.69543 I-1.85888 J-4.69543 F769.
X61.90888 Y-20.30457 I1.85888 J4.69543
G1 X61.9825 Y-20.11861
G03 X58.1175 Y-29.88139 I-1.9325 J-4.88139
X61.9825 Y-20.11861 I1.9325 J4.88139
G0 Z0.96
X61.90888 Y-20.30457
G1 Z-2.04 F192.2
G02 X58.19112 Y-29.69543 I-1.85888 J-4.69543 F769.
X61.90888 Y-20.30457 I1.85888 J4.69543
G1 X61.9825 Y-20.11861
G03 X58.1175 Y-29.88139 I-1.9325 J-4.88139
X61.9825 Y-20.11861 I1.9325 J4.88139
G0 Z0.96
X61.90888 Y-20.30457
G1 Z-3.04 F192.2
G02 X58.19112 Y-29.69543 I-1.85888 J-4.69543 F769.
X61.90888 Y-20.30457 I1.85888 J4.69543
G1 X61.9825 Y-20.11861
G03 X58.1175 Y-29.88139 I-1.9325 J-4.88139
X61.9825 Y-20.11861 I1.9325 J4.88139
G0 Z0.96
X61.90888 Y-20.30457
G1 Z-4.04 F192.2
G02 X58.19112 Y-29.69543 I-1.85888 J-4.69543 F769.
X61.90888 Y-20.30457 I1.85888 J4.69543
G1 X61.9825 Y-20.11861
G03 X58.1175 Y-29.88139 I-1.9325 J-4.88139
X61.9825 Y-20.11861 I1.9325 J4.88139
G0 Z0.96
X161.99285 Y-19.80451
G1 Z0.23 F192.2
X162. Y-19.99833 Z0.1958 F576.7
X161.98665 Y-20.36696 Z0.13076
X161.94643 Y-20.73363 Z0.06571
X161.87955 Y-21.09639 Z0.00067
X161.78636 Y-21.4533 Z-0.06437
X161.66738 Y-21.80245 Z-0.12941
X161.52322 Y-22.14199 Z-0.19445
X161.35467 Y-22.4701 Z-0.2595
X161.16261 Y-22.78503 Z-0.32454
X160.94808 Y-23.0851 Z-0.38958
X160.71222 Y-23.36871 Z-0.45462
X160.45628 Y-23.63435 Z-0.51966
X160.18164 Y-23.8806 Z-0.58471
X159.88975 Y-24.10614 Z-0.64975
X159.58218 Y-24.30977 Z-0.71479
X159.26056 Y-24.49041 Z-0.77983
X158.92662 Y-24.64709 Z-0.84488
X158.58213 Y-24.77898 Z-0.90992
X158.22893 Y-24.88537 Z-0.97496
X157.86891 Y-24.96569 Z-1.04
G02 X156.03109 Y-15.03431 I-0.91891 J4.96569 F769.
X157.86891 Y-24.96569 I0.91891 J-4.96569
G1 X157.90531 Y-25.16235
G03 X155.99469 Y-14.83765 I-0.95531 J5.16235
X157.90531 Y-25.16235 I0.95531 J-5.16235
G0 Z0.96
X157.86891 Y-24.96569
G1 Z-2.04 F192.2
G02 X156.03109 Y-15.03431 I-0.91891 J4.96569 F769.
X157.86891 Y-24.96569 I0.91891 J-4.96569
G1 X157.90531 Y-25.16235
G03 X155.99469 Y-14.83765 I-0.95531 J5.16235
X157.90531 Y-25.16235 I0.95531 J-5.16235
G0 Z0.96
X157.86891 Y-24.96569
G1 Z-3.04 F192.2
G02 X156.03109 Y-15.03431 I-0.91891 J4.96569 F769.
X157.86891 Y-24.96569 I0.91891 J-4.96569
G1 X157.90531 Y-25.16235
G03 X155.99469 Y-14.83765 I-0.95531 J5.16235
X157.90531 Y-25.16235 I0.95531 J-5.16235
G0 Z0.96
X157.86891 Y-24.96569
G1 Z-4.04 F192.2
G02 X156.03109 Y-15.03431 I-0.91891 J4.96569 F769.
X157.86891 Y-24.96569 I0.91891 J-4.96569
G1 X157.90531 Y-25.16235
G03 X155.99469 Y-14.83765 I-0.95531 J5.16235
X157.90531 Y-25.16235 I0.95531 J-5.16235
G0 Z0.96
M30
%
