%
G17 G21 G40 G90 G64 P0.1
(2 1/2 Axis Profiling)
(SlotDrill 2mm Carbide)
T12 M06
S24000 M3
G0 Z1.
X26.76545 Y-72.49773
G1 Z0.27 F96.
X27.10986 Y-72.53339 Z0.20895 F288.
X27.59348 Y-72.61055 Z0.12259
X28.07212 Y-72.71419 Z0.03624
X28.54433 Y-72.844 Z-0.05011
X29.00869 Y-72.9996 Z-0.13647
X29.46379 Y-73.18049 Z-0.22282
X29.90825 Y-73.38615 Z-0.30917
X30.34073 Y-73.61595 Z-0.39553
X30.75991 Y-73.86918 Z-0.48188
X31.16452 Y-74.14509 Z-0.56823
X31.55335 Y-74.44283 Z-0.65459
X31.92521 Y-74.76152 Z-0.74094
X32.27898 Y-75.10017 Z-0.82729
X32.61359 Y-75.45777 Z-0.91365
X32.92801 Y-75.83324 Z-1.
G17
G02 X34.79599 Y-80.37849 I-6.97801 J-5.52425 F384.
G03 X35.85 Y-81.34819 I1.0784 J0.11448
G1 Y-81.36678
G03 X34.79599 Y-82.33649 I0.02439 J-1.08419
G02 X32.92801 Y-75.83324 I-8.84599 J0.979
G1 X33.00642 Y-75.77117
G03 X34.89538 Y-82.34749 I-7.05642 J-5.58632
G02 X35.64828 Y-81.48697 I0.99394 J-0.11
G1 X35.95 Y-81.45749
Y-81.25749
X35.64828 Y-81.22801
G02 X34.89538 Y-80.36749 I0.24104 J0.97052
G03 X33.00642 Y-75.77117 I-8.94538 J-0.99
G0 Z1.
X26.76545 Y-72.49773
G1 Z-0.73 F96.
X27.10986 Y-72.53339 Z-0.79105 F288.
X27.59348 Y-72.61055 Z-0.87741
X28.07212 Y-72.71419 Z-0.96376
X28.54433 Y-72.844 Z-1.05011
X29.00869 Y-72.9996 Z-1.13647
X29.46379 Y-73.18049 Z-1.22282
X29.90825 Y-73.38615 Z-1.30917
X30.34073 Y-73.61595 Z-1.39553
X30.75991 Y-73.86918 Z-1.48188
X31.16452 Y-74.14509 Z-1.56823
X31.55335 Y-74.44283 Z-1.65459
X31.92521 Y-74.76152 Z-1.74094
X32.27898 Y-75.10017 Z-1.82729
X32.61359 Y-75.45777 Z-1.91365
X32.92801 Y-75.83324 Z-2.
G02 X34.79599 Y-80.37849 I-6.97801 J-5.52425 F384.
G03 X35.85 Y-81.34819 I1.0784 J0.11448
G1 Y-81.36678
G03 X34.79599 Y-82.33649 I0.02439 J-1.08419
G02 X32.92801 Y-75.83324 I-8.84599 J0.979
G1 X33.00642 Y-75.77117
G03 X34.89538 Y-82.34749 I-7.05642 J-5.58632
G02 X35.64828 Y-81.48697 I0.99394 J-0.11
G1 X35.95 Y-81.45749
Y-81.25749
X35.64828 Y-81.22801
G02 X34.89538 Y-80.36749 I0.24104 J0.97052
G03 X33.00642 Y-75.77117 I-8.94538 J-0.99
G0 Z1.
X26.76545 Y-72.49773
G1 Z-1.73 F96.
X27.10986 Y-72.53339 Z-1.79105 F288.
X27.59348 Y-72.61055 Z-1.87741
X28.07212 Y-72.71419 Z-1.96376
X28.54433 Y-72.844 Z-2.05011
X29.00869 Y-72.9996 Z-2.13647
X29.46379 Y-73.18049 Z-2.22282
X29.90825 Y-73.38615 Z-2.30917
X30.34073 Y-73.61595 Z-2.39553
X30.75991 Y-73.86918 Z-2.48188
X31.16452 Y-74.14509 Z-2.56823
X31.55335 Y-74.44283 Z-2.65459
X31.92521 Y-74.76152 Z-2.74094
X32.27898 Y-75.10017 Z-2.82729
X32.61359 Y-75.45777 Z-2.91365
X32.92801 Y-75.83324 Z-3.
G02 X34.79599 Y-80.37849 I-6.97801 J-5.52425 F384.
G03 X35.85 Y-81.34819 I1.0784 J0.11448
G1 Y-81.36678
G03 X34.79599 Y-82.33649 I0.02439 J-1.08419
G02 X32.92801 Y-75.83324 I-8.84599 J0.979
G1 X33.00642 Y-75.77117
G03 X34.89538 Y-82.34749 I-7.05642 J-5.58632
G02 X35.64828 Y-81.48697 I0.99394 J-0.11
G1 X35.95 Y-81.45749
Y-81.25749
X35.64828 Y-81.22801
G02 X34.89538 Y-80.36749 I0.24104 J0.97052
G03 X33.00642 Y-75.77117 I-8.94538 J-0.99
G0 Z1.
X26.76545 Y-72.49773
G1 Z-2.73 F96.
X27.10986 Y-72.53339 Z-2.79105 F288.
X27.59348 Y-72.61055 Z-2.87741
X28.07212 Y-72.71419 Z-2.96376
X28.54433 Y-72.844 Z-3.05011
X29.00869 Y-72.9996 Z-3.13647
X29.46379 Y-73.18049 Z-3.22282
X29.90825 Y-73.38615 Z-3.30917
X30.34073 Y-73.61595 Z-3.39553
X30.75991 Y-73.86918 Z-3.48188
X31.16452 Y-74.14509 Z-3.56823
X31.55335 Y-74.44283 Z-3.65459
X31.92521 Y-74.76152 Z-3.74094
X32.27898 Y-75.10017 Z-3.82729
X32.61359 Y-75.45777 Z-3.91365
X32.92801 Y-75.83324 Z-4.
G02 X34.79599 Y-80.37849 I-6.97801 J-5.52425 F384.
G03 X35.85 Y-81.34819 I1.0784 J0.11448
G1 Y-81.36678
G03 X34.79599 Y-82.33649 I0.02439 J-1.08419
G02 X32.92801 Y-75.83324 I-8.84599 J0.979
G1 X33.00642 Y-75.77117
G03 X34.89538 Y-82.34749 I-7.05642 J-5.58632
G02 X35.64828 Y-81.48697 I0.99394 J-0.11
G1 X35.95 Y-81.45749
Y-81.25749
X35.64828 Y-81.22801
G02 X34.89538 Y-80.36749 I0.24104 J0.97052
G03 X33.00642 Y-75.77117 I-8.94538 J-0.99
G0 Z1.
X84.12483 Y-70.55539
G1 Z0.27 F96.
X83.94629 Y-70.36759 Z0.22431 F288.
X83.78465 Y-70.15833 Z0.17768
X83.64525 Y-69.93364 Z0.13106
X83.52954 Y-69.69588 Z0.08444
X83.43875 Y-69.44754 Z0.03781
X83.37382 Y-69.19121 Z-0.00881
X83.33544 Y-68.92959 Z-0.05544
X83.324 Y-68.66542 Z-0.10206
X83.33962 Y-68.40146 Z-0.14869
X83.38215 Y-68.14048 Z-0.19531
X83.45114 Y-67.88522 Z-0.24194
X83.54585 Y-67.63835 Z-0.28856
X83.66531 Y-67.40245 Z-0.33519
X83.80826 Y-67.18 Z-0.38181
X83.9732 Y-66.97333 Z-0.42843
X84.15841 Y-66.7846 Z-0.47506
X84.36193 Y-66.6158 Z-0.52168
X84.58165 Y-66.46868 Z-0.56831
X84.81526 Y-66.3448 Z-0.61493
X85.0603 Y-66.24545 Z-0.66156
X85.31422 Y-66.17167 Z-0.70818
X85.57435 Y-66.12423 Z-0.75481
X85.83797 Y-66.10363 Z-0.80143
X86.10231 Y-66.11009 Z-0.84805
X86.36461 Y-66.14354 Z-0.89468
X86.93653 Y-66.31582 Z-1.
X86.95596 Y-66.32517 F384.
X86.95862 Y-66.32641
G02 X86.36461 Y-66.14354 I-1.05151 J-2.35949
G1 X86.93653 Y-66.31582
X86.97286 Y-66.22233
X86.38801 Y-66.04616
G03 X86.99933 Y-66.23507 I-0.4809 J-2.63974
G1 X86.97286 Y-66.22233
G0 Z1.
X84.12483 Y-70.55539
G1 Z-0.73 F96.
X83.94629 Y-70.36759 Z-0.77569 F288.
X83.78465 Y-70.15833 Z-0.82232
X83.64525 Y-69.93364 Z-0.86894
X83.52954 Y-69.69588 Z-0.91556
X83.43875 Y-69.44754 Z-0.96219
X83.37382 Y-69.19121 Z-1.00881
X83.33544 Y-68.92959 Z-1.05544
X83.324 Y-68.66542 Z-1.10206
X83.33962 Y-68.40146 Z-1.14869
X83.38215 Y-68.14048 Z-1.19531
X83.45114 Y-67.88522 Z-1.24194
X83.54585 Y-67.63835 Z-1.28856
X83.66531 Y-67.40245 Z-1.33519
X83.80826 Y-67.18 Z-1.38181
X83.9732 Y-66.97333 Z-1.42843
X84.15841 Y-66.7846 Z-1.47506
X84.36193 Y-66.6158 Z-1.52168
X84.58165 Y-66.46868 Z-1.56831
X84.81526 Y-66.3448 Z-1.61493
X85.0603 Y-66.24545 Z-1.66156
X85.31422 Y-66.17167 Z-1.70818
X85.57435 Y-66.12423 Z-1.75481
X85.83797 Y-66.10363 Z-1.80143
X86.10231 Y-66.11009 Z-1.84805
X86.36461 Y-66.14354 Z-1.89468
X86.93653 Y-66.31582 Z-2.
X86.95596 Y-66.32517 F384.
X86.95862 Y-66.32641
G02 X86.36461 Y-66.14354 I-1.05151 J-2.35949
G1 X86.93653 Y-66.31582
X86.97286 Y-66.22233
X86.38801 Y-66.04616
G03 X86.99933 Y-66.23507 I-0.4809 J-2.63974
G1 X86.97286 Y-66.22233
G0 Z1.
X84.12483 Y-70.55539
G1 Z-1.73 F96.
X83.94629 Y-70.36759 Z-1.77569 F288.
X83.78465 Y-70.15833 Z-1.82232
X83.64525 Y-69.93364 Z-1.86894
X83.52954 Y-69.69588 Z-1.91556
X83.43875 Y-69.44754 Z-1.96219
X83.37382 Y-69.19121 Z-2.00881
X83.33544 Y-68.92959 Z-2.05544
X83.324 Y-68.66542 Z-2.10206
X83.33962 Y-68.40146 Z-2.14869
X83.38215 Y-68.14048 Z-2.19531
X83.45114 Y-67.88522 Z-2.24194
X83.54585 Y-67.63835 Z-2.28856
X83.66531 Y-67.40245 Z-2.33519
X83.80826 Y-67.18 Z-2.38181
X83.9732 Y-66.97333 Z-2.42843
X84.15841 Y-66.7846 Z-2.47506
X84.36193 Y-66.6158 Z-2.52168
X84.58165 Y-66.46868 Z-2.56831
X84.81526 Y-66.3448 Z-2.61493
X85.0603 Y-66.24545 Z-2.66156
X85.31422 Y-66.17167 Z-2.70818
X85.57435 Y-66.12423 Z-2.75481
X85.83797 Y-66.10363 Z-2.80143
X86.10231 Y-66.11009 Z-2.84805
X86.36461 Y-66.14354 Z-2.89468
X86.93653 Y-66.31582 Z-3.
X86.95596 Y-66.32517 F384.
X86.95862 Y-66.32641
G02 X86.36461 Y-66.14354 I-1.05151 J-2.35949
G1 X86.93653 Y-66.31582
X86.97286 Y-66.22233
X86.38801 Y-66.04616
G03 X86.99933 Y-66.23507 I-0.4809 J-2.63974
G1 X86.97286 Y-66.22233
G0 Z1.
X84.12483 Y-70.55539
G1 Z-2.73 F96.
X83.94629 Y-70.36759 Z-2.77569 F288.
X83.78465 Y-70.15833 Z-2.82231
X83.64525 Y-69.93364 Z-2.86894
X83.52954 Y-69.69588 Z-2.91556
X83.43875 Y-69.44754 Z-2.96219
X83.37382 Y-69.19121 Z-3.00881
X83.33544 Y-68.92959 Z-3.05544
X83.324 Y-68.66542 Z-3.10206
X83.33962 Y-68.40146 Z-3.14869
X83.38215 Y-68.14048 Z-3.19531
X83.45114 Y-67.88522 Z-3.24194
X83.54585 Y-67.63835 Z-3.28856
X83.66531 Y-67.40245 Z-3.33519
X83.80826 Y-67.18 Z-3.38181
X83.9732 Y-66.97333 Z-3.42843
X84.15841 Y-66.7846 Z-3.47506
X84.36193 Y-66.6158 Z-3.52168
X84.58165 Y-66.46868 Z-3.56831
X84.81526 Y-66.3448 Z-3.61493
X85.0603 Y-66.24545 Z-3.66156
X85.31422 Y-66.17167 Z-3.70818
X85.57435 Y-66.12423 Z-3.75481
X85.83797 Y-66.10363 Z-3.80143
X86.10231 Y-66.11009 Z-3.84805
X86.36461 Y-66.14354 Z-3.89468
X86.93653 Y-66.31582 Z-4.
X86.95596 Y-66.32517 F384.
X86.95862 Y-66.32641
G02 X86.36461 Y-66.14354 I-1.05151 J-2.35949
G1 X86.93653 Y-66.31582
X86.97286 Y-66.22233
X86.38801 Y-66.04616
G03 X86.99933 Y-66.23507 I-0.4809 J-2.63974
G1 X86.97286 Y-66.22233
G0 Z1.
X91.43791 Y-49.54592
G1 Z0.27 F96.
X91.48589 Y-49.53884 Z0.26145 F288.
X91.57427 Y-49.55243 Z0.24568
X91.65473 Y-49.59147 Z0.22991
X91.7201 Y-49.65248 Z0.21414
X91.76458 Y-49.73006 Z0.19838
X91.78423 Y-49.8173 Z0.18261
X91.77728 Y-49.90646 Z0.16684
X91.74436 Y-49.9896 Z0.15107
X91.6884 Y-50.05935 Z0.1353
X91.61437 Y-50.10951 Z0.11953
X91.52883 Y-50.13562 Z0.10377
X91.43941 Y-50.13535 Z0.088
X91.35403 Y-50.10874 Z0.07223
X91.2803 Y-50.05815 Z0.05646
X91.22475 Y-49.98807 Z0.0407
X91.19232 Y-49.90473 Z0.02493
X91.18591 Y-49.81553 Z0.00916
X91.20606 Y-49.72841 Z-0.00661
X91.251 Y-49.6511 Z-0.02238
X91.31674 Y-49.59046 Z-0.03815
X91.39742 Y-49.5519 Z-0.05391
X91.48589 Y-49.53884 Z-0.06968
X91.57427 Y-49.55243 Z-0.08545
X91.65473 Y-49.59147 Z-0.10122
X91.7201 Y-49.65248 Z-0.11699
X91.76458 Y-49.73006 Z-0.13275
X91.78423 Y-49.8173 Z-0.14852
X91.77728 Y-49.90646 Z-0.16429
X91.74436 Y-49.9896 Z-0.18006
X91.6884 Y-50.05935 Z-0.19583
X91.61437 Y-50.10951 Z-0.2116
X91.52883 Y-50.13562 Z-0.22736
X91.43941 Y-50.13535 Z-0.24313
X91.35403 Y-50.10874 Z-0.2589
X91.2803 Y-50.05815 Z-0.27467
X91.22475 Y-49.98807 Z-0.29044
X91.19232 Y-49.90473 Z-0.3062
X91.18591 Y-49.81553 Z-0.32197
X91.20606 Y-49.72841 Z-0.33774
X91.251 Y-49.6511 Z-0.35351
X91.31674 Y-49.59046 Z-0.36928
X91.39742 Y-49.5519 Z-0.38504
X91.48589 Y-49.53884 Z-0.40081
X91.57427 Y-49.55243 Z-0.41658
X91.65473 Y-49.59147 Z-0.43235
X91.7201 Y-49.65248 Z-0.44812
X91.76458 Y-49.73006 Z-0.46388
X91.78423 Y-49.8173 Z-0.47965
X91.77728 Y-49.90646 Z-0.49542
X91.74436 Y-49.9896 Z-0.51119
X91.6884 Y-50.05935 Z-0.52696
X91.61437 Y-50.10951 Z-0.54273
X91.52883 Y-50.13562 Z-0.55849
X91.43941 Y-50.13535 Z-0.57426
X91.35403 Y-50.10874 Z-0.59003
X91.2803 Y-50.05815 Z-0.6058
X91.22475 Y-49.98807 Z-0.62157
X91.19232 Y-49.90473 Z-0.63733
X91.18591 Y-49.81553 Z-0.6531
X91.20606 Y-49.72841 Z-0.66887
X91.251 Y-49.6511 Z-0.68464
X91.31674 Y-49.59046 Z-0.70041
X91.39742 Y-49.5519 Z-0.71617
X91.48589 Y-49.53884 Z-0.73194
X91.57427 Y-49.55243 Z-0.74771
X91.65473 Y-49.59147 Z-0.76348
X91.7201 Y-49.65248 Z-0.77925
X91.76458 Y-49.73006 Z-0.79502
X91.78423 Y-49.8173 Z-0.81078
X91.77728 Y-49.90646 Z-0.82655
X91.74436 Y-49.9896 Z-0.84232
X91.6884 Y-50.05935 Z-0.85809
X91.61437 Y-50.10951 Z-0.87386
X91.52883 Y-50.13562 Z-0.88962
X91.43941 Y-50.13535 Z-0.90539
X91.35403 Y-50.10874 Z-0.92116
X91.2803 Y-50.05815 Z-0.93693
X91.22475 Y-49.98807 Z-0.9527
X91.19232 Y-49.90473 Z-0.96846
X91.18591 Y-49.81553 Z-0.98423
X91.20606 Y-49.72841 Z-1.
G02 X91.76394 Y-49.94926 I0.27894 J-0.11043 F384.
X91.20606 Y-49.72841 I-0.27894 J0.11042
G1 X91.11308 Y-49.6916
G03 X91.85692 Y-49.98607 I0.37192 J-0.14724
X91.11308 Y-49.6916 I-0.37192 J0.14723
G0 Z1.
X91.43791 Y-49.54592
G1 Z-0.73 F96.
X91.48589 Y-49.53884 Z-0.73855 F288.
X91.57427 Y-49.55243 Z-0.75432
X91.65473 Y-49.59147 Z-0.77009
X91.7201 Y-49.65248 Z-0.78586
X91.76458 Y-49.73006 Z-0.80162
X91.78423 Y-49.8173 Z-0.81739
X91.77728 Y-49.90646 Z-0.83316
X91.74436 Y-49.9896 Z-0.84893
X91.6884 Y-50.05935 Z-0.8647
X91.61437 Y-50.10951 Z-0.88047
X91.52883 Y-50.13562 Z-0.89623
X91.43941 Y-50.13535 Z-0.912
X91.35403 Y-50.10874 Z-0.92777
X91.2803 Y-50.05815 Z-0.94354
X91.22475 Y-49.98807 Z-0.95931
X91.19232 Y-49.90473 Z-0.97507
X91.18591 Y-49.81553 Z-0.99084
X91.20606 Y-49.72841 Z-1.00661
X91.251 Y-49.6511 Z-1.02238
X91.31674 Y-49.59046 Z-1.03815
X91.39742 Y-49.5519 Z-1.05391
X91.48589 Y-49.53884 Z-1.06968
X91.57427 Y-49.55243 Z-1.08545
X91.65473 Y-49.59147 Z-1.10122
X91.7201 Y-49.65248 Z-1.11699
X91.76458 Y-49.73006 Z-1.13275
X91.78423 Y-49.8173 Z-1.14852
X91.77728 Y-49.90646 Z-1.16429
X91.74436 Y-49.9896 Z-1.18006
X91.6884 Y-50.05935 Z-1.19583
X91.61437 Y-50.10951 Z-1.2116
X91.52883 Y-50.13562 Z-1.22736
X91.43941 Y-50.13535 Z-1.24313
X91.35403 Y-50.10874 Z-1.2589
X91.2803 Y-50.05815 Z-1.27467
X91.22475 Y-49.98807 Z-1.29043
X91.19232 Y-49.90473 Z-1.3062
X91.18591 Y-49.81553 Z-1.32197
X91.20606 Y-49.72841 Z-1.33774
X91.251 Y-49.6511 Z-1.35351
X91.31674 Y-49.59046 Z-1.36928
X91.39742 Y-49.5519 Z-1.38504
X91.48589 Y-49.53884 Z-1.40081
X91.57427 Y-49.55243 Z-1.41658
X91.65473 Y-49.59147 Z-1.43235
X91.7201 Y-49.65248 Z-1.44812
X91.76458 Y-49.73006 Z-1.46388
X91.78423 Y-49.8173 Z-1.47965
X91.77728 Y-49.90646 Z-1.49542
X91.74436 Y-49.9896 Z-1.51119
X91.6884 Y-50.05935 Z-1.52696
X91.61437 Y-50.10951 Z-1.54273
X91.52883 Y-50.13562 Z-1.55849
X91.43941 Y-50.13535 Z-1.57426
X91.35403 Y-50.10874 Z-1.59003
X91.2803 Y-50.05815 Z-1.6058
X91.22475 Y-49.98807 Z-1.62157
X91.19232 Y-49.90473 Z-1.63733
X91.18591 Y-49.81553 Z-1.6531
X91.20606 Y-49.72841 Z-1.66887
X91.251 Y-49.6511 Z-1.68464
X91.31674 Y-49.59046 Z-1.70041
X91.39742 Y-49.5519 Z-1.71617
X91.48589 Y-49.53884 Z-1.73194
X91.57427 Y-49.55243 Z-1.74771
X91.65473 Y-49.59147 Z-1.76348
X91.7201 Y-49.65248 Z-1.77925
X91.76458 Y-49.73006 Z-1.79502
X91.78423 Y-49.8173 Z-1.81078
X91.77728 Y-49.90646 Z-1.82655
X91.74436 Y-49.9896 Z-1.84232
X91.6884 Y-50.05935 Z-1.85809
X91.61437 Y-50.10951 Z-1.87386
X91.52883 Y-50.13562 Z-1.88962
X91.43941 Y-50.13535 Z-1.90539
X91.35403 Y-50.10874 Z-1.92116
X91.2803 Y-50.05815 Z-1.93693
X91.22475 Y-49.98807 Z-1.9527
X91.19232 Y-49.90473 Z-1.96846
X91.18591 Y-49.81553 Z-1.98423
X91.20606 Y-49.72841 Z-2.
G02 X91.76394 Y-49.94926 I0.27894 J-0.11043 F384.
X91.20606 Y-49.72841 I-0.27894 J0.11042
G1 X91.11308 Y-49.6916
G03 X91.85692 Y-49.98607 I0.37192 J-0.14724
X91.11308 Y-49.6916 I-0.37192 J0.14723
G0 Z1.
X91.43791 Y-49.54592
G1 Z-1.73 F96.
X91.48589 Y-49.53884 Z-1.73855 F288.
X91.57427 Y-49.55243 Z-1.75432
X91.65473 Y-49.59147 Z-1.77009
X91.7201 Y-49.65248 Z-1.78586
X91.76458 Y-49.73006 Z-1.80162
X91.78423 Y-49.8173 Z-1.81739
X91.77728 Y-49.90646 Z-1.83316
X91.74436 Y-49.9896 Z-1.84893
X91.6884 Y-50.05935 Z-1.8647
X91.61437 Y-50.10951 Z-1.88047
X91.52883 Y-50.13562 Z-1.89623
X91.43941 Y-50.13535 Z-1.912
X91.35403 Y-50.10874 Z-1.92777
X91.2803 Y-50.05815 Z-1.94354
X91.22475 Y-49.98807 Z-1.95931
X91.19232 Y-49.90473 Z-1.97507
X91.18591 Y-49.81553 Z-1.99084
X91.20606 Y-49.72841 Z-2.00661
X91.251 Y-49.6511 Z-2.02238
X91.31674 Y-49.59046 Z-2.03815
X91.39742 Y-49.5519 Z-2.05391
X91.48589 Y-49.53884 Z-2.06968
X91.57427 Y-49.55243 Z-2.08545
X91.65473 Y-49.59147 Z-2.10122
X91.7201 Y-49.65248 Z-2.11699
X91.76458 Y-49.73006 Z-2.13275
X91.78423 Y-49.8173 Z-2.14852
X91.77728 Y-49.90646 Z-2.16429
X91.74436 Y-49.9896 Z-2.18006
X91.6884 Y-50.05935 Z-2.19583
X91.61437 Y-50.10951 Z-2.21159
X91.52883 Y-50.13562 Z-2.22736
X91.43941 Y-50.13535 Z-2.24313
X91.35403 Y-50.10874 Z-2.2589
X91.2803 Y-50.05815 Z-2.27467
X91.22475 Y-49.98807 Z-2.29044
X91.19232 Y-49.90473 Z-2.3062
X91.18591 Y-49.81553 Z-2.32197
X91.20606 Y-49.72841 Z-2.33774
X91.251 Y-49.6511 Z-2.35351
X91.31674 Y-49.59046 Z-2.36928
X91.39742 Y-49.5519 Z-2.38504
X91.48589 Y-49.53884 Z-2.40081
X91.57427 Y-49.55243 Z-2.41658
X91.65473 Y-49.59147 Z-2.43235
X91.7201 Y-49.65248 Z-2.44812
X91.76458 Y-49.73006 Z-2.46388
X91.78423 Y-49.8173 Z-2.47965
X91.77728 Y-49.90646 Z-2.49542
X91.74436 Y-49.9896 Z-2.51119
X91.6884 Y-50.05935 Z-2.52696
X91.61437 Y-50.10951 Z-2.54273
X91.52883 Y-50.13562 Z-2.55849
X91.43941 Y-50.13535 Z-2.57426
X91.35403 Y-50.10874 Z-2.59003
X91.2803 Y-50.05815 Z-2.6058
X91.22475 Y-49.98807 Z-2.62157
X91.19232 Y-49.90473 Z-2.63733
X91.18591 Y-49.81553 Z-2.6531
X91.20606 Y-49.72841 Z-2.66887
X91.251 Y-49.6511 Z-2.68464
X91.31674 Y-49.59046 Z-2.70041
X91.39742 Y-49.5519 Z-2.71617
X91.48589 Y-49.53884 Z-2.73194
X91.57427 Y-49.55243 Z-2.74771
X91.65473 Y-49.59147 Z-2.76348
X91.7201 Y-49.65248 Z-2.77925
X91.76458 Y-49.73006 Z-2.79501
X91.78423 Y-49.8173 Z-2.81078
X91.77728 Y-49.90646 Z-2.82655
X91.74436 Y-49.9896 Z-2.84232
X91.6884 Y-50.05935 Z-2.85809
X91.61437 Y-50.10951 Z-2.87385
X91.52883 Y-50.13562 Z-2.88962
X91.43941 Y-50.13535 Z-2.90539
X91.35403 Y-50.10874 Z-2.92116
X91.2803 Y-50.05815 Z-2.93693
X91.22475 Y-49.98807 Z-2.9527
X91.19232 Y-49.90473 Z-2.96846
X91.18591 Y-49.81553 Z-2.98423
X91.20606 Y-49.72841 Z-3.
G02 X91.76394 Y-49.94926 I0.27894 J-0.11043 F384.
X91.20606 Y-49.72841 I-0.27894 J0.11042
G1 X91.11308 Y-49.6916
G03 X91.85692 Y-49.98607 I0.37192 J-0.14724
X91.11308 Y-49.6916 I-0.37192 J0.14723
G0 Z1.
X91.43791 Y-49.54592
G1 Z-2.73 F96.
X91.48589 Y-49.53884 Z-2.73855 F288.
X91.57427 Y-49.55243 Z-2.75432
X91.65473 Y-49.59147 Z-2.77009
X91.7201 Y-49.65248 Z-2.78586
X91.76458 Y-49.73006 Z-2.80162
X91.78423 Y-49.8173 Z-2.81739
X91.77728 Y-49.90646 Z-2.83316
X91.74436 Y-49.9896 Z-2.84893
X91.6884 Y-50.05935 Z-2.8647
X91.61437 Y-50.10951 Z-2.88047
X91.52883 Y-50.13562 Z-2.89623
X91.43941 Y-50.13535 Z-2.912
X91.35403 Y-50.10874 Z-2.92777
X91.2803 Y-50.05815 Z-2.94354
X91.22475 Y-49.98807 Z-2.95931
X91.19232 Y-49.90473 Z-2.97507
X91.18591 Y-49.81553 Z-2.99084
X91.20606 Y-49.72841 Z-3.00661
X91.251 Y-49.6511 Z-3.02238
X91.31674 Y-49.59046 Z-3.03815
X91.39742 Y-49.5519 Z-3.05391
X91.48589 Y-49.53884 Z-3.06968
X91.57427 Y-49.55243 Z-3.08545
X91.65473 Y-49.59147 Z-3.10122
X91.7201 Y-49.65248 Z-3.11699
X91.76458 Y-49.73006 Z-3.13275
X91.78423 Y-49.8173 Z-3.14852
X91.77728 Y-49.90646 Z-3.16429
X91.74436 Y-49.9896 Z-3.18006
X91.6884 Y-50.05935 Z-3.19583
X91.61437 Y-50.10951 Z-3.2116
X91.52883 Y-50.13562 Z-3.22736
X91.43941 Y-50.13535 Z-3.24313
X91.35403 Y-50.10874 Z-3.2589
X91.2803 Y-50.05815 Z-3.27467
X91.22475 Y-49.98807 Z-3.29044
X91.19232 Y-49.90473 Z-3.3062
X91.18591 Y-49.81553 Z-3.32197
X91.20606 Y-49.72841 Z-3.33774
X91.251 Y-49.6511 Z-3.35351
X91.31674 Y-49.59046 Z-3.36928
X91.39742 Y-49.5519 Z-3.38504
X91.48589 Y-49.53884 Z-3.40081
X91.57427 Y-49.55243 Z-3.41658
X91.65473 Y-49.59147 Z-3.43235
X91.7201 Y-49.65248 Z-3.44812
X91.76458 Y-49.73006 Z-3.46388
X91.78423 Y-49.8173 Z-3.47965
X91.77728 Y-49.90646 Z-3.49542
X91.74436 Y-49.9896 Z-3.51119
X91.6884 Y-50.05935 Z-3.52696
X91.61437 Y-50.10951 Z-3.54273
X91.52883 Y-50.13562 Z-3.55849
X91.43941 Y-50.13535 Z-3.57426
X91.35403 Y-50.10874 Z-3.59003
X91.2803 Y-50.05815 Z-3.6058
X91.22475 Y-49.98807 Z-3.62157
X91.19232 Y-49.90473 Z-3.63733
X91.18591 Y-49.81553 Z-3.6531
X91.20606 Y-49.72841 Z-3.66887
X91.251 Y-49.6511 Z-3.68464
X91.31674 Y-49.59046 Z-3.70041
X91.39742 Y-49.5519 Z-3.71617
X91.48589 Y-49.53884 Z-3.73194
X91.57427 Y-49.55243 Z-3.74771
X91.65473 Y-49.59147 Z-3.76348
X91.7201 Y-49.65248 Z-3.77925
X91.76458 Y-49.73006 Z-3.79502
X91.78423 Y-49.8173 Z-3.81078
X91.77728 Y-49.90646 Z-3.82655
X91.74436 Y-49.9896 Z-3.84232
X91.6884 Y-50.05935 Z-3.85809
X91.61437 Y-50.10951 Z-3.87385
X91.52883 Y-50.13562 Z-3.88962
X91.43941 Y-50.13535 Z-3.90539
X91.35403 Y-50.10874 Z-3.92116
X91.2803 Y-50.05815 Z-3.93693
X91.22475 Y-49.98807 Z-3.9527
X91.19232 Y-49.90473 Z-3.96846
X91.18591 Y-49.81553 Z-3.98423
X91.20606 Y-49.72841 Z-4.
G02 X91.76394 Y-49.94926 I0.27894 J-0.11043 F384.
X91.20606 Y-49.72841 I-0.27894 J0.11042
G1 X91.11308 Y-49.6916
G03 X91.85692 Y-49.98607 I0.37192 J-0.14724
X91.11308 Y-49.6916 I-0.37192 J0.14723
G0 Z1.
X92.83032 Y-28.01386
G1 Z0.27 F96.
X92.73064 Y-28.13572 Z0.24224 F288.
X92.57583 Y-28.28271 Z0.2046
X92.4038 Y-28.40915 Z0.16695
X92.21729 Y-28.51303 Z0.12931
X92.01923 Y-28.59271 Z0.09167
X91.81275 Y-28.64694 Z0.05402
X91.6011 Y-28.67487 Z0.01638
X91.38761 Y-28.67604 Z-0.02127
X91.17566 Y-28.65045 Z-0.05891
X90.96859 Y-28.5985 Z-0.09655
X90.76967 Y-28.52101 Z-0.1342
X90.58202 Y-28.41919 Z-0.17184
X90.40862 Y-28.29466 Z-0.20948
X90.25219 Y-28.14938 Z-0.24713
X90.1152 Y-27.98564 Z-0.28477
X89.99982 Y-27.80602 Z-0.32241
X89.90785 Y-27.61335 Z-0.36006
X89.84076 Y-27.41068 Z-0.3977
X89.7996 Y-27.2012 Z-0.43534
X89.78503 Y-26.98821 Z-0.47299
X89.79726 Y-26.77507 Z-0.51063
X89.8361 Y-26.56515 Z-0.54828
X89.90095 Y-26.36175 Z-0.58592
X89.99079 Y-26.16808 Z-0.62356
X90.10418 Y-25.9872 Z-0.66121
X90.23936 Y-25.82196 Z-0.69885
X90.39417 Y-25.67496 Z-0.73649
X90.56619 Y-25.54852 Z-0.77414
X90.75271 Y-25.44464 Z-0.81178
X90.95077 Y-25.36496 Z-0.84943
X91.15725 Y-25.31073 Z-0.88707
X91.3689 Y-25.2828 Z-0.92471
X91.58239 Y-25.28163 Z-0.96236
X91.79434 Y-25.30722 Z-1.
G02 X91.17566 Y-28.65045 I-0.30934 J-1.67162 F384.
X91.79434 Y-25.30722 I0.30934 J1.67161
G1 X91.81253 Y-25.20889
G03 X91.15747 Y-28.74879 I-0.32753 J-1.76995
X91.81253 Y-25.20889 I0.32753 J1.76995
G0 Z1.
X92.83032 Y-28.01386
G1 Z-0.73 F96.
X92.73064 Y-28.13572 Z-0.75776 F288.
X92.57583 Y-28.28271 Z-0.7954
X92.4038 Y-28.40915 Z-0.83305
X92.21729 Y-28.51303 Z-0.87069
X92.01923 Y-28.59271 Z-0.90833
X91.81275 Y-28.64694 Z-0.94598
X91.6011 Y-28.67487 Z-0.98362
X91.38761 Y-28.67604 Z-1.02126
X91.17566 Y-28.65045 Z-1.05891
X90.96859 Y-28.5985 Z-1.09655
X90.76967 Y-28.52101 Z-1.1342
X90.58202 Y-28.41919 Z-1.17184
X90.40862 Y-28.29466 Z-1.20948
X90.25219 Y-28.14938 Z-1.24713
X90.1152 Y-27.98564 Z-1.28477
X89.99982 Y-27.80602 Z-1.32241
X89.90785 Y-27.61335 Z-1.36006
X89.84076 Y-27.41068 Z-1.3977
X89.7996 Y-27.2012 Z-1.43535
X89.78503 Y-26.98821 Z-1.47299
X89.79726 Y-26.77507 Z-1.51063
X89.8361 Y-26.56515 Z-1.54828
X89.90095 Y-26.36175 Z-1.58592
X89.99079 Y-26.16808 Z-1.62356
X90.10418 Y-25.9872 Z-1.66121
X90.23936 Y-25.82196 Z-1.69885
X90.39417 Y-25.67496 Z-1.73649
X90.56619 Y-25.54852 Z-1.77414
X90.75271 Y-25.44464 Z-1.81178
X90.95077 Y-25.36496 Z-1.84943
X91.15725 Y-25.31073 Z-1.88707
X91.3689 Y-25.2828 Z-1.92471
X91.58239 Y-25.28163 Z-1.96236
X91.79434 Y-25.30722 Z-2.
G02 X91.17566 Y-28.65045 I-0.30934 J-1.67162 F384.
X91.79434 Y-25.30722 I0.30934 J1.67161
G1 X91.81253 Y-25.20889
G03 X91.15747 Y-28.74879 I-0.32753 J-1.76995
X91.81253 Y-25.20889 I0.32753 J1.76995
G0 Z1.
X92.83032 Y-28.01386
G1 Z-1.73 F96.
X92.73064 Y-28.13572 Z-1.75776 F288.
X92.57583 Y-28.28271 Z-1.7954
X92.4038 Y-28.40915 Z-1.83305
X92.21729 Y-28.51303 Z-1.87069
X92.01923 Y-28.59271 Z-1.90833
X91.81275 Y-28.64694 Z-1.94598
X91.6011 Y-28.67487 Z-1.98362
X91.38761 Y-28.67604 Z-2.02126
X91.17566 Y-28.65045 Z-2.05891
X90.96859 Y-28.5985 Z-2.09655
X90.76967 Y-28.52101 Z-2.1342
X90.58202 Y-28.41919 Z-2.17184
X90.40862 Y-28.29466 Z-2.20948
X90.25219 Y-28.14938 Z-2.24713
X90.1152 Y-27.98564 Z-2.28477
X89.99982 Y-27.80602 Z-2.32241
X89.90785 Y-27.61335 Z-2.36006
X89.84076 Y-27.41068 Z-2.3977
X89.7996 Y-27.2012 Z-2.43534
X89.78503 Y-26.98821 Z-2.47299
X89.79726 Y-26.77507 Z-2.51063
X89.8361 Y-26.56515 Z-2.54828
X89.90095 Y-26.36175 Z-2.58592
X89.99079 Y-26.16808 Z-2.62356
X90.10418 Y-25.9872 Z-2.66121
X90.23936 Y-25.82196 Z-2.69885
X90.39417 Y-25.67496 Z-2.73649
X90.56619 Y-25.54852 Z-2.77414
X90.75271 Y-25.44464 Z-2.81178
X90.95077 Y-25.36496 Z-2.84943
X91.15725 Y-25.31073 Z-2.88707
X91.3689 Y-25.2828 Z-2.92471
X91.58239 Y-25.28163 Z-2.96236
X91.79434 Y-25.30722 Z-3.
G02 X91.17566 Y-28.65045 I-0.30934 J-1.67162 F384.
X91.79434 Y-25.30722 I0.30934 J1.67161
G1 X91.81253 Y-25.20889
G03 X91.15747 Y-28.74879 I-0.32753 J-1.76995
X91.81253 Y-25.20889 I0.32753 J1.76995
G0 Z1.
X92.83032 Y-28.01386
G1 Z-2.73 F96.
X92.73064 Y-28.13572 Z-2.75776 F288.
X92.57583 Y-28.28271 Z-2.7954
X92.4038 Y-28.40915 Z-2.83305
X92.21729 Y-28.51303 Z-2.87069
X92.01923 Y-28.59271 Z-2.90833
X91.81275 Y-28.64694 Z-2.94598
X91.6011 Y-28.67487 Z-2.98362
X91.38761 Y-28.67604 Z-3.02127
X91.17566 Y-28.65045 Z-3.05891
X90.96859 Y-28.5985 Z-3.09655
X90.76967 Y-28.52101 Z-3.1342
X90.58202 Y-28.41919 Z-3.17184
X90.40862 Y-28.29466 Z-3.20948
X90.25219 Y-28.14938 Z-3.24713
X90.1152 Y-27.98564 Z-3.28477
X89.99982 Y-27.80602 Z-3.32241
X89.90785 Y-27.61335 Z-3.36006
X89.84076 Y-27.41068 Z-3.3977
X89.7996 Y-27.2012 Z-3.43535
X89.78503 Y-26.98821 Z-3.47299
X89.79726 Y-26.77507 Z-3.51063
X89.8361 Y-26.56515 Z-3.54828
X89.90095 Y-26.36175 Z-3.58592
X89.99079 Y-26.16808 Z-3.62356
X90.10418 Y-25.9872 Z-3.66121
X90.23936 Y-25.82196 Z-3.69885
X90.39417 Y-25.67496 Z-3.73649
X90.56619 Y-25.54852 Z-3.77414
X90.75271 Y-25.44464 Z-3.81178
X90.95077 Y-25.36496 Z-3.84943
X91.15725 Y-25.31073 Z-3.88707
X91.3689 Y-25.2828 Z-3.92471
X91.58239 Y-25.28163 Z-3.96236
X91.79434 Y-25.30722 Z-4.
G02 X91.17566 Y-28.65045 I-0.30934 J-1.67162 F384.
X91.79434 Y-25.30722 I0.30934 J1.67161
G1 X91.81253 Y-25.20889
G03 X91.15747 Y-28.74879 I-0.32753 J-1.76995
X91.81253 Y-25.20889 I0.32753 J1.76995
G0 Z1.
X131.22247 Y-29.22384
G1 Z0.27 F96.
X138.425 Z-1. F288.
X145.885 F384.
Y-47.59384
X96.015
Y-29.22384
X138.425
Y-29.12384
X95.915
Y-47.69384
X145.985
Y-29.12384
X138.425
G0 Z1.
X131.22247 Y-29.22384
G1 Z-0.73 F96.
X138.425 Z-2. F288.
X145.885 F384.
Y-47.59384
X96.015
Y-29.22384
X138.425
Y-29.12384
X95.915
Y-47.69384
X145.985
Y-29.12384
X138.425
G0 Z1.
X131.22247 Y-29.22384
G1 Z-1.73 F96.
X138.425 Z-3. F288.
X145.885 F384.
Y-47.59384
X96.015
Y-29.22384
X138.425
Y-29.12384
X95.915
Y-47.69384
X145.985
Y-29.12384
X138.425
G0 Z1.
X131.22247 Y-29.22384
G1 Z-2.73 F96.
X138.425 Z-4. F288.
X145.885 F384.
Y-47.59384
X96.015
Y-29.22384
X138.425
Y-29.12384
X95.915
Y-47.69384
X145.985
Y-29.12384
X138.425
G0 Z1.
X150.18017 Y-26.79753
G1 Z0.27 F96.
X150.2103 Y-26.75952 Z0.26145 F288.
X150.28403 Y-26.70893 Z0.24568
X150.36941 Y-26.68232 Z0.22991
X150.45883 Y-26.68206 Z0.21414
X150.54436 Y-26.70816 Z0.19838
X150.6184 Y-26.75832 Z0.18261
X150.67436 Y-26.82807 Z0.16684
X150.70728 Y-26.91121 Z0.15107
X150.71423 Y-27.00037 Z0.1353
X150.69458 Y-27.08761 Z0.11953
X150.6501 Y-27.16519 Z0.10377
X150.58473 Y-27.22621 Z0.088
X150.50428 Y-27.26524 Z0.07223
X150.41589 Y-27.27883 Z0.05646
X150.32742 Y-27.26577 Z0.0407
X150.24674 Y-27.22721 Z0.02493
X150.181 Y-27.16658 Z0.00916
X150.13606 Y-27.08926 Z-0.00661
X150.11591 Y-27.00214 Z-0.02238
X150.12232 Y-26.91295 Z-0.03815
X150.15475 Y-26.82961 Z-0.05391
X150.2103 Y-26.75952 Z-0.06968
X150.28403 Y-26.70893 Z-0.08545
X150.36941 Y-26.68232 Z-0.10122
X150.45883 Y-26.68206 Z-0.11699
X150.54436 Y-26.70816 Z-0.13275
X150.6184 Y-26.75832 Z-0.14852
X150.67436 Y-26.82807 Z-0.16429
X150.70728 Y-26.91121 Z-0.18006
X150.71423 Y-27.00037 Z-0.19583
X150.69458 Y-27.08761 Z-0.2116
X150.6501 Y-27.16519 Z-0.22736
X150.58473 Y-27.22621 Z-0.24313
X150.50428 Y-27.26524 Z-0.2589
X150.41589 Y-27.27883 Z-0.27467
X150.32742 Y-27.26577 Z-0.29044
X150.24674 Y-27.22721 Z-0.3062
X150.181 Y-27.16658 Z-0.32197
X150.13606 Y-27.08926 Z-0.33774
X150.11591 Y-27.00214 Z-0.35351
X150.12232 Y-26.91295 Z-0.36928
X150.15475 Y-26.82961 Z-0.38504
X150.2103 Y-26.75952 Z-0.40081
X150.28403 Y-26.70893 Z-0.41658
X150.36941 Y-26.68232 Z-0.43235
X150.45883 Y-26.68206 Z-0.44812
X150.54436 Y-26.70816 Z-0.46388
X150.6184 Y-26.75832 Z-0.47965
X150.67436 Y-26.82807 Z-0.49542
X150.70728 Y-26.91121 Z-0.51119
X150.71423 Y-27.00037 Z-0.52696
X150.69458 Y-27.08761 Z-0.54273
X150.6501 Y-27.16519 Z-0.55849
X150.58473 Y-27.22621 Z-0.57426
X150.50428 Y-27.26524 Z-0.59003
X150.41589 Y-27.27883 Z-0.6058
X150.32742 Y-27.26577 Z-0.62157
X150.24674 Y-27.22721 Z-0.63733
X150.181 Y-27.16658 Z-0.6531
X150.13606 Y-27.08926 Z-0.66887
X150.11591 Y-27.00214 Z-0.68464
X150.12232 Y-26.91295 Z-0.70041
X150.15475 Y-26.82961 Z-0.71617
X150.2103 Y-26.75952 Z-0.73194
X150.28403 Y-26.70893 Z-0.74771
X150.36941 Y-26.68232 Z-0.76348
X150.45883 Y-26.68206 Z-0.77925
X150.54436 Y-26.70816 Z-0.79502
X150.6184 Y-26.75832 Z-0.81078
X150.67436 Y-26.82807 Z-0.82655
X150.70728 Y-26.91121 Z-0.84232
X150.71423 Y-27.00037 Z-0.85809
X150.69458 Y-27.08761 Z-0.87386
X150.6501 Y-27.16519 Z-0.88962
X150.58473 Y-27.22621 Z-0.90539
X150.50428 Y-27.26524 Z-0.92116
X150.41589 Y-27.27883 Z-0.93693
X150.32742 Y-27.26577 Z-0.9527
X150.24674 Y-27.22721 Z-0.96846
X150.181 Y-27.16658 Z-0.98423
X150.13606 Y-27.08926 Z-1.
G02 X150.69394 Y-26.86841 I0.27894 J0.11042 F384.
X150.13606 Y-27.08926 I-0.27894 J-0.11043
G1 X150.04308 Y-27.12607
G03 X150.78692 Y-26.8316 I0.37192 J0.14723
X150.04308 Y-27.12607 I-0.37192 J-0.14724
G0 Z1.
X150.18017 Y-26.79753
G1 Z-0.73 F96.
X150.2103 Y-26.75952 Z-0.73855 F288.
X150.28403 Y-26.70893 Z-0.75432
X150.36941 Y-26.68232 Z-0.77009
X150.45883 Y-26.68206 Z-0.78586
X150.54436 Y-26.70816 Z-0.80162
X150.6184 Y-26.75832 Z-0.81739
X150.67436 Y-26.82807 Z-0.83316
X150.70728 Y-26.91121 Z-0.84893
X150.71423 Y-27.00037 Z-0.8647
X150.69458 Y-27.08761 Z-0.88047
X150.6501 Y-27.16519 Z-0.89623
X150.58473 Y-27.22621 Z-0.912
X150.50428 Y-27.26524 Z-0.92777
X150.41589 Y-27.27883 Z-0.94354
X150.32742 Y-27.26577 Z-0.95931
X150.24674 Y-27.22721 Z-0.97507
X150.181 Y-27.16658 Z-0.99084
X150.13606 Y-27.08926 Z-1.00661
X150.11591 Y-27.00214 Z-1.02238
X150.12232 Y-26.91295 Z-1.03815
X150.15475 Y-26.82961 Z-1.05391
X150.2103 Y-26.75952 Z-1.06968
X150.28403 Y-26.70893 Z-1.08545
X150.36941 Y-26.68232 Z-1.10122
X150.45883 Y-26.68206 Z-1.11699
X150.54436 Y-26.70816 Z-1.13275
X150.6184 Y-26.75832 Z-1.14852
X150.67436 Y-26.82807 Z-1.16429
X150.70728 Y-26.91121 Z-1.18006
X150.71423 Y-27.00037 Z-1.19583
X150.69458 Y-27.08761 Z-1.2116
X150.6501 Y-27.16519 Z-1.22736
X150.58473 Y-27.22621 Z-1.24313
X150.50428 Y-27.26524 Z-1.2589
X150.41589 Y-27.27883 Z-1.27467
X150.32742 Y-27.26577 Z-1.29043
X150.24674 Y-27.22721 Z-1.3062
X150.181 Y-27.16658 Z-1.32197
X150.13606 Y-27.08926 Z-1.33774
X150.11591 Y-27.00214 Z-1.35351
X150.12232 Y-26.91295 Z-1.36928
X150.15475 Y-26.82961 Z-1.38504
X150.2103 Y-26.75952 Z-1.40081
X150.28403 Y-26.70893 Z-1.41658
X150.36941 Y-26.68232 Z-1.43235
X150.45883 Y-26.68206 Z-1.44812
X150.54436 Y-26.70816 Z-1.46388
X150.6184 Y-26.75832 Z-1.47965
X150.67436 Y-26.82807 Z-1.49542
X150.70728 Y-26.91121 Z-1.51119
X150.71423 Y-27.00037 Z-1.52696
X150.69458 Y-27.08761 Z-1.54273
X150.6501 Y-27.16519 Z-1.55849
X150.58473 Y-27.22621 Z-1.57426
X150.50428 Y-27.26524 Z-1.59003
X150.41589 Y-27.27883 Z-1.6058
X150.32742 Y-27.26577 Z-1.62157
X150.24674 Y-27.22721 Z-1.63733
X150.181 Y-27.16658 Z-1.6531
X150.13606 Y-27.08926 Z-1.66887
X150.11591 Y-27.00214 Z-1.68464
X150.12232 Y-26.91295 Z-1.70041
X150.15475 Y-26.82961 Z-1.71617
X150.2103 Y-26.75952 Z-1.73194
X150.28403 Y-26.70893 Z-1.74771
X150.36941 Y-26.68232 Z-1.76348
X150.45883 Y-26.68206 Z-1.77925
X150.54436 Y-26.70816 Z-1.79502
X150.6184 Y-26.75832 Z-1.81078
X150.67436 Y-26.82807 Z-1.82655
X150.70728 Y-26.91121 Z-1.84232
X150.71423 Y-27.00037 Z-1.85809
X150.69458 Y-27.08761 Z-1.87386
X150.6501 Y-27.16519 Z-1.88962
X150.58473 Y-27.22621 Z-1.90539
X150.50428 Y-27.26524 Z-1.92116
X150.41589 Y-27.27883 Z-1.93693
X150.32742 Y-27.26577 Z-1.9527
X150.24674 Y-27.22721 Z-1.96846
X150.181 Y-27.16658 Z-1.98423
X150.13606 Y-27.08926 Z-2.
G02 X150.69394 Y-26.86841 I0.27894 J0.11042 F384.
X150.13606 Y-27.08926 I-0.27894 J-0.11043
G1 X150.04308 Y-27.12607
G03 X150.78692 Y-26.8316 I0.37192 J0.14723
X150.04308 Y-27.12607 I-0.37192 J-0.14724
G0 Z1.
X150.18017 Y-26.79753
G1 Z-1.73 F96.
X150.2103 Y-26.75952 Z-1.73855 F288.
X150.28403 Y-26.70893 Z-1.75432
X150.36941 Y-26.68232 Z-1.77009
X150.45883 Y-26.68206 Z-1.78586
X150.54436 Y-26.70816 Z-1.80162
X150.6184 Y-26.75832 Z-1.81739
X150.67436 Y-26.82807 Z-1.83316
X150.70728 Y-26.91121 Z-1.84893
X150.71423 Y-27.00037 Z-1.8647
X150.69458 Y-27.08761 Z-1.88047
X150.6501 Y-27.16519 Z-1.89623
X150.58473 Y-27.22621 Z-1.912
X150.50428 Y-27.26524 Z-1.92777
X150.41589 Y-27.27883 Z-1.94354
X150.32742 Y-27.26577 Z-1.95931
X150.24674 Y-27.22721 Z-1.97507
X150.181 Y-27.16658 Z-1.99084
X150.13606 Y-27.08926 Z-2.00661
X150.11591 Y-27.00214 Z-2.02238
X150.12232 Y-26.91295 Z-2.03815
X150.15475 Y-26.82961 Z-2.05391
X150.2103 Y-26.75952 Z-2.06968
X150.28403 Y-26.70893 Z-2.08545
X150.36941 Y-26.68232 Z-2.10122
X150.45883 Y-26.68206 Z-2.11699
X150.54436 Y-26.70816 Z-2.13275
X150.6184 Y-26.75832 Z-2.14852
X150.67436 Y-26.82807 Z-2.16429
X150.70728 Y-26.91121 Z-2.18006
X150.71423 Y-27.00037 Z-2.19583
X150.69458 Y-27.08761 Z-2.21159
X150.6501 Y-27.16519 Z-2.22736
X150.58473 Y-27.22621 Z-2.24313
X150.50428 Y-27.26524 Z-2.2589
X150.41589 Y-27.27883 Z-2.27467
X150.32742 Y-27.26577 Z-2.29044
X150.24674 Y-27.22721 Z-2.3062
X150.181 Y-27.16658 Z-2.32197
X150.13606 Y-27.08926 Z-2.33774
X150.11591 Y-27.00214 Z-2.35351
X150.12232 Y-26.91295 Z-2.36928
X150.15475 Y-26.82961 Z-2.38504
X150.2103 Y-26.75952 Z-2.40081
X150.28403 Y-26.70893 Z-2.41658
X150.36941 Y-26.68232 Z-2.43235
X150.45883 Y-26.68206 Z-2.44812
X150.54436 Y-26.70816 Z-2.46388
X150.6184 Y-26.75832 Z-2.47965
X150.67436 Y-26.82807 Z-2.49542
X150.70728 Y-26.91121 Z-2.51119
X150.71423 Y-27.00037 Z-2.52696
X150.69458 Y-27.08761 Z-2.54273
X150.6501 Y-27.16519 Z-2.55849
X150.58473 Y-27.22621 Z-2.57426
X150.50428 Y-27.26524 Z-2.59003
X150.41589 Y-27.27883 Z-2.6058
X150.32742 Y-27.26577 Z-2.62157
X150.24674 Y-27.22721 Z-2.63733
X150.181 Y-27.16658 Z-2.6531
X150.13606 Y-27.08926 Z-2.66887
X150.11591 Y-27.00214 Z-2.68464
X150.12232 Y-26.91295 Z-2.70041
X150.15475 Y-26.82961 Z-2.71617
X150.2103 Y-26.75952 Z-2.73194
X150.28403 Y-26.70893 Z-2.74771
X150.36941 Y-26.68232 Z-2.76348
X150.45883 Y-26.68206 Z-2.77925
X150.54436 Y-26.70816 Z-2.79501
X150.6184 Y-26.75832 Z-2.81078
X150.67436 Y-26.82807 Z-2.82655
X150.70728 Y-26.91121 Z-2.84232
X150.71423 Y-27.00037 Z-2.85809
X150.69458 Y-27.08761 Z-2.87385
X150.6501 Y-27.16519 Z-2.88962
X150.58473 Y-27.22621 Z-2.90539
X150.50428 Y-27.26524 Z-2.92116
X150.41589 Y-27.27883 Z-2.93693
X150.32742 Y-27.26577 Z-2.9527
X150.24674 Y-27.22721 Z-2.96846
X150.181 Y-27.16658 Z-2.98423
X150.13606 Y-27.08926 Z-3.
G02 X150.69394 Y-26.86841 I0.27894 J0.11042 F384.
X150.13606 Y-27.08926 I-0.27894 J-0.11043
G1 X150.04308 Y-27.12607
G03 X150.78692 Y-26.8316 I0.37192 J0.14723
X150.04308 Y-27.12607 I-0.37192 J-0.14724
G0 Z1.
X150.18017 Y-26.79753
G1 Z-2.73 F96.
X150.2103 Y-26.75952 Z-2.73855 F288.
X150.28403 Y-26.70893 Z-2.75432
X150.36941 Y-26.68232 Z-2.77009
X150.45883 Y-26.68206 Z-2.78586
X150.54436 Y-26.70816 Z-2.80162
X150.6184 Y-26.75832 Z-2.81739
X150.67436 Y-26.82807 Z-2.83316
X150.70728 Y-26.91121 Z-2.84893
X150.71423 Y-27.00037 Z-2.8647
X150.69458 Y-27.08761 Z-2.88047
X150.6501 Y-27.16519 Z-2.89623
X150.58473 Y-27.22621 Z-2.912
X150.50428 Y-27.26524 Z-2.92777
X150.41589 Y-27.27883 Z-2.94354
X150.32742 Y-27.26577 Z-2.95931
X150.24674 Y-27.22721 Z-2.97507
X150.181 Y-27.16658 Z-2.99084
X150.13606 Y-27.08926 Z-3.00661
X150.11591 Y-27.00214 Z-3.02238
X150.12232 Y-26.91295 Z-3.03815
X150.15475 Y-26.82961 Z-3.05391
X150.2103 Y-26.75952 Z-3.06968
X150.28403 Y-26.70893 Z-3.08545
X150.36941 Y-26.68232 Z-3.10122
X150.45883 Y-26.68206 Z-3.11699
X150.54436 Y-26.70816 Z-3.13275
X150.6184 Y-26.75832 Z-3.14852
X150.67436 Y-26.82807 Z-3.16429
X150.70728 Y-26.91121 Z-3.18006
X150.71423 Y-27.00037 Z-3.19583
X150.69458 Y-27.08761 Z-3.2116
X150.6501 Y-27.16519 Z-3.22736
X150.58473 Y-27.22621 Z-3.24313
X150.50428 Y-27.26524 Z-3.2589
X150.41589 Y-27.27883 Z-3.27467
X150.32742 Y-27.26577 Z-3.29044
X150.24674 Y-27.22721 Z-3.3062
X150.181 Y-27.16658 Z-3.32197
X150.13606 Y-27.08926 Z-3.33774
X150.11591 Y-27.00214 Z-3.35351
X150.12232 Y-26.91295 Z-3.36928
X150.15475 Y-26.82961 Z-3.38504
X150.2103 Y-26.75952 Z-3.40081
X150.28403 Y-26.70893 Z-3.41658
X150.36941 Y-26.68232 Z-3.43235
X150.45883 Y-26.68206 Z-3.44812
X150.54436 Y-26.70816 Z-3.46388
X150.6184 Y-26.75832 Z-3.47965
X150.67436 Y-26.82807 Z-3.49542
X150.70728 Y-26.91121 Z-3.51119
X150.71423 Y-27.00037 Z-3.52696
X150.69458 Y-27.08761 Z-3.54273
X150.6501 Y-27.16519 Z-3.55849
X150.58473 Y-27.22621 Z-3.57426
X150.50428 Y-27.26524 Z-3.59003
X150.41589 Y-27.27883 Z-3.6058
X150.32742 Y-27.26577 Z-3.62157
X150.24674 Y-27.22721 Z-3.63733
X150.181 Y-27.16658 Z-3.6531
X150.13606 Y-27.08926 Z-3.66887
X150.11591 Y-27.00214 Z-3.68464
X150.12232 Y-26.91295 Z-3.70041
X150.15475 Y-26.82961 Z-3.71617
X150.2103 Y-26.75952 Z-3.73194
X150.28403 Y-26.70893 Z-3.74771
X150.36941 Y-26.68232 Z-3.76348
X150.45883 Y-26.68206 Z-3.77925
X150.54436 Y-26.70816 Z-3.79502
X150.6184 Y-26.75832 Z-3.81078
X150.67436 Y-26.82807 Z-3.82655
X150.70728 Y-26.91121 Z-3.84232
X150.71423 Y-27.00037 Z-3.85809
X150.69458 Y-27.08761 Z-3.87385
X150.6501 Y-27.16519 Z-3.88962
X150.58473 Y-27.22621 Z-3.90539
X150.50428 Y-27.26524 Z-3.92116
X150.41589 Y-27.27883 Z-3.93693
X150.32742 Y-27.26577 Z-3.9527
X150.24674 Y-27.22721 Z-3.96846
X150.181 Y-27.16658 Z-3.98423
X150.13606 Y-27.08926 Z-4.
G02 X150.69394 Y-26.86841 I0.27894 J0.11042 F384.
X150.13606 Y-27.08926 I-0.27894 J-0.11043
G1 X150.04308 Y-27.12607
G03 X150.78692 Y-26.8316 I0.37192 J0.14723
X150.04308 Y-27.12607 I-0.37192 J-0.14724
G0 Z1.
X151.18795 Y-48.32763
G1 Z0.27 F96.
X151.32591 Y-48.40348 Z0.24224 F288.
X151.49862 Y-48.52896 Z0.2046
X151.65425 Y-48.67511 Z0.16695
X151.79033 Y-48.8396 Z0.12931
X151.90472 Y-49.01985 Z0.09167
X151.99562 Y-49.21302 Z0.05402
X152.06159 Y-49.41606 Z0.01638
X152.10159 Y-49.62577 Z-0.02127
X152.115 Y-49.83884 Z-0.05891
X152.10159 Y-50.0519 Z-0.09655
X152.06159 Y-50.26161 Z-0.1342
X151.99562 Y-50.46465 Z-0.17184
X151.90472 Y-50.65782 Z-0.20948
X151.79033 Y-50.83807 Z-0.24713
X151.65425 Y-51.00257 Z-0.28477
X151.49862 Y-51.14871 Z-0.32241
X151.32591 Y-51.27419 Z-0.36006
X151.13882 Y-51.37704 Z-0.3977
X150.94033 Y-51.45563 Z-0.43534
X150.73355 Y-51.50872 Z-0.47299
X150.52174 Y-51.53548 Z-0.51063
X150.30826 Z-0.54828
X150.09645 Y-51.50872 Z-0.58592
X149.88967 Y-51.45563 Z-0.62356
X149.69117 Y-51.37704 Z-0.66121
X149.50409 Y-51.27419 Z-0.69885
X149.33138 Y-51.14871 Z-0.73649
X149.17575 Y-51.00257 Z-0.77414
X149.03967 Y-50.83807 Z-0.81178
X148.92528 Y-50.65782 Z-0.84943
X148.83438 Y-50.46465 Z-0.88707
X148.76841 Y-50.26161 Z-0.92471
X148.72841 Y-50.0519 Z-0.96236
X148.715 Y-49.83884 Z-1.
G02 X152.115 I1.7 J0. F384.
X148.715 I-1.7 J0.
G1 X148.615
G03 X152.215 I1.8 J0.
X148.615 I-1.8 J0.
G0 Z1.
X151.18795 Y-48.32763
G1 Z-0.73 F96.
X151.32591 Y-48.40348 Z-0.75776 F288.
X151.49862 Y-48.52896 Z-0.7954
X151.65425 Y-48.67511 Z-0.83305
X151.79033 Y-48.8396 Z-0.87069
X151.90472 Y-49.01985 Z-0.90833
X151.99562 Y-49.21302 Z-0.94598
X152.06159 Y-49.41606 Z-0.98362
X152.10159 Y-49.62577 Z-1.02126
X152.115 Y-49.83884 Z-1.05891
X152.10159 Y-50.0519 Z-1.09655
X152.06159 Y-50.26161 Z-1.1342
X151.99562 Y-50.46465 Z-1.17184
X151.90472 Y-50.65782 Z-1.20948
X151.79033 Y-50.83807 Z-1.24713
X151.65425 Y-51.00257 Z-1.28477
X151.49862 Y-51.14871 Z-1.32241
X151.32591 Y-51.27419 Z-1.36006
X151.13882 Y-51.37704 Z-1.3977
X150.94033 Y-51.45563 Z-1.43535
X150.73355 Y-51.50872 Z-1.47299
X150.52174 Y-51.53548 Z-1.51063
X150.30826 Z-1.54828
X150.09645 Y-51.50872 Z-1.58592
X149.88967 Y-51.45563 Z-1.62356
X149.69117 Y-51.37704 Z-1.66121
X149.50409 Y-51.27419 Z-1.69885
X149.33138 Y-51.14871 Z-1.73649
X149.17575 Y-51.00257 Z-1.77414
X149.03967 Y-50.83807 Z-1.81178
X148.92528 Y-50.65782 Z-1.84943
X148.83438 Y-50.46465 Z-1.88707
X148.76841 Y-50.26161 Z-1.92471
X148.72841 Y-50.0519 Z-1.96236
X148.715 Y-49.83884 Z-2.
G02 X152.115 I1.7 J0. F384.
X148.715 I-1.7 J0.
G1 X148.615
G03 X152.215 I1.8 J0.
X148.615 I-1.8 J0.
G0 Z1.
X151.18795 Y-48.32763
G1 Z-1.73 F96.
X151.32591 Y-48.40348 Z-1.75776 F288.
X151.49862 Y-48.52896 Z-1.7954
X151.65425 Y-48.67511 Z-1.83305
X151.79033 Y-48.8396 Z-1.87069
X151.90472 Y-49.01985 Z-1.90833
X151.99562 Y-49.21302 Z-1.94598
X152.06159 Y-49.41606 Z-1.98362
X152.10159 Y-49.62577 Z-2.02126
X152.115 Y-49.83884 Z-2.05891
X152.10159 Y-50.0519 Z-2.09655
X152.06159 Y-50.26161 Z-2.1342
X151.99562 Y-50.46465 Z-2.17184
X151.90472 Y-50.65782 Z-2.20948
X151.79033 Y-50.83807 Z-2.24713
X151.65425 Y-51.00257 Z-2.28477
X151.49862 Y-51.14871 Z-2.32241
X151.32591 Y-51.27419 Z-2.36006
X151.13882 Y-51.37704 Z-2.3977
X150.94033 Y-51.45563 Z-2.43534
X150.73355 Y-51.50872 Z-2.47299
X150.52174 Y-51.53548 Z-2.51063
X150.30826 Z-2.54828
X150.09645 Y-51.50872 Z-2.58592
X149.88967 Y-51.45563 Z-2.62356
X149.69117 Y-51.37704 Z-2.66121
X149.50409 Y-51.27419 Z-2.69885
X149.33138 Y-51.14871 Z-2.73649
X149.17575 Y-51.00257 Z-2.77414
X149.03967 Y-50.83807 Z-2.81178
X148.92528 Y-50.65782 Z-2.84943
X148.83438 Y-50.46465 Z-2.88707
X148.76841 Y-50.26161 Z-2.92471
X148.72841 Y-50.0519 Z-2.96236
X148.715 Y-49.83884 Z-3.
G02 X152.115 I1.7 J0. F384.
X148.715 I-1.7 J0.
G1 X148.615
G03 X152.215 I1.8 J0.
X148.615 I-1.8 J0.
G0 Z1.
X151.18795 Y-48.32763
G1 Z-2.73 F96.
X151.32591 Y-48.40348 Z-2.75776 F288.
X151.49862 Y-48.52896 Z-2.7954
X151.65425 Y-48.67511 Z-2.83305
X151.79033 Y-48.8396 Z-2.87069
X151.90472 Y-49.01985 Z-2.90833
X151.99562 Y-49.21302 Z-2.94598
X152.06159 Y-49.41606 Z-2.98362
X152.10159 Y-49.62577 Z-3.02127
X152.115 Y-49.83884 Z-3.05891
X152.10159 Y-50.0519 Z-3.09655
X152.06159 Y-50.26161 Z-3.1342
X151.99562 Y-50.46465 Z-3.17184
X151.90472 Y-50.65782 Z-3.20948
X151.79033 Y-50.83807 Z-3.24713
X151.65425 Y-51.00257 Z-3.28477
X151.49862 Y-51.14871 Z-3.32241
X151.32591 Y-51.27419 Z-3.36006
X151.13882 Y-51.37704 Z-3.3977
X150.94033 Y-51.45563 Z-3.43535
X150.73355 Y-51.50872 Z-3.47299
X150.52174 Y-51.53548 Z-3.51063
X150.30826 Z-3.54828
X150.09645 Y-51.50872 Z-3.58592
X149.88967 Y-51.45563 Z-3.62356
X149.69117 Y-51.37704 Z-3.66121
X149.50409 Y-51.27419 Z-3.69885
X149.33138 Y-51.14871 Z-3.73649
X149.17575 Y-51.00257 Z-3.77414
X149.03967 Y-50.83807 Z-3.81178
X148.92528 Y-50.65782 Z-3.84943
X148.83438 Y-50.46465 Z-3.88707
X148.76841 Y-50.26161 Z-3.92471
X148.72841 Y-50.0519 Z-3.96236
X148.715 Y-49.83884 Z-4.
G02 X152.115 I1.7 J0. F384.
X148.715 I-1.7 J0.
G1 X148.615
G03 X152.215 I1.8 J0.
X148.615 I-1.8 J0.
G0 Z1.
X154.12483 Y-70.55539
G1 Z0.27 F96.
X153.94629 Y-70.36759 Z0.22431 F288.
X153.78465 Y-70.15833 Z0.17768
X153.64525 Y-69.93364 Z0.13106
X153.52954 Y-69.69588 Z0.08444
X153.43875 Y-69.44754 Z0.03781
X153.37382 Y-69.19121 Z-0.00881
X153.33544 Y-68.92959 Z-0.05544
X153.324 Y-68.66542 Z-0.10206
X153.33962 Y-68.40146 Z-0.14869
X153.38215 Y-68.14048 Z-0.19531
X153.45114 Y-67.88522 Z-0.24194
X153.54585 Y-67.63835 Z-0.28856
X153.66531 Y-67.40245 Z-0.33519
X153.80826 Y-67.18 Z-0.38181
X153.9732 Y-66.97333 Z-0.42843
X154.15841 Y-66.7846 Z-0.47506
X154.36193 Y-66.6158 Z-0.52168
X154.58165 Y-66.46868 Z-0.56831
X154.81526 Y-66.3448 Z-0.61493
X155.0603 Y-66.24545 Z-0.66156
X155.31422 Y-66.17167 Z-0.70818
X155.57435 Y-66.12423 Z-0.75481
X155.83797 Y-66.10363 Z-0.80143
X156.10231 Y-66.11009 Z-0.84805
X156.36461 Y-66.14354 Z-0.89468
X156.93653 Y-66.31582 Z-1.
X156.95596 Y-66.32517 F384.
X156.95862 Y-66.32641
G02 X156.36461 Y-66.14354 I-1.05151 J-2.35949
G1 X156.93653 Y-66.31582
X156.97286 Y-66.22233
X156.38801 Y-66.04616
G03 X156.99933 Y-66.23507 I-0.4809 J-2.63974
G1 X156.97286 Y-66.22233
G0 Z1.
X154.12483 Y-70.55539
G1 Z-0.73 F96.
X153.94629 Y-70.36759 Z-0.77569 F288.
X153.78465 Y-70.15833 Z-0.82232
X153.64525 Y-69.93364 Z-0.86894
X153.52954 Y-69.69588 Z-0.91556
X153.43875 Y-69.44754 Z-0.96219
X153.37382 Y-69.19121 Z-1.00881
X153.33544 Y-68.92959 Z-1.05544
X153.324 Y-68.66542 Z-1.10206
X153.33962 Y-68.40146 Z-1.14869
X153.38215 Y-68.14048 Z-1.19531
X153.45114 Y-67.88522 Z-1.24194
X153.54585 Y-67.63835 Z-1.28856
X153.66531 Y-67.40245 Z-1.33519
X153.80826 Y-67.18 Z-1.38181
X153.9732 Y-66.97333 Z-1.42843
X154.15841 Y-66.7846 Z-1.47506
X154.36193 Y-66.6158 Z-1.52168
X154.58165 Y-66.46868 Z-1.56831
X154.81526 Y-66.3448 Z-1.61493
X155.0603 Y-66.24545 Z-1.66156
X155.31422 Y-66.17167 Z-1.70818
X155.57435 Y-66.12423 Z-1.75481
X155.83797 Y-66.10363 Z-1.80143
X156.10231 Y-66.11009 Z-1.84805
X156.36461 Y-66.14354 Z-1.89468
X156.93653 Y-66.31582 Z-2.
X156.95596 Y-66.32517 F384.
X156.95862 Y-66.32641
G02 X156.36461 Y-66.14354 I-1.05151 J-2.35949
G1 X156.93653 Y-66.31582
X156.97286 Y-66.22233
X156.38801 Y-66.04616
G03 X156.99933 Y-66.23507 I-0.4809 J-2.63974
G1 X156.97286 Y-66.22233
G0 Z1.
X154.12483 Y-70.55539
G1 Z-1.73 F96.
X153.94629 Y-70.36759 Z-1.77569 F288.
X153.78465 Y-70.15833 Z-1.82232
X153.64525 Y-69.93364 Z-1.86894
X153.52954 Y-69.69588 Z-1.91556
X153.43875 Y-69.44754 Z-1.96219
X153.37382 Y-69.19121 Z-2.00881
X153.33544 Y-68.92959 Z-2.05544
X153.324 Y-68.66542 Z-2.10206
X153.33962 Y-68.40146 Z-2.14869
X153.38215 Y-68.14048 Z-2.19531
X153.45114 Y-67.88522 Z-2.24194
X153.54585 Y-67.63835 Z-2.28856
X153.66531 Y-67.40245 Z-2.33519
X153.80826 Y-67.18 Z-2.38181
X153.9732 Y-66.97333 Z-2.42843
X154.15841 Y-66.7846 Z-2.47506
X154.36193 Y-66.6158 Z-2.52168
X154.58165 Y-66.46868 Z-2.56831
X154.81526 Y-66.3448 Z-2.61493
X155.0603 Y-66.24545 Z-2.66156
X155.31422 Y-66.17167 Z-2.70818
X155.57435 Y-66.12423 Z-2.75481
X155.83797 Y-66.10363 Z-2.80143
X156.10231 Y-66.11009 Z-2.84805
X156.36461 Y-66.14354 Z-2.89468
X156.93653 Y-66.31582 Z-3.
X156.95596 Y-66.32517 F384.
X156.95862 Y-66.32641
G02 X156.36461 Y-66.14354 I-1.05151 J-2.35949
G1 X156.93653 Y-66.31582
X156.97286 Y-66.22233
X156.38801 Y-66.04616
G03 X156.99933 Y-66.23507 I-0.4809 J-2.63974
G1 X156.97286 Y-66.22233
G0 Z1.
X154.12483 Y-70.55539
G1 Z-2.73 F96.
X153.94629 Y-70.36759 Z-2.77569 F288.
X153.78465 Y-70.15833 Z-2.82231
X153.64525 Y-69.93364 Z-2.86894
X153.52954 Y-69.69588 Z-2.91556
X153.43875 Y-69.44754 Z-2.96219
X153.37382 Y-69.19121 Z-3.00881
X153.33544 Y-68.92959 Z-3.05544
X153.324 Y-68.66542 Z-3.10206
X153.33962 Y-68.40146 Z-3.14869
X153.38215 Y-68.14048 Z-3.19531
X153.45114 Y-67.88522 Z-3.24194
X153.54585 Y-67.63835 Z-3.28856
X153.66531 Y-67.40245 Z-3.33519
X153.80826 Y-67.18 Z-3.38181
X153.9732 Y-66.97333 Z-3.42843
X154.15841 Y-66.7846 Z-3.47506
X154.36193 Y-66.6158 Z-3.52168
X154.58165 Y-66.46868 Z-3.56831
X154.81526 Y-66.3448 Z-3.61493
X155.0603 Y-66.24545 Z-3.66156
X155.31422 Y-66.17167 Z-3.70818
X155.57435 Y-66.12423 Z-3.75481
X155.83797 Y-66.10363 Z-3.80143
X156.10231 Y-66.11009 Z-3.84805
X156.36461 Y-66.14354 Z-3.89468
X156.93653 Y-66.31582 Z-4.
X156.95596 Y-66.32517 F384.
X156.95862 Y-66.32641
G02 X156.36461 Y-66.14354 I-1.05151 J-2.35949
G1 X156.93653 Y-66.31582
X156.97286 Y-66.22233
X156.38801 Y-66.04616
G03 X156.99933 Y-66.23507 I-0.4809 J-2.63974
G1 X156.97286 Y-66.22233
G0 Z1.
M30
%
