%
G17 G21 G40 G90 G64 P0.1
(2 1/2 Axis Profiling)
(SlotDrill 2mm Carbide)
T12 M06
S24000 M3
G0 Z1.
X18.92501 Y8.78171
G1 Z0.1 F48.
X18.92496 Y8.777 Z0.09917 F144.
X18.92332 Y8.75485 Z0.09525
X18.92029 Y8.73285 Z0.09134
X18.91586 Y8.71108 Z0.08742
X18.91006 Y8.68964 Z0.0835
X18.90292 Y8.66862 Z0.07959
X18.89445 Y8.64808 Z0.07567
X18.8847 Y8.62813 Z0.07176
X18.87371 Y8.60883 Z0.06784
X18.86151 Y8.59027 Z0.06392
X18.84816 Y8.57252 Z0.06001
X18.83371 Y8.55566 Z0.05609
X18.81822 Y8.53974 Z0.05217
X18.80175 Y8.52484 Z0.04826
X18.78437 Y8.51101 Z0.04434
X18.76614 Y8.49832 Z0.04043
X18.74715 Y8.4868 Z0.03651
X18.72747 Y8.47651 Z0.03259
X18.70718 Y8.46749 Z0.02868
X18.68635 Y8.45978 Z0.02476
X18.66507 Y8.4534 Z0.02085
X18.64344 Y8.44839 Z0.01693
X18.62153 Y8.44476 Z0.01301
X18.59943 Y8.44252 Z0.0091
X18.57724 Y8.44169 Z0.00518
X18.55503 Y8.44227 Z0.00127
X18.53291 Y8.44426 Z-0.00265
X18.51096 Y8.44764 Z-0.00657
X18.48927 Y8.45241 Z-0.01048
X18.46793 Y8.45855 Z-0.0144
X18.44702 Y8.46603 Z-0.01832
X18.42662 Y8.47482 Z-0.02223
X18.40682 Y8.48489 Z-0.02615
X18.3877 Y8.49619 Z-0.03006
X18.36934 Y8.50868 Z-0.03398
X18.3518 Y8.52231 Z-0.0379
X18.33517 Y8.53702 Z-0.04181
X18.3195 Y8.55277 Z-0.04573
X18.30486 Y8.56947 Z-0.04964
X18.29131 Y8.58707 Z-0.05356
X18.27891 Y8.60549 Z-0.05748
X18.26769 Y8.62466 Z-0.06139
X18.25772 Y8.6445 Z-0.06531
X18.24902 Y8.66494 Z-0.06923
X18.24164 Y8.68588 Z-0.07314
X18.2356 Y8.70726 Z-0.07706
X18.23093 Y8.72897 Z-0.08097
X18.22765 Y8.75094 Z-0.08489
X18.22576 Y8.77307 Z-0.08881
X18.22529 Y8.79527 Z-0.09272
X18.22622 Y8.81746 Z-0.09664
X18.22856 Y8.83955 Z-0.10055
X18.23229 Y8.86144 Z-0.10447
X18.2374 Y8.88305 Z-0.10839
X18.24388 Y8.9043 Z-0.1123
X18.25169 Y8.92509 Z-0.11622
X18.2608 Y8.94534 Z-0.12014
X18.27118 Y8.96498 Z-0.12405
X18.28278 Y8.98391 Z-0.12797
X18.29556 Y9.00208 Z-0.13188
X18.30947 Y9.0194 Z-0.1358
X18.32445 Y9.03579 Z-0.13972
X18.34044 Y9.05121 Z-0.14363
X18.35737 Y9.06558 Z-0.14755
X18.37518 Y9.07885 Z-0.15146
X18.3938 Y9.09096 Z-0.15538
X18.41314 Y9.10187 Z-0.1593
X18.43314 Y9.11153 Z-0.16321
X18.45371 Y9.1199 Z-0.16713
X18.47477 Y9.12695 Z-0.17104
X18.49624 Y9.13265 Z-0.17496
X18.51802 Y9.13697 Z-0.17888
X18.54004 Y9.13991 Z-0.18279
X18.5622 Y9.14144 Z-0.18671
X18.58441 Y9.14157 Z-0.19063
X18.60658 Y9.14028 Z-0.19454
X18.62862 Y9.13759 Z-0.19846
X18.65046 Y9.13351 Z-0.20237
X18.67198 Y9.12806 Z-0.20629
X18.69312 Y9.12125 Z-0.21021
X18.71379 Y9.11311 Z-0.21412
X18.7339 Y9.10367 Z-0.21804
X18.75336 Y9.09298 Z-0.22195
X18.77211 Y9.08108 Z-0.22587
X18.79007 Y9.06802 Z-0.22979
X18.80717 Y9.05383 Z-0.2337
X18.82333 Y9.0386 Z-0.23762
X18.83849 Y9.02237 Z-0.24154
X18.85259 Y9.00521 Z-0.24545
X18.86557 Y8.98719 Z-0.24937
X18.87739 Y8.96839 Z-0.25328
X18.88799 Y8.94887 Z-0.2572
X18.89733 Y8.92872 Z-0.26112
X18.90537 Y8.90802 Z-0.26503
X18.91208 Y8.88685 Z-0.26895
X18.91744 Y8.86529 Z-0.27286
X18.92142 Y8.84344 Z-0.27678
X18.92401 Y8.82138 Z-0.2807
X18.92519 Y8.79921 Z-0.28461
X18.92496 Y8.777 Z-0.28853
X18.92332 Y8.75485 Z-0.29245
X18.92029 Y8.73285 Z-0.29636
X18.91586 Y8.71108 Z-0.30028
X18.91006 Y8.68964 Z-0.30419
X18.90292 Y8.66862 Z-0.30811
X18.89445 Y8.64808 Z-0.31203
X18.8847 Y8.62813 Z-0.31594
X18.87371 Y8.60883 Z-0.31986
X18.86151 Y8.59027 Z-0.32377
X18.84816 Y8.57252 Z-0.32769
X18.83371 Y8.55566 Z-0.33161
X18.81822 Y8.53974 Z-0.33552
X18.80175 Y8.52484 Z-0.33944
X18.78437 Y8.51101 Z-0.34335
X18.76614 Y8.49832 Z-0.34727
X18.74715 Y8.4868 Z-0.35119
X18.72747 Y8.47651 Z-0.3551
X18.70718 Y8.46749 Z-0.35902
X18.68635 Y8.45978 Z-0.36294
X18.66507 Y8.4534 Z-0.36685
X18.64344 Y8.44839 Z-0.37077
X18.62153 Y8.44476 Z-0.37468
X18.59943 Y8.44252 Z-0.3786
X18.57724 Y8.44169 Z-0.38252
X18.55503 Y8.44227 Z-0.38643
X18.53291 Y8.44426 Z-0.39035
X18.51096 Y8.44764 Z-0.39426
X18.48927 Y8.45241 Z-0.39818
X18.46793 Y8.45855 Z-0.4021
X18.44702 Y8.46603 Z-0.40601
X18.42662 Y8.47482 Z-0.40993
X18.40682 Y8.48489 Z-0.41385
X18.3877 Y8.49619 Z-0.41776
X18.36934 Y8.50868 Z-0.42168
X18.3518 Y8.52231 Z-0.42559
X18.33517 Y8.53702 Z-0.42951
X18.3195 Y8.55277 Z-0.43343
X18.30486 Y8.56947 Z-0.43734
X18.29131 Y8.58707 Z-0.44126
X18.27891 Y8.60549 Z-0.44517
X18.26769 Y8.62466 Z-0.44909
X18.25772 Y8.6445 Z-0.45301
X18.24902 Y8.66494 Z-0.45692
X18.24164 Y8.68588 Z-0.46084
X18.2356 Y8.70726 Z-0.46476
X18.23093 Y8.72897 Z-0.46867
X18.22765 Y8.75094 Z-0.47259
X18.22576 Y8.77307 Z-0.4765
X18.22529 Y8.79527 Z-0.48042
X18.22622 Y8.81746 Z-0.48434
X18.22856 Y8.83955 Z-0.48825
X18.23229 Y8.86144 Z-0.49217
X18.2374 Y8.88305 Z-0.49608
X18.24388 Y8.9043 Z-0.5
G17
G02 X18.90666 Y8.67907 I0.33139 J-0.11262 F192.
X18.24388 Y8.9043 I-0.33139 J0.11261
G03 X18.00717 Y8.98473 I-0.11835 J0.04022
X19.14336 Y8.59864 I0.5681 J-0.19305
X18.00717 Y8.98473 I-0.56809 J0.19304
G0 Z1.
X18.92501 Y8.78171
G1 Z-0.4 F48.
X18.92496 Y8.777 Z-0.40083 F144.
X18.92332 Y8.75485 Z-0.40475
X18.92029 Y8.73285 Z-0.40866
X18.91586 Y8.71108 Z-0.41258
X18.91006 Y8.68964 Z-0.4165
X18.90292 Y8.66862 Z-0.42041
X18.89445 Y8.64808 Z-0.42433
X18.8847 Y8.62813 Z-0.42824
X18.87371 Y8.60883 Z-0.43216
X18.86151 Y8.59027 Z-0.43608
X18.84816 Y8.57252 Z-0.43999
X18.83371 Y8.55566 Z-0.44391
X18.81822 Y8.53974 Z-0.44783
X18.80175 Y8.52484 Z-0.45174
X18.78437 Y8.51101 Z-0.45566
X18.76614 Y8.49832 Z-0.45957
X18.74715 Y8.4868 Z-0.46349
X18.72747 Y8.47651 Z-0.46741
X18.70718 Y8.46749 Z-0.47132
X18.68635 Y8.45978 Z-0.47524
X18.66507 Y8.4534 Z-0.47915
X18.64344 Y8.44839 Z-0.48307
X18.62153 Y8.44476 Z-0.48699
X18.59943 Y8.44252 Z-0.4909
X18.57724 Y8.44169 Z-0.49482
X18.55503 Y8.44227 Z-0.49873
X18.53291 Y8.44426 Z-0.50265
X18.51096 Y8.44764 Z-0.50657
X18.48927 Y8.45241 Z-0.51048
X18.46793 Y8.45855 Z-0.5144
X18.44702 Y8.46603 Z-0.51832
X18.42662 Y8.47482 Z-0.52223
X18.40682 Y8.48489 Z-0.52615
X18.3877 Y8.49619 Z-0.53006
X18.36934 Y8.50868 Z-0.53398
X18.3518 Y8.52231 Z-0.5379
X18.33517 Y8.53702 Z-0.54181
X18.3195 Y8.55277 Z-0.54573
X18.30486 Y8.56947 Z-0.54964
X18.29131 Y8.58707 Z-0.55356
X18.27891 Y8.60549 Z-0.55748
X18.26769 Y8.62466 Z-0.56139
X18.25772 Y8.6445 Z-0.56531
X18.24902 Y8.66494 Z-0.56923
X18.24164 Y8.68588 Z-0.57314
X18.2356 Y8.70726 Z-0.57706
X18.23093 Y8.72897 Z-0.58097
X18.22765 Y8.75094 Z-0.58489
X18.22576 Y8.77307 Z-0.58881
X18.22529 Y8.79527 Z-0.59272
X18.22622 Y8.81746 Z-0.59664
X18.22856 Y8.83955 Z-0.60055
X18.23229 Y8.86144 Z-0.60447
X18.2374 Y8.88305 Z-0.60839
X18.24388 Y8.9043 Z-0.6123
X18.25169 Y8.92509 Z-0.61622
X18.2608 Y8.94534 Z-0.62014
X18.27118 Y8.96498 Z-0.62405
X18.28278 Y8.98391 Z-0.62797
X18.29556 Y9.00208 Z-0.63188
X18.30947 Y9.0194 Z-0.6358
X18.32445 Y9.03579 Z-0.63972
X18.34044 Y9.05121 Z-0.64363
X18.35737 Y9.06558 Z-0.64755
X18.37518 Y9.07885 Z-0.65146
X18.3938 Y9.09096 Z-0.65538
X18.41314 Y9.10187 Z-0.6593
X18.43314 Y9.11153 Z-0.66321
X18.45371 Y9.1199 Z-0.66713
X18.47477 Y9.12695 Z-0.67104
X18.49624 Y9.13265 Z-0.67496
X18.51802 Y9.13697 Z-0.67888
X18.54004 Y9.13991 Z-0.68279
X18.5622 Y9.14144 Z-0.68671
X18.58441 Y9.14157 Z-0.69063
X18.60658 Y9.14028 Z-0.69454
X18.62862 Y9.13759 Z-0.69846
X18.65046 Y9.13351 Z-0.70237
X18.67198 Y9.12806 Z-0.70629
X18.69312 Y9.12125 Z-0.71021
X18.71379 Y9.11311 Z-0.71412
X18.7339 Y9.10367 Z-0.71804
X18.75336 Y9.09298 Z-0.72195
X18.77211 Y9.08108 Z-0.72587
X18.79007 Y9.06802 Z-0.72979
X18.80717 Y9.05383 Z-0.7337
X18.82333 Y9.0386 Z-0.73762
X18.83849 Y9.02237 Z-0.74154
X18.85259 Y9.00521 Z-0.74545
X18.86557 Y8.98719 Z-0.74937
X18.87739 Y8.96839 Z-0.75328
X18.88799 Y8.94887 Z-0.7572
X18.89733 Y8.92872 Z-0.76112
X18.90537 Y8.90802 Z-0.76503
X18.91208 Y8.88685 Z-0.76895
X18.91744 Y8.86529 Z-0.77286
X18.92142 Y8.84344 Z-0.77678
X18.92401 Y8.82138 Z-0.7807
X18.92519 Y8.79921 Z-0.78461
X18.92496 Y8.777 Z-0.78853
X18.92332 Y8.75485 Z-0.79244
X18.92029 Y8.73285 Z-0.79636
X18.91586 Y8.71108 Z-0.80028
X18.91006 Y8.68964 Z-0.80419
X18.90292 Y8.66862 Z-0.80811
X18.89445 Y8.64808 Z-0.81203
X18.8847 Y8.62813 Z-0.81594
X18.87371 Y8.60883 Z-0.81986
X18.86151 Y8.59027 Z-0.82377
X18.84816 Y8.57252 Z-0.82769
X18.83371 Y8.55566 Z-0.83161
X18.81822 Y8.53974 Z-0.83552
X18.80175 Y8.52484 Z-0.83944
X18.78437 Y8.51101 Z-0.84335
X18.76614 Y8.49832 Z-0.84727
X18.74715 Y8.4868 Z-0.85119
X18.72747 Y8.47651 Z-0.8551
X18.70718 Y8.46749 Z-0.85902
X18.68635 Y8.45978 Z-0.86294
X18.66507 Y8.4534 Z-0.86685
X18.64344 Y8.44839 Z-0.87077
X18.62153 Y8.44476 Z-0.87468
X18.59943 Y8.44252 Z-0.8786
X18.57724 Y8.44169 Z-0.88252
X18.55503 Y8.44227 Z-0.88643
X18.53291 Y8.44426 Z-0.89035
X18.51096 Y8.44764 Z-0.89426
X18.48927 Y8.45241 Z-0.89818
X18.46793 Y8.45855 Z-0.9021
X18.44702 Y8.46603 Z-0.90601
X18.42662 Y8.47482 Z-0.90993
X18.40682 Y8.48489 Z-0.91385
X18.3877 Y8.49619 Z-0.91776
X18.36934 Y8.50868 Z-0.92168
X18.3518 Y8.52231 Z-0.92559
X18.33517 Y8.53702 Z-0.92951
X18.3195 Y8.55277 Z-0.93343
X18.30486 Y8.56947 Z-0.93734
X18.29131 Y8.58707 Z-0.94126
X18.27891 Y8.60549 Z-0.94517
X18.26769 Y8.62466 Z-0.94909
X18.25772 Y8.6445 Z-0.95301
X18.24902 Y8.66494 Z-0.95692
X18.24164 Y8.68588 Z-0.96084
X18.2356 Y8.70726 Z-0.96476
X18.23093 Y8.72897 Z-0.96867
X18.22765 Y8.75094 Z-0.97259
X18.22576 Y8.77307 Z-0.9765
X18.22529 Y8.79527 Z-0.98042
X18.22622 Y8.81746 Z-0.98433
X18.22856 Y8.83955 Z-0.98825
X18.23229 Y8.86144 Z-0.99217
X18.2374 Y8.88305 Z-0.99608
X18.24388 Y8.9043 Z-1.
G02 X18.90666 Y8.67907 I0.33139 J-0.11262 F192.
X18.24388 Y8.9043 I-0.33139 J0.11261
G03 X18.00717 Y8.98473 I-0.11835 J0.04022
X19.14336 Y8.59864 I0.5681 J-0.19305
X18.00717 Y8.98473 I-0.56809 J0.19304
G0 Z1.
X18.92501 Y8.78171
G1 Z-0.9 F48.
X18.92496 Y8.777 Z-0.90083 F144.
X18.92332 Y8.75485 Z-0.90475
X18.92029 Y8.73285 Z-0.90866
X18.91586 Y8.71108 Z-0.91258
X18.91006 Y8.68964 Z-0.91649
X18.90292 Y8.66862 Z-0.92041
X18.89445 Y8.64808 Z-0.92433
X18.8847 Y8.62813 Z-0.92824
X18.87371 Y8.60883 Z-0.93216
X18.86151 Y8.59027 Z-0.93608
X18.84816 Y8.57252 Z-0.93999
X18.83371 Y8.55566 Z-0.94391
X18.81822 Y8.53974 Z-0.94783
X18.80175 Y8.52484 Z-0.95174
X18.78437 Y8.51101 Z-0.95566
X18.76614 Y8.49832 Z-0.95957
X18.74715 Y8.4868 Z-0.96349
X18.72747 Y8.47651 Z-0.96741
X18.70718 Y8.46749 Z-0.97132
X18.68635 Y8.45978 Z-0.97524
X18.66507 Y8.4534 Z-0.97915
X18.64344 Y8.44839 Z-0.98307
X18.62153 Y8.44476 Z-0.98699
X18.59943 Y8.44252 Z-0.9909
X18.57724 Y8.44169 Z-0.99482
X18.55503 Y8.44227 Z-0.99873
X18.53291 Y8.44426 Z-1.00265
X18.51096 Y8.44764 Z-1.00657
X18.48927 Y8.45241 Z-1.01048
X18.46793 Y8.45855 Z-1.0144
X18.44702 Y8.46603 Z-1.01832
X18.42662 Y8.47482 Z-1.02223
X18.40682 Y8.48489 Z-1.02615
X18.3877 Y8.49619 Z-1.03006
X18.36934 Y8.50868 Z-1.03398
X18.3518 Y8.52231 Z-1.0379
X18.33517 Y8.53702 Z-1.04181
X18.3195 Y8.55277 Z-1.04573
X18.30486 Y8.56947 Z-1.04964
X18.29131 Y8.58707 Z-1.05356
X18.27891 Y8.60549 Z-1.05748
X18.26769 Y8.62466 Z-1.06139
X18.25772 Y8.6445 Z-1.06531
X18.24902 Y8.66494 Z-1.06923
X18.24164 Y8.68588 Z-1.07314
X18.2356 Y8.70726 Z-1.07706
X18.23093 Y8.72897 Z-1.08097
X18.22765 Y8.75094 Z-1.08489
X18.22576 Y8.77307 Z-1.08881
X18.22529 Y8.79527 Z-1.09272
X18.22622 Y8.81746 Z-1.09664
X18.22856 Y8.83955 Z-1.10055
X18.23229 Y8.86144 Z-1.10447
X18.2374 Y8.88305 Z-1.10839
X18.24388 Y8.9043 Z-1.1123
X18.25169 Y8.92509 Z-1.11622
X18.2608 Y8.94534 Z-1.12014
X18.27118 Y8.96498 Z-1.12405
X18.28278 Y8.98391 Z-1.12797
X18.29556 Y9.00208 Z-1.13188
X18.30947 Y9.0194 Z-1.1358
X18.32445 Y9.03579 Z-1.13972
X18.34044 Y9.05121 Z-1.14363
X18.35737 Y9.06558 Z-1.14755
X18.37518 Y9.07885 Z-1.15146
X18.3938 Y9.09096 Z-1.15538
X18.41314 Y9.10187 Z-1.1593
X18.43314 Y9.11153 Z-1.16321
X18.45371 Y9.1199 Z-1.16713
X18.47477 Y9.12695 Z-1.17104
X18.49624 Y9.13265 Z-1.17496
X18.51802 Y9.13697 Z-1.17888
X18.54004 Y9.13991 Z-1.18279
X18.5622 Y9.14144 Z-1.18671
X18.58441 Y9.14157 Z-1.19063
X18.60658 Y9.14028 Z-1.19454
X18.62862 Y9.13759 Z-1.19846
X18.65046 Y9.13351 Z-1.20237
X18.67198 Y9.12806 Z-1.20629
X18.69312 Y9.12125 Z-1.21021
X18.71379 Y9.11311 Z-1.21412
X18.7339 Y9.10367 Z-1.21804
X18.75336 Y9.09298 Z-1.22195
X18.77211 Y9.08108 Z-1.22587
X18.79007 Y9.06802 Z-1.22979
X18.80717 Y9.05383 Z-1.2337
X18.82333 Y9.0386 Z-1.23762
X18.83849 Y9.02237 Z-1.24154
X18.85259 Y9.00521 Z-1.24545
X18.86557 Y8.98719 Z-1.24937
X18.87739 Y8.96839 Z-1.25328
X18.88799 Y8.94887 Z-1.2572
X18.89733 Y8.92872 Z-1.26112
X18.90537 Y8.90802 Z-1.26503
X18.91208 Y8.88685 Z-1.26895
X18.91744 Y8.86529 Z-1.27286
X18.92142 Y8.84344 Z-1.27678
X18.92401 Y8.82138 Z-1.2807
X18.92519 Y8.79921 Z-1.28461
X18.92496 Y8.777 Z-1.28853
X18.92332 Y8.75485 Z-1.29245
X18.92029 Y8.73285 Z-1.29636
X18.91586 Y8.71108 Z-1.30028
X18.91006 Y8.68964 Z-1.30419
X18.90292 Y8.66862 Z-1.30811
X18.89445 Y8.64808 Z-1.31203
X18.8847 Y8.62813 Z-1.31594
X18.87371 Y8.60883 Z-1.31986
X18.86151 Y8.59027 Z-1.32377
X18.84816 Y8.57252 Z-1.32769
X18.83371 Y8.55566 Z-1.33161
X18.81822 Y8.53974 Z-1.33552
X18.80175 Y8.52484 Z-1.33944
X18.78437 Y8.51101 Z-1.34335
X18.76614 Y8.49832 Z-1.34727
X18.74715 Y8.4868 Z-1.35119
X18.72747 Y8.47651 Z-1.3551
X18.70718 Y8.46749 Z-1.35902
X18.68635 Y8.45978 Z-1.36294
X18.66507 Y8.4534 Z-1.36685
X18.64344 Y8.44839 Z-1.37077
X18.62153 Y8.44476 Z-1.37468
X18.59943 Y8.44252 Z-1.3786
X18.57724 Y8.44169 Z-1.38252
X18.55503 Y8.44227 Z-1.38643
X18.53291 Y8.44426 Z-1.39035
X18.51096 Y8.44764 Z-1.39426
X18.48927 Y8.45241 Z-1.39818
X18.46793 Y8.45855 Z-1.4021
X18.44702 Y8.46603 Z-1.40601
X18.42662 Y8.47482 Z-1.40993
X18.40682 Y8.48489 Z-1.41385
X18.3877 Y8.49619 Z-1.41776
X18.36934 Y8.50868 Z-1.42168
X18.3518 Y8.52231 Z-1.42559
X18.33517 Y8.53702 Z-1.42951
X18.3195 Y8.55277 Z-1.43343
X18.30486 Y8.56947 Z-1.43734
X18.29131 Y8.58707 Z-1.44126
X18.27891 Y8.60549 Z-1.44517
X18.26769 Y8.62466 Z-1.44909
X18.25772 Y8.6445 Z-1.45301
X18.24902 Y8.66494 Z-1.45692
X18.24164 Y8.68588 Z-1.46084
X18.2356 Y8.70726 Z-1.46476
X18.23093 Y8.72897 Z-1.46867
X18.22765 Y8.75094 Z-1.47259
X18.22576 Y8.77307 Z-1.4765
X18.22529 Y8.79527 Z-1.48042
X18.22622 Y8.81746 Z-1.48434
X18.22856 Y8.83955 Z-1.48825
X18.23229 Y8.86144 Z-1.49217
X18.2374 Y8.88305 Z-1.49608
X18.24388 Y8.9043 Z-1.5
G02 X18.90666 Y8.67907 I0.33139 J-0.11262 F192.
X18.24388 Y8.9043 I-0.33139 J0.11261
G03 X18.00717 Y8.98473 I-0.11835 J0.04022
X19.14336 Y8.59864 I0.5681 J-0.19305
X18.00717 Y8.98473 I-0.56809 J0.19304
G0 Z1.
X18.92501 Y8.78171
G1 Z-1.4 F48.
X18.92496 Y8.777 Z-1.40083 F144.
X18.92332 Y8.75485 Z-1.40475
X18.92029 Y8.73285 Z-1.40866
X18.91586 Y8.71108 Z-1.41258
X18.91006 Y8.68964 Z-1.4165
X18.90292 Y8.66862 Z-1.42041
X18.89445 Y8.64808 Z-1.42433
X18.8847 Y8.62813 Z-1.42824
X18.87371 Y8.60883 Z-1.43216
X18.86151 Y8.59027 Z-1.43608
X18.84816 Y8.57252 Z-1.43999
X18.83371 Y8.55566 Z-1.44391
X18.81822 Y8.53974 Z-1.44783
X18.80175 Y8.52484 Z-1.45174
X18.78437 Y8.51101 Z-1.45566
X18.76614 Y8.49832 Z-1.45957
X18.74715 Y8.4868 Z-1.46349
X18.72747 Y8.47651 Z-1.46741
X18.70718 Y8.46749 Z-1.47132
X18.68635 Y8.45978 Z-1.47524
X18.66507 Y8.4534 Z-1.47915
X18.64344 Y8.44839 Z-1.48307
X18.62153 Y8.44476 Z-1.48699
X18.59943 Y8.44252 Z-1.4909
X18.57724 Y8.44169 Z-1.49482
X18.55503 Y8.44227 Z-1.49873
X18.53291 Y8.44426 Z-1.50265
X18.51096 Y8.44764 Z-1.50657
X18.48927 Y8.45241 Z-1.51048
X18.46793 Y8.45855 Z-1.5144
X18.44702 Y8.46603 Z-1.51832
X18.42662 Y8.47482 Z-1.52223
X18.40682 Y8.48489 Z-1.52615
X18.3877 Y8.49619 Z-1.53006
X18.36934 Y8.50868 Z-1.53398
X18.3518 Y8.52231 Z-1.5379
X18.33517 Y8.53702 Z-1.54181
X18.3195 Y8.55277 Z-1.54573
X18.30486 Y8.56947 Z-1.54964
X18.29131 Y8.58707 Z-1.55356
X18.27891 Y8.60549 Z-1.55748
X18.26769 Y8.62466 Z-1.56139
X18.25772 Y8.6445 Z-1.56531
X18.24902 Y8.66494 Z-1.56923
X18.24164 Y8.68588 Z-1.57314
X18.2356 Y8.70726 Z-1.57706
X18.23093 Y8.72897 Z-1.58097
X18.22765 Y8.75094 Z-1.58489
X18.22576 Y8.77307 Z-1.58881
X18.22529 Y8.79527 Z-1.59272
X18.22622 Y8.81746 Z-1.59664
X18.22856 Y8.83955 Z-1.60055
X18.23229 Y8.86144 Z-1.60447
X18.2374 Y8.88305 Z-1.60839
X18.24388 Y8.9043 Z-1.6123
X18.25169 Y8.92509 Z-1.61622
X18.2608 Y8.94534 Z-1.62014
X18.27118 Y8.96498 Z-1.62405
X18.28278 Y8.98391 Z-1.62797
X18.29556 Y9.00208 Z-1.63188
X18.30947 Y9.0194 Z-1.6358
X18.32445 Y9.03579 Z-1.63971
X18.34044 Y9.05121 Z-1.64363
X18.35737 Y9.06558 Z-1.64755
X18.37518 Y9.07885 Z-1.65146
X18.3938 Y9.09096 Z-1.65538
X18.41314 Y9.10187 Z-1.6593
X18.43314 Y9.11153 Z-1.66321
X18.45371 Y9.1199 Z-1.66713
X18.47477 Y9.12695 Z-1.67104
X18.49624 Y9.13265 Z-1.67496
X18.51802 Y9.13697 Z-1.67888
X18.54004 Y9.13991 Z-1.68279
X18.5622 Y9.14144 Z-1.68671
X18.58441 Y9.14157 Z-1.69063
X18.60658 Y9.14028 Z-1.69454
X18.62862 Y9.13759 Z-1.69846
X18.65046 Y9.13351 Z-1.70237
X18.67198 Y9.12806 Z-1.70629
X18.69312 Y9.12125 Z-1.71021
X18.71379 Y9.11311 Z-1.71412
X18.7339 Y9.10367 Z-1.71804
X18.75336 Y9.09298 Z-1.72195
X18.77211 Y9.08108 Z-1.72587
X18.79007 Y9.06802 Z-1.72979
X18.80717 Y9.05383 Z-1.7337
X18.82333 Y9.0386 Z-1.73762
X18.83849 Y9.02237 Z-1.74154
X18.85259 Y9.00521 Z-1.74545
X18.86557 Y8.98719 Z-1.74937
X18.87739 Y8.96839 Z-1.75328
X18.88799 Y8.94887 Z-1.7572
X18.89733 Y8.92872 Z-1.76112
X18.90537 Y8.90802 Z-1.76503
X18.91208 Y8.88685 Z-1.76895
X18.91744 Y8.86529 Z-1.77286
X18.92142 Y8.84344 Z-1.77678
X18.92401 Y8.82138 Z-1.7807
X18.92519 Y8.79921 Z-1.78461
X18.92496 Y8.777 Z-1.78853
X18.92332 Y8.75485 Z-1.79245
X18.92029 Y8.73285 Z-1.79636
X18.91586 Y8.71108 Z-1.80028
X18.91006 Y8.68964 Z-1.80419
X18.90292 Y8.66862 Z-1.80811
X18.89445 Y8.64808 Z-1.81203
X18.8847 Y8.62813 Z-1.81594
X18.87371 Y8.60883 Z-1.81986
X18.86151 Y8.59027 Z-1.82377
X18.84816 Y8.57252 Z-1.82769
X18.83371 Y8.55566 Z-1.83161
X18.81822 Y8.53974 Z-1.83552
X18.80175 Y8.52484 Z-1.83944
X18.78437 Y8.51101 Z-1.84335
X18.76614 Y8.49832 Z-1.84727
X18.74715 Y8.4868 Z-1.85119
X18.72747 Y8.47651 Z-1.8551
X18.70718 Y8.46749 Z-1.85902
X18.68635 Y8.45978 Z-1.86294
X18.66507 Y8.4534 Z-1.86685
X18.64344 Y8.44839 Z-1.87077
X18.62153 Y8.44476 Z-1.87468
X18.59943 Y8.44252 Z-1.8786
X18.57724 Y8.44169 Z-1.88252
X18.55503 Y8.44227 Z-1.88643
X18.53291 Y8.44426 Z-1.89035
X18.51096 Y8.44764 Z-1.89426
X18.48927 Y8.45241 Z-1.89818
X18.46793 Y8.45855 Z-1.9021
X18.44702 Y8.46603 Z-1.90601
X18.42662 Y8.47482 Z-1.90993
X18.40682 Y8.48489 Z-1.91385
X18.3877 Y8.49619 Z-1.91776
X18.36934 Y8.50868 Z-1.92168
X18.3518 Y8.52231 Z-1.92559
X18.33517 Y8.53702 Z-1.92951
X18.3195 Y8.55277 Z-1.93343
X18.30486 Y8.56947 Z-1.93734
X18.29131 Y8.58707 Z-1.94126
X18.27891 Y8.60549 Z-1.94517
X18.26769 Y8.62466 Z-1.94909
X18.25772 Y8.6445 Z-1.95301
X18.24902 Y8.66494 Z-1.95692
X18.24164 Y8.68588 Z-1.96084
X18.2356 Y8.70726 Z-1.96476
X18.23093 Y8.72897 Z-1.96867
X18.22765 Y8.75094 Z-1.97259
X18.22576 Y8.77307 Z-1.9765
X18.22529 Y8.79527 Z-1.98042
X18.22622 Y8.81746 Z-1.98434
X18.22856 Y8.83955 Z-1.98825
X18.23229 Y8.86144 Z-1.99217
X18.2374 Y8.88305 Z-1.99608
X18.24388 Y8.9043 Z-2.
G02 X18.90666 Y8.67907 I0.33139 J-0.11262 F192.
X18.24388 Y8.9043 I-0.33139 J0.11261
G03 X18.00717 Y8.98473 I-0.11835 J0.04022
X19.14336 Y8.59864 I0.5681 J-0.19305
X18.00717 Y8.98473 I-0.56809 J0.19304
G0 Z1.
X18.92501 Y8.78171
G1 Z-1.9 F48.
X18.92496 Y8.777 Z-1.90083 F144.
X18.92332 Y8.75485 Z-1.90475
X18.92029 Y8.73285 Z-1.90866
X18.91586 Y8.71108 Z-1.91258
X18.91006 Y8.68964 Z-1.9165
X18.90292 Y8.66862 Z-1.92041
X18.89445 Y8.64808 Z-1.92433
X18.8847 Y8.62813 Z-1.92824
X18.87371 Y8.60883 Z-1.93216
X18.86151 Y8.59027 Z-1.93608
X18.84816 Y8.57252 Z-1.93999
X18.83371 Y8.55566 Z-1.94391
X18.81822 Y8.53974 Z-1.94783
X18.80175 Y8.52484 Z-1.95174
X18.78437 Y8.51101 Z-1.95566
X18.76614 Y8.49832 Z-1.95957
X18.74715 Y8.4868 Z-1.96349
X18.72747 Y8.47651 Z-1.96741
X18.70718 Y8.46749 Z-1.97132
X18.68635 Y8.45978 Z-1.97524
X18.66507 Y8.4534 Z-1.97915
X18.64344 Y8.44839 Z-1.98307
X18.62153 Y8.44476 Z-1.98699
X18.59943 Y8.44252 Z-1.9909
X18.57724 Y8.44169 Z-1.99482
X18.55503 Y8.44227 Z-1.99873
X18.53291 Y8.44426 Z-2.00265
X18.51096 Y8.44764 Z-2.00657
X18.48927 Y8.45241 Z-2.01048
X18.46793 Y8.45855 Z-2.0144
X18.44702 Y8.46603 Z-2.01831
X18.42662 Y8.47482 Z-2.02223
X18.40682 Y8.48489 Z-2.02615
X18.3877 Y8.49619 Z-2.03006
X18.36934 Y8.50868 Z-2.03398
X18.3518 Y8.52231 Z-2.0379
X18.33517 Y8.53702 Z-2.04181
X18.3195 Y8.55277 Z-2.04573
X18.30486 Y8.56947 Z-2.04964
X18.29131 Y8.58707 Z-2.05356
X18.27891 Y8.60549 Z-2.05748
X18.26769 Y8.62466 Z-2.06139
X18.25772 Y8.6445 Z-2.06531
X18.24902 Y8.66494 Z-2.06923
X18.24164 Y8.68588 Z-2.07314
X18.2356 Y8.70726 Z-2.07706
X18.23093 Y8.72897 Z-2.08097
X18.22765 Y8.75094 Z-2.08489
X18.22576 Y8.77307 Z-2.08881
X18.22529 Y8.79527 Z-2.09272
X18.22622 Y8.81746 Z-2.09664
X18.22856 Y8.83955 Z-2.10055
X18.23229 Y8.86144 Z-2.10447
X18.2374 Y8.88305 Z-2.10839
X18.24388 Y8.9043 Z-2.1123
X18.25169 Y8.92509 Z-2.11622
X18.2608 Y8.94534 Z-2.12014
X18.27118 Y8.96498 Z-2.12405
X18.28278 Y8.98391 Z-2.12797
X18.29556 Y9.00208 Z-2.13188
X18.30947 Y9.0194 Z-2.1358
X18.32445 Y9.03579 Z-2.13971
X18.34044 Y9.05121 Z-2.14363
X18.35737 Y9.06558 Z-2.14755
X18.37518 Y9.07885 Z-2.15146
X18.3938 Y9.09096 Z-2.15538
X18.41314 Y9.10187 Z-2.1593
X18.43314 Y9.11153 Z-2.16321
X18.45371 Y9.1199 Z-2.16713
X18.47477 Y9.12695 Z-2.17104
X18.49624 Y9.13265 Z-2.17496
X18.51802 Y9.13697 Z-2.17888
X18.54004 Y9.13991 Z-2.18279
X18.5622 Y9.14144 Z-2.18671
X18.58441 Y9.14157 Z-2.19063
X18.60658 Y9.14028 Z-2.19454
X18.62862 Y9.13759 Z-2.19846
X18.65046 Y9.13351 Z-2.20237
X18.67198 Y9.12806 Z-2.20629
X18.69312 Y9.12125 Z-2.21021
X18.71379 Y9.11311 Z-2.21412
X18.7339 Y9.10367 Z-2.21804
X18.75336 Y9.09298 Z-2.22195
X18.77211 Y9.08108 Z-2.22587
X18.79007 Y9.06802 Z-2.22979
X18.80717 Y9.05383 Z-2.2337
X18.82333 Y9.0386 Z-2.23762
X18.83849 Y9.02237 Z-2.24153
X18.85259 Y9.00521 Z-2.24545
X18.86557 Y8.98719 Z-2.24937
X18.87739 Y8.96839 Z-2.25328
X18.88799 Y8.94887 Z-2.2572
X18.89733 Y8.92872 Z-2.26112
X18.90537 Y8.90802 Z-2.26503
X18.91208 Y8.88685 Z-2.26895
X18.91744 Y8.86529 Z-2.27286
X18.92142 Y8.84344 Z-2.27678
X18.92401 Y8.82138 Z-2.2807
X18.92519 Y8.79921 Z-2.28461
X18.92496 Y8.777 Z-2.28853
X18.92332 Y8.75485 Z-2.29245
X18.92029 Y8.73285 Z-2.29636
X18.91586 Y8.71108 Z-2.30028
X18.91006 Y8.68964 Z-2.30419
X18.90292 Y8.66862 Z-2.30811
X18.89445 Y8.64808 Z-2.31203
X18.8847 Y8.62813 Z-2.31594
X18.87371 Y8.60883 Z-2.31986
X18.86151 Y8.59027 Z-2.32377
X18.84816 Y8.57252 Z-2.32769
X18.83371 Y8.55566 Z-2.33161
X18.81822 Y8.53974 Z-2.33552
X18.80175 Y8.52484 Z-2.33944
X18.78437 Y8.51101 Z-2.34335
X18.76614 Y8.49832 Z-2.34727
X18.74715 Y8.4868 Z-2.35119
X18.72747 Y8.47651 Z-2.3551
X18.70718 Y8.46749 Z-2.35902
X18.68635 Y8.45978 Z-2.36294
X18.66507 Y8.4534 Z-2.36685
X18.64344 Y8.44839 Z-2.37077
X18.62153 Y8.44476 Z-2.37468
X18.59943 Y8.44252 Z-2.3786
X18.57724 Y8.44169 Z-2.38252
X18.55503 Y8.44227 Z-2.38643
X18.53291 Y8.44426 Z-2.39035
X18.51096 Y8.44764 Z-2.39426
X18.48927 Y8.45241 Z-2.39818
X18.46793 Y8.45855 Z-2.4021
X18.44702 Y8.46603 Z-2.40601
X18.42662 Y8.47482 Z-2.40993
X18.40682 Y8.48489 Z-2.41385
X18.3877 Y8.49619 Z-2.41776
X18.36934 Y8.50868 Z-2.42168
X18.3518 Y8.52231 Z-2.42559
X18.33517 Y8.53702 Z-2.42951
X18.3195 Y8.55277 Z-2.43343
X18.30486 Y8.56947 Z-2.43734
X18.29131 Y8.58707 Z-2.44126
X18.27891 Y8.60549 Z-2.44517
X18.26769 Y8.62466 Z-2.44909
X18.25772 Y8.6445 Z-2.45301
X18.24902 Y8.66494 Z-2.45692
X18.24164 Y8.68588 Z-2.46084
X18.2356 Y8.70726 Z-2.46475
X18.23093 Y8.72897 Z-2.46867
X18.22765 Y8.75094 Z-2.47259
X18.22576 Y8.77307 Z-2.4765
X18.22529 Y8.79527 Z-2.48042
X18.22622 Y8.81746 Z-2.48434
X18.22856 Y8.83955 Z-2.48825
X18.23229 Y8.86144 Z-2.49217
X18.2374 Y8.88305 Z-2.49608
X18.24388 Y8.9043 Z-2.5
G02 X18.90666 Y8.67907 I0.33139 J-0.11262 F192.
X18.24388 Y8.9043 I-0.33139 J0.11261
G03 X18.00717 Y8.98473 I-0.11835 J0.04022
X19.14336 Y8.59864 I0.5681 J-0.19305
X18.00717 Y8.98473 I-0.56809 J0.19304
G0 Z1.
X18.92501 Y8.78171
G1 Z-2.4 F48.
X18.92496 Y8.777 Z-2.40083 F144.
X18.92332 Y8.75485 Z-2.40475
X18.92029 Y8.73285 Z-2.40866
X18.91586 Y8.71108 Z-2.41258
X18.91006 Y8.68964 Z-2.41649
X18.90292 Y8.66862 Z-2.42041
X18.89445 Y8.64808 Z-2.42433
X18.8847 Y8.62813 Z-2.42824
X18.87371 Y8.60883 Z-2.43216
X18.86151 Y8.59027 Z-2.43608
X18.84816 Y8.57252 Z-2.43999
X18.83371 Y8.55566 Z-2.44391
X18.81822 Y8.53974 Z-2.44783
X18.80175 Y8.52484 Z-2.45174
X18.78437 Y8.51101 Z-2.45566
X18.76614 Y8.49832 Z-2.45957
X18.74715 Y8.4868 Z-2.46349
X18.72747 Y8.47651 Z-2.4674
X18.70718 Y8.46749 Z-2.47132
X18.68635 Y8.45978 Z-2.47524
X18.66507 Y8.4534 Z-2.47915
X18.64344 Y8.44839 Z-2.48307
X18.62153 Y8.44476 Z-2.48699
X18.59943 Y8.44252 Z-2.4909
X18.57724 Y8.44169 Z-2.49482
X18.55503 Y8.44227 Z-2.49873
X18.53291 Y8.44426 Z-2.50265
X18.51096 Y8.44764 Z-2.50657
X18.48927 Y8.45241 Z-2.51048
X18.46793 Y8.45855 Z-2.5144
X18.44702 Y8.46603 Z-2.51831
X18.42662 Y8.47482 Z-2.52223
X18.40682 Y8.48489 Z-2.52615
X18.3877 Y8.49619 Z-2.53006
X18.36934 Y8.50868 Z-2.53398
X18.3518 Y8.52231 Z-2.5379
X18.33517 Y8.53702 Z-2.54181
X18.3195 Y8.55277 Z-2.54573
X18.30486 Y8.56947 Z-2.54964
X18.29131 Y8.58707 Z-2.55356
X18.27891 Y8.60549 Z-2.55748
X18.26769 Y8.62466 Z-2.56139
X18.25772 Y8.6445 Z-2.56531
X18.24902 Y8.66494 Z-2.56922
X18.24164 Y8.68588 Z-2.57314
X18.2356 Y8.70726 Z-2.57706
X18.23093 Y8.72897 Z-2.58097
X18.22765 Y8.75094 Z-2.58489
X18.22576 Y8.77307 Z-2.58881
X18.22529 Y8.79527 Z-2.59272
X18.22622 Y8.81746 Z-2.59664
X18.22856 Y8.83955 Z-2.60055
X18.23229 Y8.86144 Z-2.60447
X18.2374 Y8.88305 Z-2.60839
X18.24388 Y8.9043 Z-2.6123
X18.25169 Y8.92509 Z-2.61622
X18.2608 Y8.94534 Z-2.62014
X18.27118 Y8.96498 Z-2.62405
X18.28278 Y8.98391 Z-2.62797
X18.29556 Y9.00208 Z-2.63188
X18.30947 Y9.0194 Z-2.6358
X18.32445 Y9.03579 Z-2.63972
X18.34044 Y9.05121 Z-2.64363
X18.35737 Y9.06558 Z-2.64755
X18.37518 Y9.07885 Z-2.65146
X18.3938 Y9.09096 Z-2.65538
X18.41314 Y9.10187 Z-2.6593
X18.43314 Y9.11153 Z-2.66321
X18.45371 Y9.1199 Z-2.66713
X18.47477 Y9.12695 Z-2.67104
X18.49624 Y9.13265 Z-2.67496
X18.51802 Y9.13697 Z-2.67888
X18.54004 Y9.13991 Z-2.68279
X18.5622 Y9.14144 Z-2.68671
X18.58441 Y9.14157 Z-2.69063
X18.60658 Y9.14028 Z-2.69454
X18.62862 Y9.13759 Z-2.69846
X18.65046 Y9.13351 Z-2.70237
X18.67198 Y9.12806 Z-2.70629
X18.69312 Y9.12125 Z-2.71021
X18.71379 Y9.11311 Z-2.71412
X18.7339 Y9.10367 Z-2.71804
X18.75336 Y9.09298 Z-2.72195
X18.77211 Y9.08108 Z-2.72587
X18.79007 Y9.06802 Z-2.72979
X18.80717 Y9.05383 Z-2.7337
X18.82333 Y9.0386 Z-2.73762
X18.83849 Y9.02237 Z-2.74153
X18.85259 Y9.00521 Z-2.74545
X18.86557 Y8.98719 Z-2.74937
X18.87739 Y8.96839 Z-2.75328
X18.88799 Y8.94887 Z-2.7572
X18.89733 Y8.92872 Z-2.76112
X18.90537 Y8.90802 Z-2.76503
X18.91208 Y8.88685 Z-2.76895
X18.91744 Y8.86529 Z-2.77286
X18.92142 Y8.84344 Z-2.77678
X18.92401 Y8.82138 Z-2.7807
X18.92519 Y8.79921 Z-2.78461
X18.92496 Y8.777 Z-2.78853
X18.92332 Y8.75485 Z-2.79245
X18.92029 Y8.73285 Z-2.79636
X18.91586 Y8.71108 Z-2.80028
X18.91006 Y8.68964 Z-2.80419
X18.90292 Y8.66862 Z-2.80811
X18.89445 Y8.64808 Z-2.81203
X18.8847 Y8.62813 Z-2.81594
X18.87371 Y8.60883 Z-2.81986
X18.86151 Y8.59027 Z-2.82377
X18.84816 Y8.57252 Z-2.82769
X18.83371 Y8.55566 Z-2.83161
X18.81822 Y8.53974 Z-2.83552
X18.80175 Y8.52484 Z-2.83944
X18.78437 Y8.51101 Z-2.84335
X18.76614 Y8.49832 Z-2.84727
X18.74715 Y8.4868 Z-2.85119
X18.72747 Y8.47651 Z-2.8551
X18.70718 Y8.46749 Z-2.85902
X18.68635 Y8.45978 Z-2.86294
X18.66507 Y8.4534 Z-2.86685
X18.64344 Y8.44839 Z-2.87077
X18.62153 Y8.44476 Z-2.87468
X18.59943 Y8.44252 Z-2.8786
X18.57724 Y8.44169 Z-2.88252
X18.55503 Y8.44227 Z-2.88643
X18.53291 Y8.44426 Z-2.89035
X18.51096 Y8.44764 Z-2.89426
X18.48927 Y8.45241 Z-2.89818
X18.46793 Y8.45855 Z-2.9021
X18.44702 Y8.46603 Z-2.90601
X18.42662 Y8.47482 Z-2.90993
X18.40682 Y8.48489 Z-2.91385
X18.3877 Y8.49619 Z-2.91776
X18.36934 Y8.50868 Z-2.92168
X18.3518 Y8.52231 Z-2.92559
X18.33517 Y8.53702 Z-2.92951
X18.3195 Y8.55277 Z-2.93343
X18.30486 Y8.56947 Z-2.93734
X18.29131 Y8.58707 Z-2.94126
X18.27891 Y8.60549 Z-2.94517
X18.26769 Y8.62466 Z-2.94909
X18.25772 Y8.6445 Z-2.95301
X18.24902 Y8.66494 Z-2.95692
X18.24164 Y8.68588 Z-2.96084
X18.2356 Y8.70726 Z-2.96476
X18.23093 Y8.72897 Z-2.96867
X18.22765 Y8.75094 Z-2.97259
X18.22576 Y8.77307 Z-2.9765
X18.22529 Y8.79527 Z-2.98042
X18.22622 Y8.81746 Z-2.98434
X18.22856 Y8.83955 Z-2.98825
X18.23229 Y8.86144 Z-2.99217
X18.2374 Y8.88305 Z-2.99608
X18.24388 Y8.9043 Z-3.
G02 X18.90666 Y8.67907 I0.33139 J-0.11262 F192.
X18.24388 Y8.9043 I-0.33139 J0.11261
G03 X18.00717 Y8.98473 I-0.11835 J0.04022
X19.14336 Y8.59864 I0.5681 J-0.19305
X18.00717 Y8.98473 I-0.56809 J0.19304
G0 Z1.
X18.92501 Y8.78171
G1 Z-2.9 F48.
X18.92496 Y8.777 Z-2.90083 F144.
X18.92332 Y8.75485 Z-2.90475
X18.92029 Y8.73285 Z-2.90866
X18.91586 Y8.71108 Z-2.91258
X18.91006 Y8.68964 Z-2.9165
X18.90292 Y8.66862 Z-2.92041
X18.89445 Y8.64808 Z-2.92433
X18.8847 Y8.62813 Z-2.92824
X18.87371 Y8.60883 Z-2.93216
X18.86151 Y8.59027 Z-2.93608
X18.84816 Y8.57252 Z-2.93999
X18.83371 Y8.55566 Z-2.94391
X18.81822 Y8.53974 Z-2.94783
X18.80175 Y8.52484 Z-2.95174
X18.78437 Y8.51101 Z-2.95566
X18.76614 Y8.49832 Z-2.95957
X18.74715 Y8.4868 Z-2.96349
X18.72747 Y8.47651 Z-2.9674
X18.70718 Y8.46749 Z-2.97132
X18.68635 Y8.45978 Z-2.97524
X18.66507 Y8.4534 Z-2.97915
X18.64344 Y8.44839 Z-2.98307
X18.62153 Y8.44476 Z-2.98699
X18.59943 Y8.44252 Z-2.9909
X18.57724 Y8.44169 Z-2.99482
X18.55503 Y8.44227 Z-2.99873
X18.53291 Y8.44426 Z-3.00265
X18.51096 Y8.44764 Z-3.00657
X18.48927 Y8.45241 Z-3.01048
X18.46793 Y8.45855 Z-3.0144
X18.44702 Y8.46603 Z-3.01832
X18.42662 Y8.47482 Z-3.02223
X18.40682 Y8.48489 Z-3.02615
X18.3877 Y8.49619 Z-3.03006
X18.36934 Y8.50868 Z-3.03398
X18.3518 Y8.52231 Z-3.0379
X18.33517 Y8.53702 Z-3.04181
X18.3195 Y8.55277 Z-3.04573
X18.30486 Y8.56947 Z-3.04964
X18.29131 Y8.58707 Z-3.05356
X18.27891 Y8.60549 Z-3.05748
X18.26769 Y8.62466 Z-3.06139
X18.25772 Y8.6445 Z-3.06531
X18.24902 Y8.66494 Z-3.06922
X18.24164 Y8.68588 Z-3.07314
X18.2356 Y8.70726 Z-3.07706
X18.23093 Y8.72897 Z-3.08097
X18.22765 Y8.75094 Z-3.08489
X18.22576 Y8.77307 Z-3.08881
X18.22529 Y8.79527 Z-3.09272
X18.22622 Y8.81746 Z-3.09664
X18.22856 Y8.83955 Z-3.10055
X18.23229 Y8.86144 Z-3.10447
X18.2374 Y8.88305 Z-3.10839
X18.24388 Y8.9043 Z-3.1123
X18.25169 Y8.92509 Z-3.11622
X18.2608 Y8.94534 Z-3.12014
X18.27118 Y8.96498 Z-3.12405
X18.28278 Y8.98391 Z-3.12797
X18.29556 Y9.00208 Z-3.13188
X18.30947 Y9.0194 Z-3.1358
X18.32445 Y9.03579 Z-3.13972
X18.34044 Y9.05121 Z-3.14363
X18.35737 Y9.06558 Z-3.14755
X18.37518 Y9.07885 Z-3.15146
X18.3938 Y9.09096 Z-3.15538
X18.41314 Y9.10187 Z-3.1593
X18.43314 Y9.11153 Z-3.16321
X18.45371 Y9.1199 Z-3.16713
X18.47477 Y9.12695 Z-3.17104
X18.49624 Y9.13265 Z-3.17496
X18.51802 Y9.13697 Z-3.17888
X18.54004 Y9.13991 Z-3.18279
X18.5622 Y9.14144 Z-3.18671
X18.58441 Y9.14157 Z-3.19063
X18.60658 Y9.14028 Z-3.19454
X18.62862 Y9.13759 Z-3.19846
X18.65046 Y9.13351 Z-3.20237
X18.67198 Y9.12806 Z-3.20629
X18.69312 Y9.12125 Z-3.21021
X18.71379 Y9.11311 Z-3.21412
X18.7339 Y9.10367 Z-3.21804
X18.75336 Y9.09298 Z-3.22195
X18.77211 Y9.08108 Z-3.22587
X18.79007 Y9.06802 Z-3.22979
X18.80717 Y9.05383 Z-3.2337
X18.82333 Y9.0386 Z-3.23762
X18.83849 Y9.02237 Z-3.24153
X18.85259 Y9.00521 Z-3.24545
X18.86557 Y8.98719 Z-3.24937
X18.87739 Y8.96839 Z-3.25328
X18.88799 Y8.94887 Z-3.2572
X18.89733 Y8.92872 Z-3.26112
X18.90537 Y8.90802 Z-3.26503
X18.91208 Y8.88685 Z-3.26895
X18.91744 Y8.86529 Z-3.27286
X18.92142 Y8.84344 Z-3.27678
X18.92401 Y8.82138 Z-3.2807
X18.92519 Y8.79921 Z-3.28461
X18.92496 Y8.777 Z-3.28853
X18.92332 Y8.75485 Z-3.29245
X18.92029 Y8.73285 Z-3.29636
X18.91586 Y8.71108 Z-3.30028
X18.91006 Y8.68964 Z-3.30419
X18.90292 Y8.66862 Z-3.30811
X18.89445 Y8.64808 Z-3.31203
X18.8847 Y8.62813 Z-3.31594
X18.87371 Y8.60883 Z-3.31986
X18.86151 Y8.59027 Z-3.32377
X18.84816 Y8.57252 Z-3.32769
X18.83371 Y8.55566 Z-3.33161
X18.81822 Y8.53974 Z-3.33552
X18.80175 Y8.52484 Z-3.33944
X18.78437 Y8.51101 Z-3.34335
X18.76614 Y8.49832 Z-3.34727
X18.74715 Y8.4868 Z-3.35119
X18.72747 Y8.47651 Z-3.3551
X18.70718 Y8.46749 Z-3.35902
X18.68635 Y8.45978 Z-3.36293
X18.66507 Y8.4534 Z-3.36685
X18.64344 Y8.44839 Z-3.37077
X18.62153 Y8.44476 Z-3.37468
X18.59943 Y8.44252 Z-3.3786
X18.57724 Y8.44169 Z-3.38252
X18.55503 Y8.44227 Z-3.38643
X18.53291 Y8.44426 Z-3.39035
X18.51096 Y8.44764 Z-3.39426
X18.48927 Y8.45241 Z-3.39818
X18.46793 Y8.45855 Z-3.4021
X18.44702 Y8.46603 Z-3.40601
X18.42662 Y8.47482 Z-3.40993
X18.40682 Y8.48489 Z-3.41385
X18.3877 Y8.49619 Z-3.41776
X18.36934 Y8.50868 Z-3.42168
X18.3518 Y8.52231 Z-3.42559
X18.33517 Y8.53702 Z-3.42951
X18.3195 Y8.55277 Z-3.43343
X18.30486 Y8.56947 Z-3.43734
X18.29131 Y8.58707 Z-3.44126
X18.27891 Y8.60549 Z-3.44517
X18.26769 Y8.62466 Z-3.44909
X18.25772 Y8.6445 Z-3.45301
X18.24902 Y8.66494 Z-3.45692
X18.24164 Y8.68588 Z-3.46084
X18.2356 Y8.70726 Z-3.46475
X18.23093 Y8.72897 Z-3.46867
X18.22765 Y8.75094 Z-3.47259
X18.22576 Y8.77307 Z-3.4765
X18.22529 Y8.79527 Z-3.48042
X18.22622 Y8.81746 Z-3.48434
X18.22856 Y8.83955 Z-3.48825
X18.23229 Y8.86144 Z-3.49217
X18.2374 Y8.88305 Z-3.49608
X18.24388 Y8.9043 Z-3.5
G02 X18.90666 Y8.67907 I0.33139 J-0.11262 F192.
X18.24388 Y8.9043 I-0.33139 J0.11261
G03 X18.00717 Y8.98473 I-0.11835 J0.04022
X19.14336 Y8.59864 I0.5681 J-0.19305
X18.00717 Y8.98473 I-0.56809 J0.19304
G0 Z1.
X26.89076 Y12.03391
G1 Z0.1 F48.
X26.9041 Y12.02988 Z0.09754 F144.
X26.91816 Y12.02468 Z0.0949
X26.9319 Y12.01866 Z0.09225
X26.94524 Y12.01182 Z0.08961
X26.95816 Y12.00419 Z0.08697
X26.97059 Y11.9958 Z0.08432
X26.98249 Y11.98668 Z0.08168
X26.99383 Y11.97686 Z0.07903
X27.00456 Y11.96638 Z0.07639
X27.01464 Y11.95528 Z0.07374
X27.02404 Y11.94359 Z0.0711
X27.03271 Y11.93136 Z0.06845
X27.04064 Y11.91863 Z0.06581
X27.04077 Y11.91841 Z0.06577
X27.04179 Y11.91666 Z0.06541
X27.04192 Y11.91644 Z0.06536
X27.04407 Y11.91267 Z0.0646
X27.04616 Y11.90886 Z0.06383
X27.04817 Y11.90501 Z0.06307
X27.05011 Y11.90112 Z0.0623
X27.05198 Y11.89719 Z0.06153
X27.05377 Y11.89324 Z0.06077
X27.05548 Y11.88924 Z0.06
X27.05712 Y11.88522 Z0.05923
X27.05868 Y11.88116 Z0.05847
X27.06016 Y11.87708 Z0.0577
X27.06157 Y11.87297 Z0.05694
X27.0629 Y11.86883 Z0.05617
X27.06415 Y11.86467 Z0.0554
X27.06532 Y11.86048 Z0.05464
X27.06641 Y11.85628 Z0.05387
X27.06647 Y11.85603 Z0.05383
X27.06671 Y11.85505 Z0.05365
X27.06696 Y11.85407 Z0.05347
X27.06702 Y11.85382 Z0.05342
X27.07024 Y11.83917 Z0.05078
X27.07257 Y11.82436 Z0.04814
X27.074 Y11.80943 Z0.04549
X27.07454 Y11.79444 Z0.04285
X27.07418 Y11.77945 Z0.0402
X27.07293 Y11.7645 Z0.03756
X27.07077 Y11.74966 Z0.03491
X27.06773 Y11.73498 Z0.03227
X27.06382 Y11.7205 Z0.02963
X27.05904 Y11.70628 Z0.02698
X27.05342 Y11.69238 Z0.02434
X27.04698 Y11.67884 Z0.02169
X27.03973 Y11.66571 Z0.01905
X27.03171 Y11.65303 Z0.0164
X27.02295 Y11.64087 Z0.01376
X27.01347 Y11.62925 Z0.01111
X27.00331 Y11.61821 Z0.00847
X26.9925 Y11.60781 Z0.00583
X26.9811 Y11.59808 Z0.00318
X26.96913 Y11.58904 Z0.00054
X26.95663 Y11.58074 Z-0.00211
X26.94367 Y11.57321 Z-0.00475
X26.93027 Y11.56647 Z-0.0074
X26.9165 Y11.56054 Z-0.01004
X26.90239 Y11.55545 Z-0.01269
X26.888 Y11.55121 Z-0.01533
X26.87339 Y11.54785 Z-0.01797
X26.8586 Y11.54537 Z-0.02062
X26.84369 Y11.54378 Z-0.02326
X26.82871 Y11.54308 Z-0.02591
X26.81371 Y11.54329 Z-0.02855
X26.79875 Y11.54439 Z-0.0312
X26.78389 Y11.5464 Z-0.03384
X26.76917 Y11.54929 Z-0.03648
X26.75466 Y11.55305 Z-0.03913
X26.74039 Y11.55768 Z-0.04177
X26.72643 Y11.56316 Z-0.04442
X26.71283 Y11.56947 Z-0.04706
X26.69962 Y11.57658 Z-0.04971
X26.68687 Y11.58447 Z-0.05235
X26.67461 Y11.59311 Z-0.055
X26.66289 Y11.60247 Z-0.05764
X26.65176 Y11.61252 Z-0.06028
X26.64125 Y11.62321 Z-0.06293
X26.6314 Y11.63452 Z-0.06557
X26.62224 Y11.6464 Z-0.06822
X26.61381 Y11.6588 Z-0.07086
X26.60615 Y11.67169 Z-0.07351
X26.59927 Y11.68502 Z-0.07615
X26.5932 Y11.69873 Z-0.07879
X26.58796 Y11.71279 Z-0.08144
X26.58358 Y11.72713 Z-0.08408
X26.58007 Y11.74171 Z-0.08673
X26.57744 Y11.75647 Z-0.08937
X26.57569 Y11.77137 Z-0.09202
X26.57485 Y11.78634 Z-0.09466
X26.5749 Y11.80134 Z-0.09731
X26.57586 Y11.81631 Z-0.09995
X26.57771 Y11.83119 Z-0.10259
X26.58044 Y11.84593 Z-0.10524
X26.58406 Y11.86049 Z-0.10788
X26.58855 Y11.8748 Z-0.11053
X26.59388 Y11.88881 Z-0.11317
X26.60005 Y11.90249 Z-0.11582
X26.60702 Y11.91576 Z-0.11846
X26.61478 Y11.92859 Z-0.1211
X26.6233 Y11.94094 Z-0.12375
X26.63254 Y11.95275 Z-0.12639
X26.64247 Y11.96399 Z-0.12904
X26.65306 Y11.97461 Z-0.13168
X26.66427 Y11.98458 Z-0.13433
X26.67605 Y11.99385 Z-0.13697
X26.68837 Y12.0024 Z-0.13962
X26.70118 Y12.0102 Z-0.14226
X26.71444 Y12.01722 Z-0.1449
X26.72809 Y12.02343 Z-0.14755
X26.74209 Y12.0288 Z-0.15019
X26.75638 Y12.03333 Z-0.15284
X26.77093 Y12.03699 Z-0.15548
X26.78566 Y12.03978 Z-0.15813
X26.80054 Y12.04167 Z-0.16077
X26.81551 Y12.04267 Z-0.16341
X26.8305 Y12.04277 Z-0.16606
X26.84548 Y12.04197 Z-0.1687
X26.86038 Y12.04027 Z-0.17135
X26.87515 Y12.03768 Z-0.17399
X26.88974 Y12.03421 Z-0.17664
X26.9041 Y12.02988 Z-0.17928
X26.91816 Y12.02468 Z-0.18192
X26.9319 Y12.01866 Z-0.18457
X26.94524 Y12.01182 Z-0.18721
X26.95816 Y12.00419 Z-0.18986
X26.97059 Y11.9958 Z-0.1925
X26.98249 Y11.98668 Z-0.19515
X26.99383 Y11.97686 Z-0.19779
X27.00456 Y11.96638 Z-0.20044
X27.01464 Y11.95528 Z-0.20308
X27.02404 Y11.94359 Z-0.20572
X27.03271 Y11.93136 Z-0.20837
X27.04064 Y11.91863 Z-0.21101
X27.04077 Y11.91841 Z-0.21106
X27.04179 Y11.91666 Z-0.21142
X27.04192 Y11.91644 Z-0.21146
X27.04407 Y11.91267 Z-0.21223
X27.04616 Y11.90886 Z-0.21299
X27.04817 Y11.90501 Z-0.21376
X27.05011 Y11.90112 Z-0.21453
X27.05198 Y11.89719 Z-0.21529
X27.05377 Y11.89324 Z-0.21606
X27.05548 Y11.88924 Z-0.21682
X27.05712 Y11.88522 Z-0.21759
X27.05868 Y11.88116 Z-0.21836
X27.06016 Y11.87708 Z-0.21912
X27.06157 Y11.87297 Z-0.21989
X27.0629 Y11.86883 Z-0.22065
X27.06415 Y11.86467 Z-0.22142
X27.06532 Y11.86048 Z-0.22219
X27.06641 Y11.85628 Z-0.22295
X27.06647 Y11.85603 Z-0.223
X27.06671 Y11.85505 Z-0.22318
X27.06696 Y11.85407 Z-0.22335
X27.06702 Y11.85382 Z-0.2234
X27.07024 Y11.83917 Z-0.22604
X27.07257 Y11.82436 Z-0.22869
X27.074 Y11.80943 Z-0.23133
X27.07454 Y11.79444 Z-0.23398
X27.07418 Y11.77945 Z-0.23662
X27.07293 Y11.7645 Z-0.23927
X27.07077 Y11.74966 Z-0.24191
X27.06773 Y11.73498 Z-0.24455
X27.06382 Y11.7205 Z-0.2472
X27.05904 Y11.70628 Z-0.24984
X27.05342 Y11.69238 Z-0.25249
X27.04698 Y11.67884 Z-0.25513
X27.03973 Y11.66571 Z-0.25778
X27.03171 Y11.65303 Z-0.26042
X27.02295 Y11.64087 Z-0.26307
X27.01347 Y11.62925 Z-0.26571
X27.00331 Y11.61821 Z-0.26835
X26.9925 Y11.60781 Z-0.271
X26.9811 Y11.59808 Z-0.27364
X26.96913 Y11.58904 Z-0.27629
X26.95663 Y11.58074 Z-0.27893
X26.94367 Y11.57321 Z-0.28158
X26.93027 Y11.56647 Z-0.28422
X26.9165 Y11.56054 Z-0.28686
X26.90239 Y11.55545 Z-0.28951
X26.888 Y11.55121 Z-0.29215
X26.87339 Y11.54785 Z-0.2948
X26.8586 Y11.54537 Z-0.29744
X26.84369 Y11.54378 Z-0.30009
X26.82871 Y11.54308 Z-0.30273
X26.81371 Y11.54329 Z-0.30538
X26.79875 Y11.54439 Z-0.30802
X26.78389 Y11.5464 Z-0.31066
X26.76917 Y11.54929 Z-0.31331
X26.75466 Y11.55305 Z-0.31595
X26.74039 Y11.55768 Z-0.3186
X26.72643 Y11.56316 Z-0.32124
X26.71283 Y11.56947 Z-0.32389
X26.69962 Y11.57658 Z-0.32653
X26.68687 Y11.58447 Z-0.32917
X26.67461 Y11.59311 Z-0.33182
X26.66289 Y11.60247 Z-0.33446
X26.65176 Y11.61252 Z-0.33711
X26.64125 Y11.62321 Z-0.33975
X26.6314 Y11.63452 Z-0.3424
X26.62224 Y11.6464 Z-0.34504
X26.61381 Y11.6588 Z-0.34769
X26.60615 Y11.67169 Z-0.35033
X26.59927 Y11.68502 Z-0.35297
X26.5932 Y11.69873 Z-0.35562
X26.58796 Y11.71279 Z-0.35826
X26.58358 Y11.72713 Z-0.36091
X26.58007 Y11.74171 Z-0.36355
X26.57744 Y11.75647 Z-0.3662
X26.57569 Y11.77137 Z-0.36884
X26.57485 Y11.78634 Z-0.37149
X26.5749 Y11.80134 Z-0.37413
X26.57586 Y11.81631 Z-0.37677
X26.57771 Y11.83119 Z-0.37942
X26.58044 Y11.84593 Z-0.38206
X26.58406 Y11.86049 Z-0.38471
X26.58855 Y11.8748 Z-0.38735
X26.59388 Y11.88881 Z-0.39
X26.60005 Y11.90249 Z-0.39264
X26.60702 Y11.91576 Z-0.39528
X26.61478 Y11.92859 Z-0.39793
X26.6233 Y11.94094 Z-0.40057
X26.63254 Y11.95275 Z-0.40322
X26.64247 Y11.96399 Z-0.40586
X26.65306 Y11.97461 Z-0.40851
X26.66427 Y11.98458 Z-0.41115
X26.67605 Y11.99385 Z-0.4138
X26.68837 Y12.0024 Z-0.41644
X26.70118 Y12.0102 Z-0.41908
X26.71444 Y12.01722 Z-0.42173
X26.72809 Y12.02343 Z-0.42437
X26.74209 Y12.0288 Z-0.42702
X26.75638 Y12.03333 Z-0.42966
X26.77093 Y12.03699 Z-0.43231
X26.78566 Y12.03978 Z-0.43495
X26.80054 Y12.04167 Z-0.43759
X26.81551 Y12.04267 Z-0.44024
X26.8305 Y12.04277 Z-0.44288
X26.84548 Y12.04197 Z-0.44553
X26.86038 Y12.04027 Z-0.44817
X26.87515 Y12.03768 Z-0.45082
X26.88974 Y12.03421 Z-0.45346
X26.9041 Y12.02988 Z-0.45611
X26.91816 Y12.02468 Z-0.45875
X26.9319 Y12.01866 Z-0.46139
X26.94524 Y12.01182 Z-0.46404
X26.95816 Y12.00419 Z-0.46668
X26.97059 Y11.9958 Z-0.46933
X26.98249 Y11.98668 Z-0.47197
X26.99383 Y11.97686 Z-0.47462
X27.00456 Y11.96638 Z-0.47726
X27.01464 Y11.95528 Z-0.4799
X27.02404 Y11.94359 Z-0.48255
X27.03271 Y11.93136 Z-0.48519
X27.04064 Y11.91863 Z-0.48784
X27.04077 Y11.91841 Z-0.48788
X27.04179 Y11.91666 Z-0.48824
X27.04192 Y11.91644 Z-0.48828
X27.04407 Y11.91267 Z-0.48905
X27.04616 Y11.90886 Z-0.48982
X27.04817 Y11.90501 Z-0.49058
X27.05011 Y11.90112 Z-0.49135
X27.05198 Y11.89719 Z-0.49212
X27.05377 Y11.89324 Z-0.49288
X27.05548 Y11.88924 Z-0.49365
X27.05712 Y11.88522 Z-0.49441
X27.05868 Y11.88116 Z-0.49518
X27.06016 Y11.87708 Z-0.49595
X27.06157 Y11.87297 Z-0.49671
X27.0629 Y11.86883 Z-0.49748
X27.06415 Y11.86467 Z-0.49824
X27.06532 Y11.86048 Z-0.49901
X27.06641 Y11.85628 Z-0.49978
X27.06647 Y11.85603 Z-0.49982
X27.06671 Y11.85505 Z-0.5
X27.06696 Y11.85407 F192.
X27.06702 Y11.85382
G02 X27.04064 Y11.91863 I-0.24236 J-0.06088
G1 X27.04077 Y11.91841
X27.04179 Y11.91666
X27.04192 Y11.91644
G02 X27.06641 Y11.85628 I-0.19746 J-0.11543
G1 X27.06647 Y11.85603
X27.06671 Y11.85505
X27.30924 Y11.9157
X27.309 Y11.91669
G03 X27.25774 Y12.04262 I-0.46454 J-0.11568
G1 X27.25672 Y12.04437
G03 X27.30949 Y11.91472 I-0.43206 J-0.25143
G1 X27.30924 Y11.9157
G0 Z1.
X26.89076 Y12.03391
G1 Z-0.4 F48.
X26.9041 Y12.02988 Z-0.40246 F144.
X26.91816 Y12.02468 Z-0.4051
X26.9319 Y12.01866 Z-0.40775
X26.94524 Y12.01182 Z-0.41039
X26.95816 Y12.00419 Z-0.41303
X26.97059 Y11.9958 Z-0.41568
X26.98249 Y11.98668 Z-0.41832
X26.99383 Y11.97686 Z-0.42097
X27.00456 Y11.96638 Z-0.42361
X27.01464 Y11.95528 Z-0.42626
X27.02404 Y11.94359 Z-0.4289
X27.03271 Y11.93136 Z-0.43155
X27.04064 Y11.91863 Z-0.43419
X27.04077 Y11.91841 Z-0.43423
X27.04179 Y11.91666 Z-0.43459
X27.04192 Y11.91644 Z-0.43464
X27.04407 Y11.91267 Z-0.4354
X27.04616 Y11.90886 Z-0.43617
X27.04817 Y11.90501 Z-0.43693
X27.05011 Y11.90112 Z-0.4377
X27.05198 Y11.89719 Z-0.43847
X27.05377 Y11.89324 Z-0.43923
X27.05548 Y11.88924 Z-0.44
X27.05712 Y11.88522 Z-0.44077
X27.05868 Y11.88116 Z-0.44153
X27.06016 Y11.87708 Z-0.4423
X27.06157 Y11.87297 Z-0.44306
X27.0629 Y11.86883 Z-0.44383
X27.06415 Y11.86467 Z-0.4446
X27.06532 Y11.86048 Z-0.44536
X27.06641 Y11.85628 Z-0.44613
X27.06647 Y11.85603 Z-0.44617
X27.06671 Y11.85505 Z-0.44635
X27.06696 Y11.85407 Z-0.44653
X27.06702 Y11.85382 Z-0.44658
X27.07024 Y11.83917 Z-0.44922
X27.07257 Y11.82436 Z-0.45186
X27.074 Y11.80943 Z-0.45451
X27.07454 Y11.79444 Z-0.45715
X27.07418 Y11.77945 Z-0.4598
X27.07293 Y11.7645 Z-0.46244
X27.07077 Y11.74966 Z-0.46509
X27.06773 Y11.73498 Z-0.46773
X27.06382 Y11.7205 Z-0.47037
X27.05904 Y11.70628 Z-0.47302
X27.05342 Y11.69238 Z-0.47566
X27.04698 Y11.67884 Z-0.47831
X27.03973 Y11.66571 Z-0.48095
X27.03171 Y11.65303 Z-0.4836
X27.02295 Y11.64087 Z-0.48624
X27.01347 Y11.62925 Z-0.48888
X27.00331 Y11.61821 Z-0.49153
X26.9925 Y11.60781 Z-0.49417
X26.9811 Y11.59808 Z-0.49682
X26.96913 Y11.58904 Z-0.49946
X26.95663 Y11.58074 Z-0.50211
X26.94367 Y11.57321 Z-0.50475
X26.93027 Y11.56647 Z-0.5074
X26.9165 Y11.56054 Z-0.51004
X26.90239 Y11.55545 Z-0.51268
X26.888 Y11.55121 Z-0.51533
X26.87339 Y11.54785 Z-0.51797
X26.8586 Y11.54537 Z-0.52062
X26.84369 Y11.54378 Z-0.52326
X26.82871 Y11.54308 Z-0.52591
X26.81371 Y11.54329 Z-0.52855
X26.79875 Y11.54439 Z-0.53119
X26.78389 Y11.5464 Z-0.53384
X26.76917 Y11.54929 Z-0.53648
X26.75466 Y11.55305 Z-0.53913
X26.74039 Y11.55768 Z-0.54177
X26.72643 Y11.56316 Z-0.54442
X26.71283 Y11.56947 Z-0.54706
X26.69962 Y11.57658 Z-0.54971
X26.68687 Y11.58447 Z-0.55235
X26.67461 Y11.59311 Z-0.555
X26.66289 Y11.60247 Z-0.55764
X26.65176 Y11.61252 Z-0.56028
X26.64125 Y11.62321 Z-0.56293
X26.6314 Y11.63452 Z-0.56557
X26.62224 Y11.6464 Z-0.56822
X26.61381 Y11.6588 Z-0.57086
X26.60615 Y11.67169 Z-0.57351
X26.59927 Y11.68502 Z-0.57615
X26.5932 Y11.69873 Z-0.57879
X26.58796 Y11.71279 Z-0.58144
X26.58358 Y11.72713 Z-0.58408
X26.58007 Y11.74171 Z-0.58673
X26.57744 Y11.75647 Z-0.58937
X26.57569 Y11.77137 Z-0.59202
X26.57485 Y11.78634 Z-0.59466
X26.5749 Y11.80134 Z-0.5973
X26.57586 Y11.81631 Z-0.59995
X26.57771 Y11.83119 Z-0.60259
X26.58044 Y11.84593 Z-0.60524
X26.58406 Y11.86049 Z-0.60788
X26.58855 Y11.8748 Z-0.61053
X26.59388 Y11.88881 Z-0.61317
X26.60005 Y11.90249 Z-0.61582
X26.60702 Y11.91576 Z-0.61846
X26.61478 Y11.92859 Z-0.6211
X26.6233 Y11.94094 Z-0.62375
X26.63254 Y11.95275 Z-0.62639
X26.64247 Y11.96399 Z-0.62904
X26.65306 Y11.97461 Z-0.63168
X26.66427 Y11.98458 Z-0.63433
X26.67605 Y11.99385 Z-0.63697
X26.68837 Y12.0024 Z-0.63962
X26.70118 Y12.0102 Z-0.64226
X26.71444 Y12.01722 Z-0.6449
X26.72809 Y12.02343 Z-0.64755
X26.74209 Y12.0288 Z-0.65019
X26.75638 Y12.03333 Z-0.65284
X26.77093 Y12.03699 Z-0.65548
X26.78566 Y12.03978 Z-0.65813
X26.80054 Y12.04167 Z-0.66077
X26.81551 Y12.04267 Z-0.66342
X26.8305 Y12.04277 Z-0.66606
X26.84548 Y12.04197 Z-0.6687
X26.86038 Y12.04027 Z-0.67135
X26.87515 Y12.03768 Z-0.67399
X26.88974 Y12.03421 Z-0.67664
X26.9041 Y12.02988 Z-0.67928
X26.91816 Y12.02468 Z-0.68193
X26.9319 Y12.01866 Z-0.68457
X26.94524 Y12.01182 Z-0.68721
X26.95816 Y12.00419 Z-0.68986
X26.97059 Y11.9958 Z-0.6925
X26.98249 Y11.98668 Z-0.69515
X26.99383 Y11.97686 Z-0.69779
X27.00456 Y11.96638 Z-0.70044
X27.01464 Y11.95528 Z-0.70308
X27.02404 Y11.94359 Z-0.70573
X27.03271 Y11.93136 Z-0.70837
X27.04064 Y11.91863 Z-0.71101
X27.04077 Y11.91841 Z-0.71106
X27.04179 Y11.91666 Z-0.71142
X27.04192 Y11.91644 Z-0.71146
X27.04407 Y11.91267 Z-0.71223
X27.04616 Y11.90886 Z-0.71299
X27.04817 Y11.90501 Z-0.71376
X27.05011 Y11.90112 Z-0.71453
X27.05198 Y11.89719 Z-0.71529
X27.05377 Y11.89324 Z-0.71606
X27.05548 Y11.88924 Z-0.71682
X27.05712 Y11.88522 Z-0.71759
X27.05868 Y11.88116 Z-0.71836
X27.06016 Y11.87708 Z-0.71912
X27.06157 Y11.87297 Z-0.71989
X27.0629 Y11.86883 Z-0.72065
X27.06415 Y11.86467 Z-0.72142
X27.06532 Y11.86048 Z-0.72219
X27.06641 Y11.85628 Z-0.72295
X27.06647 Y11.85603 Z-0.723
X27.06671 Y11.85505 Z-0.72318
X27.06696 Y11.85407 Z-0.72335
X27.06702 Y11.85382 Z-0.7234
X27.07024 Y11.83917 Z-0.72604
X27.07257 Y11.82436 Z-0.72869
X27.074 Y11.80943 Z-0.73133
X27.07454 Y11.79444 Z-0.73398
X27.07418 Y11.77945 Z-0.73662
X27.07293 Y11.7645 Z-0.73927
X27.07077 Y11.74966 Z-0.74191
X27.06773 Y11.73498 Z-0.74455
X27.06382 Y11.7205 Z-0.7472
X27.05904 Y11.70628 Z-0.74984
X27.05342 Y11.69238 Z-0.75249
X27.04698 Y11.67884 Z-0.75513
X27.03973 Y11.66571 Z-0.75778
X27.03171 Y11.65303 Z-0.76042
X27.02295 Y11.64087 Z-0.76307
X27.01347 Y11.62925 Z-0.76571
X27.00331 Y11.61821 Z-0.76835
X26.9925 Y11.60781 Z-0.771
X26.9811 Y11.59808 Z-0.77364
X26.96913 Y11.58904 Z-0.77629
X26.95663 Y11.58074 Z-0.77893
X26.94367 Y11.57321 Z-0.78158
X26.93027 Y11.56647 Z-0.78422
X26.9165 Y11.56054 Z-0.78686
X26.90239 Y11.55545 Z-0.78951
X26.888 Y11.55121 Z-0.79215
X26.87339 Y11.54785 Z-0.7948
X26.8586 Y11.54537 Z-0.79744
X26.84369 Y11.54378 Z-0.80009
X26.82871 Y11.54308 Z-0.80273
X26.81371 Y11.54329 Z-0.80538
X26.79875 Y11.54439 Z-0.80802
X26.78389 Y11.5464 Z-0.81066
X26.76917 Y11.54929 Z-0.81331
X26.75466 Y11.55305 Z-0.81595
X26.74039 Y11.55768 Z-0.8186
X26.72643 Y11.56316 Z-0.82124
X26.71283 Y11.56947 Z-0.82389
X26.69962 Y11.57658 Z-0.82653
X26.68687 Y11.58447 Z-0.82917
X26.67461 Y11.59311 Z-0.83182
X26.66289 Y11.60247 Z-0.83446
X26.65176 Y11.61252 Z-0.83711
X26.64125 Y11.62321 Z-0.83975
X26.6314 Y11.63452 Z-0.8424
X26.62224 Y11.6464 Z-0.84504
X26.61381 Y11.6588 Z-0.84769
X26.60615 Y11.67169 Z-0.85033
X26.59927 Y11.68502 Z-0.85297
X26.5932 Y11.69873 Z-0.85562
X26.58796 Y11.71279 Z-0.85826
X26.58358 Y11.72713 Z-0.86091
X26.58007 Y11.74171 Z-0.86355
X26.57744 Y11.75647 Z-0.8662
X26.57569 Y11.77137 Z-0.86884
X26.57485 Y11.78634 Z-0.87149
X26.5749 Y11.80134 Z-0.87413
X26.57586 Y11.81631 Z-0.87677
X26.57771 Y11.83119 Z-0.87942
X26.58044 Y11.84593 Z-0.88206
X26.58406 Y11.86049 Z-0.88471
X26.58855 Y11.8748 Z-0.88735
X26.59388 Y11.88881 Z-0.89
X26.60005 Y11.90249 Z-0.89264
X26.60702 Y11.91576 Z-0.89528
X26.61478 Y11.92859 Z-0.89793
X26.6233 Y11.94094 Z-0.90057
X26.63254 Y11.95275 Z-0.90322
X26.64247 Y11.96399 Z-0.90586
X26.65306 Y11.97461 Z-0.90851
X26.66427 Y11.98458 Z-0.91115
X26.67605 Y11.99385 Z-0.9138
X26.68837 Y12.0024 Z-0.91644
X26.70118 Y12.0102 Z-0.91908
X26.71444 Y12.01722 Z-0.92173
X26.72809 Y12.02343 Z-0.92437
X26.74209 Y12.0288 Z-0.92702
X26.75638 Y12.03333 Z-0.92966
X26.77093 Y12.03699 Z-0.93231
X26.78566 Y12.03978 Z-0.93495
X26.80054 Y12.04167 Z-0.93759
X26.81551 Y12.04267 Z-0.94024
X26.8305 Y12.04277 Z-0.94288
X26.84548 Y12.04197 Z-0.94553
X26.86038 Y12.04027 Z-0.94817
X26.87515 Y12.03768 Z-0.95082
X26.88974 Y12.03421 Z-0.95346
X26.9041 Y12.02988 Z-0.95611
X26.91816 Y12.02468 Z-0.95875
X26.9319 Y12.01866 Z-0.96139
X26.94524 Y12.01182 Z-0.96404
X26.95816 Y12.00419 Z-0.96668
X26.97059 Y11.9958 Z-0.96933
X26.98249 Y11.98668 Z-0.97197
X26.99383 Y11.97686 Z-0.97462
X27.00456 Y11.96638 Z-0.97726
X27.01464 Y11.95528 Z-0.9799
X27.02404 Y11.94359 Z-0.98255
X27.03271 Y11.93136 Z-0.98519
X27.04064 Y11.91863 Z-0.98784
X27.04077 Y11.91841 Z-0.98788
X27.04179 Y11.91666 Z-0.98824
X27.04192 Y11.91644 Z-0.98828
X27.04407 Y11.91267 Z-0.98905
X27.04616 Y11.90886 Z-0.98982
X27.04817 Y11.90501 Z-0.99058
X27.05011 Y11.90112 Z-0.99135
X27.05198 Y11.89719 Z-0.99212
X27.05377 Y11.89324 Z-0.99288
X27.05548 Y11.88924 Z-0.99365
X27.05712 Y11.88522 Z-0.99441
X27.05868 Y11.88116 Z-0.99518
X27.06016 Y11.87708 Z-0.99595
X27.06157 Y11.87297 Z-0.99671
X27.0629 Y11.86883 Z-0.99748
X27.06415 Y11.86467 Z-0.99824
X27.06532 Y11.86048 Z-0.99901
X27.06641 Y11.85628 Z-0.99978
X27.06647 Y11.85603 Z-0.99982
X27.06671 Y11.85505 Z-1.
X27.06696 Y11.85407 F192.
X27.06702 Y11.85382
G02 X27.04064 Y11.91863 I-0.24236 J-0.06088
G1 X27.04077 Y11.91841
X27.04179 Y11.91666
X27.04192 Y11.91644
G02 X27.06641 Y11.85628 I-0.19746 J-0.11543
G1 X27.06647 Y11.85603
X27.06671 Y11.85505
X27.30924 Y11.9157
X27.309 Y11.91669
G03 X27.25774 Y12.04262 I-0.46454 J-0.11568
G1 X27.25672 Y12.04437
G03 X27.30949 Y11.91472 I-0.43206 J-0.25143
G1 X27.30924 Y11.9157
G0 Z1.
X26.89076 Y12.03391
G1 Z-0.9 F48.
X26.9041 Y12.02988 Z-0.90246 F144.
X26.91816 Y12.02468 Z-0.9051
X26.9319 Y12.01866 Z-0.90775
X26.94524 Y12.01182 Z-0.91039
X26.95816 Y12.00419 Z-0.91303
X26.97059 Y11.9958 Z-0.91568
X26.98249 Y11.98668 Z-0.91832
X26.99383 Y11.97686 Z-0.92097
X27.00456 Y11.96638 Z-0.92361
X27.01464 Y11.95528 Z-0.92626
X27.02404 Y11.94359 Z-0.9289
X27.03271 Y11.93136 Z-0.93154
X27.04064 Y11.91863 Z-0.93419
X27.04077 Y11.91841 Z-0.93423
X27.04179 Y11.91666 Z-0.93459
X27.04192 Y11.91644 Z-0.93464
X27.04407 Y11.91267 Z-0.9354
X27.04616 Y11.90886 Z-0.93617
X27.04817 Y11.90501 Z-0.93693
X27.05011 Y11.90112 Z-0.9377
X27.05198 Y11.89719 Z-0.93847
X27.05377 Y11.89324 Z-0.93923
X27.05548 Y11.88924 Z-0.94
X27.05712 Y11.88522 Z-0.94077
X27.05868 Y11.88116 Z-0.94153
X27.06016 Y11.87708 Z-0.9423
X27.06157 Y11.87297 Z-0.94306
X27.0629 Y11.86883 Z-0.94383
X27.06415 Y11.86467 Z-0.9446
X27.06532 Y11.86048 Z-0.94536
X27.06641 Y11.85628 Z-0.94613
X27.06647 Y11.85603 Z-0.94617
X27.06671 Y11.85505 Z-0.94635
X27.06696 Y11.85407 Z-0.94653
X27.06702 Y11.85382 Z-0.94658
X27.07024 Y11.83917 Z-0.94922
X27.07257 Y11.82436 Z-0.95186
X27.074 Y11.80943 Z-0.95451
X27.07454 Y11.79444 Z-0.95715
X27.07418 Y11.77945 Z-0.9598
X27.07293 Y11.7645 Z-0.96244
X27.07077 Y11.74966 Z-0.96509
X27.06773 Y11.73498 Z-0.96773
X27.06382 Y11.7205 Z-0.97037
X27.05904 Y11.70628 Z-0.97302
X27.05342 Y11.69238 Z-0.97566
X27.04698 Y11.67884 Z-0.97831
X27.03973 Y11.66571 Z-0.98095
X27.03171 Y11.65303 Z-0.9836
X27.02295 Y11.64087 Z-0.98624
X27.01347 Y11.62925 Z-0.98889
X27.00331 Y11.61821 Z-0.99153
X26.9925 Y11.60781 Z-0.99417
X26.9811 Y11.59808 Z-0.99682
X26.96913 Y11.58904 Z-0.99946
X26.95663 Y11.58074 Z-1.00211
X26.94367 Y11.57321 Z-1.00475
X26.93027 Y11.56647 Z-1.0074
X26.9165 Y11.56054 Z-1.01004
X26.90239 Y11.55545 Z-1.01269
X26.888 Y11.55121 Z-1.01533
X26.87339 Y11.54785 Z-1.01797
X26.8586 Y11.54537 Z-1.02062
X26.84369 Y11.54378 Z-1.02326
X26.82871 Y11.54308 Z-1.02591
X26.81371 Y11.54329 Z-1.02855
X26.79875 Y11.54439 Z-1.0312
X26.78389 Y11.5464 Z-1.03384
X26.76917 Y11.54929 Z-1.03648
X26.75466 Y11.55305 Z-1.03913
X26.74039 Y11.55768 Z-1.04177
X26.72643 Y11.56316 Z-1.04442
X26.71283 Y11.56947 Z-1.04706
X26.69962 Y11.57658 Z-1.04971
X26.68687 Y11.58447 Z-1.05235
X26.67461 Y11.59311 Z-1.05499
X26.66289 Y11.60247 Z-1.05764
X26.65176 Y11.61252 Z-1.06028
X26.64125 Y11.62321 Z-1.06293
X26.6314 Y11.63452 Z-1.06557
X26.62224 Y11.6464 Z-1.06822
X26.61381 Y11.6588 Z-1.07086
X26.60615 Y11.67169 Z-1.07351
X26.59927 Y11.68502 Z-1.07615
X26.5932 Y11.69873 Z-1.07879
X26.58796 Y11.71279 Z-1.08144
X26.58358 Y11.72713 Z-1.08408
X26.58007 Y11.74171 Z-1.08673
X26.57744 Y11.75647 Z-1.08937
X26.57569 Y11.77137 Z-1.09202
X26.57485 Y11.78634 Z-1.09466
X26.5749 Y11.80134 Z-1.09731
X26.57586 Y11.81631 Z-1.09995
X26.57771 Y11.83119 Z-1.10259
X26.58044 Y11.84593 Z-1.10524
X26.58406 Y11.86049 Z-1.10788
X26.58855 Y11.8748 Z-1.11053
X26.59388 Y11.88881 Z-1.11317
X26.60005 Y11.90249 Z-1.11582
X26.60702 Y11.91576 Z-1.11846
X26.61478 Y11.92859 Z-1.1211
X26.6233 Y11.94094 Z-1.12375
X26.63254 Y11.95275 Z-1.12639
X26.64247 Y11.96399 Z-1.12904
X26.65306 Y11.97461 Z-1.13168
X26.66427 Y11.98458 Z-1.13433
X26.67605 Y11.99385 Z-1.13697
X26.68837 Y12.0024 Z-1.13962
X26.70118 Y12.0102 Z-1.14226
X26.71444 Y12.01722 Z-1.1449
X26.72809 Y12.02343 Z-1.14755
X26.74209 Y12.0288 Z-1.15019
X26.75638 Y12.03333 Z-1.15284
X26.77093 Y12.03699 Z-1.15548
X26.78566 Y12.03978 Z-1.15813
X26.80054 Y12.04167 Z-1.16077
X26.81551 Y12.04267 Z-1.16342
X26.8305 Y12.04277 Z-1.16606
X26.84548 Y12.04197 Z-1.1687
X26.86038 Y12.04027 Z-1.17135
X26.87515 Y12.03768 Z-1.17399
X26.88974 Y12.03421 Z-1.17664
X26.9041 Y12.02988 Z-1.17928
X26.91816 Y12.02468 Z-1.18192
X26.9319 Y12.01866 Z-1.18457
X26.94524 Y12.01182 Z-1.18721
X26.95816 Y12.00419 Z-1.18986
X26.97059 Y11.9958 Z-1.1925
X26.98249 Y11.98668 Z-1.19515
X26.99383 Y11.97686 Z-1.19779
X27.00456 Y11.96638 Z-1.20044
X27.01464 Y11.95528 Z-1.20308
X27.02404 Y11.94359 Z-1.20573
X27.03271 Y11.93136 Z-1.20837
X27.04064 Y11.91863 Z-1.21101
X27.04077 Y11.91841 Z-1.21106
X27.04179 Y11.91666 Z-1.21141
X27.04192 Y11.91644 Z-1.21146
X27.04407 Y11.91267 Z-1.21223
X27.04616 Y11.90886 Z-1.21299
X27.04817 Y11.90501 Z-1.21376
X27.05011 Y11.90112 Z-1.21453
X27.05198 Y11.89719 Z-1.21529
X27.05377 Y11.89324 Z-1.21606
X27.05548 Y11.88924 Z-1.21682
X27.05712 Y11.88522 Z-1.21759
X27.05868 Y11.88116 Z-1.21836
X27.06016 Y11.87708 Z-1.21912
X27.06157 Y11.87297 Z-1.21989
X27.0629 Y11.86883 Z-1.22065
X27.06415 Y11.86467 Z-1.22142
X27.06532 Y11.86048 Z-1.22219
X27.06641 Y11.85628 Z-1.22295
X27.06647 Y11.85603 Z-1.223
X27.06671 Y11.85505 Z-1.22318
X27.06696 Y11.85407 Z-1.22335
X27.06702 Y11.85382 Z-1.2234
X27.07024 Y11.83917 Z-1.22604
X27.07257 Y11.82436 Z-1.22869
X27.074 Y11.80943 Z-1.23133
X27.07454 Y11.79444 Z-1.23398
X27.07418 Y11.77945 Z-1.23662
X27.07293 Y11.7645 Z-1.23927
X27.07077 Y11.74966 Z-1.24191
X27.06773 Y11.73498 Z-1.24455
X27.06382 Y11.7205 Z-1.2472
X27.05904 Y11.70628 Z-1.24984
X27.05342 Y11.69238 Z-1.25249
X27.04698 Y11.67884 Z-1.25513
X27.03973 Y11.66571 Z-1.25778
X27.03171 Y11.65303 Z-1.26042
X27.02295 Y11.64087 Z-1.26307
X27.01347 Y11.62925 Z-1.26571
X27.00331 Y11.61821 Z-1.26835
X26.9925 Y11.60781 Z-1.271
X26.9811 Y11.59808 Z-1.27364
X26.96913 Y11.58904 Z-1.27629
X26.95663 Y11.58074 Z-1.27893
X26.94367 Y11.57321 Z-1.28158
X26.93027 Y11.56647 Z-1.28422
X26.9165 Y11.56054 Z-1.28686
X26.90239 Y11.55545 Z-1.28951
X26.888 Y11.55121 Z-1.29215
X26.87339 Y11.54785 Z-1.2948
X26.8586 Y11.54537 Z-1.29744
X26.84369 Y11.54378 Z-1.30009
X26.82871 Y11.54308 Z-1.30273
X26.81371 Y11.54329 Z-1.30538
X26.79875 Y11.54439 Z-1.30802
X26.78389 Y11.5464 Z-1.31066
X26.76917 Y11.54929 Z-1.31331
X26.75466 Y11.55305 Z-1.31595
X26.74039 Y11.55768 Z-1.3186
X26.72643 Y11.56316 Z-1.32124
X26.71283 Y11.56947 Z-1.32389
X26.69962 Y11.57658 Z-1.32653
X26.68687 Y11.58447 Z-1.32917
X26.67461 Y11.59311 Z-1.33182
X26.66289 Y11.60247 Z-1.33446
X26.65176 Y11.61252 Z-1.33711
X26.64125 Y11.62321 Z-1.33975
X26.6314 Y11.63452 Z-1.3424
X26.62224 Y11.6464 Z-1.34504
X26.61381 Y11.6588 Z-1.34769
X26.60615 Y11.67169 Z-1.35033
X26.59927 Y11.68502 Z-1.35297
X26.5932 Y11.69873 Z-1.35562
X26.58796 Y11.71279 Z-1.35826
X26.58358 Y11.72713 Z-1.36091
X26.58007 Y11.74171 Z-1.36355
X26.57744 Y11.75647 Z-1.3662
X26.57569 Y11.77137 Z-1.36884
X26.57485 Y11.78634 Z-1.37149
X26.5749 Y11.80134 Z-1.37413
X26.57586 Y11.81631 Z-1.37677
X26.57771 Y11.83119 Z-1.37942
X26.58044 Y11.84593 Z-1.38206
X26.58406 Y11.86049 Z-1.38471
X26.58855 Y11.8748 Z-1.38735
X26.59388 Y11.88881 Z-1.39
X26.60005 Y11.90249 Z-1.39264
X26.60702 Y11.91576 Z-1.39528
X26.61478 Y11.92859 Z-1.39793
X26.6233 Y11.94094 Z-1.40057
X26.63254 Y11.95275 Z-1.40322
X26.64247 Y11.96399 Z-1.40586
X26.65306 Y11.97461 Z-1.40851
X26.66427 Y11.98458 Z-1.41115
X26.67605 Y11.99385 Z-1.4138
X26.68837 Y12.0024 Z-1.41644
X26.70118 Y12.0102 Z-1.41908
X26.71444 Y12.01722 Z-1.42173
X26.72809 Y12.02343 Z-1.42437
X26.74209 Y12.0288 Z-1.42702
X26.75638 Y12.03333 Z-1.42966
X26.77093 Y12.03699 Z-1.43231
X26.78566 Y12.03978 Z-1.43495
X26.80054 Y12.04167 Z-1.43759
X26.81551 Y12.04267 Z-1.44024
X26.8305 Y12.04277 Z-1.44288
X26.84548 Y12.04197 Z-1.44553
X26.86038 Y12.04027 Z-1.44817
X26.87515 Y12.03768 Z-1.45082
X26.88974 Y12.03421 Z-1.45346
X26.9041 Y12.02988 Z-1.45611
X26.91816 Y12.02468 Z-1.45875
X26.9319 Y12.01866 Z-1.46139
X26.94524 Y12.01182 Z-1.46404
X26.95816 Y12.00419 Z-1.46668
X26.97059 Y11.9958 Z-1.46933
X26.98249 Y11.98668 Z-1.47197
X26.99383 Y11.97686 Z-1.47462
X27.00456 Y11.96638 Z-1.47726
X27.01464 Y11.95528 Z-1.4799
X27.02404 Y11.94359 Z-1.48255
X27.03271 Y11.93136 Z-1.48519
X27.04064 Y11.91863 Z-1.48784
X27.04077 Y11.91841 Z-1.48788
X27.04179 Y11.91666 Z-1.48824
X27.04192 Y11.91644 Z-1.48828
X27.04407 Y11.91267 Z-1.48905
X27.04616 Y11.90886 Z-1.48982
X27.04817 Y11.90501 Z-1.49058
X27.05011 Y11.90112 Z-1.49135
X27.05198 Y11.89719 Z-1.49212
X27.05377 Y11.89324 Z-1.49288
X27.05548 Y11.88924 Z-1.49365
X27.05712 Y11.88522 Z-1.49441
X27.05868 Y11.88116 Z-1.49518
X27.06016 Y11.87708 Z-1.49595
X27.06157 Y11.87297 Z-1.49671
X27.0629 Y11.86883 Z-1.49748
X27.06415 Y11.86467 Z-1.49824
X27.06532 Y11.86048 Z-1.49901
X27.06641 Y11.85628 Z-1.49978
X27.06647 Y11.85603 Z-1.49982
X27.06671 Y11.85505 Z-1.5
X27.06696 Y11.85407 F192.
X27.06702 Y11.85382
G02 X27.04064 Y11.91863 I-0.24236 J-0.06088
G1 X27.04077 Y11.91841
X27.04179 Y11.91666
X27.04192 Y11.91644
G02 X27.06641 Y11.85628 I-0.19746 J-0.11543
G1 X27.06647 Y11.85603
X27.06671 Y11.85505
X27.30924 Y11.9157
X27.309 Y11.91669
G03 X27.25774 Y12.04262 I-0.46454 J-0.11568
G1 X27.25672 Y12.04437
G03 X27.30949 Y11.91472 I-0.43206 J-0.25143
G1 X27.30924 Y11.9157
G0 Z1.
X26.89076 Y12.03391
G1 Z-1.4 F48.
X26.9041 Y12.02988 Z-1.40246 F144.
X26.91816 Y12.02468 Z-1.4051
X26.9319 Y12.01866 Z-1.40775
X26.94524 Y12.01182 Z-1.41039
X26.95816 Y12.00419 Z-1.41303
X26.97059 Y11.9958 Z-1.41568
X26.98249 Y11.98668 Z-1.41832
X26.99383 Y11.97686 Z-1.42097
X27.00456 Y11.96638 Z-1.42361
X27.01464 Y11.95528 Z-1.42626
X27.02404 Y11.94359 Z-1.4289
X27.03271 Y11.93136 Z-1.43155
X27.04064 Y11.91863 Z-1.43419
X27.04077 Y11.91841 Z-1.43423
X27.04179 Y11.91666 Z-1.43459
X27.04192 Y11.91644 Z-1.43464
X27.04407 Y11.91267 Z-1.4354
X27.04616 Y11.90886 Z-1.43617
X27.04817 Y11.90501 Z-1.43693
X27.05011 Y11.90112 Z-1.4377
X27.05198 Y11.89719 Z-1.43847
X27.05377 Y11.89324 Z-1.43923
X27.05548 Y11.88924 Z-1.44
X27.05712 Y11.88522 Z-1.44077
X27.05868 Y11.88116 Z-1.44153
X27.06016 Y11.87708 Z-1.4423
X27.06157 Y11.87297 Z-1.44306
X27.0629 Y11.86883 Z-1.44383
X27.06415 Y11.86467 Z-1.4446
X27.06532 Y11.86048 Z-1.44536
X27.06641 Y11.85628 Z-1.44613
X27.06647 Y11.85603 Z-1.44617
X27.06671 Y11.85505 Z-1.44635
X27.06696 Y11.85407 Z-1.44653
X27.06702 Y11.85382 Z-1.44658
X27.07024 Y11.83917 Z-1.44922
X27.07257 Y11.82436 Z-1.45186
X27.074 Y11.80943 Z-1.45451
X27.07454 Y11.79444 Z-1.45715
X27.07418 Y11.77945 Z-1.4598
X27.07293 Y11.7645 Z-1.46244
X27.07077 Y11.74966 Z-1.46509
X27.06773 Y11.73498 Z-1.46773
X27.06382 Y11.7205 Z-1.47037
X27.05904 Y11.70628 Z-1.47302
X27.05342 Y11.69238 Z-1.47566
X27.04698 Y11.67884 Z-1.47831
X27.03973 Y11.66571 Z-1.48095
X27.03171 Y11.65303 Z-1.4836
X27.02295 Y11.64087 Z-1.48624
X27.01347 Y11.62925 Z-1.48889
X27.00331 Y11.61821 Z-1.49153
X26.9925 Y11.60781 Z-1.49417
X26.9811 Y11.59808 Z-1.49682
X26.96913 Y11.58904 Z-1.49946
X26.95663 Y11.58074 Z-1.50211
X26.94367 Y11.57321 Z-1.50475
X26.93027 Y11.56647 Z-1.5074
X26.9165 Y11.56054 Z-1.51004
X26.90239 Y11.55545 Z-1.51269
X26.888 Y11.55121 Z-1.51533
X26.87339 Y11.54785 Z-1.51797
X26.8586 Y11.54537 Z-1.52062
X26.84369 Y11.54378 Z-1.52326
X26.82871 Y11.54308 Z-1.52591
X26.81371 Y11.54329 Z-1.52855
X26.79875 Y11.54439 Z-1.5312
X26.78389 Y11.5464 Z-1.53384
X26.76917 Y11.54929 Z-1.53648
X26.75466 Y11.55305 Z-1.53913
X26.74039 Y11.55768 Z-1.54177
X26.72643 Y11.56316 Z-1.54442
X26.71283 Y11.56947 Z-1.54706
X26.69962 Y11.57658 Z-1.54971
X26.68687 Y11.58447 Z-1.55235
X26.67461 Y11.59311 Z-1.555
X26.66289 Y11.60247 Z-1.55764
X26.65176 Y11.61252 Z-1.56028
X26.64125 Y11.62321 Z-1.56293
X26.6314 Y11.63452 Z-1.56557
X26.62224 Y11.6464 Z-1.56822
X26.61381 Y11.6588 Z-1.57086
X26.60615 Y11.67169 Z-1.57351
X26.59927 Y11.68502 Z-1.57615
X26.5932 Y11.69873 Z-1.57879
X26.58796 Y11.71279 Z-1.58144
X26.58358 Y11.72713 Z-1.58408
X26.58007 Y11.74171 Z-1.58673
X26.57744 Y11.75647 Z-1.58937
X26.57569 Y11.77137 Z-1.59202
X26.57485 Y11.78634 Z-1.59466
X26.5749 Y11.80134 Z-1.59731
X26.57586 Y11.81631 Z-1.59995
X26.57771 Y11.83119 Z-1.60259
X26.58044 Y11.84593 Z-1.60524
X26.58406 Y11.86049 Z-1.60788
X26.58855 Y11.8748 Z-1.61053
X26.59388 Y11.88881 Z-1.61317
X26.60005 Y11.90249 Z-1.61582
X26.60702 Y11.91576 Z-1.61846
X26.61478 Y11.92859 Z-1.6211
X26.6233 Y11.94094 Z-1.62375
X26.63254 Y11.95275 Z-1.62639
X26.64247 Y11.96399 Z-1.62904
X26.65306 Y11.97461 Z-1.63168
X26.66427 Y11.98458 Z-1.63433
X26.67605 Y11.99385 Z-1.63697
X26.68837 Y12.0024 Z-1.63962
X26.70118 Y12.0102 Z-1.64226
X26.71444 Y12.01722 Z-1.6449
X26.72809 Y12.02343 Z-1.64755
X26.74209 Y12.0288 Z-1.65019
X26.75638 Y12.03333 Z-1.65284
X26.77093 Y12.03699 Z-1.65548
X26.78566 Y12.03978 Z-1.65813
X26.80054 Y12.04167 Z-1.66077
X26.81551 Y12.04267 Z-1.66342
X26.8305 Y12.04277 Z-1.66606
X26.84548 Y12.04197 Z-1.6687
X26.86038 Y12.04027 Z-1.67135
X26.87515 Y12.03768 Z-1.67399
X26.88974 Y12.03421 Z-1.67664
X26.9041 Y12.02988 Z-1.67928
X26.91816 Y12.02468 Z-1.68193
X26.9319 Y12.01866 Z-1.68457
X26.94524 Y12.01182 Z-1.68721
X26.95816 Y12.00419 Z-1.68986
X26.97059 Y11.9958 Z-1.6925
X26.98249 Y11.98668 Z-1.69515
X26.99383 Y11.97686 Z-1.69779
X27.00456 Y11.96638 Z-1.70044
X27.01464 Y11.95528 Z-1.70308
X27.02404 Y11.94359 Z-1.70573
X27.03271 Y11.93136 Z-1.70837
X27.04064 Y11.91863 Z-1.71101
X27.04077 Y11.91841 Z-1.71106
X27.04179 Y11.91666 Z-1.71141
X27.04192 Y11.91644 Z-1.71146
X27.04407 Y11.91267 Z-1.71223
X27.04616 Y11.90886 Z-1.71299
X27.04817 Y11.90501 Z-1.71376
X27.05011 Y11.90112 Z-1.71453
X27.05198 Y11.89719 Z-1.71529
X27.05377 Y11.89324 Z-1.71606
X27.05548 Y11.88924 Z-1.71682
X27.05712 Y11.88522 Z-1.71759
X27.05868 Y11.88116 Z-1.71836
X27.06016 Y11.87708 Z-1.71912
X27.06157 Y11.87297 Z-1.71989
X27.0629 Y11.86883 Z-1.72065
X27.06415 Y11.86467 Z-1.72142
X27.06532 Y11.86048 Z-1.72219
X27.06641 Y11.85628 Z-1.72295
X27.06647 Y11.85603 Z-1.723
X27.06671 Y11.85505 Z-1.72318
X27.06696 Y11.85407 Z-1.72335
X27.06702 Y11.85382 Z-1.7234
X27.07024 Y11.83917 Z-1.72604
X27.07257 Y11.82436 Z-1.72869
X27.074 Y11.80943 Z-1.73133
X27.07454 Y11.79444 Z-1.73398
X27.07418 Y11.77945 Z-1.73662
X27.07293 Y11.7645 Z-1.73927
X27.07077 Y11.74966 Z-1.74191
X27.06773 Y11.73498 Z-1.74455
X27.06382 Y11.7205 Z-1.7472
X27.05904 Y11.70628 Z-1.74984
X27.05342 Y11.69238 Z-1.75249
X27.04698 Y11.67884 Z-1.75513
X27.03973 Y11.66571 Z-1.75778
X27.03171 Y11.65303 Z-1.76042
X27.02295 Y11.64087 Z-1.76307
X27.01347 Y11.62925 Z-1.76571
X27.00331 Y11.61821 Z-1.76835
X26.9925 Y11.60781 Z-1.771
X26.9811 Y11.59808 Z-1.77364
X26.96913 Y11.58904 Z-1.77629
X26.95663 Y11.58074 Z-1.77893
X26.94367 Y11.57321 Z-1.78158
X26.93027 Y11.56647 Z-1.78422
X26.9165 Y11.56054 Z-1.78686
X26.90239 Y11.55545 Z-1.78951
X26.888 Y11.55121 Z-1.79215
X26.87339 Y11.54785 Z-1.7948
X26.8586 Y11.54537 Z-1.79744
X26.84369 Y11.54378 Z-1.80009
X26.82871 Y11.54308 Z-1.80273
X26.81371 Y11.54329 Z-1.80538
X26.79875 Y11.54439 Z-1.80802
X26.78389 Y11.5464 Z-1.81066
X26.76917 Y11.54929 Z-1.81331
X26.75466 Y11.55305 Z-1.81595
X26.74039 Y11.55768 Z-1.8186
X26.72643 Y11.56316 Z-1.82124
X26.71283 Y11.56947 Z-1.82389
X26.69962 Y11.57658 Z-1.82653
X26.68687 Y11.58447 Z-1.82917
X26.67461 Y11.59311 Z-1.83182
X26.66289 Y11.60247 Z-1.83446
X26.65176 Y11.61252 Z-1.83711
X26.64125 Y11.62321 Z-1.83975
X26.6314 Y11.63452 Z-1.8424
X26.62224 Y11.6464 Z-1.84504
X26.61381 Y11.6588 Z-1.84769
X26.60615 Y11.67169 Z-1.85033
X26.59927 Y11.68502 Z-1.85297
X26.5932 Y11.69873 Z-1.85562
X26.58796 Y11.71279 Z-1.85826
X26.58358 Y11.72713 Z-1.86091
X26.58007 Y11.74171 Z-1.86355
X26.57744 Y11.75647 Z-1.8662
X26.57569 Y11.77137 Z-1.86884
X26.57485 Y11.78634 Z-1.87149
X26.5749 Y11.80134 Z-1.87413
X26.57586 Y11.81631 Z-1.87677
X26.57771 Y11.83119 Z-1.87942
X26.58044 Y11.84593 Z-1.88206
X26.58406 Y11.86049 Z-1.88471
X26.58855 Y11.8748 Z-1.88735
X26.59388 Y11.88881 Z-1.89
X26.60005 Y11.90249 Z-1.89264
X26.60702 Y11.91576 Z-1.89528
X26.61478 Y11.92859 Z-1.89793
X26.6233 Y11.94094 Z-1.90057
X26.63254 Y11.95275 Z-1.90322
X26.64247 Y11.96399 Z-1.90586
X26.65306 Y11.97461 Z-1.90851
X26.66427 Y11.98458 Z-1.91115
X26.67605 Y11.99385 Z-1.9138
X26.68837 Y12.0024 Z-1.91644
X26.70118 Y12.0102 Z-1.91908
X26.71444 Y12.01722 Z-1.92173
X26.72809 Y12.02343 Z-1.92437
X26.74209 Y12.0288 Z-1.92702
X26.75638 Y12.03333 Z-1.92966
X26.77093 Y12.03699 Z-1.93231
X26.78566 Y12.03978 Z-1.93495
X26.80054 Y12.04167 Z-1.93759
X26.81551 Y12.04267 Z-1.94024
X26.8305 Y12.04277 Z-1.94288
X26.84548 Y12.04197 Z-1.94553
X26.86038 Y12.04027 Z-1.94817
X26.87515 Y12.03768 Z-1.95082
X26.88974 Y12.03421 Z-1.95346
X26.9041 Y12.02988 Z-1.95611
X26.91816 Y12.02468 Z-1.95875
X26.9319 Y12.01866 Z-1.96139
X26.94524 Y12.01182 Z-1.96404
X26.95816 Y12.00419 Z-1.96668
X26.97059 Y11.9958 Z-1.96933
X26.98249 Y11.98668 Z-1.97197
X26.99383 Y11.97686 Z-1.97462
X27.00456 Y11.96638 Z-1.97726
X27.01464 Y11.95528 Z-1.9799
X27.02404 Y11.94359 Z-1.98255
X27.03271 Y11.93136 Z-1.98519
X27.04064 Y11.91863 Z-1.98784
X27.04077 Y11.91841 Z-1.98788
X27.04179 Y11.91666 Z-1.98824
X27.04192 Y11.91644 Z-1.98828
X27.04407 Y11.91267 Z-1.98905
X27.04616 Y11.90886 Z-1.98982
X27.04817 Y11.90501 Z-1.99058
X27.05011 Y11.90112 Z-1.99135
X27.05198 Y11.89719 Z-1.99212
X27.05377 Y11.89324 Z-1.99288
X27.05548 Y11.88924 Z-1.99365
X27.05712 Y11.88522 Z-1.99441
X27.05868 Y11.88116 Z-1.99518
X27.06016 Y11.87708 Z-1.99595
X27.06157 Y11.87297 Z-1.99671
X27.0629 Y11.86883 Z-1.99748
X27.06415 Y11.86467 Z-1.99824
X27.06532 Y11.86048 Z-1.99901
X27.06641 Y11.85628 Z-1.99978
X27.06647 Y11.85603 Z-1.99982
X27.06671 Y11.85505 Z-2.
X27.06696 Y11.85407 F192.
X27.06702 Y11.85382
G02 X27.04064 Y11.91863 I-0.24236 J-0.06088
G1 X27.04077 Y11.91841
X27.04179 Y11.91666
X27.04192 Y11.91644
G02 X27.06641 Y11.85628 I-0.19746 J-0.11543
G1 X27.06647 Y11.85603
X27.06671 Y11.85505
X27.30924 Y11.9157
X27.309 Y11.91669
G03 X27.25774 Y12.04262 I-0.46454 J-0.11568
G1 X27.25672 Y12.04437
G03 X27.30949 Y11.91472 I-0.43206 J-0.25143
G1 X27.30924 Y11.9157
G0 Z1.
X26.89076 Y12.03391
G1 Z-1.9 F48.
X26.9041 Y12.02988 Z-1.90246 F144.
X26.91816 Y12.02468 Z-1.9051
X26.9319 Y12.01866 Z-1.90775
X26.94524 Y12.01182 Z-1.91039
X26.95816 Y12.00419 Z-1.91303
X26.97059 Y11.9958 Z-1.91568
X26.98249 Y11.98668 Z-1.91832
X26.99383 Y11.97686 Z-1.92097
X27.00456 Y11.96638 Z-1.92361
X27.01464 Y11.95528 Z-1.92626
X27.02404 Y11.94359 Z-1.9289
X27.03271 Y11.93136 Z-1.93155
X27.04064 Y11.91863 Z-1.93419
X27.04077 Y11.91841 Z-1.93423
X27.04179 Y11.91666 Z-1.93459
X27.04192 Y11.91644 Z-1.93464
X27.04407 Y11.91267 Z-1.9354
X27.04616 Y11.90886 Z-1.93617
X27.04817 Y11.90501 Z-1.93693
X27.05011 Y11.90112 Z-1.9377
X27.05198 Y11.89719 Z-1.93847
X27.05377 Y11.89324 Z-1.93923
X27.05548 Y11.88924 Z-1.94
X27.05712 Y11.88522 Z-1.94077
X27.05868 Y11.88116 Z-1.94153
X27.06016 Y11.87708 Z-1.9423
X27.06157 Y11.87297 Z-1.94306
X27.0629 Y11.86883 Z-1.94383
X27.06415 Y11.86467 Z-1.9446
X27.06532 Y11.86048 Z-1.94536
X27.06641 Y11.85628 Z-1.94613
X27.06647 Y11.85603 Z-1.94617
X27.06671 Y11.85505 Z-1.94635
X27.06696 Y11.85407 Z-1.94653
X27.06702 Y11.85382 Z-1.94658
X27.07024 Y11.83917 Z-1.94922
X27.07257 Y11.82436 Z-1.95186
X27.074 Y11.80943 Z-1.95451
X27.07454 Y11.79444 Z-1.95715
X27.07418 Y11.77945 Z-1.9598
X27.07293 Y11.7645 Z-1.96244
X27.07077 Y11.74966 Z-1.96509
X27.06773 Y11.73498 Z-1.96773
X27.06382 Y11.7205 Z-1.97037
X27.05904 Y11.70628 Z-1.97302
X27.05342 Y11.69238 Z-1.97566
X27.04698 Y11.67884 Z-1.97831
X27.03973 Y11.66571 Z-1.98095
X27.03171 Y11.65303 Z-1.9836
X27.02295 Y11.64087 Z-1.98624
X27.01347 Y11.62925 Z-1.98889
X27.00331 Y11.61821 Z-1.99153
X26.9925 Y11.60781 Z-1.99417
X26.9811 Y11.59808 Z-1.99682
X26.96913 Y11.58904 Z-1.99946
X26.95663 Y11.58074 Z-2.00211
X26.94367 Y11.57321 Z-2.00475
X26.93027 Y11.56647 Z-2.0074
X26.9165 Y11.56054 Z-2.01004
X26.90239 Y11.55545 Z-2.01268
X26.888 Y11.55121 Z-2.01533
X26.87339 Y11.54785 Z-2.01797
X26.8586 Y11.54537 Z-2.02062
X26.84369 Y11.54378 Z-2.02326
X26.82871 Y11.54308 Z-2.02591
X26.81371 Y11.54329 Z-2.02855
X26.79875 Y11.54439 Z-2.0312
X26.78389 Y11.5464 Z-2.03384
X26.76917 Y11.54929 Z-2.03648
X26.75466 Y11.55305 Z-2.03913
X26.74039 Y11.55768 Z-2.04177
X26.72643 Y11.56316 Z-2.04442
X26.71283 Y11.56947 Z-2.04706
X26.69962 Y11.57658 Z-2.04971
X26.68687 Y11.58447 Z-2.05235
X26.67461 Y11.59311 Z-2.05499
X26.66289 Y11.60247 Z-2.05764
X26.65176 Y11.61252 Z-2.06028
X26.64125 Y11.62321 Z-2.06293
X26.6314 Y11.63452 Z-2.06557
X26.62224 Y11.6464 Z-2.06822
X26.61381 Y11.6588 Z-2.07086
X26.60615 Y11.67169 Z-2.07351
X26.59927 Y11.68502 Z-2.07615
X26.5932 Y11.69873 Z-2.07879
X26.58796 Y11.71279 Z-2.08144
X26.58358 Y11.72713 Z-2.08408
X26.58007 Y11.74171 Z-2.08673
X26.57744 Y11.75647 Z-2.08937
X26.57569 Y11.77137 Z-2.09202
X26.57485 Y11.78634 Z-2.09466
X26.5749 Y11.80134 Z-2.09731
X26.57586 Y11.81631 Z-2.09995
X26.57771 Y11.83119 Z-2.10259
X26.58044 Y11.84593 Z-2.10524
X26.58406 Y11.86049 Z-2.10788
X26.58855 Y11.8748 Z-2.11053
X26.59388 Y11.88881 Z-2.11317
X26.60005 Y11.90249 Z-2.11582
X26.60702 Y11.91576 Z-2.11846
X26.61478 Y11.92859 Z-2.1211
X26.6233 Y11.94094 Z-2.12375
X26.63254 Y11.95275 Z-2.12639
X26.64247 Y11.96399 Z-2.12904
X26.65306 Y11.97461 Z-2.13168
X26.66427 Y11.98458 Z-2.13433
X26.67605 Y11.99385 Z-2.13697
X26.68837 Y12.0024 Z-2.13961
X26.70118 Y12.0102 Z-2.14226
X26.71444 Y12.01722 Z-2.1449
X26.72809 Y12.02343 Z-2.14755
X26.74209 Y12.0288 Z-2.15019
X26.75638 Y12.03333 Z-2.15284
X26.77093 Y12.03699 Z-2.15548
X26.78566 Y12.03978 Z-2.15813
X26.80054 Y12.04167 Z-2.16077
X26.81551 Y12.04267 Z-2.16342
X26.8305 Y12.04277 Z-2.16606
X26.84548 Y12.04197 Z-2.1687
X26.86038 Y12.04027 Z-2.17135
X26.87515 Y12.03768 Z-2.17399
X26.88974 Y12.03421 Z-2.17664
X26.9041 Y12.02988 Z-2.17928
X26.91816 Y12.02468 Z-2.18193
X26.9319 Y12.01866 Z-2.18457
X26.94524 Y12.01182 Z-2.18721
X26.95816 Y12.00419 Z-2.18986
X26.97059 Y11.9958 Z-2.1925
X26.98249 Y11.98668 Z-2.19515
X26.99383 Y11.97686 Z-2.19779
X27.00456 Y11.96638 Z-2.20044
X27.01464 Y11.95528 Z-2.20308
X27.02404 Y11.94359 Z-2.20573
X27.03271 Y11.93136 Z-2.20837
X27.04064 Y11.91863 Z-2.21101
X27.04077 Y11.91841 Z-2.21106
X27.04179 Y11.91666 Z-2.21142
X27.04192 Y11.91644 Z-2.21146
X27.04407 Y11.91267 Z-2.21223
X27.04616 Y11.90886 Z-2.21299
X27.04817 Y11.90501 Z-2.21376
X27.05011 Y11.90112 Z-2.21453
X27.05198 Y11.89719 Z-2.21529
X27.05377 Y11.89324 Z-2.21606
X27.05548 Y11.88924 Z-2.21682
X27.05712 Y11.88522 Z-2.21759
X27.05868 Y11.88116 Z-2.21836
X27.06016 Y11.87708 Z-2.21912
X27.06157 Y11.87297 Z-2.21989
X27.0629 Y11.86883 Z-2.22065
X27.06415 Y11.86467 Z-2.22142
X27.06532 Y11.86048 Z-2.22219
X27.06641 Y11.85628 Z-2.22295
X27.06647 Y11.85603 Z-2.223
X27.06671 Y11.85505 Z-2.22318
X27.06696 Y11.85407 Z-2.22335
X27.06702 Y11.85382 Z-2.2234
X27.07024 Y11.83917 Z-2.22604
X27.07257 Y11.82436 Z-2.22869
X27.074 Y11.80943 Z-2.23133
X27.07454 Y11.79444 Z-2.23398
X27.07418 Y11.77945 Z-2.23662
X27.07293 Y11.7645 Z-2.23926
X27.07077 Y11.74966 Z-2.24191
X27.06773 Y11.73498 Z-2.24455
X27.06382 Y11.7205 Z-2.2472
X27.05904 Y11.70628 Z-2.24984
X27.05342 Y11.69238 Z-2.25249
X27.04698 Y11.67884 Z-2.25513
X27.03973 Y11.66571 Z-2.25778
X27.03171 Y11.65303 Z-2.26042
X27.02295 Y11.64087 Z-2.26307
X27.01347 Y11.62925 Z-2.26571
X27.00331 Y11.61821 Z-2.26835
X26.9925 Y11.60781 Z-2.271
X26.9811 Y11.59808 Z-2.27364
X26.96913 Y11.58904 Z-2.27629
X26.95663 Y11.58074 Z-2.27893
X26.94367 Y11.57321 Z-2.28158
X26.93027 Y11.56647 Z-2.28422
X26.9165 Y11.56054 Z-2.28686
X26.90239 Y11.55545 Z-2.28951
X26.888 Y11.55121 Z-2.29215
X26.87339 Y11.54785 Z-2.2948
X26.8586 Y11.54537 Z-2.29744
X26.84369 Y11.54378 Z-2.30009
X26.82871 Y11.54308 Z-2.30273
X26.81371 Y11.54329 Z-2.30538
X26.79875 Y11.54439 Z-2.30802
X26.78389 Y11.5464 Z-2.31066
X26.76917 Y11.54929 Z-2.31331
X26.75466 Y11.55305 Z-2.31595
X26.74039 Y11.55768 Z-2.3186
X26.72643 Y11.56316 Z-2.32124
X26.71283 Y11.56947 Z-2.32389
X26.69962 Y11.57658 Z-2.32653
X26.68687 Y11.58447 Z-2.32917
X26.67461 Y11.59311 Z-2.33182
X26.66289 Y11.60247 Z-2.33446
X26.65176 Y11.61252 Z-2.33711
X26.64125 Y11.62321 Z-2.33975
X26.6314 Y11.63452 Z-2.3424
X26.62224 Y11.6464 Z-2.34504
X26.61381 Y11.6588 Z-2.34769
X26.60615 Y11.67169 Z-2.35033
X26.59927 Y11.68502 Z-2.35297
X26.5932 Y11.69873 Z-2.35562
X26.58796 Y11.71279 Z-2.35826
X26.58358 Y11.72713 Z-2.36091
X26.58007 Y11.74171 Z-2.36355
X26.57744 Y11.75647 Z-2.3662
X26.57569 Y11.77137 Z-2.36884
X26.57485 Y11.78634 Z-2.37149
X26.5749 Y11.80134 Z-2.37413
X26.57586 Y11.81631 Z-2.37677
X26.57771 Y11.83119 Z-2.37942
X26.58044 Y11.84593 Z-2.38206
X26.58406 Y11.86049 Z-2.38471
X26.58855 Y11.8748 Z-2.38735
X26.59388 Y11.88881 Z-2.38999
X26.60005 Y11.90249 Z-2.39264
X26.60702 Y11.91576 Z-2.39528
X26.61478 Y11.92859 Z-2.39793
X26.6233 Y11.94094 Z-2.40057
X26.63254 Y11.95275 Z-2.40322
X26.64247 Y11.96399 Z-2.40586
X26.65306 Y11.97461 Z-2.40851
X26.66427 Y11.98458 Z-2.41115
X26.67605 Y11.99385 Z-2.4138
X26.68837 Y12.0024 Z-2.41644
X26.70118 Y12.0102 Z-2.41908
X26.71444 Y12.01722 Z-2.42173
X26.72809 Y12.02343 Z-2.42437
X26.74209 Y12.0288 Z-2.42702
X26.75638 Y12.03333 Z-2.42966
X26.77093 Y12.03699 Z-2.43231
X26.78566 Y12.03978 Z-2.43495
X26.80054 Y12.04167 Z-2.43759
X26.81551 Y12.04267 Z-2.44024
X26.8305 Y12.04277 Z-2.44288
X26.84548 Y12.04197 Z-2.44553
X26.86038 Y12.04027 Z-2.44817
X26.87515 Y12.03768 Z-2.45082
X26.88974 Y12.03421 Z-2.45346
X26.9041 Y12.02988 Z-2.45611
X26.91816 Y12.02468 Z-2.45875
X26.9319 Y12.01866 Z-2.46139
X26.94524 Y12.01182 Z-2.46404
X26.95816 Y12.00419 Z-2.46668
X26.97059 Y11.9958 Z-2.46933
X26.98249 Y11.98668 Z-2.47197
X26.99383 Y11.97686 Z-2.47462
X27.00456 Y11.96638 Z-2.47726
X27.01464 Y11.95528 Z-2.4799
X27.02404 Y11.94359 Z-2.48255
X27.03271 Y11.93136 Z-2.48519
X27.04064 Y11.91863 Z-2.48784
X27.04077 Y11.91841 Z-2.48788
X27.04179 Y11.91666 Z-2.48824
X27.04192 Y11.91644 Z-2.48828
X27.04407 Y11.91267 Z-2.48905
X27.04616 Y11.90886 Z-2.48982
X27.04817 Y11.90501 Z-2.49058
X27.05011 Y11.90112 Z-2.49135
X27.05198 Y11.89719 Z-2.49211
X27.05377 Y11.89324 Z-2.49288
X27.05548 Y11.88924 Z-2.49365
X27.05712 Y11.88522 Z-2.49441
X27.05868 Y11.88116 Z-2.49518
X27.06016 Y11.87708 Z-2.49595
X27.06157 Y11.87297 Z-2.49671
X27.0629 Y11.86883 Z-2.49748
X27.06415 Y11.86467 Z-2.49824
X27.06532 Y11.86048 Z-2.49901
X27.06641 Y11.85628 Z-2.49978
X27.06647 Y11.85603 Z-2.49982
X27.06671 Y11.85505 Z-2.5
X27.06696 Y11.85407 F192.
X27.06702 Y11.85382
G02 X27.04064 Y11.91863 I-0.24236 J-0.06088
G1 X27.04077 Y11.91841
X27.04179 Y11.91666
X27.04192 Y11.91644
G02 X27.06641 Y11.85628 I-0.19746 J-0.11543
G1 X27.06647 Y11.85603
X27.06671 Y11.85505
X27.30924 Y11.9157
X27.309 Y11.91669
G03 X27.25774 Y12.04262 I-0.46454 J-0.11568
G1 X27.25672 Y12.04437
G03 X27.30949 Y11.91472 I-0.43206 J-0.25143
G1 X27.30924 Y11.9157
G0 Z1.
X26.89076 Y12.03391
G1 Z-2.4 F48.
X26.9041 Y12.02988 Z-2.40246 F144.
X26.91816 Y12.02468 Z-2.4051
X26.9319 Y12.01866 Z-2.40775
X26.94524 Y12.01182 Z-2.41039
X26.95816 Y12.00419 Z-2.41303
X26.97059 Y11.9958 Z-2.41568
X26.98249 Y11.98668 Z-2.41832
X26.99383 Y11.97686 Z-2.42097
X27.00456 Y11.96638 Z-2.42361
X27.01464 Y11.95528 Z-2.42626
X27.02404 Y11.94359 Z-2.4289
X27.03271 Y11.93136 Z-2.43155
X27.04064 Y11.91863 Z-2.43419
X27.04077 Y11.91841 Z-2.43423
X27.04179 Y11.91666 Z-2.43459
X27.04192 Y11.91644 Z-2.43464
X27.04407 Y11.91267 Z-2.4354
X27.04616 Y11.90886 Z-2.43617
X27.04817 Y11.90501 Z-2.43693
X27.05011 Y11.90112 Z-2.4377
X27.05198 Y11.89719 Z-2.43847
X27.05377 Y11.89324 Z-2.43923
X27.05548 Y11.88924 Z-2.44
X27.05712 Y11.88522 Z-2.44076
X27.05868 Y11.88116 Z-2.44153
X27.06016 Y11.87708 Z-2.4423
X27.06157 Y11.87297 Z-2.44306
X27.0629 Y11.86883 Z-2.44383
X27.06415 Y11.86467 Z-2.4446
X27.06532 Y11.86048 Z-2.44536
X27.06641 Y11.85628 Z-2.44613
X27.06647 Y11.85603 Z-2.44617
X27.06671 Y11.85505 Z-2.44635
X27.06696 Y11.85407 Z-2.44653
X27.06702 Y11.85382 Z-2.44658
X27.07024 Y11.83917 Z-2.44922
X27.07257 Y11.82436 Z-2.45186
X27.074 Y11.80943 Z-2.45451
X27.07454 Y11.79444 Z-2.45715
X27.07418 Y11.77945 Z-2.4598
X27.07293 Y11.7645 Z-2.46244
X27.07077 Y11.74966 Z-2.46509
X27.06773 Y11.73498 Z-2.46773
X27.06382 Y11.7205 Z-2.47037
X27.05904 Y11.70628 Z-2.47302
X27.05342 Y11.69238 Z-2.47566
X27.04698 Y11.67884 Z-2.47831
X27.03973 Y11.66571 Z-2.48095
X27.03171 Y11.65303 Z-2.4836
X27.02295 Y11.64087 Z-2.48624
X27.01347 Y11.62925 Z-2.48889
X27.00331 Y11.61821 Z-2.49153
X26.9925 Y11.60781 Z-2.49417
X26.9811 Y11.59808 Z-2.49682
X26.96913 Y11.58904 Z-2.49946
X26.95663 Y11.58074 Z-2.50211
X26.94367 Y11.57321 Z-2.50475
X26.93027 Y11.56647 Z-2.5074
X26.9165 Y11.56054 Z-2.51004
X26.90239 Y11.55545 Z-2.51268
X26.888 Y11.55121 Z-2.51533
X26.87339 Y11.54785 Z-2.51797
X26.8586 Y11.54537 Z-2.52062
X26.84369 Y11.54378 Z-2.52326
X26.82871 Y11.54308 Z-2.52591
X26.81371 Y11.54329 Z-2.52855
X26.79875 Y11.54439 Z-2.53119
X26.78389 Y11.5464 Z-2.53384
X26.76917 Y11.54929 Z-2.53648
X26.75466 Y11.55305 Z-2.53913
X26.74039 Y11.55768 Z-2.54177
X26.72643 Y11.56316 Z-2.54442
X26.71283 Y11.56947 Z-2.54706
X26.69962 Y11.57658 Z-2.54971
X26.68687 Y11.58447 Z-2.55235
X26.67461 Y11.59311 Z-2.55499
X26.66289 Y11.60247 Z-2.55764
X26.65176 Y11.61252 Z-2.56028
X26.64125 Y11.62321 Z-2.56293
X26.6314 Y11.63452 Z-2.56557
X26.62224 Y11.6464 Z-2.56822
X26.61381 Y11.6588 Z-2.57086
X26.60615 Y11.67169 Z-2.57351
X26.59927 Y11.68502 Z-2.57615
X26.5932 Y11.69873 Z-2.57879
X26.58796 Y11.71279 Z-2.58144
X26.58358 Y11.72713 Z-2.58408
X26.58007 Y11.74171 Z-2.58673
X26.57744 Y11.75647 Z-2.58937
X26.57569 Y11.77137 Z-2.59202
X26.57485 Y11.78634 Z-2.59466
X26.5749 Y11.80134 Z-2.59731
X26.57586 Y11.81631 Z-2.59995
X26.57771 Y11.83119 Z-2.60259
X26.58044 Y11.84593 Z-2.60524
X26.58406 Y11.86049 Z-2.60788
X26.58855 Y11.8748 Z-2.61053
X26.59388 Y11.88881 Z-2.61317
X26.60005 Y11.90249 Z-2.61582
X26.60702 Y11.91576 Z-2.61846
X26.61478 Y11.92859 Z-2.6211
X26.6233 Y11.94094 Z-2.62375
X26.63254 Y11.95275 Z-2.62639
X26.64247 Y11.96399 Z-2.62904
X26.65306 Y11.97461 Z-2.63168
X26.66427 Y11.98458 Z-2.63433
X26.67605 Y11.99385 Z-2.63697
X26.68837 Y12.0024 Z-2.63962
X26.70118 Y12.0102 Z-2.64226
X26.71444 Y12.01722 Z-2.6449
X26.72809 Y12.02343 Z-2.64755
X26.74209 Y12.0288 Z-2.65019
X26.75638 Y12.03333 Z-2.65284
X26.77093 Y12.03699 Z-2.65548
X26.78566 Y12.03978 Z-2.65813
X26.80054 Y12.04167 Z-2.66077
X26.81551 Y12.04267 Z-2.66342
X26.8305 Y12.04277 Z-2.66606
X26.84548 Y12.04197 Z-2.6687
X26.86038 Y12.04027 Z-2.67135
X26.87515 Y12.03768 Z-2.67399
X26.88974 Y12.03421 Z-2.67664
X26.9041 Y12.02988 Z-2.67928
X26.91816 Y12.02468 Z-2.68193
X26.9319 Y12.01866 Z-2.68457
X26.94524 Y12.01182 Z-2.68721
X26.95816 Y12.00419 Z-2.68986
X26.97059 Y11.9958 Z-2.6925
X26.98249 Y11.98668 Z-2.69515
X26.99383 Y11.97686 Z-2.69779
X27.00456 Y11.96638 Z-2.70044
X27.01464 Y11.95528 Z-2.70308
X27.02404 Y11.94359 Z-2.70573
X27.03271 Y11.93136 Z-2.70837
X27.04064 Y11.91863 Z-2.71101
X27.04077 Y11.91841 Z-2.71106
X27.04179 Y11.91666 Z-2.71142
X27.04192 Y11.91644 Z-2.71146
X27.04407 Y11.91267 Z-2.71223
X27.04616 Y11.90886 Z-2.71299
X27.04817 Y11.90501 Z-2.71376
X27.05011 Y11.90112 Z-2.71452
X27.05198 Y11.89719 Z-2.71529
X27.05377 Y11.89324 Z-2.71606
X27.05548 Y11.88924 Z-2.71682
X27.05712 Y11.88522 Z-2.71759
X27.05868 Y11.88116 Z-2.71836
X27.06016 Y11.87708 Z-2.71912
X27.06157 Y11.87297 Z-2.71989
X27.0629 Y11.86883 Z-2.72065
X27.06415 Y11.86467 Z-2.72142
X27.06532 Y11.86048 Z-2.72219
X27.06641 Y11.85628 Z-2.72295
X27.06647 Y11.85603 Z-2.723
X27.06671 Y11.85505 Z-2.72318
X27.06696 Y11.85407 Z-2.72335
X27.06702 Y11.85382 Z-2.7234
X27.07024 Y11.83917 Z-2.72604
X27.07257 Y11.82436 Z-2.72869
X27.074 Y11.80943 Z-2.73133
X27.07454 Y11.79444 Z-2.73398
X27.07418 Y11.77945 Z-2.73662
X27.07293 Y11.7645 Z-2.73927
X27.07077 Y11.74966 Z-2.74191
X27.06773 Y11.73498 Z-2.74455
X27.06382 Y11.7205 Z-2.7472
X27.05904 Y11.70628 Z-2.74984
X27.05342 Y11.69238 Z-2.75249
X27.04698 Y11.67884 Z-2.75513
X27.03973 Y11.66571 Z-2.75778
X27.03171 Y11.65303 Z-2.76042
X27.02295 Y11.64087 Z-2.76307
X27.01347 Y11.62925 Z-2.76571
X27.00331 Y11.61821 Z-2.76835
X26.9925 Y11.60781 Z-2.771
X26.9811 Y11.59808 Z-2.77364
X26.96913 Y11.58904 Z-2.77629
X26.95663 Y11.58074 Z-2.77893
X26.94367 Y11.57321 Z-2.78158
X26.93027 Y11.56647 Z-2.78422
X26.9165 Y11.56054 Z-2.78686
X26.90239 Y11.55545 Z-2.78951
X26.888 Y11.55121 Z-2.79215
X26.87339 Y11.54785 Z-2.7948
X26.8586 Y11.54537 Z-2.79744
X26.84369 Y11.54378 Z-2.80009
X26.82871 Y11.54308 Z-2.80273
X26.81371 Y11.54329 Z-2.80538
X26.79875 Y11.54439 Z-2.80802
X26.78389 Y11.5464 Z-2.81066
X26.76917 Y11.54929 Z-2.81331
X26.75466 Y11.55305 Z-2.81595
X26.74039 Y11.55768 Z-2.8186
X26.72643 Y11.56316 Z-2.82124
X26.71283 Y11.56947 Z-2.82389
X26.69962 Y11.57658 Z-2.82653
X26.68687 Y11.58447 Z-2.82917
X26.67461 Y11.59311 Z-2.83182
X26.66289 Y11.60247 Z-2.83446
X26.65176 Y11.61252 Z-2.83711
X26.64125 Y11.62321 Z-2.83975
X26.6314 Y11.63452 Z-2.8424
X26.62224 Y11.6464 Z-2.84504
X26.61381 Y11.6588 Z-2.84769
X26.60615 Y11.67169 Z-2.85033
X26.59927 Y11.68502 Z-2.85297
X26.5932 Y11.69873 Z-2.85562
X26.58796 Y11.71279 Z-2.85826
X26.58358 Y11.72713 Z-2.86091
X26.58007 Y11.74171 Z-2.86355
X26.57744 Y11.75647 Z-2.8662
X26.57569 Y11.77137 Z-2.86884
X26.57485 Y11.78634 Z-2.87149
X26.5749 Y11.80134 Z-2.87413
X26.57586 Y11.81631 Z-2.87677
X26.57771 Y11.83119 Z-2.87942
X26.58044 Y11.84593 Z-2.88206
X26.58406 Y11.86049 Z-2.88471
X26.58855 Y11.8748 Z-2.88735
X26.59388 Y11.88881 Z-2.88999
X26.60005 Y11.90249 Z-2.89264
X26.60702 Y11.91576 Z-2.89528
X26.61478 Y11.92859 Z-2.89793
X26.6233 Y11.94094 Z-2.90057
X26.63254 Y11.95275 Z-2.90322
X26.64247 Y11.96399 Z-2.90586
X26.65306 Y11.97461 Z-2.90851
X26.66427 Y11.98458 Z-2.91115
X26.67605 Y11.99385 Z-2.9138
X26.68837 Y12.0024 Z-2.91644
X26.70118 Y12.0102 Z-2.91908
X26.71444 Y12.01722 Z-2.92173
X26.72809 Y12.02343 Z-2.92437
X26.74209 Y12.0288 Z-2.92702
X26.75638 Y12.03333 Z-2.92966
X26.77093 Y12.03699 Z-2.93231
X26.78566 Y12.03978 Z-2.93495
X26.80054 Y12.04167 Z-2.93759
X26.81551 Y12.04267 Z-2.94024
X26.8305 Y12.04277 Z-2.94288
X26.84548 Y12.04197 Z-2.94553
X26.86038 Y12.04027 Z-2.94817
X26.87515 Y12.03768 Z-2.95082
X26.88974 Y12.03421 Z-2.95346
X26.9041 Y12.02988 Z-2.95611
X26.91816 Y12.02468 Z-2.95875
X26.9319 Y12.01866 Z-2.96139
X26.94524 Y12.01182 Z-2.96404
X26.95816 Y12.00419 Z-2.96668
X26.97059 Y11.9958 Z-2.96933
X26.98249 Y11.98668 Z-2.97197
X26.99383 Y11.97686 Z-2.97462
X27.00456 Y11.96638 Z-2.97726
X27.01464 Y11.95528 Z-2.9799
X27.02404 Y11.94359 Z-2.98255
X27.03271 Y11.93136 Z-2.98519
X27.04064 Y11.91863 Z-2.98784
X27.04077 Y11.91841 Z-2.98788
X27.04179 Y11.91666 Z-2.98824
X27.04192 Y11.91644 Z-2.98828
X27.04407 Y11.91267 Z-2.98905
X27.04616 Y11.90886 Z-2.98982
X27.04817 Y11.90501 Z-2.99058
X27.05011 Y11.90112 Z-2.99135
X27.05198 Y11.89719 Z-2.99212
X27.05377 Y11.89324 Z-2.99288
X27.05548 Y11.88924 Z-2.99365
X27.05712 Y11.88522 Z-2.99441
X27.05868 Y11.88116 Z-2.99518
X27.06016 Y11.87708 Z-2.99595
X27.06157 Y11.87297 Z-2.99671
X27.0629 Y11.86883 Z-2.99748
X27.06415 Y11.86467 Z-2.99824
X27.06532 Y11.86048 Z-2.99901
X27.06641 Y11.85628 Z-2.99978
X27.06647 Y11.85603 Z-2.99982
X27.06671 Y11.85505 Z-3.
X27.06696 Y11.85407 F192.
X27.06702 Y11.85382
G02 X27.04064 Y11.91863 I-0.24236 J-0.06088
G1 X27.04077 Y11.91841
X27.04179 Y11.91666
X27.04192 Y11.91644
G02 X27.06641 Y11.85628 I-0.19746 J-0.11543
G1 X27.06647 Y11.85603
X27.06671 Y11.85505
X27.30924 Y11.9157
X27.309 Y11.91669
G03 X27.25774 Y12.04262 I-0.46454 J-0.11568
G1 X27.25672 Y12.04437
G03 X27.30949 Y11.91472 I-0.43206 J-0.25143
G1 X27.30924 Y11.9157
G0 Z1.
X26.89076 Y12.03391
G1 Z-2.9 F48.
X26.9041 Y12.02988 Z-2.90246 F144.
X26.91816 Y12.02468 Z-2.9051
X26.9319 Y12.01866 Z-2.90775
X26.94524 Y12.01182 Z-2.91039
X26.95816 Y12.00419 Z-2.91303
X26.97059 Y11.9958 Z-2.91568
X26.98249 Y11.98668 Z-2.91832
X26.99383 Y11.97686 Z-2.92097
X27.00456 Y11.96638 Z-2.92361
X27.01464 Y11.95528 Z-2.92626
X27.02404 Y11.94359 Z-2.9289
X27.03271 Y11.93136 Z-2.93155
X27.04064 Y11.91863 Z-2.93419
X27.04077 Y11.91841 Z-2.93423
X27.04179 Y11.91666 Z-2.93459
X27.04192 Y11.91644 Z-2.93464
X27.04407 Y11.91267 Z-2.9354
X27.04616 Y11.90886 Z-2.93617
X27.04817 Y11.90501 Z-2.93693
X27.05011 Y11.90112 Z-2.9377
X27.05198 Y11.89719 Z-2.93847
X27.05377 Y11.89324 Z-2.93923
X27.05548 Y11.88924 Z-2.94
X27.05712 Y11.88522 Z-2.94076
X27.05868 Y11.88116 Z-2.94153
X27.06016 Y11.87708 Z-2.9423
X27.06157 Y11.87297 Z-2.94306
X27.0629 Y11.86883 Z-2.94383
X27.06415 Y11.86467 Z-2.9446
X27.06532 Y11.86048 Z-2.94536
X27.06641 Y11.85628 Z-2.94613
X27.06647 Y11.85603 Z-2.94617
X27.06671 Y11.85505 Z-2.94635
X27.06696 Y11.85407 Z-2.94653
X27.06702 Y11.85382 Z-2.94658
X27.07024 Y11.83917 Z-2.94922
X27.07257 Y11.82436 Z-2.95186
X27.074 Y11.80943 Z-2.95451
X27.07454 Y11.79444 Z-2.95715
X27.07418 Y11.77945 Z-2.9598
X27.07293 Y11.7645 Z-2.96244
X27.07077 Y11.74966 Z-2.96509
X27.06773 Y11.73498 Z-2.96773
X27.06382 Y11.7205 Z-2.97037
X27.05904 Y11.70628 Z-2.97302
X27.05342 Y11.69238 Z-2.97566
X27.04698 Y11.67884 Z-2.97831
X27.03973 Y11.66571 Z-2.98095
X27.03171 Y11.65303 Z-2.9836
X27.02295 Y11.64087 Z-2.98624
X27.01347 Y11.62925 Z-2.98889
X27.00331 Y11.61821 Z-2.99153
X26.9925 Y11.60781 Z-2.99417
X26.9811 Y11.59808 Z-2.99682
X26.96913 Y11.58904 Z-2.99946
X26.95663 Y11.58074 Z-3.00211
X26.94367 Y11.57321 Z-3.00475
X26.93027 Y11.56647 Z-3.0074
X26.9165 Y11.56054 Z-3.01004
X26.90239 Y11.55545 Z-3.01268
X26.888 Y11.55121 Z-3.01533
X26.87339 Y11.54785 Z-3.01797
X26.8586 Y11.54537 Z-3.02062
X26.84369 Y11.54378 Z-3.02326
X26.82871 Y11.54308 Z-3.02591
X26.81371 Y11.54329 Z-3.02855
X26.79875 Y11.54439 Z-3.0312
X26.78389 Y11.5464 Z-3.03384
X26.76917 Y11.54929 Z-3.03648
X26.75466 Y11.55305 Z-3.03913
X26.74039 Y11.55768 Z-3.04177
X26.72643 Y11.56316 Z-3.04442
X26.71283 Y11.56947 Z-3.04706
X26.69962 Y11.57658 Z-3.04971
X26.68687 Y11.58447 Z-3.05235
X26.67461 Y11.59311 Z-3.055
X26.66289 Y11.60247 Z-3.05764
X26.65176 Y11.61252 Z-3.06028
X26.64125 Y11.62321 Z-3.06293
X26.6314 Y11.63452 Z-3.06557
X26.62224 Y11.6464 Z-3.06822
X26.61381 Y11.6588 Z-3.07086
X26.60615 Y11.67169 Z-3.07351
X26.59927 Y11.68502 Z-3.07615
X26.5932 Y11.69873 Z-3.07879
X26.58796 Y11.71279 Z-3.08144
X26.58358 Y11.72713 Z-3.08408
X26.58007 Y11.74171 Z-3.08673
X26.57744 Y11.75647 Z-3.08937
X26.57569 Y11.77137 Z-3.09202
X26.57485 Y11.78634 Z-3.09466
X26.5749 Y11.80134 Z-3.09731
X26.57586 Y11.81631 Z-3.09995
X26.57771 Y11.83119 Z-3.10259
X26.58044 Y11.84593 Z-3.10524
X26.58406 Y11.86049 Z-3.10788
X26.58855 Y11.8748 Z-3.11053
X26.59388 Y11.88881 Z-3.11317
X26.60005 Y11.90249 Z-3.11582
X26.60702 Y11.91576 Z-3.11846
X26.61478 Y11.92859 Z-3.1211
X26.6233 Y11.94094 Z-3.12375
X26.63254 Y11.95275 Z-3.12639
X26.64247 Y11.96399 Z-3.12904
X26.65306 Y11.97461 Z-3.13168
X26.66427 Y11.98458 Z-3.13433
X26.67605 Y11.99385 Z-3.13697
X26.68837 Y12.0024 Z-3.13962
X26.70118 Y12.0102 Z-3.14226
X26.71444 Y12.01722 Z-3.1449
X26.72809 Y12.02343 Z-3.14755
X26.74209 Y12.0288 Z-3.15019
X26.75638 Y12.03333 Z-3.15284
X26.77093 Y12.03699 Z-3.15548
X26.78566 Y12.03978 Z-3.15813
X26.80054 Y12.04167 Z-3.16077
X26.81551 Y12.04267 Z-3.16342
X26.8305 Y12.04277 Z-3.16606
X26.84548 Y12.04197 Z-3.1687
X26.86038 Y12.04027 Z-3.17135
X26.87515 Y12.03768 Z-3.17399
X26.88974 Y12.03421 Z-3.17664
X26.9041 Y12.02988 Z-3.17928
X26.91816 Y12.02468 Z-3.18193
X26.9319 Y12.01866 Z-3.18457
X26.94524 Y12.01182 Z-3.18721
X26.95816 Y12.00419 Z-3.18986
X26.97059 Y11.9958 Z-3.1925
X26.98249 Y11.98668 Z-3.19515
X26.99383 Y11.97686 Z-3.19779
X27.00456 Y11.96638 Z-3.20044
X27.01464 Y11.95528 Z-3.20308
X27.02404 Y11.94359 Z-3.20573
X27.03271 Y11.93136 Z-3.20837
X27.04064 Y11.91863 Z-3.21101
X27.04077 Y11.91841 Z-3.21106
X27.04179 Y11.91666 Z-3.21142
X27.04192 Y11.91644 Z-3.21146
X27.04407 Y11.91267 Z-3.21223
X27.04616 Y11.90886 Z-3.21299
X27.04817 Y11.90501 Z-3.21376
X27.05011 Y11.90112 Z-3.21453
X27.05198 Y11.89719 Z-3.21529
X27.05377 Y11.89324 Z-3.21606
X27.05548 Y11.88924 Z-3.21682
X27.05712 Y11.88522 Z-3.21759
X27.05868 Y11.88116 Z-3.21836
X27.06016 Y11.87708 Z-3.21912
X27.06157 Y11.87297 Z-3.21989
X27.0629 Y11.86883 Z-3.22065
X27.06415 Y11.86467 Z-3.22142
X27.06532 Y11.86048 Z-3.22219
X27.06641 Y11.85628 Z-3.22295
X27.06647 Y11.85603 Z-3.223
X27.06671 Y11.85505 Z-3.22318
X27.06696 Y11.85407 Z-3.22335
X27.06702 Y11.85382 Z-3.2234
X27.07024 Y11.83917 Z-3.22604
X27.07257 Y11.82436 Z-3.22869
X27.074 Y11.80943 Z-3.23133
X27.07454 Y11.79444 Z-3.23398
X27.07418 Y11.77945 Z-3.23662
X27.07293 Y11.7645 Z-3.23927
X27.07077 Y11.74966 Z-3.24191
X27.06773 Y11.73498 Z-3.24455
X27.06382 Y11.7205 Z-3.2472
X27.05904 Y11.70628 Z-3.24984
X27.05342 Y11.69238 Z-3.25249
X27.04698 Y11.67884 Z-3.25513
X27.03973 Y11.66571 Z-3.25778
X27.03171 Y11.65303 Z-3.26042
X27.02295 Y11.64087 Z-3.26307
X27.01347 Y11.62925 Z-3.26571
X27.00331 Y11.61821 Z-3.26835
X26.9925 Y11.60781 Z-3.271
X26.9811 Y11.59808 Z-3.27364
X26.96913 Y11.58904 Z-3.27629
X26.95663 Y11.58074 Z-3.27893
X26.94367 Y11.57321 Z-3.28158
X26.93027 Y11.56647 Z-3.28422
X26.9165 Y11.56054 Z-3.28686
X26.90239 Y11.55545 Z-3.28951
X26.888 Y11.55121 Z-3.29215
X26.87339 Y11.54785 Z-3.2948
X26.8586 Y11.54537 Z-3.29744
X26.84369 Y11.54378 Z-3.30009
X26.82871 Y11.54308 Z-3.30273
X26.81371 Y11.54329 Z-3.30538
X26.79875 Y11.54439 Z-3.30802
X26.78389 Y11.5464 Z-3.31066
X26.76917 Y11.54929 Z-3.31331
X26.75466 Y11.55305 Z-3.31595
X26.74039 Y11.55768 Z-3.3186
X26.72643 Y11.56316 Z-3.32124
X26.71283 Y11.56947 Z-3.32389
X26.69962 Y11.57658 Z-3.32653
X26.68687 Y11.58447 Z-3.32917
X26.67461 Y11.59311 Z-3.33182
X26.66289 Y11.60247 Z-3.33446
X26.65176 Y11.61252 Z-3.33711
X26.64125 Y11.62321 Z-3.33975
X26.6314 Y11.63452 Z-3.3424
X26.62224 Y11.6464 Z-3.34504
X26.61381 Y11.6588 Z-3.34769
X26.60615 Y11.67169 Z-3.35033
X26.59927 Y11.68502 Z-3.35297
X26.5932 Y11.69873 Z-3.35562
X26.58796 Y11.71279 Z-3.35826
X26.58358 Y11.72713 Z-3.36091
X26.58007 Y11.74171 Z-3.36355
X26.57744 Y11.75647 Z-3.3662
X26.57569 Y11.77137 Z-3.36884
X26.57485 Y11.78634 Z-3.37149
X26.5749 Y11.80134 Z-3.37413
X26.57586 Y11.81631 Z-3.37677
X26.57771 Y11.83119 Z-3.37942
X26.58044 Y11.84593 Z-3.38206
X26.58406 Y11.86049 Z-3.38471
X26.58855 Y11.8748 Z-3.38735
X26.59388 Y11.88881 Z-3.39
X26.60005 Y11.90249 Z-3.39264
X26.60702 Y11.91576 Z-3.39528
X26.61478 Y11.92859 Z-3.39793
X26.6233 Y11.94094 Z-3.40057
X26.63254 Y11.95275 Z-3.40322
X26.64247 Y11.96399 Z-3.40586
X26.65306 Y11.97461 Z-3.40851
X26.66427 Y11.98458 Z-3.41115
X26.67605 Y11.99385 Z-3.4138
X26.68837 Y12.0024 Z-3.41644
X26.70118 Y12.0102 Z-3.41908
X26.71444 Y12.01722 Z-3.42173
X26.72809 Y12.02343 Z-3.42437
X26.74209 Y12.0288 Z-3.42702
X26.75638 Y12.03333 Z-3.42966
X26.77093 Y12.03699 Z-3.43231
X26.78566 Y12.03978 Z-3.43495
X26.80054 Y12.04167 Z-3.43759
X26.81551 Y12.04267 Z-3.44024
X26.8305 Y12.04277 Z-3.44288
X26.84548 Y12.04197 Z-3.44553
X26.86038 Y12.04027 Z-3.44817
X26.87515 Y12.03768 Z-3.45082
X26.88974 Y12.03421 Z-3.45346
X26.9041 Y12.02988 Z-3.45611
X26.91816 Y12.02468 Z-3.45875
X26.9319 Y12.01866 Z-3.46139
X26.94524 Y12.01182 Z-3.46404
X26.95816 Y12.00419 Z-3.46668
X26.97059 Y11.9958 Z-3.46933
X26.98249 Y11.98668 Z-3.47197
X26.99383 Y11.97686 Z-3.47462
X27.00456 Y11.96638 Z-3.47726
X27.01464 Y11.95528 Z-3.4799
X27.02404 Y11.94359 Z-3.48255
X27.03271 Y11.93136 Z-3.48519
X27.04064 Y11.91863 Z-3.48784
X27.04077 Y11.91841 Z-3.48788
X27.04179 Y11.91666 Z-3.48824
X27.04192 Y11.91644 Z-3.48828
X27.04407 Y11.91267 Z-3.48905
X27.04616 Y11.90886 Z-3.48982
X27.04817 Y11.90501 Z-3.49058
X27.05011 Y11.90112 Z-3.49135
X27.05198 Y11.89719 Z-3.49211
X27.05377 Y11.89324 Z-3.49288
X27.05548 Y11.88924 Z-3.49365
X27.05712 Y11.88522 Z-3.49441
X27.05868 Y11.88116 Z-3.49518
X27.06016 Y11.87708 Z-3.49595
X27.06157 Y11.87297 Z-3.49671
X27.0629 Y11.86883 Z-3.49748
X27.06415 Y11.86467 Z-3.49824
X27.06532 Y11.86048 Z-3.49901
X27.06641 Y11.85628 Z-3.49978
X27.06647 Y11.85603 Z-3.49982
X27.06671 Y11.85505 Z-3.5
X27.06696 Y11.85407 F192.
X27.06702 Y11.85382
G02 X27.04064 Y11.91863 I-0.24236 J-0.06088
G1 X27.04077 Y11.91841
X27.04179 Y11.91666
X27.04192 Y11.91644
G02 X27.06641 Y11.85628 I-0.19746 J-0.11543
G1 X27.06647 Y11.85603
X27.06671 Y11.85505
X27.30924 Y11.9157
X27.309 Y11.91669
G03 X27.25774 Y12.04262 I-0.46454 J-0.11568
G1 X27.25672 Y12.04437
G03 X27.30949 Y11.91472 I-0.43206 J-0.25143
G1 X27.30924 Y11.9157
G0 Z1.
X26.9303 Y19.01841
G1 Z0.1 F48.
X26.93745 Y19.0151 Z0.09861 F144.
X26.9514 Y19.00753 Z0.09581
X26.96483 Y18.9991 Z0.09301
X26.97771 Y18.98983 Z0.09022
X26.98997 Y18.97976 Z0.08742
X27.00156 Y18.96894 Z0.08462
X27.01245 Y18.9574 Z0.08183
X27.02259 Y18.94519 Z0.07903
X27.03192 Y18.93237 Z0.07623
X27.04043 Y18.91898 Z0.07343
X27.04807 Y18.90508 Z0.07064
X27.05481 Y18.89072 Z0.06784
X27.06063 Y18.87596 Z0.06504
X27.06551 Y18.86086 Z0.06224
X27.06941 Y18.84549 Z0.05945
X27.07233 Y18.82989 Z0.05665
X27.07426 Y18.81415 Z0.05385
X27.07518 Y18.79831 Z0.05106
X27.0751 Y18.78245 Z0.04826
X27.07401 Y18.76662 Z0.04546
X27.07192 Y18.75089 Z0.04267
X27.06883 Y18.73533 Z0.03987
X27.06477 Y18.72 Z0.03707
X27.05974 Y18.70495 Z0.03427
X27.05377 Y18.69026 Z0.03148
X27.04687 Y18.67597 Z0.02868
X27.03909 Y18.66215 Z0.02588
X27.03044 Y18.64885 Z0.02308
X27.02097 Y18.63612 Z0.02029
X27.01071 Y18.62402 Z0.01749
X26.9997 Y18.6126 Z0.01469
X26.98799 Y18.60189 Z0.01189
X26.97563 Y18.59196 Z0.0091
X26.96266 Y18.58282 Z0.0063
X26.94914 Y18.57453 Z0.0035
X26.93511 Y18.56711 Z0.00071
X26.92065 Y18.56059 Z-0.00209
X26.9058 Y18.55501 Z-0.00489
X26.89063 Y18.55038 Z-0.00769
X26.87519 Y18.54672 Z-0.01048
X26.85955 Y18.54405 Z-0.01328
X26.84378 Y18.54237 Z-0.01608
X26.82793 Y18.5417 Z-0.01888
X26.81207 Y18.54203 Z-0.02167
X26.79626 Y18.54337 Z-0.02447
X26.78057 Y18.54571 Z-0.02727
X26.76506 Y18.54904 Z-0.03006
X26.74979 Y18.55335 Z-0.03286
X26.73483 Y18.55862 Z-0.03566
X26.72023 Y18.56482 Z-0.03846
X26.70605 Y18.57194 Z-0.04125
X26.69235 Y18.57994 Z-0.04405
X26.67919 Y18.5888 Z-0.04685
X26.66662 Y18.59847 Z-0.04964
X26.65468 Y18.60892 Z-0.05244
X26.64344 Y18.62011 Z-0.05524
X26.63292 Y18.63199 Z-0.05804
X26.62318 Y18.64451 Z-0.06083
X26.61425 Y18.65762 Z-0.06363
X26.60617 Y18.67128 Z-0.06643
X26.59898 Y18.68542 Z-0.06923
X26.59269 Y18.69998 Z-0.07202
X26.58735 Y18.71492 Z-0.07482
X26.58296 Y18.73016 Z-0.07762
X26.57954 Y18.74565 Z-0.08041
X26.57712 Y18.76133 Z-0.08321
X26.57569 Y18.77713 Z-0.08601
X26.57527 Y18.79299 Z-0.08881
X26.57586 Y18.80884 Z-0.0916
X26.57745 Y18.82463 Z-0.0944
X26.58004 Y18.84028 Z-0.0972
X26.58361 Y18.85573 Z-0.1
X26.58816 Y18.87093 Z-0.10279
X26.59366 Y18.88581 Z-0.10559
X26.6001 Y18.90031 Z-0.10839
X26.60744 Y18.91437 Z-0.11118
X26.61566 Y18.92794 Z-0.11398
X26.62473 Y18.94096 Z-0.11678
X26.6346 Y18.95338 Z-0.11958
X26.64524 Y18.96515 Z-0.12237
X26.6566 Y18.97621 Z-0.12517
X26.66865 Y18.98654 Z-0.12797
X26.68132 Y18.99608 Z-0.13076
X26.69457 Y19.0048 Z-0.13356
X26.70835 Y19.01266 Z-0.13636
X26.7226 Y19.01963 Z-0.13916
X26.73727 Y19.02568 Z-0.14195
X26.75229 Y19.03079 Z-0.14475
X26.7676 Y19.03494 Z-0.14755
X26.78314 Y19.03811 Z-0.15035
X26.79886 Y19.04028 Z-0.15314
X26.81468 Y19.04146 Z-0.15594
X26.83054 Y19.04163 Z-0.15874
X26.84638 Y19.04079 Z-0.16153
X26.86214 Y19.03895 Z-0.16433
X26.87775 Y19.03611 Z-0.16713
X26.89314 Y19.03229 Z-0.16993
X26.90827 Y19.0275 Z-0.17272
X26.92306 Y19.02176 Z-0.17552
X26.93745 Y19.0151 Z-0.17832
X26.9514 Y19.00753 Z-0.18112
X26.96483 Y18.9991 Z-0.18391
X26.97771 Y18.98983 Z-0.18671
X26.98997 Y18.97976 Z-0.18951
X27.00156 Y18.96894 Z-0.1923
X27.01245 Y18.9574 Z-0.1951
X27.02259 Y18.94519 Z-0.1979
X27.03192 Y18.93237 Z-0.2007
X27.04043 Y18.91898 Z-0.20349
X27.04807 Y18.90508 Z-0.20629
