%
G17 G21 G40 G90 G64 P0.1
(2 1/2 Axis Profiling)
(SlotDrill 2mm Carbide)
T12 M06
S24000 M3
G0 Z1.
X196.87733 Y-23.83702
G1 Z0.1 F48.
X196.59173 Y-24.05103 Z0.03707 F144.
X196.16699 Y-24.32907 Z-0.05244
X195.72548 Y-24.57961 Z-0.14195
X195.26896 Y-24.80164 Z-0.23146
X194.79928 Y-24.99427 Z-0.32098
X194.31833 Y-25.15672 Z-0.41049
X193.82804 Y-25.28834 Z-0.5
G17
G02 X190.17196 Y-9.71166 I-1.82804 J7.78834 F192.
X193.82804 Y-25.28834 I1.82804 J-7.78834
G1 X193.88517 Y-25.53173
G03 X190.11483 Y-9.46827 I-1.88517 J8.03173
X193.88517 Y-25.53173 I1.88517 J-8.03173
G0 Z1.
X164.15878 Y-23.6834
G1 Z0.1 F48.
X164.1074 Y-23.69091 Z0.09084 F144.
X164.01511 Y-23.70299 Z0.07443
X163.92265 Y-23.7137 Z0.05802
X163.83004 Y-23.72303 Z0.04161
X163.7373 Y-23.73097 Z0.02519
X163.64445 Y-23.73754 Z0.00878
X163.55152 Y-23.74272 Z-0.00763
X163.45852 Y-23.74652 Z-0.02404
X163.36547 Y-23.74893 Z-0.04045
X163.27239 Y-23.74996 Z-0.05687
X163.17932 Y-23.7496 Z-0.07328
X163.08625 Y-23.74785 Z-0.08969
X162.99323 Y-23.74472 Z-0.1061
X162.90026 Y-23.74021 Z-0.12252
X162.80737 Y-23.73431 Z-0.13893
X162.71457 Y-23.72702 Z-0.15534
X162.6219 Y-23.71836 Z-0.17175
X162.52936 Y-23.70832 Z-0.18817
X162.43699 Y-23.69689 Z-0.20458
X162.34479 Y-23.6841 Z-0.22099
X162.2528 Y-23.66993 Z-0.2374
X162.16102 Y-23.6544 Z-0.25382
X162.06949 Y-23.6375 Z-0.27023
X161.97822 Y-23.61924 Z-0.28664
X161.88723 Y-23.59962 Z-0.30305
X161.79655 Y-23.57865 Z-0.31946
X161.70618 Y-23.55633 Z-0.33588
X161.61616 Y-23.53267 Z-0.35229
X161.5265 Y-23.50767 Z-0.3687
X161.43723 Y-23.48133 Z-0.38511
X161.34835 Y-23.45367 Z-0.40153
X161.2599 Y-23.42469 Z-0.41794
X161.17189 Y-23.3944 Z-0.43435
X161.08434 Y-23.3628 Z-0.45076
X160.99727 Y-23.3299 Z-0.46718
X160.9107 Y-23.2957 Z-0.48359
X160.82465 Y-23.26022 Z-0.5
G02 X157.75 Y-20.46859 I2.42535 J5.76023 F192.
G1 Y-14.53141
G02 X168.75 I5.5 J-2.96859
G1 Y-20.46859
G02 X160.82465 Y-23.26022 I-5.5 J2.96859
G1 X160.72763 Y-23.49063
G03 X169. Y-20.53109 I2.52237 J5.99063
G1 Y-14.46891
G03 X157.5 I-5.75 J-3.03109
G1 Y-20.53109
G03 X160.72763 Y-23.49063 I5.75 J3.0311
G0 Z1.
X127.86385 Y-13.03819
G1 Z0.1 F48.
X128.06678 Y-12.74461 Z0.03707 F144.
X128.38134 Y-12.34617 Z-0.05244
X128.72054 Y-11.96847 Z-0.14195
X129.083 Y-11.61305 Z-0.23146
X129.46728 Y-11.28134 Z-0.32098
X129.87183 Y-10.97466 Z-0.41049
X130.29501 Y-10.69427 Z-0.5
G02 X138.70499 Y-24.30574 I4.20499 J-6.80573 F192.
X130.29501 Y-10.69427 I-4.20499 J6.80574
G1 X130.1636 Y-10.48159
G03 X138.8364 Y-24.51842 I4.3364 J-7.01841
X130.1636 Y-10.48159 I-4.3364 J7.01842
G0 Z1.
X26.43693 Y-36.49508
G1 Z0.1 F48.
X26.60053 Y-36.33345 Z0.05945 F144.
X26.83992 Y-36.12522 Z0.0035
X27.09204 Y-35.9326 Z-0.05244
X27.35586 Y-35.75635 Z-0.10839
X27.63033 Y-35.5972 Z-0.16433
X27.91435 Y-35.45577 Z-0.22028
X28.20676 Y-35.33264 Z-0.27622
X28.50639 Y-35.2283 Z-0.33217
X28.81204 Y-35.14318 Z-0.38811
X29.12247 Y-35.07761 Z-0.44406
X29.43644 Y-35.03186 Z-0.5
G02 X30.56356 Y-44.96814 I0.56356 J-4.96814 F192.
X29.43644 Y-35.03186 I-0.56356 J4.96814
G1 X29.40826 Y-34.78346
G03 X30.59174 Y-45.21655 I0.59174 J-5.21654
X29.40826 Y-34.78346 I-0.59174 J5.21655
G0 Z1.
X26.43693 Y-36.49508
G1 Z-0.4 F48.
X26.60053 Y-36.33345 Z-0.44055 F144.
X26.83992 Y-36.12522 Z-0.4965
X27.09204 Y-35.9326 Z-0.55244
X27.35586 Y-35.75635 Z-0.60839
X27.63033 Y-35.5972 Z-0.66433
X27.91435 Y-35.45577 Z-0.72028
X28.20676 Y-35.33264 Z-0.77622
X28.50639 Y-35.2283 Z-0.83217
X28.81204 Y-35.14318 Z-0.88811
X29.12247 Y-35.07761 Z-0.94406
X29.43644 Y-35.03186 Z-1.
G02 X30.56356 Y-44.96814 I0.56356 J-4.96814 F192.
X29.43644 Y-35.03186 I-0.56356 J4.96814
G1 X29.40826 Y-34.78346
G03 X30.59174 Y-45.21655 I0.59174 J-5.21654
X29.40826 Y-34.78346 I-0.59174 J5.21655
G0 Z1.
X127.86385 Y-13.03819
G1 Z-0.4 F48.
X128.06678 Y-12.74461 Z-0.46293 F144.
X128.38134 Y-12.34617 Z-0.55244
X128.72054 Y-11.96847 Z-0.64195
X129.083 Y-11.61305 Z-0.73146
X129.46728 Y-11.28134 Z-0.82098
X129.87183 Y-10.97466 Z-0.91049
X130.29501 Y-10.69427 Z-1.
G02 X138.70499 Y-24.30574 I4.20499 J-6.80573 F192.
X130.29501 Y-10.69427 I-4.20499 J6.80574
G1 X130.1636 Y-10.48159
G03 X138.8364 Y-24.51842 I4.3364 J-7.01841
X130.1636 Y-10.48159 I-4.3364 J7.01842
G0 Z1.
X164.15878 Y-23.6834
G1 Z-0.4 F48.
X164.1074 Y-23.69091 Z-0.40916 F144.
X164.01511 Y-23.70299 Z-0.42557
X163.92265 Y-23.7137 Z-0.44198
X163.83004 Y-23.72303 Z-0.45839
X163.7373 Y-23.73097 Z-0.47481
X163.64445 Y-23.73754 Z-0.49122
X163.55152 Y-23.74272 Z-0.50763
X163.45852 Y-23.74652 Z-0.52404
X163.36547 Y-23.74893 Z-0.54046
X163.27239 Y-23.74996 Z-0.55687
X163.17932 Y-23.7496 Z-0.57328
X163.08625 Y-23.74785 Z-0.58969
X162.99323 Y-23.74472 Z-0.6061
X162.90026 Y-23.74021 Z-0.62252
X162.80737 Y-23.73431 Z-0.63893
X162.71457 Y-23.72702 Z-0.65534
X162.6219 Y-23.71836 Z-0.67175
X162.52936 Y-23.70832 Z-0.68817
X162.43699 Y-23.69689 Z-0.70458
X162.34479 Y-23.6841 Z-0.72099
X162.2528 Y-23.66993 Z-0.7374
X162.16102 Y-23.6544 Z-0.75382
X162.06949 Y-23.6375 Z-0.77023
X161.97822 Y-23.61924 Z-0.78664
X161.88723 Y-23.59962 Z-0.80305
X161.79655 Y-23.57865 Z-0.81946
X161.70618 Y-23.55633 Z-0.83588
X161.61616 Y-23.53267 Z-0.85229
X161.5265 Y-23.50767 Z-0.8687
X161.43723 Y-23.48133 Z-0.88511
X161.34835 Y-23.45367 Z-0.90153
X161.2599 Y-23.42469 Z-0.91794
X161.17189 Y-23.3944 Z-0.93435
X161.08434 Y-23.3628 Z-0.95076
X160.99727 Y-23.3299 Z-0.96718
X160.9107 Y-23.2957 Z-0.98359
X160.82465 Y-23.26022 Z-1.
G02 X157.75 Y-20.46859 I2.42535 J5.76023 F192.
G1 Y-14.53141
G02 X168.75 I5.5 J-2.96859
G1 Y-20.46859
G02 X160.82465 Y-23.26022 I-5.5 J2.96859
G1 X160.72763 Y-23.49063
G03 X169. Y-20.53109 I2.52237 J5.99063
G1 Y-14.46891
G03 X157.5 I-5.75 J-3.03109
G1 Y-20.53109
G03 X160.72763 Y-23.49063 I5.75 J3.0311
G0 Z1.
X196.87733 Y-23.83702
G1 Z-0.4 F48.
X196.59173 Y-24.05103 Z-0.46293 F144.
X196.16699 Y-24.32907 Z-0.55244
X195.72548 Y-24.57961 Z-0.64195
X195.26896 Y-24.80164 Z-0.73146
X194.79928 Y-24.99427 Z-0.82098
X194.31833 Y-25.15672 Z-0.91049
X193.82804 Y-25.28834 Z-1.
G02 X190.17196 Y-9.71166 I-1.82804 J7.78834 F192.
X193.82804 Y-25.28834 I1.82804 J-7.78834
G1 X193.88517 Y-25.53173
G03 X190.11483 Y-9.46827 I-1.88517 J8.03173
X193.88517 Y-25.53173 I1.88517 J-8.03173
G0 Z1.
X196.87733 Y-23.83702
G1 Z-0.9 F48.
X196.59173 Y-24.05103 Z-0.96293 F144.
X196.16699 Y-24.32907 Z-1.05244
X195.72548 Y-24.57961 Z-1.14195
X195.26896 Y-24.80164 Z-1.23146
X194.79928 Y-24.99427 Z-1.32098
X194.31833 Y-25.15672 Z-1.41049
X193.82804 Y-25.28834 Z-1.5
G02 X190.17196 Y-9.71166 I-1.82804 J7.78834 F192.
X193.82804 Y-25.28834 I1.82804 J-7.78834
G1 X193.88517 Y-25.53173
G03 X190.11483 Y-9.46827 I-1.88517 J8.03173
X193.88517 Y-25.53173 I1.88517 J-8.03173
G0 Z1.
X164.15878 Y-23.6834
G1 Z-0.9 F48.
X164.1074 Y-23.69091 Z-0.90916 F144.
X164.01511 Y-23.70299 Z-0.92557
X163.92265 Y-23.7137 Z-0.94198
X163.83004 Y-23.72303 Z-0.95839
X163.7373 Y-23.73097 Z-0.97481
X163.64445 Y-23.73754 Z-0.99122
X163.55152 Y-23.74272 Z-1.00763
X163.45852 Y-23.74652 Z-1.02404
X163.36547 Y-23.74893 Z-1.04046
X163.27239 Y-23.74996 Z-1.05687
X163.17932 Y-23.7496 Z-1.07328
X163.08625 Y-23.74785 Z-1.08969
X162.99323 Y-23.74472 Z-1.1061
X162.90026 Y-23.74021 Z-1.12252
X162.80737 Y-23.73431 Z-1.13893
X162.71457 Y-23.72702 Z-1.15534
X162.6219 Y-23.71836 Z-1.17175
X162.52936 Y-23.70832 Z-1.18817
X162.43699 Y-23.69689 Z-1.20458
X162.34479 Y-23.6841 Z-1.22099
X162.2528 Y-23.66993 Z-1.2374
X162.16102 Y-23.6544 Z-1.25381
X162.06949 Y-23.6375 Z-1.27023
X161.97822 Y-23.61924 Z-1.28664
X161.88723 Y-23.59962 Z-1.30305
X161.79655 Y-23.57865 Z-1.31946
X161.70618 Y-23.55633 Z-1.33588
X161.61616 Y-23.53267 Z-1.35229
X161.5265 Y-23.50767 Z-1.3687
X161.43723 Y-23.48133 Z-1.38511
X161.34835 Y-23.45367 Z-1.40153
X161.2599 Y-23.42469 Z-1.41794
X161.17189 Y-23.3944 Z-1.43435
X161.08434 Y-23.3628 Z-1.45076
X160.99727 Y-23.3299 Z-1.46718
X160.9107 Y-23.2957 Z-1.48359
X160.82465 Y-23.26022 Z-1.5
G02 X157.75 Y-20.46859 I2.42535 J5.76023 F192.
G1 Y-14.53141
G02 X168.75 I5.5 J-2.96859
G1 Y-20.46859
G02 X160.82465 Y-23.26022 I-5.5 J2.96859
G1 X160.72763 Y-23.49063
G03 X169. Y-20.53109 I2.52237 J5.99063
G1 Y-14.46891
G03 X157.5 I-5.75 J-3.03109
G1 Y-20.53109
G03 X160.72763 Y-23.49063 I5.75 J3.0311
G0 Z1.
X127.86385 Y-13.03819
G1 Z-0.9 F48.
X128.06678 Y-12.74461 Z-0.96293 F144.
X128.38134 Y-12.34617 Z-1.05244
X128.72054 Y-11.96847 Z-1.14195
X129.083 Y-11.61305 Z-1.23146
X129.46728 Y-11.28134 Z-1.32098
X129.87183 Y-10.97466 Z-1.41049
X130.29501 Y-10.69427 Z-1.5
G02 X138.70499 Y-24.30574 I4.20499 J-6.80573 F192.
X130.29501 Y-10.69427 I-4.20499 J6.80574
G1 X130.1636 Y-10.48159
G03 X138.8364 Y-24.51842 I4.3364 J-7.01841
X130.1636 Y-10.48159 I-4.3364 J7.01842
G0 Z1.
X26.43693 Y-36.49508
G1 Z-0.9 F48.
X26.60053 Y-36.33345 Z-0.94055 F144.
X26.83992 Y-36.12522 Z-0.9965
X27.09204 Y-35.9326 Z-1.05244
X27.35586 Y-35.75635 Z-1.10839
X27.63033 Y-35.5972 Z-1.16433
X27.91435 Y-35.45577 Z-1.22028
X28.20676 Y-35.33264 Z-1.27622
X28.50639 Y-35.2283 Z-1.33217
X28.81204 Y-35.14318 Z-1.38811
X29.12247 Y-35.07761 Z-1.44406
X29.43644 Y-35.03186 Z-1.5
G02 X30.56356 Y-44.96814 I0.56356 J-4.96814 F192.
X29.43644 Y-35.03186 I-0.56356 J4.96814
G1 X29.40826 Y-34.78346
G03 X30.59174 Y-45.21655 I0.59174 J-5.21654
X29.40826 Y-34.78346 I-0.59174 J5.21655
G0 Z1.
X26.43693 Y-36.49508
G1 Z-1.4 F48.
X26.60053 Y-36.33345 Z-1.44055 F144.
X26.83992 Y-36.12522 Z-1.4965
X27.09204 Y-35.9326 Z-1.55244
X27.35586 Y-35.75635 Z-1.60839
X27.63033 Y-35.5972 Z-1.66433
X27.91435 Y-35.45577 Z-1.72028
X28.20676 Y-35.33264 Z-1.77622
X28.50639 Y-35.2283 Z-1.83217
X28.81204 Y-35.14318 Z-1.88811
X29.12247 Y-35.07761 Z-1.94406
X29.43644 Y-35.03186 Z-2.
G02 X30.56356 Y-44.96814 I0.56356 J-4.96814 F192.
X29.43644 Y-35.03186 I-0.56356 J4.96814
G1 X29.40826 Y-34.78346
G03 X30.59174 Y-45.21655 I0.59174 J-5.21654
X29.40826 Y-34.78346 I-0.59174 J5.21655
G0 Z1.
X127.86385 Y-13.03819
G1 Z-1.4 F48.
X128.06678 Y-12.74461 Z-1.46293 F144.
X128.38134 Y-12.34617 Z-1.55244
X128.72054 Y-11.96847 Z-1.64195
X129.083 Y-11.61305 Z-1.73146
X129.46728 Y-11.28134 Z-1.82098
X129.87183 Y-10.97466 Z-1.91049
X130.29501 Y-10.69427 Z-2.
G02 X138.70499 Y-24.30574 I4.20499 J-6.80573 F192.
X130.29501 Y-10.69427 I-4.20499 J6.80574
G1 X130.1636 Y-10.48159
G03 X138.8364 Y-24.51842 I4.3364 J-7.01841
X130.1636 Y-10.48159 I-4.3364 J7.01842
G0 Z1.
X164.15878 Y-23.6834
G1 Z-1.4 F48.
X164.1074 Y-23.69091 Z-1.40916 F144.
X164.01511 Y-23.70299 Z-1.42557
X163.92265 Y-23.7137 Z-1.44198
X163.83004 Y-23.72303 Z-1.45839
X163.7373 Y-23.73097 Z-1.47481
X163.64445 Y-23.73754 Z-1.49122
X163.55152 Y-23.74272 Z-1.50763
X163.45852 Y-23.74652 Z-1.52404
X163.36547 Y-23.74893 Z-1.54045
X163.27239 Y-23.74996 Z-1.55687
X163.17932 Y-23.7496 Z-1.57328
X163.08625 Y-23.74785 Z-1.58969
X162.99323 Y-23.74472 Z-1.6061
X162.90026 Y-23.74021 Z-1.62252
X162.80737 Y-23.73431 Z-1.63893
X162.71457 Y-23.72702 Z-1.65534
X162.6219 Y-23.71836 Z-1.67175
X162.52936 Y-23.70832 Z-1.68817
X162.43699 Y-23.69689 Z-1.70458
X162.34479 Y-23.6841 Z-1.72099
X162.2528 Y-23.66993 Z-1.7374
X162.16102 Y-23.6544 Z-1.75381
X162.06949 Y-23.6375 Z-1.77023
X161.97822 Y-23.61924 Z-1.78664
X161.88723 Y-23.59962 Z-1.80305
X161.79655 Y-23.57865 Z-1.81946
X161.70618 Y-23.55633 Z-1.83588
X161.61616 Y-23.53267 Z-1.85229
X161.5265 Y-23.50767 Z-1.8687
X161.43723 Y-23.48133 Z-1.88511
X161.34835 Y-23.45367 Z-1.90153
X161.2599 Y-23.42469 Z-1.91794
X161.17189 Y-23.3944 Z-1.93435
X161.08434 Y-23.3628 Z-1.95076
X160.99727 Y-23.3299 Z-1.96718
X160.9107 Y-23.2957 Z-1.98359
X160.82465 Y-23.26022 Z-2.
G02 X157.75 Y-20.46859 I2.42535 J5.76023 F192.
G1 Y-14.53141
G02 X168.75 I5.5 J-2.96859
G1 Y-20.46859
G02 X160.82465 Y-23.26022 I-5.5 J2.96859
G1 X160.72763 Y-23.49063
G03 X169. Y-20.53109 I2.52237 J5.99063
G1 Y-14.46891
G03 X157.5 I-5.75 J-3.03109
G1 Y-20.53109
G03 X160.72763 Y-23.49063 I5.75 J3.0311
G0 Z1.
X196.87733 Y-23.83702
G1 Z-1.4 F48.
X196.59173 Y-24.05103 Z-1.46293 F144.
X196.16699 Y-24.32907 Z-1.55244
X195.72548 Y-24.57961 Z-1.64195
X195.26896 Y-24.80164 Z-1.73146
X194.79928 Y-24.99427 Z-1.82098
X194.31833 Y-25.15672 Z-1.91049
X193.82804 Y-25.28834 Z-2.
G02 X190.17196 Y-9.71166 I-1.82804 J7.78834 F192.
X193.82804 Y-25.28834 I1.82804 J-7.78834
G1 X193.88517 Y-25.53173
G03 X190.11483 Y-9.46827 I-1.88517 J8.03173
X193.88517 Y-25.53173 I1.88517 J-8.03173
G0 Z1.
X196.87733 Y-23.83702
G1 Z-1.9 F48.
X196.59173 Y-24.05103 Z-1.96293 F144.
X196.16699 Y-24.32907 Z-2.05244
X195.72548 Y-24.57961 Z-2.14195
X195.26896 Y-24.80164 Z-2.23146
X194.79928 Y-24.99427 Z-2.32098
X194.31833 Y-25.15672 Z-2.41049
X193.82804 Y-25.28834 Z-2.5
G02 X190.17196 Y-9.71166 I-1.82804 J7.78834 F192.
X193.82804 Y-25.28834 I1.82804 J-7.78834
G1 X193.88517 Y-25.53173
G03 X190.11483 Y-9.46827 I-1.88517 J8.03173
X193.88517 Y-25.53173 I1.88517 J-8.03173
G0 Z1.
X164.15878 Y-23.6834
G1 Z-1.9 F48.
X164.1074 Y-23.69091 Z-1.90916 F144.
X164.01511 Y-23.70299 Z-1.92557
X163.92265 Y-23.7137 Z-1.94198
X163.83004 Y-23.72303 Z-1.95839
X163.7373 Y-23.73097 Z-1.97481
X163.64445 Y-23.73754 Z-1.99122
X163.55152 Y-23.74272 Z-2.00763
X163.45852 Y-23.74652 Z-2.02404
X163.36547 Y-23.74893 Z-2.04046
X163.27239 Y-23.74996 Z-2.05687
X163.17932 Y-23.7496 Z-2.07328
X163.08625 Y-23.74785 Z-2.08969
X162.99323 Y-23.74472 Z-2.1061
X162.90026 Y-23.74021 Z-2.12252
X162.80737 Y-23.73431 Z-2.13893
X162.71457 Y-23.72702 Z-2.15534
X162.6219 Y-23.71836 Z-2.17175
X162.52936 Y-23.70832 Z-2.18817
X162.43699 Y-23.69689 Z-2.20458
X162.34479 Y-23.6841 Z-2.22099
X162.2528 Y-23.66993 Z-2.2374
X162.16102 Y-23.6544 Z-2.25382
X162.06949 Y-23.6375 Z-2.27023
X161.97822 Y-23.61924 Z-2.28664
X161.88723 Y-23.59962 Z-2.30305
X161.79655 Y-23.57865 Z-2.31946
X161.70618 Y-23.55633 Z-2.33588
X161.61616 Y-23.53267 Z-2.35229
X161.5265 Y-23.50767 Z-2.3687
X161.43723 Y-23.48133 Z-2.38511
X161.34835 Y-23.45367 Z-2.40153
X161.2599 Y-23.42469 Z-2.41794
X161.17189 Y-23.3944 Z-2.43435
X161.08434 Y-23.3628 Z-2.45076
X160.99727 Y-23.3299 Z-2.46718
X160.9107 Y-23.2957 Z-2.48359
X160.82465 Y-23.26022 Z-2.5
G02 X157.75 Y-20.46859 I2.42535 J5.76023 F192.
G1 Y-14.53141
G02 X168.75 I5.5 J-2.96859
G1 Y-20.46859
G02 X160.82465 Y-23.26022 I-5.5 J2.96859
G1 X160.72763 Y-23.49063
G03 X169. Y-20.53109 I2.52237 J5.99063
G1 Y-14.46891
G03 X157.5 I-5.75 J-3.03109
G1 Y-20.53109
G03 X160.72763 Y-23.49063 I5.75 J3.0311
G0 Z1.
X127.86385 Y-13.03819
G1 Z-1.9 F48.
X128.06678 Y-12.74461 Z-1.96293 F144.
X128.38134 Y-12.34617 Z-2.05244
X128.72054 Y-11.96847 Z-2.14195
X129.083 Y-11.61305 Z-2.23146
X129.46728 Y-11.28134 Z-2.32098
X129.87183 Y-10.97466 Z-2.41049
X130.29501 Y-10.69427 Z-2.5
G02 X138.70499 Y-24.30574 I4.20499 J-6.80573 F192.
X130.29501 Y-10.69427 I-4.20499 J6.80574
G1 X130.1636 Y-10.48159
G03 X138.8364 Y-24.51842 I4.3364 J-7.01841
X130.1636 Y-10.48159 I-4.3364 J7.01842
G0 Z1.
X26.43693 Y-36.49508
G1 Z-1.9 F48.
X26.60053 Y-36.33345 Z-1.94055 F144.
X26.83992 Y-36.12522 Z-1.9965
X27.09204 Y-35.9326 Z-2.05244
X27.35586 Y-35.75635 Z-2.10839
X27.63033 Y-35.5972 Z-2.16433
X27.91435 Y-35.45577 Z-2.22028
X28.20676 Y-35.33264 Z-2.27622
X28.50639 Y-35.2283 Z-2.33217
X28.81204 Y-35.14318 Z-2.38811
X29.12247 Y-35.07761 Z-2.44406
X29.43644 Y-35.03186 Z-2.5
G02 X30.56356 Y-44.96814 I0.56356 J-4.96814 F192.
X29.43644 Y-35.03186 I-0.56356 J4.96814
G1 X29.40826 Y-34.78346
G03 X30.59174 Y-45.21655 I0.59174 J-5.21654
X29.40826 Y-34.78346 I-0.59174 J5.21655
G0 Z1.
X26.43693 Y-36.49508
G1 Z-2.4 F48.
X26.60053 Y-36.33345 Z-2.44055 F144.
X26.83992 Y-36.12522 Z-2.4965
X27.09204 Y-35.9326 Z-2.55244
X27.35586 Y-35.75635 Z-2.60839
X27.63033 Y-35.5972 Z-2.66433
X27.91435 Y-35.45577 Z-2.72028
X28.20676 Y-35.33264 Z-2.77622
X28.50639 Y-35.2283 Z-2.83217
X28.81204 Y-35.14318 Z-2.88811
X29.12247 Y-35.07761 Z-2.94406
X29.43644 Y-35.03186 Z-3.
G02 X30.56356 Y-44.96814 I0.56356 J-4.96814 F192.
X29.43644 Y-35.03186 I-0.56356 J4.96814
G1 X29.40826 Y-34.78346
G03 X30.59174 Y-45.21655 I0.59174 J-5.21654
X29.40826 Y-34.78346 I-0.59174 J5.21655
G0 Z1.
X127.86385 Y-13.03819
G1 Z-2.4 F48.
X128.06678 Y-12.74461 Z-2.46293 F144.
X128.38134 Y-12.34617 Z-2.55244
X128.72054 Y-11.96847 Z-2.64195
X129.083 Y-11.61305 Z-2.73146
X129.46728 Y-11.28134 Z-2.82098
X129.87183 Y-10.97466 Z-2.91049
X130.29501 Y-10.69427 Z-3.
G02 X138.70499 Y-24.30574 I4.20499 J-6.80573 F192.
X130.29501 Y-10.69427 I-4.20499 J6.80574
G1 X130.1636 Y-10.48159
G03 X138.8364 Y-24.51842 I4.3364 J-7.01841
X130.1636 Y-10.48159 I-4.3364 J7.01842
G0 Z1.
X164.15878 Y-23.6834
G1 Z-2.4 F48.
X164.1074 Y-23.69091 Z-2.40916 F144.
X164.01511 Y-23.70299 Z-2.42557
X163.92265 Y-23.7137 Z-2.44198
X163.83004 Y-23.72303 Z-2.45839
X163.7373 Y-23.73097 Z-2.47481
X163.64445 Y-23.73754 Z-2.49122
X163.55152 Y-23.74272 Z-2.50763
X163.45852 Y-23.74652 Z-2.52404
X163.36547 Y-23.74893 Z-2.54046
X163.27239 Y-23.74996 Z-2.55687
X163.17932 Y-23.7496 Z-2.57328
X163.08625 Y-23.74785 Z-2.58969
X162.99323 Y-23.74472 Z-2.6061
X162.90026 Y-23.74021 Z-2.62252
X162.80737 Y-23.73431 Z-2.63893
X162.71457 Y-23.72702 Z-2.65534
X162.6219 Y-23.71836 Z-2.67175
X162.52936 Y-23.70832 Z-2.68817
X162.43699 Y-23.69689 Z-2.70458
X162.34479 Y-23.6841 Z-2.72099
X162.2528 Y-23.66993 Z-2.7374
X162.16102 Y-23.6544 Z-2.75381
X162.06949 Y-23.6375 Z-2.77023
X161.97822 Y-23.61924 Z-2.78664
X161.88723 Y-23.59962 Z-2.80305
X161.79655 Y-23.57865 Z-2.81946
X161.70618 Y-23.55633 Z-2.83588
X161.61616 Y-23.53267 Z-2.85229
X161.5265 Y-23.50767 Z-2.8687
X161.43723 Y-23.48133 Z-2.88511
X161.34835 Y-23.45367 Z-2.90153
X161.2599 Y-23.42469 Z-2.91794
X161.17189 Y-23.3944 Z-2.93435
X161.08434 Y-23.3628 Z-2.95076
X160.99727 Y-23.3299 Z-2.96718
X160.9107 Y-23.2957 Z-2.98359
X160.82465 Y-23.26022 Z-3.
G02 X157.75 Y-20.46859 I2.42535 J5.76023 F192.
G1 Y-14.53141
G02 X168.75 I5.5 J-2.96859
G1 Y-20.46859
G02 X160.82465 Y-23.26022 I-5.5 J2.96859
G1 X160.72763 Y-23.49063
G03 X169. Y-20.53109 I2.52237 J5.99063
G1 Y-14.46891
G03 X157.5 I-5.75 J-3.03109
G1 Y-20.53109
G03 X160.72763 Y-23.49063 I5.75 J3.0311
G0 Z1.
X196.87733 Y-23.83702
G1 Z-2.4 F48.
X196.59173 Y-24.05103 Z-2.46293 F144.
X196.16699 Y-24.32907 Z-2.55244
X195.72548 Y-24.57961 Z-2.64195
X195.26896 Y-24.80164 Z-2.73146
X194.79928 Y-24.99427 Z-2.82098
X194.31833 Y-25.15672 Z-2.91049
X193.82804 Y-25.28834 Z-3.
G02 X190.17196 Y-9.71166 I-1.82804 J7.78834 F192.
X193.82804 Y-25.28834 I1.82804 J-7.78834
G1 X193.88517 Y-25.53173
G03 X190.11483 Y-9.46827 I-1.88517 J8.03173
X193.88517 Y-25.53173 I1.88517 J-8.03173
G0 Z1.
X196.87733 Y-23.83702
G1 Z-2.9 F48.
X196.59173 Y-24.05103 Z-2.96293 F144.
X196.16699 Y-24.32907 Z-3.05244
X195.72548 Y-24.57961 Z-3.14195
X195.26896 Y-24.80164 Z-3.23146
X194.79928 Y-24.99427 Z-3.32098
X194.31833 Y-25.15672 Z-3.41049
X193.82804 Y-25.28834 Z-3.5
G02 X190.17196 Y-9.71166 I-1.82804 J7.78834 F192.
X193.82804 Y-25.28834 I1.82804 J-7.78834
G1 X193.88517 Y-25.53173
G03 X190.11483 Y-9.46827 I-1.88517 J8.03173
X193.88517 Y-25.53173 I1.88517 J-8.03173
G0 Z1.
X164.15878 Y-23.6834
G1 Z-2.9 F48.
X164.1074 Y-23.69091 Z-2.90916 F144.
X164.01511 Y-23.70299 Z-2.92557
X163.92265 Y-23.7137 Z-2.94198
X163.83004 Y-23.72303 Z-2.95839
X163.7373 Y-23.73097 Z-2.97481
X163.64445 Y-23.73754 Z-2.99122
X163.55152 Y-23.74272 Z-3.00763
X163.45852 Y-23.74652 Z-3.02404
X163.36547 Y-23.74893 Z-3.04046
X163.27239 Y-23.74996 Z-3.05687
X163.17932 Y-23.7496 Z-3.07328
X163.08625 Y-23.74785 Z-3.08969
X162.99323 Y-23.74472 Z-3.1061
X162.90026 Y-23.74021 Z-3.12252
X162.80737 Y-23.73431 Z-3.13893
X162.71457 Y-23.72702 Z-3.15534
X162.6219 Y-23.71836 Z-3.17175
X162.52936 Y-23.70832 Z-3.18817
X162.43699 Y-23.69689 Z-3.20458
X162.34479 Y-23.6841 Z-3.22099
X162.2528 Y-23.66993 Z-3.2374
X162.16102 Y-23.6544 Z-3.25382
X162.06949 Y-23.6375 Z-3.27023
X161.97822 Y-23.61924 Z-3.28664
X161.88723 Y-23.59962 Z-3.30305
X161.79655 Y-23.57865 Z-3.31946
X161.70618 Y-23.55633 Z-3.33588
X161.61616 Y-23.53267 Z-3.35229
X161.5265 Y-23.50767 Z-3.3687
X161.43723 Y-23.48133 Z-3.38511
X161.34835 Y-23.45367 Z-3.40153
X161.2599 Y-23.42469 Z-3.41794
X161.17189 Y-23.3944 Z-3.43435
X161.08434 Y-23.3628 Z-3.45076
X160.99727 Y-23.3299 Z-3.46718
X160.9107 Y-23.2957 Z-3.48359
X160.82465 Y-23.26022 Z-3.5
G02 X157.75 Y-20.46859 I2.42535 J5.76023 F192.
G1 Y-14.53141
G02 X168.75 I5.5 J-2.96859
G1 Y-20.46859
G02 X160.82465 Y-23.26022 I-5.5 J2.96859
G1 X160.72763 Y-23.49063
G03 X169. Y-20.53109 I2.52237 J5.99063
G1 Y-14.46891
G03 X157.5 I-5.75 J-3.03109
G1 Y-20.53109
G03 X160.72763 Y-23.49063 I5.75 J3.0311
G0 Z1.
X127.86385 Y-13.03819
G1 Z-2.9 F48.
X128.06678 Y-12.74461 Z-2.96293 F144.
X128.38134 Y-12.34617 Z-3.05244
X128.72054 Y-11.96847 Z-3.14195
X129.083 Y-11.61305 Z-3.23146
X129.46728 Y-11.28134 Z-3.32098
X129.87183 Y-10.97466 Z-3.41049
X130.29501 Y-10.69427 Z-3.5
G02 X138.70499 Y-24.30574 I4.20499 J-6.80573 F192.
X130.29501 Y-10.69427 I-4.20499 J6.80574
G1 X130.1636 Y-10.48159
G03 X138.8364 Y-24.51842 I4.3364 J-7.01841
X130.1636 Y-10.48159 I-4.3364 J7.01842
G0 Z1.
X26.43693 Y-36.49508
G1 Z-2.9 F48.
X26.60053 Y-36.33345 Z-2.94055 F144.
X26.83992 Y-36.12522 Z-2.9965
X27.09204 Y-35.9326 Z-3.05244
X27.35586 Y-35.75635 Z-3.10839
X27.63033 Y-35.5972 Z-3.16433
X27.91435 Y-35.45577 Z-3.22028
X28.20676 Y-35.33264 Z-3.27622
X28.50639 Y-35.2283 Z-3.33217
X28.81204 Y-35.14318 Z-3.38811
X29.12247 Y-35.07761 Z-3.44406
X29.43644 Y-35.03186 Z-3.5
G02 X30.56356 Y-44.96814 I0.56356 J-4.96814 F192.
X29.43644 Y-35.03186 I-0.56356 J4.96814
G1 X29.40826 Y-34.78346
G03 X30.59174 Y-45.21655 I0.59174 J-5.21654
X29.40826 Y-34.78346 I-0.59174 J5.21655
G0 Z1.
X26.43693 Y-36.49508
G1 Z-3.4 F48.
X26.60053 Y-36.33345 Z-3.44055 F144.
X26.83992 Y-36.12522 Z-3.4965
X27.09204 Y-35.9326 Z-3.55244
X27.35586 Y-35.75635 Z-3.60839
X27.63033 Y-35.5972 Z-3.66433
X27.91435 Y-35.45577 Z-3.72028
X28.20676 Y-35.33264 Z-3.77622
X28.50639 Y-35.2283 Z-3.83217
X28.81204 Y-35.14318 Z-3.88811
X29.12247 Y-35.07761 Z-3.94406
X29.43644 Y-35.03186 Z-4.
G02 X30.56356 Y-44.96814 I0.56356 J-4.96814 F192.
X29.43644 Y-35.03186 I-0.56356 J4.96814
G1 X29.40826 Y-34.78346
G03 X30.59174 Y-45.21655 I0.59174 J-5.21654
X29.40826 Y-34.78346 I-0.59174 J5.21655
G0 Z1.
X127.86385 Y-13.03819
G1 Z-3.4 F48.
X128.06678 Y-12.74461 Z-3.46293 F144.
X128.38134 Y-12.34617 Z-3.55244
X128.72054 Y-11.96847 Z-3.64195
X129.083 Y-11.61305 Z-3.73146
X129.46728 Y-11.28134 Z-3.82098
X129.87183 Y-10.97466 Z-3.91049
X130.29501 Y-10.69427 Z-4.
G02 X138.70499 Y-24.30574 I4.20499 J-6.80573 F192.
X130.29501 Y-10.69427 I-4.20499 J6.80574
G1 X130.1636 Y-10.48159
G03 X138.8364 Y-24.51842 I4.3364 J-7.01841
X130.1636 Y-10.48159 I-4.3364 J7.01842
G0 Z1.
X164.15878 Y-23.6834
G1 Z-3.4 F48.
X164.1074 Y-23.69091 Z-3.40916 F144.
X164.01511 Y-23.70299 Z-3.42557
X163.92265 Y-23.7137 Z-3.44198
X163.83004 Y-23.72303 Z-3.45839
X163.7373 Y-23.73097 Z-3.47481
X163.64445 Y-23.73754 Z-3.49122
X163.55152 Y-23.74272 Z-3.50763
X163.45852 Y-23.74652 Z-3.52404
X163.36547 Y-23.74893 Z-3.54046
X163.27239 Y-23.74996 Z-3.55687
X163.17932 Y-23.7496 Z-3.57328
X163.08625 Y-23.74785 Z-3.58969
X162.99323 Y-23.74472 Z-3.6061
X162.90026 Y-23.74021 Z-3.62252
X162.80737 Y-23.73431 Z-3.63893
X162.71457 Y-23.72702 Z-3.65534
X162.6219 Y-23.71836 Z-3.67175
X162.52936 Y-23.70832 Z-3.68817
X162.43699 Y-23.69689 Z-3.70458
X162.34479 Y-23.6841 Z-3.72099
X162.2528 Y-23.66993 Z-3.7374
X162.16102 Y-23.6544 Z-3.75382
X162.06949 Y-23.6375 Z-3.77023
X161.97822 Y-23.61924 Z-3.78664
X161.88723 Y-23.59962 Z-3.80305
X161.79655 Y-23.57865 Z-3.81946
X161.70618 Y-23.55633 Z-3.83588
X161.61616 Y-23.53267 Z-3.85229
X161.5265 Y-23.50767 Z-3.8687
X161.43723 Y-23.48133 Z-3.88511
X161.34835 Y-23.45367 Z-3.90153
X161.2599 Y-23.42469 Z-3.91794
X161.17189 Y-23.3944 Z-3.93435
X161.08434 Y-23.3628 Z-3.95076
X160.99727 Y-23.3299 Z-3.96718
X160.9107 Y-23.2957 Z-3.98359
X160.82465 Y-23.26022 Z-4.
G02 X157.75 Y-20.46859 I2.42535 J5.76023 F192.
G1 Y-14.53141
G02 X168.75 I5.5 J-2.96859
G1 Y-20.46859
G02 X160.82465 Y-23.26022 I-5.5 J2.96859
G1 X160.72763 Y-23.49063
G03 X169. Y-20.53109 I2.52237 J5.99063
G1 Y-14.46891
G03 X157.5 I-5.75 J-3.03109
G1 Y-20.53109
G03 X160.72763 Y-23.49063 I5.75 J3.0311
G0 Z1.
X196.87733 Y-23.83702
G1 Z-3.4 F48.
X196.59173 Y-24.05103 Z-3.46293 F144.
X196.16699 Y-24.32907 Z-3.55244
X195.72548 Y-24.57961 Z-3.64195
X195.26896 Y-24.80164 Z-3.73146
X194.79928 Y-24.99427 Z-3.82098
X194.31833 Y-25.15672 Z-3.91049
X193.82804 Y-25.28834 Z-4.
G02 X190.17196 Y-9.71166 I-1.82804 J7.78834 F192.
X193.82804 Y-25.28834 I1.82804 J-7.78834
G1 X193.88517 Y-25.53173
G03 X190.11483 Y-9.46827 I-1.88517 J8.03173
X193.88517 Y-25.53173 I1.88517 J-8.03173
G0 Z1.
X196.87733 Y-23.83702
G1 Z-3.9 F48.
X196.59173 Y-24.05103 Z-3.96293 F144.
X196.16699 Y-24.32907 Z-4.05244
X195.72548 Y-24.57961 Z-4.14195
X195.26896 Y-24.80164 Z-4.23146
X194.79928 Y-24.99427 Z-4.32098
X194.31833 Y-25.15672 Z-4.41049
X193.82804 Y-25.28834 Z-4.5
G02 X190.17196 Y-9.71166 I-1.82804 J7.78834 F192.
X193.82804 Y-25.28834 I1.82804 J-7.78834
G1 X193.88517 Y-25.53173
G03 X190.11483 Y-9.46827 I-1.88517 J8.03173
X193.88517 Y-25.53173 I1.88517 J-8.03173
G0 Z1.
X164.15878 Y-23.6834
G1 Z-3.9 F48.
X164.1074 Y-23.69091 Z-3.90916 F144.
X164.01511 Y-23.70299 Z-3.92557
X163.92265 Y-23.7137 Z-3.94198
X163.83004 Y-23.72303 Z-3.95839
X163.7373 Y-23.73097 Z-3.97481
X163.64445 Y-23.73754 Z-3.99122
X163.55152 Y-23.74272 Z-4.00763
X163.45852 Y-23.74652 Z-4.02404
X163.36547 Y-23.74893 Z-4.04046
X163.27239 Y-23.74996 Z-4.05687
X163.17932 Y-23.7496 Z-4.07328
X163.08625 Y-23.74785 Z-4.08969
X162.99323 Y-23.74472 Z-4.1061
X162.90026 Y-23.74021 Z-4.12252
X162.80737 Y-23.73431 Z-4.13893
X162.71457 Y-23.72702 Z-4.15534
X162.6219 Y-23.71836 Z-4.17175
X162.52936 Y-23.70832 Z-4.18817
X162.43699 Y-23.69689 Z-4.20458
X162.34479 Y-23.6841 Z-4.22099
X162.2528 Y-23.66993 Z-4.2374
X162.16102 Y-23.6544 Z-4.25382
X162.06949 Y-23.6375 Z-4.27023
X161.97822 Y-23.61924 Z-4.28664
X161.88723 Y-23.59962 Z-4.30305
X161.79655 Y-23.57865 Z-4.31946
X161.70618 Y-23.55633 Z-4.33588
X161.61616 Y-23.53267 Z-4.35229
X161.5265 Y-23.50767 Z-4.3687
X161.43723 Y-23.48133 Z-4.38511
X161.34835 Y-23.45367 Z-4.40153
X161.2599 Y-23.42469 Z-4.41794
X161.17189 Y-23.3944 Z-4.43435
X161.08434 Y-23.3628 Z-4.45076
X160.99727 Y-23.3299 Z-4.46718
X160.9107 Y-23.2957 Z-4.48359
X160.82465 Y-23.26022 Z-4.5
G02 X157.75 Y-20.46859 I2.42535 J5.76023 F192.
G1 Y-14.53141
G02 X168.75 I5.5 J-2.96859
G1 Y-20.46859
G02 X160.82465 Y-23.26022 I-5.5 J2.96859
G1 X160.72763 Y-23.49063
G03 X169. Y-20.53109 I2.52237 J5.99063
G1 Y-14.46891
G03 X157.5 I-5.75 J-3.03109
G1 Y-20.53109
G03 X160.72763 Y-23.49063 I5.75 J3.0311
G0 Z1.
X127.86385 Y-13.03819
G1 Z-3.9 F48.
X128.06678 Y-12.74461 Z-3.96293 F144.
X128.38134 Y-12.34617 Z-4.05244
X128.72054 Y-11.96847 Z-4.14195
X129.083 Y-11.61305 Z-4.23146
X129.46728 Y-11.28134 Z-4.32098
X129.87183 Y-10.97466 Z-4.41049
X130.29501 Y-10.69427 Z-4.5
G02 X138.70499 Y-24.30574 I4.20499 J-6.80573 F192.
X130.29501 Y-10.69427 I-4.20499 J6.80574
G1 X130.1636 Y-10.48159
G03 X138.8364 Y-24.51842 I4.3364 J-7.01841
X130.1636 Y-10.48159 I-4.3364 J7.01842
G0 Z1.
X26.43693 Y-36.49508
G1 Z-3.9 F48.
X26.60053 Y-36.33345 Z-3.94055 F144.
X26.83992 Y-36.12522 Z-3.9965
X27.09204 Y-35.9326 Z-4.05244
X27.35586 Y-35.75635 Z-4.10839
X27.63033 Y-35.5972 Z-4.16433
X27.91435 Y-35.45577 Z-4.22028
X28.20676 Y-35.33264 Z-4.27622
X28.50639 Y-35.2283 Z-4.33217
X28.81204 Y-35.14318 Z-4.38811
X29.12247 Y-35.07761 Z-4.44405
X29.43644 Y-35.03186 Z-4.5
G02 X30.56356 Y-44.96814 I0.56356 J-4.96814 F192.
X29.43644 Y-35.03186 I-0.56356 J4.96814
G1 X29.40826 Y-34.78346
G03 X30.59174 Y-45.21655 I0.59174 J-5.21654
X29.40826 Y-34.78346 I-0.59174 J5.21655
G0 Z1.
X26.43693 Y-36.49508
G1 Z-4.4 F48.
X26.60053 Y-36.33345 Z-4.44055 F144.
X26.83992 Y-36.12522 Z-4.4965
X27.09204 Y-35.9326 Z-4.55244
X27.35586 Y-35.75635 Z-4.60839
X27.63033 Y-35.5972 Z-4.66433
X27.91435 Y-35.45577 Z-4.72028
X28.20676 Y-35.33264 Z-4.77622
X28.50639 Y-35.2283 Z-4.83217
X28.81204 Y-35.14318 Z-4.88811
X29.12247 Y-35.07761 Z-4.94405
X29.43644 Y-35.03186 Z-5.
G02 X30.56356 Y-44.96814 I0.56356 J-4.96814 F192.
X29.43644 Y-35.03186 I-0.56356 J4.96814
G1 X29.40826 Y-34.78346
G03 X30.59174 Y-45.21655 I0.59174 J-5.21654
X29.40826 Y-34.78346 I-0.59174 J5.21655
G0 Z1.
X127.86385 Y-13.03819
G1 Z-4.4 F48.
X128.06678 Y-12.74461 Z-4.46293 F144.
X128.38134 Y-12.34617 Z-4.55244
X128.72054 Y-11.96847 Z-4.64195
X129.083 Y-11.61305 Z-4.73146
X129.46728 Y-11.28134 Z-4.82098
X129.87183 Y-10.97466 Z-4.91049
X130.29501 Y-10.69427 Z-5.
G02 X138.70499 Y-24.30574 I4.20499 J-6.80573 F192.
X130.29501 Y-10.69427 I-4.20499 J6.80574
G1 X130.1636 Y-10.48159
G03 X138.8364 Y-24.51842 I4.3364 J-7.01841
X130.1636 Y-10.48159 I-4.3364 J7.01842
G0 Z1.
X164.15878 Y-23.6834
G1 Z-4.4 F48.
X164.1074 Y-23.69091 Z-4.40916 F144.
X164.01511 Y-23.70299 Z-4.42557
X163.92265 Y-23.7137 Z-4.44198
X163.83004 Y-23.72303 Z-4.45839
X163.7373 Y-23.73097 Z-4.47481
X163.64445 Y-23.73754 Z-4.49122
X163.55152 Y-23.74272 Z-4.50763
X163.45852 Y-23.74652 Z-4.52404
X163.36547 Y-23.74893 Z-4.54046
X163.27239 Y-23.74996 Z-4.55687
X163.17932 Y-23.7496 Z-4.57328
X163.08625 Y-23.74785 Z-4.58969
X162.99323 Y-23.74472 Z-4.6061
X162.90026 Y-23.74021 Z-4.62252
X162.80737 Y-23.73431 Z-4.63893
X162.71457 Y-23.72702 Z-4.65534
X162.6219 Y-23.71836 Z-4.67175
X162.52936 Y-23.70832 Z-4.68817
X162.43699 Y-23.69689 Z-4.70458
X162.34479 Y-23.6841 Z-4.72099
X162.2528 Y-23.66993 Z-4.7374
X162.16102 Y-23.6544 Z-4.75382
X162.06949 Y-23.6375 Z-4.77023
X161.97822 Y-23.61924 Z-4.78664
X161.88723 Y-23.59962 Z-4.80305
X161.79655 Y-23.57865 Z-4.81946
X161.70618 Y-23.55633 Z-4.83588
X161.61616 Y-23.53267 Z-4.85229
X161.5265 Y-23.50767 Z-4.8687
X161.43723 Y-23.48133 Z-4.88511
X161.34835 Y-23.45367 Z-4.90153
X161.2599 Y-23.42469 Z-4.91794
X161.17189 Y-23.3944 Z-4.93435
X161.08434 Y-23.3628 Z-4.95076
X160.99727 Y-23.3299 Z-4.96718
X160.9107 Y-23.2957 Z-4.98359
X160.82465 Y-23.26022 Z-5.
G02 X157.75 Y-20.46859 I2.42535 J5.76023 F192.
G1 Y-14.53141
G02 X168.75 I5.5 J-2.96859
G1 Y-20.46859
G02 X160.82465 Y-23.26022 I-5.5 J2.96859
G1 X160.72763 Y-23.49063
G03 X169. Y-20.53109 I2.52237 J5.99063
G1 Y-14.46891
G03 X157.5 I-5.75 J-3.03109
G1 Y-20.53109
G03 X160.72763 Y-23.49063 I5.75 J3.0311
G0 Z1.
X196.87733 Y-23.83702
G1 Z-4.4 F48.
X196.59173 Y-24.05103 Z-4.46293 F144.
X196.16699 Y-24.32907 Z-4.55244
X195.72548 Y-24.57961 Z-4.64195
X195.26896 Y-24.80164 Z-4.73146
X194.79928 Y-24.99427 Z-4.82098
X194.31833 Y-25.15672 Z-4.91049
X193.82804 Y-25.28834 Z-5.
G02 X190.17196 Y-9.71166 I-1.82804 J7.78834 F192.
X193.82804 Y-25.28834 I1.82804 J-7.78834
G1 X193.88517 Y-25.53173
G03 X190.11483 Y-9.46827 I-1.88517 J8.03173
X193.88517 Y-25.53173 I1.88517 J-8.03173
G0 Z1.
M30
%
