%
G17 G21 G40 G90 G64 P0.1
(2 1/2 Axis Profiling)
(Endmill 1mm Carbide )
T42 M06
S23873 M3
G0 Z6.
X3.6826 Y-27.01898
G1 Z0.125 F175.
X3.72748 Y-27.05384 Z0.12103 F525.
X3.83353 Y-27.12448 Z0.11212
X3.94444 Y-27.18722 Z0.10321
X4.05962 Y-27.24172 Z0.0943
X4.17846 Y-27.28769 Z0.08538
X4.30033 Y-27.32489 Z0.07648
X4.42458 Y-27.35313 Z0.06756
X4.55056 Y-27.37225 Z0.05865
X4.6776 Y-27.38215 Z0.04974
X4.80502 Y-27.38279 Z0.04083
X4.93215 Y-27.37414 Z0.03192
X5.05832 Y-27.35628 Z0.02301
X5.18285 Y-27.32928 Z0.0141
X5.30508 Y-27.29329 Z0.00519
X5.42437 Y-27.2485 Z-0.00372
X5.54009 Y-27.19514 Z-0.01263
X5.65162 Y-27.13351 Z-0.02154
X5.75836 Y-27.06393 Z-0.03045
X5.85976 Y-26.98677 Z-0.03936
X5.95528 Y-26.90243 Z-0.04827
X6.04441 Y-26.81136 Z-0.05718
X6.12667 Y-26.71405 Z-0.06609
X6.20164 Y-26.61102 Z-0.075
X6.36453 Y-26.29658 F700.
X6.5 Y-25.58639
Y-23.13365
G17
G03 X3. I-1.75 J0.
G1 Y-25.63365
G03 X6.20164 Y-26.61102 I1.75 J0.
G0 Z6.
X3.6826 Y-27.01898
G1 Z0.05 F175.
X3.72748 Y-27.05384 Z0.04603 F525.
X3.83353 Y-27.12448 Z0.03712
X3.94444 Y-27.18722 Z0.02821
X4.05962 Y-27.24172 Z0.0193
X4.17846 Y-27.28769 Z0.01038
X4.30033 Y-27.32489 Z0.00147
X4.42458 Y-27.35313 Z-0.00744
X4.55056 Y-27.37225 Z-0.01635
X4.6776 Y-27.38215 Z-0.02526
X4.80502 Y-27.38279 Z-0.03417
X4.93215 Y-27.37414 Z-0.04308
X5.05832 Y-27.35628 Z-0.05199
X5.18285 Y-27.32928 Z-0.0609
X5.30508 Y-27.29329 Z-0.06981
X5.42437 Y-27.2485 Z-0.07872
X5.54009 Y-27.19514 Z-0.08763
X5.65162 Y-27.13351 Z-0.09654
X5.75836 Y-27.06393 Z-0.10545
X5.85976 Y-26.98677 Z-0.11436
X5.95528 Y-26.90243 Z-0.12327
X6.04441 Y-26.81136 Z-0.13218
X6.12667 Y-26.71405 Z-0.14109
X6.20164 Y-26.61102 Z-0.15
X6.36453 Y-26.29658 F700.
X6.5 Y-25.58639
Y-23.13365
G03 X3. I-1.75 J0.
G1 Y-25.63365
G03 X6.20164 Y-26.61102 I1.75 J0.
G0 Z6.
X3.6826 Y-27.01898
G1 Z-0.025 F175.
X3.72748 Y-27.05384 Z-0.02897 F525.
X3.83353 Y-27.12448 Z-0.03788
X3.94444 Y-27.18722 Z-0.04679
X4.05962 Y-27.24172 Z-0.05571
X4.17846 Y-27.28769 Z-0.06462
X4.30033 Y-27.32489 Z-0.07352
X4.42458 Y-27.35313 Z-0.08244
X4.55056 Y-27.37225 Z-0.09135
X4.6776 Y-27.38215 Z-0.10026
X4.80502 Y-27.38279 Z-0.10917
X4.93215 Y-27.37414 Z-0.11808
X5.05832 Y-27.35628 Z-0.12699
X5.18285 Y-27.32928 Z-0.1359
X5.30508 Y-27.29329 Z-0.14481
X5.42437 Y-27.2485 Z-0.15372
X5.54009 Y-27.19514 Z-0.16263
X5.65162 Y-27.13351 Z-0.17154
X5.75836 Y-27.06393 Z-0.18045
X5.85976 Y-26.98677 Z-0.18936
X5.95528 Y-26.90243 Z-0.19827
X6.04441 Y-26.81136 Z-0.20718
X6.12667 Y-26.71405 Z-0.21609
X6.20164 Y-26.61102 Z-0.225
X6.36453 Y-26.29658 F700.
X6.5 Y-25.58639
Y-23.13365
G03 X3. I-1.75 J0.
G1 Y-25.63365
G03 X6.20164 Y-26.61102 I1.75 J0.
G0 Z6.
X3.6826 Y-27.01898
G1 Z-0.1 F175.
X3.72748 Y-27.05384 Z-0.10397 F525.
X3.83353 Y-27.12448 Z-0.11288
X3.94444 Y-27.18722 Z-0.12179
X4.05962 Y-27.24172 Z-0.1307
X4.17846 Y-27.28769 Z-0.13962
X4.30033 Y-27.32489 Z-0.14852
X4.42458 Y-27.35313 Z-0.15744
X4.55056 Y-27.37225 Z-0.16635
X4.6776 Y-27.38215 Z-0.17526
X4.80502 Y-27.38279 Z-0.18417
X4.93215 Y-27.37414 Z-0.19308
X5.05832 Y-27.35628 Z-0.20199
X5.18285 Y-27.32928 Z-0.2109
X5.30508 Y-27.29329 Z-0.21981
X5.42437 Y-27.2485 Z-0.22872
X5.54009 Y-27.19514 Z-0.23763
X5.65162 Y-27.13351 Z-0.24654
X5.75836 Y-27.06393 Z-0.25545
X5.85976 Y-26.98677 Z-0.26436
X5.95528 Y-26.90243 Z-0.27327
X6.04441 Y-26.81136 Z-0.28218
X6.12667 Y-26.71405 Z-0.29109
X6.20164 Y-26.61102 Z-0.3
X6.36453 Y-26.29658 F700.
X6.5 Y-25.58639
Y-23.13365
G03 X3. I-1.75 J0.
G1 Y-25.63365
G03 X6.20164 Y-26.61102 I1.75 J0.
G0 Z6.
X18.5 Y-24.14781
G1 Z0.125 F175.
Y-25.63365 Z0.0211 F525.
X18.5024 Y-25.72524 Z0.01469
X18.50959 Y-25.81658 Z0.00829
X18.52154 Y-25.90741 Z0.00188
X18.53824 Y-25.9975 Z-0.00453
X18.55963 Y-26.08658 Z-0.01093
X18.58565 Y-26.17443 Z-0.01734
X18.61623 Y-26.2608 Z-0.02375
X18.65129 Y-26.34544 Z-0.03015
X18.69074 Y-26.42813 Z-0.03656
X18.73446 Y-26.50865 Z-0.04297
X18.78233 Y-26.58677 Z-0.04937
X18.83422 Y-26.66228 Z-0.05578
X18.88999 Y-26.73496 Z-0.06219
X18.9495 Y-26.80463 Z-0.06859
X19.01256 Y-26.87109 Z-0.075
G03 X22. Y-25.63365 I1.23744 J1.23744 F700.
G1 Y-23.13365
G03 X18.5 I-1.75 J0.
G1 Y-25.63365
G03 X19.01256 Y-26.87109 I1.75 J0.
G0 Z6.
X18.5 Y-24.14781
G1 Z0.05 F175.
Y-25.63365 Z-0.0539 F525.
X18.5024 Y-25.72524 Z-0.06031
X18.50959 Y-25.81658 Z-0.06671
X18.52154 Y-25.90741 Z-0.07312
X18.53824 Y-25.9975 Z-0.07953
X18.55963 Y-26.08658 Z-0.08593
X18.58565 Y-26.17443 Z-0.09234
X18.61623 Y-26.2608 Z-0.09875
X18.65129 Y-26.34544 Z-0.10515
X18.69074 Y-26.42813 Z-0.11156
X18.73446 Y-26.50865 Z-0.11797
X18.78233 Y-26.58677 Z-0.12437
X18.83422 Y-26.66228 Z-0.13078
X18.88999 Y-26.73496 Z-0.13719
X18.9495 Y-26.80463 Z-0.14359
X19.01256 Y-26.87109 Z-0.15
G03 X22. Y-25.63365 I1.23744 J1.23744 F700.
G1 Y-23.13365
G03 X18.5 I-1.75 J0.
G1 Y-25.63365
G03 X19.01256 Y-26.87109 I1.75 J0.
G0 Z6.
X18.5 Y-24.14781
G1 Z-0.025 F175.
Y-25.63365 Z-0.1289 F525.
X18.5024 Y-25.72524 Z-0.13531
X18.50959 Y-25.81658 Z-0.14171
X18.52154 Y-25.90741 Z-0.14812
X18.53824 Y-25.9975 Z-0.15453
X18.55963 Y-26.08658 Z-0.16093
X18.58565 Y-26.17443 Z-0.16734
X18.61623 Y-26.2608 Z-0.17375
X18.65129 Y-26.34544 Z-0.18015
X18.69074 Y-26.42813 Z-0.18656
X18.73446 Y-26.50865 Z-0.19297
X18.78233 Y-26.58677 Z-0.19937
X18.83422 Y-26.66228 Z-0.20578
X18.88999 Y-26.73496 Z-0.21219
X18.9495 Y-26.80463 Z-0.21859
X19.01256 Y-26.87109 Z-0.225
G03 X22. Y-25.63365 I1.23744 J1.23744 F700.
G1 Y-23.13365
G03 X18.5 I-1.75 J0.
G1 Y-25.63365
G03 X19.01256 Y-26.87109 I1.75 J0.
G0 Z6.
X18.5 Y-24.14781
G1 Z-0.1 F175.
Y-25.63365 Z-0.2039 F525.
X18.5024 Y-25.72524 Z-0.21031
X18.50959 Y-25.81658 Z-0.21671
X18.52154 Y-25.90741 Z-0.22312
X18.53824 Y-25.9975 Z-0.22953
X18.55963 Y-26.08658 Z-0.23593
X18.58565 Y-26.17443 Z-0.24234
X18.61623 Y-26.2608 Z-0.24875
X18.65129 Y-26.34544 Z-0.25515
X18.69074 Y-26.42813 Z-0.26156
X18.73446 Y-26.50865 Z-0.26797
X18.78233 Y-26.58677 Z-0.27437
X18.83422 Y-26.66228 Z-0.28078
X18.88999 Y-26.73496 Z-0.28719
X18.9495 Y-26.80463 Z-0.29359
X19.01256 Y-26.87109 Z-0.3
G03 X22. Y-25.63365 I1.23744 J1.23744 F700.
G1 Y-23.13365
G03 X18.5 I-1.75 J0.
G1 Y-25.63365
G03 X19.01256 Y-26.87109 I1.75 J0.
G0 Z6.
X28.07727 Y-7.90559
G1 Z0.125 F175.
X28.15346 Y-7.98744 Z0.11718 F525.
X28.24489 Y-8.07256 Z0.10844
X28.34216 Y-8.15095 Z0.09971
X28.44478 Y-8.22219 Z0.09097
X28.55222 Y-8.28594 Z0.08224
X28.66392 Y-8.34186 Z0.0735
X28.77934 Y-8.38966 Z0.06477
X28.89787 Y-8.42911 Z0.05603
X29.01891 Y-8.46001 Z0.0473
X29.14185 Y-8.48219 Z0.03856
X29.26606 Y-8.49554 Z0.02983
X29.3909 Y-8.5 Z0.02109
X29.51574 Y-8.49554 Z0.01235
X29.63995 Y-8.48219 Z0.00362
X29.76289 Y-8.46001 Z-0.00512
X29.88393 Y-8.42911 Z-0.01385
X30.00246 Y-8.38966 Z-0.02259
X30.11788 Y-8.34186 Z-0.03132
X30.22959 Y-8.28594 Z-0.04006
X30.33702 Y-8.22219 Z-0.04879
X30.43964 Y-8.15095 Z-0.05753
X30.53691 Y-8.07256 Z-0.06627
X30.62834 Y-7.98744 Z-0.075
G03 X31.1409 Y-6.75 I-1.23744 J1.23744 F700.
G1 Y-4.25
G03 X27.6409 I-1.75 J0.
G1 Y-6.75
G03 X30.62834 Y-7.98744 I1.75 J0.
G0 Z6.
X28.07727 Y-7.90559
G1 Z0.05 F175.
X28.15346 Y-7.98744 Z0.04218 F525.
X28.24489 Y-8.07256 Z0.03344
X28.34216 Y-8.15095 Z0.02471
X28.44478 Y-8.22219 Z0.01597
X28.55222 Y-8.28594 Z0.00724
X28.66392 Y-8.34186 Z-0.0015
X28.77934 Y-8.38966 Z-0.01023
X28.89787 Y-8.42911 Z-0.01897
X29.01891 Y-8.46001 Z-0.0277
X29.14185 Y-8.48219 Z-0.03644
X29.26606 Y-8.49554 Z-0.04517
X29.3909 Y-8.5 Z-0.05391
X29.51574 Y-8.49554 Z-0.06265
X29.63995 Y-8.48219 Z-0.07138
X29.76289 Y-8.46001 Z-0.08012
X29.88393 Y-8.42911 Z-0.08885
X30.00246 Y-8.38966 Z-0.09759
X30.11788 Y-8.34186 Z-0.10632
X30.22959 Y-8.28594 Z-0.11506
X30.33702 Y-8.22219 Z-0.12379
X30.43964 Y-8.15095 Z-0.13253
X30.53691 Y-8.07256 Z-0.14126
X30.62834 Y-7.98744 Z-0.15
G03 X31.1409 Y-6.75 I-1.23744 J1.23744 F700.
G1 Y-4.25
G03 X27.6409 I-1.75 J0.
G1 Y-6.75
G03 X30.62834 Y-7.98744 I1.75 J0.
G0 Z6.
X28.07727 Y-7.90559
G1 Z-0.025 F175.
X28.15346 Y-7.98744 Z-0.03282 F525.
X28.24489 Y-8.07256 Z-0.04156
X28.34216 Y-8.15095 Z-0.05029
X28.44478 Y-8.22219 Z-0.05903
X28.55222 Y-8.28594 Z-0.06776
X28.66392 Y-8.34186 Z-0.0765
X28.77934 Y-8.38966 Z-0.08523
X28.89787 Y-8.42911 Z-0.09397
X29.01891 Y-8.46001 Z-0.1027
X29.14185 Y-8.48219 Z-0.11144
X29.26606 Y-8.49554 Z-0.12017
X29.3909 Y-8.5 Z-0.12891
X29.51574 Y-8.49554 Z-0.13765
X29.63995 Y-8.48219 Z-0.14638
X29.76289 Y-8.46001 Z-0.15512
X29.88393 Y-8.42911 Z-0.16385
X30.00246 Y-8.38966 Z-0.17259
X30.11788 Y-8.34186 Z-0.18132
X30.22959 Y-8.28594 Z-0.19006
X30.33702 Y-8.22219 Z-0.19879
X30.43964 Y-8.15095 Z-0.20753
X30.53691 Y-8.07256 Z-0.21626
X30.62834 Y-7.98744 Z-0.225
G03 X31.1409 Y-6.75 I-1.23744 J1.23744 F700.
G1 Y-4.25
G03 X27.6409 I-1.75 J0.
G1 Y-6.75
G03 X30.62834 Y-7.98744 I1.75 J0.
G0 Z6.
X28.07727 Y-7.90559
G1 Z-0.1 F175.
X28.15346 Y-7.98744 Z-0.10782 F525.
X28.24489 Y-8.07256 Z-0.11656
X28.34216 Y-8.15095 Z-0.12529
X28.44478 Y-8.22219 Z-0.13403
X28.55222 Y-8.28594 Z-0.14276
X28.66392 Y-8.34186 Z-0.1515
X28.77934 Y-8.38966 Z-0.16023
X28.89787 Y-8.42911 Z-0.16897
X29.01891 Y-8.46001 Z-0.1777
X29.14185 Y-8.48219 Z-0.18644
X29.26606 Y-8.49554 Z-0.19517
X29.3909 Y-8.5 Z-0.20391
X29.51574 Y-8.49554 Z-0.21265
X29.63995 Y-8.48219 Z-0.22138
X29.76289 Y-8.46001 Z-0.23012
X29.88393 Y-8.42911 Z-0.23885
X30.00246 Y-8.38966 Z-0.24759
X30.11788 Y-8.34186 Z-0.25632
X30.22959 Y-8.28594 Z-0.26506
X30.33702 Y-8.22219 Z-0.27379
X30.43964 Y-8.15095 Z-0.28253
X30.53691 Y-8.07256 Z-0.29126
X30.62834 Y-7.98744 Z-0.3
G03 X31.1409 Y-6.75 I-1.23744 J1.23744 F700.
G1 Y-4.25
G03 X27.6409 I-1.75 J0.
G1 Y-6.75
G03 X30.62834 Y-7.98744 I1.75 J0.
G0 Z6.
X43.80609 Y-6.13519
G1 Z0.125 F175.
Y-4.35217 Z0.00032 F525.
X43.67062 Y-3.64198 Z-0.05024
X43.50773 Y-3.32755 Z-0.075
G03 X40.30609 Y-4.30491 I-1.45164 J-0.97736 F700.
G1 Y-6.80491
G03 X43.80609 I1.75 J0.
G1 Y-4.35217
X43.67062 Y-3.64198
X43.50773 Y-3.32755
G0 Z6.
X43.80609 Y-6.13519
G1 Z0.05 F175.
Y-4.35217 Z-0.07468 F525.
X43.67062 Y-3.64198 Z-0.12524
X43.50773 Y-3.32755 Z-0.15
G03 X40.30609 Y-4.30491 I-1.45164 J-0.97736 F700.
G1 Y-6.80491
G03 X43.80609 I1.75 J0.
G1 Y-4.35217
X43.67062 Y-3.64198
X43.50773 Y-3.32755
G0 Z6.
X43.80609 Y-6.13519
G1 Z-0.025 F175.
Y-4.35217 Z-0.14968 F525.
X43.67062 Y-3.64198 Z-0.20024
X43.50773 Y-3.32755 Z-0.225
G03 X40.30609 Y-4.30491 I-1.45164 J-0.97736 F700.
G1 Y-6.80491
G03 X43.80609 I1.75 J0.
G1 Y-4.35217
X43.67062 Y-3.64198
X43.50773 Y-3.32755
G0 Z6.
X43.80609 Y-6.13519
G1 Z-0.1 F175.
Y-4.35217 Z-0.22468 F525.
X43.67062 Y-3.64198 Z-0.27524
X43.50773 Y-3.32755 Z-0.3
G03 X40.30609 Y-4.30491 I-1.45164 J-0.97736 F700.
G1 Y-6.80491
G03 X43.80609 I1.75 J0.
G1 Y-4.35217
X43.67062 Y-3.64198
X43.50773 Y-3.32755
G0 Z6.
X55.8921 Y-7.34351
G1 Z0.125 F175.
X55.9187 Y-7.42253 Z0.11917 F525.
X55.96747 Y-7.53894 Z0.11034
X56.02451 Y-7.65154 Z0.10152
X56.08952 Y-7.75973 Z0.09269
X56.16215 Y-7.86295 Z0.08387
X56.24204 Y-7.96067 Z0.07504
X56.32876 Y-8.05237 Z0.06621
X56.42186 Y-8.13759 Z0.05739
X56.52086 Y-8.21588 Z0.04856
X56.62525 Y-8.28682 Z0.03974
X56.73449 Y-8.35006 Z0.03091
X56.84799 Y-8.40526 Z0.02208
X56.96518 Y-8.45213 Z0.01326
X57.08544 Y-8.49044 Z0.00443
X57.20815 Y-8.51998 Z-0.00439
X57.33268 Y-8.54059 Z-0.01322
X57.45836 Y-8.55218 Z-0.02205
X57.58455 Y-8.55468 Z-0.03087
X57.71059 Y-8.54808 Z-0.0397
X57.83583 Y-8.53241 Z-0.04852
X57.95962 Y-8.50775 Z-0.05735
X58.0813 Y-8.47424 Z-0.06617
X58.20025 Y-8.43204 Z-0.075
G03 X59.30609 Y-6.80491 I-0.64416 J1.62713 F700.
G1 Y-4.30491
G03 X55.80609 I-1.75 J0.
G1 Y-6.80491
G03 X58.20025 Y-8.43204 I1.75 J0.
G0 Z6.
X55.8921 Y-7.34351
G1 Z0.05 F175.
X55.9187 Y-7.42253 Z0.04417 F525.
X55.96747 Y-7.53894 Z0.03534
X56.02451 Y-7.65154 Z0.02652
X56.08952 Y-7.75973 Z0.01769
X56.16215 Y-7.86295 Z0.00887
X56.24204 Y-7.96067 Z0.00004
X56.32876 Y-8.05237 Z-0.00879
X56.42186 Y-8.13759 Z-0.01761
X56.52086 Y-8.21588 Z-0.02644
X56.62525 Y-8.28682 Z-0.03526
X56.73449 Y-8.35006 Z-0.04409
X56.84799 Y-8.40526 Z-0.05292
X56.96518 Y-8.45213 Z-0.06174
X57.08544 Y-8.49044 Z-0.07057
X57.20815 Y-8.51998 Z-0.07939
X57.33268 Y-8.54059 Z-0.08822
X57.45836 Y-8.55218 Z-0.09704
X57.58455 Y-8.55468 Z-0.10587
X57.71059 Y-8.54808 Z-0.1147
X57.83583 Y-8.53241 Z-0.12352
X57.95962 Y-8.50775 Z-0.13235
X58.0813 Y-8.47424 Z-0.14117
X58.20025 Y-8.43204 Z-0.15
G03 X59.30609 Y-6.80491 I-0.64416 J1.62713 F700.
G1 Y-4.30491
G03 X55.80609 I-1.75 J0.
G1 Y-6.80491
G03 X58.20025 Y-8.43204 I1.75 J0.
G0 Z6.
X55.8921 Y-7.34351
G1 Z-0.025 F175.
X55.9187 Y-7.42253 Z-0.03083 F525.
X55.96747 Y-7.53894 Z-0.03966
X56.02451 Y-7.65154 Z-0.04848
X56.08952 Y-7.75973 Z-0.05731
X56.16215 Y-7.86295 Z-0.06613
X56.24204 Y-7.96067 Z-0.07496
X56.32876 Y-8.05237 Z-0.08379
X56.42186 Y-8.13759 Z-0.09261
X56.52086 Y-8.21588 Z-0.10144
X56.62525 Y-8.28682 Z-0.11026
X56.73449 Y-8.35006 Z-0.11909
X56.84799 Y-8.40526 Z-0.12791
X56.96518 Y-8.45213 Z-0.13674
X57.08544 Y-8.49044 Z-0.14557
X57.20815 Y-8.51998 Z-0.15439
X57.33268 Y-8.54059 Z-0.16322
X57.45836 Y-8.55218 Z-0.17205
X57.58455 Y-8.55468 Z-0.18087
X57.71059 Y-8.54808 Z-0.1897
X57.83583 Y-8.53241 Z-0.19852
X57.95962 Y-8.50775 Z-0.20735
X58.0813 Y-8.47424 Z-0.21617
X58.20025 Y-8.43204 Z-0.225
G03 X59.30609 Y-6.80491 I-0.64416 J1.62713 F700.
G1 Y-4.30491
G03 X55.80609 I-1.75 J0.
G1 Y-6.80491
G03 X58.20025 Y-8.43204 I1.75 J0.
G0 Z6.
X55.8921 Y-7.34351
G1 Z-0.1 F175.
X55.9187 Y-7.42253 Z-0.10583 F525.
X55.96747 Y-7.53894 Z-0.11466
X56.02451 Y-7.65154 Z-0.12348
X56.08952 Y-7.75973 Z-0.13231
X56.16215 Y-7.86295 Z-0.14113
X56.24204 Y-7.96067 Z-0.14996
X56.32876 Y-8.05237 Z-0.15879
X56.42186 Y-8.13759 Z-0.16761
X56.52086 Y-8.21588 Z-0.17644
X56.62525 Y-8.28682 Z-0.18526
X56.73449 Y-8.35006 Z-0.19409
X56.84799 Y-8.40526 Z-0.20292
X56.96518 Y-8.45213 Z-0.21174
X57.08544 Y-8.49044 Z-0.22057
X57.20815 Y-8.51998 Z-0.22939
X57.33268 Y-8.54059 Z-0.23822
X57.45836 Y-8.55218 Z-0.24705
X57.58455 Y-8.55468 Z-0.25587
X57.71059 Y-8.54808 Z-0.2647
X57.83583 Y-8.53241 Z-0.27352
X57.95962 Y-8.50775 Z-0.28235
X58.0813 Y-8.47424 Z-0.29117
X58.20025 Y-8.43204 Z-0.3
G03 X59.30609 Y-6.80491 I-0.64416 J1.62713 F700.
G1 Y-4.30491
G03 X55.80609 I-1.75 J0.
G1 Y-6.80491
G03 X58.20025 Y-8.43204 I1.75 J0.
G0 Z6.
X72.53879 Y-6.13519
G1 Z0.125 F175.
Y-4.35217 Z0.00032 F525.
X72.40332 Y-3.64198 Z-0.05024
X72.24043 Y-3.32755 Z-0.075
G03 X69.03879 Y-4.30491 I-1.45164 J-0.97736 F700.
G1 Y-6.80491
G03 X72.53879 I1.75 J0.
G1 Y-4.35217
X72.40332 Y-3.64198
X72.24043 Y-3.32755
G0 Z6.
X72.53879 Y-6.13519
G1 Z0.05 F175.
Y-4.35217 Z-0.07468 F525.
X72.40332 Y-3.64198 Z-0.12524
X72.24043 Y-3.32755 Z-0.15
G03 X69.03879 Y-4.30491 I-1.45164 J-0.97736 F700.
G1 Y-6.80491
G03 X72.53879 I1.75 J0.
G1 Y-4.35217
X72.40332 Y-3.64198
X72.24043 Y-3.32755
G0 Z6.
X72.53879 Y-6.13519
G1 Z-0.025 F175.
Y-4.35217 Z-0.14968 F525.
X72.40332 Y-3.64198 Z-0.20024
X72.24043 Y-3.32755 Z-0.225
G03 X69.03879 Y-4.30491 I-1.45164 J-0.97736 F700.
G1 Y-6.80491
G03 X72.53879 I1.75 J0.
G1 Y-4.35217
X72.40332 Y-3.64198
X72.24043 Y-3.32755
G0 Z6.
X72.53879 Y-6.13519
G1 Z-0.1 F175.
Y-4.35217 Z-0.22468 F525.
X72.40332 Y-3.64198 Z-0.27524
X72.24043 Y-3.32755 Z-0.3
G03 X69.03879 Y-4.30491 I-1.45164 J-0.97736 F700.
G1 Y-6.80491
G03 X72.53879 I1.75 J0.
G1 Y-4.35217
X72.40332 Y-3.64198
X72.24043 Y-3.32755
G0 Z6.
X84.53879 Y-6.69309
G1 Z0.125 F175.
Y-6.80491 Z0.11718 F525.
X84.54325 Y-6.92976 Z0.10844
X84.5566 Y-7.05397 Z0.09971
X84.57878 Y-7.1769 Z0.09097
X84.60968 Y-7.29795 Z0.08224
X84.64913 Y-7.41648 Z0.0735
X84.69693 Y-7.53189 Z0.06477
X84.75285 Y-7.6436 Z0.05603
X84.8166 Y-7.75104 Z0.0473
X84.88784 Y-7.85365 Z0.03856
X84.96623 Y-7.95092 Z0.02983
X85.05135 Y-8.04235 Z0.02109
X85.14278 Y-8.12748 Z0.01235
X85.24005 Y-8.20586 Z0.00362
X85.34267 Y-8.27711 Z-0.00512
X85.4501 Y-8.34085 Z-0.01385
X85.56181 Y-8.39677 Z-0.02259
X85.67723 Y-8.44458 Z-0.03132
X85.79576 Y-8.48403 Z-0.04006
X85.9168 Y-8.51492 Z-0.04879
X86.03974 Y-8.5371 Z-0.05753
X86.16395 Y-8.55046 Z-0.06627
X86.28879 Y-8.55491 Z-0.075
G03 X88.03879 Y-6.80491 I0. J1.75 F700.
G1 Y-4.30491
G03 X84.53879 I-1.75 J0.
G1 Y-6.80491
G03 X86.28879 Y-8.55491 I1.75 J0.
G0 Z6.
X84.53879 Y-6.69309
G1 Z0.05 F175.
Y-6.80491 Z0.04218 F525.
X84.54325 Y-6.92976 Z0.03344
X84.5566 Y-7.05397 Z0.02471
X84.57878 Y-7.1769 Z0.01597
X84.60968 Y-7.29795 Z0.00724
X84.64913 Y-7.41648 Z-0.0015
X84.69693 Y-7.53189 Z-0.01023
X84.75285 Y-7.6436 Z-0.01897
X84.8166 Y-7.75104 Z-0.0277
X84.88784 Y-7.85365 Z-0.03644
X84.96623 Y-7.95092 Z-0.04517
X85.05135 Y-8.04235 Z-0.05391
X85.14278 Y-8.12748 Z-0.06265
X85.24005 Y-8.20586 Z-0.07138
X85.34267 Y-8.27711 Z-0.08012
X85.4501 Y-8.34085 Z-0.08885
X85.56181 Y-8.39677 Z-0.09759
X85.67723 Y-8.44458 Z-0.10632
X85.79576 Y-8.48403 Z-0.11506
X85.9168 Y-8.51492 Z-0.12379
X86.03974 Y-8.5371 Z-0.13253
X86.16395 Y-8.55046 Z-0.14126
X86.28879 Y-8.55491 Z-0.15
G03 X88.03879 Y-6.80491 I0. J1.75 F700.
G1 Y-4.30491
G03 X84.53879 I-1.75 J0.
G1 Y-6.80491
G03 X86.28879 Y-8.55491 I1.75 J0.
G0 Z6.
X84.53879 Y-6.69309
G1 Z-0.025 F175.
Y-6.80491 Z-0.03282 F525.
X84.54325 Y-6.92976 Z-0.04156
X84.5566 Y-7.05397 Z-0.05029
X84.57878 Y-7.1769 Z-0.05903
X84.60968 Y-7.29795 Z-0.06776
X84.64913 Y-7.41648 Z-0.0765
X84.69693 Y-7.53189 Z-0.08523
X84.75285 Y-7.6436 Z-0.09397
X84.8166 Y-7.75104 Z-0.1027
X84.88784 Y-7.85365 Z-0.11144
X84.96623 Y-7.95092 Z-0.12017
X85.05135 Y-8.04235 Z-0.12891
X85.14278 Y-8.12748 Z-0.13765
X85.24005 Y-8.20586 Z-0.14638
X85.34267 Y-8.27711 Z-0.15512
X85.4501 Y-8.34085 Z-0.16385
X85.56181 Y-8.39677 Z-0.17259
X85.67723 Y-8.44458 Z-0.18132
X85.79576 Y-8.48403 Z-0.19006
X85.9168 Y-8.51492 Z-0.19879
X86.03974 Y-8.5371 Z-0.20753
X86.16395 Y-8.55046 Z-0.21626
X86.28879 Y-8.55491 Z-0.225
G03 X88.03879 Y-6.80491 I0. J1.75 F700.
G1 Y-4.30491
G03 X84.53879 I-1.75 J0.
G1 Y-6.80491
G03 X86.28879 Y-8.55491 I1.75 J0.
G0 Z6.
X84.53879 Y-6.69309
G1 Z-0.1 F175.
Y-6.80491 Z-0.10782 F525.
X84.54325 Y-6.92976 Z-0.11656
X84.5566 Y-7.05397 Z-0.12529
X84.57878 Y-7.1769 Z-0.13403
X84.60968 Y-7.29795 Z-0.14276
X84.64913 Y-7.41648 Z-0.1515
X84.69693 Y-7.53189 Z-0.16023
X84.75285 Y-7.6436 Z-0.16897
X84.8166 Y-7.75104 Z-0.1777
X84.88784 Y-7.85365 Z-0.18644
X84.96623 Y-7.95092 Z-0.19517
X85.05135 Y-8.04235 Z-0.20391
X85.14278 Y-8.12748 Z-0.21265
X85.24005 Y-8.20586 Z-0.22138
X85.34267 Y-8.27711 Z-0.23012
X85.4501 Y-8.34085 Z-0.23885
X85.56181 Y-8.39677 Z-0.24759
X85.67723 Y-8.44458 Z-0.25632
X85.79576 Y-8.48403 Z-0.26506
X85.9168 Y-8.51492 Z-0.27379
X86.03974 Y-8.5371 Z-0.28253
X86.16395 Y-8.55046 Z-0.29126
X86.28879 Y-8.55491 Z-0.3
G03 X88.03879 Y-6.80491 I0. J1.75 F700.
G1 Y-4.30491
G03 X84.53879 I-1.75 J0.
G1 Y-6.80491
G03 X86.28879 Y-8.55491 I1.75 J0.
G0 Z6.
X15.6409 Y-5.73584
G1 Z0.125 F175.
Y-4.25 Z0.0211 F525.
X15.6385 Y-4.15841 Z0.01469
X15.63131 Y-4.06708 Z0.00829
X15.61936 Y-3.97624 Z0.00188
X15.60266 Y-3.88615 Z-0.00453
X15.58127 Y-3.79707 Z-0.01093
X15.55525 Y-3.70922 Z-0.01734
X15.52467 Y-3.62286 Z-0.02375
X15.48961 Y-3.53821 Z-0.03015
X15.45016 Y-3.45552 Z-0.03656
X15.40645 Y-3.375 Z-0.04297
X15.35857 Y-3.29688 Z-0.04937
X15.30668 Y-3.22138 Z-0.05578
X15.25091 Y-3.14869 Z-0.06219
X15.1914 Y-3.07902 Z-0.06859
X15.12834 Y-3.01256 Z-0.075
G03 X12.1409 Y-4.25 I-1.23744 J-1.23744 F700.
G1 Y-6.75
G03 X15.6409 I1.75 J0.
G1 Y-4.25
G03 X15.12834 Y-3.01256 I-1.75 J0.
G0 Z6.
X15.6409 Y-5.73584
G1 Z0.05 F175.
Y-4.25 Z-0.0539 F525.
X15.6385 Y-4.15841 Z-0.06031
X15.63131 Y-4.06708 Z-0.06671
X15.61936 Y-3.97624 Z-0.07312
X15.60266 Y-3.88615 Z-0.07953
X15.58127 Y-3.79707 Z-0.08593
X15.55525 Y-3.70922 Z-0.09234
X15.52467 Y-3.62286 Z-0.09875
X15.48961 Y-3.53821 Z-0.10515
X15.45016 Y-3.45552 Z-0.11156
X15.40645 Y-3.375 Z-0.11797
X15.35857 Y-3.29688 Z-0.12437
X15.30668 Y-3.22138 Z-0.13078
X15.25091 Y-3.14869 Z-0.13719
X15.1914 Y-3.07902 Z-0.14359
X15.12834 Y-3.01256 Z-0.15
G03 X12.1409 Y-4.25 I-1.23744 J-1.23744 F700.
G1 Y-6.75
G03 X15.6409 I1.75 J0.
G1 Y-4.25
G03 X15.12834 Y-3.01256 I-1.75 J0.
G0 Z6.
X15.6409 Y-5.73584
G1 Z-0.025 F175.
Y-4.25 Z-0.1289 F525.
X15.6385 Y-4.15841 Z-0.13531
X15.63131 Y-4.06708 Z-0.14171
X15.61936 Y-3.97624 Z-0.14812
X15.60266 Y-3.88615 Z-0.15453
X15.58127 Y-3.79707 Z-0.16093
X15.55525 Y-3.70922 Z-0.16734
X15.52467 Y-3.62286 Z-0.17375
X15.48961 Y-3.53821 Z-0.18015
X15.45016 Y-3.45552 Z-0.18656
X15.40645 Y-3.375 Z-0.19297
X15.35857 Y-3.29688 Z-0.19937
X15.30668 Y-3.22138 Z-0.20578
X15.25091 Y-3.14869 Z-0.21219
X15.1914 Y-3.07902 Z-0.21859
X15.12834 Y-3.01256 Z-0.225
G03 X12.1409 Y-4.25 I-1.23744 J-1.23744 F700.
G1 Y-6.75
G03 X15.6409 I1.75 J0.
G1 Y-4.25
G03 X15.12834 Y-3.01256 I-1.75 J0.
G0 Z6.
X15.6409 Y-5.73584
G1 Z-0.1 F175.
Y-4.25 Z-0.2039 F525.
X15.6385 Y-4.15841 Z-0.21031
X15.63131 Y-4.06708 Z-0.21671
X15.61936 Y-3.97624 Z-0.22312
X15.60266 Y-3.88615 Z-0.22953
X15.58127 Y-3.79707 Z-0.23593
X15.55525 Y-3.70922 Z-0.24234
X15.52467 Y-3.62286 Z-0.24875
X15.48961 Y-3.53821 Z-0.25515
X15.45016 Y-3.45552 Z-0.26156
X15.40645 Y-3.375 Z-0.26797
X15.35857 Y-3.29688 Z-0.27437
X15.30668 Y-3.22138 Z-0.28078
X15.25091 Y-3.14869 Z-0.28719
X15.1914 Y-3.07902 Z-0.29359
X15.12834 Y-3.01256 Z-0.3
G03 X12.1409 Y-4.25 I-1.23744 J-1.23744 F700.
G1 Y-6.75
G03 X15.6409 I1.75 J0.
G1 Y-4.25
G03 X15.12834 Y-3.01256 I-1.75 J0.
G0 Z6.
(2 1/2 Axis Profiling-1)
(Endmill 1mm Carbide )
X11.19013 Y-30.38365
G1 Z0.125 F175.
X8.33 Z-0.075 F525.
X0. F700.
G02 X-0.5 Y-29.88365 I0. J0.5
G1 Y-14.88365
G02 X0. Y-14.38365 I0.5 J0.
G1 X1.05868
X3.13781 Y-12.30452
G02 X3.84492 I0.35356 J-0.35355
G1 X12.5 Y-20.9596
X21.15508 Y-12.30452
G02 X21.86219 I0.35355 J-0.35355
G1 X23.94132 Y-14.38365
X25.
G02 X25.5 Y-14.88365 I0. J-0.5
G1 Y-29.88365
G02 X25. Y-30.38365 I-0.5 J0.
G1 X8.33
G0 Z6.
X13.31527 Y-22.81177
G1 Z0.125 F175.
X12.5 Y-21.9965 Z0.04438 F525.
X11.29285 Y-23.20365 Z-0.075
X13.70715 F700.
X12.5 Y-21.9965
X11.29285 Y-23.20365
G0 Z6.
X11.19013 Y-30.38365
G1 Z0.05 F175.
X8.33 Z-0.15 F525.
X0. F700.
G02 X-0.5 Y-29.88365 I0. J0.5
G1 Y-14.88365
G02 X0. Y-14.38365 I0.5 J0.
G1 X1.05868
X3.13781 Y-12.30452
G02 X3.84492 I0.35356 J-0.35355
G1 X12.5 Y-20.9596
X21.15508 Y-12.30452
G02 X21.86219 I0.35355 J-0.35355
G1 X23.94132 Y-14.38365
X25.
G02 X25.5 Y-14.88365 I0. J-0.5
G1 Y-29.88365
G02 X25. Y-30.38365 I-0.5 J0.
G1 X8.33
G0 Z6.
X13.31527 Y-22.81177
G1 Z0.05 F175.
X12.5 Y-21.9965 Z-0.03062 F525.
X11.29285 Y-23.20365 Z-0.15
X13.70715 F700.
X12.5 Y-21.9965
X11.29285 Y-23.20365
G0 Z6.
X11.19013 Y-30.38365
G1 Z-0.025 F175.
X8.33 Z-0.225 F525.
X0. F700.
G02 X-0.5 Y-29.88365 I0. J0.5
G1 Y-14.88365
G02 X0. Y-14.38365 I0.5 J0.
G1 X1.05868
X3.13781 Y-12.30452
G02 X3.84492 I0.35356 J-0.35355
G1 X12.5 Y-20.9596
X21.15508 Y-12.30452
G02 X21.86219 I0.35355 J-0.35355
G1 X23.94132 Y-14.38365
X25.
G02 X25.5 Y-14.88365 I0. J-0.5
G1 Y-29.88365
G02 X25. Y-30.38365 I-0.5 J0.
G1 X8.33
G0 Z6.
X13.31527 Y-22.81177
G1 Z-0.025 F175.
X12.5 Y-21.9965 Z-0.10562 F525.
X11.29285 Y-23.20365 Z-0.225
X13.70715 F700.
X12.5 Y-21.9965
X11.29285 Y-23.20365
G0 Z6.
X11.19013 Y-30.38365
G1 Z-0.1 F175.
X8.33 Z-0.3 F525.
X0. F700.
G02 X-0.5 Y-29.88365 I0. J0.5
G1 Y-14.88365
G02 X0. Y-14.38365 I0.5 J0.
G1 X1.05868
X3.13781 Y-12.30452
G02 X3.84492 I0.35356 J-0.35355
G1 X12.5 Y-20.9596
X21.15508 Y-12.30452
G02 X21.86219 I0.35355 J-0.35355
G1 X23.94132 Y-14.38365
X25.
G02 X25.5 Y-14.88365 I0. J-0.5
G1 Y-29.88365
G02 X25. Y-30.38365 I-0.5 J0.
G1 X8.33
G0 Z6.
X13.31527 Y-22.81177
G1 Z-0.1 F175.
X12.5 Y-21.9965 Z-0.18062 F525.
X11.29285 Y-23.20365 Z-0.3
X13.70715 F700.
X12.5 Y-21.9965
X11.29285 Y-23.20365
G0 Z6.
X34.6409 Y-12.86764
G1 Z0.125 F175.
Y-15. Z-0.02411 F525.
X34.62836 Y-15.11126 Z-0.03194
X34.59139 Y-15.21694 Z-0.03977
X34.53182 Y-15.31174 Z-0.0476
X34.45265 Y-15.39092 Z-0.05543
X34.35784 Y-15.45048 Z-0.06326
X34.25216 Y-15.48746 Z-0.07108
X34.19653 Y-15.49373 Z-0.075
X34.1409 Y-15.5 F700.
X33.08222
X31.00309 Y-17.57913
G02 X30.29598 I-0.35356 J0.35355
G1 X21.6409 Y-8.92405
X12.98582 Y-17.57913
G02 X12.27871 I-0.35355 J0.35355
G1 X10.19958 Y-15.5
X9.1409
G02 X8.6409 Y-15. I0. J0.5
G1 Y0.
G02 X9.1409 Y0.5 I0.5 J0.
G1 X34.1409
G02 X34.6409 Y0. I0. J-0.5
G1 Y-15.
G02 X34.19653 Y-15.49373 I-0.49423 J-0.00202
G0 Z6.
X20.82563 Y-7.07188
G1 Z0.125 F175.
X21.6409 Y-7.88715 Z0.04438 F525.
X22.84805 Y-6.68 Z-0.075
X20.43375 F700.
X21.6409 Y-7.88715
X22.84805 Y-6.68
G0 Z6.
X34.6409 Y-12.86764
G1 Z0.05 F175.
Y-15. Z-0.09911 F525.
X34.62836 Y-15.11126 Z-0.10694
X34.59139 Y-15.21694 Z-0.11477
X34.53182 Y-15.31174 Z-0.1226
X34.45265 Y-15.39092 Z-0.13043
X34.35784 Y-15.45048 Z-0.13826
X34.25216 Y-15.48746 Z-0.14609
X34.19653 Y-15.49373 Z-0.15
X34.1409 Y-15.5 F700.
X33.08222
X31.00309 Y-17.57913
G02 X30.29598 I-0.35356 J0.35355
G1 X21.6409 Y-8.92405
X12.98582 Y-17.57913
G02 X12.27871 I-0.35355 J0.35355
G1 X10.19958 Y-15.5
X9.1409
G02 X8.6409 Y-15. I0. J0.5
G1 Y0.
G02 X9.1409 Y0.5 I0.5 J0.
G1 X34.1409
G02 X34.6409 Y0. I0. J-0.5
G1 Y-15.
G02 X34.19653 Y-15.49373 I-0.49423 J-0.00202
G0 Z6.
X20.82563 Y-7.07188
G1 Z0.05 F175.
X21.6409 Y-7.88715 Z-0.03062 F525.
X22.84805 Y-6.68 Z-0.15
X20.43375 F700.
X21.6409 Y-7.88715
X22.84805 Y-6.68
G0 Z6.
X34.6409 Y-12.86764
G1 Z-0.025 F175.
Y-15. Z-0.17411 F525.
X34.62836 Y-15.11126 Z-0.18194
X34.59139 Y-15.21694 Z-0.18977
X34.53182 Y-15.31174 Z-0.1976
X34.45265 Y-15.39092 Z-0.20543
X34.35784 Y-15.45048 Z-0.21326
X34.25216 Y-15.48746 Z-0.22109
X34.19653 Y-15.49373 Z-0.225
X34.1409 Y-15.5 F700.
X33.08222
X31.00309 Y-17.57913
G02 X30.29598 I-0.35356 J0.35355
G1 X21.6409 Y-8.92405
X12.98582 Y-17.57913
G02 X12.27871 I-0.35355 J0.35355
G1 X10.19958 Y-15.5
X9.1409
G02 X8.6409 Y-15. I0. J0.5
G1 Y0.
G02 X9.1409 Y0.5 I0.5 J0.
G1 X34.1409
G02 X34.6409 Y0. I0. J-0.5
G1 Y-15.
G02 X34.19653 Y-15.49373 I-0.49423 J-0.00202
G0 Z6.
X20.82563 Y-7.07188
G1 Z-0.025 F175.
X21.6409 Y-7.88715 Z-0.10562 F525.
X22.84805 Y-6.68 Z-0.225
X20.43375 F700.
X21.6409 Y-7.88715
X22.84805 Y-6.68
G0 Z6.
X34.6409 Y-12.86764
G1 Z-0.1 F175.
Y-15. Z-0.24911 F525.
X34.62836 Y-15.11126 Z-0.25694
X34.59139 Y-15.21694 Z-0.26477
X34.53182 Y-15.31174 Z-0.2726
X34.45265 Y-15.39092 Z-0.28043
X34.35784 Y-15.45048 Z-0.28826
X34.25216 Y-15.48746 Z-0.29609
X34.19653 Y-15.49373 Z-0.3
X34.1409 Y-15.5 F700.
X33.08222
X31.00309 Y-17.57913
G02 X30.29598 I-0.35356 J0.35355
G1 X21.6409 Y-8.92405
X12.98582 Y-17.57913
G02 X12.27871 I-0.35355 J0.35355
G1 X10.19958 Y-15.5
X9.1409
G02 X8.6409 Y-15. I0. J0.5
G1 Y0.
G02 X9.1409 Y0.5 I0.5 J0.
G1 X34.1409
G02 X34.6409 Y0. I0. J-0.5
G1 Y-15.
G02 X34.19653 Y-15.49373 I-0.49423 J-0.00202
G0 Z6.
X20.82563 Y-7.07188
G1 Z-0.1 F175.
X21.6409 Y-7.88715 Z-0.18062 F525.
X22.84805 Y-6.68 Z-0.3
X20.43375 F700.
X21.6409 Y-7.88715
X22.84805 Y-6.68
G0 Z6.
X62.93109 Y-14.59641
G1 Z0.125 F175.
Y-17.45655 Z-0.075 F525.
Y-26.10236 F700.
G02 X62.43109 Y-26.60236 I-0.5 J0.
G1 X37.18109
G02 X36.68109 Y-26.10236 I0. J0.5
G1 Y-0.15491
G02 X37.18109 Y0.34509 I0.5 J0.
G1 X62.43109
G02 X62.93109 Y-0.15491 I0. J-0.5
G1 Y-17.45655
G0 Z6.
Y-14.59641
G1 Z0.05 F175.
Y-17.45655 Z-0.15 F525.
Y-26.10236 F700.
G02 X62.43109 Y-26.60236 I-0.5 J0.
G1 X37.18109
G02 X36.68109 Y-26.10236 I0. J0.5
G1 Y-0.15491
G02 X37.18109 Y0.34509 I0.5 J0.
G1 X62.43109
G02 X62.93109 Y-0.15491 I0. J-0.5
G1 Y-17.45655
G0 Z6.
Y-14.59641
G1 Z-0.025 F175.
Y-17.45655 Z-0.225 F525.
Y-26.10236 F700.
G02 X62.43109 Y-26.60236 I-0.5 J0.
G1 X37.18109
G02 X36.68109 Y-26.10236 I0. J0.5
G1 Y-0.15491
G02 X37.18109 Y0.34509 I0.5 J0.
G1 X62.43109
G02 X62.93109 Y-0.15491 I0. J-0.5
G1 Y-17.45655
G0 Z6.
Y-14.59641
G1 Z-0.1 F175.
Y-17.45655 Z-0.3 F525.
Y-26.10236 F700.
G02 X62.43109 Y-26.60236 I-0.5 J0.
G1 X37.18109
G02 X36.68109 Y-26.10236 I0. J0.5
G1 Y-0.15491
G02 X37.18109 Y0.34509 I0.5 J0.
G1 X62.43109
G02 X62.93109 Y-0.15491 I0. J-0.5
G1 Y-17.45655
G0 Z6.
X79.89032 Y0.34509
G1 Z0.125 F175.
X82.75046 Z-0.075 F525.
X91.16379 F700.
G02 X91.66379 Y-0.15491 I0. J-0.5
G1 Y-26.10236
G02 X91.16379 Y-26.60236 I-0.5 J0.
G1 X65.91379
G02 X65.41379 Y-26.10236 I0. J0.5
G1 Y-0.15491
G02 X65.91379 Y0.34509 I0.5 J0.
G1 X82.75046
G0 Z6.
X79.89032
G1 Z0.05 F175.
X82.75046 Z-0.15 F525.
X91.16379 F700.
G02 X91.66379 Y-0.15491 I0. J-0.5
G1 Y-26.10236
G02 X91.16379 Y-26.60236 I-0.5 J0.
G1 X65.91379
G02 X65.41379 Y-26.10236 I0. J0.5
G1 Y-0.15491
G02 X65.91379 Y0.34509 I0.5 J0.
G1 X82.75046
G0 Z6.
X79.89032
G1 Z-0.025 F175.
X82.75046 Z-0.225 F525.
X91.16379 F700.
G02 X91.66379 Y-0.15491 I0. J-0.5
G1 Y-26.10236
G02 X91.16379 Y-26.60236 I-0.5 J0.
G1 X65.91379
G02 X65.41379 Y-26.10236 I0. J0.5
G1 Y-0.15491
G02 X65.91379 Y0.34509 I0.5 J0.
G1 X82.75046
G0 Z6.
X79.89032
G1 Z-0.1 F175.
X82.75046 Z-0.3 F525.
X91.16379 F700.
G02 X91.66379 Y-0.15491 I0. J-0.5
G1 Y-26.10236
G02 X91.16379 Y-26.60236 I-0.5 J0.
G1 X65.91379
G02 X65.41379 Y-26.10236 I0. J0.5
G1 Y-0.15491
G02 X65.91379 Y0.34509 I0.5 J0.
G1 X82.75046
G0 Z6.
M30
%
