%
G17 G21 G40 G90 G64 P0.1
(Standard Drill )
(2mm Carbide Drill)
S24000 M3
G0 Z3.5
X-2.9266 Y13.1898
G21 S24000 M3
G81 X-2.9266 Y13.1898 Z-8.57735 R2.5 F200.0
G80
G0 Z3.5
G21 S24000 M3
G81 X-7.4366 Y43.1898 Z-8.57735 R2.5 F200.0
G80
G0 Z3.5
G21 S24000 M3
G81 X-7.4366 Y59.0648 Z-8.57735 R2.5 F200.0
G80
G0 Z3.5
G21 S24000 M3
G81 X-7.4366 Y114.9448 Z-8.57735 R2.5 F200.0
G80
G0 Z3.5
G21 S24000 M3
G81 X-101.4166 Y114.9448 Z-8.57735 R2.5 F200.0
G80
G0 Z3.5
G21 S24000 M3
G81 X-132.4366 Y114.9448 Z-8.57735 R2.5 F200.0
G80
G0 Z3.5
G21 S24000 M3
G81 X-116.4166 Y75.1898 Z-8.57735 R2.5 F200.0
G80
G0 Z3.5
G21 S24000 M3
G81 X-101.4166 Y59.0648 Z-8.57735 R2.5 F200.0
G80
G0 Z3.5
G21 S24000 M3
G81 X-101.4166 Y43.1898 Z-8.57735 R2.5 F200.0
G80
G0 Z3.5
G21 S24000 M3
G81 X-105.9266 Y13.1898 Z-8.57735 R2.5 F200.0
G80
G0 Z3.5
G21 S24000 M3
G81 X-116.4166 Y3.1898 Z-8.57735 R2.5 F200.0
G80
G0 Z3.5
G21 S24000 M3
G81 X-127.9266 Y13.1898 Z-8.57735 R2.5 F200.0
G80
G0 Z3.5
G21 S24000 M3
G81 X-132.4366 Y43.1898 Z-8.57735 R2.5 F200.0
G80
G0 Z3.5
G21 S24000 M3
G81 X-132.4366 Y59.0648 Z-8.57735 R2.5 F200.0
G80
G0 Z3.5
G21 S24000 M3
G81 X-226.4166 Y59.0648 Z-8.57735 R2.5 F200.0
G80
G0 Z3.5
G21 S24000 M3
G81 X-226.4166 Y43.1898 Z-8.57735 R2.5 F200.0
G80
G0 Z3.5
G21 S24000 M3
G81 X-230.9266 Y13.1898 Z-8.57735 R2.5 F200.0
G80
G0 Z3.5
G21 S24000 M3
G81 X-241.4166 Y3.1898 Z-8.57735 R2.5 F200.0
G80
G0 Z3.5
G21 S24000 M3
G81 X-241.4166 Y75.1898 Z-8.57735 R2.5 F200.0
G80
G0 Z3.5
G21 S24000 M3
G81 X-226.4166 Y114.9448 Z-8.57735 R2.5 F200.0
G80
G0 Z3.5
M30
%
