%
G17 G21 G40 G90 G64 P0.1
(2 1/2 Axis Profiling)
(SlotDrill 1/8in 3.175mm Carbide Aluminium Cut)
T6 M06
S23873 M3
G0 Z1.5875
X8.95801 Y63.6355
G1 Z0.77 F1193.5
X13.39463 Y66.19699 Z-0.13332 F3580.5
X13.50835 Y66.2763 Z-0.15776
X13.60692 Y66.37379 Z-0.18221
X13.68748 Y66.48661 Z-0.20665
X13.74769 Y66.61149 Z-0.2311
X13.7858 Y66.74479 Z-0.25555
X13.80068 Y66.88262 Z-0.27999
X13.79192 Y67.02098 Z-0.30444
X13.75976 Y67.15584 Z-0.32888
X13.70515 Y67.28326 Z-0.35333
X13.62967 Y67.39955 Z-0.37777
X13.53551 Y67.50131 Z-0.40222
X13.42543 Y67.58558 Z-0.42666
X13.30262 Y67.64991 Z-0.45111
X13.17066 Y67.69242 Z-0.47556
X13.0334 Y67.71189 Z-0.5
G17
G03 X12.58213 Y67.60428 I-0.04502 J-0.81126 F4774.
G1 X7.38598 Y64.60428
G03 X8.19848 Y63.19699 I0.40625 J-0.70365
G1 X13.39463 Y66.19699
G03 X13.0334 Y67.71189 I-0.40625 J0.70364
G1 Z-1.
G03 X12.58213 Y67.60428 I-0.04502 J-0.81126
G1 X7.38598 Y64.60428
G03 X8.19848 Y63.19699 I0.40625 J-0.70365
G1 X13.39463 Y66.19699
G03 X13.0334 Y67.71189 I-0.40625 J0.70364
G1 Z-1.5
G03 X12.58213 Y67.60428 I-0.04502 J-0.81126
G1 X7.38598 Y64.60428
G03 X8.19848 Y63.19699 I0.40625 J-0.70365
G1 X13.39463 Y66.19699
G03 X13.0334 Y67.71189 I-0.40625 J0.70364
G1 Z-2.
G03 X12.58213 Y67.60428 I-0.04502 J-0.81126
G1 X7.38598 Y64.60428
G03 X8.19848 Y63.19699 I0.40625 J-0.70365
G1 X13.39463 Y66.19699
G03 X13.0334 Y67.71189 I-0.40625 J0.70364
G1 Z-2.5
G03 X12.58213 Y67.60428 I-0.04502 J-0.81126
G1 X7.38598 Y64.60428
G03 X8.19848 Y63.19699 I0.40625 J-0.70365
G1 X13.39463 Y66.19699
G03 X13.0334 Y67.71189 I-0.40625 J0.70364
G1 Z-3.
G03 X12.58213 Y67.60428 I-0.04502 J-0.81126
G1 X7.38598 Y64.60428
G03 X8.19848 Y63.19699 I0.40625 J-0.70365
G1 X13.39463 Y66.19699
G03 X13.0334 Y67.71189 I-0.40625 J0.70364
G1 Z-3.5
G03 X12.58213 Y67.60428 I-0.04502 J-0.81126
G1 X7.38598 Y64.60428
G03 X8.19848 Y63.19699 I0.40625 J-0.70365
G1 X13.39463 Y66.19699
G03 X13.0334 Y67.71189 I-0.40625 J0.70364
G0 Z1.5875
X37.96056 Y24.40822
G1 Z0.77 F1193.5
X37.86375 Y24.40225 Z0.7529 F3580.5
X37.71835 Y24.36568 Z0.72646
X37.58213 Y24.30301 Z0.70002
X32.38598 Y21.30301 Z-0.35794
X32.34038 Y21.27463 Z-0.36741
X32.29675 Y21.2433 Z-0.37688
X32.25529 Y21.20916 Z-0.38635
X32.21617 Y21.17235 Z-0.39582
X32.17958 Y21.13304 Z-0.40529
X32.14565 Y21.0914 Z-0.41476
X32.11456 Y21.0476 Z-0.42423
X32.08642 Y21.00185 Z-0.4337
X32.06137 Y20.95434 Z-0.44318
X32.03952 Y20.90527 Z-0.45265
X32.02095 Y20.85487 Z-0.46212
X32.00576 Y20.80336 Z-0.47159
X31.994 Y20.75095 Z-0.48106
X31.98573 Y20.69788 Z-0.49053
X31.98098 Y20.64438 Z-0.5
G03 X33.19848 Y19.89572 I0.81125 J-0.04502 F4774.
G1 X38.39463 Y22.89572
G03 X37.58213 Y24.30301 I-0.40625 J0.70364
G1 X32.38598 Y21.30301
G03 X31.98098 Y20.64438 I0.40625 J-0.70365
G1 Z-1.
G03 X33.19848 Y19.89572 I0.81125 J-0.04502
G1 X38.39463 Y22.89572
G03 X37.58213 Y24.30301 I-0.40625 J0.70364
G1 X32.38598 Y21.30301
G03 X31.98098 Y20.64438 I0.40625 J-0.70365
G1 Z-1.5
G03 X33.19848 Y19.89572 I0.81125 J-0.04502
G1 X38.39463 Y22.89572
G03 X37.58213 Y24.30301 I-0.40625 J0.70364
G1 X32.38598 Y21.30301
G03 X31.98098 Y20.64438 I0.40625 J-0.70365
G1 Z-2.
G03 X33.19848 Y19.89572 I0.81125 J-0.04502
G1 X38.39463 Y22.89572
G03 X37.58213 Y24.30301 I-0.40625 J0.70364
G1 X32.38598 Y21.30301
G03 X31.98098 Y20.64438 I0.40625 J-0.70365
G1 Z-2.5
G03 X33.19848 Y19.89572 I0.81125 J-0.04502
G1 X38.39463 Y22.89572
G03 X37.58213 Y24.30301 I-0.40625 J0.70364
G1 X32.38598 Y21.30301
G03 X31.98098 Y20.64438 I0.40625 J-0.70365
G1 Z-3.
G03 X33.19848 Y19.89572 I0.81125 J-0.04502
G1 X38.39463 Y22.89572
G03 X37.58213 Y24.30301 I-0.40625 J0.70364
G1 X32.38598 Y21.30301
G03 X31.98098 Y20.64438 I0.40625 J-0.70365
G1 Z-3.5
G03 X33.19848 Y19.89572 I0.81125 J-0.04502
G1 X38.39463 Y22.89572
G03 X37.58213 Y24.30301 I-0.40625 J0.70364
G1 X32.38598 Y21.30301
G03 X31.98098 Y20.64438 I0.40625 J-0.70365
G0 Z1.5875
X173.54597 Y21.33959
G1 Z0.77 F1193.5
X168.41318 Y24.30301 Z-0.27506 F3580.5
X168.3374 Y24.34162 Z-0.29006
X168.25801 Y24.3721 Z-0.30505
X168.17586 Y24.39411 Z-0.32005
X168.09186 Y24.40741 Z-0.33505
X168.00693 Y24.41186 Z-0.35004
X167.922 Y24.40741 Z-0.36504
X167.838 Y24.39411 Z-0.38003
X167.75585 Y24.3721 Z-0.39503
X167.67646 Y24.34162 Z-0.41003
X167.60068 Y24.30301 Z-0.42502
X167.52936 Y24.25669 Z-0.44002
X167.46326 Y24.20317 Z-0.45501
X167.40313 Y24.14303 Z-0.47001
X167.3496 Y24.07694 Z-0.485
X167.30329 Y24.00561 Z-0.5
G03 X167.60068 Y22.89572 I0.70364 J-0.40625 F4774.
G1 X172.79683 Y19.89572
G03 X173.60933 Y21.30301 I0.40625 J0.70364
G1 X168.41318 Y24.30301
G03 X167.30329 Y24.00561 I-0.40625 J-0.70365
G1 Z-1.
G03 X167.60068 Y22.89572 I0.70364 J-0.40625
G1 X172.79683 Y19.89572
G03 X173.60933 Y21.30301 I0.40625 J0.70364
G1 X168.41318 Y24.30301
G03 X167.30329 Y24.00561 I-0.40625 J-0.70365
G1 Z-1.5
G03 X167.60068 Y22.89572 I0.70364 J-0.40625
G1 X172.79683 Y19.89572
G03 X173.60933 Y21.30301 I0.40625 J0.70364
G1 X168.41318 Y24.30301
G03 X167.30329 Y24.00561 I-0.40625 J-0.70365
G1 Z-2.
G03 X167.60068 Y22.89572 I0.70364 J-0.40625
G1 X172.79683 Y19.89572
G03 X173.60933 Y21.30301 I0.40625 J0.70364
G1 X168.41318 Y24.30301
G03 X167.30329 Y24.00561 I-0.40625 J-0.70365
G1 Z-2.5
G03 X167.60068 Y22.89572 I0.70364 J-0.40625
G1 X172.79683 Y19.89572
G03 X173.60933 Y21.30301 I0.40625 J0.70364
G1 X168.41318 Y24.30301
G03 X167.30329 Y24.00561 I-0.40625 J-0.70365
G1 Z-3.
G03 X167.60068 Y22.89572 I0.70364 J-0.40625
G1 X172.79683 Y19.89572
G03 X173.60933 Y21.30301 I0.40625 J0.70364
G1 X168.41318 Y24.30301
G03 X167.30329 Y24.00561 I-0.40625 J-0.70365
G1 Z-3.5
G03 X167.60068 Y22.89572 I0.70364 J-0.40625
G1 X172.79683 Y19.89572
G03 X173.60933 Y21.30301 I0.40625 J0.70364
G1 X168.41318 Y24.30301
G03 X167.30329 Y24.00561 I-0.40625 J-0.70365
G0 Z1.5875
X192.19782 Y66.89051
G1 Z0.77 F1193.5
X192.20059 Y66.80079 Z0.75417 F3580.5
X192.23267 Y66.65432 Z0.72773
X192.29111 Y66.51625 Z0.7013
X192.37393 Y66.39126 Z0.67486
X192.4783 Y66.28362 Z0.64842
X192.60068 Y66.19699 Z0.62198
X197.72993 Y63.23561 Z-0.42236
X197.92977 Y63.14345 Z-0.46116
X198.14353 Y63.09032 Z-0.5
G03 X198.60933 Y64.60428 I0.05955 J0.81031 F4774.
G1 X193.41318 Y67.60428
G03 X192.60068 Y66.19699 I-0.40625 J-0.70365
G1 X197.72993 Y63.23561
X197.92977 Y63.14345
X198.14353 Y63.09032
Z-1.
G03 X198.60933 Y64.60428 I0.05955 J0.81031
G1 X193.41318 Y67.60428
G03 X192.60068 Y66.19699 I-0.40625 J-0.70365
G1 X197.72993 Y63.23561
X197.92977 Y63.14345
X198.14353 Y63.09032
Z-1.5
G03 X198.60933 Y64.60428 I0.05955 J0.81031
G1 X193.41318 Y67.60428
G03 X192.60068 Y66.19699 I-0.40625 J-0.70365
G1 X197.72993 Y63.23561
X197.92977 Y63.14345
X198.14353 Y63.09032
Z-2.
G03 X198.60933 Y64.60428 I0.05955 J0.81031
G1 X193.41318 Y67.60428
G03 X192.60068 Y66.19699 I-0.40625 J-0.70365
G1 X197.72993 Y63.23561
X197.92977 Y63.14345
X198.14353 Y63.09032
Z-2.5
G03 X198.60933 Y64.60428 I0.05955 J0.81031
G1 X193.41318 Y67.60428
G03 X192.60068 Y66.19699 I-0.40625 J-0.70365
G1 X197.72993 Y63.23561
X197.92977 Y63.14345
X198.14353 Y63.09032
Z-3.
G03 X198.60933 Y64.60428 I0.05955 J0.81031
G1 X193.41318 Y67.60428
G03 X192.60068 Y66.19699 I-0.40625 J-0.70365
G1 X197.72993 Y63.23561
X197.92977 Y63.14345
X198.14353 Y63.09032
Z-3.5
G03 X198.60933 Y64.60428 I0.05955 J0.81031
G1 X193.41318 Y67.60428
G03 X192.60068 Y66.19699 I-0.40625 J-0.70365
G1 X197.72993 Y63.23561
X197.92977 Y63.14345
X198.14353 Y63.09032
G0 Z1.5875
X127.18516 Y184.95729
G1 Z0.77 F1193.5
Y179.5 Z-0.19227 F3580.5
X127.19349 Y179.38395 Z-0.21278
X127.21831 Y179.27028 Z-0.2333
X127.25911 Y179.16132 Z-0.25381
X127.31506 Y179.0593 Z-0.27433
X127.385 Y178.96632 Z-0.29485
X127.46751 Y178.88429 Z-0.31536
X127.56089 Y178.81488 Z-0.33588
X127.66322 Y178.75952 Z-0.35639
X127.77241 Y178.71934 Z-0.37691
X127.88623 Y178.69518 Z-0.39742
X128.00232 Y178.68751 Z-0.41794
X128.11832 Y178.69651 Z-0.43845
X128.23185 Y178.72198 Z-0.45897
X128.34057 Y178.76341 Z-0.47949
X128.44227 Y178.81994 Z-0.5
G03 X128.81016 Y179.5 I-0.44461 J0.68006 F4774.
G1 Y185.5
G03 X127.18516 I-0.8125 J0.
G1 Y179.5
G03 X128.44227 Y178.81994 I0.8125 J0.
G1 Z-1.
G03 X128.81016 Y179.5 I-0.44461 J0.68006
G1 Y185.5
G03 X127.18516 I-0.8125 J0.
G1 Y179.5
G03 X128.44227 Y178.81994 I0.8125 J0.
G1 Z-1.5
G03 X128.81016 Y179.5 I-0.44461 J0.68006
G1 Y185.5
G03 X127.18516 I-0.8125 J0.
G1 Y179.5
G03 X128.44227 Y178.81994 I0.8125 J0.
G1 Z-2.
G03 X128.81016 Y179.5 I-0.44461 J0.68006
G1 Y185.5
G03 X127.18516 I-0.8125 J0.
G1 Y179.5
G03 X128.44227 Y178.81994 I0.8125 J0.
G1 Z-2.5
G03 X128.81016 Y179.5 I-0.44461 J0.68006
G1 Y185.5
G03 X127.18516 I-0.8125 J0.
G1 Y179.5
G03 X128.44227 Y178.81994 I0.8125 J0.
G1 Z-3.
G03 X128.81016 Y179.5 I-0.44461 J0.68006
G1 Y185.5
G03 X127.18516 I-0.8125 J0.
G1 Y179.5
G03 X128.44227 Y178.81994 I0.8125 J0.
G1 Z-3.5
G03 X128.81016 Y179.5 I-0.44461 J0.68006
G1 Y185.5
G03 X127.18516 I-0.8125 J0.
G1 Y179.5
G03 X128.44227 Y178.81994 I0.8125 J0.
G0 Z1.5875
X77.18516 Y184.95729
G1 Z0.77 F1193.5
Y179.5 Z-0.19227 F3580.5
X77.19349 Y179.38395 Z-0.21278
X77.21831 Y179.27028 Z-0.2333
X77.25911 Y179.16132 Z-0.25381
X77.31506 Y179.0593 Z-0.27433
X77.385 Y178.96632 Z-0.29485
X77.46751 Y178.88429 Z-0.31536
X77.56089 Y178.81488 Z-0.33588
X77.66322 Y178.75952 Z-0.35639
X77.77241 Y178.71934 Z-0.37691
X77.88623 Y178.69518 Z-0.39742
X78.00232 Y178.68751 Z-0.41794
X78.11832 Y178.69651 Z-0.43845
X78.23185 Y178.72198 Z-0.45897
X78.34057 Y178.76341 Z-0.47949
X78.44227 Y178.81994 Z-0.5
G03 X78.81016 Y179.5 I-0.44461 J0.68006 F4774.
G1 Y185.5
G03 X77.18516 I-0.8125 J0.
G1 Y179.5
G03 X78.44227 Y178.81994 I0.8125 J0.
G1 Z-1.
G03 X78.81016 Y179.5 I-0.44461 J0.68006
G1 Y185.5
G03 X77.18516 I-0.8125 J0.
G1 Y179.5
G03 X78.44227 Y178.81994 I0.8125 J0.
G1 Z-1.5
G03 X78.81016 Y179.5 I-0.44461 J0.68006
G1 Y185.5
G03 X77.18516 I-0.8125 J0.
G1 Y179.5
G03 X78.44227 Y178.81994 I0.8125 J0.
G1 Z-2.
G03 X78.81016 Y179.5 I-0.44461 J0.68006
G1 Y185.5
G03 X77.18516 I-0.8125 J0.
G1 Y179.5
G03 X78.44227 Y178.81994 I0.8125 J0.
G1 Z-2.5
G03 X78.81016 Y179.5 I-0.44461 J0.68006
G1 Y185.5
G03 X77.18516 I-0.8125 J0.
G1 Y179.5
G03 X78.44227 Y178.81994 I0.8125 J0.
G1 Z-3.
G03 X78.81016 Y179.5 I-0.44461 J0.68006
G1 Y185.5
G03 X77.18516 I-0.8125 J0.
G1 Y179.5
G03 X78.44227 Y178.81994 I0.8125 J0.
G1 Z-3.5
G03 X78.81016 Y179.5 I-0.44461 J0.68006
G1 Y185.5
G03 X77.18516 I-0.8125 J0.
G1 Y179.5
G03 X78.44227 Y178.81994 I0.8125 J0.
G0 Z1.5875
(2 1/2 Axis Profiling)
(SlotDrill 1/8in 3.175mm Carbide Aluminium Cut)
X157.05516 Y164.16941
G1 Z0.77 F1193.5
X157.54712 Y163.81169 Z0.66275 F3580.5
X158.86265 Y162.81814 Z0.37206
X160.15995 Y161.8009 Z0.08137
X161.43859 Y160.7603 Z-0.20931
X162.69816 Y159.6967 Z-0.5
G02 X194.30173 Y80.59197 I-59.62615 J-69.687 F4774.
G03 X194.90161 Y79.41777 I1.20613 J-0.12414
G1 X205.39587 Y73.35891
G02 X207.14822 Y66.81906 I-2.39375 J-4.1461
G1 X200.14822 Y54.69471
G02 X193.60837 Y52.94236 I-4.1461 J2.39375
G1 X180.7288 Y60.37839
G03 X179.20436 Y60.12022 I-0.60625 J-1.05006
G02 X167.17425 Y39.29932 I-78.84645 J31.67082
G1 X167.17117 Y39.29542
G03 X167.5163 Y37.49366 I0.95138 J-0.7517
G1 X180.39587 Y30.05764
G02 X182.14822 Y23.51779 I-2.39375 J-4.1461
G1 X175.14822 Y11.39344
G02 X168.60837 Y9.64109 I-4.1461 J2.39375
G1 X158.11411 Y15.69995
G03 X156.79718 Y15.63229 I-0.60625 J-1.05005
G02 X49.19814 I-53.79952 J74.36771
G03 X47.8812 Y15.69995 I-0.71069 J-0.98239
G1 X37.38694 Y9.64109
G02 X30.8471 Y11.39344 I-2.39375 J4.1461
G1 X23.8471 Y23.51779
G02 X25.59944 Y30.05764 I4.14609 J2.39375
G1 X38.47902 Y37.49366
G03 X39.01766 Y38.94294 I-0.60625 J1.05006
G02 X27.00128 Y59.77178 I66.85096 J52.44763
G1 X26.99944 Y59.7764
G03 X25.26652 Y60.37839 I-1.12667 J-0.44807
G1 X12.38694 Y52.94236
G02 X5.8471 Y54.69471 I-2.39375 J4.1461
G1 X-1.1529 Y66.81906
G02 X0.59944 Y73.35891 I4.14609 J2.39375
G1 X11.0937 Y79.41777
G03 X11.69357 Y80.59211 I-0.60625 J1.05006
G02 X65.49309 Y173.77561 I91.30409 J9.40789
G03 X66.21016 Y174.88227 I-0.49543 J1.10666
G1 Y187.
G02 X70.99766 Y191.7875 I4.7875 J0.
G1 X84.99766
G02 X89.78516 Y187. I0. J-4.7875
G1 Y172.12795
G03 X90.77095 Y170.93683 I1.2125 J0.
G02 X114.81744 Y170.9289 I11.9955 J-84.11844
G1 X114.82236 Y170.92819
G03 X116.21016 Y172.12795 I0.1753 J1.19976
G1 Y187.
G02 X120.99766 Y191.7875 I4.7875 J0.
G1 X134.99766
G02 X139.78516 Y187. I0. J-4.7875
G1 Y174.88227
G03 X140.50177 Y173.77581 I1.2125 J0.
G02 X162.69816 Y159.6967 I-37.09116 J-83.01236
G1 Z-1.
G02 X194.30173 Y80.59197 I-59.62615 J-69.687
G03 X194.90161 Y79.41777 I1.20613 J-0.12414
G1 X205.39587 Y73.35891
G02 X207.14822 Y66.81906 I-2.39375 J-4.1461
G1 X200.14822 Y54.69471
G02 X193.60837 Y52.94236 I-4.1461 J2.39375
G1 X180.7288 Y60.37839
G03 X179.20436 Y60.12022 I-0.60625 J-1.05006
G02 X167.17425 Y39.29932 I-78.84645 J31.67082
G1 X167.17117 Y39.29542
G03 X167.5163 Y37.49366 I0.95138 J-0.7517
G1 X180.39587 Y30.05764
G02 X182.14822 Y23.51779 I-2.39375 J-4.1461
G1 X175.14822 Y11.39344
G02 X168.60837 Y9.64109 I-4.1461 J2.39375
G1 X158.11411 Y15.69995
G03 X156.79718 Y15.63229 I-0.60625 J-1.05005
G02 X49.19814 I-53.79952 J74.36771
G03 X47.8812 Y15.69995 I-0.71069 J-0.98239
G1 X37.38694 Y9.64109
G02 X30.8471 Y11.39344 I-2.39375 J4.1461
G1 X23.8471 Y23.51779
G02 X25.59944 Y30.05764 I4.14609 J2.39375
G1 X38.47902 Y37.49366
G03 X39.01766 Y38.94294 I-0.60625 J1.05006
G02 X27.00128 Y59.77178 I66.85096 J52.44763
G1 X26.99944 Y59.7764
G03 X25.26652 Y60.37839 I-1.12667 J-0.44807
G1 X12.38694 Y52.94236
G02 X5.8471 Y54.69471 I-2.39375 J4.1461
G1 X-1.1529 Y66.81906
G02 X0.59944 Y73.35891 I4.14609 J2.39375
G1 X11.0937 Y79.41777
G03 X11.69357 Y80.59211 I-0.60625 J1.05006
G02 X65.49309 Y173.77561 I91.30409 J9.40789
G03 X66.21016 Y174.88227 I-0.49543 J1.10666
G1 Y187.
G02 X70.99766 Y191.7875 I4.7875 J0.
G1 X84.99766
G02 X89.78516 Y187. I0. J-4.7875
G1 Y172.12795
G03 X90.77095 Y170.93683 I1.2125 J0.
G02 X114.81744 Y170.9289 I11.9955 J-84.11844
G1 X114.82236 Y170.92819
G03 X116.21016 Y172.12795 I0.1753 J1.19976
G1 Y187.
G02 X120.99766 Y191.7875 I4.7875 J0.
G1 X134.99766
G02 X139.78516 Y187. I0. J-4.7875
G1 Y174.88227
G03 X140.50177 Y173.77581 I1.2125 J0.
G02 X162.69816 Y159.6967 I-37.09116 J-83.01236
G1 Z-1.5
G02 X194.30173 Y80.59197 I-59.62615 J-69.687
G03 X194.90161 Y79.41777 I1.20613 J-0.12414
G1 X205.39587 Y73.35891
G02 X207.14822 Y66.81906 I-2.39375 J-4.1461
G1 X200.14822 Y54.69471
G02 X193.60837 Y52.94236 I-4.1461 J2.39375
G1 X180.7288 Y60.37839
G03 X179.20436 Y60.12022 I-0.60625 J-1.05006
G02 X167.17425 Y39.29932 I-78.84645 J31.67082
G1 X167.17117 Y39.29542
G03 X167.5163 Y37.49366 I0.95138 J-0.7517
G1 X180.39587 Y30.05764
G02 X182.14822 Y23.51779 I-2.39375 J-4.1461
G1 X175.14822 Y11.39344
G02 X168.60837 Y9.64109 I-4.1461 J2.39375
G1 X158.11411 Y15.69995
G03 X156.79718 Y15.63229 I-0.60625 J-1.05005
G02 X49.19814 I-53.79952 J74.36771
G03 X47.8812 Y15.69995 I-0.71069 J-0.98239
G1 X37.38694 Y9.64109
G02 X30.8471 Y11.39344 I-2.39375 J4.1461
G1 X23.8471 Y23.51779
G02 X25.59944 Y30.05764 I4.14609 J2.39375
G1 X38.47902 Y37.49366
G03 X39.01766 Y38.94294 I-0.60625 J1.05006
G02 X27.00128 Y59.77178 I66.85096 J52.44763
G1 X26.99944 Y59.7764
G03 X25.26652 Y60.37839 I-1.12667 J-0.44807
G1 X12.38694 Y52.94236
G02 X5.8471 Y54.69471 I-2.39375 J4.1461
G1 X-1.1529 Y66.81906
G02 X0.59944 Y73.35891 I4.14609 J2.39375
G1 X11.0937 Y79.41777
G03 X11.69357 Y80.59211 I-0.60625 J1.05006
G02 X65.49309 Y173.77561 I91.30409 J9.40789
G03 X66.21016 Y174.88227 I-0.49543 J1.10666
G1 Y187.
G02 X70.99766 Y191.7875 I4.7875 J0.
G1 X84.99766
G02 X89.78516 Y187. I0. J-4.7875
G1 Y172.12795
G03 X90.77095 Y170.93683 I1.2125 J0.
G02 X114.81744 Y170.9289 I11.9955 J-84.11844
G1 X114.82236 Y170.92819
G03 X116.21016 Y172.12795 I0.1753 J1.19976
G1 Y187.
G02 X120.99766 Y191.7875 I4.7875 J0.
G1 X134.99766
G02 X139.78516 Y187. I0. J-4.7875
G1 Y174.88227
G03 X140.50177 Y173.77581 I1.2125 J0.
G02 X162.69816 Y159.6967 I-37.09116 J-83.01236
G1 Z-2.
G02 X194.30173 Y80.59197 I-59.62615 J-69.687
G03 X194.90161 Y79.41777 I1.20613 J-0.12414
G1 X205.39587 Y73.35891
G02 X207.14822 Y66.81906 I-2.39375 J-4.1461
G1 X200.14822 Y54.69471
G02 X193.60837 Y52.94236 I-4.1461 J2.39375
G1 X180.7288 Y60.37839
G03 X179.20436 Y60.12022 I-0.60625 J-1.05006
G02 X167.17425 Y39.29932 I-78.84645 J31.67082
G1 X167.17117 Y39.29542
G03 X167.5163 Y37.49366 I0.95138 J-0.7517
G1 X180.39587 Y30.05764
G02 X182.14822 Y23.51779 I-2.39375 J-4.1461
G1 X175.14822 Y11.39344
G02 X168.60837 Y9.64109 I-4.1461 J2.39375
G1 X158.11411 Y15.69995
G03 X156.79718 Y15.63229 I-0.60625 J-1.05005
G02 X49.19814 I-53.79952 J74.36771
G03 X47.8812 Y15.69995 I-0.71069 J-0.98239
G1 X37.38694 Y9.64109
G02 X30.8471 Y11.39344 I-2.39375 J4.1461
G1 X23.8471 Y23.51779
G02 X25.59944 Y30.05764 I4.14609 J2.39375
G1 X38.47902 Y37.49366
G03 X39.01766 Y38.94294 I-0.60625 J1.05006
G02 X27.00128 Y59.77178 I66.85096 J52.44763
G1 X26.99944 Y59.7764
G03 X25.26652 Y60.37839 I-1.12667 J-0.44807
G1 X12.38694 Y52.94236
G02 X5.8471 Y54.69471 I-2.39375 J4.1461
G1 X-1.1529 Y66.81906
G02 X0.59944 Y73.35891 I4.14609 J2.39375
G1 X11.0937 Y79.41777
G03 X11.69357 Y80.59211 I-0.60625 J1.05006
G02 X65.49309 Y173.77561 I91.30409 J9.40789
G03 X66.21016 Y174.88227 I-0.49543 J1.10666
G1 Y187.
G02 X70.99766 Y191.7875 I4.7875 J0.
G1 X84.99766
G02 X89.78516 Y187. I0. J-4.7875
G1 Y172.12795
G03 X90.77095 Y170.93683 I1.2125 J0.
G02 X114.81744 Y170.9289 I11.9955 J-84.11844
G1 X114.82236 Y170.92819
G03 X116.21016 Y172.12795 I0.1753 J1.19976
G1 Y187.
G02 X120.99766 Y191.7875 I4.7875 J0.
G1 X134.99766
G02 X139.78516 Y187. I0. J-4.7875
G1 Y174.88227
G03 X140.50177 Y173.77581 I1.2125 J0.
G02 X162.69816 Y159.6967 I-37.09116 J-83.01236
G1 Z-2.5
G02 X194.30173 Y80.59197 I-59.62615 J-69.687
G03 X194.90161 Y79.41777 I1.20613 J-0.12414
G1 X205.39587 Y73.35891
G02 X207.14822 Y66.81906 I-2.39375 J-4.1461
G1 X200.14822 Y54.69471
G02 X193.60837 Y52.94236 I-4.1461 J2.39375
G1 X180.7288 Y60.37839
G03 X179.20436 Y60.12022 I-0.60625 J-1.05006
G02 X167.17425 Y39.29932 I-78.84645 J31.67082
G1 X167.17117 Y39.29542
G03 X167.5163 Y37.49366 I0.95138 J-0.7517
G1 X180.39587 Y30.05764
G02 X182.14822 Y23.51779 I-2.39375 J-4.1461
G1 X175.14822 Y11.39344
G02 X168.60837 Y9.64109 I-4.1461 J2.39375
G1 X158.11411 Y15.69995
G03 X156.79718 Y15.63229 I-0.60625 J-1.05005
G02 X49.19814 I-53.79952 J74.36771
G03 X47.8812 Y15.69995 I-0.71069 J-0.98239
G1 X37.38694 Y9.64109
G02 X30.8471 Y11.39344 I-2.39375 J4.1461
G1 X23.8471 Y23.51779
G02 X25.59944 Y30.05764 I4.14609 J2.39375
G1 X38.47902 Y37.49366
G03 X39.01766 Y38.94294 I-0.60625 J1.05006
G02 X27.00128 Y59.77178 I66.85096 J52.44763
G1 X26.99944 Y59.7764
G03 X25.26652 Y60.37839 I-1.12667 J-0.44807
G1 X12.38694 Y52.94236
G02 X5.8471 Y54.69471 I-2.39375 J4.1461
G1 X-1.1529 Y66.81906
G02 X0.59944 Y73.35891 I4.14609 J2.39375
G1 X11.0937 Y79.41777
G03 X11.69357 Y80.59211 I-0.60625 J1.05006
G02 X65.49309 Y173.77561 I91.30409 J9.40789
G03 X66.21016 Y174.88227 I-0.49543 J1.10666
G1 Y187.
G02 X70.99766 Y191.7875 I4.7875 J0.
G1 X84.99766
G02 X89.78516 Y187. I0. J-4.7875
G1 Y172.12795
G03 X90.77095 Y170.93683 I1.2125 J0.
G02 X114.81744 Y170.9289 I11.9955 J-84.11844
G1 X114.82236 Y170.92819
G03 X116.21016 Y172.12795 I0.1753 J1.19976
G1 Y187.
G02 X120.99766 Y191.7875 I4.7875 J0.
G1 X134.99766
G02 X139.78516 Y187. I0. J-4.7875
G1 Y174.88227
G03 X140.50177 Y173.77581 I1.2125 J0.
G02 X162.69816 Y159.6967 I-37.09116 J-83.01236
G0 Z1.5875
(2 1/2 Axis Profiling-2)
(SlotDrill 1/8in 3.175mm Carbide Aluminium Cut)
X156.92455 Y164.01711
G1 Z-2.23 F1193.5
X157.42817 Y163.65091 Z-2.3398 F3580.5
X158.74082 Y162.65952 Z-2.62985
X160.03528 Y161.6445 Z-2.9199
X161.31113 Y160.60618 Z-3.20995
X162.56794 Y159.5449 Z-3.5
G02 X194.10279 Y80.61248 I-59.49593 J-69.5352 F4774.
G03 X194.80161 Y79.24457 I1.40507 J-0.14465
G1 X205.29587 Y73.1857
G02 X206.97501 Y66.91906 I-2.29375 J-3.97289
G1 X199.97501 Y54.79471
G02 X193.70837 Y53.11557 I-3.97289 J2.29375
G1 X180.8288 Y60.55159
G03 X179.03068 Y60.22442 I-0.70625 J-1.22326
G02 X167.01698 Y39.42287 I-78.67277 J31.56662
G1 X167.01425 Y39.41941
G03 X167.4163 Y37.32046 I1.1083 J-0.87569
G1 X180.29587 Y29.88443
G02 X181.97501 Y23.61779 I-2.29375 J-3.97289
G1 X174.97501 Y11.49344
G02 X168.70837 Y9.8143 I-3.97289 J2.29375
G1 X158.21411 Y15.87316
G03 X156.67995 Y15.79433 I-0.70625 J-1.22326
G02 X49.31536 I-53.68229 J74.20567
G03 X47.7812 Y15.87316 I-0.82791 J-1.14443
G1 X37.28694 Y9.8143
G02 X31.0203 Y11.49344 I-2.29375 J3.97289
G1 X24.0203 Y23.61779
G02 X25.69944 Y29.88443 I3.97289 J2.29375
G1 X38.57902 Y37.32046
G03 X39.19474 Y39.04126 I-0.70625 J1.22326
G02 X27.18692 Y59.8462 I66.67388 J52.34931
G1 X27.18528 Y59.8503
G03 X25.16652 Y60.55159 I-1.31251 J-0.52197
G1 X12.28694 Y53.11557
G02 X6.0203 Y54.79471 I-2.29375 J3.97289
G1 X-0.9797 Y66.91906
G02 X0.69944 Y73.1857 I3.97289 J2.29375
G1 X11.1937 Y79.24457
G03 X11.89251 Y80.61261 I-0.70625 J1.22326
G02 X65.57481 Y173.59306 I91.10515 J9.38739
G03 X66.41016 Y174.88227 I-0.57715 J1.28921
G1 Y187.
G02 X70.99766 Y191.5875 I4.5875 J0.
G1 X84.99766
G02 X89.58516 Y187. I0. J-4.5875
G1 Y172.12795
G03 X90.76755 Y170.73432 I1.4125 J0.
G02 X114.78907 Y170.73092 I11.9989 J-83.91593
G1 X114.79344 Y170.73029
G03 X116.41016 Y172.12795 I0.20422 J1.39766
G1 Y187.
G02 X120.99766 Y191.5875 I4.5875 J0.
G1 X134.99766
G02 X139.58516 Y187. I0. J-4.5875
G1 Y174.88227
G03 X140.42008 Y173.59326 I1.4125 J0.
G02 X162.56794 Y159.5449 I-37.00947 J-82.82981
G0 Z1.5875
M30
%
