%
G17 G21 G40 G90 G64 P0.1
(Hole Pocketing)
(SlotDrill 2mm Carbide)
T12 M06
S24000 M3
G0 Z1.
X7.19869 Y25.39298
G1 Z0.635 F60.
G17
G3 Z0.408 I-0.19869 J0.00702 F240.
Z0.181 I-0.19869 J0.00702
Z-0.046 I-0.19869 J0.00702
Z-0.273 I-0.19869 J0.00702
Z-0.5 I-0.19869 J0.00702
G1 X7.20031 Y25.55637
X7.06446 Y25.70264
X6.8289 Y25.72211
X6.61061 Y25.55751
X6.54786 Y25.25329
X6.73605 Y24.97798
G03 X7.26395 Y25.82202 I0.26395 J0.42202
X6.73605 Y24.97798 I-0.26395 J-0.42202
G1 X7.19869 Y25.39298
G3 Z-0.75 I-0.19869 J0.00702
Z-1. I-0.19869 J0.00702
G1 X7.20031 Y25.55637
X7.06446 Y25.70264
X6.8289 Y25.72211
X6.61061 Y25.55751
X6.54786 Y25.25329
X6.73605 Y24.97798
G03 X7.26395 Y25.82202 I0.26395 J0.42202
X6.73605 Y24.97798 I-0.26395 J-0.42202
G1 X7.19869 Y25.39298
G3 Z-1.25 I-0.19869 J0.00702
Z-1.5 I-0.19869 J0.00702
G1 X7.20031 Y25.55637
X7.06446 Y25.70264
X6.8289 Y25.72211
X6.61061 Y25.55751
X6.54786 Y25.25329
X6.73605 Y24.97798
G03 X7.26395 Y25.82202 I0.26395 J0.42202
X6.73605 Y24.97798 I-0.26395 J-0.42202
G1 X7.19869 Y25.39298
G3 Z-1.75 I-0.19869 J0.00702
Z-2. I-0.19869 J0.00702
G1 X7.20031 Y25.55637
X7.06446 Y25.70264
X6.8289 Y25.72211
X6.61061 Y25.55751
X6.54786 Y25.25329
X6.73605 Y24.97798
G03 X7.26395 Y25.82202 I0.26395 J0.42202
X6.73605 Y24.97798 I-0.26395 J-0.42202
G1 X7.19869 Y25.39298
G3 Z-2.25 I-0.19869 J0.00702
Z-2.5 I-0.19869 J0.00702
G1 X7.20031 Y25.55637
X7.06446 Y25.70264
X6.8289 Y25.72211
X6.61061 Y25.55751
X6.54786 Y25.25329
X6.73605 Y24.97798
G03 X7.26395 Y25.82202 I0.26395 J0.42202
X6.73605 Y24.97798 I-0.26395 J-0.42202
G1 X7.19869 Y25.39298
G3 Z-2.75 I-0.19869 J0.00702
Z-3. I-0.19869 J0.00702
G1 X7.20031 Y25.55637
X7.06446 Y25.70264
X6.8289 Y25.72211
X6.61061 Y25.55751
X6.54786 Y25.25329
X6.73605 Y24.97798
G03 X7.26395 Y25.82202 I0.26395 J0.42202
X6.73605 Y24.97798 I-0.26395 J-0.42202
G1 X7.19869 Y25.39298
G3 Z-3.25 I-0.19869 J0.00702
Z-3.5 I-0.19869 J0.00702
G1 X7.20031 Y25.55637
X7.06446 Y25.70264
X6.8289 Y25.72211
X6.61061 Y25.55751
X6.54786 Y25.25329
X6.73605 Y24.97798
G03 X7.26395 Y25.82202 I0.26395 J0.42202
X6.73605 Y24.97798 I-0.26395 J-0.42202
G1 X7.19869 Y25.39298
G3 Z-3.75 I-0.19869 J0.00702
Z-4. I-0.19869 J0.00702
G1 X7.20031 Y25.55637
X7.06446 Y25.70264
X6.8289 Y25.72211
X6.61061 Y25.55751
X6.54786 Y25.25329
X6.73605 Y24.97798
G03 X7.26395 Y25.82202 I0.26395 J0.42202
X6.73605 Y24.97798 I-0.26395 J-0.42202
G1 X7.19869 Y25.39298
X7. Y25.4
G0 Z1.
X7.19869 Y5.39298
G1 Z0.635 F60.
G3 Z0.408 I-0.19869 J0.00702 F240.
Z0.181 I-0.19869 J0.00702
Z-0.046 I-0.19869 J0.00702
Z-0.273 I-0.19869 J0.00702
Z-0.5 I-0.19869 J0.00702
G1 X7.20031 Y5.55637
X7.06446 Y5.70264
X6.8289 Y5.72211
X6.61061 Y5.55751
X6.54786 Y5.25329
X6.73605 Y4.97798
G03 X7.26395 Y5.82202 I0.26395 J0.42202
X6.73605 Y4.97798 I-0.26395 J-0.42202
G1 X7.19869 Y5.39298
G3 Z-0.75 I-0.19869 J0.00702
Z-1. I-0.19869 J0.00702
G1 X7.20031 Y5.55637
X7.06446 Y5.70264
X6.8289 Y5.72211
X6.61061 Y5.55751
X6.54786 Y5.25329
X6.73605 Y4.97798
G03 X7.26395 Y5.82202 I0.26395 J0.42202
X6.73605 Y4.97798 I-0.26395 J-0.42202
G1 X7.19869 Y5.39298
G3 Z-1.25 I-0.19869 J0.00702
Z-1.5 I-0.19869 J0.00702
G1 X7.20031 Y5.55637
X7.06446 Y5.70264
X6.8289 Y5.72211
X6.61061 Y5.55751
X6.54786 Y5.25329
X6.73605 Y4.97798
G03 X7.26395 Y5.82202 I0.26395 J0.42202
X6.73605 Y4.97798 I-0.26395 J-0.42202
G1 X7.19869 Y5.39298
G3 Z-1.75 I-0.19869 J0.00702
Z-2. I-0.19869 J0.00702
G1 X7.20031 Y5.55637
X7.06446 Y5.70264
X6.8289 Y5.72211
X6.61061 Y5.55751
X6.54786 Y5.25329
X6.73605 Y4.97798
G03 X7.26395 Y5.82202 I0.26395 J0.42202
X6.73605 Y4.97798 I-0.26395 J-0.42202
G1 X7.19869 Y5.39298
G3 Z-2.25 I-0.19869 J0.00702
Z-2.5 I-0.19869 J0.00702
G1 X7.20031 Y5.55637
X7.06446 Y5.70264
X6.8289 Y5.72211
X6.61061 Y5.55751
X6.54786 Y5.25329
X6.73605 Y4.97798
G03 X7.26395 Y5.82202 I0.26395 J0.42202
X6.73605 Y4.97798 I-0.26395 J-0.42202
G1 X7.19869 Y5.39298
G3 Z-2.75 I-0.19869 J0.00702
Z-3. I-0.19869 J0.00702
G1 X7.20031 Y5.55637
X7.06446 Y5.70264
X6.8289 Y5.72211
X6.61061 Y5.55751
X6.54786 Y5.25329
X6.73605 Y4.97798
G03 X7.26395 Y5.82202 I0.26395 J0.42202
X6.73605 Y4.97798 I-0.26395 J-0.42202
G1 X7.19869 Y5.39298
G3 Z-3.25 I-0.19869 J0.00702
Z-3.5 I-0.19869 J0.00702
G1 X7.20031 Y5.55637
X7.06446 Y5.70264
X6.8289 Y5.72211
X6.61061 Y5.55751
X6.54786 Y5.25329
X6.73605 Y4.97798
G03 X7.26395 Y5.82202 I0.26395 J0.42202
X6.73605 Y4.97798 I-0.26395 J-0.42202
G1 X7.19869 Y5.39298
G3 Z-3.75 I-0.19869 J0.00702
Z-4. I-0.19869 J0.00702
G1 X7.20031 Y5.55637
X7.06446 Y5.70264
X6.8289 Y5.72211
X6.61061 Y5.55751
X6.54786 Y5.25329
X6.73605 Y4.97798
G03 X7.26395 Y5.82202 I0.26395 J0.42202
X6.73605 Y4.97798 I-0.26395 J-0.42202
G1 X7.19869 Y5.39298
X7. Y5.4
G0 Z1.
(2 1/2 Axis Profiling)
(SlotDrill 2mm Carbide)
S23873 M3
X-3.32544 Y31.8
G1 Z-0.5 F59.5
X3. F238.
X3.25052 Y31.76811
X3.48507 Y31.67448
X3.68868 Y31.52507
X3.84836 Y31.32942
X3.95394 Y31.1
G03 X4.90788 Y30.4 I0.95394 J0.3
G1 X9.
G02 X12. Y27.4 I0. J-3.
G1 Y23.4
X11.98078 Y23.20491
X11.82854 Y22.43954
X11.77164 Y22.25195
G02 X9. Y20.4 I-2.77164 J1.14805
G1 X5.
G03 X4. Y19.4 I0. J-1.
G1 Y11.4
G03 X5. Y10.4 I1. J0.
G1 X9.
G02 X12. Y7.4 I0. J-3.
G1 Y3.4
G02 X9. Y0.4 I-3. J0.
G1 X4.90788
G03 X3.95394 Y-0.3 I0. J-1.
G1 X3.84836 Y-0.52942
X3.68868 Y-0.72507
X3.48507 Y-0.87448
X3.25052 Y-0.96811
X3. Y-1.
X-2.52956
G0 Z1.
X-3.32544 Y31.8
G1 Z-1. F59.5
X3. F238.
X3.25052 Y31.76811
X3.48507 Y31.67448
X3.68868 Y31.52507
X3.84836 Y31.32942
X3.95394 Y31.1
G03 X4.90788 Y30.4 I0.95394 J0.3
G1 X9.
G02 X12. Y27.4 I0. J-3.
G1 Y23.4
X11.98078 Y23.20491
X11.82854 Y22.43954
X11.77164 Y22.25195
G02 X9. Y20.4 I-2.77164 J1.14805
G1 X5.
G03 X4. Y19.4 I0. J-1.
G1 Y11.4
G03 X5. Y10.4 I1. J0.
G1 X9.
G02 X12. Y7.4 I0. J-3.
G1 Y3.4
G02 X9. Y0.4 I-3. J0.
G1 X4.90788
G03 X3.95394 Y-0.3 I0. J-1.
G1 X3.84836 Y-0.52942
X3.68868 Y-0.72507
X3.48507 Y-0.87448
X3.25052 Y-0.96811
X3. Y-1.
X-2.52956
G0 Z1.
X-3.32544 Y31.8
G1 Z-1.5 F59.5
X3. F238.
X3.25052 Y31.76811
X3.48507 Y31.67448
X3.68868 Y31.52507
X3.84836 Y31.32942
X3.95394 Y31.1
G03 X4.90788 Y30.4 I0.95394 J0.3
G1 X9.
G02 X12. Y27.4 I0. J-3.
G1 Y23.4
X11.98078 Y23.20491
X11.82854 Y22.43954
X11.77164 Y22.25195
G02 X9. Y20.4 I-2.77164 J1.14805
G1 X5.
G03 X4. Y19.4 I0. J-1.
G1 Y11.4
G03 X5. Y10.4 I1. J0.
G1 X9.
G02 X12. Y7.4 I0. J-3.
G1 Y3.4
G02 X9. Y0.4 I-3. J0.
G1 X4.90788
G03 X3.95394 Y-0.3 I0. J-1.
G1 X3.84836 Y-0.52942
X3.68868 Y-0.72507
X3.48507 Y-0.87448
X3.25052 Y-0.96811
X3. Y-1.
X-2.52956
G0 Z1.
X-3.32544 Y31.8
G1 Z-2. F59.5
X3. F238.
X3.25052 Y31.76811
X3.48507 Y31.67448
X3.68868 Y31.52507
X3.84836 Y31.32942
X3.95394 Y31.1
G03 X4.90788 Y30.4 I0.95394 J0.3
G1 X9.
G02 X12. Y27.4 I0. J-3.
G1 Y23.4
X11.98078 Y23.20491
X11.82854 Y22.43954
X11.77164 Y22.25195
G02 X9. Y20.4 I-2.77164 J1.14805
G1 X5.
G03 X4. Y19.4 I0. J-1.
G1 Y11.4
G03 X5. Y10.4 I1. J0.
G1 X9.
G02 X12. Y7.4 I0. J-3.
G1 Y3.4
G02 X9. Y0.4 I-3. J0.
G1 X4.90788
G03 X3.95394 Y-0.3 I0. J-1.
G1 X3.84836 Y-0.52942
X3.68868 Y-0.72507
X3.48507 Y-0.87448
X3.25052 Y-0.96811
X3. Y-1.
X-2.52956
G0 Z1.
X-3.32544 Y31.8
G1 Z-2.5 F59.5
X3. F238.
X3.25052 Y31.76811
X3.48507 Y31.67448
X3.68868 Y31.52507
X3.84836 Y31.32942
X3.95394 Y31.1
G03 X4.90788 Y30.4 I0.95394 J0.3
G1 X9.
G02 X12. Y27.4 I0. J-3.
G1 Y23.4
X11.98078 Y23.20491
X11.82854 Y22.43954
X11.77164 Y22.25195
G02 X9. Y20.4 I-2.77164 J1.14805
G1 X5.
G03 X4. Y19.4 I0. J-1.
G1 Y11.4
G03 X5. Y10.4 I1. J0.
G1 X9.
G02 X12. Y7.4 I0. J-3.
G1 Y3.4
G02 X9. Y0.4 I-3. J0.
G1 X4.90788
G03 X3.95394 Y-0.3 I0. J-1.
G1 X3.84836 Y-0.52942
X3.68868 Y-0.72507
X3.48507 Y-0.87448
X3.25052 Y-0.96811
X3. Y-1.
X-2.52956
G0 Z1.
X-3.32544 Y31.8
G1 Z-3. F59.5
X3. F238.
X3.25052 Y31.76811
X3.48507 Y31.67448
X3.68868 Y31.52507
X3.84836 Y31.32942
X3.95394 Y31.1
G03 X4.90788 Y30.4 I0.95394 J0.3
G1 X9.
G02 X12. Y27.4 I0. J-3.
G1 Y23.4
X11.98078 Y23.20491
X11.82854 Y22.43954
X11.77164 Y22.25195
G02 X9. Y20.4 I-2.77164 J1.14805
G1 X5.
G03 X4. Y19.4 I0. J-1.
G1 Y11.4
G03 X5. Y10.4 I1. J0.
G1 X9.
G02 X12. Y7.4 I0. J-3.
G1 Y3.4
G02 X9. Y0.4 I-3. J0.
G1 X4.90788
G03 X3.95394 Y-0.3 I0. J-1.
G1 X3.84836 Y-0.52942
X3.68868 Y-0.72507
X3.48507 Y-0.87448
X3.25052 Y-0.96811
X3. Y-1.
X-2.52956
G0 Z1.
X-3.32544 Y31.8
G1 Z-3.5 F59.5
X3. F238.
X3.25052 Y31.76811
X3.48507 Y31.67448
X3.68868 Y31.52507
X3.84836 Y31.32942
X3.95394 Y31.1
G03 X4.90788 Y30.4 I0.95394 J0.3
G1 X9.
G02 X12. Y27.4 I0. J-3.
G1 Y23.4
X11.98078 Y23.20491
X11.82854 Y22.43954
X11.77164 Y22.25195
G02 X9. Y20.4 I-2.77164 J1.14805
G1 X5.
G03 X4. Y19.4 I0. J-1.
G1 Y11.4
G03 X5. Y10.4 I1. J0.
G1 X9.
G02 X12. Y7.4 I0. J-3.
G1 Y3.4
G02 X9. Y0.4 I-3. J0.
G1 X4.90788
G03 X3.95394 Y-0.3 I0. J-1.
G1 X3.84836 Y-0.52942
X3.68868 Y-0.72507
X3.48507 Y-0.87448
X3.25052 Y-0.96811
X3. Y-1.
X-2.52956
G0 Z1.
X-3.32544 Y31.8
G1 Z-4. F59.5
X3. F238.
X3.25052 Y31.76811
X3.48507 Y31.67448
X3.68868 Y31.52507
X3.84836 Y31.32942
X3.95394 Y31.1
G03 X4.90788 Y30.4 I0.95394 J0.3
G1 X9.
G02 X12. Y27.4 I0. J-3.
G1 Y23.4
X11.98078 Y23.20491
X11.82854 Y22.43954
X11.77164 Y22.25195
G02 X9. Y20.4 I-2.77164 J1.14805
G1 X5.
G03 X4. Y19.4 I0. J-1.
G1 Y11.4
G03 X5. Y10.4 I1. J0.
G1 X9.
G02 X12. Y7.4 I0. J-3.
G1 Y3.4
G02 X9. Y0.4 I-3. J0.
G1 X4.90788
G03 X3.95394 Y-0.3 I0. J-1.
G1 X3.84836 Y-0.52942
X3.68868 Y-0.72507
X3.48507 Y-0.87448
X3.25052 Y-0.96811
X3. Y-1.
X-2.52956
G0 Z1.
M30
%
