%
G17 G21 G40 G90 G64 P0.1
(Hole Pocketing)
(SlotDrill 2mm Carbide)
T12 M06
S24000 M3
G0 Z1.
X-27.50131 Y28.09298
G1 Z0.635 F60.
G17
G3 Z0.408 I-0.19869 J0.00702 F240.
Z0.181 I-0.19869 J0.00702
Z-0.046 I-0.19869 J0.00702
Z-0.273 I-0.19869 J0.00702
Z-0.5 I-0.19869 J0.00702
G1 X-27.52339 Y28.23787
X-27.65267 Y28.32222
G03 X-27.74733 Y27.87778 I-0.04733 J-0.22222
X-27.65267 Y28.32222 I0.04733 J0.22222
G1 X-27.50131 Y28.09298
G3 Z-0.75 I-0.19869 J0.00702
Z-1. I-0.19869 J0.00702
G1 X-27.52339 Y28.23787
X-27.65267 Y28.32222
G03 X-27.74733 Y27.87778 I-0.04733 J-0.22222
X-27.65267 Y28.32222 I0.04733 J0.22222
G1 X-27.50131 Y28.09298
G3 Z-1.25 I-0.19869 J0.00702
Z-1.5 I-0.19869 J0.00702
G1 X-27.52339 Y28.23787
X-27.65267 Y28.32222
G03 X-27.74733 Y27.87778 I-0.04733 J-0.22222
X-27.65267 Y28.32222 I0.04733 J0.22222
G1 X-27.50131 Y28.09298
G3 Z-1.75 I-0.19869 J0.00702
Z-2. I-0.19869 J0.00702
G1 X-27.52339 Y28.23787
X-27.65267 Y28.32222
G03 X-27.74733 Y27.87778 I-0.04733 J-0.22222
X-27.65267 Y28.32222 I0.04733 J0.22222
G1 X-27.50131 Y28.09298
G3 Z-2.25 I-0.19869 J0.00702
Z-2.5 I-0.19869 J0.00702
G1 X-27.52339 Y28.23787
X-27.65267 Y28.32222
G03 X-27.74733 Y27.87778 I-0.04733 J-0.22222
X-27.65267 Y28.32222 I0.04733 J0.22222
G1 X-27.50131 Y28.09298
G3 Z-2.75 I-0.19869 J0.00702
Z-3. I-0.19869 J0.00702
G1 X-27.52339 Y28.23787
X-27.65267 Y28.32222
G03 X-27.74733 Y27.87778 I-0.04733 J-0.22222
X-27.65267 Y28.32222 I0.04733 J0.22222
G1 X-27.50131 Y28.09298
G3 Z-3.25 I-0.19869 J0.00702
Z-3.5 I-0.19869 J0.00702
G1 X-27.52339 Y28.23787
X-27.65267 Y28.32222
G03 X-27.74733 Y27.87778 I-0.04733 J-0.22222
X-27.65267 Y28.32222 I0.04733 J0.22222
G1 X-27.50131 Y28.09298
G3 Z-3.75 I-0.19869 J0.00702
Z-4. I-0.19869 J0.00702
G1 X-27.52339 Y28.23787
X-27.65267 Y28.32222
G03 X-27.74733 Y27.87778 I-0.04733 J-0.22222
X-27.65267 Y28.32222 I0.04733 J0.22222
G1 X-27.50131 Y28.09298
X-27.7 Y28.1
G0 Z1.
X-27.50131 Y2.69298
G1 Z0.635 F60.
G3 Z0.408 I-0.19869 J0.00702 F240.
Z0.181 I-0.19869 J0.00702
Z-0.046 I-0.19869 J0.00702
Z-0.273 I-0.19869 J0.00702
Z-0.5 I-0.19869 J0.00702
G1 X-27.52339 Y2.83787
X-27.65267 Y2.92222
G03 X-27.74733 Y2.47778 I-0.04733 J-0.22222
X-27.65267 Y2.92222 I0.04733 J0.22222
G1 X-27.50131 Y2.69298
G3 Z-0.75 I-0.19869 J0.00702
Z-1. I-0.19869 J0.00702
G1 X-27.52339 Y2.83787
X-27.65267 Y2.92222
G03 X-27.74733 Y2.47778 I-0.04733 J-0.22222
X-27.65267 Y2.92222 I0.04733 J0.22222
G1 X-27.50131 Y2.69298
G3 Z-1.25 I-0.19869 J0.00702
Z-1.5 I-0.19869 J0.00702
G1 X-27.52339 Y2.83787
X-27.65267 Y2.92222
G03 X-27.74733 Y2.47778 I-0.04733 J-0.22222
X-27.65267 Y2.92222 I0.04733 J0.22222
G1 X-27.50131 Y2.69298
G3 Z-1.75 I-0.19869 J0.00702
Z-2. I-0.19869 J0.00702
G1 X-27.52339 Y2.83787
X-27.65267 Y2.92222
G03 X-27.74733 Y2.47778 I-0.04733 J-0.22222
X-27.65267 Y2.92222 I0.04733 J0.22222
G1 X-27.50131 Y2.69298
G3 Z-2.25 I-0.19869 J0.00702
Z-2.5 I-0.19869 J0.00702
G1 X-27.52339 Y2.83787
X-27.65267 Y2.92222
G03 X-27.74733 Y2.47778 I-0.04733 J-0.22222
X-27.65267 Y2.92222 I0.04733 J0.22222
G1 X-27.50131 Y2.69298
G3 Z-2.75 I-0.19869 J0.00702
Z-3. I-0.19869 J0.00702
G1 X-27.52339 Y2.83787
X-27.65267 Y2.92222
G03 X-27.74733 Y2.47778 I-0.04733 J-0.22222
X-27.65267 Y2.92222 I0.04733 J0.22222
G1 X-27.50131 Y2.69298
G3 Z-3.25 I-0.19869 J0.00702
Z-3.5 I-0.19869 J0.00702
G1 X-27.52339 Y2.83787
X-27.65267 Y2.92222
G03 X-27.74733 Y2.47778 I-0.04733 J-0.22222
X-27.65267 Y2.92222 I0.04733 J0.22222
G1 X-27.50131 Y2.69298
G3 Z-3.75 I-0.19869 J0.00702
Z-4. I-0.19869 J0.00702
G1 X-27.52339 Y2.83787
X-27.65267 Y2.92222
G03 X-27.74733 Y2.47778 I-0.04733 J-0.22222
X-27.65267 Y2.92222 I0.04733 J0.22222
G1 X-27.50131 Y2.69298
X-27.7 Y2.7
G0 Z1.
X-2.10131 Y2.69298
G1 Z0.635 F60.
G3 Z0.408 I-0.19869 J0.00702 F240.
Z0.181 I-0.19869 J0.00702
Z-0.046 I-0.19869 J0.00702
Z-0.273 I-0.19869 J0.00702
Z-0.5 I-0.19869 J0.00702
G1 X-2.12338 Y2.83787
X-2.25267 Y2.92222
G03 X-2.34733 Y2.47778 I-0.04733 J-0.22222
X-2.25267 Y2.92222 I0.04733 J0.22222
G1 X-2.10131 Y2.69298
G3 Z-0.75 I-0.19869 J0.00702
Z-1. I-0.19869 J0.00702
G1 X-2.12338 Y2.83787
X-2.25267 Y2.92222
G03 X-2.34733 Y2.47778 I-0.04733 J-0.22222
X-2.25267 Y2.92222 I0.04733 J0.22222
G1 X-2.10131 Y2.69298
G3 Z-1.25 I-0.19869 J0.00702
Z-1.5 I-0.19869 J0.00702
G1 X-2.12338 Y2.83787
X-2.25267 Y2.92222
G03 X-2.34733 Y2.47778 I-0.04733 J-0.22222
X-2.25267 Y2.92222 I0.04733 J0.22222
G1 X-2.10131 Y2.69298
G3 Z-1.75 I-0.19869 J0.00702
Z-2. I-0.19869 J0.00702
G1 X-2.12338 Y2.83787
X-2.25267 Y2.92222
G03 X-2.34733 Y2.47778 I-0.04733 J-0.22222
X-2.25267 Y2.92222 I0.04733 J0.22222
G1 X-2.10131 Y2.69298
G3 Z-2.25 I-0.19869 J0.00702
Z-2.5 I-0.19869 J0.00702
G1 X-2.12338 Y2.83787
X-2.25267 Y2.92222
G03 X-2.34733 Y2.47778 I-0.04733 J-0.22222
X-2.25267 Y2.92222 I0.04733 J0.22222
G1 X-2.10131 Y2.69298
G3 Z-2.75 I-0.19869 J0.00702
Z-3. I-0.19869 J0.00702
G1 X-2.12338 Y2.83787
X-2.25267 Y2.92222
G03 X-2.34733 Y2.47778 I-0.04733 J-0.22222
X-2.25267 Y2.92222 I0.04733 J0.22222
G1 X-2.10131 Y2.69298
G3 Z-3.25 I-0.19869 J0.00702
Z-3.5 I-0.19869 J0.00702
G1 X-2.12338 Y2.83787
X-2.25267 Y2.92222
G03 X-2.34733 Y2.47778 I-0.04733 J-0.22222
X-2.25267 Y2.92222 I0.04733 J0.22222
G1 X-2.10131 Y2.69298
G3 Z-3.75 I-0.19869 J0.00702
Z-4. I-0.19869 J0.00702
G1 X-2.12338 Y2.83787
X-2.25267 Y2.92222
G03 X-2.34733 Y2.47778 I-0.04733 J-0.22222
X-2.25267 Y2.92222 I0.04733 J0.22222
G1 X-2.10131 Y2.69298
X-2.3 Y2.7
G0 Z1.
X-2.10131 Y28.09298
G1 Z0.635 F60.
G3 Z0.408 I-0.19869 J0.00702 F240.
Z0.181 I-0.19869 J0.00702
Z-0.046 I-0.19869 J0.00702
Z-0.273 I-0.19869 J0.00702
Z-0.5 I-0.19869 J0.00702
G1 X-2.12338 Y28.23787
X-2.25267 Y28.32222
G03 X-2.34733 Y27.87778 I-0.04733 J-0.22222
X-2.25267 Y28.32222 I0.04733 J0.22222
G1 X-2.10131 Y28.09298
G3 Z-0.75 I-0.19869 J0.00702
Z-1. I-0.19869 J0.00702
G1 X-2.12338 Y28.23787
X-2.25267 Y28.32222
G03 X-2.34733 Y27.87778 I-0.04733 J-0.22222
X-2.25267 Y28.32222 I0.04733 J0.22222
G1 X-2.10131 Y28.09298
G3 Z-1.25 I-0.19869 J0.00702
Z-1.5 I-0.19869 J0.00702
G1 X-2.12338 Y28.23787
X-2.25267 Y28.32222
G03 X-2.34733 Y27.87778 I-0.04733 J-0.22222
X-2.25267 Y28.32222 I0.04733 J0.22222
G1 X-2.10131 Y28.09298
G3 Z-1.75 I-0.19869 J0.00702
Z-2. I-0.19869 J0.00702
G1 X-2.12338 Y28.23787
X-2.25267 Y28.32222
G03 X-2.34733 Y27.87778 I-0.04733 J-0.22222
X-2.25267 Y28.32222 I0.04733 J0.22222
G1 X-2.10131 Y28.09298
G3 Z-2.25 I-0.19869 J0.00702
Z-2.5 I-0.19869 J0.00702
G1 X-2.12338 Y28.23787
X-2.25267 Y28.32222
G03 X-2.34733 Y27.87778 I-0.04733 J-0.22222
X-2.25267 Y28.32222 I0.04733 J0.22222
G1 X-2.10131 Y28.09298
G3 Z-2.75 I-0.19869 J0.00702
Z-3. I-0.19869 J0.00702
G1 X-2.12338 Y28.23787
X-2.25267 Y28.32222
G03 X-2.34733 Y27.87778 I-0.04733 J-0.22222
X-2.25267 Y28.32222 I0.04733 J0.22222
G1 X-2.10131 Y28.09298
G3 Z-3.25 I-0.19869 J0.00702
Z-3.5 I-0.19869 J0.00702
G1 X-2.12338 Y28.23787
X-2.25267 Y28.32222
G03 X-2.34733 Y27.87778 I-0.04733 J-0.22222
X-2.25267 Y28.32222 I0.04733 J0.22222
G1 X-2.10131 Y28.09298
G3 Z-3.75 I-0.19869 J0.00702
Z-4. I-0.19869 J0.00702
G1 X-2.12338 Y28.23787
X-2.25267 Y28.32222
G03 X-2.34733 Y27.87778 I-0.04733 J-0.22222
X-2.25267 Y28.32222 I0.04733 J0.22222
G1 X-2.10131 Y28.09298
X-2.3 Y28.1
G0 Z1.
(2 1/2 Axis Profiling)
(SlotDrill 2mm Carbide)
X-6.25 Y21.17479
G1 Z0.1 F60.
Y23.4 Z-0.29237 F180.
X-6.25411 Y23.4784 Z-0.30621
X-6.26639 Y23.55593 Z-0.32005
X-6.28671 Y23.63176 Z-0.33389
X-6.31484 Y23.70505 Z-0.34773
X-6.35048 Y23.775 Z-0.36158
X-6.39324 Y23.84084 Z-0.37542
X-6.44264 Y23.90185 Z-0.38926
X-6.49815 Y23.95736 Z-0.4031
X-6.55916 Y24.00676 Z-0.41695
X-6.625 Y24.04952 Z-0.43079
X-6.69495 Y24.08516 Z-0.44463
X-6.76824 Y24.11329 Z-0.45847
X-6.84407 Y24.13361 Z-0.47232
X-6.9216 Y24.14589 Z-0.48616
X-7. Y24.15 Z-0.5
X-14. F240.
G03 X-14.75 Y23.4 I0. J-0.75
G1 Y7.4
G03 X-14. Y6.65 I0.75 J0.
G1 X-7.
G03 X-6.25 Y7.4 I0. J0.75
G1 Y23.4
G03 X-7. Y24.15 I-0.75 J0.
G1 Z-1.
X-14.
G03 X-14.75 Y23.4 I0. J-0.75
G1 Y7.4
G03 X-14. Y6.65 I0.75 J0.
G1 X-7.
G03 X-6.25 Y7.4 I0. J0.75
G1 Y23.4
G03 X-7. Y24.15 I-0.75 J0.
G1 Z-1.5
X-14.
G03 X-14.75 Y23.4 I0. J-0.75
G1 Y7.4
G03 X-14. Y6.65 I0.75 J0.
G1 X-7.
G03 X-6.25 Y7.4 I0. J0.75
G1 Y23.4
G03 X-7. Y24.15 I-0.75 J0.
G1 Z-2.
X-14.
G03 X-14.75 Y23.4 I0. J-0.75
G1 Y7.4
G03 X-14. Y6.65 I0.75 J0.
G1 X-7.
G03 X-6.25 Y7.4 I0. J0.75
G1 Y23.4
G03 X-7. Y24.15 I-0.75 J0.
G1 Z-2.5
X-14.
G03 X-14.75 Y23.4 I0. J-0.75
G1 Y7.4
G03 X-14. Y6.65 I0.75 J0.
G1 X-7.
G03 X-6.25 Y7.4 I0. J0.75
G1 Y23.4
G03 X-7. Y24.15 I-0.75 J0.
G1 Z-3.
X-14.
G03 X-14.75 Y23.4 I0. J-0.75
G1 Y7.4
G03 X-14. Y6.65 I0.75 J0.
G1 X-7.
G03 X-6.25 Y7.4 I0. J0.75
G1 Y23.4
G03 X-7. Y24.15 I-0.75 J0.
G1 Z-3.5
X-14.
G03 X-14.75 Y23.4 I0. J-0.75
G1 Y7.4
G03 X-14. Y6.65 I0.75 J0.
G1 X-7.
G03 X-6.25 Y7.4 I0. J0.75
G1 Y23.4
G03 X-7. Y24.15 I-0.75 J0.
G1 Z-4.
X-14.
G03 X-14.75 Y23.4 I0. J-0.75
G1 Y7.4
G03 X-14. Y6.65 I0.75 J0.
G1 X-7.
G03 X-6.25 Y7.4 I0. J0.75
G1 Y23.4
G03 X-7. Y24.15 I-0.75 J0.
G0 Z1.
(2 1/2 Axis Profiling-1)
(SlotDrill 2mm Carbide)
X-6. Y21.56731
G1 Z-3.4 F60.
Y23.4 Z-3.72315 F180.
X-6.00548 Y23.50453 Z-3.74161
X-6.02185 Y23.60791 Z-3.76007
X-6.04894 Y23.70902 Z-3.77852
X-6.08646 Y23.80674 Z-3.79698
X-6.13398 Y23.9 Z-3.81544
X-6.19098 Y23.98778 Z-3.83389
X-6.25686 Y24.06913 Z-3.85235
X-6.33087 Y24.14314 Z-3.87081
X-6.41222 Y24.20902 Z-3.88926
X-6.5 Y24.26602 Z-3.90772
X-6.59326 Y24.31355 Z-3.92617
X-6.69098 Y24.35106 Z-3.94463
X-6.79209 Y24.37815 Z-3.96309
X-6.89547 Y24.39452 Z-3.98154
X-7. Y24.4 Z-4.
X-14. F240.
G03 X-15. Y23.4 I0. J-1.
G1 Y7.4
G03 X-14. Y6.4 I1. J0.
G1 X-7.
G03 X-6. Y7.4 I0. J1.
G1 Y23.4
G03 X-7. Y24.4 I-1. J0.
G0 Z1.
(2 1/2 Axis Profiling)
(SlotDrill 2mm Carbide)
S23873 M3
X2.43763 Y-1.
G1 Z-0.5 F59.5
X-28. F238.
X-28.19509 Y-0.98079
X-29.08681 Y-0.79469
X-29.32094 Y-0.67923
X-30.07133 Y-0.168
X-30.24072 Y0.02286
G02 X-30.9984 Y3.49787 I3.93067 J2.67714
X-28. Y6.4 I2.9984 J-0.09787
G1 X-22.
G03 X-21. Y7.4 I0. J1.
G1 Y23.4
G03 X-22. Y24.4 I-1. J0.
G1 X-28.
X-28.19509 Y24.41921
X-29.08681 Y24.60531
X-29.32094 Y24.72077
X-30.07133 Y25.232
X-30.24072 Y25.42286
G02 X-30.9984 Y28.89787 I3.93067 J2.67714
X-28. Y31.8 I2.9984 J-0.09787
G1 X2.21398
G0 Z1.
X2.43763 Y-1.
G1 Z-1. F59.5
X-28. F238.
X-28.19509 Y-0.98079
X-29.08681 Y-0.79469
X-29.32094 Y-0.67923
X-30.07133 Y-0.168
X-30.24072 Y0.02286
G02 X-30.9984 Y3.49787 I3.93067 J2.67714
X-28. Y6.4 I2.9984 J-0.09787
G1 X-22.
G03 X-21. Y7.4 I0. J1.
G1 Y23.4
G03 X-22. Y24.4 I-1. J0.
G1 X-28.
X-28.19509 Y24.41921
X-29.08681 Y24.60531
X-29.32094 Y24.72077
X-30.07133 Y25.232
X-30.24072 Y25.42286
G02 X-30.9984 Y28.89787 I3.93067 J2.67714
X-28. Y31.8 I2.9984 J-0.09787
G1 X2.21398
G0 Z1.
X2.43763 Y-1.
G1 Z-1.5 F59.5
X-28. F238.
X-28.19509 Y-0.98079
X-29.08681 Y-0.79469
X-29.32094 Y-0.67923
X-30.07133 Y-0.168
X-30.24072 Y0.02286
G02 X-30.9984 Y3.49787 I3.93067 J2.67714
X-28. Y6.4 I2.9984 J-0.09787
G1 X-22.
G03 X-21. Y7.4 I0. J1.
G1 Y23.4
G03 X-22. Y24.4 I-1. J0.
G1 X-28.
X-28.19509 Y24.41921
X-29.08681 Y24.60531
X-29.32094 Y24.72077
X-30.07133 Y25.232
X-30.24072 Y25.42286
G02 X-30.9984 Y28.89787 I3.93067 J2.67714
X-28. Y31.8 I2.9984 J-0.09787
G1 X2.21398
G0 Z1.
X2.43763 Y-1.
G1 Z-2. F59.5
X-28. F238.
X-28.19509 Y-0.98079
X-29.08681 Y-0.79469
X-29.32094 Y-0.67923
X-30.07133 Y-0.168
X-30.24072 Y0.02286
G02 X-30.9984 Y3.49787 I3.93067 J2.67714
X-28. Y6.4 I2.9984 J-0.09787
G1 X-22.
G03 X-21. Y7.4 I0. J1.
G1 Y23.4
G03 X-22. Y24.4 I-1. J0.
G1 X-28.
X-28.19509 Y24.41921
X-29.08681 Y24.60531
X-29.32094 Y24.72077
X-30.07133 Y25.232
X-30.24072 Y25.42286
G02 X-30.9984 Y28.89787 I3.93067 J2.67714
X-28. Y31.8 I2.9984 J-0.09787
G1 X2.21398
G0 Z1.
X2.43763 Y-1.
G1 Z-2.5 F59.5
X-28. F238.
X-28.19509 Y-0.98079
X-29.08681 Y-0.79469
X-29.32094 Y-0.67923
X-30.07133 Y-0.168
X-30.24072 Y0.02286
G02 X-30.9984 Y3.49787 I3.93067 J2.67714
X-28. Y6.4 I2.9984 J-0.09787
G1 X-22.
G03 X-21. Y7.4 I0. J1.
G1 Y23.4
G03 X-22. Y24.4 I-1. J0.
G1 X-28.
X-28.19509 Y24.41921
X-29.08681 Y24.60531
X-29.32094 Y24.72077
X-30.07133 Y25.232
X-30.24072 Y25.42286
G02 X-30.9984 Y28.89787 I3.93067 J2.67714
X-28. Y31.8 I2.9984 J-0.09787
G1 X2.21398
G0 Z1.
X2.43763 Y-1.
G1 Z-3. F59.5
X-28. F238.
X-28.19509 Y-0.98079
X-29.08681 Y-0.79469
X-29.32094 Y-0.67923
X-30.07133 Y-0.168
X-30.24072 Y0.02286
G02 X-30.9984 Y3.49787 I3.93067 J2.67714
X-28. Y6.4 I2.9984 J-0.09787
G1 X-22.
G03 X-21. Y7.4 I0. J1.
G1 Y23.4
G03 X-22. Y24.4 I-1. J0.
G1 X-28.
X-28.19509 Y24.41921
X-29.08681 Y24.60531
X-29.32094 Y24.72077
X-30.07133 Y25.232
X-30.24072 Y25.42286
G02 X-30.9984 Y28.89787 I3.93067 J2.67714
X-28. Y31.8 I2.9984 J-0.09787
G1 X2.21398
G0 Z1.
X2.43763 Y-1.
G1 Z-3.5 F59.5
X-28. F238.
X-28.19509 Y-0.98079
X-29.08681 Y-0.79469
X-29.32094 Y-0.67923
X-30.07133 Y-0.168
X-30.24072 Y0.02286
G02 X-30.9984 Y3.49787 I3.93067 J2.67714
X-28. Y6.4 I2.9984 J-0.09787
G1 X-22.
G03 X-21. Y7.4 I0. J1.
G1 Y23.4
G03 X-22. Y24.4 I-1. J0.
G1 X-28.
X-28.19509 Y24.41921
X-29.08681 Y24.60531
X-29.32094 Y24.72077
X-30.07133 Y25.232
X-30.24072 Y25.42286
G02 X-30.9984 Y28.89787 I3.93067 J2.67714
X-28. Y31.8 I2.9984 J-0.09787
G1 X2.21398
G0 Z1.
X2.43763 Y-1.
G1 Z-4. F59.5
X-28. F238.
X-28.19509 Y-0.98079
X-29.08681 Y-0.79469
X-29.32094 Y-0.67923
X-30.07133 Y-0.168
X-30.24072 Y0.02286
G02 X-30.9984 Y3.49787 I3.93067 J2.67714
X-28. Y6.4 I2.9984 J-0.09787
G1 X-22.
G03 X-21. Y7.4 I0. J1.
G1 Y23.4
G03 X-22. Y24.4 I-1. J0.
G1 X-28.
X-28.19509 Y24.41921
X-29.08681 Y24.60531
X-29.32094 Y24.72077
X-30.07133 Y25.232
X-30.24072 Y25.42286
G02 X-30.9984 Y28.89787 I3.93067 J2.67714
X-28. Y31.8 I2.9984 J-0.09787
G1 X2.21398
G0 Z1.
M30
%
