%
G17 G21 G40 G90 G64 P0.1
(2 1/2 Axis Profiling)
(1/4in 6.35mm 2 Flute Carbide Router)
T30 M06
S17544 M3
G0 Z43.17668
X57.06958 Y177.4017
G1 Z40.50168 F1228.
X57.0466 Y177.40728 Z40.49751 F3684.
X56.57711 Y177.48239 Z40.41367
X56.07549 Y177.52227 Z40.32495
X55.83775 Y177.53171 Z40.28299
X37.2285 Z37.00168
X0. F4912.
G17
G03 X-6.17482 Y171.30937 I0.01159 J-6.18651
G1 X-5.79333 Y121.53995
G03 X-5.31063 Y68.24993 I16021.8566 J118.4799
G1 X-5.31062 Y68.24932
G03 X-4.88393 Y34.88003 I8482.20553 J91.77431
X-5.37946 Y32.37253 I5.70625 J-2.43039
G1 X-4.81108 Y-0.1119
G03 X1.3629 Y-6.175 I6.18809 J0.12626
G1 X54.79433
G03 X60.96835 Y-0.10995 I-0.01412 J6.18937
G1 X61.53365 Y32.37414
G03 X61.05177 Y34.84575 I-6.18461 J0.07701
G02 X61.18317 Y78.92875 I30021.81657 J-67.44464
X61.53653 Y133.24838 I9731.881 J-36.14653
G1 Y133.2486
G02 X62.01199 Y171.25942 I5854.08245 J-54.21679
G03 X55.83775 Y177.53171 I-6.18588 J0.08582
G1 X37.2285
Y174.53171
X55.83775
G02 X59.01236 Y171.30669 I0. J-3.175
G03 X58.53666 Y133.27638 I5856.60662 J-92.27488
G1 Y133.27627
G03 X58.18319 Y78.93989 I9734.52751 J-90.49405
X58.0502 Y34.14396 I30024.68489 J-111.53878
G02 X58.5341 Y32.42634 I-2.56202 J-1.64877
X57.91177 Y-0.60181 I-2519.57403 J30.9551
X54.79433 Y-3.175 I-3.11744 J0.60181
G1 X1.3629
G02 X-1.81154 Y-0.05941 I0. J3.175
G1 X-2.37992 Y32.42502
G02 X-1.87327 Y34.18203 I3.0674 J0.06704
X-2.3108 Y68.28178 I8478.76818 J125.8416
G1 Y68.28209
G02 X-2.79342 Y121.56254 I16018.37402 J171.73776
G1 X-3.17491 Y171.33237
G02 X0. Y174.53171 I3.17491 J0.02434
G1 X37.2285
G0 Z43.17668
Y177.53171
G1 Z34.00168 F1228.
X0. F4912.
G03 X-6.17482 Y171.30937 I0.01159 J-6.18651
G1 X-5.79333 Y121.53995
G03 X-5.31063 Y68.24993 I16021.8566 J118.4799
G1 X-5.31062 Y68.24932
G03 X-4.88393 Y34.88003 I8482.20553 J91.77431
X-5.37946 Y32.37253 I5.70625 J-2.43039
G1 X-4.81108 Y-0.1119
G03 X1.3629 Y-6.175 I6.18809 J0.12626
G1 X54.79433
G03 X60.96835 Y-0.10995 I-0.01412 J6.18937
G1 X61.53365 Y32.37414
G03 X61.05177 Y34.84575 I-6.18461 J0.07701
G02 X61.18317 Y78.92875 I30021.81657 J-67.44464
X61.53653 Y133.24838 I9731.881 J-36.14653
G1 Y133.2486
G02 X62.01199 Y171.25942 I5854.08245 J-54.21679
G03 X55.83775 Y177.53171 I-6.18588 J0.08582
G1 X37.2285
Y174.53171
X55.83775
G02 X59.01236 Y171.30669 I0. J-3.175
G03 X58.53666 Y133.27638 I5856.60662 J-92.27488
G1 Y133.27627
G03 X58.18319 Y78.93989 I9734.52751 J-90.49405
X58.0502 Y34.14396 I30024.68489 J-111.53878
G02 X58.5341 Y32.42634 I-2.56202 J-1.64877
X57.91177 Y-0.60181 I-2519.57403 J30.9551
X54.79433 Y-3.175 I-3.11744 J0.60181
G1 X1.3629
G02 X-1.81154 Y-0.05941 I0. J3.175
G1 X-2.37992 Y32.42502
G02 X-1.87327 Y34.18203 I3.0674 J0.06704
X-2.3108 Y68.28178 I8478.76818 J125.8416
G1 Y68.28209
G02 X-2.79342 Y121.56254 I16018.37402 J171.73776
G1 X-3.17491 Y171.33237
G02 X0. Y174.53171 I3.17491 J0.02434
G1 X37.2285
G0 Z43.17668
Y177.53171
G1 Z31.00168 F1228.
X0. F4912.
G03 X-6.17482 Y171.30937 I0.01159 J-6.18651
G1 X-5.79333 Y121.53995
G03 X-5.31063 Y68.24993 I16021.8566 J118.4799
G1 X-5.31062 Y68.24932
G03 X-4.88393 Y34.88003 I8482.20553 J91.77431
X-5.37946 Y32.37253 I5.70625 J-2.43039
G1 X-4.81108 Y-0.1119
G03 X1.3629 Y-6.175 I6.18809 J0.12626
G1 X54.79433
G03 X60.96835 Y-0.10995 I-0.01412 J6.18937
G1 X61.53365 Y32.37414
G03 X61.05177 Y34.84575 I-6.18461 J0.07701
G02 X61.18317 Y78.92875 I30021.81657 J-67.44464
X61.53653 Y133.24838 I9731.881 J-36.14653
G1 Y133.2486
G02 X62.01199 Y171.25942 I5854.08245 J-54.21679
G03 X55.83775 Y177.53171 I-6.18588 J0.08582
G1 X37.2285
Y174.53171
X55.83775
G02 X59.01236 Y171.30669 I0. J-3.175
G03 X58.53666 Y133.27638 I5856.60662 J-92.27488
G1 Y133.27627
G03 X58.18319 Y78.93989 I9734.52751 J-90.49405
X58.0502 Y34.14396 I30024.68489 J-111.53878
G02 X58.5341 Y32.42634 I-2.56202 J-1.64877
X57.91177 Y-0.60181 I-2519.57403 J30.9551
X54.79433 Y-3.175 I-3.11744 J0.60181
G1 X1.3629
G02 X-1.81154 Y-0.05941 I0. J3.175
G1 X-2.37992 Y32.42502
G02 X-1.87327 Y34.18203 I3.0674 J0.06704
X-2.3108 Y68.28178 I8478.76818 J125.8416
G1 Y68.28209
G02 X-2.79342 Y121.56254 I16018.37402 J171.73776
G1 X-3.17491 Y171.33237
G02 X0. Y174.53171 I3.17491 J0.02434
G1 X37.2285
G0 Z43.17668
Y177.53171
G1 Z28.00168 F1228.
X0. F4912.
G03 X-6.17482 Y171.30937 I0.01159 J-6.18651
G1 X-5.79333 Y121.53995
G03 X-5.31063 Y68.24993 I16021.8566 J118.4799
G1 X-5.31062 Y68.24932
G03 X-4.88393 Y34.88003 I8482.20553 J91.77431
X-5.37946 Y32.37253 I5.70625 J-2.43039
G1 X-4.81108 Y-0.1119
G03 X1.3629 Y-6.175 I6.18809 J0.12626
G1 X54.79433
G03 X60.96835 Y-0.10995 I-0.01412 J6.18937
G1 X61.53365 Y32.37414
G03 X61.05177 Y34.84575 I-6.18461 J0.07701
G02 X61.18317 Y78.92875 I30021.81657 J-67.44464
X61.53653 Y133.24838 I9731.881 J-36.14653
G1 Y133.2486
G02 X62.01199 Y171.25942 I5854.08245 J-54.21679
G03 X55.83775 Y177.53171 I-6.18588 J0.08582
G1 X37.2285
Y174.53171
X55.83775
G02 X59.01236 Y171.30669 I0. J-3.175
G03 X58.53666 Y133.27638 I5856.60662 J-92.27488
G1 Y133.27627
G03 X58.18319 Y78.93989 I9734.52751 J-90.49405
X58.0502 Y34.14396 I30024.68489 J-111.53878
G02 X58.5341 Y32.42634 I-2.56202 J-1.64877
X57.91177 Y-0.60181 I-2519.57403 J30.9551
X54.79433 Y-3.175 I-3.11744 J0.60181
G1 X1.3629
G02 X-1.81154 Y-0.05941 I0. J3.175
G1 X-2.37992 Y32.42502
G02 X-1.87327 Y34.18203 I3.0674 J0.06704
X-2.3108 Y68.28178 I8478.76818 J125.8416
G1 Y68.28209
G02 X-2.79342 Y121.56254 I16018.37402 J171.73776
G1 X-3.17491 Y171.33237
G02 X0. Y174.53171 I3.17491 J0.02434
G1 X37.2285
G0 Z43.17668
Y177.53171
G1 Z25.00168 F1228.
X0. F4912.
G03 X-6.17482 Y171.30937 I0.01159 J-6.18651
G1 X-5.79333 Y121.53995
G03 X-5.31063 Y68.24993 I16021.8566 J118.4799
G1 X-5.31062 Y68.24932
G03 X-4.88393 Y34.88003 I8482.20553 J91.77431
X-5.37946 Y32.37253 I5.70625 J-2.43039
G1 X-4.81108 Y-0.1119
G03 X1.3629 Y-6.175 I6.18809 J0.12626
G1 X54.79433
G03 X60.96835 Y-0.10995 I-0.01412 J6.18937
G1 X61.53365 Y32.37414
G03 X61.05177 Y34.84575 I-6.18461 J0.07701
G02 X61.18317 Y78.92875 I30021.81657 J-67.44464
X61.53653 Y133.24838 I9731.881 J-36.14653
G1 Y133.2486
G02 X62.01199 Y171.25942 I5854.08245 J-54.21679
G03 X55.83775 Y177.53171 I-6.18588 J0.08582
G1 X37.2285
Y174.53171
X55.83775
G02 X59.01236 Y171.30669 I0. J-3.175
G03 X58.53666 Y133.27638 I5856.60662 J-92.27488
G1 Y133.27627
G03 X58.18319 Y78.93989 I9734.52751 J-90.49405
X58.0502 Y34.14396 I30024.68489 J-111.53878
G02 X58.5341 Y32.42634 I-2.56202 J-1.64877
X57.91177 Y-0.60181 I-2519.57403 J30.9551
X54.79433 Y-3.175 I-3.11744 J0.60181
G1 X1.3629
G02 X-1.81154 Y-0.05941 I0. J3.175
G1 X-2.37992 Y32.42502
G02 X-1.87327 Y34.18203 I3.0674 J0.06704
X-2.3108 Y68.28178 I8478.76818 J125.8416
G1 Y68.28209
G02 X-2.79342 Y121.56254 I16018.37402 J171.73776
G1 X-3.17491 Y171.33237
G02 X0. Y174.53171 I3.17491 J0.02434
G1 X37.2285
G0 Z43.17668
Y177.53171
G1 Z22.00168 F1228.
X0. F4912.
G03 X-6.17482 Y171.30937 I0.01159 J-6.18651
G1 X-5.79333 Y121.53995
G03 X-5.31063 Y68.24993 I16021.8566 J118.4799
G1 X-5.31062 Y68.24932
G03 X-4.88393 Y34.88003 I8482.20553 J91.77431
X-5.37946 Y32.37253 I5.70625 J-2.43039
G1 X-4.81108 Y-0.1119
G03 X1.3629 Y-6.175 I6.18809 J0.12626
G1 X54.79433
G03 X60.96835 Y-0.10995 I-0.01412 J6.18937
G1 X61.53365 Y32.37414
G03 X61.05177 Y34.84575 I-6.18461 J0.07701
G02 X61.18317 Y78.92875 I30021.81657 J-67.44464
X61.53653 Y133.24838 I9731.881 J-36.14653
G1 Y133.2486
G02 X62.01199 Y171.25942 I5854.08245 J-54.21679
G03 X55.83775 Y177.53171 I-6.18588 J0.08582
G1 X37.2285
Y174.53171
X55.83775
G02 X59.01236 Y171.30669 I0. J-3.175
G03 X58.53666 Y133.27638 I5856.60662 J-92.27488
G1 Y133.27627
G03 X58.18319 Y78.93989 I9734.52751 J-90.49405
X58.0502 Y34.14396 I30024.68489 J-111.53878
G02 X58.5341 Y32.42634 I-2.56202 J-1.64877
X57.91177 Y-0.60181 I-2519.57403 J30.9551
X54.79433 Y-3.175 I-3.11744 J0.60181
G1 X1.3629
G02 X-1.81154 Y-0.05941 I0. J3.175
G1 X-2.37992 Y32.42502
G02 X-1.87327 Y34.18203 I3.0674 J0.06704
X-2.3108 Y68.28178 I8478.76818 J125.8416
G1 Y68.28209
G02 X-2.79342 Y121.56254 I16018.37402 J171.73776
G1 X-3.17491 Y171.33237
G02 X0. Y174.53171 I3.17491 J0.02434
G1 X37.2285
G0 Z43.17668
Y177.53171
G1 Z19.00168 F1228.
X0. F4912.
G03 X-6.17482 Y171.30937 I0.01159 J-6.18651
G1 X-5.79333 Y121.53995
G03 X-5.31063 Y68.24993 I16021.8566 J118.4799
G1 X-5.31062 Y68.24932
G03 X-4.88393 Y34.88003 I8482.20553 J91.77431
X-5.37946 Y32.37253 I5.70625 J-2.43039
G1 X-4.81108 Y-0.1119
G03 X1.3629 Y-6.175 I6.18809 J0.12626
G1 X54.79433
G03 X60.96835 Y-0.10995 I-0.01412 J6.18937
G1 X61.53365 Y32.37414
G03 X61.05177 Y34.84575 I-6.18461 J0.07701
G02 X61.18317 Y78.92875 I30021.81657 J-67.44464
X61.53653 Y133.24838 I9731.881 J-36.14653
G1 Y133.2486
G02 X62.01199 Y171.25942 I5854.08245 J-54.21679
G03 X55.83775 Y177.53171 I-6.18588 J0.08582
G1 X37.2285
Y174.53171
X55.83775
G02 X59.01236 Y171.30669 I0. J-3.175
G03 X58.53666 Y133.27638 I5856.60662 J-92.27488
G1 Y133.27627
G03 X58.18319 Y78.93989 I9734.52751 J-90.49405
X58.0502 Y34.14396 I30024.68489 J-111.53878
G02 X58.5341 Y32.42634 I-2.56202 J-1.64877
X57.91177 Y-0.60181 I-2519.57403 J30.9551
X54.79433 Y-3.175 I-3.11744 J0.60181
G1 X1.3629
G02 X-1.81154 Y-0.05941 I0. J3.175
G1 X-2.37992 Y32.42502
G02 X-1.87327 Y34.18203 I3.0674 J0.06704
X-2.3108 Y68.28178 I8478.76818 J125.8416
G1 Y68.28209
G02 X-2.79342 Y121.56254 I16018.37402 J171.73776
G1 X-3.17491 Y171.33237
G02 X0. Y174.53171 I3.17491 J0.02434
G1 X37.2285
G0 Z43.17668
Y177.53171
G1 Z16.00168 F1228.
X0. F4912.
G03 X-6.17482 Y171.30937 I0.01159 J-6.18651
G1 X-5.79333 Y121.53995
G03 X-5.31063 Y68.24993 I16021.8566 J118.4799
G1 X-5.31062 Y68.24932
G03 X-4.88393 Y34.88003 I8482.20553 J91.77431
X-5.37946 Y32.37253 I5.70625 J-2.43039
G1 X-4.81108 Y-0.1119
G03 X1.3629 Y-6.175 I6.18809 J0.12626
G1 X54.79433
G03 X60.96835 Y-0.10995 I-0.01412 J6.18937
G1 X61.53365 Y32.37414
G03 X61.05177 Y34.84575 I-6.18461 J0.07701
G02 X61.18317 Y78.92875 I30021.81657 J-67.44464
X61.53653 Y133.24838 I9731.881 J-36.14653
G1 Y133.2486
G02 X62.01199 Y171.25942 I5854.08245 J-54.21679
G03 X55.83775 Y177.53171 I-6.18588 J0.08582
G1 X37.2285
Y174.53171
X55.83775
G02 X59.01236 Y171.30669 I0. J-3.175
G03 X58.53666 Y133.27638 I5856.60662 J-92.27488
G1 Y133.27627
G03 X58.18319 Y78.93989 I9734.52751 J-90.49405
X58.0502 Y34.14396 I30024.68489 J-111.53878
G02 X58.5341 Y32.42634 I-2.56202 J-1.64877
X57.91177 Y-0.60181 I-2519.57403 J30.9551
X54.79433 Y-3.175 I-3.11744 J0.60181
G1 X1.3629
G02 X-1.81154 Y-0.05941 I0. J3.175
G1 X-2.37992 Y32.42502
G02 X-1.87327 Y34.18203 I3.0674 J0.06704
X-2.3108 Y68.28178 I8478.76818 J125.8416
G1 Y68.28209
G02 X-2.79342 Y121.56254 I16018.37402 J171.73776
G1 X-3.17491 Y171.33237
G02 X0. Y174.53171 I3.17491 J0.02434
G1 X37.2285
G0 Z43.17668
Y177.53171
G1 Z13.00168 F1228.
X0. F4912.
G03 X-6.17482 Y171.30937 I0.01159 J-6.18651
G1 X-5.79333 Y121.53995
G03 X-5.31063 Y68.24993 I16021.8566 J118.4799
G1 X-5.31062 Y68.24932
G03 X-4.88393 Y34.88003 I8482.20553 J91.77431
X-5.37946 Y32.37253 I5.70625 J-2.43039
G1 X-4.81108 Y-0.1119
G03 X1.3629 Y-6.175 I6.18809 J0.12626
G1 X54.79433
G03 X60.96835 Y-0.10995 I-0.01412 J6.18937
G1 X61.53365 Y32.37414
G03 X61.05177 Y34.84575 I-6.18461 J0.07701
G02 X61.18317 Y78.92875 I30021.81657 J-67.44464
X61.53653 Y133.24838 I9731.881 J-36.14653
G1 Y133.2486
G02 X62.01199 Y171.25942 I5854.08245 J-54.21679
G03 X55.83775 Y177.53171 I-6.18588 J0.08582
G1 X37.2285
Y174.53171
X55.83775
G02 X59.01236 Y171.30669 I0. J-3.175
G03 X58.53666 Y133.27638 I5856.60662 J-92.27488
G1 Y133.27627
G03 X58.18319 Y78.93989 I9734.52751 J-90.49405
X58.0502 Y34.14396 I30024.68489 J-111.53878
G02 X58.5341 Y32.42634 I-2.56202 J-1.64877
X57.91177 Y-0.60181 I-2519.57403 J30.9551
X54.79433 Y-3.175 I-3.11744 J0.60181
G1 X1.3629
G02 X-1.81154 Y-0.05941 I0. J3.175
G1 X-2.37992 Y32.42502
G02 X-1.87327 Y34.18203 I3.0674 J0.06704
X-2.3108 Y68.28178 I8478.76818 J125.8416
G1 Y68.28209
G02 X-2.79342 Y121.56254 I16018.37402 J171.73776
G1 X-3.17491 Y171.33237
G02 X0. Y174.53171 I3.17491 J0.02434
G1 X37.2285
G0 Z43.17668
Y177.53171
G1 Z10.00168 F1228.
X0. F4912.
G03 X-6.17482 Y171.30937 I0.01159 J-6.18651
G1 X-5.79333 Y121.53995
G03 X-5.31063 Y68.24993 I16021.8566 J118.4799
G1 X-5.31062 Y68.24932
G03 X-4.88393 Y34.88003 I8482.20553 J91.77431
X-5.37946 Y32.37253 I5.70625 J-2.43039
G1 X-4.81108 Y-0.1119
G03 X1.3629 Y-6.175 I6.18809 J0.12626
G1 X54.79433
G03 X60.96835 Y-0.10995 I-0.01412 J6.18937
G1 X61.53365 Y32.37414
G03 X61.05177 Y34.84575 I-6.18461 J0.07701
G02 X61.18317 Y78.92875 I30021.81657 J-67.44464
X61.53653 Y133.24838 I9731.881 J-36.14653
G1 Y133.2486
G02 X62.01199 Y171.25942 I5854.08245 J-54.21679
G03 X55.83775 Y177.53171 I-6.18588 J0.08582
G1 X37.2285
Y174.53171
X55.83775
G02 X59.01236 Y171.30669 I0. J-3.175
G03 X58.53666 Y133.27638 I5856.60662 J-92.27488
G1 Y133.27627
G03 X58.18319 Y78.93989 I9734.52751 J-90.49405
X58.0502 Y34.14396 I30024.68489 J-111.53878
G02 X58.5341 Y32.42634 I-2.56202 J-1.64877
X57.91177 Y-0.60181 I-2519.57403 J30.9551
X54.79433 Y-3.175 I-3.11744 J0.60181
G1 X1.3629
G02 X-1.81154 Y-0.05941 I0. J3.175
G1 X-2.37992 Y32.42502
G02 X-1.87327 Y34.18203 I3.0674 J0.06704
X-2.3108 Y68.28178 I8478.76818 J125.8416
G1 Y68.28209
G02 X-2.79342 Y121.56254 I16018.37402 J171.73776
G1 X-3.17491 Y171.33237
G02 X0. Y174.53171 I3.17491 J0.02434
G1 X37.2285
G0 Z43.17668
Y177.53171
G1 Z7.00168 F1228.
X0. F4912.
G03 X-6.17482 Y171.30937 I0.01159 J-6.18651
G1 X-5.79333 Y121.53995
G03 X-5.31063 Y68.24993 I16021.8566 J118.4799
G1 X-5.31062 Y68.24932
G03 X-4.88393 Y34.88003 I8482.20553 J91.77431
X-5.37946 Y32.37253 I5.70625 J-2.43039
G1 X-4.81108 Y-0.1119
G03 X1.3629 Y-6.175 I6.18809 J0.12626
G1 X54.79433
G03 X60.96835 Y-0.10995 I-0.01412 J6.18937
G1 X61.53365 Y32.37414
G03 X61.05177 Y34.84575 I-6.18461 J0.07701
G02 X61.18317 Y78.92875 I30021.81657 J-67.44464
X61.53653 Y133.24838 I9731.881 J-36.14653
G1 Y133.2486
G02 X62.01199 Y171.25942 I5854.08245 J-54.21679
G03 X55.83775 Y177.53171 I-6.18588 J0.08582
G1 X37.2285
Y174.53171
X55.83775
G02 X59.01236 Y171.30669 I0. J-3.175
G03 X58.53666 Y133.27638 I5856.60662 J-92.27488
G1 Y133.27627
G03 X58.18319 Y78.93989 I9734.52751 J-90.49405
X58.0502 Y34.14396 I30024.68489 J-111.53878
G02 X58.5341 Y32.42634 I-2.56202 J-1.64877
X57.91177 Y-0.60181 I-2519.57403 J30.9551
X54.79433 Y-3.175 I-3.11744 J0.60181
G1 X1.3629
G02 X-1.81154 Y-0.05941 I0. J3.175
G1 X-2.37992 Y32.42502
G02 X-1.87327 Y34.18203 I3.0674 J0.06704
X-2.3108 Y68.28178 I8478.76818 J125.8416
G1 Y68.28209
G02 X-2.79342 Y121.56254 I16018.37402 J171.73776
G1 X-3.17491 Y171.33237
G02 X0. Y174.53171 I3.17491 J0.02434
G1 X37.2285
G0 Z43.17668
Y177.53171
G1 Z4.00168 F1228.
X0. F4912.
G03 X-6.17482 Y171.30937 I0.01159 J-6.18651
G1 X-5.79333 Y121.53995
G03 X-5.31063 Y68.24993 I16021.8566 J118.4799
G1 X-5.31062 Y68.24932
G03 X-4.88393 Y34.88003 I8482.20553 J91.77431
X-5.37946 Y32.37253 I5.70625 J-2.43039
G1 X-4.81108 Y-0.1119
G03 X1.3629 Y-6.175 I6.18809 J0.12626
G1 X54.79433
G03 X60.96835 Y-0.10995 I-0.01412 J6.18937
G1 X61.53365 Y32.37414
G03 X61.05177 Y34.84575 I-6.18461 J0.07701
G02 X61.18317 Y78.92875 I30021.81657 J-67.44464
X61.53653 Y133.24838 I9731.881 J-36.14653
G1 Y133.2486
G02 X62.01199 Y171.25942 I5854.08245 J-54.21679
G03 X55.83775 Y177.53171 I-6.18588 J0.08582
G1 X37.2285
Y174.53171
X55.83775
G02 X59.01236 Y171.30669 I0. J-3.175
G03 X58.53666 Y133.27638 I5856.60662 J-92.27488
G1 Y133.27627
G03 X58.18319 Y78.93989 I9734.52751 J-90.49405
X58.0502 Y34.14396 I30024.68489 J-111.53878
G02 X58.5341 Y32.42634 I-2.56202 J-1.64877
X57.91177 Y-0.60181 I-2519.57403 J30.9551
X54.79433 Y-3.175 I-3.11744 J0.60181
G1 X1.3629
G02 X-1.81154 Y-0.05941 I0. J3.175
G1 X-2.37992 Y32.42502
G02 X-1.87327 Y34.18203 I3.0674 J0.06704
X-2.3108 Y68.28178 I8478.76818 J125.8416
G1 Y68.28209
G02 X-2.79342 Y121.56254 I16018.37402 J171.73776
G1 X-3.17491 Y171.33237
G02 X0. Y174.53171 I3.17491 J0.02434
G1 X37.2285
G0 Z43.17668
Y177.53171
G1 Z1.00168 F1228.
X0. F4912.
G03 X-6.17482 Y171.30937 I0.01159 J-6.18651
G1 X-5.79333 Y121.53995
G03 X-5.31063 Y68.24993 I16021.8566 J118.4799
G1 X-5.31062 Y68.24932
G03 X-4.88393 Y34.88003 I8482.20553 J91.77431
X-5.37946 Y32.37253 I5.70625 J-2.43039
G1 X-4.81108 Y-0.1119
G03 X1.3629 Y-6.175 I6.18809 J0.12626
G1 X54.79433
G03 X60.96835 Y-0.10995 I-0.01412 J6.18937
G1 X61.53365 Y32.37414
G03 X61.05177 Y34.84575 I-6.18461 J0.07701
G02 X61.18317 Y78.92875 I30021.81657 J-67.44464
X61.53653 Y133.24838 I9731.881 J-36.14653
G1 Y133.2486
G02 X62.01199 Y171.25942 I5854.08245 J-54.21679
G03 X55.83775 Y177.53171 I-6.18588 J0.08582
G1 X37.2285
Y174.53171
X55.83775
G02 X59.01236 Y171.30669 I0. J-3.175
G03 X58.53666 Y133.27638 I5856.60662 J-92.27488
G1 Y133.27627
G03 X58.18319 Y78.93989 I9734.52751 J-90.49405
X58.0502 Y34.14396 I30024.68489 J-111.53878
G02 X58.5341 Y32.42634 I-2.56202 J-1.64877
X57.91177 Y-0.60181 I-2519.57403 J30.9551
X54.79433 Y-3.175 I-3.11744 J0.60181
G1 X1.3629
G02 X-1.81154 Y-0.05941 I0. J3.175
G1 X-2.37992 Y32.42502
G02 X-1.87327 Y34.18203 I3.0674 J0.06704
X-2.3108 Y68.28178 I8478.76818 J125.8416
G1 Y68.28209
G02 X-2.79342 Y121.56254 I16018.37402 J171.73776
G1 X-3.17491 Y171.33237
G02 X0. Y174.53171 I3.17491 J0.02434
G1 X37.2285
G0 Z43.17668
Y177.53171
G1 Z0.00168 F1228.
X0. F4912.
G03 X-6.17482 Y171.30937 I0.01159 J-6.18651
G1 X-5.79333 Y121.53995
G03 X-5.31063 Y68.24993 I16021.8566 J118.4799
G1 X-5.31062 Y68.24932
G03 X-4.88393 Y34.88003 I8482.20553 J91.77431
X-5.37946 Y32.37253 I5.70625 J-2.43039
G1 X-4.81108 Y-0.1119
G03 X1.3629 Y-6.175 I6.18809 J0.12626
G1 X54.79433
G03 X60.96835 Y-0.10995 I-0.01412 J6.18937
G1 X61.53365 Y32.37414
G03 X61.05177 Y34.84575 I-6.18461 J0.07701
G02 X61.18317 Y78.92875 I30021.81657 J-67.44464
X61.53653 Y133.24838 I9731.881 J-36.14653
G1 Y133.2486
G02 X62.01199 Y171.25942 I5854.08245 J-54.21679
G03 X55.83775 Y177.53171 I-6.18588 J0.08582
G1 X37.2285
Y174.53171
X55.83775
G02 X59.01236 Y171.30669 I0. J-3.175
G03 X58.53666 Y133.27638 I5856.60662 J-92.27488
G1 Y133.27627
G03 X58.18319 Y78.93989 I9734.52751 J-90.49405
X58.0502 Y34.14396 I30024.68489 J-111.53878
G02 X58.5341 Y32.42634 I-2.56202 J-1.64877
X57.91177 Y-0.60181 I-2519.57403 J30.9551
X54.79433 Y-3.175 I-3.11744 J0.60181
G1 X1.3629
G02 X-1.81154 Y-0.05941 I0. J3.175
G1 X-2.37992 Y32.42502
G02 X-1.87327 Y34.18203 I3.0674 J0.06704
X-2.3108 Y68.28178 I8478.76818 J125.8416
G1 Y68.28209
G02 X-2.79342 Y121.56254 I16018.37402 J171.73776
G1 X-3.17491 Y171.33237
G02 X0. Y174.53171 I3.17491 J0.02434
G1 X37.2285
G0 Z43.17668
(Horizontal Roughing)
(1/4in 6.35mm 2 Flute Carbide Router)
Z40.55417
X29.00052 Y141.06812
G1 Z39.91917 F3684.
X28.99906 Y144.46852 Z39.31959 F3684.
X26.84112 Y144.46955 F4912.
X26.81302 Y26.90949
X29.04939 Y26.90983
X28.99906 Y144.46852
X28.99982 Y146.05602
X30.58589 Y146.05527
X30.63757 Y25.32257
X25.22514 Y25.32175
X25.254 Y146.0578
X28.99982 Y146.05602
X29.00057 Y147.64352
X23.66688 Y147.64606
X23.63726 Y23.73401
X32.22575 Y23.73531
X32.17271 Y147.64202
X29.00057 Y147.64352
X29.00133 Y149.23102
X33.75953 Y149.22876
X33.81393 Y22.14805
X22.04938 Y22.14626
X22.07976 Y149.23431
X29.00133 Y149.23102
X29.00208 Y150.81852
X20.49264 Y150.82256
X20.4615 Y20.55852
X35.40211 Y20.56079
X35.34635 Y150.81551
X29.00208 Y150.81852
X29.00283 Y152.40602
X36.93317 Y152.40226
X36.99029 Y18.97353
X18.87362 Y18.97078
X18.90552 Y152.41082
X29.00283 Y152.40602
X29.00359 Y153.99352
X17.3184 Y153.99907
X17.28574 Y17.38304
X38.57847 Y17.38627
X38.51999 Y153.989
X29.00359 Y153.99352
X29.00434 Y155.58102
X40.10681 Y155.57575
X40.16665 Y15.79901
X15.69786 Y15.7953
X15.73128 Y155.58732
X29.00434 Y155.58102
X29.0051 Y157.16852
X14.14416 Y157.17558
X14.10998 Y14.20756
X41.75483 Y14.21175
X41.69363 Y157.1625
X29.0051 Y157.16852
X29.00585 Y158.75602
X43.28045 Y158.74924
X43.34301 Y12.62449
X12.5221 Y12.61982
X12.55704 Y158.76383
X29.00585 Y158.75602
X29.0066 Y160.34352
X10.96992 Y160.35209
X10.93422 Y11.03208
X44.93119 Y11.03724
X44.86727 Y160.33599
X29.0066 Y160.34352
X29.00736 Y161.93102
X46.45409 Y161.92274
X46.51936 Y9.44998
X9.34635 Y9.44434
X9.3828 Y161.94034
X29.00736 Y161.93102
X29.00811 Y163.51852
X7.79568 Y163.52859
X7.75847 Y7.8566
X48.10755 Y7.86272
X48.04091 Y163.50948
X29.00811 Y163.51852
X29.00886 Y165.10602
X49.62774 Y165.09623
X49.69572 Y6.27546
X6.17059 Y6.26886
X6.20856 Y165.11685
X29.00886 Y165.10602
X29.00962 Y166.69352
X4.62144 Y166.7051
X4.58271 Y4.68111
X51.2839 Y4.6882
X51.21456 Y166.68298
X29.00962 Y166.69352
X29.01037 Y168.28102
X52.80138 Y168.26972
X52.87208 Y3.10094
X2.99483 Y3.09337
X3.03432 Y168.29336
X29.01037 Y168.28102
X29.01113 Y169.86852
X1.4472 Y169.88161
X1.40695 Y1.50563
X54.46026 Y1.51368
X54.3882 Y169.85647
X29.01113 Y169.86852
X29.01188 Y171.45602
X55.97502 Y171.44322
X56.04844 Y-0.07358
X-0.18093 Y-0.08211
X-0.13992 Y171.46986
X29.01188 Y171.45602
X29.01263 Y173.04352
X-1.72705 Y173.05812
X-1.76881 Y-1.66985
X57.63662 Y-1.66084
X57.56184 Y173.02996
X29.01263 Y173.04352
X29.01339 Y174.63102
X59.14866 Y174.61671
X59.2248 Y-3.2481
X-3.35669 Y-3.25759
X-3.31417 Y174.64637
X29.01339 Y174.63102
X29.01414 Y176.21852
X-4.90129 Y176.23463
X-4.94457 Y-4.84533
X60.81298 Y-4.83535
X60.73548 Y176.20346
X29.01414 Y176.21852
X29.0149 Y177.80602
X61.36065 Y177.79066
X61.87902 Y177.47964
X62.32277 Y176.7051
X62.4006 Y-5.11171
X62.17243 Y-5.78776
X61.29518 Y-6.47324
X-5.62608 Y-6.43242
X-6.11424 Y-6.06629
X-6.53446 Y-5.20835
X-6.48866 Y176.73326
X-6.16595 Y177.34247
X-5.41069 Y177.82237
X29.0149 Y177.80602
X29.01837 Y179.44727
X-5.12205 Y179.51946
X-5.87205 Y179.41009
X-7.37205 Y178.45696
X-8.07606 Y177.12795
X-8.12205 Y-5.57606
X-7.37205 Y-7.10731
X-6.37205 Y-7.85731
X-5.57606 Y-8.12205
X61.62795 Y-8.06044
G03 X63.98821 Y-5.37205 I-0.72361 J3.01558
G1 X63.91009 Y177.12795
X63.05071 Y178.62795
X61.80071 Y179.37795
X29.01837 Y179.44727
Z39.95459 F5000.
G0
X28.90645 Y139.39208
G1 Z38.2 F1228.
Z37.565 F3684.
X28.90083 Y144.53481 Z36.6582 F3684.
X26.84105 Y144.53193 Z36.295
X26.82777 Y80.42438 F4912.
X28.97094 Y80.38811
X28.90083 Y144.53481
X26.84105 Y144.53193
X25.25355 Y144.53226
X25.25388 Y146.11721
X30.4866 Y146.12453
X30.5602 Y78.77349
X25.23994 Y78.86352
X25.25355 Y144.53226
X23.66605 Y144.53259
X23.65208 Y77.08305
X26.04241 Y77.3578
X31.30229 Y77.27114
X32.1495 Y77.12398
X32.07236 Y147.71425
X23.6667 Y147.70249
X23.66605 Y144.53259
X22.07855 Y144.53292
X22.07953 Y149.28777
X33.65812 Y149.30398
X33.73907 Y75.23661
X31.03062 Y75.70705
X26.02232 Y75.77043
X22.81167 Y75.38245
X22.06416 Y75.09092
X22.07855 Y144.53292
X20.49105 Y144.53325
X20.47557 Y69.80247
X20.90065 Y71.75895
X21.75895 Y73.04934
X23.00895 Y73.80725
X26.00895 Y74.18298
X30.75895 Y74.14297
X33.50895 Y73.66531
X34.67509 Y72.75895
X35.33061 Y71.53832
X35.24389 Y150.8937
X20.49236 Y150.87305
X20.49105 Y144.53325
Z36.93 F5000.
G0 Z39.95459
X29.02645 Y29.58504
G1 Z38.2 F1228.
Z37.565 F3684.
X29.02099 Y34.58428 Z36.6835 F3684.
X26.81828 Y34.63481 Z36.295
X26.81668 Y26.90394 F4912.
X29.02938 Y26.90463
X29.02099 Y34.58428
X26.81828 Y34.63481
X26.85469 Y36.22189
X30.60679 Y36.13582
X30.61862 Y25.31762
X25.22885 Y25.31594
X25.23112 Y36.25914
X26.85469 Y36.22189
X26.89734 Y37.80225
X24.76237 Y37.85986
X23.64404 Y38.26638
X23.64102 Y23.72795
X32.20785 Y23.73062
X32.19211 Y38.1398
X30.49327 Y37.7052
X26.89734 Y37.80225
X26.91476 Y39.33353
X30.51133 Y39.2926
X33.77728 Y40.27335
X33.79709 Y22.14362
X22.05319 Y22.13995
X22.057 Y40.5324
X22.31998 Y40.3395
X25.30471 Y39.35185
X26.91476 Y39.33353
X26.91245 Y40.87471
X25.75895 Y40.87298
X23.25895 Y41.61953
X22.00895 Y42.53647
X20.96216 Y44.50895
X20.47066 Y46.09291
X20.46537 Y20.55195
X35.38632 Y20.55661
X35.35978 Y44.84273
X34.25895 Y42.59873
X33.24459 Y41.75895
X30.50895 Y40.8801
X26.91245 Y40.87471
Z36.93 F5000.
G0 Z39.95459
X18.88058 Y33.67384
G1 Z38.2 F1228.
Z37.565 F3684.
X18.88208 Y40.87637 Z36.295 F3684.
X18.90519 Y152.45834 F4912.
X36.82965 Y152.48342
X36.97556 Y18.96961
X18.87754 Y18.96396
X18.88208 Y40.87637
X17.29458 Y40.8767
X17.28971 Y17.37596
X38.56479 Y17.3826
X38.41542 Y154.07314
X17.31802 Y154.04362
X17.29458 Y40.8767
X15.70708 Y40.87703
X15.73085 Y155.6289
X40.00118 Y155.66286
X40.15403 Y15.7956
X15.70188 Y15.78797
X15.70708 Y40.87703
X14.11958 Y40.87736
X14.11405 Y14.19997
X41.74326 Y14.2086
X41.58694 Y157.25258
X14.14367 Y157.21418
X14.11958 Y40.87736
X12.53208 Y40.87768
X12.5565 Y158.79946
X43.17271 Y158.8423
X43.3325 Y12.62159
X12.52622 Y12.61198
X12.53208 Y40.87768
X10.94458 Y40.87801
X10.93839 Y11.02398
X44.92173 Y11.03459
X44.75847 Y160.43202
X10.96933 Y160.38474
X10.94458 Y40.87801
X9.35708 Y40.87834
X9.38216 Y161.97002
X46.34423 Y162.02174
X46.51097 Y9.44759
X9.35056 Y9.43598
X9.35708 Y40.87834
X7.76958 Y40.87867
X7.76273 Y7.84799
X48.10021 Y7.86058
X47.93 Y163.61146
X7.79499 Y163.5553
X7.76958 Y40.87867
X6.18208 Y40.879
X6.20782 Y165.14058
X49.51576 Y165.20118
X49.68944 Y6.27358
X6.17491 Y6.25999
X6.18208 Y40.879
X4.59458 Y40.87933
X4.58708 Y4.672
X51.27868 Y4.68657
X51.10153 Y166.7909
X4.62064 Y166.72586
X4.59458 Y40.87933
X3.00708 Y40.87966
X3.03347 Y168.31114
X52.68729 Y168.38062
X52.86791 Y3.09957
X2.99925 Y3.084
X3.00708 Y40.87966
X1.41958 Y40.87999
X1.41142 Y1.49601
X54.45715 Y1.51257
X54.27305 Y169.97034
X1.4463 Y169.89642
X1.41958 Y40.87999
X-0.16792 Y40.88031
X-0.14087 Y171.4817
X55.85882 Y171.56006
X56.04638 Y-0.07444
X-0.17641 Y-0.09199
X-0.16792 Y40.88031
X-1.75542 Y40.88064
X-1.76424 Y-1.67999
X57.63562 Y-1.66144
X57.44458 Y173.14978
X-1.72804 Y173.06698
X-1.75542 Y40.88064
X-3.34292 Y40.88097
X-3.31521 Y174.65227
X59.03034 Y174.7395
X59.22485 Y-3.24845
X-3.35207 Y-3.26798
X-3.34292 Y40.88097
X-4.93042 Y40.8813
X-4.9399 Y-4.85598
X60.81409 Y-4.83545
X60.61611 Y176.32922
X-4.90238 Y176.23755
X-4.93042 Y40.8813
X-6.52314 Y40.88169
X-6.48976 Y176.73301
X-6.16617 Y177.34343
X-5.40933 Y177.82434
X60.98077 Y177.91723
X61.88013 Y177.47964
X62.32387 Y176.7051
X62.40171 Y-5.11171
X62.17355 Y-5.78773
X61.2952 Y-6.47434
X-5.6044 Y-6.44317
X-6.11616 Y-6.06348
X-6.53446 Y-5.20946
X-6.52314 Y40.88169
X-8.11064 Y40.88208
X-8.12205 Y-5.57717
X-7.37205 Y-7.10842
X-6.34279 Y-7.87205
X-5.57717 Y-8.12205
X61.62795 Y-8.06154
G03 X63.98932 Y-5.37205 I-0.72442 J3.01742
G1 X63.91119 Y177.12795
X63.05182 Y178.62795
X61.80182 Y179.37795
X61.12795 Y179.50494
X-5.87205 Y179.41119
X-7.37205 Y178.45807
X-8.07717 Y177.12795
X-8.11064 Y40.88208
Z36.93 F5000.
G0 Z39.95459
X34.27298 Y42.61972
G1 Z38.2 F1228.
Z37.565 F3684.
X34.25895 Y42.59873 Z37.56055 F3684.
X33.24459 Y41.75895 Z37.32835
X30.50895 Y40.8801 Z36.8217
X27.52435 Y40.75895 Z36.295
G02 X22.5791 Y42.00895 I-0.28771 J9.26898 F4912.
X20.96216 Y44.50895 I2.76713 J3.5626
X19.83206 Y53.25895 I22.25187 J7.3219
G1 X20.20752 Y65.75895
G02 X20.90065 Y71.75895 I20.53682 J0.6676
X23.00895 Y73.80725 I3.23646 J-1.22208
X32.75895 Y73.91182 I5.20974 J-31.15864
X35.67156 Y70.00895 I-0.94939 J-3.74674
G1 X35.93793 Y66.25895
X36.36685 Y53.00895
G02 X34.70031 Y43.25895 I-20.566 J-1.50213
G1 X34.25895 Y42.59873
X33.24459 Y41.75895
X30.50895 Y40.8801
X27.52435 Y40.75895
Z36.93 F5000.
G0 Z39.95459
X13.26212 Y14.81769
G1 Z35.17542 F1228.
Z34.54042 F3684.
X13.31693 Y14.73657 Z34.52316 F3684.
X13.4917 Y12.67917 Z34.15908
X13.40956 Y12.25463 Z34.08283
X13.11707 Y11.93614 Z34.00658
X12.70105 Y11.81823 Z33.93034
X12.52585 Y11.81818 Z33.89945
X11.73186 Y12.61209 Z33.70146
X11.73228 Y14.66955 Z33.33868
X11.92114 Y15.00746 Z33.27042
X12.52603 Y14.66938
X12.7008 Y12.61198 F4912.
X12.52561 Y12.61193
X12.52603 Y14.66938
X13.84373 Y14.86991
X13.65753 Y16.09346
X12.47913 Y30.38187
X12.52622 Y33.42247
X10.94313 Y37.18157
X10.93779 Y11.02394
X14.42883 Y11.02501
X13.84373 Y14.86991
Z33.90542 F5000.
G0 Z39.95459
X42.82509 Y11.89247
G1 Z35.17542 F1228.
Z34.54042 F3684.
X42.60449 Y11.95861 Z34.49981 F3684.
X42.31177 Y12.3087 Z34.41935
X42.26021 Y12.76212 Z34.33888
X42.55001 Y14.36981 Z34.05083
X43.01836 Y14.95852 Z33.91818
X43.76769 Y14.89194 Z33.78554
X44.12492 Y14.22989 Z33.65289
X44.12672 Y12.62229 Z33.36943
X43.72996 Y12.22497 Z33.27042
X43.33297 Y12.6214
X43.04137 Y12.62131 F4912.
X43.33117 Y14.229
X43.33297 Y12.6214
X43.33345 Y11.0339
X44.92224 Y11.03439
X44.89437 Y36.00142
X43.55131 Y33.05935
X43.56744 Y29.02761
X42.23765 Y17.1113
X41.14202 Y11.03323
X43.33345 Y11.0339
Z33.90542 F5000.
G0 Z39.95459
X28.90396 Y139.39157
G1 Z35.17542 F1228.
Z34.54042 F3684.
X28.89821 Y144.53592 Z33.63333 F3684.
X26.84004 Y144.53304 Z33.27042
X26.83284 Y109.25174 F4912.
X28.93766 Y109.1964
X28.89821 Y144.53592
X26.84004 Y144.53304
X25.25254 Y144.53336
X25.25287 Y146.11832
X30.48394 Y146.12564
X30.52682 Y107.71076
X28.37519 Y107.56813
X25.24504 Y107.7573
X25.25254 Y144.53336
X23.66504 Y144.53368
X23.65723 Y106.26287
X28.37983 Y105.97746
X32.11598 Y106.22511
X32.06967 Y147.71536
X23.66569 Y147.7036
X23.66504 Y144.53368
X22.07754 Y144.53401
X22.07851 Y149.28888
X33.65539 Y149.30508
X33.7054 Y104.5091
X32.59055 Y104.66559
X28.36608 Y104.38556
X24.27452 Y104.72787
X22.06937 Y104.51361
X22.07754 Y144.53401
X20.49004 Y144.53433
X20.48151 Y102.74063
X24.14217 Y103.14589
X28.35915 Y102.7931
X32.36988 Y103.0935
X35.29494 Y102.68291
X35.24112 Y150.8948
X20.49134 Y150.87416
X20.49004 Y144.53433
X18.90254 Y144.53466
X18.90416 Y152.45944
X36.82685 Y152.48452
X36.88448 Y100.85673
X32.14921 Y101.52141
X28.36007 Y101.19997
X24.00982 Y101.56392
X18.89365 Y100.95184
X18.90254 Y144.53466
X17.31504 Y144.53498
X17.30572 Y98.86052
X18.37796 Y99.28649
X23.87747 Y99.98194
X28.37019 Y99.60608
X31.92854 Y99.94932
X38.47401 Y99.03054
X38.41257 Y154.07424
X17.31698 Y154.04472
X17.31504 Y144.53498
X15.72754 Y144.5353
X15.72981 Y155.63
X39.9983 Y155.66396
X40.06415 Y96.66908
X38.60797 Y97.40867
X31.70786 Y98.37724
X28.39127 Y98.01127
X23.74513 Y98.39997
X18.58759 Y97.71289
X15.71771 Y96.34507
X15.72754 Y144.5353
X14.14004 Y144.53563
X14.12968 Y93.75192
X18.80916 Y96.14093
X23.61278 Y96.818
X28.42425 Y96.41547
X31.50817 Y96.80234
X37.88909 Y95.99327
X40.95633 Y94.43541
X41.65483 Y93.82416
X41.58403 Y157.25368
X14.14263 Y157.21528
X14.14004 Y144.53563
X12.55254 Y144.53595
X12.55546 Y158.80056
X43.16975 Y158.8434
X43.24624 Y90.32201
X39.91089 Y93.24075
X37.1931 Y94.56647
X31.33102 Y95.22476
X28.47024 Y94.81857
X23.48043 Y95.23602
X19.49441 Y94.70894
X15.3595 Y92.73026
X12.54142 Y90.05986
X12.55254 Y144.53595
X10.96504 Y144.53628
X10.95073 Y74.40573
X11.74488 Y79.1371
X11.46607 Y81.32867
X11.99571 Y85.52899
X13.88282 Y89.24181
X16.07025 Y91.31076
X19.71816 Y93.13728
X23.34808 Y93.65405
X28.53053 Y93.22048
X31.17776 Y93.64468
X36.52605 Y93.12592
X38.8739 Y92.03875
X42.11173 Y89.2454
X44.2365 Y84.98974
X44.58938 Y80.16073
X44.36983 Y79.0927
X44.84958 Y76.13034
X44.75548 Y160.43312
X10.96828 Y160.38584
X10.96504 Y144.53628
X9.37754 Y144.5366
X9.3811 Y161.97112
X46.34121 Y162.02284
X46.51151 Y9.44738
X39.24267 Y9.44514
X40.67532 Y17.39293
X41.98968 Y29.20319
X41.96149 Y33.39948
X43.99183 Y37.84708
X44.73524 Y39.98203
X45.68794 Y45.16984
X45.80958 Y51.69344
X44.55791 Y68.00111
X42.75613 Y79.12674
X43.03439 Y80.48037
X42.65494 Y84.85248
X40.71091 Y88.49849
X37.87225 Y90.80714
X35.89158 Y91.67072
X31.04977 Y92.06234
X28.60675 Y91.62106
X23.21573 Y92.07208
X19.9609 Y91.56845
X16.81099 Y89.90667
X14.99965 Y88.1136
X13.42647 Y84.84117
X13.0451 Y81.16487
X13.3523 Y79.12349
X11.95691 Y70.81009
X11.43008 Y66.22628
X10.34599 Y50.44244
X10.56576 Y44.73683
X11.4845 Y39.98627
X14.11869 Y33.7313
X14.06644 Y30.35728
X15.23959 Y16.22479
X16.27747 Y9.43808
X9.34996 Y9.43595
X9.37754 Y144.5366
X7.79004 Y144.53693
X7.76214 Y7.84796
X18.12714 Y7.85115
X16.82158 Y16.35699
X15.65375 Y30.3327
X15.71123 Y34.04434
X13.04192 Y40.29381
X12.15199 Y44.80053
X11.92977 Y50.33383
X13.00728 Y66.04576
X13.52251 Y70.5473
X14.963 Y79.12936
X14.62776 Y81.04108
X14.87402 Y84.18945
X16.14664 Y87.01607
X17.58786 Y88.52225
X20.22755 Y90.00351
X23.08338 Y90.4901
X28.70095 Y90.02013
X30.94838 Y90.47808
X35.29403 Y90.19998
X36.91312 Y89.54214
X39.33579 Y87.70526
X41.07592 Y84.68864
X41.4794 Y80.80002
X41.14236 Y79.16038
X42.97512 Y67.87896
X44.22227 Y51.71794
X44.12554 Y45.45104
X43.23433 Y40.49917
X42.54769 Y38.50634
X40.37073 Y33.73755
X40.41187 Y29.3783
X39.113 Y17.67455
X37.67248 Y9.68312
X37.14121 Y7.857
X48.10078 Y7.86037
X47.92693 Y163.61256
X7.79393 Y163.55641
X7.79004 Y144.53693
X6.20254 Y144.53725
X6.20675 Y165.14168
X49.51266 Y165.20228
X49.69006 Y6.27336
X35.02585 Y6.26885
X36.14818 Y10.12659
X37.55038 Y17.95446
X38.834 Y29.55292
X38.77902 Y34.07356
X41.10355 Y39.16559
X41.73148 Y41.01064
X42.56211 Y45.72642
X42.63489 Y51.73716
X41.39237 Y67.7562
X39.5285 Y79.19363
X39.92441 Y81.11966
X39.66726 Y83.95664
X38.37667 Y86.44026
X35.95399 Y88.27714
X34.75851 Y88.70553
X30.87213 Y88.89242
X28.8162 Y88.41745
X27.25936 Y88.50355
X22.95103 Y88.90813
X20.52577 Y88.44427
X18.40962 Y87.16399
X17.32949 Y85.95729
X16.3396 Y83.57935
X16.21342 Y80.96456
X16.57704 Y79.15521
X15.08811 Y70.28452
X14.58457 Y65.86601
X13.51356 Y50.22538
X13.73809 Y44.867
X14.59802 Y40.608
X17.30384 Y34.36162
X17.24106 Y30.30812
X18.40349 Y16.49006
X19.97763 Y6.26422
X6.17431 Y6.25997
X6.20254 Y144.53725
X4.61504 Y144.53757
X4.58649 Y4.67199
X21.82879 Y4.67729
X19.98532 Y16.62404
X18.82837 Y30.28353
X18.89651 Y34.68316
X16.15263 Y40.92946
X15.32408 Y44.9364
X15.09736 Y50.11709
X16.16196 Y65.68706
X16.65371 Y70.02173
X18.19425 Y79.19989
G02 X18.55609 Y84.94952 I6.83115 J2.45629
X22.83413 Y87.32494 I4.38196 J-2.85173
G1 X26.63416 Y87.04435
X27.1022 Y86.84381
X29.01709 Y86.82826
X30.81554 Y87.30593
X34.31554 Y87.18108
X35.06138 Y86.96436
X37.00333 Y85.64395
X38.09098 Y83.76818
X38.36943 Y81.43931
X37.91456 Y79.22648
X39.80967 Y67.63285
X41.04745 Y51.75091
X40.99762 Y45.99573
X40.22636 Y41.5154
X39.65941 Y39.82484
X37.18363 Y34.40147
X37.28625 Y29.90594
X37.02351 Y28.75399
X35.98743 Y18.23258
X34.62388 Y10.57005
X33.25568 Y5.86718
X32.73124 Y4.68064
X51.27933 Y4.68634
X51.09839 Y166.792
X4.61957 Y166.72697
X4.61504 Y144.53757
X3.02754 Y144.5379
X3.0324 Y168.31225
X52.68411 Y168.38172
X52.8686 Y3.09933
X29.63084 Y3.09219
X31.1407 Y5.00895
X31.80368 Y6.50895
X33.09826 Y11.00895
X34.42417 Y18.50895
X35.4534 Y29.00895
X35.7385 Y30.25895
X35.59146 Y34.50895
X35.71973 Y35.25895
X38.22688 Y40.50895
X38.71753 Y42.00895
X39.4321 Y46.25895
X39.45997 Y51.75895
X38.22701 Y67.50895
X36.30054 Y79.25895
X36.81444 Y81.75895
X36.52479 Y83.50895
X35.68541 Y84.75895
X34.25895 Y85.59459
X30.75895 Y85.71943
X29.25895 Y85.23875
X26.77027 Y85.25895
X26.00895 Y85.58514
X22.75895 Y85.73922
G03 X19.32817 Y82.50895 I0.13725 J-3.58276
G1 X19.38709 Y81.00895
X19.81387 Y79.25895
X18.2193 Y69.75895
X17.73943 Y65.50895
X16.68118 Y50.00895
X16.90992 Y45.00895
X17.70556 Y41.25895
X20.48924 Y35.00895
X20.41568 Y30.25895
X21.56708 Y16.75895
X23.46119 Y4.50895
X24.08981 Y3.09048
X2.99867 Y3.084
X3.02754 Y144.5379
X1.44004 Y144.53822
X1.41084 Y1.49601
X54.45787 Y1.51232
X54.26984 Y169.97144
X1.44522 Y169.89753
X1.44004 Y144.53822
X-0.14746 Y144.53855
X-0.14196 Y171.48281
X55.85557 Y171.56116
X56.04715 Y-0.07469
X-0.17698 Y-0.09198
X-0.14746 Y144.53855
X-1.73496 Y144.53887
X-1.76481 Y-1.67997
X57.63642 Y-1.6617
X57.44129 Y173.15088
X-1.72913 Y173.06809
X-1.73496 Y144.53887
X-3.32246 Y144.53919
X-3.31631 Y174.65337
X59.02702 Y174.7406
X59.22569 Y-3.24871
X-3.35263 Y-3.26796
X-3.32246 Y144.53919
X-4.90996 Y144.53952
X-4.94046 Y-4.85594
X60.81496 Y-4.83572
X60.61275 Y176.33032
X-4.90349 Y176.23865
X-4.90996 Y144.53952
X-6.49858 Y144.5399
X-6.49087 Y176.73275
X-6.16638 Y177.3444
X-5.40933 Y177.82544
X60.97975 Y177.91834
X61.90896 Y177.463
X62.24706 Y176.92204
X62.4027 Y-5.11204
X62.17467 Y-5.7877
X61.29521 Y-6.47544
X-5.60565 Y-6.44312
X-6.11623 Y-6.06445
X-6.53446 Y-5.21056
X-6.49858 Y144.5399
X-8.08608 Y144.54028
X-8.12205 Y-5.57827
X-7.37205 Y-7.10952
X-6.3439 Y-7.87205
X-5.57827 Y-8.12205
X61.62795 Y-8.06265
G03 X63.99042 Y-5.37205 I-0.72522 J3.01926
G1 X63.83417 Y177.37795
G03 X61.12795 Y179.50605 I-2.9623 J-0.9823
G1 X-5.87205 Y179.4123
X-7.37205 Y178.45917
X-8.07827 Y177.12795
X-8.08608 Y144.54028
Z33.90542 F5000.
G0 Z39.95459
X31.25732 Y5.2728
G1 Z35.17542 F1228.
Z34.54042 F3684.
X31.1407 Y5.00895 Z34.48955 F3684.
X30.25895 Y3.71768 Z34.21385
X29.25895 Y2.72185 Z33.965
X28.75895 Y2.39938 Z33.86009
X27.50895 Y1.9332 Z33.62486
X26.75895 Y1.81279 Z33.49092
X25.52392 Y2.00895 Z33.27042
G02 X23.46119 Y4.50895 I1.14797 J3.04816 F4912.
G1 X21.56708 Y16.75895
X20.54985 Y29.50895
X20.41568 Y30.25895
X20.42047 Y32.75895
G03 X20.25873 Y35.75895 I-5.0713 J1.23094
G1 X18.25895 Y39.78836
G02 X16.68118 Y50.00895 I21.61411 J8.56869
X18.2193 Y69.75895 I252.39362 J-9.72151
G1 X19.81387 Y79.25895
G02 X19.50895 Y83.29871 I6.55823 J2.5264
X22.75895 Y85.73922 I3.36839 J-1.10139
G1 X25.25895 Y85.72847
X26.00895 Y85.58514
X26.77027 Y85.25895
X29.25895 Y85.23875
X30.00895 Y85.55522
X30.75895 Y85.71943
X33.50895 Y85.73155
G02 X36.72504 Y81.00895 I-0.38098 J-3.71583
G1 X36.30054 Y79.25895
X37.65165 Y71.75895
X38.22701 Y67.50895
X39.45997 Y51.75895
G02 X38.22688 Y40.50895 I-28.147 J-2.60744
G03 X35.71973 Y35.25895 I345.74886 J-168.33634
G1 X35.59146 Y34.50895
G02 X35.4534 Y29.00895 I-17.10749 J-2.3223
G1 X34.42417 Y18.50895
G02 X31.1407 Y5.00895 I-49.40535 J4.86709
X26.75895 Y1.81279 I-4.89621 J2.11076
G1 X25.52392 Y2.00895
Z33.90542 F5000.
G0 Z39.95459
X6.17839 Y29.47768
G1 Z32.15084 F1228.
Z31.51584 F3684.
X6.17984 Y36.68021 Z30.24584 F3684.
X6.35029 Y35.55996 F4912.
X6.21341 Y33.34697
X6.92093 Y6.26021
X6.17372 Y6.25999
X6.17984 Y36.68021
Z30.88084 F5000.
G0 Z39.95459
X28.90333 Y139.39299
G1 Z32.15084 F1228.
Z31.51584 F3684.
X28.89753 Y144.53702 Z30.6088 F3684.
X26.83904 Y144.53414 Z30.24584
X26.8341 Y120.01181 F4912.
X28.06911 Y119.82428
X28.92533 Y119.89759
X28.89753 Y144.53702
X26.83904 Y144.53414
X25.25154 Y144.53446
X25.25186 Y146.11942
X30.48324 Y146.12674
X30.51447 Y118.44035
X28.01694 Y118.2265
X25.24633 Y118.64721
X25.25154 Y144.53446
X23.66404 Y144.53478
X23.65856 Y117.28261
X27.96478 Y116.62872
X32.10362 Y116.98312
X32.06894 Y147.71646
X23.66468 Y147.7047
X23.66404 Y144.53478
X22.07654 Y144.5351
X22.07749 Y149.28998
X33.65465 Y149.30618
X33.69276 Y115.52588
X27.89943 Y115.02982
X23.90265 Y115.70403
X22.07072 Y115.62636
X22.07654 Y144.5351
X20.48904 Y144.53542
X20.48288 Y113.93089
X23.63859 Y114.13865
X27.83408 Y113.43092
X35.28191 Y114.06865
X35.24036 Y150.8959
X20.49031 Y150.87526
X20.48904 Y144.53542
X18.90154 Y144.53574
X18.90313 Y152.46054
X36.82606 Y152.48562
X36.87138 Y112.32307
X35.90415 Y112.52862
X27.76873 Y111.83201
X23.37453 Y112.57326
X18.89504 Y112.20905
X18.90154 Y144.53574
X17.31404 Y144.53606
X17.30718 Y110.46654
X23.11046 Y111.00788
X27.71046 Y110.23191
X35.57416 Y110.97579
X38.46109 Y110.36229
X38.41177 Y154.07534
X17.31595 Y154.04582
X17.31404 Y144.53606
X15.72654 Y144.53638
X15.72877 Y155.6311
X39.99748 Y155.66506
X40.0508 Y108.40151
X35.24417 Y109.42297
X27.65999 Y108.63049
X22.8464 Y109.4425
X15.71933 Y108.70666
X15.72654 Y144.53638
X14.13904 Y144.5367
X14.13139 Y106.52511
X15.44688 Y107.07877
X22.58234 Y107.87711
X27.61819 Y107.02762
X34.91418 Y107.87015
X41.64052 Y106.44073
X41.58319 Y157.25478
X14.14159 Y157.21639
X14.13904 Y144.5367
X12.55154 Y144.53701
X12.55441 Y158.80167
X43.16889 Y158.8445
X43.23043 Y104.30552
X42.84488 Y104.56184
X34.58419 Y106.31732
X27.58608 Y105.42311
X22.31827 Y106.31173
X15.63771 Y105.50278
X12.54338 Y103.95799
X12.55154 Y144.53701
X10.96404 Y144.53733
X10.95534 Y101.30344
X15.84493 Y103.92887
X22.05421 Y104.74634
X27.56396 Y103.81691
X34.27633 Y104.75996
X41.96598 Y103.23984
X44.82127 Y101.34156
X44.7546 Y160.43422
X10.96723 Y160.38695
X10.96404 Y144.53733
X9.37654 Y144.53765
X9.38005 Y161.97223
X46.34031 Y162.02395
X46.41212 Y98.37759
X46.22604 Y98.63538
X41.08707 Y101.91784
X33.99442 Y103.19769
X28.5875 Y102.48326
X27.68825 Y102.18601
X21.79015 Y103.18096
X16.07116 Y102.35757
X10.5533 Y99.25645
X9.36715 Y97.85306
X9.37654 Y144.53765
X7.78904 Y144.53797
X7.77867 Y92.97315
X11.35468 Y97.88607
X16.31988 Y100.78967
X21.52608 Y101.61558
X27.84377 Y100.54985
X28.81691 Y100.91242
X33.73784 Y101.63106
X40.25984 Y100.56291
X44.93885 Y97.70624
X48.00517 Y93.4583
X47.92602 Y163.61367
X7.79286 Y163.55751
X7.78904 Y144.53797
X6.20154 Y144.53829
X6.20568 Y165.14279
X49.51173 Y165.20339
X49.6201 Y69.14284
X47.79751 Y78.92752
X47.76724 Y83.60359
X48.15417 Y86.864
X47.13201 Y91.92081
X44.11162 Y96.3513
X39.43261 Y99.20797
X33.51179 Y100.05974
X29.06903 Y99.34507
X28.03676 Y98.90737
X27.69413 Y99.08714
X21.26202 Y100.05019
X16.5959 Y99.22635
X12.18199 Y96.53118
X9.01909 Y91.97619
X7.95425 Y86.96294
X8.33893 Y83.36957
X8.31723 Y78.98964
X7.23384 Y73.65448
X6.18577 Y66.13466
X6.20154 Y144.53829
Z30.88084 F5000.
G0 Z39.95459
X49.6829 Y13.47581
G1 Z32.15084 F1228.
Z31.51584 F3684.
X49.69103 Y6.27328 Z30.24584 F3684.
X49.20558 Y6.27313 F4912.
X49.67303 Y22.2302
X49.69103 Y6.27328
X49.69151 Y4.68578
X51.28032 Y4.68627
X51.09743 Y166.79311
X4.6185 Y166.72807
X4.5859 Y4.672
X8.55079 Y4.67321
X7.79789 Y33.24896
X7.94523 Y35.63116
X6.69268 Y43.86326
X6.58428 Y50.8221
X7.57427 Y64.59288
X8.78958 Y73.33856
X9.90394 Y78.82619
X9.92694 Y83.46741
X9.5146 Y86.67061
X10.34506 Y91.10329
X13.03836 Y95.19448
X16.89951 Y97.66816
X21.05012 Y98.4769
X26.95656 Y97.68138
X28.01348 Y97.12684
X29.34531 Y97.7818
X33.31877 Y98.48402
X38.64076 Y97.83207
X42.82182 Y95.42579
X45.58158 Y91.57977
X46.57774 Y87.05109
X46.17913 Y83.69234
X46.21095 Y78.77584
X48.17935 Y68.20843
X49.47559 Y53.43219
X49.61104 Y45.42541
X48.98873 Y39.63907
X48.19501 Y35.10901
X48.37926 Y32.28066
X47.57088 Y4.68513
X49.69151 Y4.68578
X49.692 Y3.09828
X45.93618 Y3.09714
X46.79244 Y32.32714
X46.59813 Y35.19353
X47.42505 Y39.91304
X48.03254 Y45.5942
X47.88836 Y53.40288
X46.59796 Y68.06929
X44.62441 Y78.6236
X44.59102 Y83.78109
X45.0013 Y87.23818
X44.03883 Y91.2055
X41.55857 Y94.46435
X37.89002 Y96.4333
X33.16141 Y96.90434
X29.64735 Y96.2233
X28.0389 Y95.32076
X26.219 Y96.27562
X20.86617 Y96.90009
X17.23438 Y96.11638
X13.92786 Y93.87958
X11.69534 Y90.26849
X11.08232 Y86.42084
X11.51503 Y83.58387
X11.49065 Y78.66274
X10.34533 Y73.02264
X9.14674 Y64.37493
X8.16772 Y50.70866
X8.27996 Y43.88939
X9.54026 Y35.70378
X9.38236 Y33.15096
X10.18101 Y3.08621
X2.99808 Y3.08402
X3.03132 Y168.31335
X52.68314 Y168.38283
X52.86961 Y3.09925
X49.692 Y3.09828
X49.69248 Y1.51078
X54.4589 Y1.51224
X54.26885 Y169.97255
X1.44414 Y169.89863
X1.41026 Y1.49603
X11.81157 Y1.49921
X10.96683 Y33.05296
X11.13537 Y35.77784
X9.86722 Y43.91696
X9.75119 Y50.59563
X10.71929 Y64.15755
X11.90108 Y72.70672
X13.07736 Y78.4993
X13.10323 Y83.72054
X12.65707 Y86.21999
X13.07278 Y89.47929
X14.85602 Y92.59169
X17.60485 Y94.57271
X20.71698 Y95.31962
X25.48143 Y94.86987
X28.11279 Y93.48926
X29.98273 Y94.67163
X33.00405 Y95.32465
X37.73266 Y94.85362
X40.76025 Y93.09219
X42.74268 Y90.28889
X43.4473 Y86.91375
X43.00277 Y83.89213
X43.03786 Y78.47079
X45.0166 Y67.92976
X46.30118 Y53.37102
X46.45393 Y45.76199
X45.86137 Y40.18702
X45.00088 Y35.27588
X45.20563 Y32.37362
X44.30148 Y1.50914
X49.69248 Y1.51078
X49.69297 Y-0.07672
X42.66678 Y-0.07886
X43.61881 Y32.42011
X43.40323 Y35.35595
X44.2977 Y40.461
X44.87522 Y45.92874
X44.71406 Y53.33649
X43.43528 Y67.78985
X41.45132 Y78.31742
X41.41452 Y84.00317
X41.87671 Y87.14481
X41.20055 Y89.91208
X39.50111 Y92.12538
X36.99175 Y93.44962
X32.89146 Y93.74115
X30.35551 Y93.12852
X28.60353 Y91.89272
X27.63353 Y91.91008
X27.36081 Y92.165
X24.72956 Y93.47171
X20.61545 Y93.73537
X18.01544 Y93.03923
X15.83113 Y91.33897
X14.48078 Y88.74603
X14.23805 Y86.07625
X14.69153 Y83.87874
X14.66407 Y78.33585
X13.45682 Y72.39079
X12.29191 Y63.94075
X11.33469 Y50.483
X11.45446 Y43.94604
X12.73057 Y35.85337
X12.5513 Y32.95496
X13.44245 Y-0.08779
X-0.17755 Y-0.09195
X-0.14304 Y171.48391
X55.85455 Y171.56227
X56.04819 Y-0.07477
X49.69297 Y-0.07672
X49.69345 Y-1.66422
X57.63749 Y-1.66179
X57.44026 Y173.15199
X-1.73022 Y173.06919
X-1.76537 Y-1.67994
X15.3144 Y-1.67472
X15.04945 Y-0.78445
X14.13577 Y32.85695
X14.32587 Y35.9304
X13.04166 Y43.97668
X12.91822 Y50.37077
X13.86462 Y63.72455
X15.01257 Y72.07487
X16.25078 Y78.1724
X16.27995 Y84.05885
G02 X16.86695 Y90.13595 I6.16043 J2.47185
G1 X18.47354 Y91.51926
X20.5622 Y92.14876
X24.0622 Y92.0313
X26.27677 Y91.00525
X26.99516 Y90.33375
X29.14885 Y90.29521
X30.77213 Y91.59666
X32.82521 Y92.15503
X36.32521 Y92.00883
X38.28884 Y91.10041
X39.68042 Y89.45452
X40.30611 Y87.37587
X39.82627 Y84.1142
X39.86478 Y78.16348
X41.85399 Y67.64958
X43.127 Y53.29918
X43.29638 Y46.09441
X42.73402 Y40.73497
X41.80516 Y35.43364
X42.03199 Y32.46659
X41.05016 Y-1.04978
X40.8181 Y-1.66693
X49.69345 Y-1.66422
X49.69394 Y-3.25172
X37.57612 Y-3.25542
X39.0002 Y-1.99105
X39.56423 Y-0.49105
X40.44505 Y32.50895
X40.20667 Y35.50895
G03 X41.54001 Y53.25895 I-60.8488 J13.49591
G1 X40.27273 Y67.50895
X38.27825 Y78.00895
X38.2378 Y84.25895
X38.7616 Y87.00895
G03 X36.25895 Y90.42271 I-3.69678 J-0.08589
G1 X32.75895 Y90.56892
X31.25895 Y90.08565
X29.75895 Y88.69653
X26.2716 Y88.75895
X25.50895 Y89.61579
X24.00895 Y90.44469
X20.50895 Y90.56215
G03 X17.40326 Y87.50895 I0.41934 J-3.53268
G1 X17.41122 Y86.00895
X17.86846 Y84.25895
X17.83749 Y78.00895
X16.56832 Y71.75895
X15.43741 Y63.50895
X14.50178 Y50.25895
X14.62883 Y44.00895
X15.92127 Y36.00895
X15.72025 Y32.75895
X16.63636 Y-0.74105
X17.25895 Y-2.1385
X18.55459 Y-3.26123
X-3.35319 Y-3.26792
X-3.3174 Y174.65447
X59.02597 Y174.74171
X59.22678 Y-3.2488
X49.69394 Y-3.25172
X49.69442 Y-4.83922
X60.81607 Y-4.83582
X60.61168 Y176.33143
X-4.90459 Y176.23975
X-4.94101 Y-4.85591
X49.69442 Y-4.83922
X49.69361 Y-6.47074
X-5.60689 Y-6.44308
X-6.11629 Y-6.06542
X-6.53446 Y-5.21166
X-6.49197 Y176.7325
X-6.1666 Y177.34537
X-5.40933 Y177.82655
X60.97872 Y177.91944
X61.91007 Y177.463
X62.24817 Y176.92204
X62.40381 Y-5.11204
X62.17578 Y-5.78767
X61.29522 Y-6.47654
X49.69361 Y-6.47074
X49.695 Y-8.0741
X61.62795 Y-8.06375
G03 X63.99153 Y-5.37205 I-0.72603 J3.0211
G1 X63.83528 Y177.37795
G03 X61.12795 Y179.50715 I-2.96459 J-0.98373
G1 X-5.87205 Y179.4134
X-7.37205 Y178.46028
X-8.07938 Y177.12795
X-8.12205 Y-5.57938
X-7.37205 Y-7.11063
X-6.345 Y-7.87205
X-5.57938 Y-8.12205
X49.695 Y-8.0741
Z30.88084 F5000.
G0 Z39.95459
X27.24706 Y-3.75417
G1 Z32.15084 F1228.
Z31.51584 F3684.
X20.04454 Y-3.74105 Z30.24584 F3684.
G02 X16.63636 Y-0.74105 I0.38709 J3.87571 F4912.
G1 X15.70907 Y30.50895
X15.72025 Y32.75895
G03 X15.75895 Y37.28724 I-13.37072 J2.37859
G02 X14.50178 Y50.25895 I43.40397 J10.75334
X17.83749 Y78.00895 I149.56994 J-3.90371
G1 X17.86846 Y84.25895
G02 X17.60279 Y88.25895 I5.51203 J2.37491
X20.50895 Y90.56215 I3.32262 J-1.20736
G1 X23.25895 Y90.57655
G02 X26.2716 Y88.75895 I-0.35152 J-3.98816
G1 X29.75895 Y88.69653
G02 X32.75895 Y90.56892 I3.5128 J-2.28878
G1 X35.50895 Y90.5716
G02 X38.73559 Y86.25895 I-0.40756 J-3.66831
G1 X38.2378 Y84.25895
X38.27825 Y78.00895
G02 X40.7285 Y63.50895 I-102.47319 J-24.77325
X41.71744 Y46.25895 I-160.07103 J-17.83012
X40.30853 Y36.75895 I-42.96417 J1.51734
G1 X40.20667 Y35.50895
X40.44505 Y32.50895
X39.56423 Y-0.49105
G02 X35.75895 Y-3.76968 I-3.84371 J0.61354
G1 X20.04454 Y-3.74105
Z30.88084 F5000.
G0 Z39.95459
X4.64683 Y11.79712
G1 Z29.12625 F1228.
Z28.49125 F3684.
X4.64803 Y4.59459 Z27.22125 F3684.
X6.32907 Y4.59742 F4912.
X5.66183 Y32.65088
X5.73007 Y36.46706
X4.87674 Y42.14766
X4.64083 Y47.72088
X4.64803 Y4.59459
Z27.85625 F5000.
G0 Z39.95459
X28.90505 Y137.3356
G1 Z29.12625 F1228.
Z28.49125 F3684.
X28.89684 Y144.53813 Z27.22125 F3684.
X26.84967 Y144.53526 F4912.
X26.85302 Y124.45475
X27.87504 Y124.29739
X28.91977 Y124.4294
X28.89684 Y144.53813
X30.48434 Y144.53994
X30.50887 Y123.03008
X27.85333 Y122.69452
X25.26575 Y123.09294
X25.26191 Y146.12054
X30.48253 Y146.12785
X30.48434 Y144.53994
X32.07184 Y144.54175
X32.06822 Y147.71757
X23.67414 Y147.70582
X23.67848 Y121.73114
X27.83163 Y121.09165
X32.09796 Y121.63077
X32.07184 Y144.54175
X33.65934 Y144.54356
X33.68706 Y120.23145
X27.80993 Y119.48879
X22.09121 Y120.36933
X22.08638 Y149.2911
X33.65391 Y149.30729
X33.65934 Y144.54356
X35.24684 Y144.54537
X35.2396 Y150.89701
X20.49861 Y150.87638
X20.50393 Y119.00752
X27.78823 Y117.88592
X35.27616 Y118.83213
X35.24684 Y144.54537
X36.83434 Y144.54718
X36.86525 Y117.43281
X27.76245 Y116.28254
X20.572 Y117.42709
X18.91672 Y117.29756
X18.91085 Y152.46166
X36.82529 Y152.48673
X36.83434 Y144.54718
X38.42184 Y144.54899
X38.41097 Y154.07645
X17.32309 Y154.04694
X17.32952 Y115.51987
X20.32245 Y115.85932
X27.74048 Y114.67855
X36.77966 Y115.8646
X38.45487 Y115.57676
X38.42184 Y144.54899
X40.00934 Y144.5508
X40.04452 Y113.69285
X36.51082 Y114.30003
X28.79684 Y113.33721
X27.84811 Y113.05393
X20.0729 Y114.29156
X15.74232 Y113.70139
X15.73532 Y155.63222
X39.99666 Y155.66617
X40.00934 Y144.5508
X41.59683 Y144.55261
X41.58235 Y157.25589
X14.14756 Y157.2175
X14.15513 Y111.85068
X19.82335 Y112.7238
X27.97803 Y111.42576
X29.00817 Y111.76383
X36.24199 Y112.73546
X41.63417 Y111.80894
X41.59683 Y144.55261
X43.18433 Y144.55442
X43.22382 Y109.92504
X35.97316 Y111.17088
X29.23626 Y110.1928
X28.133 Y109.79361
X19.5738 Y111.15603
X12.56794 Y109.97258
X12.55979 Y158.80278
X43.16804 Y158.84561
X43.18433 Y144.55442
X44.77183 Y144.55623
X44.75373 Y160.43533
X10.97203 Y160.38806
X10.98088 Y107.34021
X13.02015 Y108.47171
X19.33387 Y109.58677
X27.56682 Y108.32802
X28.09034 Y108.06625
X29.4837 Y108.62471
X35.70432 Y109.60631
X43.44487 Y108.27629
X44.81413 Y107.45503
X44.77183 Y144.55623
X46.35933 Y144.55804
X46.40483 Y104.64982
X42.62833 Y106.91489
X35.45866 Y108.03794
X29.75183 Y107.06001
X28.04516 Y106.31395
X26.85684 Y106.90813
X19.1093 Y108.01523
X13.31712 Y106.91223
X9.39386 Y104.50224
X9.38426 Y161.97334
X46.33942 Y162.02505
X46.35933 Y144.55804
X47.94683 Y144.55985
X47.9251 Y163.61477
X7.7965 Y163.55862
X7.80697 Y100.79105
X8.9374 Y102.31595
X13.63724 Y105.35734
X18.90225 Y106.44129
X26.14687 Y105.48824
X27.79904 Y104.66212
X28.26612 Y104.66338
X30.04193 Y105.49925
X35.24042 Y106.46551
X41.81179 Y105.55348
X47.09625 Y102.38398
X47.9963 Y101.17292
X47.94683 Y144.55985
X49.53433 Y144.56166
X49.59109 Y94.78361
X48.81572 Y97.409
X45.8221 Y101.43704
X41.02494 Y104.17471
X35.05186 Y104.88925
X30.35548 Y103.94302
X28.64768 Y103.07691
X27.4263 Y103.07361
X25.4369 Y104.06835
X18.71544 Y104.86482
X13.98325 Y103.80801
X9.82587 Y101.00036
X6.91102 Y96.44695
X6.2208 Y92.86329
X6.20873 Y165.1439
X49.51079 Y165.20449
X49.53433 Y144.56166
Z27.85625 F5000.
G0 Z39.95459
X6.22257 Y82.21969
G1 Z29.12625 F1228.
Z28.49125 F3684.
X6.22137 Y89.42221 Z27.22125 F3684.
X6.40968 Y88.08762 F4912.
X6.22341 Y77.20769
X6.22137 Y89.42221
X7.7933 Y89.64401
X7.56879 Y91.23516
X8.26841 Y95.62376
X10.74346 Y99.70491
X14.35848 Y102.26549
X18.55246 Y103.28571
X24.72692 Y102.64846
X27.05356 Y101.48509
X29.05751 Y101.49051
X30.69789 Y102.39289
X34.8633 Y103.31299
X40.83638 Y102.59845
X45.00023 Y100.07884
X47.51669 Y96.49649
X48.56186 Y92.39253
X48.37999 Y89.11468
X48.12353 Y88.07107
X48.18566 Y77.56737
X49.9716 Y68.49849
X51.22387 Y55.06193
X51.09648 Y166.79421
X4.62097 Y166.72918
X4.64064 Y48.9011
X5.59268 Y63.3003
X6.77782 Y72.14859
X7.93134 Y77.61238
X7.99788 Y88.1941
X7.7933 Y89.64401
Z27.85625 F5000.
G0 Z39.95459
X49.93732 Y10.3813
G1 Z29.12625 F1228.
Z28.49125 F3684.
X49.79141 Y4.67055 Z27.48396 F3684.
X51.28133 Y4.67306 Z27.22125
X51.23881 Y41.96226 F4912.
X50.35491 Y35.34562
X50.49124 Y32.06027
X49.79141 Y4.67055
X51.28133 Y4.67306
X52.86883 Y4.67487
X52.87063 Y3.08823
X48.16276 Y3.08031
X48.90425 Y32.10082
X48.76237 Y35.43012
X49.49427 Y40.31873
X49.98566 Y45.68833
X49.70607 Y54.24032
X48.39095 Y68.35117
X46.59908 Y77.40717
X46.53489 Y88.25865
X46.83836 Y89.49353
X46.97606 Y92.46599
X45.98573 Y96.07657
X43.72388 Y99.13488
X40.05296 Y101.21771
X34.71093 Y101.73281
X31.07213 Y100.85013
X29.50034 Y99.9042
X26.68081 Y99.89658
X24.01695 Y101.22857
X18.41817 Y101.7039
X14.76705 Y100.73147
X11.69417 Y98.43357
X9.64811 Y94.83852
X9.14251 Y91.02643
X9.5862 Y88.31833
X9.5178 Y77.4417
X8.33108 Y71.82066
X7.16623 Y63.09034
X6.20005 Y48.42254
X6.46282 Y42.2148
X7.31972 Y36.57281
X7.24907 Y32.62249
X7.9548 Y3.01265
X3.0608 Y3.00442
X3.0332 Y168.31446
X52.68217 Y168.38393
X52.86883 Y4.67487
X54.45632 Y4.67668
X54.26786 Y169.97365
X1.44544 Y169.89974
X1.47356 Y1.41424
X9.5806 Y1.42788
X8.83632 Y32.59411
X8.90938 Y36.67986
X8.0488 Y42.28435
X7.78414 Y48.31858
X8.7399 Y62.88121
X9.88434 Y71.49273
X11.10426 Y77.27101
X11.17463 Y88.46164
X10.72177 Y90.86493
X11.05242 Y94.0982
X12.68339 Y97.19196
X15.21405 Y99.2082
X18.31943 Y100.11947
X23.30697 Y99.80867
X26.30807 Y98.30806
X29.98243 Y98.318
X31.48211 Y99.31648
X34.59767 Y100.14936
X39.31547 Y99.81192
X42.4756 Y98.15408
X44.46447 Y95.62279
X45.38953 Y92.52156
X45.29673 Y89.87239
X44.94625 Y88.44622
X45.0125 Y77.24624
X46.81033 Y68.20355
X48.11949 Y54.18615
X48.4047 Y45.83222
X47.92427 Y40.55379
X47.16969 Y35.51372
X47.31727 Y32.14137
X46.53411 Y1.49006
X54.45994 Y1.5034
X54.45632 Y4.67668
X56.04382 Y4.67849
X56.04925 Y-0.08143
X44.90546 Y-0.10018
X45.73029 Y32.18191
X45.57688 Y35.59639
X46.35427 Y40.78884
X46.82366 Y45.97531
X46.533 Y54.1296
X45.22973 Y68.05563
X43.42593 Y77.08457
X43.35762 Y88.6338
X43.7551 Y90.25124
X43.80236 Y92.55413
X42.9564 Y95.12692
X41.2634 Y97.12904
X38.63428 Y98.37799
X34.52607 Y98.56348
X31.93353 Y97.79452
X30.51212 Y96.73193
X25.70836 Y96.71894
X25.11302 Y97.24576
X22.65095 Y98.36306
X18.25801 Y98.53316
X15.70735 Y97.69929
X13.71869 Y95.9885
X12.48401 Y93.41213
X12.3057 Y90.7585
X12.76319 Y88.625
X12.69072 Y77.10032
X11.4376 Y71.16481
X10.31368 Y62.67292
X9.36826 Y48.21499
X9.63466 Y42.35647
X10.49908 Y36.78823
X10.42356 Y32.56572
X11.20647 Y-0.15688
X-0.11367 Y-0.17593
X-0.14233 Y171.48502
X55.85355 Y171.56337
X56.04382 Y4.67849
X57.63132 Y4.6803
X57.43923 Y173.15309
X-1.73009 Y173.0703
X-1.70091 Y-1.7661
X13.1007 Y-1.7412
X12.80934 Y-0.77915
X12.01081 Y32.53734
X12.08879 Y36.89793
X11.2204 Y42.43128
X10.9524 Y48.11178
X11.88756 Y62.46549
X12.99086 Y70.83688
X14.27718 Y76.92964
X14.35187 Y88.80826
G02 X14.81121 Y94.83674 I6.38451 J2.54527
G1 X16.26016 Y96.21115
X18.23781 Y96.94579
X22.04108 Y96.89738
X24.06098 Y96.05691
X25.10866 Y95.12981
X31.10041 Y95.14602
X32.43588 Y96.2886
X34.49729 Y96.97624
X38.02453 Y96.91227
X40.10009 Y96.04881
X41.46746 Y94.57628
X42.21486 Y92.55528
X42.21347 Y90.6301
X41.76898 Y88.82137
X41.83937 Y76.92215
X43.64916 Y67.90743
X44.9466 Y54.07057
X45.24254 Y46.11756
X44.78427 Y41.0239
X43.98392 Y35.67812
X44.14331 Y32.22246
X43.29348 Y-1.03829
X43.05386 Y-1.6908
X57.63856 Y-1.66626
X57.63132 Y4.6803
X59.21882 Y4.68211
X59.22787 Y-3.25108
X39.81727 Y-3.28375
X40.25895 Y-3.03578
X41.25244 Y-1.99105
X41.80328 Y-0.49105
X42.55623 Y32.25895
X42.39083 Y35.75895
X43.21427 Y41.25895
X43.66135 Y46.25895
X43.3603 Y54.00895
X42.06862 Y67.75895
X40.2528 Y76.75895
X40.18034 Y89.00895
G03 X40.00895 Y93.94945 I-5.03791 J2.29845
G1 X39.00895 Y94.89574
X37.50895 Y95.41082
X34.50895 Y95.38878
X33.00895 Y94.80814
X31.75895 Y93.56029
X24.50895 Y93.54068
X23.00895 Y94.86805
X21.50895 Y95.40173
X18.25895 Y95.35843
G03 X15.44079 Y92.25895 I0.73364 J-3.49798
G1 X15.47965 Y90.75895
X15.94066 Y89.00895
X15.86363 Y76.75895
X14.54412 Y70.50895
X13.46157 Y62.25895
X12.53657 Y48.00895
X12.80599 Y42.50895
X13.67853 Y37.00895
X13.59806 Y32.50895
X14.39638 Y-0.74105
X15.00895 Y-2.14529
X16.40237 Y-3.32314
X-3.28814 Y-3.35628
X-3.31785 Y174.65558
X59.02492 Y174.74281
X59.21882 Y4.68211
X60.80632 Y4.68392
X60.61061 Y176.33253
X-4.90562 Y176.24086
X-4.87538 Y-4.94645
X60.81717 Y-4.83591
X60.80632 Y4.68392
X62.39653 Y4.68528
X62.40491 Y-5.11204
X62.1769 Y-5.78764
X61.29523 Y-6.47764
X-5.2533 Y-6.53427
X-5.86127 Y-6.27199
X-6.46781 Y-5.47574
X-6.49319 Y176.73204
X-6.16682 Y177.34633
X-5.40933 Y177.82766
X60.9777 Y177.92055
X61.91117 Y177.463
X62.24927 Y176.92204
X62.39653 Y4.68528
X63.98403 Y4.68663
X63.83638 Y177.37795
G03 X61.12795 Y179.50826 I-2.96688 J-0.98516
G1 X-5.87205 Y179.41451
X-7.37205 Y178.46138
X-8.08048 Y177.12795
X-8.17423 Y-4.87205
X-7.97111 Y-6.12205
X-6.87205 Y-7.56486
X-5.58048 Y-8.12205
X61.62795 Y-8.06486
G03 X63.99263 Y-5.37205 I-0.72683 J3.02294
G1 X63.98403 Y4.68663
Z27.85625 F5000.
G0 Z39.95459
X24.89659 Y-3.75215
G1 Z29.12625 F1228.
Z28.49125 F3684.
X17.69407 Y-3.74105 Z27.22125 F3684.
G02 X14.39638 Y-0.74105 I0.45358 J3.81105 F4912.
G1 X13.59806 Y32.50895
X13.76162 Y35.25895
X13.67853 Y37.00895
G02 X12.68773 Y52.00895 I49.77626 J10.82061
X14.54412 Y70.50895 I168.57752 J-7.57283
G1 X15.86363 Y76.75895
X15.94066 Y89.00895
G02 X15.62094 Y93.00895 I5.86929 J2.48192
X18.25895 Y95.35843 I3.37035 J-1.12852
G1 X21.50895 Y95.40173
G02 X24.50895 Y93.54068 I-1.38823 J-5.58634
G1 X31.75895 Y93.56029
G02 X34.50895 Y95.38878 I3.44888 J-2.20482
G1 X37.50895 Y95.41082
G02 X40.67184 Y91.00895 I-0.47185 J-3.67629
G1 X40.18034 Y89.00895
X40.2528 Y76.75895
G02 X42.56021 Y63.75895 I-88.3424 J-22.38491
X43.66135 Y46.25895 I-202.57569 J-21.53121
X42.50792 Y37.25895 I-44.52543 J1.13242
G1 X42.39083 Y35.75895
X42.55623 Y32.25895
X41.80328 Y-0.49105
G02 X38.00895 Y-3.77236 I-3.79604 J0.55509
G1 X17.69407 Y-3.74105
Z27.85625 F5000.
G0 Z39.95459
X28.9324 Y137.33675
G1 Z26.10167 F1228.
Z25.46667 F3684.
X28.92551 Y144.53927 Z24.19667 F3684.
X26.84859 Y144.53636 F4912.
X26.8512 Y128.97173
X27.8074 Y128.80718
X28.94028 Y129.10481
X28.92551 Y144.53927
X30.513 Y144.54079
X30.52895 Y127.88081
X27.87764 Y127.18426
X25.26393 Y127.63404
X25.26083 Y146.12164
X30.51148 Y146.12899
X30.513 Y144.54079
X32.1005 Y144.54231
X32.09746 Y147.71871
X23.67306 Y147.70693
X23.67665 Y126.29635
X27.9617 Y125.55895
X30.55614 Y126.28753
X32.11782 Y126.45043
X32.1005 Y144.54231
X33.688 Y144.54383
X33.70669 Y125.02005
X30.72084 Y124.7086
X28.05354 Y123.93232
X22.08938 Y124.95867
X22.0853 Y149.2922
X33.68344 Y149.30843
X33.688 Y144.54383
X35.2755 Y144.54535
X35.26942 Y150.89815
X20.49753 Y150.87748
X20.5021 Y123.62098
X28.15382 Y122.30423
X30.88553 Y123.12967
X35.29556 Y123.58966
X35.2755 Y144.54535
X36.863 Y144.54687
X36.88443 Y122.15928
X31.05023 Y121.55073
X28.26333 Y120.67455
X18.91482 Y122.2833
X18.90976 Y152.46277
X36.8554 Y152.48787
X36.863 Y144.54687
X38.4505 Y144.54839
X38.44138 Y154.0776
X17.322 Y154.04805
X17.3276 Y120.64561
X18.77694 Y120.71218
X27.4944 Y119.07848
X28.52549 Y119.08984
X31.21492 Y119.9718
X38.4733 Y120.7289
X38.4505 Y144.54839
X40.038 Y144.54991
X40.06255 Y118.90495
X38.53736 Y119.15316
X31.3826 Y118.39318
X28.79918 Y117.50526
X27.3556 Y117.48936
X18.48453 Y119.15184
X15.74039 Y118.91559
X15.73423 Y155.63332
X40.02736 Y155.66732
X40.038 Y144.54991
X41.6255 Y144.55143
X41.61334 Y157.25704
X14.14647 Y157.2186
X14.15319 Y117.14138
X18.19212 Y117.5915
X26.87872 Y116.06687
X27.2168 Y115.90023
X29.08562 Y115.92081
X31.56341 Y116.81601
X38.28236 Y117.58627
X41.65184 Y117.03792
X41.6255 Y144.55143
X43.213 Y144.55295
X43.24112 Y115.1709
X38.02737 Y116.01938
X31.75913 Y115.24062
X29.38624 Y114.33653
X26.8551 Y114.30865
X26.17687 Y114.64295
X17.92959 Y116.02586
X12.56599 Y115.33698
X12.5587 Y158.80388
X43.19932 Y158.84676
X43.213 Y144.55295
X44.8005 Y144.55447
X44.78529 Y160.43648
X10.97093 Y160.38916
X10.97884 Y113.23579
X11.9321 Y113.64385
X17.68037 Y114.45805
X25.47503 Y113.21902
X26.49339 Y112.71707
X29.70264 Y112.75242
X31.97205 Y113.66746
X37.77238 Y114.4525
X44.83041 Y113.30388
X44.8005 Y144.55447
X46.388 Y144.55599
X46.4204 Y110.70674
X44.69542 Y111.71746
X37.51738 Y112.88561
X32.20511 Y112.09716
X30.03663 Y111.1685
X26.13168 Y111.1255
X24.77318 Y111.79509
X17.44618 Y112.88791
X12.17405 Y112.0749
X9.39179 Y110.58583
X9.38317 Y161.97444
X46.37127 Y162.0262
X46.388 Y144.55599
X47.9755 Y144.55751
X47.95725 Y163.61592
X7.7954 Y163.55972
X7.80475 Y107.83829
X12.43735 Y110.50939
X17.22918 Y111.31531
X24.07134 Y110.37116
X25.76997 Y109.53392
X30.39041 Y109.5848
X32.45979 Y110.53023
X37.28741 Y111.31486
X43.89287 Y110.34776
X48.01055 Y107.93508
X47.9755 Y144.55751
X49.563 Y144.55903
X49.60192 Y103.89793
X47.88968 Y106.16597
X43.09032 Y108.97807
X37.08752 Y109.73999
X32.73746 Y108.9672
X30.76678 Y108.00134
X25.40827 Y107.94234
X23.36949 Y108.94724
X17.03211 Y109.74009
X12.72443 Y108.94806
X8.42004 Y106.35568
X6.218 Y103.35098
X6.20764 Y165.145
X49.54323 Y165.20564
X49.563 Y144.55903
X51.15049 Y144.56055
X51.12921 Y166.79536
X4.61987 Y166.73028
X4.63619 Y69.39334
X5.96274 Y76.28658
X6.05133 Y93.01405
X5.62025 Y96.53865
X6.52311 Y100.97571
X9.26702 Y105.013
X13.03817 Y107.39187
X16.85858 Y108.16211
X22.66765 Y107.52331
X25.04656 Y106.35076
X31.16941 Y106.41818
X33.03971 Y107.40874
X36.92025 Y108.16133
X42.3218 Y107.58899
X46.62269 Y105.20946
X49.32925 Y101.62435
X50.52566 Y97.02336
X50.3184 Y93.88059
X50.06058 Y92.82207
X50.12644 Y76.54068
X51.22104 Y70.87004
X51.15049 Y144.56055
X52.738 Y144.56207
X52.87342 Y3.0883
X50.17677 Y3.08376
X50.91648 Y31.84985
X50.83019 Y36.29815
X51.60724 Y40.96629
X51.88732 Y43.93687
X51.83398 Y50.82727
X50.43298 Y66.57662
X48.53956 Y76.38569
X48.47231 Y93.00945
X48.77599 Y94.25626
X48.94079 Y97.11473
X48.03345 Y100.70726
X45.81383 Y103.84348
X42.15452 Y106.01033
X36.75298 Y106.58266
X33.37311 Y105.85664
X31.60254 Y104.83535
X24.68485 Y104.75918
X21.9658 Y106.09938
X16.71355 Y106.58125
X13.38204 Y105.84206
X10.14581 Y103.69092
X7.86018 Y100.11992
X7.18388 Y96.26437
X7.63944 Y93.12443
X7.54944 Y76.13105
X5.78434 Y66.95893
X4.41087 Y51.8244
X4.29538 Y44.60057
X5.34525 Y36.19497
X5.2388 Y32.70242
X5.94116 Y3.00927
X3.05983 Y3.00442
X3.0321 Y168.31556
X52.71519 Y168.38508
X52.738 Y144.56207
X54.32549 Y144.56359
X54.30117 Y169.9748
X1.44434 Y169.90084
X1.4726 Y1.41424
X7.56672 Y1.4245
X6.82556 Y32.65405
X6.93581 Y36.2711
X5.88269 Y44.57617
X5.99195 Y51.68175
X7.34324 Y66.65894
X9.13614 Y75.97553
X9.22765 Y93.25392
X8.75529 Y96.03893
X9.22425 Y99.30784
X11.06168 Y102.39426
X13.76007 Y104.30023
X16.60409 Y104.99752
X21.26396 Y104.67545
X24.32314 Y103.1676
X32.07173 Y103.25293
X33.74129 Y104.31243
X36.62614 Y105.00024
X41.39137 Y104.6183
X44.54506 Y102.88934
X46.50288 Y100.28594
X47.35508 Y97.19004
X47.23358 Y94.63194
X46.88404 Y93.19682
X46.95267 Y76.23002
X48.85177 Y66.43545
X50.24654 Y50.81309
X50.30662 Y44.08369
X50.04128 Y41.22696
X49.24009 Y36.41378
X49.3295 Y31.89066
X48.54785 Y1.49352
X54.46244 Y1.50348
X54.32549 Y144.56359
X55.91299 Y144.5651
X56.05146 Y-0.08135
X46.91894 Y-0.09673
X47.74253 Y31.93147
X47.64995 Y36.52912
X48.47533 Y41.48762
X48.7257 Y44.22812
X48.65912 Y50.797
X47.2706 Y66.29377
X45.36579 Y76.07369
X45.29577 Y93.3842
X45.69117 Y95.00761
X45.76852 Y97.2449
X44.98408 Y99.82399
X43.31119 Y101.89049
X40.68444 Y103.19689
X36.54268 Y103.41493
X34.14939 Y102.77828
X32.58439 Y101.67097
X23.71841 Y101.57334
X23.14069 Y102.09675
X20.61568 Y103.22635
X16.53212 Y103.41166
X14.17831 Y102.76881
X12.0222 Y101.13031
X10.61892 Y98.54951
X10.33388 Y95.87095
X10.81596 Y93.40338
X10.72283 Y75.82
X8.90214 Y66.35894
X7.57311 Y51.53995
X7.47002 Y44.55275
X8.52642 Y36.34878
X8.41232 Y32.60568
X9.1924 Y-0.16026
X-0.11464 Y-0.17593
X-0.14343 Y171.48612
X55.88715 Y171.56452
X55.91299 Y144.5651
X57.50049 Y144.56662
X57.47313 Y173.15424
X-1.73119 Y173.0714
X-1.70187 Y-1.76611
X11.08938 Y-1.74457
X10.79513 Y-0.77906
X9.99908 Y32.55732
X10.11707 Y36.42804
X9.05736 Y44.53034
X9.15434 Y51.39901
X10.46103 Y66.05895
X12.30953 Y75.66448
X12.40438 Y93.57255
G02 X13.03898 Y99.91117 I6.37663 J2.56266
G1 X14.6466 Y101.25195
X16.50102 Y101.82446
X20.01831 Y101.75553
X22.07482 Y100.92029
X23.11368 Y99.97909
X33.15027 Y100.08961
X34.60597 Y101.25785
X36.50425 Y101.8279
X40.04913 Y101.74206
X42.12486 Y100.83561
X43.4825 Y99.30879
X44.18126 Y97.27221
X44.14876 Y95.38328
X43.70749 Y93.57157
X43.77892 Y75.91666
X45.68948 Y66.1516
X47.07172 Y50.77896
X47.14455 Y44.36996
X46.90938 Y41.74829
X46.05976 Y36.64416
X46.15555 Y31.97228
X45.30662 Y-1.04123
X45.0679 Y-1.68735
X57.64047 Y-1.66617
X57.50049 Y144.56662
X59.08799 Y144.56814
X59.22949 Y-3.251
X41.83762 Y-3.28029
X42.25895 Y-3.04632
X43.25895 Y-2.00284
X43.81751 Y-0.49105
X44.56848 Y32.00895
X44.46952 Y36.75895
X45.34342 Y42.00895
X45.56315 Y44.50895
X45.48435 Y50.75895
X44.10841 Y66.00895
X42.19204 Y75.75895
X42.11922 Y93.75895
G03 X42.00895 Y98.71819 I-5.34815 J2.36193
G1 X41.00895 Y99.70649
X39.50895 Y100.24929
X36.50895 Y100.24041
X35.12889 Y99.75895
X33.78019 Y98.50895
X22.50895 Y98.38483
X21.00895 Y99.74382
X19.50895 Y100.25197
X16.50895 Y100.23698
G03 X13.51813 Y97.25895 I0.52275 J-3.51584
G1 X13.50574 Y95.75895
X13.99289 Y93.75895
X13.89623 Y75.50895
X12.01993 Y65.75895
X10.73565 Y51.25895
X10.64471 Y44.50895
X11.70777 Y36.50895
X11.58585 Y32.50895
X12.38217 Y-0.74105
X13.00895 Y-2.1652
X14.39688 Y-3.3265
X-3.2891 Y-3.35629
X-3.31896 Y174.65668
X59.05911 Y174.74397
X59.08799 Y144.56814
X60.67549 Y144.56966
X60.64509 Y176.33369
X-4.90673 Y176.24196
X-4.87634 Y-4.94646
X60.81851 Y-4.83583
X60.67549 Y144.56966
X62.34205 Y144.57038
X62.40613 Y-5.11171
X62.17801 Y-5.78761
X61.29525 Y-6.47874
X-5.25474 Y-6.53428
X-5.86157 Y-6.27278
X-6.46893 Y-5.47565
X-6.49429 Y176.73178
X-6.16704 Y177.3473
X-5.40933 Y177.82876
X60.97668 Y177.92165
X61.89437 Y177.51939
X62.32827 Y176.76961
X62.34205 Y144.57038
X63.92955 Y144.57106
X63.91561 Y177.12795
G03 X61.12795 Y179.50936 I-3.05068 J-0.74879
G1 X-5.87205 Y179.41561
X-7.37205 Y178.46249
X-8.08159 Y177.12795
X-8.17534 Y-4.87205
X-7.97221 Y-6.12205
X-6.87205 Y-7.56596
X-5.58159 Y-8.12205
X61.62795 Y-8.06596
G03 X63.99374 Y-5.37205 I-0.72764 J3.02478
G1 X63.92955 Y144.57106
Z24.83167 F5000.
G0 Z39.95459
X22.88255 Y-3.75033
G1 Z26.10167 F1228.
Z25.46667 F3684.
X15.68003 Y-3.74105 Z24.19667 F3684.
G02 X12.38217 Y-0.74105 I0.45372 J3.81142 F4912.
G1 X11.58585 Y32.50895
X11.75072 Y35.00895
X11.70777 Y36.50895
G02 X10.73565 Y51.25895 I49.8153 J10.69021
X12.61889 Y69.50895 I166.67831 J-7.97758
G1 X13.89623 Y75.50895
X13.99289 Y93.75895
G02 X13.75895 Y98.07856 I5.84331 J2.4826
X16.50895 Y100.23698 I3.27209 J-1.33784
G1 X19.50895 Y100.25197
G02 X22.50895 Y98.38483 I-0.65101 J-4.38967
G1 X33.50895
X33.66968
G02 X36.50895 Y100.24041 I3.6207 J-2.44013
G1 X39.50895 Y100.24929
G02 X42.59381 Y97.25895 I-0.44454 J-3.54495
G1 X42.60635 Y95.75895
X42.11922 Y93.75895
X42.19204 Y75.75895
G02 X44.5964 Y61.75895 I-91.5065 J-22.92176
G1 X45.48435 Y50.75895
G02 X44.46952 Y36.75895 I-45.96326 J-3.70501
G1 X44.39386 Y35.25895
X44.56848 Y32.00895
X43.81751 Y-0.49105
G02 X40.00895 Y-3.77239 I-3.79661 J0.55572
G1 X15.68003 Y-3.74105
Z24.83167 F5000.
G0 Z39.95459
X3.7772 Y9.32894
G1 Z23.07709 F1228.
Z22.44209 F3684.
X3.92666 Y2.99525 Z21.32497 F3684.
X3.05958 Y2.99474 Z21.17209
X3.05345 Y38.53801 F4912.
X3.33292 Y36.21544
X3.22563 Y32.70281
X3.92666 Y2.99525
X3.05958 Y2.99474
Z21.80709 F5000.
G0 Z39.95459
X28.92787 Y137.33785
G1 Z23.07709 F1228.
Z22.44209 F3684.
X28.92167 Y144.54037 Z21.17209 F3684.
X26.84764 Y144.53747 F4912.
X26.84941 Y134.33808
X28.93039 Y134.40353
X28.92167 Y144.54037
X30.50917 Y144.54174
X30.51922 Y132.86522
X25.26219 Y132.69987
X25.25987 Y146.12275
X30.5078 Y146.13009
X30.50917 Y144.54174
X32.09667 Y144.5431
X32.09393 Y147.71981
X23.6721 Y147.70803
X23.67497 Y131.06166
X32.10804 Y131.32691
X32.09667 Y144.5431
X33.68416 Y144.54447
X33.69708 Y129.53671
X32.81816 Y129.76096
X23.05347 Y129.45383
X22.08773 Y129.57999
X22.08432 Y149.29331
X33.68006 Y149.30953
X33.68416 Y144.54447
X35.27166 Y144.54584
X35.2662 Y150.89926
X20.49655 Y150.87859
X20.50047 Y128.18635
X22.98044 Y127.86238
X32.42388 Y128.2232
X33.60173 Y127.9212
X35.28577 Y128.15259
X35.27166 Y144.54584
X36.85916 Y144.5472
X36.87446 Y126.76847
X33.50921 Y126.30607
X32.02959 Y126.68544
X22.91323 Y126.27017
X18.91321 Y126.79271
X18.90878 Y152.46387
X36.85233 Y152.48898
X36.85916 Y144.5472
X38.44666 Y144.54857
X38.43846 Y154.0787
X17.321 Y154.04915
X17.32595 Y125.39907
X22.85236 Y124.67713
X31.63531 Y125.14768
X33.41669 Y124.69094
X38.46316 Y125.38435
X38.44666 Y144.54857
X40.03416 Y144.54994
X40.05185 Y124.00023
X33.32416 Y123.07581
X31.24103 Y123.60993
X22.79848 Y123.08319
X15.73869 Y124.00543
X15.73323 Y155.63443
X40.02459 Y155.66842
X40.03416 Y144.54994
X41.62166 Y144.5513
X41.61073 Y157.25814
X14.14545 Y157.21971
X14.1515 Y122.2306
X16.05417 Y122.44331
X22.74267 Y121.48753
X30.84674 Y122.07217
X33.23164 Y121.46068
X40.34323 Y122.43785
X41.64087 Y122.23242
X41.62166 Y144.5513
X43.20916 Y144.55267
X43.22997 Y120.37358
X40.095 Y120.86988
X33.14721 Y119.84348
X30.45246 Y120.53441
X22.69544 Y119.89066
X15.8296 Y120.87177
X12.56431 Y120.39391
X12.55768 Y158.80499
X43.19686 Y158.84786
X43.20916 Y144.55267
X44.79666 Y144.55403
X44.78299 Y160.43758
X10.96991 Y160.39027
X10.97714 Y118.51402
X15.60503 Y119.30024
X22.65783 Y118.29241
X30.05818 Y118.99665
X33.07167 Y118.22399
X39.84678 Y119.3019
X44.81907 Y118.51474
X44.79666 Y144.55403
X46.38416 Y144.5554
X46.40817 Y116.6559
X39.59855 Y117.73393
X34.07322 Y116.89842
X33.15195 Y116.56456
X29.6639 Y117.4589
X22.6311 Y116.6926
X15.38046 Y117.7287
X9.38997 Y116.59933
X9.38213 Y161.97555
X46.36912 Y162.0273
X46.38416 Y144.5554
X47.97166 Y144.55677
X47.95525 Y163.61702
X7.79436 Y163.56083
X7.80294 Y113.85338
X10.06512 Y115.18202
X15.1704 Y116.15516
X22.01975 Y115.2408
X22.55016 Y114.98038
X23.47038 Y115.30543
X29.26961 Y115.92114
X33.26673 Y114.89628
X34.33202 Y115.33216
X39.36483 Y116.16373
X45.84002 Y115.19992
X47.99797 Y113.99156
X47.97166 Y144.55677
X49.55916 Y144.55813
X49.5878 Y111.28188
X45.06441 Y113.81479
X39.15831 Y114.58972
X34.61386 Y113.76987
X33.41965 Y113.21822
X28.87533 Y114.38338
X23.66794 Y113.73027
X22.50219 Y113.2354
X21.32008 Y113.81581
X14.98064 Y114.57905
X10.38712 Y113.62753
X6.21594 Y110.94575
X6.20659 Y165.14611
X49.54139 Y165.20674
X49.55916 Y144.55813
X51.14666 Y144.5595
X51.12752 Y166.79647
X4.61881 Y166.73139
X4.62933 Y105.81361
X7.04118 Y109.58753
X10.73691 Y112.07904
X14.81491 Y113.00022
X20.62042 Y112.39081
X22.50851 Y111.46376
X23.90137 Y112.16002
X28.49304 Y112.8426
X32.76275 Y111.78321
X33.42424 Y111.42854
X34.92055 Y112.21228
X38.98221 Y113.01202
X44.31147 Y112.4172
X48.42115 Y110.20315
X49.19192 Y109.43744
X51.17948 Y106.42433
X51.14666 Y144.5595
X52.73416 Y144.56087
X52.8057 Y61.44234
X51.8547 Y68.82371
X50.50354 Y75.1928
X50.42171 Y98.25606
X50.86189 Y101.14481
X50.16557 Y105.07835
X47.86676 Y108.56331
X47.35531 Y109.02667
X43.57368 Y111.01156
X38.84213 Y111.43071
X35.25385 Y110.66016
X33.45837 Y109.60895
X32.0126 Y110.38413
X28.12963 Y111.29726
X24.17844 Y110.59689
X22.57057 Y109.66476
X19.92075 Y110.96581
X14.6783 Y111.41861
X11.11809 Y110.53798
X7.96098 Y108.29365
X5.81366 Y104.70079
X5.24084 Y100.87057
X5.68941 Y98.05871
X5.60834 Y75.12934
X3.88209 Y66.21637
X3.0502 Y57.34597
X3.03104 Y168.31667
X52.71365 Y168.38619
X52.73416 Y144.56087
Z21.80709 F5000.
G0 Z39.95459
X52.84977 Y10.22671
G1 Z23.07709 F1228.
Z22.44209 F3684.
X52.85597 Y3.02419 Z21.17209 F3684.
X52.19011 Y3.02379 F4912.
X52.83418 Y28.34537
X52.85597 Y3.02419
X54.44347 Y3.02555
X54.29978 Y169.97591
X1.44326 Y169.90195
X1.47236 Y1.4063
X5.55216 Y1.40871
X4.81239 Y32.65434
X4.92333 Y36.28643
X3.95313 Y44.34931
X4.09623 Y51.44436
X5.44063 Y65.91452
X7.1953 Y74.97424
X7.27743 Y98.20183
X6.81731 Y100.68377
X7.2021 Y103.93112
X8.91857 Y107.02748
X11.53491 Y109.00618
X14.57816 Y109.83427
X19.22108 Y109.54081
X22.37503 Y107.99224
X22.92077 Y107.99246
X24.50776 Y109.04392
X27.80542 Y109.74322
X31.16388 Y109.04255
X32.77794 Y108.02145
X33.92624
X35.6216 Y109.11585
X38.70205 Y109.8494
X43.4336 Y109.43026
X46.57067 Y107.64663
X48.60952 Y104.76392
X49.29251 Y101.38395
X48.83378 Y98.37352
X48.91663 Y75.02283
X50.28022 Y68.62086
X51.38075 Y60.07882
X52.28747 Y46.22202
X51.93993 Y40.61473
X51.18335 Y35.07306
X51.34273 Y32.14192
X50.56169 Y1.43533
X54.44484 Y1.43763
X54.44347 Y3.02555
X56.03097 Y3.02692
X56.03371 Y-0.14893
X48.93327 Y-0.15313
X49.75575 Y32.18228
X49.58979 Y35.13649
X50.36702 Y40.82947
X50.70293 Y46.31898
X49.79673 Y59.9737
X48.7058 Y68.41744
X47.32973 Y74.8522
X47.24585 Y98.49097
X47.72312 Y101.62309
X47.06489 Y104.39745
X45.31176 Y106.67951
X42.70769 Y108.01844
X38.60687 Y108.26476
X36.02831 Y107.58133
X34.43955 Y106.43395
X32.31795
X30.31516 Y107.70098
X27.53645 Y108.17867
X24.90041 Y107.50575
X23.45733 Y106.40517
X21.75301 Y106.40448
X21.1666 Y106.9477
X18.58046 Y108.08831
X14.51584 Y108.24799
X11.9938 Y107.48645
X9.9217 Y105.79708
X8.61941 Y103.21601
X8.39942 Y100.55307
X8.86552 Y98.36637
X8.78226 Y74.81915
X6.99916 Y65.61266
X5.677 Y51.29835
X5.54033 Y44.31824
X6.51378 Y36.35898
X6.39915 Y32.60588
X7.1778 Y-0.17783
X-0.11487 Y-0.18214
X-0.14451 Y171.48723
X55.88592 Y171.56563
X56.03097 Y3.02692
X57.61847 Y3.02829
X57.47205 Y173.15535
X-1.73228 Y173.07251
X-1.70209 Y-1.77058
X9.08452 Y-1.7642
X8.78007 Y-0.77897
X7.98591 Y32.55741
X8.10429 Y36.43313
X7.12754 Y44.28811
X7.25785 Y51.15321
X8.5577 Y65.31081
X10.36922 Y74.66405
X10.45369 Y98.55271
G02 X10.98239 Y104.61595 I6.17187 J2.51649
G1 X12.5054 Y105.98365
X14.49403 Y106.66064
X17.99544 Y106.61253
X20.08777 Y105.7831
X21.13098 Y104.81673
X24.06551 Y104.81792
X25.37108 Y105.98963
X27.3458 Y106.60266
X29.49312 Y106.34288
X31.29323 Y105.2533
X31.62014 Y104.84645
X35.0096
X36.48125 Y106.05982
X38.55791 Y106.67801
X42.05791 Y106.57002
X44.10005 Y105.65389
X45.54149 Y103.9509
X46.15374 Y101.86223
X45.65793 Y98.60843
X45.74283 Y74.68091
X47.13146 Y68.21347
X48.21281 Y59.86708
X49.11832 Y46.41465
X48.79411 Y41.04421
X47.99602 Y35.19844
X48.16876 Y32.22265
X47.32275 Y-1.03831
X47.06442 Y-1.74174
X57.62257 Y-1.73549
X57.61847 Y3.02829
X59.20597 Y3.02965
X59.21144 Y-3.32206
X43.75976 Y-3.33119
X44.25895 Y-3.05697
X45.28169 Y-1.99105
X45.83256 Y-0.49105
X46.58168 Y32.25895
X46.40205 Y35.25895
X47.2212 Y41.25895
X47.53362 Y46.50895
X46.629 Y59.75895
X45.55719 Y68.00895
X44.15593 Y74.50895
X44.06988 Y98.75895
X44.60605 Y101.50895
G03 X42.00895 Y104.98327 I-3.69528 J-0.05442
G1 X38.50895 Y105.09127
X37.00895 Y104.56259
X35.64687 Y103.25895
X30.85924
G03 X25.94357 Y104.50895 I-3.03642 J-1.65032
G1 X24.75895 Y103.2307
X20.50895 Y103.22898
X19.00895 Y104.6185
X17.50895 Y105.10141
X14.50895 Y105.07321
G03 X11.55452 Y102.00895 I0.58124 J-3.5168
G1 X11.57302 Y100.50895
X12.04193 Y98.75895
X11.95618 Y74.50895
X10.11624 Y65.00895
X8.83878 Y51.00895
X8.71477 Y44.25895
X9.69485 Y36.50895
X9.57267 Y32.50895
X10.36711 Y-0.74105
X11.00895 Y-2.18602
X12.43622 Y-3.34972
X-3.28932 Y-3.35902
X-3.32006 Y174.65779
X59.05818 Y174.74507
X59.20597 Y3.02965
X60.79347 Y3.03102
X60.64431 Y176.33479
X-4.90783 Y176.24307
X-4.87655 Y-4.94746
X60.8003 Y-4.90862
X60.79347 Y3.03102
X62.40375 Y3.03171
X62.40723 Y-5.11171
G02 X60.85558 Y-6.57316 I-1.62658 J0.17254
G1 X-5.25511 Y-6.53474
X-5.86187 Y-6.27357
X-6.47005 Y-5.47555
X-6.4954 Y176.73153
X-6.16725 Y177.34827
X-5.40933 Y177.82987
X60.97567 Y177.92276
X61.89457 Y177.52028
X62.32937 Y176.76926
X62.40375 Y3.03171
X63.99125 Y3.03239
X63.91672 Y177.12795
G03 X61.12795 Y179.51047 I-3.05263 J-0.74974
G1 X-5.87205 Y179.41672
X-7.37205 Y178.4636
X-8.08269 Y177.12795
X-8.17644 Y-4.87205
X-7.97332 Y-6.12205
X-6.87205 Y-7.56707
X-5.58269 Y-8.12205
X61.12795 Y-8.16082
X62.62795 Y-7.62957
X63.57297 Y-6.62205
X63.99485 Y-5.37205
X63.99125 Y3.03239
Z21.80709 F5000.
G0 Z39.95459
X20.86749 Y-3.74902
G1 Z23.07709 F1228.
Z22.44209 F3684.
X13.66497 Y-3.74105 Z21.17209 F3684.
G02 X10.36711 Y-0.74105 I0.4535 J3.81117 F4912.
G1 X9.57267 Y32.50895
X9.74331 Y35.00895
X9.69485 Y36.50895
G02 X8.83878 Y51.00895 I49.51344 J10.19849
X10.73743 Y68.75895 I152.40304 J-7.32547
G1 X11.95618 Y74.50895
X12.04193 Y98.75895
G02 X11.75895 Y102.79107 I5.5023 J2.41215
X14.50895 Y105.07321 I3.32968 J-1.21433
G1 X17.50895 Y105.10141
G02 X20.50895 Y103.22898 I-0.51095 J-4.15815
G1 X24.75895 Y103.2307
G02 X30.85924 Y103.25895 I3.05775 J-1.62776
G1 X35.64687
G02 X38.50895 Y105.09127 I3.45738 J-2.24898
G1 X41.25895 Y105.11086
G02 X44.5754 Y100.75895 I-0.30861 J-3.67481
G1 X44.06988 Y98.75895
X44.15593 Y74.50895
G02 X46.629 Y59.75895 I-87.26805 J-22.21422
G1 X47.41152 Y50.00895
G02 X46.48482 Y36.75895 I-45.10646 J-3.50268
G1 X46.40205 Y35.25895
X46.58168 Y32.25895
X45.83256 Y-0.49105
G02 X42.00895 Y-3.77241 I-3.79756 J0.55669
G1 X13.66497 Y-3.74105
Z21.80709 F5000.
G0 Z39.95459
X6.20674 Y157.94468
G1 Z20.0525 F1228.
Z19.4175 F3684.
X6.20549 Y165.14721 Z18.1475 F3684.
X8.9182 Y165.15101 F4912.
X6.21357 Y118.54273
X6.20549 Y165.14721
X4.61799 Y165.14694
X4.62687 Y113.93428
X7.68135 Y116.4335
X10.60063 Y166.74086
X4.61771 Y166.73249
X4.61799 Y165.14694
X3.03049 Y165.14666
X3.02994 Y168.31777
X12.28305 Y168.33072
X9.2092 Y115.35968
X8.38758 Y115.02741
X5.84403 Y112.95795
X3.80972 Y109.35559
X3.3047 Y105.49375
X3.74471 Y102.81551
X3.61729 Y73.72161
X3.04679 Y71.16142
X3.03049 Y165.14666
X1.44299 Y165.14639
X1.47139 Y1.40621
X3.50291 Y1.40738
X2.7993 Y32.657
X2.91109 Y36.25122
X2.17949 Y41.61902
X2.02086 Y47.61929
X3.08105 Y61.47317
X4.31299 Y69.54479
X5.20402 Y73.54345
X5.33286 Y102.96067
X4.8843 Y105.33558
X5.21239 Y108.61217
X6.87659 Y111.75214
X8.98275 Y113.5557
X10.73583 Y114.26466
X13.96548 Y169.92057
X1.44216 Y169.90305
X1.44299 Y165.14639
X-0.14451 Y165.14611
X-0.14561 Y171.48833
X15.64791 Y171.51043
X12.24763 Y112.91415
X10.8411 Y112.67192
X9.65492 Y112.11752
X7.93881 Y110.57238
X6.63835 Y107.91448
X6.46862 Y105.23522
X6.9211 Y103.12556
X6.79076 Y73.36528
X5.86248 Y69.19951
X4.65048 Y61.23436
X3.60377 Y47.49867
X3.76637 Y41.66324
X4.50198 Y36.33571
X4.38603 Y32.60765
X5.12665 Y-0.17918
X-0.11583 Y-0.18221
X-0.14451 Y165.14611
X-1.73201 Y165.14583
X-1.70306 Y-1.77063
X7.01095 Y-1.76558
X6.72245 Y-0.52712
X5.97276 Y32.5583
X6.09292 Y36.42161
X5.35319 Y41.70984
X5.18672 Y47.37855
X6.22003 Y60.99628
X7.41198 Y68.85423
X8.37749 Y73.18711
X8.50942 Y103.30924
G02 X9.02609 Y109.41567 I6.40247 J2.53336
X12.97489 Y111.5468 I4.21484 J-3.08578
G1 X13.75944 Y111.56364
X17.2857 Y172.33111
X17.58304 Y173.10064
X-1.73339 Y173.07361
X-1.73201 Y165.14583
X-3.31951 Y165.14556
X-3.32116 Y174.65889
X21.482 Y174.6936
G03 X18.76651 Y171.75895 I0.83714 J-3.4983
G1 X16.40966 Y128.50895
X15.44054 Y115.00895
X15.30554 Y110.00895
X13.00895 Y109.95967
X11.50895 Y109.57076
X10.11336 Y108.25895
X9.59303 Y106.75895
X9.6425 Y105.25895
X10.09781 Y103.50895
X9.96423 Y73.00895
X8.96148 Y68.50895
X7.78969 Y60.75895
X6.7697 Y47.25895
X6.93993 Y41.75895
X7.6839 Y36.50895
X7.5595 Y32.50895
X8.30954 Y-0.49105
G03 X10.51401 Y-3.35106 I3.57045 J0.47249
G1 X-3.29028 Y-3.35905
X-3.31951 Y165.14556
Z18.7825 F5000.
G0 Z39.95459
X47.30761 Y158.01076
G1 Z20.0525 F1228.
Z19.4175 F3684.
X46.94625 Y165.20422 Z18.1475 F3684.
X49.54072 Y165.20785 F4912.
X49.5822 Y117.49879
X48.56135 Y133.05279
X46.94625 Y165.20422
X45.36075 Y165.12457
X46.97646 Y132.96097
X48.07028 Y116.29513
X51.17248 Y114.30003
X51.12683 Y166.79757
X45.27712 Y166.78938
X45.36075 Y165.12457
X43.77525 Y165.04493
X43.60799 Y168.37455
X52.71295 Y168.38729
X52.76737 Y105.80274
X52.26455 Y109.42946
X51.72653 Y110.88649
X49.94228 Y113.31531
X46.54054 Y115.36305
X45.39157 Y132.86916
X43.77525 Y165.04493
Z18.7825 F5000.
G0 Z39.95459
X52.7903 Y79.43672
G1 Z20.0525 F1228.
Z19.4175 F3684.
X52.79656 Y72.2342 Z18.1475 F3684.
X52.46754 Y73.89664 F4912.
X52.36646 Y102.89961
X52.76812 Y104.93586
X52.79656 Y72.2342
X51.23926 Y71.92599
X52.71899 Y64.44929
X54.06716 Y49.81787
X54.12458 Y42.94375
X53.18916 Y35.11743
X53.35594 Y32.14218
X52.57661 Y1.43581
X54.44561 Y1.43689
X54.29907 Y169.97701
X41.93886 Y169.95972
X43.80668 Y132.77735
X45.01301 Y114.3973
X48.68074 Y112.35163
X50.25509 Y110.29066
X50.69209 Y109.21145
X51.22922 Y105.33729
X50.77842 Y103.05194
X50.88058 Y73.73831
X51.23926 Y71.92599
X49.68389 Y71.6167
X49.29363 Y73.57926
X49.19038 Y103.20428
X49.67173 Y105.64451
X49.12577 Y108.95299
X48.81511 Y109.62236
X47.43553 Y111.36695
X44.78647 Y112.82604
X43.41501 Y113.02377
X42.2216 Y132.68944
X40.26973 Y171.54488
X55.88519 Y171.56673
X56.0345 Y-0.14969
X50.94828 Y-0.15263
X51.76895 Y32.18246
X51.59618 Y35.16612
X52.5483 Y43.13215
X52.47974 Y49.80156
X51.13824 Y64.30306
X49.68389 Y71.6167
X48.12896 Y71.30601
X49.55754 Y64.15627
X50.89236 Y49.78199
X50.97202 Y43.32055
X50.00302 Y35.21329
X50.18196 Y32.22274
X49.33779 Y-1.03831
X49.07965 Y-1.74122
X57.62338 Y-1.73627
X57.47131 Y173.15645
X38.27072 Y173.12959
X38.67803 Y171.5886
X40.63651 Y132.60154
X41.91616 Y111.51486
X44.09451 Y111.39729
X46.19032 Y110.38226
X47.5699 Y108.63767
X48.11424 Y105.95173
X47.60234 Y103.35662
X47.70668 Y73.41948
X48.12896 Y71.30601
X46.57449 Y70.99391
X46.11973 Y73.25895
X46.0143 Y103.50895
X46.55675 Y106.25895
G03 X44.00895 Y109.81209 I-3.71569 J0.02567
G1 X40.36169 Y110.00895
X40.26737 Y114.25895
X39.05166 Y132.50895
X37.09253 Y171.50895
X36.65149 Y173.00895
X35.7717 Y174.00895
X34.29399 Y174.71152
X59.05743 Y174.74617
X59.21226 Y-3.32285
X45.76886 Y-3.33063
X46.25895 Y-3.06742
X47.29674 Y-1.99105
X47.8476 Y-0.49105
X48.59488 Y32.25895
X48.40968 Y35.25895
X49.39573 Y43.50895
X49.30503 Y49.75895
X47.97689 Y64.00895
X46.57449 Y70.99391
Z18.7825 F5000.
G0 Z39.95459
X60.74139 Y63.8037
G1 Z20.0525 F1228.
Z19.4175 F3684.
X60.73513 Y71.00623 Z18.1475 F3684.
X60.64355 Y176.33589 F4912.
X-4.90894 Y176.24417
X-4.87751 Y-4.94747
X60.80114 Y-4.90943
X60.73513 Y71.00623
X62.37575 Y71.00693
X62.40834 Y-5.11171
G02 X60.85559 Y-6.57426 I-1.62823 J0.17311
G1 X-5.25654 Y-6.53474
X-5.86217 Y-6.27436
X-6.47117 Y-5.47546
X-6.4965 Y176.73127
X-6.16747 Y177.34924
X-5.40933 Y177.83097
X60.97466 Y177.92386
X61.89477 Y177.52117
X62.33048 Y176.76891
X62.37575 Y71.00693
X63.96325 Y71.00761
X63.91783 Y177.12795
G03 X61.12795 Y179.51158 I-3.05459 J-0.75069
G1 X-5.87205 Y179.41783
X-7.37205 Y178.4647
X-8.0838 Y177.12795
X-8.17755 Y-4.87205
X-7.97443 Y-6.12205
X-6.87205 Y-7.56818
X-5.5838 Y-8.12205
X61.12795 Y-8.16193
X62.62795 Y-7.63068
X63.57408 Y-6.62205
X63.99595 Y-5.37205
X63.96325 Y71.00761
Z18.7825 F5000.
G0 Z39.95459
X18.85243 Y-3.74804
G1 Z20.0525 F1228.
Z19.4175 F3684.
X11.64991 Y-3.74105 Z18.1475 F3684.
G02 X8.30954 Y-0.49105 I0.44284 J3.79678 F4912.
G1 X7.5595 Y32.50895
X7.73637 Y35.00895
X7.6839 Y36.50895
G02 X6.98177 Y51.25895 I49.63163 J9.7543
X8.96148 Y68.50895 I133.04384 J-6.53026
G1 X9.96423 Y73.00895
X10.09781 Y103.50895
G02 X9.7663 Y107.50895 I6.08866 J2.51835
X13.00895 Y109.95967 I3.37244 J-1.09162
G1 X15.30554 Y110.00895
X15.44054 Y115.00895
X16.40966 Y128.50895
X18.76651 Y171.75895
G02 X22.25895 Y174.89073 I3.69912 J-0.61191
G1 X24.25895 Y175.06502
X31.75895 Y175.0534
G02 X36.29793 Y173.50895 I0.5838 J-5.72629
X37.09253 Y171.50895 I-2.52672 J-2.16172
G1 X39.05166 Y132.50895
X40.26737 Y114.25895
X40.36169 Y110.00895
X43.25895 Y109.95152
G02 X46.50895 Y105.49442 I-0.37514 J-3.687
G1 X46.0143 Y103.50895
X46.11973 Y73.25895
G02 X48.44698 Y60.00895 I-84.86188 J-21.73466
G1 X49.30503 Y49.75895
G02 X48.49779 Y36.75895 I-44.37386 J-3.76966
G1 X48.40968 Y35.25895
X48.59488 Y32.25895
X47.8476 Y-0.49105
G02 X44.00895 Y-3.77245 I-3.79829 J0.55736
G1 X11.64991 Y-3.74105
Z18.7825 F5000.
G0 Z39.95459
X3.03009 Y161.11635
G1 Z17.02792 F1228.
Z16.39292 F3684.
X3.02884 Y168.31888 Z15.12292 F3684.
X3.51237 Y168.31955 F4912.
X3.03671 Y123.17062
X3.02884 Y168.31888
X1.44134 Y168.3186
X1.4597 Y62.93659
X3.12688 Y71.84704
X3.27686 Y75.12412
X3.36283 Y107.92658
X2.9547 Y109.97969
X3.19302 Y113.21761
X4.55014 Y116.1321
X5.11671 Y169.9093
X1.44106 Y169.90415
X1.44134 Y168.3186
X-0.14616 Y168.31832
X-0.14671 Y171.48943
X6.72105 Y171.49904
X6.13147 Y115.53784
X5.80165 Y115.18845
X4.64463 Y112.57497
X4.54099 Y109.91782
X4.9508 Y108.10138
X4.86427 Y75.08573
X4.70707 Y71.65101
X3.32937 Y64.89318
X2.78836 Y60.93471
X1.66608 Y45.9959
X2.52457 Y35.94133
X2.38537 Y32.90432
X2.56804 Y-0.18076
X-0.1168 Y-0.18228
X-0.14616 Y168.31832
X-1.73366 Y168.31805
X-1.70402 Y-1.77068
X4.46899 Y-1.76718
X4.15874 Y-0.75001
X3.9712 Y32.83164
X4.11525 Y35.97429
X3.24914 Y45.87727
X4.36142 Y60.72111
X4.88488 Y64.57606
X6.28726 Y71.45498
X6.45167 Y75.04734
X6.53881 Y108.29635
G02 X6.95603 Y114.0987 I6.32897 J2.4611
G1 X7.71233 Y114.89986
X8.0544 Y137.77472
X8.31709 Y172.30115
X8.60345 Y173.08918
X-1.73449 Y173.07471
X-1.73366 Y168.31805
X-3.32116 Y168.31777
X-3.32227 Y174.65999
X12.07293 Y174.68154
G03 X9.80913 Y171.75895 I1.43562 J-3.45007
G1 X9.64184 Y137.75895
X9.29043 Y114.25895
G03 X7.71371 Y110.00895 I2.15611 J-3.21738
G1 X8.12687 Y108.50895
X8.03908 Y75.00895
X7.86745 Y71.25895
X6.44038 Y64.25895
X5.93468 Y60.50895
X4.83223 Y45.75895
X5.706 Y36.00895
X5.55704 Y32.75895
X5.74622 Y-0.74105
X6.42863 Y-2.24105
X7.82191 Y-3.35278
X-3.29124 Y-3.35908
X-3.32116 Y168.31777
Z15.75792 F5000.
G0 Z39.95459
X52.42757 Y161.18553
G1 Z17.02792 F1228.
Z16.39292 F3684.
X52.38721 Y168.38794 Z15.12292 F3684.
X52.71226 Y168.38839 F4912.
X52.75726 Y117.14645
X52.67378 Y117.24997
X52.38721 Y168.38794
X50.79971 Y168.38392
X50.9012 Y128.3048
X51.09562 Y116.67802
X51.7219 Y115.90144
X53.0204 Y113.03699
X53.22823 Y111.16848
X52.74622 Y107.86656
X52.84465 Y72.49084
X54.39076 Y64.77888
X54.29836 Y169.97812
X50.79569 Y169.97322
X50.79971 Y168.38392
X49.21222 Y168.3799
X49.20417 Y171.55849
X55.88446 Y171.56784
X56.03529 Y-0.15044
X53.36797 Y-0.15195
X53.78276 Y32.47656
X53.62818 Y35.93779
X54.53839 Y45.97212
X53.0714 Y63.28384
X51.25759 Y72.33109
X51.15812 Y108.08069
G03 X51.44648 Y112.8298 I-8.30797 J2.88776
G1 X50.29334 Y115.20907
X49.51851 Y116.04336
X49.31373 Y128.28951
X49.21222 Y168.3799
X47.62472 Y168.37588
X47.72626 Y128.27423
X47.94272 Y115.32986
X48.88709 Y114.47245
X49.87892 Y112.579
G02 X49.57002 Y108.29482 I-6.72647 J-1.66823
G1 X49.67053 Y72.17046
X51.48976 Y63.14755
X52.95738 Y46.11554
X52.03741 Y35.97363
X52.19539 Y32.49674
X51.82349 Y-1.58266
X51.76015 Y-1.74036
X57.62418 Y-1.73704
X57.47057 Y173.15756
X47.2881 Y173.14331
X47.61615 Y171.76297
X47.62472 Y168.37588
X46.03723 Y168.37186
X46.02865 Y171.75895
X45.85424 Y172.50895
X45.0913 Y173.75895
X43.6565 Y174.72573
X59.05667 Y174.74728
X59.21307 Y-3.32364
X48.40524 Y-3.32977
G03 X50.35034 Y-0.99105 I-1.6257 J3.33031
G1 X50.60793 Y32.50895
X50.4466 Y36.00895
X51.37637 Y46.25895
X49.90832 Y63.00895
X48.08347 Y72.00895
X47.98192 Y108.50895
G03 X48.32402 Y112.25895 I-5.80801 J2.42045
G1 X47.50895 Y113.68448
X46.36873 Y114.50895
X46.1388 Y128.25895
X46.03723 Y168.37186
Z15.75792 F5000.
G0 Z39.95459
X53.22863 Y176.32663
G1 Z17.02792 F1228.
Z16.39292 F3684.
X46.02611 Y176.31655 Z15.12292 F3684.
X-4.91004 Y176.24527 F4912.
X-4.87847 Y-4.94748
X60.80197 Y-4.91024
X60.64278 Y176.337
X46.02611 Y176.31655
X46.02389 Y177.90405
X60.97366 Y177.92496
X61.89497 Y177.52206
X62.33159 Y176.76857
X62.40944 Y-5.11171
G02 X60.85561 Y-6.57536 I-1.62987 J0.17368
G1 X-5.25798 Y-6.53475
X-5.86248 Y-6.27515
X-6.47229 Y-5.47536
X-6.49761 Y176.73102
X-6.16768 Y177.35021
X-5.40933 Y177.83208
X46.02389 Y177.90405
X46.02167 Y179.49154
X-5.87205 Y179.41893
X-7.37205 Y178.46581
X-8.08491 Y177.12795
X-8.17866 Y-4.87205
X-7.97553 Y-6.12205
X-6.87205 Y-7.56928
X-5.58491 Y-8.12205
X61.12795 Y-8.16303
X62.62795 Y-7.63178
X63.57518 Y-6.62205
X63.99706 Y-5.37205
X63.91893 Y177.12795
G03 X61.12795 Y179.51268 I-3.05653 J-0.75165
G1 X46.02167 Y179.49154
Z15.75792 F5000.
G0 Z39.95459
X16.24469 Y-3.73696
G1 Z17.02792 F1228.
Z16.39292 F3684.
X9.04216 Y-3.74105 Z15.12292 F3684.
G02 X5.67078 Y0.00895 I0.44599 J3.79146 F4912.
G1 X5.64931 Y27.75895
X5.55704 Y32.75895
X5.706 Y36.00895
G02 X4.86343 Y47.75895 I95.68746 J12.7668
G1 X5.93468 Y60.50895
X6.44038 Y64.25895
X7.86745 Y71.25895
X8.03908 Y75.00895
X8.12687 Y108.50895
G02 X8.11041 Y113.00895 I4.40999 J2.26617
G1 X8.50895 Y113.57864
X9.29043 Y114.25895
X9.64184 Y137.75895
X9.80913 Y171.75895
G02 X13.75895 Y175.10789 I3.91914 J-0.6186
G1 X42.00895 Y175.11365
G02 X46.02865 Y171.75895 I0.01702 J-4.06522
G03 X46.36873 Y114.50895 I2120.4838 J-16.02986
G02 X48.3984 Y110.00895 I-1.67597 J-3.46366
G1 X47.98192 Y108.50895
X48.08347 Y72.00895
G02 X50.38345 Y59.00895 I-82.19298 J-21.24515
G1 X51.26929 Y48.75895
X51.37637 Y46.25895
X50.79901 Y38.75895
X50.4466 Y36.00895
X50.60793 Y32.50895
X50.48467 Y25.50895
X50.47844 Y-0.24105
G02 X47.25895 Y-3.71933 I-3.80855 J0.29606
G1 X9.04216 Y-3.74105
Z15.75792 F5000.
G0 Z39.95459
X-0.14656 Y164.28801
G1 Z14.00333 F1228.
Z13.36833 F3684.
X-0.14782 Y171.49054 Z12.09833 F3684.
X2.11337 Y171.4937 F4912.
X2.11974 Y138.77573
X1.19856 Y62.70587
X0.68269 Y58.11336
X1.04602 Y52.17316
X0.80994 Y34.73104
X0.49449 Y33.64322
X0.55986 Y-0.18198
X-0.11776 Y-0.18235
X-0.14782 Y171.49054
X-1.73532 Y171.49026
X-1.70498 Y-1.77073
X2.46043 Y-1.76842
X2.14956 Y-0.7502
X2.01917 Y33.20109
X2.39439 Y34.495
X2.63422 Y52.21424
X2.26027 Y57.93616
X2.78498 Y62.60741
X3.70724 Y138.76627
X3.70072 Y172.28174
X3.98046 Y173.08382
X-1.73559 Y173.07582
X-1.73532 Y171.49026
X-3.32282 Y171.48998
X-3.32337 Y174.6611
X7.34418 Y174.67603
G03 X5.19967 Y171.75895 I1.46157 J-3.3213
G1 X5.29477 Y138.75895
X4.37141 Y62.50895
X3.83785 Y57.75895
X4.22247 Y52.25895
X3.97884 Y34.25895
X3.54386 Y32.75895
X3.73703 Y-0.74105
X4.41974 Y-2.24105
X5.81351 Y-3.35406
X-3.29221 Y-3.35911
X-3.32282 Y171.48998
Z12.73333 F5000.
G0 Z39.95459
X53.76365 Y164.36368
G1 Z14.00333 F1228.
Z13.36833 F3684.
X53.81188 Y171.56604 Z12.09833 F3684.
X55.88374 Y171.56894 F4912.
X56.03607 Y-0.15119
X55.37746 Y-0.15156
X55.79596 Y32.47619
X55.45396 Y34.37877
X55.0304 Y51.19036
X55.48233 Y57.79211
X54.69995 Y64.24856
X54.18679 Y86.3179
X53.54872 Y132.27036
X53.81188 Y171.56604
X52.22442 Y171.57667
X51.96114 Y132.26466
X52.59955 Y86.28842
X53.11476 Y64.13073
X53.89854 Y57.90053
X53.44153 Y51.22466
X53.87038 Y34.20321
X54.20859 Y32.49655
X53.83257 Y-1.58287
X53.76946 Y-1.73995
X57.62498 Y-1.73781
X57.46983 Y173.15866
X51.83388 Y173.15078
X52.22556 Y171.74832
X52.22442 Y171.57667
X50.63695 Y171.5873
X50.6381 Y171.75895
G03 X48.38029 Y174.73345 I-3.66375 J-0.43684
G1 X59.05592 Y174.74838
X59.21389 Y-3.32443
X50.41394 Y-3.32931
G03 X52.35951 Y-0.99105 I-1.62387 J3.32969
G1 X52.62113 Y32.50895
X52.28727 Y34.00895
X51.85266 Y51.25895
X52.31474 Y58.00895
X51.52966 Y64.00895
X51.01231 Y86.25895
X50.37357 Y132.25895
X50.63695 Y171.5873
Z12.73333 F5000.
G0 Z39.95459
X57.83284 Y176.33417
G1 Z14.00333 F1228.
Z13.36833 F3684.
X50.63032 Y176.3241 Z12.09833 F3684.
X-4.91115 Y176.24638 F4912.
X-4.87943 Y-4.9475
X60.8028 Y-4.91105
X60.64201 Y176.3381
X50.63032 Y176.3241
X50.6281 Y177.91159
X60.97265 Y177.92607
X61.89517 Y177.52295
X62.33269 Y176.76822
X62.41055 Y-5.11171
G02 X60.85562 Y-6.57646 I-1.63151 J0.17425
G1 X-5.25941 Y-6.53476
X-5.86278 Y-6.27593
X-6.47342 Y-5.47526
X-6.49872 Y176.73077
X-6.1679 Y177.35118
X-5.40933 Y177.83318
X50.6281 Y177.91159
X50.62588 Y179.49909
X-5.87205 Y179.42004
X-7.37205 Y178.46691
X-8.08601 Y177.12795
X-8.17976 Y-4.87205
X-7.97664 Y-6.12205
X-6.87205 Y-7.57039
X-5.58601 Y-8.12205
X61.12795 Y-8.16414
X62.62795 Y-7.63289
X63.57629 Y-6.62205
X63.99816 Y-5.37205
X63.92004 Y177.12795
G03 X61.12795 Y179.51379 I-3.05849 J-0.7526
G1 X50.62588 Y179.49909
Z12.73333 F5000.
G0 Z39.95459
X14.23719 Y-3.73756
G1 Z14.00333 F1228.
Z13.36833 F3684.
X7.03467 Y-3.74105 Z12.09833 F3684.
G02 X3.66157 Y0.00895 I0.44491 J3.79224 F4912.
G1 X3.6437 Y27.50895
X3.54386 Y32.75895
X3.68085 Y33.50895
X3.97884 Y34.25895
X4.22247 Y52.25895
G02 X4.37141 Y62.50895 I34.57599 J4.62367
G03 X5.19967 Y171.75895 I-4282.2514 J87.09344
G02 X9.00895 Y175.11837 I3.85827 J-0.53553
G1 X47.00895 Y175.10589
G02 X50.6381 Y171.75895 I-0.23978 J-3.90105
G03 X51.01231 Y86.25895 I2076.99184 J-33.66049
G1 X51.52966 Y64.00895
X52.31474 Y58.00895
X51.85266 Y51.25895
X52.28727 Y34.00895
X52.53709 Y33.25895
X52.62113 Y32.50895
X52.48968 Y25.25895
X52.48765 Y-0.24105
G02 X49.25895 Y-3.72062 I-3.80994 J0.29751
G1 X7.03467 Y-3.74105
Z12.73333 F5000.
G0 Z39.95459
X0.59882 Y168.54481
G1 Z10.97875 F1228.
Z10.34375 F3684.
X0.6083 Y172.27136 Z9.68666 F3684.
X0.88427 Y173.08059 Z9.5359
X-1.7367 Y173.07692 Z9.07375
X-1.70595 Y-1.77078 F4912.
X0.53383 Y-1.76957
X0.16226 Y-0.24363
X0.17893 Y33.22587
X0.64641 Y34.74497
X0.42145 Y98.81186
X0.6083 Y172.27136
X0.88427 Y173.08059
X-1.7367 Y173.07692
X-3.3242 Y173.07664
X-3.32448 Y174.6622
X4.17509 Y174.6727
G03 X2.11082 Y171.75895 I1.58417 J-3.31042
G1 X2.00895 Y98.80964
X2.23475 Y34.50895
X1.69621 Y32.75895
X1.74976 Y-0.24105
G03 X3.88338 Y-3.35525 I3.68528 J0.23687
G1 X-3.29317 Y-3.35915
X-3.3242 Y173.07664
Z9.70875 F5000.
G0 Z39.95459
X57.4733 Y168.46823
G1 Z10.97875 F1228.
Z10.34375 F3684.
X57.4691 Y173.15977 Z9.51651 F3684.
X54.95811 Y173.15625 Z9.07375
X55.22329 Y172.26023 F4912.
X55.29219 Y87.0143
X55.60386 Y34.49169
X56.04541 Y32.75652
X55.9344 Y-0.67507
X55.63181 Y-1.73967
X57.62579 Y-1.73858
X57.4691 Y173.15977
X54.95811 Y173.15625
X54.95589 Y174.74375
X59.05517 Y174.74949
X59.21471 Y-3.32522
X52.3524 Y-3.32895
G03 X54.40738 Y-0.24105 I-1.61091 J3.2998
G1 X54.45791 Y32.75895
X54.01771 Y34.25895
X53.70469 Y87.00895
X53.6358 Y172.25895
X52.85224 Y173.75895
X51.5052 Y174.73892
X54.95589 Y174.74375
X54.95367 Y176.33125
X-4.91225 Y176.24748
X-4.88039 Y-4.94751
X60.80363 Y-4.91186
X60.64125 Y176.33921
X54.95367 Y176.33125
X54.95145 Y177.91875
X60.97165 Y177.92717
X61.89537 Y177.52384
X62.3338 Y176.76788
X62.41166 Y-5.11171
G02 X60.85563 Y-6.57757 I-1.63316 J0.17482
G1 X-5.26085 Y-6.53476
X-5.86308 Y-6.27672
X-6.47454 Y-5.47517
X-6.49982 Y176.73051
X-6.16812 Y177.35215
X-5.40933 Y177.83429
X54.95145 Y177.91875
X54.94923 Y179.50625
X-5.87205 Y179.42114
X-7.37205 Y178.46802
X-8.08712 Y177.12795
X-8.18087 Y-4.87205
X-7.97774 Y-6.12205
X-6.87205 Y-7.57149
X-5.58712 Y-8.12205
X61.12795 Y-8.16524
X62.62795 Y-7.63399
X63.57739 Y-6.62205
X63.99927 Y-5.37205
X63.92114 Y177.12795
G03 X61.12795 Y179.51489 I-3.06043 J-0.75355
G1 X54.94923 Y179.50625
Z9.70875 F5000.
G0 Z39.95459
X12.29201 Y-3.74531
G1 Z10.97875 F1228.
Z10.34375 F3684.
X5.08949 Y-3.74105 Z9.07375 F3684.
G02 X1.74976 Y-0.24105 I0.45961 J3.78196 F4912.
G1 X1.69621 Y32.75895
X1.83261 Y33.50895
X2.23475 Y34.50895
X2.00895 Y98.80964
X2.11082 Y171.75895
G02 X5.75895 Y175.11835 I3.829 J-0.49755
G1 X50.25895 Y175.10204
G02 X53.74605 Y171.50895 I-0.35041 J-3.82873
G03 X54.01771 Y34.25895 I9639.59706 J-49.54514
G1 X54.32151 Y33.50895
X54.45791 Y32.75895
X54.40738 Y-0.24105
G02 X50.75895 Y-3.76804 I-3.79741 J0.27765
G1 X5.08949 Y-3.74105
Z9.70875 F5000.
G0 Z39.95459
X-1.70818 Y5.43169
G1 Z7.95417 F1228.
Z7.31917 F3684.
X-1.70691 Y-1.77083 Z6.04917 F3684.
X-1.13482 Y-1.77053 F4912.
X-1.47096 Y-0.00033
X-1.59767 Y33.20785
X-1.14813 Y34.73272
X-1.72824 Y118.94029
X-1.70691 Y-1.77083
Z6.68417 F5000.
G0 Z39.95459
X-2.43949 Y169.79748
G1 Z7.95417 F1228.
Z7.31917 F3684.
X-2.13451 Y169.269 Z7.21158 F3684.
X-1.34126 Y169.26827 Z7.07171
X-0.9435 Y169.95458 Z6.93183
X-0.93906 Y172.15437 Z6.54395
X-0.74306 Y172.86817 Z6.41343
X-0.76161 Y173.3471 Z6.32892
X-1.05247 Y173.72804 Z6.24441
X-1.50959 Y173.8721 Z6.1599
X-1.73891 Y173.87178 Z6.11946
X-2.02059 Y173.58965 Z6.04917
X-1.50848 Y173.07835
X-1.7378 Y173.07803 F4912.
X-1.73725 Y169.95618
X-1.7326 Y172.26215
X-1.50848 Y173.07835
X-0.09898 Y172.34796
X-0.1451 Y172.25895
X-0.22728 Y131.50895
X0.44095 Y34.50895
X-0.07496 Y32.75895
X0.11652 Y0.00895
G03 X2.24536 Y-3.35624 I3.70582 J-0.01162
G1 X-3.29413 Y-3.35918
X-3.32558 Y174.66331
X1.81436 Y174.6705
X0.63218 Y173.75895
X-0.09898 Y172.34796
Z6.68417 F5000.
G0 Z39.95459
X57.46854 Y172.96429
G1 Z7.95417 F1228.
Z7.31917 F3684.
X57.46836 Y173.16087 Z7.2845 F3684.
X57.30615 Y173.16064 Z7.2559
X57.46879 Y172.68507 Z7.16728
X57.46836 Y173.16087 Z7.08338
X57.30615 Y173.16064 Z7.05478
X57.46879 Y172.68507 Z6.96616
X57.46836 Y173.16087 Z6.88226
X57.30615 Y173.16064 Z6.85366
X57.46879 Y172.68507 Z6.76503
X57.46836 Y173.16087 Z6.68114
X57.30615 Y173.16064 Z6.65253
X57.46879 Y172.68507 Z6.56391
X57.46836 Y173.16087 Z6.48001
X57.30615 Y173.16064 Z6.45141
X57.46879 Y172.68507 Z6.36279
X57.46836 Y173.16087 Z6.27889
X57.30615 Y173.16064 Z6.25029
X57.46879 Y172.68507 Z6.16167
X57.46836 Y173.16087 Z6.07777
X57.30615 Y173.16064 Z6.04917
X57.46879 Y172.68507 F4912.
X57.46836 Y173.16087
X57.30615 Y173.16064
Z6.68417 F5000.
G0 Z39.95459
X57.49988 Y5.13991
G1 Z7.95417 F1228.
Z7.31917 F3684.
X57.38144 Y-1.57695 Z6.13462 F3684.
X57.31688 Y-1.73952 Z6.10378
X57.62659 Y-1.73936 Z6.04917
X57.61449 Y11.63906 F4912.
X57.38144 Y-1.57695
X57.31688 Y-1.73952
X57.62659 Y-1.73936
Z6.68417 F5000.
G0 Z39.95459
X57.33119 Y40.92626
G1 Z7.95417 F1228.
Z7.31917 F3684.
X57.3199 Y34.72862 Z6.22635 F3684.
X57.59447 Y33.76198 Z6.04917
X57.50277 Y135.12423 F4912.
X57.3199 Y34.72862
X57.59447 Y33.76198
X59.18197 Y33.76342
X59.21553 Y-3.32601
X54.0113 Y-3.32877
G03 X55.90602 Y-0.99105 I-1.75716 J3.36086
G1 X56.22908 Y32.75895
X55.732 Y34.50895
X55.98291 Y172.25895
X55.25895 Y173.69492
