%
G17 G21 G40 G90 G64 P0.1
(Horizontal Roughing)
(Router Straight Flute 13mm Carbide Tipped)
T38 M06
S13466 M3
G0 Z43.24417
X27.58852 Y189.80124
G1 Z36.93 F1346.5
Z36.295 F4039.5
X27.59176 Y182.81624 F4039.5
X61.39246 Y182.83195 F5000.
G17
G02 X67.20695 Y177.64246 I-0.56091 J-6.48059
G1 X67.31632 Y-5.35754
G02 X60.89246 Y-11.50016 I-6.47227 J0.33831
G1 X-6.34391 Y-11.35754
G02 X-11.46891 Y-5.60754 I1.35179 J6.36382
G1 X-11.48454 Y176.64246
X-10.85754 Y179.1757
G02 X-5.85754 Y182.8007 I5.85913 J-2.82079
G1 X27.59176 Y182.81624
X27.59328 Y179.56624
X-5.37267 Y179.55092
G03 X-7.848 Y177.80796 I0.4291 J-3.2386
G1 X-8.2345 Y176.24637
X-8.21895 Y-5.1952
G03 X-5.7335 Y-8.10883 I3.21406 J0.22481
G1 X60.60267 Y-8.24954
G03 X64.06612 Y-5.01823 I0.14191 J3.31969
G1 X63.95731 Y177.04071
G03 X60.99311 Y179.58176 I-3.15843 J-0.68495
G1 X27.59328 Y179.56624
X27.59479 Y176.31624
X60.59376 Y176.33158
X60.7656 Y-4.91656
X-4.96898 Y-4.78286
X-4.87288 Y176.30116
X27.59479 Y176.31624
X27.5963 Y173.06624
X-1.6246 Y173.05266
X-1.71726 Y-1.53946
X57.51251 Y-1.65994
X57.34684 Y173.08007
X27.5963 Y173.06624
X27.59781 Y169.81624
X54.09992 Y169.82856
X54.25942 Y1.59669
X1.53446 Y1.70393
X1.62368 Y169.80417
X27.59781 Y169.81624
X27.59932 Y166.56624
X4.87195 Y166.55568
X4.78618 Y4.94732
X51.00633 Y4.85331
X50.853 Y166.57705
X27.59932 Y166.56624
X27.60083 Y163.31624
X47.60608 Y163.32554
X47.75324 Y8.10993
X8.03791 Y8.19071
X8.12023 Y163.30719
X27.60083 Y163.31624
X27.60234 Y160.06624
X11.36851 Y160.0587
X11.28963 Y11.43411
X44.50015 Y11.36656
X44.35916 Y160.07403
X27.60234 Y160.06624
X27.60385 Y156.81624
X41.11225 Y156.82252
X41.24707 Y14.62318
X14.54135 Y14.6775
X14.61678 Y156.81021
X27.60385 Y156.81624
X27.60536 Y153.56624
X17.86506 Y153.56172
X17.82231 Y73.01394
G02 X23.02346 Y77.22138 I6.28821 J-2.45487
G1 X28.52346 Y77.55617
X33.27346 Y77.19824
G02 X37.94095 Y73.81295 I-1.15644 J-6.50475
G1 X37.86533 Y153.57101
X27.60536 Y153.56624
X27.60687 Y150.31625
X34.61841 Y150.3195
X34.68494 Y80.1474
X34.34817 Y80.2654
X28.76766 Y80.79698
X22.82599 Y80.46537
X21.07602 Y80.00422
X21.11334 Y150.31323
X27.60687 Y150.31625
X27.60838 Y147.06625
X24.36161 Y147.06474
X24.32804 Y83.80426
X29.12231 Y84.02757
X31.4315 Y83.77408
X31.37149 Y147.06799
X27.60838 Y147.06625
X27.60989 Y143.81625
X28.12457 Y143.81648
X28.17821 Y87.23712
X27.57985 Y87.20925
X27.60989 Y143.81625
Z36.93 F5000.
G0 Z37.43687
X14.54824 Y27.65797
G1 Z36.93 F1346.5
Z36.295 F4039.5
X17.79824 Y27.65624 F5000.
X17.79307 Y17.92089
X37.99398 Y17.8798
X37.97073 Y42.3967
G02 X34.17267 Y38.52346 I-6.54582 J2.61998
G1 X30.77346 Y37.56001
X25.86091 Y37.52346
X22.27346 Y38.43443
X20.35938 Y39.52346
X18.82354 Y41.27346
X17.80665 Y43.50672
X17.79824 Y27.65624
X21.04824 Y27.65452
X21.05238 Y35.45409
X25.06101 Y34.37343
X30.79764 Y34.3101
X34.72746 Y35.30268
X34.74089 Y21.13643
X21.04479 Y21.16428
X21.04824 Y27.65452
X24.29824 Y27.6528
X24.29651 Y24.40768
X31.4878 Y24.39305
X31.4814 Y31.14574
X24.30013 Y31.22371
X24.29824 Y27.6528
X27.54824 Y27.65107
X27.54839 Y27.93825
X28.23444 Y27.9308
X28.23471 Y27.64967
X27.54824 Y27.65107
Z36.93 F5000.
G0 Z37.565
Z38.2
X32.97852 Y38.14333
G1 Z37.565 F4039.5
X31.77346 Y37.75973 Z37.34201 F4039.5
X30.77346 Y37.56001 Z37.1622
X28.27346 Y37.42572 Z36.72075
X25.86091 Y37.52346 Z36.295
G02 X19.52346 Y40.32768 I0.6222 J9.96947 F5000.
X16.56435 Y50.27346 I13.93169 J9.5581
G1 X16.50946 Y53.52346
X16.9027 Y66.27346
G02 X17.82532 Y73.02346 I21.15603 J0.54634
X23.02346 Y77.22138 I6.28651 J-2.46708
X34.27346 Y76.93829 I4.78962 J-33.33968
X38.84259 Y71.27346 I-2.36074 J-6.57922
G1 X39.05869 Y69.52346
G02 X39.6316 Y50.02346 I-259.81519 J-17.3918
X36.77346 Y40.42264 I-16.83732 J-0.2134
X34.17267 Y38.52346 I-5.19562 J4.38461
X25.86091 Y37.52346 I-5.97134 J14.58969
G1 Z36.93 F5000.
G0 Z37.59417
X27.59504 Y189.80346
G1 Z30.88084 F1346.5
Z30.24584 F4039.5
X27.59829 Y182.81846 F4039.5
X61.39246 Y182.83416 F5000.
G02 X67.20916 Y177.64246 I-0.5627 J-6.48476
G1 X67.31853 Y-5.35754
G02 X60.89246 Y-11.50237 I-6.47563 J0.33951
G1 X-5.35754 Y-11.48675
G02 X-11.47112 Y-5.60754 I0.35376 J6.48612
G1 X-11.48675 Y176.64246
X-10.85754 Y179.17791
G02 X-5.85754 Y182.80291 I5.8589 J-2.82047
G1 X27.59829 Y182.81846
X27.5998 Y179.56846
X-5.37267 Y179.55313
G03 X-7.84849 Y177.80975 I0.42969 J-3.23988
G1 X-8.23671 Y176.24535
X-8.22116 Y-5.1952
G03 X-5.53739 Y-8.1856 I3.29873 J0.26098
G1 X60.5983 Y-8.2523
G03 X64.06833 Y-5.01686 I0.14361 J3.32451
G1 X63.95952 Y177.04071
G03 X60.99311 Y179.58397 I-3.16227 J-0.6868
G1 X27.5998 Y179.56846
X27.60131 Y176.31846
X60.59376 Y176.33379
X60.76678 Y-4.91768
X40.79541 Y-4.98233
G03 X42.88467 Y-0.72654 I-4.41563 J4.80845
G1 X43.77004 Y32.52346
X43.53088 Y35.27346
X44.46143 Y40.52346
X45.02646 Y45.77346
X44.88705 Y53.02346
X43.59222 Y67.77346
X41.58626 Y78.52346
X41.55423 Y83.77346
X42.07433 Y86.27346
G03 X39.63673 Y92.27346 I-7.22858 J0.55842
G1 X37.77346 Y93.40837
X35.77346 Y93.8861
X32.27346 Y93.86065
X30.27346 Y93.30918
X28.30612 Y92.02346
X27.80749
X26.27346 Y93.09868
X24.38139 Y93.77346
X20.27346 Y93.88035
G03 X14.27922 Y88.77346 I0.65423 J-6.83924
G1 X14.02523 Y86.52346
X14.55625 Y83.77346
X14.52586 Y78.52346
X13.28219 Y72.27346
X12.12264 Y63.77346
X11.17551 Y50.27346
X11.31189 Y43.77346
X12.58484 Y36.02346
X12.40559 Y33.02346
X13.34375 Y-1.22654
X14.02346 Y-3.21265
X15.31415 Y-4.95663
X-4.92872 Y-4.93621
X-4.87374 Y176.30337
X27.60131 Y176.31846
X27.60282 Y173.06846
X-1.62472 Y173.05488
X-1.67774 Y-1.68949
X10.16461 Y-1.70144
X9.16138 Y33.21729
X9.31897 Y35.85492
X8.06261 Y43.70528
X7.93348 Y50.50091
X8.90246 Y64.21274
X10.09468 Y72.90773
X11.27771 Y78.85299
X11.30445 Y83.47187
X10.79574 Y86.88801
X11.30816 Y90.09077
X12.72741 Y92.92191
X14.83131 Y95.08898
X17.48687 Y96.53484
X20.358 Y97.12925
X24.46593 Y97.02236
X27.36517 Y96.15983
X28.10757 Y95.7762
X29.40957 Y96.44227
X32.24982 Y97.11056
X36.52852 Y97.04717
X39.4641 Y96.18402
X42.10728 Y94.38505
X44.03051 Y91.88391
X45.13558 Y88.78057
X45.2562 Y85.61151
X44.80627 Y83.44879
X44.83442 Y78.83391
X46.82977 Y68.05766
X48.13645 Y53.08594
X48.2578 Y45.42568
X47.66155 Y39.95624
X46.80578 Y35.12815
X47.01888 Y32.43695
X45.98553 Y-1.71551
X57.51369 Y-1.6782
X57.34686 Y173.08228
X27.60282 Y173.06846
X27.60433 Y169.81846
X54.09996 Y169.83077
X54.26059 Y1.56129
X49.33568 Y1.54535
X50.2674 Y32.33866
X50.07846 Y34.97028
X50.86167 Y39.38902
X51.48866 Y45.07347
X51.38604 Y53.13742
X50.06747 Y68.34024
X48.0826 Y79.14209
X48.05831 Y83.12412
X48.43808 Y84.94956
X48.38323 Y88.90418
X47.0922 Y92.97414
X44.68367 Y96.36614
X41.29272 Y98.87077
X37.44531 Y100.16518
X32.29797 Y100.3602
X27.92941 Y99.33564
X25.51817 Y100.0973
X20.44254 Y100.37815
X16.828 Y99.71736
X13.27721 Y97.94332
X10.39558 Y95.18577
X8.40278 Y91.54724
X7.58656 Y87.40146
X8.05306 Y83.24057
X8.02956 Y79.18252
X6.90717 Y73.542
X5.68259 Y64.65424
X4.69157 Y50.73001
X4.81319 Y43.64354
X6.05351 Y35.69312
X5.91716 Y33.41113
X6.8198 Y1.55194
X1.57325 Y1.55723
X1.62429 Y169.80638
X27.60433 Y169.81846
X27.60584 Y166.56846
X4.87331 Y166.55789
X4.85018 Y90.32714
X5.55231 Y93.10842
X8.14859 Y97.53386
X11.82466 Y100.85065
X16.24353 Y102.91437
X20.62209 Y103.62319
X26.4971 Y103.19637
X28.05677 Y102.7037
X32.42102 Y103.60787
X38.48165 Y103.24552
X42.32905 Y101.95112
X43.22362 Y101.48498
X46.61458 Y98.98035
X47.33359 Y98.24775
X49.74212 Y94.85575
X50.9246 Y91.64123
X50.85306 Y166.57926
X27.60584 Y166.56846
X27.60735 Y163.31846
X47.60617 Y163.32775
X47.66448 Y102.2453
X45.15453 Y104.09919
X43.83087 Y104.83331
X39.51799 Y106.32586
X32.61498 Y106.85208
X28.22744 Y106.05807
X27.47603 Y106.29543
X20.85758 Y106.86464
X15.72417 Y106.1226
X10.44942 Y103.79535
X8.10368 Y101.8707
X8.12232 Y163.3094
X27.60735 Y163.31846
X27.60886 Y160.06846
X11.37134 Y160.06091
X11.35547 Y107.74737
X15.25921 Y109.33917
X21.13607 Y110.10269
X28.43508 Y109.39844
X32.86201 Y110.09268
X40.58086 Y109.39715
X44.40891 Y108.07238
X44.35927 Y160.07624
X27.60886 Y160.06846
X27.61037 Y156.81846
X41.11237 Y156.82473
X41.15461 Y112.57346
X33.15368 Y113.32956
X28.33785 Y112.67291
X21.4482 Y113.33767
X14.60691 Y112.5004
X14.62035 Y156.81242
X27.61037 Y156.81846
X27.61188 Y153.56846
X17.86937 Y153.56393
X17.85802 Y116.17253
X21.76033 Y116.57264
X28.27352 Y115.94421
X33.45945 Y116.56515
X37.9012 Y116.14539
X37.86548 Y153.57322
X27.61188 Y153.56846
X27.61339 Y150.31846
X34.61858 Y150.32172
X34.64779 Y119.71733
X33.76522 Y119.80073
X28.23596 Y119.21293
X21.10911 Y119.77291
X21.11838 Y150.31544
X27.61339 Y150.31846
X27.6149 Y147.06846
X24.36739 Y147.06695
X24.36003 Y122.77749
X28.19109 Y122.47647
X31.39483 Y122.81705
X31.37168 Y147.07021
X27.6149 Y147.06846
X27.61641 Y143.81846
X28.12478 Y143.8187
X28.14204 Y125.74034
X27.61094 Y125.78207
X27.61641 Y143.81846
Z30.88084 F5000.
G0 Z37.59417
X26.41139 Y-7.06372
G1 Z32.15084 F1346.5
Z31.51584 F4039.5
X20.02346 Y-7.07849 Z30.38947 F4039.5
X19.21528 Y-6.97654 Z30.24584
G02 X13.23793 Y-0.22654 I1.17658 J7.06346 F5000.
G1 X12.385 Y30.52346
X12.40559 Y33.02346
X12.60822 Y35.02346
X12.58484 Y36.02346
G02 X11.45012 Y55.27346 I53.92835 J12.83732
X14.52586 Y78.52346 I129.99411 J-5.36846
G1 X14.55625 Y83.77346
G02 X17.27346 Y92.86159 I6.89237 J2.88956
X20.27346 Y93.88035 I3.62781 J-5.75652
X25.29559 Y93.52346 I1.60609 J-12.91308
G1 X26.27346 Y93.09868
X27.80749 Y92.02346
X28.30612
G02 X32.27346 Y93.86065 I4.85319 J-5.27802
G1 X35.77346 Y93.8861
G02 X41.89636 Y85.02346 I-0.68198 J-7.01753
G1 X41.55423 Y83.77346
X41.58626 Y78.52346
G02 X44.06683 Y63.52346 I-107.42535 J-25.47021
X45.02646 Y45.77346 I-150.46151 J-17.03549
X43.59792 Y36.27346 I-45.33085 J1.95915
G1 X43.53088 Y35.27346
X43.77004 Y32.52346
X42.88467 Y-0.72654
G02 X36.52346 Y-7.04034 I-7.1262 J0.81831
G1 X20.02346 Y-7.07849
X19.21528 Y-6.97654
Z30.88084 F5000.
G0
X9.00388 Y-18.47735
G1 Z24.83167 F1346.5
Z24.19667 F4039.5
X9.00553 Y-11.49235 F4039.5
X-5.35754 Y-11.48896 F5000.
G02 X-11.47333 Y-5.60754 I0.35729 J6.49199
G1 X-11.48896 Y176.64246
X-10.85754 Y179.18012
G02 X-5.85754 Y182.80512 I5.85866 J-2.82013
G1 X61.39246 Y182.83637
G02 X67.21137 Y177.64246 I-0.56449 J-6.48893
G1 X67.32075 Y-5.35754
G02 X60.89246 Y-11.50458 I-6.479 J0.34071
G1 X9.00553 Y-11.49235
X9.0063 Y-8.20164
X60.59698 Y-8.25451
G03 X64.07054 Y-5.0155 I0.14355 J3.32811
G1 X63.96173 Y177.04071
G03 X60.99311 Y179.58618 I-3.16612 J-0.68864
G1 X-5.37267 Y179.55535
G03 X-7.84898 Y177.81154 I0.43028 J-3.24117
G1 X-8.23892 Y176.24434
X-8.22337 Y-5.1952
G03 X-5.53667 Y-8.18674 I3.30057 J0.26201
G1 X9.0063 Y-8.20164
Z24.83167 F5000.
G0 Z25.46667
Z26.10167
X8.83689 Y8.92144
G1 Z25.46667 F4039.5
X9.01647 Y1.72115 Z24.19667 F4039.5
X9.08999 Y-1.22654 F5000.
X9.76862 Y-3.22654
X11.02677 Y-4.95371
X-4.92798 Y-4.93736
X-4.87459 Y176.30558
X60.59376 Y176.336
X60.76796 Y-4.91881
X45.06883 Y-4.9886
G03 X47.13766 Y-0.72654 I-4.43217 J4.78455
G1 X47.89347 Y31.77346
X47.71885 Y35.27346
X48.445 Y40.27346
X48.92911 Y45.52346
X48.65997 Y53.02346
X47.28467 Y67.27346
X45.52346 Y75.99016
X45.47164 Y93.52346
X45.9738 Y96.02346
G03 X41.84227 Y103.02346 I-7.03622 J0.56634
G1 X39.77346 Y103.5649
X36.02346 Y103.5299
X34.02346 Y102.93097
X32.27346 Y101.77496
X24.02346 Y101.70983
X22.52346 Y102.70816
X20.52346 Y103.4541
X16.52346 Y103.58062
G03 X10.40048 Y98.52346 I0.50537 J-6.84718
G1 X10.12802 Y96.27346
X10.66603 Y93.27346
X10.59606 Y76.02346
X9.19905 Y69.27346
X8.11708 Y60.52346
X7.26286 Y47.27346
X7.56797 Y41.52346
X8.33872 Y36.77346
X8.26071 Y32.02346
X9.01647 Y1.72115
X5.82159 Y1.64147
X5.01114 Y32.07683
X5.08442 Y36.53802
X4.32253 Y41.35125
X4.0196 Y47.48255
X4.89165 Y60.92229
X6.0165 Y69.93213
X7.3474 Y76.36277
X7.41485 Y92.99088
X6.90159 Y96.66415
X7.44237 Y99.8696
X8.91336 Y102.71791
X11.15216 Y104.9382
X13.80727 Y106.29889
X16.6262 Y106.82899
X20.6262 Y106.70248
X23.65919 Y105.75326
X24.99444 Y104.9676
X31.28527 Y105.01726
X33.0911 Y106.04436
X35.99312 Y106.77976
X40.59632 Y106.709
X43.56863 Y105.77704
X46.00398 Y104.06932
X47.96753 Y101.50326
X49.0144 Y98.55694
X49.16015 Y95.38344
X48.7226 Y93.20504
X48.7725 Y76.31996
X50.51964 Y67.58567
X51.90788 Y53.14001
X52.16538 Y45.22503
X51.66125 Y39.80636
X50.98058 Y35.11944
X51.1426 Y31.6979
X50.23904 Y-1.71558
X57.51485 Y-1.68324
X57.34688 Y173.08449
X-1.62555 Y173.05709
X-1.67702 Y-1.69069
X5.91053 Y-1.69846
X5.82159 Y1.64147
X2.57274 Y1.55496
X1.57394 Y1.55598
X1.58463 Y37.86042
X1.83021 Y36.30893
X1.76158 Y32.1302
X2.57274 Y1.55496
Z24.83167 F5000.
G0 Z31.674
X27.60225 Y173.07067
G1 Z24.83167 F1346.5
Z24.19667 F4039.5
X27.60376 Y169.82067 F5000.
X54.1 Y169.83298
X54.20245 Y63.2377
X53.75473 Y67.89657
X52.02155 Y76.64658
X51.97355 Y92.88662
X52.34651 Y94.74342
X52.26098 Y98.70605
X51.02996 Y102.59138
X48.58503 Y106.04434
X45.43455 Y108.43802
X41.56868 Y109.81013
X36.04307 Y110.02937
X32.29276 Y109.19478
X30.41376 Y108.26048
X25.86776 Y108.22459
X25.30734 Y108.55434
X21.59691 Y109.80413
X16.72894 Y110.07737
X13.20663 Y109.4929
X9.66992 Y107.83051
X6.62482 Y105.02553
X4.55472 Y101.3609
X3.69688 Y97.2048
X4.16394 Y92.77148
X4.09875 Y76.70208
X2.83395 Y70.5908
X1.59122 Y60.25051
X1.62349 Y169.8086
X27.60376 Y169.82067
X27.60527 Y166.57067
X4.87254 Y166.56011
X4.85523 Y107.81418
X8.2874 Y110.77179
X12.67462 Y112.69906
X16.91108 Y113.32226
X22.72426 Y112.85234
X26.43707 Y111.47919
X29.63823 Y111.50446
X31.58678 Y112.36718
X36.17192 Y113.27682
X42.65577 Y112.87294
X47.40072 Y111.02581
X50.90918 Y108.26191
X50.85313 Y166.58147
X27.60527 Y166.57067
X27.60678 Y163.32067
X47.60625 Y163.32996
X47.65326 Y114.41507
X42.85782 Y116.11665
X36.37397 Y116.52053
X30.95434 Y115.55505
X28.93869 Y114.74904
X27.00638 Y114.73378
X23.8516 Y115.90055
X17.17295 Y116.56169
X12.20163 Y115.91446
X8.10713 Y114.24237
X8.12158 Y163.31161
X27.60678 Y163.32067
X27.60829 Y160.07067
X11.37062 Y160.06312
X11.35854 Y119.02524
X17.49311 Y119.79588
X24.97895 Y118.94876
X27.57569 Y117.98838
X28.30064 Y117.9941
X30.38434 Y118.75467
X36.57603 Y119.76425
X43.94463 Y119.17954
X44.39884 Y119.01838
X44.35937 Y160.07845
X27.60829 Y160.07067
X27.6098 Y156.82067
X41.1125 Y156.82695
X41.1454 Y122.59332
X36.8845 Y122.99957
X29.86133 Y121.96232
X27.93536 Y121.32051
X26.1063 Y121.99697
X17.85856 Y123.02527
X14.60962 Y122.7092
X14.61967 Y156.81463
X27.6098 Y156.82067
X27.61131 Y153.57067
X17.86871 Y153.56614
X17.86067 Y126.25571
X27.23365 Y125.04518
X27.99146 Y124.76491
X29.38649 Y125.17744
X37.19297 Y126.2349
X37.89196 Y126.16825
X37.86562 Y153.57544
X27.61131 Y153.57067
X27.61282 Y150.32067
X34.61875 Y150.32393
X34.63908 Y129.16863
X28.0474 Y128.17057
X21.11151 Y129.11286
X21.11775 Y150.31765
X27.61282 Y150.32067
X27.61433 Y147.07067
X24.3668 Y147.06916
X24.36234 Y131.95107
X28.02238 Y131.45383
X31.38639 Y131.96318
X31.37187 Y147.07242
X27.61433 Y147.07067
X27.61584 Y143.82067
X28.12499 Y143.82091
X28.1337 Y134.75773
X27.99736 Y134.73708
X27.61318 Y134.78928
X27.61584 Y143.82067
Z24.83167 F5000.
G0 Z35.13041
X53.59296 Y-1.70067
G1 Z24.83167 F1346.5
Z24.19667 F4039.5
X53.57852 Y1.5493 F5000.
X54.23829 Y25.94781
X54.26174 Y1.55233
X53.57852 Y1.5493
Z24.83167 F5000.
G0 Z33.43082
X22.05617 Y-7.06478
G1 Z26.10167 F1346.5
Z25.46667 F4039.5
X15.52346 Y-7.06844 Z24.31477 F4039.5
X14.85998 Y-6.97654 Z24.19667
G02 X8.98537 Y-0.22654 I1.25594 J7.02443 F5000.
G1 X8.26071 Y32.02346
X8.42908 Y35.27346
X8.33872 Y36.77346
G02 X7.39143 Y51.02346 I48.83691 J10.40301
X9.19905 Y69.27346 I195.77182 J-10.17632
G1 X10.59606 Y76.02346
X10.66603 Y93.27346
G02 X12.02346 Y101.42887 I7.35233 J2.96691
X16.52346 Y103.58062 I4.98467 J-4.64321
X21.52346 Y103.16759 I1.52292 J-12.03487
G1 X22.52346 Y102.70816
X24.02346 Y101.70983
X32.02346
X32.18987
G02 X36.02346 Y103.5299 I4.96875 J-5.51828
G1 X39.77346 Y103.5649
G02 X45.8054 Y94.77346 I-0.78637 J-7.00457
G1 X45.47164 Y93.52346
X45.52346 Y75.99016
G02 X47.78756 Y63.27346 I-88.93236 J-22.39359
X48.92911 Y45.52346 I-180.2672 J-20.5052
X47.78866 Y36.52346 I-45.98652 J1.25504
G1 X47.71885 Y35.27346
X47.89347 Y31.77346
X47.13766 Y-0.72654
G02 X40.77346 Y-7.0543 I-7.101 J0.77758
G1 X15.52346 Y-7.06844
X14.85998 Y-6.97654
Z24.83167 F5000.
G0 Z32.14216
X5.44701 Y189.79759
G1 Z18.7825 F1346.5
Z18.1475 F4039.5
X5.45026 Y182.81259 F4039.5
X61.39246 Y182.83858 F5000.
G02 X67.21358 Y177.64246 I-0.56628 J-6.49311
G1 X67.32296 Y-5.35754
G02 X60.89246 Y-11.50679 I-6.48236 J0.34191
G1 X-5.35754 Y-11.49117
X-6.35054 Y-11.35754
X-8.35754 Y-10.56929
X-10.10754 Y-9.02242
X-11.30367 Y-6.60754
X-11.47554 Y-5.60754
X-11.49117 Y176.64246
X-10.85754 Y179.18233
G02 X-5.85754 Y182.80733 I5.85841 J-2.81979
G1 X5.45026 Y182.81259
X5.45177 Y179.56259
X-5.37267 Y179.55756
G03 X-7.84946 Y177.81333 I0.43086 J-3.24245
G1 X-8.24113 Y176.24332
X-8.18093 Y-5.58982
G03 X-5.52795 Y-8.18894 I3.36835 J0.78462
G1 X60.59566 Y-8.25672
G03 X64.07275 Y-5.01946 I0.14342 J3.33193
G1 X63.96394 Y177.04071
G03 X60.99311 Y179.5884 I-3.16996 J-0.69049
G1 X5.45177 Y179.56259
X5.45328 Y176.31259
X17.67202 Y176.31827
X16.0945 Y174.27346
X15.48066 Y172.27346
X13.15819 Y129.77346
X12.02346 Y113.19861
G03 X6.52346 Y108.2773 I1.11368 J-6.77865
G1 X6.23092 Y106.02346
X6.77119 Y103.02346
X6.66675 Y73.52346
X5.57327 Y68.52346
X4.44856 Y60.77346
X3.438 Y47.02346
X3.64717 Y41.27346
X4.36651 Y36.27346
X4.23435 Y32.02346
X5.05987 Y-1.22654
X5.7385 Y-3.22654
X6.99772 Y-4.95178
X-4.87617 Y-4.93961
X-4.87545 Y176.30779
X5.45328 Y176.31259
X5.45479 Y173.06259
X-1.62546 Y173.0593
X-1.62615 Y-1.69294
X1.8801 Y-1.69653
X0.98593 Y32.12447
X1.10927 Y36.09118
X0.39932 Y41.15531
X0.19674 Y47.26167
X1.23225 Y61.24022
X2.39831 Y69.21781
X3.41799 Y73.88037
X3.52016 Y102.73885
X3.00795 Y106.44178
X3.57899 Y109.65302
X5.06141 Y112.4707
X7.2314 Y114.60174
X8.92765 Y115.56195
X9.91425 Y129.97312
X12.345 Y173.06579
X5.45479 Y173.06259
X5.4563 Y169.81259
X8.90642 Y169.81419
X5.80468 Y117.52871
X2.78422 Y114.78952
X1.6243 Y112.91784
X1.62453 Y169.81081
X5.4563 Y169.81259
X5.45781 Y166.56259
X4.87452 Y166.56232
X4.87448 Y156.72943
X5.45781 Y166.56259
Z18.7825 F5000.
G0 Z18.88823
X50.84732 Y179.58368
G1 Z18.7825 F1346.5
Z18.1475 F4039.5
X50.84883 Y176.33368 F5000.
X60.59376 Y176.33821
X60.77236 Y-4.91933
X49.0921 Y-4.99493
X49.52346 Y-4.5588
X50.6532 Y-2.72654
X51.16775 Y-0.72654
X51.91972 Y32.52346
X51.74594 Y34.77346
X52.72597 Y43.52346
X52.60348 Y50.27346
X51.18885 Y65.02346
X49.44891 Y73.52346
X49.34093 Y103.02346
X49.87284 Y105.77346
G03 X43.6223 Y113.27346 I-7.00567 J0.51606
G1 X42.39481 Y132.27346
X40.31727 Y172.52346
X39.61404 Y174.52346
X38.15312 Y176.32778
X50.84883 Y176.33368
X50.85034 Y173.08368
X43.48613 Y173.08026
X45.6394 Y132.46199
X46.7165 Y115.79006
X49.34695 Y114.2459
X51.31777 Y112.09948
X52.65366 Y109.2819
X53.10801 Y106.08352
X52.59207 Y102.71793
X52.69771 Y73.85856
X54.42401 Y65.33373
X55.85295 Y50.33242
X55.95578 Y43.1617
X55.00996 Y34.71722
X55.16889 Y32.44997
X54.27022 Y-1.71135
X57.51918 Y-1.69032
X57.34696 Y173.0867
X50.85034 Y173.08368
X50.85185 Y169.83368
X54.10016 Y169.83519
X54.15554 Y113.63863
X51.74088 Y116.44399
X49.84859 Y117.72003
X46.9129 Y169.83185
X50.85185 Y169.83368
X50.85336 Y166.58368
X50.35105 Y166.58345
X50.86231 Y157.50805
X50.85336 Y166.58368
Z18.7825 F5000.
G0 Z37.59417
X18.02595 Y-7.06246
G1 Z20.0525 F1346.5
Z19.4175 F4039.5
X11.52346 Y-7.07119 Z18.27094 F4039.5
X10.82986 Y-6.97654 Z18.1475
G02 X4.95525 Y-0.22654 I1.25593 J7.02442 F5000.
G1 X4.23435 Y32.02346
X4.41102 Y35.02346
X4.36651 Y36.27346
G02 X3.63127 Y51.02346 I51.17829 J9.94438
X5.57327 Y68.52346 I145.44635 J-7.2826
G1 X6.66675 Y73.52346
X6.77119 Y103.02346
G02 X8.83243 Y111.77346 I7.02109 J2.96382
X12.02346 Y113.19861 I4.278 J-5.29372
G1 X13.15819 Y129.77346
X15.48066 Y172.27346
G02 X22.27346 Y178.24158 I7.06797 J-1.19485
X34.52346 Y178.09534 I5.4331 J-58.03282
X40.31727 Y172.52346 I-1.07294 J-6.9139
G1 X42.39481 Y132.27346
X43.6223 Y113.27346
G02 X49.7138 Y104.52346 I-0.76902 J-7.03074
G1 X49.34093 Y103.02346
X49.44891 Y73.52346
G02 X51.68688 Y61.02346 I-82.6835 J-21.2538
G1 X52.60348 Y50.27346
G02 X51.77346 Y36.10884 I-48.60905 J-4.25822
G1 X51.74594 Y34.77346
X51.91972 Y32.52346
X51.16775 Y-0.72654
G02 X45.02346 Y-7.02623 I-7.09786 J0.77657
G1 X11.52346 Y-7.07119
X10.82986 Y-6.97654
Z18.7825 F5000.
G0 Z26.76091
X1.98666 Y189.79819
G1 Z12.73333 F1346.5
Z12.09833 F4039.5
X1.98991 Y182.81319 F4039.5
X61.39246 Y182.84079 F5000.
G02 X67.21579 Y177.64246 I-0.56807 J-6.49728
G1 X67.32517 Y-5.35754
G02 X60.89246 Y-11.50901 I-6.48573 J0.34311
G1 X-5.35754 Y-11.49338
X-6.35276 Y-11.35754
X-8.35754 Y-10.57151
X-10.10754 Y-9.02463
X-11.30588 Y-6.60754
X-11.47776 Y-5.60754
X-11.49338 Y176.64246
X-10.85754 Y179.18454
G02 X-5.85754 Y182.80954 I5.85815 J-2.81943
G1 X1.98991 Y182.81319
X1.99142 Y179.56319
X-5.37267 Y179.55977
G03 X-7.84995 Y177.81512 I0.43144 J-3.24372
G1 X-8.24335 Y176.24231
X-8.18325 Y-5.58921
G03 X-5.52821 Y-8.18995 I3.37078 J0.78555
G1 X60.59434 Y-8.25893
G03 X64.07497 Y-5.01946 I0.14334 J3.33559
G1 X63.96615 Y177.04071
G03 X60.99311 Y179.59061 I-3.1738 J-0.69233
G1 X1.99142 Y179.56319
Z13.36833 F5000.
X1.25133 Y176.31285
X3.97159 Y176.31411 Z12.88868 F4039.5
X3.44383 Y175.77346 Z12.75546
X2.28894 Y173.77346 Z12.34823
X1.99475 Y172.38708 Z12.09833
X1.86454 Y171.77346 F5000.
X1.96979 Y138.77346
X1.05004 Y62.77346
X0.56612 Y58.77346
X0.84025 Y52.52346
X0.66328 Y35.02346
X0.32915 Y33.77346
X0.44485 Y-1.22654
X1.12346 Y-3.22654
X2.37905 Y-4.9482
X-4.87731 Y-4.94063
X-4.87629 Y176.31
X3.97159 Y176.31411
X3.44383 Y175.77346
X2.28894 Y173.77346
X1.99475 Y172.38708
X-1.18446 Y173.06171
X-1.62631 Y173.06151
X-1.62667 Y110.16525
X-1.28027 Y138.78794
X-1.31467 Y172.44809
X-1.18446 Y173.06171
Z12.73333 F5000.
G0 Z18.94733
X53.87993 Y165.07107
G1 Z14.00333 F1346.5
Z13.36833 F4039.5
X53.92462 Y172.27346 Z12.09833 F4039.5
X53.33954 Y174.27346 F5000.
X51.8589 Y176.33636
X60.59376 Y176.34042
X60.77437 Y-4.92029
X53.70249 Y-5.00174
X54.27346 Y-4.39533
X55.36815 Y-2.47654
X55.80433 Y-0.47654
X55.94612 Y32.52346
X55.59189 Y34.77346
X55.18167 Y51.02346
X55.64169 Y58.02346
X54.85326 Y64.27346
G02 X53.92462 Y172.27346 I2836.1278 J78.39061
G1 X57.0575 Y173.08878
X56.94207 Y134.78384
X57.42323 Y96.58038
X57.347 Y173.08891
X57.0575 Y173.08878
Z12.73333 F5000.
G0 Z37.59417
X13.41058 Y-7.08093
G1 Z14.00333 F1346.5
Z13.36833 F4039.5
X7.02346 Y-7.07995 Z12.24211 F4039.5
X6.21463 Y-6.97654 Z12.09833
G02 X0.34023 Y-0.22654 I1.25608 J7.02433 F5000.
G1 X0.31751 Y27.52346
X0.2143 Y32.77346
X0.32915 Y33.77346
X0.66328 Y35.02346
X0.84025 Y52.52346
G02 X1.05004 Y62.77346 I30.84812 J4.49578
G03 X1.86454 Y171.77346 I-4214.40239 J85.99531
G02 X9.02346 Y178.44545 I7.20735 J-0.55665
G1 X47.02346 Y178.44018
G02 X53.98534 Y171.27346 I-0.23008 J-7.1883
G03 X54.24926 Y90.52346 I1956.76981 J-33.97998
G1 X54.85326 Y64.27346
X55.39641 Y60.52346
X55.64169 Y58.02346
X55.18167 Y51.02346
X55.59189 Y34.77346
X55.86757 Y33.52346
X55.94612 Y32.52346
X55.81467 Y25.27346
X55.80433 Y-0.47654
G02 X48.77346 Y-7.08641 I-7.12034 J0.52957
G1 X7.02346 Y-7.07995
X6.21463 Y-6.97654
Z12.73333 F5000.
G0 Z19.88868
X-1.53078 Y189.79877
G1 Z6.68417 F1346.5
Z6.04917 F4039.5
X-1.52753 Y182.81377 F4039.5
X61.39246 Y182.843 F5000.
G02 X67.218 Y177.64246 I-0.56986 J-6.50145
G1 X67.32738 Y-5.35754
G02 X60.89246 Y-11.51122 I-6.51207 J0.36835
G1 X-5.35754 Y-11.49559
X-6.35497 Y-11.35754
X-8.35754 Y-10.57372
X-10.10754 Y-9.02684
X-11.30809 Y-6.60754
X-11.47997 Y-5.60754
X-11.49559 Y176.64246
X-10.85754 Y179.18675
G02 X-5.85754 Y182.81175 I5.85788 J-2.81906
G1 X-1.52753 Y182.81377
X-1.52602 Y179.56377
X-5.35298 Y179.56199
G03 X-7.85043 Y177.81691 I0.42019 J-3.26099
G1 X-8.24556 Y176.2413
X-8.18557 Y-5.58861
G03 X-5.52849 Y-8.19095 I3.37318 J0.78648
G1 X61.40444 Y-8.18312
G03 X64.07718 Y-5.01946 I-0.55385 J3.17874
G1 X63.96836 Y177.04071
G03 X60.99311 Y179.59282 I-3.17764 J-0.69418
G1 X-1.52602 Y179.56377
X-1.52451 Y176.31377
X-2.82553 Y174.52346
X-3.47654 Y172.57065
X-3.5553 Y132.52346
X-2.89273 Y35.27346
X-3.29009 Y33.77346
X-3.14034 Y-0.97654
X-2.54874 Y-2.97654
X-1.18472 Y-4.94044
X-4.87884 Y-4.94088
X-4.87962 Y176.30231
X-1.52451 Y176.31377
Z6.68417 F5000.
G0 Z18.82427
X61.50704 Y179.46434
G1 Z6.68417 F1346.5
Z6.04917 F4039.5
X60.7188 Y176.31137 F5000.
X60.77429 Y-4.93117
X57.34403 Y-4.93359
X58.58342 Y-3.22654
X59.25791 Y-1.22654
X59.54355 Y33.02346
X59.08753 Y35.02346
X59.32256 Y172.52346
X58.66334 Y174.52346
X57.33221 Y176.34112
X60.7188 Y176.31137
Z6.68417 F5000.
G0 Z37.59417
X9.82238 Y-7.08606
G1 Z7.95417 F1346.5
Z7.31917 F4039.5
X3.52346 Y-7.086 Z6.2085 F4039.5
X2.62651 Y-6.97654 Z6.04917
G02 X-3.14034 Y-0.97654 I1.28785 J7.00918 F5000.
G1 X-3.40446 Y32.77346
X-3.29009 Y33.77346
X-2.89273 Y35.27346
X-3.31416 Y83.02346
G02 X-3.47654 Y172.57065 I6547.57076 J56.64678
X3.27346 Y178.44544 I7.05188 J-1.28726
G1 X52.77346 Y178.43291
G02 X59.4186 Y171.52346 I-0.50068 J-7.13173
G1 X59.10146 Y104.77346
X59.08753 Y35.02346
X59.39258 Y34.02346
X59.54355 Y33.02346
X59.36191 Y-0.22654
G02 X52.52346 Y-7.08648 I-7.11407 J0.25329
G1 X3.52346 Y-7.086
X2.62651 Y-6.97654
Z6.68417 F5000.
G0
X-18.46739 Y-3.18008
G1 Z0.635 F1346.5
Z0. F4039.5
X-11.48239 Y-3.17948 F4039.5
X-11.4978 Y176.64246 F5000.
G02 X-8.10754 Y182.07959 I6.48836 J-0.2702
G1 X-5.85754 Y182.81397
X61.39246 Y182.84522
G02 X67.22022 Y177.64246 I-0.55927 J-6.49176
G1 X67.32959 Y-5.35754
G02 X60.89246 Y-11.51343 I-6.51595 J0.37009
G1 X-5.35754 Y-11.4978
G02 X-10.71655 Y-8.10754 I0.36096 J6.50122
G1 X-11.48218 Y-5.60754
X-11.48239 Y-3.17948
X-8.23239 Y-3.1792
X-8.23222 Y-5.1209
X-7.77463 Y-6.61508
X-6.54048 Y-7.82935
X-5.56374 Y-8.18704
X61.40444 Y-8.18533
G03 X64.07939 Y-5.01946 I-0.55531 J3.18221
G1 X63.97057 Y177.04071
G03 X60.99311 Y179.59503 I-3.16857 J-0.68096
G1 X-5.33985 Y179.56421
G03 X-8.06355 Y177.38636 I0.41478 J-3.31085
G1 X-8.24778 Y176.35469
X-8.23239 Y-3.1792
X-4.98239 Y-3.17892
X-3.70544 Y-4.93699
X-4.84619 Y-4.93702
X-4.98239 Y-3.17892
Z0.635 F5000.
G0 Z33.45848
X63.95649 Y-5.6021
G1 Z0.635 F1346.5
Z0. F4039.5
X60.77647 Y-4.93131 F5000.
X59.86432 Y-4.93537
X60.8286 Y-3.69849
X60.77647 Y-4.93131
Z0.635 F5000.
G0 Z33.43082
X7.24994 Y-7.09031
G1 Z1.905 F1346.5
Z1.27 F4039.5
X1.02346 Y-7.08953 Z0.1721 F4039.5
X0.05397 Y-6.97654 Z0.
G02 X-5.72654 Y-0.38307 I1.30847 J6.97777 F5000.
G1 X-6.30507 Y32.52346
X-6.22654 Y33.52405
X-5.82196 Y35.02346
X-6.32192 Y77.27346
X-7.08664 Y171.77346
G02 X-0.47654 Y178.43311 I7.08185 J-0.41887
G1 X56.02346 Y178.44988
G02 X62.93096 Y171.52346 I-0.19917 J-7.10614
G1 X62.29021 Y112.77346
X61.97812 Y35.02346
X62.27346 Y34.08656
X62.43117 Y33.02346
X61.86884 Y-0.47654
G02 X54.52346 Y-7.09626 I-7.08075 J0.47179
G1 X1.02346 Y-7.08953
X0.05397 Y-6.97654
Z0.635 F5000.
G0 Z43.24417
(Parallel Finishing)
(Router Straight Flute 13mm Carbide Tipped)
X23.72943 Y-3.96
G1 Z33.19455 F1346.5
Z32.59455 F4039.5
X25.94 Z32.61289 F5000.
X29.19 Z32.61285
X30.27386 Z32.60668
X30.95465 Y-3.7975 Z32.60942
X32.997 Y-3.31 Z32.59438
X35.72014 Y-2.66 Z32.54648
X33.14775 Z32.60122
X30.71025 Z32.62695
X27.46025 Z32.64214
X26.74932 Z32.64177
X28.70599 Y-1.36 Z32.66556
X32.44 Z32.63025
X33.2525 Z32.61817
X36.14227 Z32.5467
X37.56225 Y-1.28661 Z32.3825
X37.7651 Y-1.27612 Z32.3425
X38.37367 Y-1.24467 Z32.20689
X38.57652 Y-1.23418 Z32.13986
X39.59079 Y-1.18176 Z31.77416
X39.79365 Y-1.17128 Z31.6818
X40.50364 Y-1.13458 Z31.31486
X41.92362 Y-1.06119 Z30.30077
X42.83646 Y-1.01401 Z29.40594
X43.24217 Y-0.99304 Z28.91694
X51.28027 Y-0.57758 Z16.9146
X51.30562 Y-0.57627 Z16.91008
X51.88883 Y-0.54613
X53.99344 Y-0.43735 Z13.73895
X56.32603 Y-0.31679 Z10.24404
X57.03579 Y-0.28011 Z9.08366
X58.54401 Y-0.20215 Z6.36543
X59.78609 Y-0.13795 Z3.79106
X60.58456 Y-0.09668 Z1.92813
X61.29432 Y-0.06 Z0.00168
X60.56963 Z1.96724
X59.78252 Z3.80092
X58.53838 Z6.38308
X57.1165 Z8.96055
X56.304 Z10.28834
X51.91142 Z16.91008
X51.32744
X51.30205 Z16.92087
X44.52275 Z27.09803
X43.3167 Z28.91904
X42.89775 Z29.42853
X42.03447 Z30.27915
X41.88213 Z30.39375
X40.58721 Z31.32375
X39.85088 Z31.70816
X39.64775 Z31.79331
X38.53057 Z32.19881
X37.71807 Z32.38054
X36.24541 Z32.55535
X33.96025 Z32.62126
X32.33525 Z32.65039
X29.89775 Z32.68492
X28.27275 Z32.70151
X26.64775 Z32.70631
X25.02275 Z32.70088
X23.39775 Z32.68452
X21.77275 Z32.6532
X20.96025 Z32.62776
X20.14775 Z32.58462
X18.44658 Z32.38708
X17.65947 Z32.21001
X17.50713 Z32.15832
X16.36455 Z31.73899
X15.55205 Z31.31472
X14.13017 Z30.28655
X13.2415 Z29.40685
X12.83525 Z28.91322
X10.39775 Z25.24039
X4.8626 Z16.93218
X4.83721 Z16.91008
X4.25322
X4.24053 Z16.90641
X2.27275 Z13.92458
X-0.16475 Z10.26147
X-0.97725 Z8.92932
X-2.39912 Z6.34591
X-3.59169 Z3.87074
X-4.42652 Z1.93202
X-5.13709 Z0.00168
X-5.16095 Y1.24
X-4.45258 Z1.91359
X-4.32562 Z2.19394
X-3.71625 Z3.6175
X-3.61469 Z3.8436
X-2.39594 Z6.36687
X-0.97406 Z8.93796
X-0.26313 Z10.102
X-0.06 Z10.41908
X3.19 Z15.31342
X4.24371 Z16.91008
X4.815
X4.84039 Z16.94187
X12.1275 Z27.88637
X12.73687 Z28.80836
X12.83844 Z28.95339
X13.24469 Z29.44534
X14.10797 Z30.29423
X15.47906 Z31.2928
X15.58062 Z31.35559
X16.29156 Z31.72628
X16.39312 Z31.77281
X17.61187 Z32.2217
X18.47516 Z32.41557
X20.15094 Z32.61122
X21.065 Z32.66137
X22.69 Z32.70417
X24.315 Z32.72681
X26.7525 Z32.73856
X29.19 Z32.72678
X32.26227 Z32.67463
X34.26812 Z32.63075
X36.35016 Z32.56389
X37.82281 Z32.37534
X38.63531 Z32.18176
X39.7525 Z31.76971
X40.15875 Z31.56929
X40.69195 Z31.28023
X42.07574 Z30.27166
X42.90094 Z29.45654
X43.35797 Z28.89681
X45.44 Z25.76327
X51.33062 Z16.92082
X51.35602 Z16.91008
X51.91461 Z16.90972
X53.565 Z14.40639
X56.40875 Z10.12659
X57.23394 Z8.76043
X58.56368 Z6.34695
X59.80048 Z3.78705
X59.92416 Z3.51738
X60.6044 Z1.92831
X60.66624 Z1.77167
X61.31805 Z0.00168
X61.34179 Y2.54
X60.67119 Z1.81423
X60.01104 Z3.35544
X58.72881 Z6.03373
X58.53838 Z6.40857
X57.31963 Z8.61441
X57.1165 Z8.96695
X56.71025 Z9.63458
X56.304 Z10.28777
X54.27275 Z13.34035
X51.91142 Z16.91008
X51.37822
X51.35283 Z16.93034
X44.52275 Z27.18479
X43.43096 Z28.83224
X42.99932 Z29.3765
X42.89775 Z29.49037
X42.11064 Z30.26802
X40.76494 Z31.25645
X40.66338 Z31.31751
X39.90166 Z31.7288
X38.7083 Z32.1727
X38.02275 Z32.34509
X37.79424 Z32.3919
X37.10869 Z32.48619
X36.60088 Z32.54953
X36.44853 Z32.57276
X33.96025 Z32.65984
X31.52275 Z32.71859
X29.89775 Z32.75136
X28.27275 Z32.76681
X26.64775 Z32.77073
X25.02275 Z32.76444
X23.39775 Z32.74705
X21.77275 Z32.71404
X20.96025 Z32.6868
X20.09697 Z32.63025
X18.42119 Z32.43054
X17.60869 Z32.24579
X16.69463 Z31.90944
X16.28838 Z31.75242
X15.57744 Z31.37928
X15.47588 Z31.32117
X14.8665 Z30.88103
X14.02861 Z30.2534
X13.2415 Z29.47302
X12.83525 Z28.98583
X4.80864 Z16.93723
X4.78484 Z16.91008
X4.25322
X4.24053 Z16.90693
X2.27275 Z13.92462
X-0.16475 Z10.26086
X-0.97725 Z8.93466
X-2.196 Z6.72968
X-2.39912 Z6.37451
X-3.468 Z4.15706
X-3.65353 Z3.78814
X-4.58112 Z1.63236
X-5.18481 Z0.00168
X-5.20867 Y3.84
X-4.55414 Z1.7631
X-4.22406 Z2.47943
X-3.71625 Z3.66573
X-3.61469 Z3.89056
X-3.31 Z4.49823
X-2.39594 Z6.39426
X-1.98969 Z7.10202
X-0.97406 Z8.94291
X-0.06 Z10.41841
X3.19 Z15.31352
X4.24371 Z16.91008
X4.73883
X4.76422 Z16.91356
X12.1275 Z27.97325
X12.73687 Z28.89524
X13.14312 Z29.39999
X13.98102 Z30.23986
X14.97125 Z30.98824
X15.3775 Z31.28095
X15.58062 Z31.40629
X16.29156 Z31.77609
X16.79937 Z31.97558
X17.63727 Z32.27817
X18.42437 Z32.45575
X20.2525 Z32.67229
X21.065 Z32.72054
X21.8775 Z32.74727
X22.69 Z32.76603
X24.315 Z32.78991
X26.7525 Z32.80299
X29.19 Z32.79262
X30.815 Z32.76941
X32.03375 Z32.73657
X34.82672 Z32.64991
X36.57867 Z32.57914
X36.80719 Z32.54041
X37.16266 Z32.49574
X37.315 Z32.46937
X37.82281 Z32.39869
X38.05133 Z32.35696
X38.83844 Z32.14699
X39.98102 Z31.71282
X40.8316 Z31.23753
X41.98687 Z30.38314
X42.19 Z30.22546
X43.0025 Z29.4148
X43.5357 Z28.72099
X45.44 Z25.84974
X51.38141 Z16.93029
X51.4068 Z16.91008
X51.91461 Z16.90946
X53.565 Z14.40613
X56.40875 Z10.12385
X56.815 Z9.46576
X57.22125 Z8.78785
X57.52594 Z8.25563
X58.56368 Z6.37342
X58.87288 Z5.75904
X59.92416 Z3.56687
X60.17152 Z3.02414
X60.72808 Z1.72071
X61.36552 Z0.00168
X61.38909 Y5.14
X60.77275 Z1.65902
X60.21416 Z2.96324
X59.96025 Z3.51234
X58.94463 Z5.63351
X58.53838 Z6.43251
X57.52275 Z8.26726
X57.1165 Z8.97233
X56.50713 Z9.96903
X56.304 Z10.28565
X54.27275 Z13.33947
X51.91142 Z16.91008
X51.429
X51.40361 Z16.9398
X43.55791 Z28.72722
X43.10088 Z29.32447
X42.99932 Z29.45066
X42.21221 Z30.23355
X40.89189 Z31.22224
X40.02861 Z31.71035
X38.91142 Z32.13947
X38.09892 Z32.36325
X37.10869 Z32.52201
X36.90557 Z32.54771
X36.70244 Z32.5835
X36.44853 Z32.60007
X34.77275 Z32.67214
X31.52275 Z32.78686
X29.89775 Z32.81768
X28.27275 Z32.83204
X26.64775 Z32.83507
X25.02275 Z32.82792
X23.39775 Z32.80946
X21.77275 Z32.77465
X20.96025 Z32.74536
X20.554 Z32.7233
X20.24932 Z32.69656
X18.42119 Z32.47949
X17.60869 Z32.29596
X16.89775 Z32.03679
X16.28838 Z31.79688
X15.52666 Z31.40305
X15.37432 Z31.30932
X14.46025 Z30.63161
X13.92705 Z30.22028
X13.13994 Z29.43234
X12.73369 Z28.93042
X10.39775 Z25.41396
X4.73564 Z16.91368
X4.71025 Z16.91008
X4.24053 Z16.90703
X2.27275 Z13.92423
X-0.16475 Z10.25541
X-0.67256 Z9.42283
X-0.97725 Z8.93961
X-1.99287 Z7.1054
X-2.39912 Z6.40032
X-3.34433 Z4.44854
X-3.65353 Z3.83637
X-4.21008 Z2.54176
X-4.61204 Z1.66872
X-5.07584 Z0.40862
X-5.23236 Z0.00168
X-5.25605 Y6.44
X-4.64301 Z1.64006
X-4.09711 Z2.82423
X-3.71625 Z3.71395
X-3.61469 Z3.93752
X-3.10688 Z4.9483
X-2.39594 Z6.41743
X-1.78656 Z7.47514
X-0.97406 Z8.94786
X-0.8725 Z9.11506
X-0.56781 Z9.59063
X-0.06 Z10.41774
X3.19 Z15.31362
X4.24371 Z16.91008
X4.68805
X4.71344 Z16.92338
X12.53375 Z28.67479
X12.73687 Z28.97275
X13.14312 Z29.46804
X13.87945 Z30.20577
X14.565 Z30.7429
X14.97125 Z31.04939
X15.3775 Z31.34229
X16.19 Z31.77753
X16.79937 Z32.02576
X17.61187 Z32.32121
X18.44977 Z32.50813
X20.45562 Z32.74298
X21.065 Z32.77923
X21.8775 Z32.80795
X22.69 Z32.82775
X24.315 Z32.85292
X26.7525 Z32.86736
X29.19 Z32.85837
X30.815 Z32.83655
X31.6275 Z32.81812
X32.64312 Z32.78011
X35.28375 Z32.67039
X36.7818 Z32.59546
X38.20367 Z32.35698
X39.04156 Z32.1116
X40.10797 Z31.69481
X40.98395 Z31.18509
X42.29156 Z30.19265
X43.0025 Z29.4793
X43.10406 Z29.36277
X43.66266 Z28.61601
X45.44 Z25.93621
X51.43219 Z16.93975
X51.45758 Z16.91008
X51.91461 Z16.90919
X53.565 Z14.40587
X56.0025 Z10.73936
X56.61187 Z9.80429
X57.22125 Z8.79323
X57.72906 Z7.9114
X58.56368 Z6.39862
X59.0584 Z5.4208
X59.92416 Z3.61395
X60.35704 Z2.67535
X60.78992 Z1.66413
X60.9136 Z1.34656
X61.41265 Z0.00168
X61.43622 Y7.74
X60.87432 Z1.50382
X60.41729 Z2.57103
X59.96025 Z3.55943
X59.14775 Z5.25844
X58.53838 Z6.45645
X57.82744 Z7.74383
X57.1165 Z8.97772
X56.71025 Z9.64747
X56.304 Z10.2827
X54.27275 Z13.33875
X51.91142 Z16.91008
X51.47978 Z16.91115
X43.68486 Z28.6222
X43.10088 Z29.40803
X42.32646 Z30.18936
X41.04424 Z31.17091
X40.18096 Z31.68067
X39.08916 Z32.11347
X38.27666 Z32.35631
X36.85478 Z32.6073
X35.07744 Z32.70083
X34.16338 Z32.74059
X32.33525 Z32.82952
X31.52275 Z32.85489
X29.89775 Z32.88389
X27.46025 Z32.89955
X25.02275 Z32.89132
X23.39775 Z32.87177
X21.77275 Z32.83503
X20.96025 Z32.80329
X20.45244 Z32.76849
X18.3958 Z32.52288
X17.5833 Z32.33755
X16.69463 Z32.01214
X16.18682 Z31.79833
X16.08525 Z31.75141
X15.37432 Z31.36825
X14.8665 Z31.00128
X14.46025 Z30.69167
X13.81279 Z30.17491
X13.03838 Z29.38674
X12.73369 Z29.00659
X12.63213 Z28.86708
X10.39775 Z25.50075
X4.68486 Z16.92352
X4.65947 Z16.91008
X4.24053 Z16.90713
X2.27275 Z13.92384
X0.64775 Z11.48153
X-0.16475 Z10.24995
X-0.571 Z9.58891
X-0.97725 Z8.94456
X-1.68818 Z7.65739
X-2.39912 Z6.4235
X-3.09697 Z4.98452
X-3.65353 Z3.88422
X-4.0864 Z2.87839
X-4.7048 Z1.53707
X-5.07584 Z0.52998
X-5.27974 Z0.00168
X-5.30322 Y9.04 Z0.00169
X-4.73187 Z1.51702
X-3.97016 Z3.16903
X-3.71625 Z3.76218
X-3.61469 Z3.98448
X-2.95453 Z5.29299
X-2.4975 Z6.24156
X-2.39594 Z6.44061
X-1.48188 Z8.03236
X-0.8725 Z9.12284
X-0.36469 Z9.91881
X-0.06 Z10.41707
X3.19 Z15.31373
X4.24371 Z16.91008
X4.63727
X4.66266 Z16.93324
X12.63531 Z28.91362
X12.73687 Z29.04782
X13.04156 Z29.42566
X13.77789 Z30.17265
X14.565 Z30.80631
X14.97125 Z31.10952
X15.3775 Z31.39562
X16.11383 Z31.79073
X16.69781 Z32.03864
X17.61187 Z32.37001
X18.42437 Z32.55263
X20.55719 Z32.80429
X21.065 Z32.83734
X21.8775 Z32.86839
X22.69 Z32.88933
X24.315 Z32.91585
X25.94 Z32.92905
X27.565 Z32.93174
X29.19 Z32.92402
X30.815 Z32.90353
X31.6275 Z32.88621
X32.44 Z32.86032
X35.66461 Z32.69134
X36.95953 Z32.61553
X38.4068 Z32.343
X39.2193 Z32.08555
X40.23492 Z31.67636
X41.12359 Z31.1421
X42.39312 Z30.15984
X43.10406 Z29.4369
X43.15484 Z29.37837
X43.78961 Z28.51103
X45.44 Z26.02269
X51.50836 Z16.9111
X51.91461 Z16.90893
X53.565 Z14.40561
X56.0025 Z10.73835
X56.40875 Z10.11795
X56.815 Z9.47865
X57.22125 Z8.79862
X58.03375 Z7.38308
X58.56368 Z6.42256
X59.30576 Z4.95421
X59.92416 Z3.66103
X60.57348 Z2.25434
X60.9136 Z1.4562
X61.16095 Z0.80943
X61.45959 Z0.00168
X61.48293 Y10.34 Z0.00169
X61.179 Z0.8189
X60.97588 Z1.34861
X60.6458 Z2.12392
X59.96025 Z3.60651
X59.35088 Z4.88334
X58.7415 Z6.08804
X58.53838 Z6.48039
X58.03057 Z7.39668
X57.1165 Z8.9831
X56.81182 Z9.4871
X56.304 Z10.27975
X54.27275 Z13.33803
X51.91142 Z16.91008
X51.55596
X51.53057 Z16.92061
X43.81182 Z28.51718
X43.20244 Z29.35572
X43.10088 Z29.47247
X42.44072 Z30.14516
X41.17119 Z31.13461
X40.30791 Z31.66289
X39.26689 Z32.08744
X38.47978 Z32.34489
X38.22588 Z32.39064
X37.05791 Z32.62429
X35.38213 Z32.72949
X33.04619 Z32.86491
X32.33525 Z32.89915
X31.52275 Z32.92269
X29.89775 Z32.94999
X27.46025 Z32.96417
X25.02275 Z32.95464
X23.39775 Z32.93397
X21.77275 Z32.89513
X20.96025 Z32.86043
X20.50322 Z32.82323
X18.3958 Z32.57189
X17.60869 Z32.39368
X16.69463 Z32.06256
X16.08525 Z31.80196
X15.27275 Z31.35881
X14.46025 Z30.75651
X13.71123 Z30.14205
X13.03838 Z29.45465
X12.93682 Z29.33564
X12.63213 Z28.94747
X4.62139 Z16.91433
X4.60869 Z16.91008
X4.24053 Z16.90723
X2.27275 Z13.92346
X0.64775 Z11.48086
X-0.16475 Z10.24449
X-0.36787 Z9.91331
X-0.97725 Z8.94951
X-1.48506 Z8.03311
X-2.39912 Z6.44667
X-2.97329 Z5.27599
X-3.65353 Z3.93118
X-3.96272 Z3.21502
X-4.79756 Z1.40542
X-5.07584 Z0.65332
X-5.3267 Z0.00168
X-5.35018 Y11.64 Z0.00169
X-4.83344 Z1.36652
X-3.86859 Z3.45451
X-3.66547 Z3.92903
X-2.75141 Z5.74307
X-2.44672 Z6.37544
X-1.27875 Z8.40548
X-0.8725 Z9.13061
X-0.21234 Z10.16358
X-0.06 Z10.41381
X3.19 Z15.31383
X4.24371 Z16.91008
X4.58648
X11.315 Z27.00987
X12.53375 Z28.84855
X12.94 Z29.38198
X13.7525 Z30.20472
X14.36187 Z30.71036
X14.97125 Z31.16964
X15.27594 Z31.38947
X15.3775 Z31.44677
X16.19 Z31.87161
X16.62164 Z32.06085
X17.58648 Z32.41304
X18.42437 Z32.60067
X20.65875 Z32.86534
X21.065 Z32.89472
X21.8775 Z32.92856
X22.69 Z32.95075
X24.315 Z32.97868
X25.94 Z32.99285
X27.565 Z32.99639
X29.19 Z32.98959
X30.815 Z32.97037
X32.44 Z32.93007
X33.15094 Z32.8946
X35.48687 Z32.74552
X35.69 Z32.73642
X37.16266 Z32.63208
X37.315 Z32.59589
X37.51812 Z32.55829
X37.72125 Z32.51169
X38.58453 Z32.33695
X39.42242 Z32.04938
X40.36187 Z31.65791
X41.27594 Z31.08931
X42.50738 Z30.11365
X43.20562 Z29.39426
X43.91656 Z28.40605
X45.44 Z26.10917
X51.55914 Z16.92056
X51.58453 Z16.91008
X51.91461 Z16.90866
X53.565 Z14.40536
X56.0025 Z10.73734
X56.815 Z9.48177
X57.01812 Z9.15145
X58.23687 Z7.03884
X58.44 Z6.67067
X58.68736 Z6.20832
X59.49128 Z4.61597
X59.92416 Z3.70811
X60.78992 Z1.83333
X61.03728 Z1.24332
X61.50627 Z0.00169
X61.52941 Y12.94 Z0.00171
X61.07744 Z1.1934
X60.87432 Z1.6768
X59.75713 Z4.08761
X59.554 Z4.50824
X58.7415 Z6.11451
X58.53838 Z6.50432
X58.23369 Z7.04953
X57.1165 Z8.98849
X56.91338 Z9.32672
X56.304 Z10.2768
X54.27275 Z13.3373
X51.91142 Z16.91008
X51.59404 Z16.91102
X43.93877 Z28.41216
X43.25322 Z29.37374
X42.54228 Z30.11069
X41.32354 Z31.08328
X40.46025 Z31.62883
X39.47002 Z32.05402
X38.65752 Z32.33795
X38.53057 Z32.36086
X37.81963 Z32.51494
X37.26103 Z32.64058
X35.78838 Z32.7534
X33.14775 Z32.93174
X32.33525 Z32.96835
X31.52275 Z32.99029
X29.89775 Z33.01599
X27.46025 Z33.02873
X25.02275 Z33.01788
X23.39775 Z32.99604
X21.77275 Z32.95492
X20.96025 Z32.91648
X20.65557 Z32.88954
X18.37041 Z32.61523
X17.55791 Z32.4293
X16.59307 Z32.07544
X16.08525 Z31.84853
X15.27275 Z31.41325
X15.06963 Z31.27313
X14.46025 Z30.81832
X13.64775 Z30.14136
X12.93682 Z29.41227
X12.63213 Z29.02364
X12.53057 Z28.88717
X10.39775 Z25.6744
X4.55791 Z16.91008
X4.24053 Z16.90733
X2.27275 Z13.92307
X0.03838 Z10.56397
X-0.87568 Z9.12954
X-1.3835 Z8.23256
X-2.4499 Z6.38171
X-2.72593 Z5.81197
X-3.65353 Z3.97814
X-3.83905 Z3.55166
X-4.89032 Z1.27377
X-5.37341 Z0.00168
X-5.39663 Y14.24 Z0.00169
X-4.90961 Z1.27093
X-3.71625 Z3.85863
X-3.66547 Z3.97726
X-2.59906 Z6.08775
X-2.4975 Z6.29854
X-0.8725 Z9.13839
X-0.06 Z10.40835
X4.24371 Z16.91008
X4.51031
X4.5357 Z16.91485
X12.53375 Z28.93067
X12.83844 Z29.33087
X12.94 Z29.44798
X13.54937 Z30.08328
X14.36187 Z30.77495
X15.17437 Z31.37993
X15.3775 Z31.49792
X15.78375 Z31.7233
X15.98687 Z31.82864
X16.49469 Z32.06046
X17.0025 Z32.25086
X17.58648 Z32.46184
X18.37359 Z32.64046
X20.86187 Z32.93608
X21.065 Z32.9511
X21.8775 Z32.98844
X22.69 Z33.01201
X24.315 Z33.04142
X25.94 Z33.05657
X27.565 Z33.06096
X29.19 Z33.05508
X30.815 Z33.03708
X32.44 Z32.99938
X33.35406 Z32.9543
X36.19781 Z32.74654
X37.36578 Z32.64752
X38.76227 Z32.33074
X39.60016 Z32.02453
X40.36187 Z31.69402
X40.565 Z31.59307
X41.42828 Z31.03651
X42.62164 Z30.06746
X43.20562 Z29.45871
X43.30719 Z29.34201
X44.06891 Z28.26276
X45.44 Z26.19565
X51.62262 Z16.91099
X51.91461 Z16.9084
X53.565 Z14.4051
X56.0025 Z10.73633
X57.01812 Z9.1579
X58.50184 Z6.58252
X58.68736 Z6.23479
X59.6768 Z4.27773
X59.92416 Z3.7552
X61.00636 Z1.41232
X61.09911 Z1.1917
X61.55246 Z0.00175
X61.57551 Y15.54 Z0.00178
X61.10283 Z1.22925
X59.75713 Z4.13315
X58.58916 Z6.43622
X57.1165 Z8.99387
X56.71025 Z9.64062
X55.89775 Z10.89334
X54.27275 Z13.33658
X51.91142 Z16.91008
X51.65752
X51.63213 Z16.93959
X44.1165 Z28.23423
X43.304 Z29.38721
X42.69463 Z30.02764
X42.28838 Z30.3673
X41.47588 Z31.03195
X40.56182 Z31.62645
X39.64775 Z32.02861
X38.83525 Z32.33107
X37.43877 Z32.66066
X35.9915 Z32.78855
X33.14775 Z33.00439
X32.33525 Z33.03719
X31.52275 Z33.05771
X29.89775 Z33.0819
X27.46025 Z33.09322
X25.02275 Z33.08103
X23.39775 Z33.05799
X21.77275 Z33.01436
X20.96025 Z32.97087
X18.37041 Z32.66426
X17.60869 Z32.49129
X17.50713 Z32.46122
X16.4915 Z32.08598
X15.88213 Z31.80401
X15.17119 Z31.4071
X14.46025 Z30.87844
X14.25713 Z30.72104
X13.48271 Z30.05046
X12.83525 Z29.36873
X12.63213 Z29.09982
X12.429 Z28.82043
X4.50713 Z16.91502
X4.45635 Z16.91008
X4.24053 Z16.90743
X2.27275 Z13.92272
X0.03838 Z10.5633
X-0.87568 Z9.13732
X-2.39912 Z6.49302
X-2.55147 Z6.20384
X-3.65353 Z4.0251
X-4.98308 Z1.14211
X-5.41985 Z0.00168
X-5.44253 Y16.84
X-5.01117 Z1.12044
X-3.71625 Z3.91893
X-2.4975 Z6.33127
X-0.92328 Z9.0637
X-0.06 Z10.41264
X4.24371 Z16.91008
X4.47223
X11.315 Z27.18377
X12.43219 Z28.86871
X12.73687 Z29.27977
X12.83844 Z29.40631
X13.44781 Z30.0496
X14.15875 Z30.67049
X14.565 Z30.98758
X15.14898 Z31.42014
X15.78375 Z31.7801
X16.49469 Z32.11459
X17.56109 Z32.50488
X18.37359 Z32.68926
X20.96344 Z32.99737
X21.065 Z33.00601
X21.8775 Z33.04798
X22.69 Z33.07308
X24.315 Z33.10407
X25.94 Z33.12022
X27.565 Z33.12546
X29.19 Z33.12048
X30.815 Z33.10366
X32.44 Z33.06831
X33.40484 Z33.02497
X35.53766 Z32.85424
X35.79156 Z32.82753
X36.40094 Z32.77967
X37.51812 Z32.67114
X38.94 Z32.32477
X39.80328 Z31.98769
X40.64117 Z31.6085
X41.56793 Z30.9934
X42.7232 Z30.03417
X43.35797 Z29.36002
X44.22125 Z28.1197
X51.6734 Z16.92055
X51.68609 Z16.91008
X51.91461 Z16.90813
X53.565 Z14.40483
X56.0025 Z10.73548
X57.01812 Z9.16037
X58.62552 Z6.38125
X59.80048 Z4.06321
X61.19187 Z1.06121
X61.59842 Z0.00169
X61.62112 Y18.14
X61.21709 Z1.04559
X60.97588 Z1.55133
X59.85869 Z3.9674
X58.63994 Z6.36801
X58.33525 Z6.88403
X57.01494 Z9.16914
X55.89775 Z10.89252
X54.27275 Z13.33586
X51.91142 Z16.91008
X51.7083 Z16.91107
X44.52275 Z27.70854
X44.1165 Z28.31247
X43.40557 Z29.33737
X43.304 Z29.45166
X42.7581 Z30.03259
X41.62822 Z30.98064
X40.68877 Z31.60846
X39.85088 Z31.99393
X39.01299 Z32.32524
X37.71807 Z32.65464
X37.64189 Z32.67732
X36.34697 Z32.81208
X35.88994 Z32.84642
X35.58525 Z32.88149
X34.97588 Z32.93112
X34.67119 Z32.96072
X33.75713 Z33.03677
X33.14775 Z33.07593
X32.33525 Z33.10573
X31.52275 Z33.12496
X29.89775 Z33.14771
X27.46025 Z33.15763
X25.02275 Z33.14411
X23.39775 Z33.11981
X22.58525 Z33.10073
X21.77275 Z33.07338
X21.3665 Z33.05366
X20.90947 Z33.01613
X18.37041 Z32.71294
X17.53252 Z32.52103
X16.44072 Z32.1181
X15.679 Z31.7494
X15.09502 Z31.41467
X14.25713 Z30.78752
X14.054 Z30.61522
X13.36846 Z30.00452
X12.83525 Z29.43653
X12.73369 Z29.31762
X12.429 Z28.90539
X4.44365 Z16.91008
X4.24053 Z16.90753
X2.27275 Z13.92283
X-0.16475 Z10.25325
X-0.97725 Z8.97665
X-2.39912 Z6.5162
X-2.63317 Z6.08928
X-3.59169 Z4.19432
X-3.96272 Z3.42248
X-5.07584 Z1.01136
X-5.46548 Z0.00212
X-5.48848 Y19.44 Z0.00176
X-5.11273 Z0.96994
X-4.02094 Z3.32908
X-3.71625 Z3.96629
X-2.70063 Z5.97762
X-2.4975 Z6.35646
X-1.17719 Z8.64532
X-0.8725 Z9.15394
X-0.06 Z10.41507
X3.19 Z15.31416
X4.24371 Z16.91008
X4.40875
X4.42144 Z16.91564
X12.33062 Z28.80208
X12.73687 Z29.36338
X13.34625 Z30.01592
X14.15875 Z30.74144
X14.97125 Z31.3538
X15.3775 Z31.60314
X15.78375 Z31.83036
X16.44391 Z32.14614
X17.56109 Z32.5537
X18.32281 Z32.72703
X18.42437 Z32.74417
X21.065 Z33.05837
X21.8775 Z33.10712
X22.69 Z33.13396
X24.315 Z33.16661
X25.94 Z33.18379
X27.565 Z33.1899
X29.19 Z33.1858
X30.815 Z33.17011
X32.44 Z33.13692
X33.45562 Z33.09512
X34.21734 Z33.03658
X34.47125 Z33.00914
X34.95367 Z32.96964
X35.18219 Z32.94501
X35.63922 Z32.908
X36.19781 Z32.8474
X36.60406 Z32.81421
X37.74664 Z32.68403
X37.92437 Z32.63177
X39.14312 Z32.30805
X39.95562 Z31.97448
X40.76812 Z31.5913
X41.70758 Z30.95148
X42.82477 Z30.0017
X43.40875 Z29.37345
X44.22125 Z28.20113
X51.73687 Z16.91109
X51.91461 Z16.90787
X53.565 Z14.40457
X56.0025 Z10.73444
X57.01812 Z9.16824
X58.33844 Z6.88344
X58.68736 Z6.28772
X59.61496 Z4.45532
X59.80048 Z4.10932
X60.9136 Z1.71132
X61.28463 Z0.9303
X61.64382 Z0.00168
X61.66639 Y20.74 Z0.00169
X61.38213 Z0.7377
X61.28057 Z0.97489
X60.77275 Z2.03769
X59.85869 Z4.01448
X59.554 Z4.59206
X58.63994 Z6.38981
X58.13213 Z7.24195
X57.01494 Z9.177
X55.89775 Z10.89146
X54.27275 Z13.33514
X51.91142 Z16.91008
X51.78447
X51.75908 Z16.92068
X44.52275 Z27.7951
X43.50713 Z29.28299
X43.304 Z29.5205
X42.89775 Z29.96076
X41.76787 Z30.93723
X40.81572 Z31.59019
X40.02861 Z31.96846
X39.21611 Z32.3125
X38.75908 Z32.43453
X37.81963 Z32.69699
X36.62627 Z32.8411
X36.29619 Z32.86511
X35.58525 Z32.94608
X35.15361 Z32.98089
X34.77275 Z33.02144
X34.46807 Z33.04464
X34.06182 Z33.08888
X33.554 Z33.12546
X33.14775 Z33.14665
X32.33525 Z33.17398
X31.52275 Z33.19204
X29.89775 Z33.21342
X27.46025 Z33.22197
X25.02275 Z33.20709
X23.39775 Z33.18149
X22.58525 Z33.16133
X21.77275 Z33.13189
X21.3665 Z33.10967
X21.06182 Z33.08246
X18.42119 Z32.76769
X18.31963 Z32.75084
X17.55791 Z32.57738
X16.38994 Z32.15052
X15.679 Z31.80573
X15.01885 Z31.42083
X14.46025 Z31.00392
X14.054 Z30.68617
X13.2415 Z29.9452
X12.73369 Z29.39421
X12.63213 Z29.26652
X12.429 Z28.98157
X12.02275 Z28.38076
X4.39287 Z16.91582
X4.38017 Z16.91008
X4.24053 Z16.90763
X2.27275 Z13.92294
X-0.16475 Z10.25793
X-0.571 Z9.62779
X-0.97725 Z8.98315
X-1.3835 Z8.30209
X-2.60225 Z6.1737
X-2.84961 Z5.70834
X-3.59169 Z4.24128
X-4.21008 Z2.95667
X-5.1686 Z0.87975
X-5.44688 Z0.15403
X-5.51112 Z0.00168
X-5.53362 Y22.04 Z0.00169
X-5.44281 Z0.21979
X-5.18891 Z0.87436
X-4.32562 Z2.73923
X-3.71625 Z4.01366
X-2.90375 Z5.62398
X-2.4975 Z6.38022
X-1.48188 Z8.14196
X-0.8725 Z9.16168
X-0.46625 Z9.79495
X4.24371 Z16.91008
X4.35797
X12.33062 Z28.8886
X12.63531 Z29.31286
X12.73687 Z29.43212
X13.23199 Z29.97123
X13.57477 Z30.27921
X13.80328 Z30.48808
X13.95562 Z30.63522
X14.15875 Z30.80487
X14.97125 Z31.41682
X15.58062 Z31.7791
X16.36773 Z32.16821
X17.5357 Z32.59671
X18.37359 Z32.78576
X21.26812 Z33.12918
X21.8775 Z33.16578
X22.69 Z33.19462
X24.315 Z33.22905
X25.94 Z33.24728
X27.565 Z33.25426
X29.19 Z33.25104
X30.815 Z33.23646
X32.44 Z33.20525
X33.2525 Z33.1773
X33.86187 Z33.14073
X34.26812 Z33.1066
X34.62359 Z33.06621
X35.02984 Z33.03179
X35.38531 Z32.99212
X35.69 Z32.9676
X36.5025 Z32.87458
X36.70562 Z32.85995
X37.11187 Z32.81215
X37.94977 Z32.69874
X39.32086 Z32.3026
X40.15875 Z31.93721
X40.90777 Z31.56505
X41.85992 Z30.89825
X42.93902 Z29.9551
X43.51031 Z29.32366
X43.815 Z28.88102
X44.6275 Z27.68051
X51.78766 Z16.9207
X51.81305 Z16.91008
X51.91461 Z16.9076
X53.565 Z14.40431
X56.0025 Z10.73338
X57.01812 Z9.1761
X58.13531 Z7.24514
X58.68736 Z6.31419
X59.42944 Z4.84744
X59.80048 Z4.15543
X60.41888 Z2.82655
X61.40831 Z0.72367
X61.68877 Z0.00168
X61.71091 Y23.34 Z0.00169
X61.48369 Z0.58591
X61.38213 Z0.82453
X60.56963 Z2.52407
X59.85869 Z4.06157
X59.3001 Z5.11608
X58.7415 Z6.22038
X58.63994 Z6.4116
X57.82744 Z7.77615
X57.01494 Z9.18486
X55.89775 Z10.89041
X54.27275 Z13.33441
X51.91142 Z16.91008
X51.82256 Z16.91122
X44.52275 Z27.88117
X43.71025 Z29.0775
X43.50713 Z29.36649
X42.99932 Z29.92829
X41.90752 Z30.89381
X40.96807 Z31.55872
X40.25713 Z31.92021
X39.39385 Z32.30598
X38.02275 Z32.71385
X36.90557 Z32.87011
X36.60088 Z32.89549
X35.68682 Z33.00018
X35.38213 Z33.02496
X34.87432 Z33.08204
X34.56963 Z33.10855
X34.3665 Z33.13286
X33.75713 Z33.18545
X33.14775 Z33.21675
X32.33525 Z33.242
X31.52275 Z33.25898
X29.89775 Z33.27905
X28.27275 Z33.28646
X26.64775 Z33.2835
X25.02275 Z33.26999
X23.39775 Z33.24302
X22.58525 Z33.22168
X21.77275 Z33.18979
X21.26494 Z33.15456
X18.34502 Z32.80539
X17.50713 Z32.61278
X16.31377 Z32.17116
X15.679 Z31.85436
X15.39971 Z31.70423
X14.8665 Z31.37015
X14.054 Z30.75581
X13.16533 Z29.93941
X12.63213 Z29.35002
X12.22588 Z28.77398
X4.32939 Z16.91008
X4.24053 Z16.90773
X2.27275 Z13.92304
X-0.16475 Z10.25746
X-0.571 Z9.63557
X-0.97725 Z8.98965
X-1.68818 Z7.79645
X-2.60225 Z6.19891
X-3.03513 Z5.38854
X-3.59169 Z4.28824
X-4.51928 Z2.35712
X-5.26136 Z0.74813
X-5.50872 Z0.10891
X-5.5559 Z0.00169
X-5.57801 Y24.64
X-5.29047 Z0.72386
X-4.63031 Z2.14938
X-3.71625 Z4.06102
X-3.05609 Z5.36505
X-2.4975 Z6.4034
X-1.685 Z7.80856
X-0.8725 Z9.16818
X-0.46625 Z9.80273
X3.19 Z15.31436
X4.24371 Z16.91008
X4.2818
X4.30719 Z16.91644
X12.1275 Z28.66883
X12.53375 Z29.26176
X13.11773 Z29.92648
X13.95562 Z30.70737
X14.565 Z31.17612
X14.97125 Z31.47331
X15.3775 Z31.71958
X15.58062 Z31.83208
X16.29156 Z32.18885
X17.5357 Z32.64554
X18.37359 Z32.8337
X21.36969 Z33.19044
X21.8775 Z33.22385
X22.69 Z33.25505
X24.315 Z33.29138
X25.94 Z33.3107
X27.565 Z33.31855
X29.19 Z33.3162
X30.815 Z33.30269
X32.44 Z33.27332
X33.2525 Z33.24755
X33.86187 Z33.21507
X34.31891 Z33.1766
X34.77594 Z33.12327
X35.08062 Z33.09707
X35.58844 Z33.03922
X35.89312 Z33.00967
X36.90875 Z32.89445
X37.11187 Z32.87697
X38.1275 Z32.72112
X39.49859 Z32.29716
X40.15875 Z31.99517
X40.565 Z31.79374
X41.03473 Z31.54785
X42.01227 Z30.84502
X43.05328 Z29.90851
X43.56109 Z29.34168
X44.6275 Z27.76657
X51.85113 Z16.91124
X51.91461 Z16.90734
X53.565 Z14.40405
X56.20562 Z10.42207
X57.01812 Z9.18347
X57.83062 Z7.77679
X58.68736 Z6.34066
X59.30576 Z5.12422
X59.80048 Z4.20153
X60.54256 Z2.61138
X61.47015 Z0.66602
X61.73292 Z0.00168
X61.75472 Y25.94 Z0.00169
X61.58525 Z0.43374
X61.48369 Z0.67417
X60.26494 Z3.23008
X59.85869 Z4.10865
X59.14775 Z5.44372
X58.7415 Z6.24685
X58.63994 Z6.43339
X57.62432 Z8.13407
X57.01494 Z9.19169
X55.89775 Z10.88935
X54.27275 Z13.33362
X51.91142 Z16.91008
X51.88603
X51.86064 Z16.93989
X44.52275 Z27.96232
X43.60869 Z29.31903
X43.08818 Z29.90942
X42.05986 Z30.84249
X41.09502 Z31.54152
X40.46025 Z31.88112
X39.64775 Z32.26719
X38.429 Z32.6681
X38.20049 Z32.73393
X37.18486 Z32.89908
X37.00713 Z32.91417
X34.97588 Z33.14249
X34.77275 Z33.16032
X34.16338 Z33.22996
X33.554 Z33.26958
X33.14775 Z33.28635
X31.52275 Z33.32577
X29.89775 Z33.34459
X28.27275 Z33.35109
X26.64775 Z33.34727
X25.02275 Z33.33279
X23.39775 Z33.30439
X22.58525 Z33.28177
X21.77275 Z33.24688
X21.3665 Z33.21513
X18.31963 Z32.84895
X17.50713 Z32.66317
X16.26299 Z32.20358
X15.4251 Z31.77655
X14.8665 Z31.43316
X14.054 Z30.81737
X13.85088 Z30.64835
X13.03838 Z29.87859
X12.53057 Z29.29961
X12.02275 Z28.55407
X4.27861 Z16.91663
X4.24053 Z16.90783
X2.27275 Z13.92315
X-0.571 Z9.64334
X-0.97725 Z8.99615
X-1.99287 Z7.29081
X-2.60225 Z6.22411
X-3.22065 Z5.06873
X-3.59169 Z4.3352
X-4.82848 Z1.75757
X-5.35412 Z0.61652
X-5.50872 Z0.21335
X-5.59996 Z0.00169
X-5.62159 Y27.24 Z0.0017
X-5.54438 Z0.18168
X-5.37934 Z0.60082
X-4.935 Z1.55953
X-3.71625 Z4.10838
X-3.25922 Z5.0114
X-2.4975 Z6.42657
X-1.98969 Z7.3052
X-0.8725 Z9.17468
X-0.46625 Z9.80513
X-0.06635 Z10.40111
X-0.06 Z10.43626
X12.1275 Z28.75549
X12.53375 Z29.34374
X12.94 Z29.8093
X13.7525 Z30.59143
X13.95562 Z30.77316
X14.86969 Z31.46705
X15.3775 Z31.7778
X16.24078 Z32.22127
X17.51031 Z32.68855
X18.32281 Z32.8741
X21.47125 Z33.25141
X21.8775 Z33.28118
X22.69 Z33.31521
X24.23883 Z33.35207
X32.03375 Z33.35002
X33.2525 Z33.31727
X33.96344 Z33.28209
X34.36969 Z33.24659
X34.97906 Z33.17654
X35.28375 Z33.14684
X35.48687 Z33.1399
X36.90875 Z32.96972
X37.16266 Z32.929
X37.39117 Z32.90436
X38.33062 Z32.73583
X38.83844 Z32.57142
X39.7525 Z32.25564
X40.51422 Z31.88868
X41.17437 Z31.5216
X41.78375 Z31.07677
X42.19 Z30.76914
X43.15484 Z29.87603
X43.61187 Z29.35373
X43.815 Z29.05993
X45.44 Z26.62993
X56.21832 Z10.42859
X56.22467 Z10.3956
X57.01812 Z9.18886
X57.6275 Z8.13849
X58.68736 Z6.36494
X59.12024 Z5.51633
X59.80048 Z4.24764
X60.17152 Z3.45566
X61.532 Z0.60418
X61.77623 Z0.00168
X61.79759 Y28.54 Z0.00169
X61.58525 Z0.52382
X60.06182 Z3.71645
X59.85869 Z4.15574
X58.94463 Z5.87175
X58.7415 Z6.27332
X58.33525 Z6.96505
X57.31963 Z8.66827
X57.01494 Z9.19708
X56.31353 Z10.26219
X56.31035 Z10.33412
X44.52275 Z28.05003
X43.71025 Z29.26322
X43.20244 Z29.86333
X42.21221 Z30.79039
X41.22197 Z31.52418
X40.66338 Z31.8428
X39.77471 Z32.28469
X38.83525 Z32.6088
X38.429 Z32.75864
X37.6165 Z32.94961
X36.39775 Z33.09885
X35.9915 Z33.14383
X35.4583 Z33.15778
X34.3665 Z33.28501
X33.96025 Z33.31917
X33.24932 Z33.35207
X22.88994 Z33.35162
X22.58525 Z33.34154
X21.77275 Z33.30285
X21.46807 Z33.27544
X20.40166 Z33.14898
X20.14775 Z33.14351
X18.52275 Z32.94619
X17.48174 Z32.70453
X16.2376 Z32.246
X15.47588 Z31.85788
X15.27275 Z31.742
X14.8665 Z31.49093
X14.46025 Z31.18861
X13.85088 Z30.72305
X12.93682 Z29.84638
X12.429 Z29.24306
X12.02275 Z28.64088
X-0.15523 Z10.33559
X-0.1584 Z10.26398
X-0.571 Z9.64799
X-0.77412 Z9.3345
X-0.97725 Z9.00264
X-2.196 Z6.96145
X-2.60225 Z6.24931
X-3.40617 Z4.74893
X-3.59169 Z4.38216
X-5.13768 Z1.15802
X-5.44688 Z0.48491
X-5.64306 Z0.00169
X-5.66418 Y29.84
X-5.4682 Z0.47778
X-5.13813 Z1.18208
X-3.71625 Z4.15575
X-3.46234 Z4.65776
X-2.4975 Z6.44975
X-2.29438 Z6.80184
X-0.8725 Z9.18117
X-0.25043 Z10.12792
X-0.24408 Z10.24843
X3.16144 Z15.36768
X3.16461 Z15.41051
X12.43219 Z29.33394
X12.83844 Z29.82051
X13.7525 Z30.71462
X14.76812 Z31.49222
X15.3775 Z31.86944
X16.19 Z32.28975
X17.40875 Z32.73929
X17.815 Z32.84453
X18.22125 Z32.93758
X18.6275 Z32.99532
X19.84625 Z33.14118
X20.2525 Z33.15407
X21.67437 Z33.32227
X22.1568 Z33.35207
X34.03961 Z33.35071
X34.42047 Z33.31659
X35.79156 Z33.15383
X36.29937 Z33.14221
X37.72125 Z32.97204
X38.1275 Z32.89302
X38.53375 Z32.79996
X38.73687 Z32.74244
X39.95562 Z32.29291
X40.15875 Z32.19277
X40.565 Z31.9802
X40.97125 Z31.75389
X41.3775 Z31.49815
X42.39312 Z30.72263
X43.30719 Z29.82885
X43.71344 Z29.34417
X43.815 Z29.19885
X52.98736 Z15.41393
X52.99371 Z15.36652
X56.4024 Z10.2395
X56.40875 Z10.11927
X56.815 Z9.50804
X57.01812 Z9.19424
X57.32281 Z8.67014
X58.68736 Z6.38674
X58.93472 Z5.90845
X59.80048 Z4.29375
X61.65567 Z0.40175
X61.81858 Z0.00169
X61.83926 Y31.14
X61.66142 Z0.42656
X59.85869 Z4.20282
X58.7415 Z6.29978
X57.01494 Z9.20246
X56.49761 Z9.98699
X56.49443 Z10.14483
X53.02226 Z15.36665
X53.01592 Z15.41798
X43.81182 Z29.25065
X43.71025 Z29.38558
X43.304 Z29.86254
X42.4915 Z30.65734
X42.08525 Z30.98179
X41.47588 Z31.44747
X41.27275 Z31.58376
X40.8665 Z31.8388
X40.054 Z32.26393
X38.83525 Z32.71768
X38.63213 Z32.78458
X38.02275 Z32.92417
X37.81963 Z32.964
X36.39775 Z33.13418
X36.10417 Z33.15269
X34.43077 Z33.35207
X32.61455 Z33.35264
X31.25615 Z33.44932
X30.40715 Z33.47883
X29.55062 Z33.49687
X29.1043 Z33.52604
X28.31084 Z33.55413
X27.91411 Z33.55529
X27.51738 Z33.5476
X26.72392 Z33.50779
X26.52556 Z33.49362
X25.53374 Z33.47382
X25.13701 Z33.46022
X24.34355 Z33.41657
X23.52471 Z33.35207
X21.69658 Z33.35019
X19.97002 Z33.14604
X19.7415 Z33.13239
X18.31963 Z32.96222
X18.1165 Z32.92075
X17.50713 Z32.78116
X17.304 Z32.71218
X16.08525 Z32.25612
X15.27275 Z31.8301
X14.8665 Z31.57436
X14.66338 Z31.43605
X13.74932 Z30.73753
X12.83525 Z29.84796
X12.429 Z29.36769
X12.02275 Z28.76988
X3.13603 Z15.41453
X3.12969 Z15.36306
X-0.33931 Z10.14731
X-0.34248 Z9.9898
X-0.77412 Z9.34228
X-2.50068 Z6.45581
X-2.60225 Z6.27451
X-3.59169 Z4.4291
X-5.44688 Z0.55847
X-5.53964 Z0.35329
X-5.68498 Z0.00168
X-5.56025 Y31.22125 Z0.303
X-5.43552 Y31.3025 Z0.58677
X-3.68927 Y32.44 Z4.25947
X-2.54828 Z6.38345
X-0.8725 Z9.18767
X-0.42182 Z9.87073
X-0.41864 Z10.07385
X12.33062 Z29.23306
X12.43219 Z29.37151
X12.73687 Z29.73787
X12.94 Z29.95042
X13.7525 Z30.73996
X14.76812 Z31.51243
X15.3775 Z31.88579
X16.19 Z32.30128
X17.40875 Z32.75081
X17.815 Z32.85169
X18.22125 Z32.94474
X18.6275 Z32.99906
X19.9732 Z33.16198
X20.71905 Z33.30826
X21.4649 Z33.43844
X22.21075 Z33.54642
X22.77014 Z33.60905
X24.4483 Z33.77555
X25.26407 Z33.83582
X25.56707 Z33.89562
X25.94 Z33.95932
X26.7525 Z34.0604
X27.565 Z34.11227
X28.3775 Z34.11785
X29.19 Z34.0772
X30.0025 Z33.98792
X30.86578 Z33.83716
X31.22125 Z33.81605
X31.93219 Z33.75498
X33.60638 Z33.58721
X33.83966 Z33.56039
X34.30621 Z33.49762
X35.23932 Z33.34471
X36.19781 Z33.15809
X37.91168 Z32.94961
X38.59723 Z32.79258
X38.94 Z32.67904
X39.95562 Z32.30443
X40.15875 Z32.20912
X40.565 Z31.99655
X40.97125 Z31.77357
X41.3775 Z31.51782
X42.39312 Z30.74651
X42.59625 Z30.55487
X43.0025 Z30.15747
X43.40875 Z29.74813
X43.815 Z29.24586
X56.57061 Z10.07734
X56.57379 Z9.87391
X56.99273 Z9.24428
X58.72601 Z6.34372
X57.09534 Y32.84625 Z9.05517
X56.93227 Y32.88688 Z9.31757
X56.55518 Y32.98082 Z9.87249
X56.55008 Y32.98209 Z10.07878
X54.8124 Y33.415 Z12.61671
X53.50786 Y33.74 Z14.49268
X52.99053 Z15.37
X52.92705 Z15.40277
X43.73564 Z29.23466
X43.304 Z29.75428
X42.38459 Z30.65998
X41.33851 Z31.46703
X40.76613 Z31.8274
X39.97664 Z32.24421
X39.89769 Z32.28008
X38.63451 Z32.75055
X38.47661 Z32.79181
X37.81963 Z32.94515
X36.39775 Z33.41155
X35.58525 Z33.65537
X34.77275 Z33.85003
X33.96025 Z33.99636
X33.14775 Z34.09784
X31.57353 Z34.24744
X31.1165 Z34.35929
X30.71025 Z34.44083
X29.89775 Z34.55776
X29.08525 Z34.62611
X28.27275 Z34.65382
X27.46025 Z34.64421
X26.64775 Z34.5959
X25.83525 Z34.50358
X25.429 Z34.43901
X25.02275 Z34.35753
X24.54033 Z34.24094
X22.76299 Z34.06958
X22.12822 Z33.9832
X21.49346 Z33.86949
X20.85869 Z33.72723
X20.22393 Z33.55556
X18.29424 Z32.93483
X17.59599 Z32.77313
X17.46507 Z32.7313
X16.2376 Z32.27284
X15.32353 Z31.7906
X14.77764 Z31.44106
X13.76201 Z30.65471
X12.82256 Z29.72602
X12.39092 Z29.19965
X3.2249 Z15.40344
X3.16142 Z15.37648
X3.14873 Z15.36505
X2.75517 Z14.65611
X-0.17779 Y34.21861 Z10.07865
X-0.18168 Y34.21925 Z9.87402
X-0.60568 Y34.28844 Z9.20319
X-2.22387 Y34.5525 Z6.35683
X-3.21968 Y34.715 Z4.3943
X-3.34415 Y34.73531 Z4.13439
X-4.85342 Y34.9816 Z0.77726
X-5.08682 Y35.01969 Z0.29285
X-5.21129 Y35.04 Z0.00171
X-5.13813 Z0.1808
X-4.935 Z0.6108
X-3.31 Z3.97773
X-3.15448 Z4.28475
X-2.04047 Z6.35181
X-0.30756 Z9.25163
X-0.03461 Z9.66285
X0.09234 Z9.87064
X0.11773 Z10.08843
X0.77789 Z11.08181
X3.16461 Z15.30958
X3.19 Z15.32603
X3.27887 Z15.35584
X12.38141 Z29.07418
X12.81305 Z29.59911
X13.70172 Z30.49553
X13.7525 Z30.54139
X14.74273 Z31.33359
X15.27594 Z31.69256
X16.19 Z32.22412
X16.39312 Z32.33373
X16.90094 Z32.58155
X18.42437 Z33.30834
X18.6275 Z33.4012
X19.13531 Z33.60722
X20.2525 Z34.02071
X20.65875 Z34.15217
X21.065 Z34.26539
X21.47125 Z34.36259
X21.8775 Z34.44448
X22.69 Z34.56798
X23.09625 Z34.61162
X24.51812 Z34.74152
X24.72125 Z34.78465
X25.1275 Z34.85816
X25.94 Z34.96345
X26.7525 Z35.02744
X27.565 Z35.05918
X28.3775 Z35.06297
X29.19 Z35.03904
X30.0025 Z34.98466
X30.815 Z34.89157
X31.22125 Z34.82623
X31.6275 Z34.7448
X33.2525 Z34.59612
X34.065 Z34.48731
X34.8775 Z34.32498
X35.28375 Z34.22066
X35.69 Z34.09892
X36.09625 Z33.95794
X37.11187 Z33.57799
X37.315 Z33.49708
X37.72125 Z33.31628
X39.54937 Z32.44094
X39.7525 Z32.33721
X40.10797 Z32.13662
X40.565 Z31.86975
X41.02203 Z31.59147
X41.42828 Z31.3164
X42.43121 Z30.51008
X43.35797 Z29.57354
X43.77691 Z29.05829
X52.86676 Z15.3598
X52.87945 Z15.34814
X52.95562 Z15.31697
X56.0025 Z10.23228
X57.22125 Z8.04816
X58.23687 Z6.3002
X58.44 Z5.92891
X59.42944 Z4.07339
X61.28463 Z0.22669
X61.37739 Z0.00168
X61.38107 Y36.34
X61.28057 Z0.24473
X59.35088 Z4.22397
X58.33525 Z6.12122
X57.52275 Z7.51809
X55.89775 Z10.38205
X53.36186 Z14.54617
X53.35869 Z14.72312
X43.73564 Z29.16075
X43.29131 Z29.70547
X42.33916 Z30.68956
X42.18682 Z30.82341
X41.17119 Z31.67972
X40.8665 Z31.9069
X40.35869 Z32.27267
X39.34307 Z32.92089
X39.03838 Z33.0942
X37.41338 Z33.92519
X37.21025 Z34.01829
X35.9915 Z34.5105
X35.58525 Z34.64825
X35.179 Z34.76421
X34.77275 Z34.86027
X33.96025 Z35.00463
X33.14775 Z35.09778
X31.52275 Z35.23829
X30.71025 Z35.28997
X29.99932 Z35.30793
X29.08525 Z35.35142
X28.27275 Z35.36611
X27.46025 Z35.3607
X26.64775 Z35.33436
X26.08916 Z35.30483
X25.83525 Z35.30044
X25.02275 Z35.26413
X22.9915 Z35.0919
X22.58525 Z35.04987
X21.77275 Z34.92923
X21.3665 Z34.84765
X20.96025 Z34.74954
X20.554 Z34.63191
X20.14775 Z34.49228
X18.929 Z33.99925
X18.57353 Z33.83028
X17.10088 Z33.07538
X16.89775 Z32.96304
X15.78057 Z32.25419
X15.23467 Z31.86166
X14.96807 Z31.66306
X13.85088 Z30.72178
X13.64775 Z30.51722
X12.80986 Z29.64619
X12.37822 Z29.10873
X2.79961 Z14.72549
X2.79326 Z14.57893
X0.2415 Z10.13243
X-0.16475 Z9.45191
X-2.09443 Z6.28663
X-3.22065 Z4.18737
X-5.13768 Z0.23076
X-5.23064 Z0.00172
X-5.24936 Y37.64 Z0.00166
X-5.13813 Z0.27161
X-3.20844 Z4.23583
X-2.09125 Z6.31591
X-0.06 Z9.62618
X1.565 Z12.39087
X2.69806 Z14.34314
X2.70123 Z14.83446
X2.72027 Z14.87762
X4.0025 Z16.78666
X8.8775 Z24.10558
X12.48297 Z29.49158
X12.94 Z30.06042
X13.95562 Z31.13349
X14.05719 Z31.22946
X15.17437 Z32.19799
X15.78375 Z32.65925
X16.19 Z32.93547
X16.90094 Z33.40809
X17.10406 Z33.52543
X18.57672 Z34.32042
X18.83062 Z34.44366
X19.89703 Z34.90206
X20.2525 Z35.03127
X20.65875 Z35.15242
X21.065 Z35.25087
X21.8775 Z35.39697
X22.79156 Z35.49971
X24.72125 Z35.65783
X25.1275 Z35.68112
X25.73688 Z35.70235
X27.565 Z35.73077
X28.78375 Z35.72958
X30.40875 Z35.70397
X30.815 Z35.69287
X31.72906 Z35.64006
X33.65875 Z35.47776
X34.065 Z35.43279
X34.8775 Z35.30579
X35.28375 Z35.21849
X35.69 Z35.11167
X36.09625 Z34.97994
X36.29937 Z34.90271
X37.315 Z34.46535
X37.61969 Z34.31767
X39.14312 Z33.49282
X39.42242 Z33.31784
X40.33648 Z32.70363
X41.02203 Z32.1819
X42.08844 Z31.25466
X42.24078 Z31.10691
X43.20562 Z30.08756
X43.70074 Z29.4671
X46.2525 Z25.64873
X47.065 Z24.44279
X48.69 Z22.01183
X52.34625 Z16.52102
X53.45074 Z14.87924
X53.46661 Z14.83813
X53.46979 Z14.27676
X56.0025 Z10.1715
X56.815 Z8.7378
X58.44 Z5.92245
X59.42944 Z4.06319
X61.28463 Z0.24628
X61.38427 Z0.00168
X61.38748 Y38.94
X61.28057 Z0.26476
X59.35088 Z4.21671
X58.23369 Z6.30365
X57.1165 Z8.19241
X55.89775 Z10.32207
X53.57768 Z14.01425
X53.57451 Z15.01038
X53.54912 Z15.06448
X52.64775 Z16.40213
X47.3665 Z24.35455
X46.14775 Z26.16596
X43.65947 Z29.89077
X43.15166 Z30.5258
X42.18682 Z31.56078
X42.08525 Z31.65771
X41.01885 Z32.60904
X40.35869 Z33.12402
X39.39385 Z33.79092
X38.02275 Z34.57695
X37.81963 Z34.68938
X37.56572 Z34.81463
X36.70244 Z35.21011
X36.39775 Z35.33168
X35.9915 Z35.45999
X35.58525 Z35.56021
X35.179 Z35.64009
X34.77275 Z35.70466
X33.85869 Z35.80676
X31.929 Z35.95975
X31.52275 Z35.98527
X30.71025 Z36.01757
X29.08525 Z36.04192
X28.27275 Z36.0478
X26.64775 Z36.03483
X25.429 Z36.01531
X25.02275 Z36.0009
X24.05791 Z35.94184
X22.179 Z35.7905
X21.77275 Z35.74683
X20.96025 Z35.62696
X20.554 Z35.54402
X20.14775 Z35.44001
X19.7415 Z35.30706
X19.38603 Z35.15882
X18.52275 Z34.76092
X18.31963 Z34.65568
X16.89775 Z33.84938
X16.69463 Z33.71949
X15.78057 Z33.08415
X15.12041 Z32.56617
X14.00322 Z31.56559
X12.9876 Z30.47571
X12.49248 Z29.85016
X9.58525 Z25.49898
X8.77275 Z24.29004
X7.14775 Z21.84844
X3.89775 Z16.94385
X2.61553 Z15.03244
X2.60283 Z14.98748
X2.59966 Z14.10865
X0.2415 Z10.12699
X-2.09443 Z6.33631
X-3.22065 Z4.23845
X-5.07584 Z0.43983
X-5.19952 Z0.17453
X-5.2679 Z0.00166
X-5.28644 Y40.24
X-5.18891 Z0.24882
X-3.31 Z4.08249
X-2.4975 Z5.61598
X-2.09125 Z6.36691
X-0.06 Z9.63413
X1.565 Z12.31618
X2.50445 Z13.88492
X2.50763 Z15.15413
X4.0025 Z17.39766
X8.065 Z23.56869
X10.5025 Z27.21705
X12.48297 Z30.19864
X12.99078 Z30.84479
X13.95562 Z31.89795
X15.06012 Z32.91264
X15.73297 Z33.44841
X16.59625 Z34.06586
X16.74859 Z34.16218
X18.06891 Z34.94318
X18.27203 Z35.05202
X19.18609 Z35.49194
X19.44 Z35.59421
X19.84625 Z35.72166
X20.2525 Z35.81844
X20.65875 Z35.89454
X21.065 Z35.95527
X21.8775 Z36.04254
X23.90875 Z36.19752
X24.315 Z36.2228
X25.1275 Z36.25553
X27.565 Z36.29125
X28.3775 Z36.29222
X30.815 Z36.26263
X31.6275 Z36.23669
X32.64312 Z36.17347
X34.47125 Z36.03142
X34.8775 Z35.9889
X35.69 Z35.87196
X36.09625 Z35.78968
X36.5025 Z35.68324
X36.90875 Z35.54174
X37.23883 Z35.39121
X38.02594 Z35.00653
X38.53375 Z34.71116
X39.54937 Z34.10484
X39.95562 Z33.81744
X40.53961 Z33.39454
X41.14898 Z32.90356
X42.19 Z31.94927
X42.59625 Z31.51085
X43.23102 Z30.81278
X43.70074 Z30.21105
X46.2525 Z26.36929
X47.065 Z25.16501
X48.69 Z22.7193
X51.94 Z17.77568
X53.68243 Z15.16004
X53.6856 Z13.76035
X55.90094 Z10.28726
X57.22125 Z7.99643
X58.23687 Z6.29655
X59.42944 Z4.05194
X61.28463 Z0.26647
X61.39068 Z0.00168
X61.39389 Y41.54
X61.28057 Z0.28489
X59.35088 Z4.20728
X58.23369 Z6.29985
X57.1165 Z8.16329
X55.89775 Z10.26314
X53.7935 Z13.51144
X53.79033 Z15.22411
X52.64775 Z16.94529
X49.39775 Z21.92763
X47.77275 Z24.4094
X46.14775 Z26.84303
X45.33525 Z28.08123
X43.73564 Z30.50038
X43.25322 Z31.1176
X42.28838 Z32.19176
X41.22197 Z33.19217
X40.6126 Z33.69244
X39.74932 Z34.33131
X38.32744 Z35.20825
X37.33721 Z35.71483
X37.21025 Z35.77079
X36.804 Z35.91051
X36.39775 Z36.0106
X35.9915 Z36.08607
X35.58525 Z36.14441
X34.6458 Z36.23706
X32.7415 Z36.37647
X32.33525 Z36.40031
X31.52275 Z36.43255
X30.71025 Z36.44992
X29.08525 Z36.47096
X27.46025 Z36.47329
X25.02275 Z36.44118
X24.21025 Z36.41474
X23.19463 Z36.35624
X21.3665 Z36.22101
X20.96025 Z36.18219
X20.14775 Z36.07266
X19.7415 Z35.99336
X19.33525 Z35.88801
X18.929 Z35.73816
X18.52275 Z35.53702
X17.91338 Z35.22512
X16.44072 Z34.31761
X15.52666 Z33.63996
X15.06963 Z33.26113
X14.8665 Z33.08496
X13.87627 Z32.15044
X12.91142 Z31.07428
X12.45439 Z30.48388
X10.39775 Z27.3661
X8.3665 Z24.31549
X3.89775 Z17.47267
X2.40605 Z15.22095
X2.40288 Z13.65689
X1.46025 Z12.10875
X-0.16475 Z9.47069
X-2.09443 Z6.38595
X-2.196 Z6.20542
X-3.22065 Z4.28878
X-5.19952 Z0.26978
X-5.30479 Z0.00168
X-5.32258 Y42.84 Z0.00164
X-5.23969 Z0.21493
X-5.13813 Z0.43398
X-3.31 Z4.13517
X-2.4975 Z5.66631
X-2.09125 Z6.41517
X-0.06 Z9.64079
X2.30133 Z13.4368
X2.3045 Z15.20848
X3.19 Z16.55045
X4.815 Z19.04857
X7.2525 Z22.82243
X8.8775 Z25.31093
X10.5025 Z27.76862
X12.43219 Z30.71362
X12.88922 Z31.30433
X13.85406 Z32.39904
X14.89508 Z33.39721
X15.42828 Z33.85077
X16.29156 Z34.51019
X16.39312 Z34.57898
X17.68805 Z35.40628
X17.815 Z35.47788
X18.6275 Z35.90863
X18.83062 Z35.99686
X19.03375 Z36.06564
X19.44 Z36.16804
X19.84625 Z36.24049
X20.2525 Z36.29489
X20.86187 Z36.35418
X23.09625 Z36.51058
X23.5025 Z36.53129
X24.315 Z36.56023
X25.94 Z36.5862
X27.565 Z36.60241
X28.32672 Z36.60283
X28.60602 Z36.59785
X29.59625 Z36.59522
X31.6275 Z36.56682
X32.44 Z36.54271
X33.50641 Z36.48717
X35.28375 Z36.36002
X35.69 Z36.32471
X36.5025 Z36.22003
X36.90875 Z36.13895
X37.315 Z36.0235
X37.51812 Z35.94268
X37.92437 Z35.7328
X38.43219 Z35.46137
X38.83844 Z35.21046
X39.90484 Z34.52223
X40.76812 Z33.86334
X41.35211 Z33.36359
X42.34234 Z32.41149
X43.35797 Z31.25572
X43.78961 Z30.69198
X46.2525 Z26.92888
X47.065 Z25.7098
X48.69 Z23.22771
X51.94 Z18.1946
X53.89825 Z15.20392
X53.90143 Z13.2721
X55.90094 Z10.22927
X57.22125 Z7.9751
X58.03375 Z6.63443
X58.23687 Z6.29156
X59.30576 Z4.29169
X61.28463 Z0.28716
X61.39672 Z0.00168
X61.4003 Y44.14
X61.28057 Z0.30599
X59.35088 Z4.19844
X58.33525 Z6.10516
X58.13213 Z6.47214
X57.1165 Z8.13965
X55.89775 Z10.20612
X54.00615 Z13.04242
X54.00298 Z15.11018
X53.99346 Z15.13686
X52.64775 Z17.20099
X48.58525 Z23.53516
X47.77275 Z24.79033
X46.14775 Z27.26064
X45.33525 Z28.52066
X43.81182 Z30.86026
X43.35478 Z31.46029
X42.38994 Z32.57476
X41.39971 Z33.54953
X40.81572 Z34.05785
X39.97783 Z34.71573
X38.63213 Z35.60849
X37.76885 Z36.08795
X37.6165 Z36.15507
X37.41338 Z36.22235
X37.21025 Z36.27406
X36.804 Z36.34906
X36.39775 Z36.402
X35.78838 Z36.45564
X33.96025 Z36.58142
X33.14775 Z36.62108
X31.31963 Z36.66094
X29.89775 Z36.67784
X27.67607 Z36.68532
X26.03838 Z36.67429
X24.21025 Z36.65097
X23.39775 Z36.63172
X22.58525 Z36.59956
X21.77275 Z36.54811
X20.14775 Z36.43392
X19.7415 Z36.39297
X19.33525 Z36.33671
X18.929 Z36.25511
X18.72588 Z36.19814
X18.47197 Z36.09959
X17.53252 Z35.57546
X16.18682 Z34.67917
X15.32353 Z33.99601
X14.76494 Z33.50264
X13.8001 Z32.55302
X12.83525 Z31.43471
X12.429 Z30.89657
X12.02275 Z30.28586
X9.9915 Z27.1545
X8.77275 Z25.3066
X7.554 Z23.42936
X3.4915 Z17.10406
X2.19976 Z15.11861
X2.19658 Z13.21695
X0.64775 Z10.76126
X-2.09443 Z6.43448
X-2.196 Z6.2553
X-3.22065 Z4.338
X-5.19952 Z0.35049
X-5.26136 Z0.20659
X-5.34039 Z0.00164
X-5.35818 Y45.44
X-5.23969 Z0.30939
X-3.31 Z4.18695
X-2.4975 Z5.71596
X-2.09125 Z6.46374
X-0.06 Z9.64984
X2.08868 Z12.99757
X2.09185 Z14.95039
X2.1109 Z15.00413
X3.19 Z16.66991
X4.815 Z19.21002
X7.2525 Z23.03963
X8.8775 Z25.56331
X10.09625 Z27.4247
X12.38141 Z30.96873
X12.83844 Z31.57662
X13.77789 Z32.68234
X14.78082 Z33.69091
X15.33941 Z34.18931
X16.15191 Z34.84858
X17.45953 Z35.748
X18.27203 Z36.22122
X18.42437 Z36.29046
X18.6275 Z36.35367
X19.03375 Z36.43366
X19.44 Z36.48325
X20.04937 Z36.53071
X21.8775 Z36.64956
X22.69 Z36.68035
X24.11187 Z36.7044
X25.94 Z36.72408
X28.3775 Z36.72917
X30.40875 Z36.72345
X32.44 Z36.7005
X34.065 Z36.66251
X34.77594 Z36.62367
X36.5025 Z36.50711
X36.90875 Z36.46922
X37.315 Z36.41196
X37.72125 Z36.31584
X37.94977 Z36.21905
X38.78766 Z35.72817
X40.10797 Z34.8143
X40.97125 Z34.10783
X41.47906 Z33.64714
X42.4566 Z32.65816
X43.40875 Z31.53335
X43.84039 Z30.95428
X48.69 Z23.45364
X51.94 Z18.34198
X53.565 Z15.81013
X54.08551 Z15.00891
X54.10455 Z14.96203
X54.10772 Z14.93832
X54.1109 Z12.81793
X55.79937 Z10.32804
X55.90094 Z10.17226
X57.22125 Z7.95354
X58.03375 Z6.63151
X58.23687 Z6.2869
X59.30576 Z4.28514
X61.28463 Z0.30827
X61.4035 Z0.00168
X61.40685 Y46.74
X61.28057 Z0.32742
X59.35088 Z4.19255
X58.33525 Z6.10089
X58.13213 Z6.47232
X57.1165 Z8.11545
X55.89775 Z10.15208
X54.21245 Z12.60612
X54.20928 Z14.73437
X54.19658 Z14.78405
X54.17119 Z14.83464
X52.64775 Z17.21366
X49.39775 Z22.36063
X47.3665 Z25.54822
X46.14775 Z27.42497
X45.33525 Z28.7042
X44.929 Z29.33017
X43.8626 Z30.99915
X43.38017 Z31.65447
X42.44072 Z32.77778
X41.46318 Z33.78545
X40.91728 Z34.28662
X40.11748 Z34.95592
X38.84795 Z35.86458
X38.02275 Z36.36452
X37.81963 Z36.43673
X37.6165 Z36.48028
X37.21025 Z36.53336
X36.60088 Z36.57795
X35.179 Z36.67077
X34.77275 Z36.69096
X33.96025 Z36.71252
X31.52275 Z36.73872
X30.90386
X30.88323 Z36.74254
X25.29253 Z36.74203
X22.58525 Z36.71723
X21.77275 Z36.70185
X20.96025 Z36.66574
X19.33525 Z36.56016
X18.929 Z36.5263
X18.52275 Z36.46621
X18.31963 Z36.41433
X18.21807 Z36.37568
X18.1165 Z36.32019
X17.35478 Z35.85527
X16.05986 Z34.92623
X15.22197 Z34.221
X14.71416 Z33.74899
X13.73662 Z32.73705
X12.78447 Z31.59389
X12.35283 Z31.00463
X10.804 Z28.59416
X10.39775 Z27.95468
X8.77275 Z25.44228
X7.14775 Z22.89935
X3.89775 Z17.76065
X2.01885 Z14.82562
X1.98393 Z14.72952
X1.98076 Z12.78453
X-0.16475 Z9.48914
X-2.09443 Z6.48068
X-2.196 Z6.30407
X-3.09697 Z4.61794
X-3.34433 Z4.14245
X-5.26136 Z0.29945
X-5.37538 Z0.00162
X-5.39249 Y48.04 Z0.00164
X-5.26508 Z0.3359
X-3.31 Z4.23573
X-2.14203 Z6.42892
X-0.06 Z9.6548
X1.86969 Z12.57326
X1.87286 Z14.44211
X1.88238 Z14.49693
X1.89508 Z14.53651
X1.94586 Z14.63012
X3.19 Z16.58358
X7.2525 Z23.0414
X8.8775 Z25.59772
X10.09625 Z27.48805
X12.33062 Z31.0007
X12.73687 Z31.56684
X12.94 Z31.82203
X13.7525 Z32.81159
X14.74273 Z33.8542
X15.27594 Z34.35693
X16.06305 Z35.03524
X17.31988 Z35.96719
X18.06891 Z36.4433
X18.11969 Z36.47007
X18.22125 Z36.50456
X18.42437 Z36.54486
X18.72906 Z36.57802
X20.65875 Z36.70051
X21.065 Z36.71556
X23.52789 Z36.7433
X33.04937 Z36.74126
X34.8775 Z36.72117
X35.69 Z36.69338
X37.51812 Z36.57472
X37.72125 Z36.55364
X37.92437 Z36.5203
X38.1275 Z36.45369
X38.94 Z35.93491
X40.18414 Z35.00868
X40.97125 Z34.32787
X41.52984 Z33.79383
X42.49469 Z32.77016
X43.40875 Z31.65503
X43.815 Z31.09489
X48.69 Z23.45189
X51.94 Z18.2708
X54.27594 Z14.57838
X54.30768 Z14.49082
X54.31402 Z14.45033
X54.3172 Z12.39541
X55.79937 Z10.2763
X56.0025 Z9.95147
X57.22125 Z7.93613
X58.13531 Z6.4681
X59.18208 Z4.51423
X59.42944 Z4.03337
X61.28463 Z0.32996
X61.41043 Z0.00168
X61.41387 Y49.34
X61.28057 Z0.34944
X59.14775 Z4.5766
X58.13213 Z6.47424
X57.1165 Z8.09443
X55.89775 Z10.09909
X54.42192 Z12.19187
X54.41875 Z14.11943
X54.4124 Z14.17495
X54.39971 Z14.22633
X54.37432 Z14.29029
X52.64775 Z17.0376
X48.58525 Z23.54892
X47.77275 Z24.83831
X46.14775 Z27.38527
X45.33525 Z28.68073
X43.91338 Z30.92817
X43.40557 Z31.6485
X42.4915 Z32.78295
X41.679 Z33.66632
X41.47588 Z33.8812
X41.06963 Z34.27918
X40.19365 Z35.06675
X38.96221 Z36.01658
X38.20049 Z36.52434
X38.12432 Z36.55476
X38.02275 Z36.57611
X37.71807 Z36.60622
X35.9915 Z36.71351
X35.58525 Z36.72513
X33.80791 Z36.74383
X22.179 Z36.7419
X20.554 Z36.7238
X20.14775 Z36.70913
X18.31963 Z36.59333
X18.1165 Z36.56287
X18.01494 Z36.52698
X17.22783 Z36.00083
X15.98369 Z35.03786
X15.27275 Z34.40273
X14.66338 Z33.80869
X13.64775 Z32.69891
X12.83525 Z31.69004
X12.429 Z31.12926
X12.22588 Z30.82408
X9.58525 Z26.65277
X8.16338 Z24.42324
X6.33525 Z21.51072
X3.08525 Z16.31333
X1.81572 Z14.30203
X1.77764 Z14.20906
X1.76177 Z14.11756
X1.75859 Z12.36618
X0.2415 Z10.11364
X-0.16475 Z9.49855
X-2.09443 Z6.5269
X-2.196 Z6.35179
X-3.09697 Z4.66568
X-3.34433 Z4.19175
X-5.26136 Z0.38162
X-5.40959 Z0.00165
X-5.4264 Y50.64 Z0.00168
X-5.29047 Z0.36131
X-3.31 Z4.28482
X-2.14203 Z6.47592
X-0.06 Z9.66254
X1.64752 Z12.16584
X1.65069 Z13.76584
X1.66656 Z13.86993
X1.69195 Z13.94362
X1.74273 Z14.03848
X3.19 Z16.34489
X7.65875 Z23.52655
X9.69 Z26.73828
X12.36871 Z30.99347
X12.81305 Z31.61834
X13.7398 Z32.78551
X14.565 Z33.69945
X14.76812 Z33.9149
X15.17437 Z34.32343
X15.98687 Z35.0737
X17.20562 Z36.05073
X17.96734 Z36.58185
X18.01812 Z36.59843
X18.17047 Z36.61598
X19.94781 Z36.72295
X21.8775 Z36.74367
X34.67437 Z36.74211
X36.29937 Z36.72161
X38.1275 Z36.60766
X38.22906 Z36.58664
X38.99078 Z36.05902
X40.15875 Z35.12333
X40.97125 Z34.38134
X41.52984 Z33.81955
X42.49469 Z32.74827
X43.40875 Z31.59298
X43.86578 Z30.94237
X48.69 Z23.27516
X53.15875 Z16.07667
X54.45367 Z14.00818
X54.47906 Z13.95747
X54.50445 Z13.88695
X54.52032 Z13.8064
X54.5235 Z11.99842
X55.79937 Z10.22486
X56.0025 Z9.90294
X56.815 Z8.577
X58.13531 Z6.46973
X59.18208 Z4.51085
X59.42944 Z4.03006
X61.28463 Z0.35132
X61.41758 Z0.00168
X61.42021 Y51.94
X61.28057 Z0.37213
X59.14775 Z4.57417
X58.13213 Z6.47428
X57.1165 Z8.0755
X55.89775 Z10.05124
X55.79619 Z10.20605
X54.62822 Z11.80685
X54.62505 Z13.44833
X54.60283 Z13.55317
X54.57744 Z13.61883
X54.47588 Z13.79261
X51.83525 Z18.04621
X48.58525 Z23.30691
X46.96025 Z25.90381
X46.14775 Z27.19104
X43.83721 Z30.89398
X43.38017 Z31.54581
X42.4915 Z32.68785
X41.47588 Z33.83892
X40.8665 Z34.45623
X40.25713 Z35.0366
X39.03838 Z36.05472
X38.27666 Z36.61194
X38.20049 Z36.62323
X36.44853 Z36.72706
X34.77275 Z36.74417
X21.16338 Z36.74197
X19.69072 Z36.72415
X18.01494 Z36.62425
X17.91338 Z36.60311
X17.304 Z36.15906
X16.89775 Z35.83561
X15.98369 Z35.07334
X15.17119 Z34.29998
X14.66338 Z33.77307
X13.74932 Z32.73908
X12.78447 Z31.50199
X12.32744 Z30.84467
X9.58525 Z26.46571
X7.96025 Z23.88379
X3.08525 Z16.01885
X1.6126 Z13.65671
X1.58721 Z13.60539
X1.56182 Z13.53663
X1.54277 Z13.442
X1.5396 Z11.97761
X0.03838 Z9.81573
X-2.14522 Z6.49272
X-3.09697 Z4.71209
X-3.34433 Z4.24015
X-5.07584 Z0.8196
X-5.3232 Z0.32053
X-5.44281 Z0.00165
X-5.45925 Y53.24 Z0.00167
X-5.31586 Z0.38516
X-3.31 Z4.3318
X-2.14203 Z6.51997
X-0.06 Z9.66832
X1.42852 Z11.79088
X1.4317 Z13.06429
X1.45074 Z13.17198
X1.46344 Z13.21128
X1.52691 Z13.33975
X3.19 Z16.01705
X7.65875 Z23.25343
X9.69 Z26.49877
X12.36871 Z30.79655
X12.83844 Z31.46857
X13.7525 Z32.65787
X14.565 Z33.59938
X15.17437 Z34.25614
X15.98687 Z35.05218
X17.0025 Z35.92989
X17.89117 Z36.62121
X18.01812 Z36.63217
X19.44 Z36.71473
X19.84625 Z36.72919
X21.47125 Z36.74367
X35.08062 Z36.74288
X36.60406 Z36.72442
X38.27984 Z36.62627
X38.30523 Z36.62171
X39.04156 Z36.05972
X40.23492 Z35.02771
X41.02203 Z34.25452
X41.3775 Z33.8771
X41.78375 Z33.42063
X42.4693 Z32.62259
X43.40875 Z31.39298
X43.86578 Z30.72685
X45.44 Z28.19846
X46.2525 Z26.8843
X47.065 Z25.59096
X49.09625 Z22.32247
X53.565 Z15.07046
X54.63141 Z13.35324
X54.68219 Z13.25982
X54.72027 Z13.14694
X54.73297 Z13.04543
X54.73614 Z11.61524
X55.79937 Z10.17802
X56.815 Z8.55124
X58.03375 Z6.63314
X58.13531 Z6.46692
X59.18208 Z4.50888
X61.28463 Z0.37338
X61.42378 Z0.00168
X61.42832 Y54.54
X61.28057 Z0.39517
X59.14775 Z4.57215
X58.13213 Z6.47162
X57.929 Z6.79679
X57.1165 Z8.05883
X55.84697 Z10.08402
X55.69463 Z10.29371
X54.84087 Z11.43293
X54.83769 Z12.70929
X54.81865 Z12.81313
X54.78057 Z12.91257
X54.679 Z13.0842
X52.64775 Z16.37251
X49.39775 Z21.66135
X47.77275 Z24.2912
X46.14775 Z26.89708
X43.82451 Z30.65049
X43.35478 Z31.33265
X42.42803 Z32.55891
X41.47588 Z33.68454
X40.96807 Z34.23516
X40.20635 Z35.00286
X39.01299 Z36.06929
X38.32744 Z36.61419
X38.30205 Z36.62267
X36.44853 Z36.72726
X34.77275 Z36.74417
X21.16338 Z36.74191
X19.69072 Z36.72493
X17.88799 Z36.62256
X17.8626 Z36.6132
X17.304 Z36.16898
X16.89775 Z35.82305
X15.93291 Z34.95363
X15.17119 Z34.18311
X14.66338 Z33.62849
X13.69853 Z32.48322
X12.78447 Z31.26986
X12.32744 Z30.59946
X7.14775 Z22.26698
X2.27275 Z14.35659
X1.40947 Z12.96393
X1.35869 Z12.85955
X1.32695 Z12.74022
X1.32378 Z12.71404
X1.32061 Z11.61361
X0.03838 Z9.82019
X-2.14522 Z6.53661
X-3.34433 Z4.2886
X-5.3232 Z0.40707
X-5.47558 Z0.00168
X-5.49144 Y55.84 Z0.00166
X-5.34125 Z0.40625
X-3.31 Z4.37878
X-2.14203 Z6.56203
X-0.06 Z9.67383
X1.2127 Z11.44027
X1.21588 Z12.35157
X1.23492 Z12.44995
X1.26031 Z12.52063
X1.31109 Z12.61742
X3.19 Z15.66112
X6.44 Z20.94926
X8.065 Z23.58398
X9.69 Z26.19318
X12.35602 Z30.49794
X12.83844 Z31.20246
X13.7525 Z32.42857
X14.71734 Z33.59149
X15.22516 Z34.1553
X15.98687 Z34.944
X17.15484 Z36.02626
X17.84039 Z36.59496
X17.86578 Z36.60487
X17.91656 Z36.61295
X19.84625 Z36.72141
X21.8775 Z36.74367
X34.67437 Z36.74222
X36.35016 Z36.72164
X38.22906 Z36.61612
X38.33062 Z36.60249
X38.38141 Z36.56538
X38.94 Z36.10091
X39.7525 Z35.35746
X40.26031 Z34.88154
X41.02203 Z34.08645
X41.3775 Z33.68892
X41.78375 Z33.20963
X42.4693 Z32.3763
X43.40875 Z31.10753
X43.86578 Z30.42802
X48.69 Z22.63574
X54.85992 Z12.59921
X54.9107 Z12.49277
X54.93609 Z12.40385
X54.94561 Z12.32705
X54.94879 Z11.25337
X55.79937 Z10.13245
X56.815 Z8.52851
X58.03375 Z6.63629
X58.13531 Z6.46478
X59.18208 Z4.50767
X61.28463 Z0.39596
X61.4315 Z0.00168
X61.43547 Y57.14
X61.28057 Z0.41852
X59.14775 Z4.57176
X58.08135 Z6.56435
X57.1165 Z8.04396
X55.79619 Z10.11518
X55.05669 Z11.07697
X55.05034 Z11.98257
X55.03447 Z12.06812
X55.00908 Z12.14465
X54.9583 Z12.24643
X49.39775 Z21.30863
X43.81182 Z30.35116
X43.35478 Z31.02715
X42.44072 Z32.27494
X41.47588 Z33.4646
X40.96807 Z34.04409
X40.20635 Z34.85717
X39.03838 Z35.97915
X38.35283 Z36.57017
X38.32744 Z36.57831
X38.22588 Z36.59416
X37.56572 Z36.63442
X35.9915 Z36.71757
X33.96025 Z36.74288
X22.179 Z36.74181
X20.554 Z36.72448
X19.94463 Z36.7062
X18.1165 Z36.60669
X17.91338 Z36.5885
X17.81182 Z36.55997
X17.10088 Z35.94296
X15.93291 Z34.81783
X15.17119 Z34.00191
X14.66338 Z33.41925
X13.69853 Z32.22623
X12.78447 Z30.9785
X12.32744 Z30.29817
X7.14775 Z21.92769
X1.20635 Z12.25546
X1.15557 Z12.1573
X1.13017 Z12.08738
X1.10796 Z11.97177
X1.10478 Z11.27302
X0.03838 Z9.82387
X-2.14522 Z6.57804
X-3.09697 Z4.80252
X-3.59169 Z3.85148
X-5.35412 Z0.41573
X-5.50725 Z0.00168
X-5.52306 Y58.44 Z0.0017
X-5.36664 Z0.42604
X-3.31 Z4.42456
X-2.19281 Z6.51394
X-2.09125 Z6.6785
X-0.06 Z9.68032
X0.99688 Z11.1098
X1.00006 Z11.56829
X1.0191 Z11.68031
X1.05719 Z11.79015
X1.10797 Z11.88759
X6.44 Z20.60297
X8.065 Z23.24543
X12.35602 Z30.18651
X12.83844 Z30.90249
X13.7525 Z32.16223
X14.565 Z33.18425
X14.97125 Z33.66934
X15.3775 Z34.13036
X15.96148 Z34.77028
X17.10406 Z35.90734
X17.78961 Z36.52617
X17.815 Z36.53752
X18.01812 Z36.56959
X18.47516 Z36.60053
X20.2525 Z36.69363
X21.26812 Z36.72211
X23.07086 Z36.73693
X23.09625 Z36.74094
X32.94781 Z36.74239
X35.28375 Z36.71599
X35.99469 Z36.69121
X37.92437 Z36.58855
X38.1275 Z36.57306
X38.33062 Z36.54552
X38.38141 Z36.52942
X38.94 Z36.02526
X39.34625 Z35.63519
X40.26031 Z34.72034
X41.07281 Z33.82046
X41.52984 Z33.28093
X42.44391 Z32.13064
X43.40875 Z30.79252
X43.86578 Z30.10409
X48.69 Z22.28554
X55.06305 Z11.86704
X55.11383 Z11.76178
X55.13922 Z11.68406
X55.15826 Z11.57987
X55.16461 Z10.90354
X55.79937 Z10.08932
X56.815 Z8.50525
X58.03375 Z6.63929
X58.44 Z5.89371
X59.18208 Z4.50734
X61.28463 Z0.41899
X61.43906 Z0.00168
X61.44313 Y59.74
X61.28057 Z0.44199
X59.14775 Z4.57194
X58.13213 Z6.4685
X58.03057 Z6.64663
X56.71025 Z8.65785
X55.79619 Z10.07308
X55.27251 Z10.73584
X55.26616 Z11.14292
X55.25029 Z11.24308
X55.21221 Z11.36621
X55.18682 Z11.42408
X55.08525 Z11.60008
X52.64775 Z15.61555
X48.58525 Z22.27934
X43.81182 Z30.02827
X43.34209 Z30.73175
X42.4915 Z31.92437
X41.47588 Z33.23098
X40.96807 Z33.8379
X40.23174 Z34.67015
X39.2415 Z35.69295
X38.92412 Z36.00336
X38.40361 Z36.49168
X38.32744 Z36.51249
X38.22588 Z36.52719
X38.02275 Z36.54694
X37.21025 Z36.59363
X35.58525 Z36.67594
X34.77275 Z36.7029
X32.7415 Z36.72929
X31.2871 Z36.7374
X31.26567 Z36.74141
X24.8958 Z36.74064
X24.87041 Z36.73693
X24.21025 Z36.73679
X21.77275 Z36.71014
X20.96025 Z36.69008
X18.52275 Z36.57087
X18.1165 Z36.54382
X17.91338 Z36.5227
X17.81182 Z36.50549
X17.76103 Z36.48572
X16.89775 Z35.66031
X15.88213 Z34.60777
X15.06963 Z33.68214
X14.66338 Z33.19345
X13.69853 Z31.95462
X12.73369 Z30.59835
X12.32744 Z29.98473
X7.14775 Z21.57827
X2.679 Z14.24379
X1.00322 Z11.48311
X0.95244 Z11.38023
X0.92705 Z11.31037
X0.89531 Z11.16507
X0.88896 Z10.95092
X0.03838 Z9.82749
X-1.78975 Z7.13916
X-2.196 Z6.52857
X-3.09697 Z4.8462
X-3.59169 Z3.89923
X-5.3232 Z0.54652
X-5.38504 Z0.41872
X-5.53845 Z0.00169
X-5.55365 Y61.04 Z0.00175
X-5.39203 Z0.44237
X-3.31 Z4.46837
X-2.19281 Z6.55508
X-2.09125 Z6.71577
X0.04156 Z9.83248
X0.81598 Z10.84147
X0.85406 Z10.94682
X0.93023 Z11.09867
X3.19 Z14.85398
X6.44 Z20.22372
X8.065 Z22.88752
X12.35602 Z29.86962
X12.83844 Z30.59684
X13.7525 Z31.8901
X14.565 Z32.95223
X15.16168 Z33.69193
X15.78375 Z34.41595
X16.39312 Z35.0786
X17.10406 Z35.82966
X17.73883 Z36.45044
X17.76422 Z36.46129
X17.815 Z36.473
X18.22125 Z36.516
X19.23687 Z36.56922
X21.065 Z36.65554
X22.69 Z36.69658
X25.53375 Z36.72436
X26.64062 Z36.72699
X26.69061 Z36.73136
X29.52008 Z36.72895
X31.52594 Z36.71808
X33.2525 Z36.70008
X34.065 Z36.68667
X34.8775 Z36.6648
X37.72125 Z36.53084
X38.1275 Z36.50163
X38.33062 Z36.47749
X38.43219 Z36.45
X39.19391 Z35.69804
X40.26031 Z34.56
X41.0982 Z33.57992
X41.52984 Z33.04661
X42.49469 Z31.78005
X43.40875 Z30.47924
X43.86578 Z29.78135
X48.69 Z21.91935
X51.94 Z16.56199
X55.24078 Z11.07718
X55.29156 Z10.97707
X55.34234 Z10.83433
X55.36773 Z10.71095
X55.38043 Z10.57283
X55.79937 Z10.04808
X56.815 Z8.48648
X58.03375 Z6.64435
X58.44 Z5.89353
X59.42944 Z4.0326
X61.28463 Z0.44286
X61.44696 Z0.00168
X61.45129 Y62.34
X61.28057 Z0.46599
X59.14775 Z4.57322
X58.03057 Z6.65173
X56.71025 Z8.63625
X55.7708 Z10.0654
X55.33916 Z10.59888
X54.27275 Z12.40143
X51.83525 Z16.48924
X49.39775 Z20.54066
X47.3665 Z23.88482
X43.81182 Z29.69732
X43.35478 Z30.39588
X42.4915 Z31.64
X41.47588 Z32.9965
X41.06963 Z33.50816
X40.25713 Z34.48209
X39.2415 Z35.60277
X38.45439 Z36.41167
X38.429 Z36.42288
X38.02275 Z36.47396
X37.31182 Z36.51423
X34.77275 Z36.62621
X33.14775 Z36.66615
X29.89775 Z36.69922
X27.46025 Z36.7033
X25.22588 Z36.68973
X23.39775 Z36.67159
X21.77275 Z36.63746
X20.554 Z36.59064
X18.52275 Z36.49786
X18.1165 Z36.47148
X17.81182 Z36.43845
X17.71025 Z36.40806
X17.10088 Z35.78793
X16.89775 Z35.57101
X15.88213 Z34.44909
X15.06963 Z33.47299
X14.46025 Z32.69224
X13.64775 Z31.6011
X12.73369 Z30.27988
X12.32744 Z29.65624
X8.77275 Z23.84495
X7.14775 Z21.17405
X5.52275 Z18.48249
X3.08525 Z14.41545
X1.38408 Z11.55881
X0.03838 Z9.82922
X-1.99287 Z6.87796
X-2.196 Z6.56975
X-3.09697 Z4.88919
X-3.59169 Z3.94783
X-5.38504 Z0.49561
X-5.56884 Z0.0018
X-5.58372 Y63.64
X-5.44281 Z0.38783
X-5.39203 Z0.51514
X-3.31 Z4.51202
X-2.19281 Z6.59558
X-2.14203 Z6.6798
X-0.06 Z9.68935
X0.34625 Z10.22001
X1.565 Z11.76583
X2.16168 Z12.53906
X3.19 Z14.2855
X5.6275 Z18.39458
X6.44 Z19.75441
X8.67437 Z23.46308
X12.35602 Z29.51666
X12.83844 Z30.25994
X13.7525 Z31.59277
X14.565 Z32.69904
X15.17437 Z33.48988
X15.93609 Z34.42217
X17.0025 Z35.6368
X17.68805 Z36.36316
X17.71344 Z36.37828
X17.815 Z36.40235
X18.22125 Z36.44264
X19.03375 Z36.48385
X21.065 Z36.5702
X22.69 Z36.61707
X24.72125 Z36.64429
X26.77789 Z36.66117
X29.19 Z36.66233
X32.44 Z36.63447
X34.065 Z36.60417
X34.8775 Z36.5795
X37.72125 Z36.45667
X38.1275 Z36.42884
X38.33062 Z36.40597
X38.43219 Z36.38547
X38.48297 Z36.36061
X39.2193 Z35.57619
X40.31109 Z34.32852
X41.07281 Z33.38833
X41.3775 Z32.99488
X41.78375 Z32.45193
X42.49469 Z31.47828
X43.40875 Z30.13835
X43.815 Z29.50859
X45.44 Z26.84052
X48.69 Z21.47432
X50.315 Z18.76143
X51.94 Z16.02662
X54.66949 Z11.38968
X55.79937 Z10.00726
X56.815 Z8.46702
X58.03375 Z6.64943
X59.42944 Z4.03531
X61.28463 Z0.46707
X61.45469 Z0.00168
X61.45945 Y64.94
X61.28057 Z0.49077
X59.14775 Z4.57566
X58.03057 Z6.65693
X57.52275 Z7.40679
X55.79619 Z9.9926
X53.96807 Z12.20534
X52.64775 Z14.47979
X51.02275 Z17.2578
X48.9915 Z20.69593
X47.77275 Z22.73917
X44.52275 Z28.13609
X43.81182 Z29.30923
X43.25322 Z30.1762
X42.38994 Z31.45346
X41.47588 Z32.72409
X40.96807 Z33.39288
X40.25713 Z34.2894
X39.13994 Z35.60446
X38.50517 Z36.30342
X38.47978 Z36.32182
X38.429 Z36.34049
X38.22588 Z36.37734
X38.02275 Z36.39778
X37.3626 Z36.43704
X34.94097 Z36.53393
X33.48418 Z36.57492
X31.51641 Z36.60072
X29.89775 Z36.61535
X27.57451 Z36.62051
X23.39775 Z36.58827
X21.77275 Z36.55128
X18.52275 Z36.42324
X18.1165 Z36.39524
X17.91338 Z36.37338
X17.71025 Z36.33086
X17.65947 Z36.29899
X17.10088 Z35.68455
X16.89775 Z35.45389
X15.88213 Z34.25558
X15.06963 Z33.22459
X14.46025 Z32.40583
X13.69853 Z31.34237
X12.83525 Z30.06053
X12.32744 Z29.26626
X10.39775 Z26.07513
X8.77275 Z23.3758
X6.7415 Z19.97435
X5.52275 Z17.91397
X2.93291 Z13.49732
X2.27275 Z12.64448
X1.46025 Z11.60926
X0.03838 Z9.82976
X-1.78975 Z7.2035
X-2.196 Z6.6091
X-3.09697 Z4.93066
X-5.41596 Z0.50221
X-5.59844 Z0.00177
X-5.61316 Y66.24 Z0.00174
X-5.44281 Z0.47
X-5.34125 Z0.67718
X-3.31 Z4.55417
X-2.19281 Z6.6345
X-2.09125 Z6.78875
X0.04156 Z9.83407
X1.565 Z11.71611
X2.3775 Z12.74077
X3.41852 Z14.07487
X3.44391 Z14.09405
X3.53277 Z14.13544
X3.54547 Z14.14949
X5.6275 Z17.74389
X6.44 Z19.13447
X8.47125 Z22.58088
X12.1275 Z28.70351
X12.43219 Z29.20271
X12.83844 Z29.84476
X13.7525 Z31.22464
X14.71734 Z32.5933
X15.17437 Z33.21229
X15.88531 Z34.13722
X17.0025 Z35.49812
X17.63727 Z36.22375
X17.66266 Z36.24715
X17.71344 Z36.27293
X17.815 Z36.30114
X18.22125 Z36.35724
X18.6275 Z36.38696
X19.54156 Z36.42636
X21.8775 Z36.51098
X22.38531 Z36.52399
X22.69 Z36.5419
X24.315 Z36.58214
X25.94 Z36.59024
X30.51031
X31.6275 Z36.58403
X32.44 Z36.57306
X33.2525 Z36.55117
X33.76031 Z36.52475
X35.08062 Z36.48512
X37.315 Z36.39901
X38.1275 Z36.33792
X38.33062 Z36.3062
X38.43219 Z36.28046
X38.48297 Z36.26064
X38.53375 Z36.2214
X39.24469 Z35.40428
X40.31109 Z34.10091
X40.97125 Z33.24108
X41.58062 Z32.41145
X42.49469 Z31.10537
X43.40875 Z29.71923
X43.91656 Z28.90554
X45.44 Z26.36274
X47.8775 Z22.26535
X48.69 Z20.88847
X50.72125 Z17.41398
X53.23492 Z13.05672
X54.3775 Z11.66923
X55.59625 Z10.21667
X55.79937 Z9.96846
X56.815 Z8.45026
X58.03375 Z6.65104
X59.42944 Z4.04066
X61.22279 Z0.61724
X61.28463 Z0.49208
X61.46352 Z0.00168
X61.4676 Y67.54
X61.28057 Z0.51589
X59.14775 Z4.57871
X58.03057 Z6.65718
X55.7708 Z9.99008
X54.27275 Z11.75575
X53.46025 Z12.73144
X52.44463 Z13.97815
X51.02275 Z16.47846
X49.39775 Z19.3061
X47.77275 Z22.10077
X45.33525 Z26.24467
X43.71025 Z28.97627
X43.304 Z29.62832
X42.4915 Z30.88143
X41.47588 Z32.36552
X40.8665 Z33.20789
X40.25713 Z34.02322
X39.13994 Z35.42948
X38.53057 Z36.15199
X38.429 Z36.20553
X38.22588 Z36.25664
X38.02275 Z36.28829
X37.21025 Z36.35627
X36.29619 Z36.39467
X33.96025 Z36.4753
X33.47783 Z36.48693
X33.14775 Z36.50735
X32.33525 Z36.54052
X30.91338 Z36.56778
X27.46025 Z36.57391
X25.02275 Z36.56481
X23.39775 Z36.52601
X22.58525 Z36.48402
X21.3665 Z36.44719
X19.33525 Z36.37484
X18.52275 Z36.327
X18.1165 Z36.28452
X17.91338 Z36.25081
X17.71025 Z36.19404
X17.65947 Z36.16787
X17.62139 Z36.13407
X16.89775 Z35.26872
X15.88213 Z33.98662
X15.06963 Z32.89296
X14.66338 Z32.32553
X13.69853 Z30.91757
X12.73369 Z29.42567
X12.429 Z28.93452
X12.02275 Z28.25828
X10.39775 Z25.51714
X7.96025 Z21.37261
X6.33525 Z18.57529
X5.52275 Z17.16544
X3.84697 Z14.23757
X3.44072 Z14.0448
X2.27275 Z12.57203
X1.46025 Z11.56467
X0.03838 Z9.83013
X-1.78975 Z7.23496
X-2.196 Z6.64778
X-3.59169 Z4.03861
X-5.38504 Z0.62515
X-5.44688 Z0.49923
X-5.62777 Z0.0017
X-5.64208 Y68.84 Z0.00167
X-5.44281 Z0.54745
X-3.31 Z4.59555
X-2.19281 Z6.67205
X-0.06 Z9.69673
X0.7525 Z10.69036
X1.565 Z11.66871
X2.3775 Z12.66706
X3.44391 Z13.9989
X4.19293 Z14.35999
X6.64312 Z18.6843
X8.065 Z21.16184
X10.5025 Z25.35656
X12.38141 Z28.55496
X12.94 Z29.46146
X13.80328 Z30.81409
X14.76812 Z32.24858
X15.3775 Z33.11218
X15.88531 Z33.81317
X17.0025 Z35.27096
X17.61187 Z36.02471
X17.66266 Z36.06788
X17.71344 Z36.09555
X17.815 Z36.13493
X18.01812 Z36.18604
X18.22125 Z36.22123
X18.6275 Z36.26883
X19.44 Z36.32425
X20.2525 Z36.35696
X23.12164 Z36.44674
X23.5025 Z36.46964
X24.315 Z36.50381
X25.94 Z36.53767
X27.15875 Z36.54729
X29.59625 Z36.54428
X30.815 Z36.52881
X32.44 Z36.48086
X33.04937 Z36.44641
X34.065 Z36.41908
X36.5025 Z36.33476
X37.315 Z36.28747
X37.72125 Z36.24951
X38.1275 Z36.19067
X38.33062 Z36.14208
X38.43219 Z36.10615
X38.53375 Z36.04733
X38.63531 Z35.92828
X39.14312 Z35.29902
X40.15875 Z33.97552
X40.565 Z33.42331
X40.97125 Z32.85984
X41.3775 Z32.27838
X42.19 Z31.07181
X42.49469 Z30.60956
X43.40875 Z29.16664
X43.815 Z28.4997
X45.84625 Z25.03199
X47.065 Z22.93467
X48.69 Z20.11515
X50.51812 Z16.9012
X52.06695 Z14.14705
X52.37164 Z13.99953
X53.565 Z12.55914
X54.3775 Z11.59722
X55.59625 Z10.1772
X55.79937 Z9.93229
X56.815 Z8.43449
X58.03375 Z6.65182
X59.42944 Z4.04764
X61.16095 Z0.76015
X61.28463 Z0.51767
X61.47191 Z0.00178
X61.47644 Y70.14 Z0.00184
X61.28057 Z0.5419
X59.14775 Z4.58276
X58.03057 Z6.65825
X57.929 Z6.81744
X57.52275 Z7.40218
X55.79619 Z9.91908
X55.69463 Z10.04393
X54.27275 Z11.68292
X53.46025 Z12.63692
X52.35576 Z13.95628
X51.6956 Z14.27634
X50.21025 Z16.94412
X49.39775 Z18.39375
X47.77275 Z21.26923
X45.7415 Z24.81994
X44.52275 Z26.93026
X43.71025 Z28.32519
X43.304 Z29.00102
X42.4915 Z30.3072
X41.46318 Z31.88894
X40.66338 Z33.05583
X40.25713 Z33.63275
X39.19072 Z35.07762
X38.55596 Z35.89354
X38.53057 Z35.9168
X38.429 Z35.98106
X38.22588 Z36.05694
X38.02275 Z36.10664
X37.6165 Z36.17253
X37.21025 Z36.21655
X36.39775 Z36.27328
X35.179 Z36.32093
X32.46221 Z36.39956
X31.52275 Z36.44636
X29.89775 Z36.48695
X28.27275 Z36.49882
X26.64775 Z36.49162
X25.83525 Z36.47939
X25.02275 Z36.45901
X24.21025 Z36.4283
X23.60088 Z36.39711
X21.77275 Z36.34542
X20.14775 Z36.2907
X19.33525 Z36.246
X18.52275 Z36.16884
X18.1165 Z36.10044
X17.91338 Z36.04809
X17.71025 Z35.96563
X17.60869 Z35.89016
X16.89775 Z34.97344
X15.83135 Z33.52482
X15.06963 Z32.43281
X14.56182 Z31.67751
X13.64775 Z30.26966
X12.83525 Z28.96521
X12.429 Z28.29004
X10.39775 Z24.79197
X8.3665 Z21.25163
X6.33525 Z17.66619
X4.55791 Z14.49682
X3.46611 Z13.9652
X3.44072 Z13.9444
X2.27275 Z12.50422
X1.46025 Z11.5208
X0.03838 Z9.82934
X-0.16475 Z9.5507
X-1.99287 Z6.97664
X-2.196 Z6.68447
X-3.59169 Z4.08123
X-5.44688 Z0.5711
X-5.65621 Z0.00171
X-5.67023 Y71.44 Z0.00173
X-5.4682 Z0.55893
X-3.31 Z4.63595
X-2.19281 Z6.7088
X-0.06 Z9.70045
X1.565 Z11.6234
X2.3775 Z12.59676
X3.4566 Z13.91263
X4.94195 Z14.6484
X6.44 Z17.3383
X8.065 Z20.2397
X9.69 Z23.11371
X12.1275 Z27.38159
X12.68609 Z28.3383
X13.34625 Z29.43027
X13.85406 Z30.25546
X14.76812 Z31.6872
X15.3775 Z32.60454
X15.78375 Z33.2031
X16.59625 Z34.35364
X17.10406 Z35.05438
X17.61187 Z35.72821
X17.71344 Z35.80696
X17.815 Z35.86093
X18.01812 Z35.93765
X18.22125 Z35.99246
X18.6275 Z36.06958
X19.44 Z36.16131
X20.2525 Z36.21535
X21.47125 Z36.26209
X23.5025 Z36.32157
X24.41656 Z36.34264
X25.1275 Z36.37595
X25.94 Z36.40149
X27.05719 Z36.42044
X29.19 Z36.41999
X30.815 Z36.38378
X31.83063 Z36.33933
X33.04937 Z36.31084
X34.8775 Z36.25658
X35.69 Z36.22647
X36.5025 Z36.17889
X37.315 Z36.10099
X37.72125 Z36.0391
X38.1275 Z35.94449
X38.33062 Z35.87065
X38.43219 Z35.81959
X38.53375 Z35.7474
X38.60992 Z35.65807
X39.14312 Z34.94356
X40.26031 Z33.37682
X40.97125 Z32.32826
X41.58062 Z31.3965
X42.39312 Z30.11557
X43.40875 Z28.44289
X43.815 Z27.75099
X45.44 Z24.90775
X47.065 Z22.0366
X49.09625 Z18.41011
X51.30523 Z14.42016
X52.32086 Z13.92563
X52.34625 Z13.90686
X53.565 Z12.46717
X55.59625 Z10.13765
X55.79937 Z9.89662
X56.815 Z8.41924
X57.98297 Z6.74262
X59.42944 Z4.05337
X61.16095 Z0.78471
X61.28463 Z0.54368
X61.48107 Z0.00193
X61.48592 Y72.74 Z0.002
X61.28057 Z0.56839
X59.14775 Z4.58834
X57.97979 Z6.75062
X55.79619 Z9.88558
X55.69463 Z10.00922
X53.8665 Z12.07607
X52.31767 Z13.87847
X51.11162 Z14.47367
X50.09599 Z16.04405
X47.16338 Z21.34518
X44.82744 Z25.51305
X43.71025 Z27.48784
X43.0501 Z28.61812
X42.28838 Z29.89223
X41.37432 Z31.36668
X40.66338 Z32.47011
X40.25713 Z33.0872
X39.19072 Z34.6418
X38.58135 Z35.49226
X38.53057 Z35.54792
X38.429 Z35.62657
X38.22588 Z35.73219
X38.02275 Z35.80561
X37.6165 Z35.90872
X37.21025 Z35.98011
X36.39775 Z36.07358
X35.58525 Z36.13115
X34.77275 Z36.16881
X31.929 Z36.24788
X31.01494 Z36.2631
X29.89775 Z36.30445
X28.27275 Z36.3269
X26.64775 Z36.31323
X25.83525 Z36.2915
X25.02275 Z36.26049
X23.804 Z36.23629
X21.77275 Z36.18131
X20.96025 Z36.15051
X20.14775 Z36.10377
X19.33525 Z36.02985
X18.929 Z35.97576
X18.52275 Z35.90298
X18.1165 Z35.79707
X17.91338 Z35.72065
X17.71025 Z35.61009
X17.60869 Z35.52416
X17.50713 Z35.39118
X16.89775 Z34.53827
X15.88213 Z33.05773
X15.06963 Z31.81658
X14.46025 Z30.85266
X13.64775 Z29.53195
X12.83525 Z28.16861
X12.22588 Z27.11388
X10.39775 Z23.88482
X7.96025 Z19.53584
X6.03057 Z16.06373
X5.16728 Z14.73114
X5.14189 Z14.71358
X3.46611 Z13.87403
X2.27275 Z12.43869
X1.46025 Z11.47951
X0.03838 Z9.82782
X-0.16475 Z9.55494
X-2.196 Z6.72017
X-3.59169 Z4.12384
X-5.4778 Z0.57023
X-5.68391 Z0.00172
X-5.69758 Y74.04 Z0.00171
X-5.49359 Z0.56441
X-5.44281 Z0.66987
X-3.31 Z4.6747
X-2.19281 Z6.74332
X-0.06 Z9.70257
X1.565 Z11.57908
X3.4693 Z13.82928
X3.59625 Z13.89774
X5.13238 Z14.67533
X8.11578 Z19.27695
X9.69 Z22.10931
X12.1275 Z26.4622
X12.94 Z27.88807
X13.95562 Z29.61631
X14.76812 Z30.95808
X15.3775 Z31.93422
X15.78375 Z32.57322
X16.19 Z33.19619
X17.0025 Z34.41749
X17.56109 Z35.22825
X17.61187 Z35.28975
X17.71344 Z35.38032
X17.815 Z35.44848
X18.01812 Z35.55141
X18.22125 Z35.62871
X18.6275 Z35.74262
X19.03375 Z35.82435
X19.44 Z35.88684
X20.2525 Z35.97485
X21.065 Z36.03236
X21.8775 Z36.06992
X24.72125 Z36.14236
X25.83844 Z36.15546
X27.565 Z36.19759
X28.3775 Z36.19903
X29.19 Z36.18948
X30.40875 Z36.15449
