%
G17 G21 G40 G90 G64 P0.1
(2 1/2 Axis Facing)
(1/4in 6.35mm 2 Flute Carbide Router)
T30 M06
S24000 M3
G0 Z3.175
X63.52821 Y-4.
G1 Z1.27 F1250.
X56.32569 Z0. F3750.
X15. F5000.
G17
G02 X-3.99864 Y14.77252 I0. J19.
G1 X-4. Y98.5
G02 X14.77252 Y117.49864 I19. J0.
G1 X113.11049 Y117.5
X206.25
G02 X225.24864 Y98.72748 I0. J-19.
G1 X225.25 Y15.
G02 X206.25 Y-4. I-19. J0.
G1 X56.32569
G02 Y-2.4125 I0. J0.79375
G03 Y-0.825 I0. J0.79375
G1 X15.
G02 X-0.82364 Y14.79155 I-0.00002 J15.82499
G1 X-0.825 Y98.50003
G02 X14.79155 Y114.32364 I15.82499 J-0.00001
G1 X206.25 Y114.325
G02 X222.07364 Y98.70845 I0.00002 J-15.82499
G1 X222.075 Y14.99997
G02 X217.43996 Y3.81003 I-15.825 J0.00003
X206.25 Y-0.825 I-11.18996 J11.18997
G1 X56.32569
G02 Y0.7625 I0. J0.79375
G03 Y2.35 I0. J0.79375
G1 X15.
G02 X2.35136 Y14.81366 I-0.00002 J12.64999
G1 X2.35 Y98.50005
G02 X14.81364 Y111.14864 I12.64999 J-0.00003
G1 X206.25001 Y111.15
G02 X218.89864 Y98.68634 I0.00001 J-12.64999
G1 X218.9 Y14.99995
G02 X215.1949 Y6.0551 I-12.65 J0.00005
X206.25 Y2.35 I-8.9449 J8.9449
G1 X56.32569
G02 Y3.9375 I0. J0.79375
G03 Y5.525 I0. J0.79375
G1 X14.99999
G02 X5.52636 Y14.83875 I-0.00001 J9.47499
G1 X5.525 Y98.50007
G02 X14.83872 Y107.97364 I9.47499 J-0.00005
G1 X206.25002 Y107.975
G02 X215.72364 Y98.66125 I0. J-9.47499
G1 X215.725 Y14.99993
G02 X212.94984 Y8.30016 I-9.475 J0.00007
X206.25 Y5.525 I-6.69984 J6.69984
G1 X56.32569
G02 Y7.1125 I0. J0.79375
G03 Y8.7 I0. J0.79375
G1 X14.99999
G02 X8.70136 Y14.86854 I-0.00001 J6.29999
G1 X8.7 Y98.50008
G02 X14.8685 Y104.79864 I6.29999 J-0.00006
G1 X206.25003 Y104.8
G02 X212.54864 Y98.63146 I-0.00001 J-6.29999
G1 X212.55 Y14.99992
G02 X210.70477 Y10.54523 I-6.3 J0.00008
X206.25 Y8.7 I-4.45477 J4.45477
G1 X56.32569
G02 Y10.2875 I0. J0.79375
G03 Y11.875 I0. J0.79375
G1 X14.99998
G02 X11.87636 Y14.90744 I0. J3.12499
G1 X11.875 Y98.50009
G02 X14.9074 Y101.62364 I3.12499 J-0.00007
G1 X206.25004 Y101.625
G02 X209.37364 Y98.59256 I-0.00002 J-3.12499
G1 X209.375 Y14.99992
G02 X208.45971 Y12.79029 I-3.125 J0.00008
X206.25 Y11.875 I-2.20971 J2.20971
G1 X56.32569
G02 Y13.4625 I0. J0.79375
G03 Y15.05 I0. J0.79375
G1 X15.05136
X15.05 Y98.44864
X206.19864 Y98.45
X206.2 Y15.05
X56.32569
G02 Y16.6375 I0. J0.79375
G03 Y18.225 I0. J0.79375
G1 X18.22631
X18.22505 Y95.27366
X203.02369 Y95.27498
X203.02495 Y18.225
X56.32569
G02 Y19.8125 I0. J0.79375
G03 Y21.4 I0. J0.79375
G1 X21.40125
X21.4001 Y92.09868
X199.84875 Y92.09995
X199.8499 Y21.4
X56.32569
G02 Y22.9875 I0. J0.79375
G03 Y24.575 I0. J0.79375
G1 X24.5762
X24.57516 Y88.92371
X196.6738 Y88.92493
X196.67484 Y24.575
X56.32569
G02 Y26.1625 I0. J0.79375
G03 Y27.75 I0. J0.79375
G1 X27.75115
X27.75021 Y85.74873
X193.49885 Y85.74991
X193.49979 Y27.75
X56.32569
G02 Y29.3375 I0. J0.79375
G03 Y30.925 I0. J0.79375
G1 X30.9261
X30.92526 Y82.57375
X190.3239 Y82.57489
X190.32474 Y30.925
X56.32569
G02 Y32.5125 I0. J0.79375
G03 Y34.1 I0. J0.79375
G1 X34.10105
X34.10031 Y79.39878
X187.14895 Y79.39986
X187.14969 Y34.1
X56.32569
G02 Y35.6875 I0. J0.79375
G03 Y37.275 I0. J0.79375
G1 X37.276
X37.27536 Y76.2238
X183.974 Y76.22484
X183.97464 Y37.275
X56.32569
G02 Y38.8625 I0. J0.79375
G03 Y40.45 I0. J0.79375
G1 X40.45094
X40.45041 Y73.04882
X180.79906 Y73.04982
X180.79959 Y40.45
X56.32569
G02 Y42.0375 I0. J0.79375
G03 Y43.625 I0. J0.79375
G1 X43.62589
X43.62547 Y69.87384
X177.62411 Y69.8748
X177.62453 Y43.625
X56.32569
G02 Y45.2125 I0. J0.79375
G03 Y46.8 I0. J0.79375
G1 X46.80084
X46.80052 Y66.69887
X174.44916 Y66.69977
X174.44948 Y46.8
X56.32569
G02 Y48.3875 I0. J0.79375
G03 Y49.975 I0. J0.79375
G1 X49.97579
X49.97557 Y63.52389
X171.27421 Y63.52475
X171.27443 Y49.975
X56.32569
G02 Y51.5625 I0. J0.79375
G03 Y53.15 I0. J0.79375
G1 X53.15074
X53.15062 Y60.34891
X168.09926 Y60.34973
X168.09938 Y53.15
X56.32569
G02 Y54.7375 I0. J0.79375
G03 Y56.325 I0. J0.79375
G1 X56.32567 Y57.17393
X164.92431 Y57.17471
X164.92433 Y56.325
X56.32569
G0 Z3.175
(2 1/2 Axis Profiling-1)
(1/4in 6.35mm 2 Flute Carbide Router)
X213.26553 Y-1.76637
G1 Z-8.23 F1250.
X213.00497 Y-1.87309 Z-8.27965 F3750.
X212.73641 Y-1.97814 Z-8.3305
X212.46622 Y-2.07891 Z-8.38135
X212.19446 Y-2.17539 Z-8.43219
X211.92121 Y-2.26754 Z-8.48304
X211.64653 Y-2.35535 Z-8.53389
X211.37049 Y-2.43879 Z-8.58474
X211.09316 Y-2.51783 Z-8.63559
X210.81462 Y-2.59247 Z-8.68643
X210.53492 Y-2.66268 Z-8.73728
X210.25414 Y-2.72844 Z-8.78813
X209.97236 Y-2.78973 Z-8.83898
X209.68964 Y-2.84655 Z-8.88983
X209.40606 Y-2.89888 Z-8.94067
X209.12167 Y-2.9467 Z-8.99152
X208.83657 Y-2.99001 Z-9.04237
X208.55082 Y-3.02878 Z-9.09322
X208.26448 Y-3.06301 Z-9.14406
X207.97764 Y-3.0927 Z-9.19491
X207.69037 Y-3.11784 Z-9.24576
X207.40273 Y-3.13841 Z-9.29661
X207.1148 Y-3.15441 Z-9.34746
X206.82665 Y-3.16585 Z-9.3983
X206.53836 Y-3.17271 Z-9.44915
X206.25 Y-3.175 Z-9.5
X15. F5000.
G02 X-3.1737 Y14.7824 I0. J18.175
G1 X-3.17392 Y14.81943
G02 X-3.175 Y37.83034 I43752.61696 J13.55057
G1 Y98.5
G02 X14.7824 Y116.6737 I18.175 J0.
G1 X14.8202 Y116.67393
G02 X73.74674 Y116.675 I40.4873 J-604035.85997
G1 X206.25
G02 X224.4237 Y98.7176 I0. J-18.175
G1 X224.42392 Y98.68057
G02 X224.425 Y75.66966 I-43752.65354 J-13.55057
G1 Y15.
G02 X206.25 Y-3.175 I-18.175 J0.
G03 X204.25 Y-5.175 I0. J-2. F5000.
G1 Y-11.525
G0 Z3.175
X213.26553 Y-1.76637
G1 Z-11.73 F1250.
X213.00497 Y-1.87309 Z-11.77965 F3750.
X212.73641 Y-1.97814 Z-11.8305
X212.46622 Y-2.07891 Z-11.88135
X212.19446 Y-2.17539 Z-11.93219
X211.92121 Y-2.26754 Z-11.98304
X211.64653 Y-2.35535 Z-12.03389
X211.37049 Y-2.43879 Z-12.08474
X211.09316 Y-2.51783 Z-12.13559
X210.81462 Y-2.59247 Z-12.18643
X210.53492 Y-2.66268 Z-12.23728
X210.25414 Y-2.72844 Z-12.28813
X209.97236 Y-2.78973 Z-12.33898
X209.68964 Y-2.84655 Z-12.38983
X209.40606 Y-2.89888 Z-12.44067
X209.12167 Y-2.9467 Z-12.49152
X208.83657 Y-2.99001 Z-12.54237
X208.55082 Y-3.02878 Z-12.59322
X208.26448 Y-3.06301 Z-12.64406
X207.97764 Y-3.0927 Z-12.69491
X207.69037 Y-3.11784 Z-12.74576
X207.40273 Y-3.13841 Z-12.79661
X207.1148 Y-3.15441 Z-12.84746
X206.82665 Y-3.16585 Z-12.8983
X206.53836 Y-3.17271 Z-12.94915
X206.25 Y-3.175 Z-13.
X15. F5000.
G02 X-3.1737 Y14.7824 I0. J18.175
G1 X-3.17392 Y14.81943
G02 X-3.175 Y37.83034 I43752.61696 J13.55057
G1 Y98.5
G02 X14.7824 Y116.6737 I18.175 J0.
G1 X14.8202 Y116.67393
G02 X73.74674 Y116.675 I40.4873 J-604035.85997
G1 X206.25
G02 X224.4237 Y98.7176 I0. J-18.175
G1 X224.42392 Y98.68057
G02 X224.425 Y75.66966 I-43752.65354 J-13.55057
G1 Y15.
G02 X206.25 Y-3.175 I-18.175 J0.
G03 X204.25 Y-5.175 I0. J-2. F5000.
G1 Y-11.525
G0 Z3.175
M30
%
