%
G17 G21 G40 G90 G64 P0.1
(2 1/2 Axis Facing-1)
(1/4in 6.35mm 2 Flute Carbide Router)
T30 M06
S24000 M3
G0 Z6.
X225.25 Y64.37749
G1 Z2.27 F1250.
Y57.17496 Z1. F3750.
Y15. F5000.
G17
G02 X206.25 Y-4. I-19. J0.
G1 X15.
G02 X2.4464 Y0.73791 I0. J19.
X-3.99864 Y14.77252 I12.5536 J14.26209
G1 X-3.99892 Y14.81917
G02 X-4. Y37.83043 I43753.44025 J13.55083
G1 Y98.5
G02 X14.77252 Y117.49864 I19. J0.
G1 X73.74667 Y117.5
X206.25
G02 X225.24864 Y98.72748 I0. J-19.
G1 X225.24892 Y98.68083
G02 X225.25 Y75.66957 I-43753.4709 J-13.55083
G1 Y57.17496
G02 X223.6625 I-0.79375 J0.
G03 X222.075 I-0.79375 J0.
G1 Y15.
G02 X206.25 Y-0.825 I-15.825 J0.
G1 X15.
G02 X4.54417 Y3.12118 I0. J15.825
X-0.82376 Y14.8017 I10.45583 J11.87882
G1 X-0.82393 Y14.82941
G02 X-0.825 Y37.82975 I43750.26481 J13.54059
G1 Y98.5
G02 X14.79243 Y114.32364 I15.825 J0.
G1 X73.7467 Y114.325
X206.25
G02 X222.07376 Y98.6983 I0. J-15.825
G1 X222.07393 Y98.67059
G02 X222.075 Y75.67025 I-43750.29404 J-13.54059
G1 Y57.17496
G02 X220.4875 I-0.79375 J0.
G03 X218.9 I-0.79375 J0.
G1 Y15.
G02 X206.25 Y2.35 I-12.65 J0.
G1 X15.
G02 X6.64195 Y5.50445 I0. J12.65
X2.35112 Y14.83191 I8.35805 J9.49555
G1 X2.35107 Y14.83965
G02 X2.35 Y37.82906 I43747.09018 J13.53035
G1 Y98.5
G02 X14.81445 Y111.14864 I12.65 J0.
G1 X73.74674 Y111.15
X206.25
G02 X218.89888 Y98.66809 I0. J-12.65
G1 X218.89893 Y98.66035
G02 X218.9 Y75.67094 I-43747.11996 J-13.53035
G1 Y57.17496
G02 X217.3125 I-0.79375 J0.
G03 X215.725 I-0.79375 J0.
G1 Y15.
G02 X206.25 Y5.525 I-9.475 J0.
G1 X15.
G02 X8.73972 Y7.88772 I0. J9.475
X5.52606 Y14.85802 I6.26028 J7.11228
X5.525 Y37.82837 I43743.91376 J13.51198
G1 Y98.5
G02 X14.83945 Y107.97364 I9.475 J0.
G1 X73.74678 Y107.975
X206.25
G02 X215.72394 Y98.64198 I0. J-9.475
X215.725 Y75.67163 I-43743.93427 J-13.51198
G1 Y57.17496
G02 X214.1375 I-0.79375 J0.
G03 X212.55 I-0.79375 J0.
G1 Y15.
G02 X206.25 Y8.7 I-6.3 J0.
G1 X15.
G02 X10.83749 Y10.27099 I0. J6.3
X8.70106 Y14.88467 I4.16251 J4.72901
X8.7 Y37.82769 I43740.73919 J13.48533
G1 Y98.5
G02 X14.86912 Y104.79864 I6.3 J0.
G1 X73.74681 Y104.8
X206.25
G02 X212.54894 Y98.61533 I0. J-6.3
X212.55 Y75.67231 I-43740.75757 J-13.48533
G1 Y57.17496
G02 X210.9625 I-0.79375 J0.
G03 X209.375 I-0.79375 J0.
G1 Y15.
G02 X206.25 Y11.875 I-3.125 J0.
G1 X15.
G02 X12.93526 Y12.65426 I0. J3.125
X11.87605 Y14.91918 I2.06474 J2.34574
X11.875 Y37.827 I43737.56333 J13.45082
G1 Y98.5
G02 X14.90786 Y101.62364 I3.125 J0.
G1 X73.74685 Y101.625
X206.25
G02 X209.37395 Y98.58082 I0. J-3.125
X209.375 Y75.673 I-43737.58807 J-13.45082
G1 Y57.17496
G02 X207.7875 I-0.79375 J0.
G03 X206.2 I-0.79375 J0.
G1 Y15.05
X15.05101
G02 X15.05 Y37.82631 I43734.39048 J13.32
G1 Y98.44864
X73.74689 Y98.45
X206.19899
G02 X206.2 Y75.67369 I-43734.41501 J-13.32
G1 Y57.17496
G02 X204.6125 I-0.79375 J0.
G03 X203.025 I-0.79375 J0.
G1 Y18.225
X18.22515
G02 X18.225 Y37.82563 I43731.21863 J10.145
G1 Y95.27372
X73.74692 Y95.275
X203.02485
G02 X203.025 Y75.67437 I-43731.246 J-10.145
G1 Y57.17496
G02 X201.4375 I-0.79375 J0.
G03 X199.85 I-0.79375 J0.
G1 Y21.4
X21.39953
G02 X21.4 Y37.82494 I43728.0429 J6.97
G1 Y92.09879
X73.74696 Y92.1
X199.85047
G02 X199.85 Y75.67506 I-43728.07505 J-6.97
G1 Y57.17496
G02 X198.2625 I-0.79375 J0.
G03 X196.675 I-0.79375 J0.
G1 Y24.575
X24.57414
G02 X24.575 Y37.82425 I43724.87045 J3.795
G1 Y88.92386
X73.747 Y88.925
X196.67586
G02 X196.675 Y75.67575 I-43724.88894 J-3.795
G1 Y57.17496
G02 X195.0875 I-0.79375 J0.
G03 X193.5 I-0.79375 J0.
G1 Y27.75
X27.74898
G02 X27.75 Y37.82357 I43721.69033 J0.62
G1 Y85.74894
X73.74703 Y85.75
X193.50102
G02 X193.5 Y75.67643 I-43721.71702 J-0.62
G1 Y57.17496
G02 X191.9125 I-0.79375 J0.
G03 X190.325 I-0.79375 J0.
G1 Y30.925
X30.92405
X30.925 Y37.82288
Y82.57401
X73.74707 Y82.575
X190.32595
X190.325 Y75.67712
Y57.17496
G02 X188.7375 I-0.79375 J0.
G03 X187.15 I-0.79375 J0.
G1 Y34.1
X34.09949
X34.1 Y37.82245
Y79.39908
X73.74711 Y79.4
X187.15051
X187.15 Y75.67755
Y57.17496
G02 X185.56252 I-0.79374 J0.
G03 X183.97504 I-0.79374 J0.
G1 X183.975 Y37.275
X37.27492
X37.275 Y76.22416
X73.74714 Y76.225
X183.97508
X183.97504 Y57.17496
G02 X182.38754 Y57.17497 I-0.79375 J0.
G03 X180.80004 I-0.79375 J0.
G1 X180.80001 Y40.45
X40.44993
X40.44999 Y73.04923
X73.74718 Y73.05
X180.80007
X180.80004 Y57.17497
G02 X179.21254 I-0.79375 J0.
G03 X177.62504 I-0.79375 J0.
G1 X177.62501 Y43.625
X43.62494
X43.62499 Y69.8743
X73.74722 Y69.875
X177.62506
X177.62504 Y57.17497
G02 X176.03754 Y57.17498 I-0.79375 J0.00001
G03 X174.45004 I-0.79375 J0.
G1 X174.45002 Y46.8
X46.79994
X46.79998 Y66.69938
X73.74725 Y66.7
X174.45006
X174.45004 Y57.17498
G02 X172.86254 Y57.17499 I-0.79375 J0.
G03 X171.27504 I-0.79375 J0.
G1 X171.27503 Y49.975
X49.97495
X49.97498 Y63.52445
X73.74729 Y63.525
X171.27505
X171.27504 Y57.17499
G02 X169.68754 I-0.79375 J0.
G03 X168.10004 I-0.79375 J0.
G1 X168.10003 Y53.15
X53.14995
X53.14997 Y60.34952
X73.74733 Y60.35
X168.10004
Y57.17499
G02 X166.51254 Y57.175 I-0.79375 J0.
G03 X164.92504 I-0.79375 J0.
G1 Y56.325
X56.32496
Y57.1746
X73.74736 Y57.175
X164.92504
G0 Z6.
(Horizontal Roughing)
(1/4in 6.35mm 2 Flute Carbide Router)
Z3.175
X18.45442 Y17.34363
G1 Z-0.66999 F1250.
Z-1.30499 F3750.
X19.21517 Y17.07326 Z-1.44735 F3750.
X19.96055 Y17.18845 Z-1.58034
X21.23911 Y18.30264 Z-1.87938
X21.42994 Y18.941 Z-1.99686
X21.0064 Y20.54275 Z-2.289
X20.44517 Y21.0797 Z-2.42596
X19.61712 Y21.24915 Z-2.57499
X19.34772 Y19.93264
G03 X18.97274 Y18.64214 I-0.09758 J-0.67137 F5000.
G1 X19.71812 Y18.75733
X19.90895 Y19.39569
X19.34772 Y19.93264
G02 X19.46442 Y23.1055 I0.05835 J1.58643
X19.98688 Y15.43143 I-0.19463 J-3.86807
G1 X18.14454 Y15.49308
G02 X19.46442 Y23.1055 I1.08958 J3.73172
G1 X19.81029 Y26.31941
G03 X21.50895 Y25.98805 I-0.50124 J-7.08913
G1 X20.50895 Y26.24423
X19.81029 Y26.31941
Z-1.93999 F5000.
G0 Z3.175
X17.60068 Y18.94797
G1 Z-3.84499 F1250.
Z-4.47999 F3750.
X17.63712 Y18.66289 Z-4.53067 F3750.
X17.81243 Y18.30996 Z-4.60015
X18.63168 Y17.54747 Z-4.79749
X19.75039 Y17.51495 Z-4.99484
X20.61254 Y18.22859 Z-5.19218
X20.82042 Y18.5924 Z-5.26606
X21.0019 Y19.67509 Z-5.45963
X20.43746 Y20.61667 Z-5.6532
X19.91723 Y20.79176 Z-5.74999
X19.44207 Y19.37999
X19.05888 Y19.36911 F5000.
X19.23419 Y19.01618
X19.44207 Y19.37999
G02 X21.52636 Y21.77506 I1.04214 J1.19754
X17.95893 Y22.44632 I-2.32414 J-2.53651
X21.52636 Y21.77506 I1.27607 J-3.03354
G1 X23.85169 Y24.04122
G03 X25.00895 Y22.59629 I-4.56969 J-4.84581
G1 X24.37041 Y23.50895
X23.85169 Y24.04122
Z-5.11499 F5000.
G0 Z3.175
X21.88281 Y20.60086
G1 Z-7.01999 F1250.
Z-7.65499 F3750.
X22.18598 Y19.83739 Z-7.79984 F3750.
X22.22536 Y18.90391 Z-7.96458
X21.94155 Y17.94652 Z-8.14066
X21.26648 Y17.03272 Z-8.34098
X20.61226 Y16.57789 Z-8.48148
X19.65757 Y16.29167 Z-8.65722
X18.14567 Y16.43416 Z-8.92499
G02 X20.61226 Y16.57789 I1.07407 J2.80445 F5000.
G1 X19.65757 Y16.29167
X18.14567 Y16.43416
X17.08488 Y13.44161
G03 X15.91163 Y14.00895 I2.10139 J5.84251
G1 X16.75895 Y13.55715
X17.08488 Y13.44161
Z-8.28999 F5000.
G0 Z3.175
X20.70981 Y21.32523
G1 Z-9.99499 F1250.
Z-10.62999 F3750.
X21.24777 Y20.86343 Z-10.755 F3750.
X21.69302 Y20.04378 Z-10.91948
X21.81778 Y19.14122 Z-11.08014
X21.61146 Y18.21588 Z-11.24731
X21.23682 Y17.60395 Z-11.37382
X20.57359 Y17.04386 Z-11.52689
X19.66234 Y16.70693 Z-11.6982
X18.51895 Y16.75558 Z-11.89999
G02 X16.94347 Y20.39635 I0.77433 J2.49634 F5000.
G1 X18.02503 Y21.52123
G02 X18.51895 Y16.75558 I1.21205 J-2.2828
G1 X17.78915 Y13.66559
G03 X15.75895 Y14.62344 I1.40979 J5.6186
X17.78915 Y13.66559 I3.23532 J4.22695
G1 Z-11.26499 F5000.
G0 Z3.175
X19.35594 Y21.34891
G1 Z-13.16999 F1250.
Z-13.80499 F3750.
X19.45023 Y21.35776 Z-13.82169 F3750.
X20.22226 Y21.13169 Z-13.96354
X20.84284 Y20.64911 Z-14.10215
X21.23945 Y19.9895 Z-14.23787
X21.37321 Y19.25625 Z-14.36929
X21.23804 Y18.50815 Z-14.50334
X20.83982 Y17.84586 Z-14.6396
X20.21583 Y17.35704 Z-14.77937
X19.55589 Y17.14415 Z-14.90164
X18.57461 Y17.20443 Z-15.07499
G02 X17.19326 Y19.7807 I0.73012 J2.04994 F5000.
G1 X17.95124 Y20.9303
G02 X18.57461 Y17.20443 I1.29264 J-1.69881
G1 X17.66195 Y14.16343
G03 X16.34281 Y14.75895 I1.52007 J5.12595
G1 X17.25895 Y14.28438
X17.66195 Y14.16343
Z-14.43999 F5000.
G0 Z3.175
X20.40729 Y18.19269
G1 Z-16.34499 F1250.
Z-16.97999 F3750.
X19.88416 Y17.69015 Z-17.1079 F3750.
X18.68942 Y17.63993 Z-17.31875
X18.05362 Y18.07975 Z-17.45507
X17.5679 Y19.08536 Z-17.65198
X17.78802 Y20.07567 Z-17.83086
X18.76531 Y20.86454 Z-18.05232
X19.88607 Y20.8395 Z-18.24999
X20.50465 Y20.36084 F5000.
X20.83451 Y19.81908
X20.73271 Y18.5053
X19.88416 Y17.69015
X18.68942 Y17.63993
G02 X17.78802 Y20.07567 I0.6557 J1.62731
G1 X18.76531 Y20.86454
X19.88607 Y20.8395
X21.1092 Y23.76945
G03 X22.91396 Y22.50895 I-1.83108 J-4.54399
X21.1092 Y23.76945 I-3.48387 J-3.06589
G1 Z-17.61499 F5000.
G0 Z3.175
X19.58058 Y18.17226
G1 Z-19.51999 F1250.
Z-20.15499 F3750.
X18.87431 Y18.10038 Z-20.28017 F3750.
X18.14083 Y18.71881 Z-20.44933
X18.04403 Y19.50448 Z-20.58892
X18.54118 Y20.29053 Z-20.75291
X19.50448 Y20.45597 Z-20.92526
X20.28693 Y19.96358 Z-21.08827
X20.45694 Y19.00009 Z-21.26078
X19.96222 Y18.2111 Z-21.42499
X18.87431 Y18.10038 F5000.
G02 X18.54118 Y20.29053 I0.36388 J1.17576
X20.45694 Y19.00009 I0.67803 J-1.06068
G1 X19.96222 Y18.2111
X21.66088 Y15.52871
G03 X19.75895 Y14.82146 I-2.4624 J3.71088
X21.66088 Y15.52871 I-0.44518 J4.10807
G1 Z-20.78999 F5000.
G0 Z3.175
X17.00546 Y18.36851
G1 Z-21.49499 F1250.
Z-22.12999 F3750.
X16.81751 Y19.26799 Z-22.29202 F3750.
X17.03922 Y20.45601 Z-22.50511
X17.27579 Y20.82106 Z-22.58182
X18.20081 Y21.49213 Z-22.78332
X19.0228 Y21.71027 Z-22.93328
X20.22048 Y21.55259 Z-23.14629
X20.81668 Y21.21026 Z-23.26751
X21.21359 Y20.57231 Z-23.39999
X20.0262 Y19.83356
X20.09227 Y18.79524 F5000.
X19.40822 Y18.28982
X18.58116 Y18.58904
X18.37145 Y19.59269
X18.60801 Y19.95774
X19.43 Y20.17589
X20.0262 Y19.83356
X22.9548 Y21.05991
X22.76676 Y21.50895
G03 X23.38395 Y18.75895 I-3.52328 J-2.23499
G1 X23.2902 Y20.25895
X22.9548 Y21.05991
Z-22.76499 F5000.
G0 Z3.175
X43.45442 Y17.34363
G1 Z-0.66999 F1250.
Z-1.30499 F3750.
X44.21517 Y17.07326 Z-1.44735 F3750.
X44.96055 Y17.18844 Z-1.58034
X46.23911 Y18.30264 Z-1.87938
X46.42994 Y18.941 Z-1.99686
X46.0064 Y20.54275 Z-2.289
X45.44517 Y21.07971 Z-2.42596
X44.61712 Y21.24915 Z-2.57499
X44.34772 Y19.93264
G03 X43.97274 Y18.64214 I-0.09757 J-0.67137 F5000.
G1 X44.71812 Y18.75733
X44.90895 Y19.39569
X44.34772 Y19.93264
G02 X44.46441 Y23.1055 I0.05835 J1.58643
X44.98688 Y15.43143 I-0.19462 J-3.86807
G1 X43.14454 Y15.49308
G02 X44.46441 Y23.1055 I1.08958 J3.73172
G1 X44.81029 Y26.31941
G03 X46.50895 Y25.98805 I-0.50124 J-7.08913
G1 X45.50895 Y26.24423
X44.81029 Y26.31941
Z-1.93999 F5000.
G0 Z3.175
X43.41661 Y20.72961
G1 Z-3.84499 F1250.
Z-4.47999 F3750.
X43.04081 Y20.58718 Z-4.55085 F3750.
X42.5052 Y19.69505 Z-4.73433
X42.63712 Y18.66289 Z-4.91781
X42.81243 Y18.30996 Z-4.9873
X43.63168 Y17.54747 Z-5.18464
X44.75039 Y17.51495 Z-5.38198
X45.61254 Y18.22858 Z-5.57932
X45.82042 Y18.59239 Z-5.6532
X45.91116 Y19.13374 Z-5.74999
X44.44207 Y19.37999
X44.05888 Y19.36911 F5000.
X44.23419 Y19.01618
X44.44207 Y19.37999
G02 X46.52636 Y21.77506 I1.04215 J1.19753
X42.95893 Y22.44632 I-2.32414 J-2.53651
X46.52636 Y21.77506 I1.27607 J-3.03354
G1 X48.85169 Y24.04122
G03 X50.00895 Y22.59628 I-4.5697 J-4.8458
G1 X49.37041 Y23.50895
X48.85169 Y24.04122
Z-5.11499 F5000.
G0 Z3.175
X46.88281 Y20.60087
G1 Z-7.01999 F1250.
Z-7.65499 F3750.
X47.18598 Y19.83739 Z-7.79984 F3750.
X47.22536 Y18.90391 Z-7.96458
X46.94155 Y17.94652 Z-8.14066
X46.26648 Y17.03272 Z-8.34098
X45.61225 Y16.57789 Z-8.48148
X44.65757 Y16.29167 Z-8.65722
X43.14567 Y16.43416 Z-8.92499
G02 X45.61225 Y16.57789 I1.07407 J2.80445 F5000.
G1 X44.65757 Y16.29167
X43.14567 Y16.43416
X42.08489 Y13.44161
G03 X40.91163 Y14.00895 I2.10139 J5.84251
G1 X41.75895 Y13.55715
X42.08489 Y13.44161
Z-8.28999 F5000.
G0 Z3.175
X45.70981 Y21.32523
G1 Z-9.99499 F1250.
Z-10.62999 F3750.
X46.24777 Y20.86343 Z-10.755 F3750.
X46.69302 Y20.04378 Z-10.91948
X46.81778 Y19.14122 Z-11.08014
X46.61146 Y18.21588 Z-11.24731
X46.23682 Y17.60395 Z-11.37382
X45.57359 Y17.04386 Z-11.52689
X44.66234 Y16.70693 Z-11.6982
X43.51895 Y16.75558 Z-11.89999
G02 X41.94347 Y20.39635 I0.77433 J2.49634 F5000.
G1 X43.02503 Y21.52123
G02 X43.51895 Y16.75558 I1.21205 J-2.2828
G1 X42.78915 Y13.66559
G03 X40.75895 Y14.62344 I1.40979 J5.6186
X42.78915 Y13.66559 I3.23532 J4.22695
G1 Z-11.26499 F5000.
G0 Z3.175
X44.35594 Y21.34891
G1 Z-13.16999 F1250.
Z-13.80499 F3750.
X44.45023 Y21.35776 Z-13.82169 F3750.
X45.22226 Y21.13169 Z-13.96354
X45.84284 Y20.64911 Z-14.10215
X46.23945 Y19.9895 Z-14.23787
X46.37321 Y19.25625 Z-14.36929
X46.23804 Y18.50814 Z-14.50334
X45.83982 Y17.84585 Z-14.6396
X45.21583 Y17.35704 Z-14.77937
X44.55589 Y17.14415 Z-14.90164
X43.57461 Y17.20443 Z-15.07499
G02 X42.19326 Y19.7807 I0.73012 J2.04994 F5000.
G1 X42.95124 Y20.9303
G02 X43.57461 Y17.20443 I1.29264 J-1.69881
G1 X42.66195 Y14.16343
G03 X41.34281 Y14.75895 I1.52007 J5.12595
G1 X42.25895 Y14.28438
X42.66195 Y14.16343
Z-14.43999 F5000.
G0 Z3.175
X42.58954 Y19.18272
G1 Z-16.34499 F1250.
Z-16.97999 F3750.
X42.78802 Y20.07567 Z-17.14128 F3750.
X43.76531 Y20.86454 Z-17.36274
X44.88607 Y20.8395 Z-17.56041
X45.50465 Y20.36084 Z-17.69832
X45.83451 Y19.81908 Z-17.81017
X45.73271 Y18.5053 Z-18.04252
X44.88416 Y17.69015 Z-18.24999
X43.68942 Y17.63993 F5000.
G02 X42.78802 Y20.07567 I0.6557 J1.62731
G1 X43.76531 Y20.86454
X44.88607 Y20.8395
X45.50465 Y20.36084
X45.83451 Y19.81908
X45.73271 Y18.5053
X44.88416 Y17.69015
X45.69616 Y14.62074
G03 X40.75895 Y15.80647 I-1.4912 J4.66263
X45.69616 Y14.62074 I3.4002 J3.28617
G1 Z-17.61499 F5000.
G0 Z3.175
X45.35359 Y19.5858
G1 Z-19.51999 F1250.
Z-20.15499 F3750.
X45.45694 Y19.00009 Z-20.25986 F3750.
X44.96222 Y18.2111 Z-20.42407
X43.87431 Y18.10038 Z-20.61689
X43.14083 Y18.71881 Z-20.78606
X43.04403 Y19.50448 Z-20.92564
X43.54118 Y20.29053 Z-21.08964
X44.50448 Y20.45597 Z-21.26198
X45.28693 Y19.96358 Z-21.42499
X45.45694 Y19.00009 F5000.
X44.96222 Y18.2111
X43.87431 Y18.10038
G02 X43.54118 Y20.29053 I0.36388 J1.17576
G1 X44.50448 Y20.45597
X45.28693 Y19.96358
X47.9789 Y21.647
G03 X48.67854 Y19.75895 I-3.71792 J-2.45138
X47.9789 Y21.647 I-4.08727 J-0.44094
G1 Z-20.78999 F5000.
G0 Z3.175
X46.2723 Y20.47796
G1 Z-21.49499 F1250.
Z-22.12999 F3750.
X46.6105 Y19.93437 Z-22.24288 F3750.
X46.67657 Y18.89604 Z-22.42633
X46.03565 Y17.51845 Z-22.69424
X45.3516 Y17.01303 Z-22.84421
X43.86814 Y16.79701 Z-23.10854
X43.04109 Y17.09623 Z-23.26362
X42.53415 Y17.68028 Z-23.39999
X43.58116 Y18.58904
X43.37145 Y19.59269 F5000.
X43.60801 Y19.95774
X44.43 Y20.17589
X45.0262 Y19.83356
X45.09227 Y18.79524
X44.40822 Y18.28982
X43.58116 Y18.58904
X41.45299 Y16.23287
G03 X40.75895 Y21.5402 I2.80827 J3.06629
X41.45299 Y16.23287 I3.34284 J-2.2619
G1 Z-22.76499 F5000.
G0 Z3.175
X68.45441 Y17.34363
G1 Z-0.66999 F1250.
Z-1.30499 F3750.
X69.21517 Y17.07327 Z-1.44735 F3750.
X69.96056 Y17.18845 Z-1.58034
X71.23911 Y18.30264 Z-1.87938
X71.42994 Y18.94099 Z-1.99686
X71.00641 Y20.54274 Z-2.289
X70.44518 Y21.0797 Z-2.42596
X69.61712 Y21.24915 Z-2.57499
X69.34772 Y19.93264
G03 X68.97274 Y18.64214 I-0.09758 J-0.67137 F5000.
G1 X69.71812 Y18.75733
X69.90895 Y19.39568
X69.34772 Y19.93264
G02 X69.46441 Y23.1055 I0.05835 J1.58643
X69.98687 Y15.43143 I-0.19462 J-3.86807
G1 X68.14454 Y15.49308
G02 X69.46441 Y23.1055 I1.08958 J3.73172
G1 X69.81029 Y26.31941
G03 X71.50895 Y25.98805 I-0.50124 J-7.08913
G1 X70.50895 Y26.24423
X69.81029 Y26.31941
Z-1.93999 F5000.
G0 Z3.175
X67.60069 Y18.94798
G1 Z-3.84499 F1250.
Z-4.47999 F3750.
X67.63712 Y18.66288 Z-4.53067 F3750.
X67.81243 Y18.30996 Z-4.60015
X68.63168 Y17.54746 Z-4.79749
X69.75039 Y17.51495 Z-4.99484
X70.61254 Y18.22859 Z-5.19218
X70.82042 Y18.59239 Z-5.26606
X71.0019 Y19.67508 Z-5.45963
X70.43746 Y20.61666 Z-5.6532
X69.91724 Y20.79175 Z-5.74999
X69.44207 Y19.37999
X69.05888 Y19.36911 F5000.
X69.23419 Y19.01618
X69.44207 Y19.37999
G02 X72.16518 Y21.01256 I1.36156 J0.81628
X70.01204 Y22.61073 I-2.96228 J-1.74144
X72.16518 Y21.01256 I-0.70321 J-3.1969
G1 X74.8183 Y22.86878
G03 X75.75895 Y20.66196 I-5.55236 J-3.67055
X74.8183 Y22.86878 I-6.01373 J-1.25944
G1 Z-5.11499 F5000.
G0 Z3.175
X71.88281 Y20.60087
G1 Z-7.01999 F1250.
Z-7.65499 F3750.
X72.18598 Y19.83739 Z-7.79984 F3750.
X72.22536 Y18.90391 Z-7.96458
X71.94155 Y17.94652 Z-8.14066
X71.26648 Y17.03272 Z-8.34098
X70.61225 Y16.57789 Z-8.48148
X69.65757 Y16.29167 Z-8.65722
X68.14567 Y16.43416 Z-8.92499
G02 X70.61225 Y16.57789 I1.07407 J2.80445 F5000.
G1 X69.65757 Y16.29167
X68.14567 Y16.43416
G03 X67.08489 Y13.44161 I-0.53039 J-1.49627
X65.91163 Y14.00895 I2.10139 J5.84251
G1 X66.75895 Y13.55715
X67.08489 Y13.44161
Z-8.28999 F5000.
G0 Z3.175
X70.70981 Y21.32524
G1 Z-9.99499 F1250.
Z-10.62999 F3750.
X71.24777 Y20.86343 Z-10.755 F3750.
X71.69302 Y20.04378 Z-10.91948
X71.81778 Y19.14122 Z-11.08014
X71.61146 Y18.21588 Z-11.24731
X71.23682 Y17.60395 Z-11.37382
X70.57359 Y17.04386 Z-11.52689
X69.66234 Y16.70693 Z-11.6982
X68.51895 Y16.75558 Z-11.89999
G02 X66.94347 Y20.39635 I0.77433 J2.49634 F5000.
G1 X68.02503 Y21.52123
G02 X68.51895 Y16.75558 I1.21205 J-2.2828
G03 X67.78915 Y13.66559 I-0.3649 J-1.54499
X65.75895 Y14.62344 I1.40979 J5.6186
X67.78915 Y13.66559 I3.23534 J4.22698
G1 Z-11.26499 F5000.
G0 Z3.175
X69.35594 Y21.34891
G1 Z-13.16999 F1250.
Z-13.80499 F3750.
X69.45023 Y21.35776 Z-13.82169 F3750.
X70.22226 Y21.13169 Z-13.96354
X70.84284 Y20.64911 Z-14.10215
X71.23945 Y19.9895 Z-14.23786
X71.37321 Y19.25625 Z-14.36929
X71.23804 Y18.50814 Z-14.50334
X70.83982 Y17.84585 Z-14.6396
X70.21583 Y17.35704 Z-14.77937
X69.55589 Y17.14415 Z-14.90164
X68.57461 Y17.20443 Z-15.07499
G02 X67.19326 Y19.7807 I0.73012 J2.04994 F5000.
G1 X67.95124 Y20.9303
G02 X68.57461 Y17.20443 I1.29264 J-1.69881
G1 X67.66195 Y14.16343
G03 X66.34281 Y14.75895 I1.52008 J5.12595
G1 X67.25895 Y14.28438
X67.66195 Y14.16343
Z-14.43999 F5000.
G0 Z3.175
X70.40729 Y18.19269
G1 Z-16.34499 F1250.
Z-16.97999 F3750.
X69.88416 Y17.69015 Z-17.1079 F3750.
X68.68942 Y17.63993 Z-17.31875
X68.05362 Y18.07975 Z-17.45507
X67.5679 Y19.08536 Z-17.65198
X67.78802 Y20.07567 Z-17.83086
X68.76531 Y20.86454 Z-18.05232
X69.88607 Y20.8395 Z-18.24999
X70.50465 Y20.36084 F5000.
X70.83451 Y19.81908
X70.73271 Y18.5053
X69.88416 Y17.69015
X68.68942 Y17.63993
G02 X67.78802 Y20.07567 I0.6557 J1.62731
G1 X68.76531 Y20.86454
X69.88607 Y20.8395
X71.1092 Y23.76945
G03 X72.91396 Y22.50895 I-1.83108 J-4.54399
X71.1092 Y23.76945 I-3.48386 J-3.06588
G1 Z-17.61499 F5000.
G0 Z3.175
X70.35359 Y19.58579
G1 Z-19.51999 F1250.
Z-20.15499 F3750.
X70.45694 Y19.00009 Z-20.25986 F3750.
X69.96222 Y18.2111 Z-20.42407
X68.87431 Y18.10038 Z-20.61689
X68.14083 Y18.71881 Z-20.78606
X68.04403 Y19.50448 Z-20.92564
X68.54118 Y20.29053 Z-21.08964
X69.50448 Y20.45597 Z-21.26198
X70.28693 Y19.96358 Z-21.42499
X70.45694 Y19.00009 F5000.
X69.96222 Y18.2111
X68.87431 Y18.10038
G02 X68.54118 Y20.29053 I0.36388 J1.17576
G1 X69.50448 Y20.45597
X70.28693 Y19.96358
X72.9789 Y21.647
G03 X73.67855 Y19.75895 I-3.71792 J-2.45138
X72.9789 Y21.647 I-4.08734 J-0.44096
G1 Z-20.78999 F5000.
G0 Z3.175
X70.38129 Y17.03496
G1 Z-21.49499 F1250.
Z-22.12999 F3750.
X70.3516 Y17.01303 Z-22.1365 F3750.
X68.86815 Y16.79701 Z-22.40083
X68.04109 Y17.09623 Z-22.55591
X67.02722 Y18.26434 Z-22.82865
X66.81751 Y19.26799 Z-23.00944
X67.03922 Y20.45601 Z-23.22254
X67.27579 Y20.82106 Z-23.29924
X67.7383 Y21.15659 Z-23.39999
X68.60801 Y19.95774
X69.43 Y20.17589 F5000.
X70.0262 Y19.83356
X70.09227 Y18.79524
X69.40822 Y18.28982
X68.58116 Y18.58904
X68.37145 Y19.59269
X68.60801 Y19.95774
X66.25184 Y22.0859
G03 X73.2902 Y20.25895 I3.0141 J-2.85932
X66.25184 Y22.0859 I-4.00861 J-0.97208
G1 Z-22.76499 F5000.
G0 Z3.175
X93.45441 Y17.34364
G1 Z-0.66999 F1250.
Z-1.30499 F3750.
X94.21517 Y17.07327 Z-1.44735 F3750.
X94.96056 Y17.18845 Z-1.58034
X96.23911 Y18.30264 Z-1.87938
X96.42994 Y18.94099 Z-1.99686
X96.00641 Y20.54274 Z-2.289
X95.44518 Y21.0797 Z-2.42596
X94.61712 Y21.24915 Z-2.57499
X94.34772 Y19.93264
G03 X93.97274 Y18.64214 I-0.09758 J-0.67137 F5000.
G1 X94.71812 Y18.75733
X94.90895 Y19.39568
X94.34772 Y19.93264
G02 X94.46441 Y23.1055 I0.05835 J1.58643
X94.98687 Y15.43143 I-0.19462 J-3.86807
G1 X93.14454 Y15.49308
G02 X94.46441 Y23.1055 I1.08958 J3.73172
G1 X94.81029 Y26.31941
G03 X96.50895 Y25.98805 I-0.50124 J-7.08913
G1 X95.50895 Y26.24423
X94.81029 Y26.31941
Z-1.93999 F5000.
G0 Z3.175
X93.41661 Y20.72962
G1 Z-3.84499 F1250.
Z-4.47999 F3750.
X93.04083 Y20.58719 Z-4.55085 F3750.
X92.50521 Y19.69507 Z-4.73433
X92.63712 Y18.6629 Z-4.91781
X92.81242 Y18.30997 Z-4.98729
X93.63167 Y17.54747 Z-5.18464
X94.75038 Y17.51495 Z-5.38198
X95.61254 Y18.22858 Z-5.57932
X95.82042 Y18.59239 Z-5.65321
X95.91116 Y19.13373 Z-5.74999
X94.44207 Y19.37999
X94.05889 Y19.36911 F5000.
X94.23419 Y19.01618
X94.44207 Y19.37999
G02 X97.16518 Y21.01256 I1.36156 J0.81628
X95.01204 Y22.61073 I-2.96228 J-1.74144
X97.16518 Y21.01256 I-0.70321 J-3.1969
G1 X99.8183 Y22.86878
G03 X100.75895 Y20.66196 I-5.55236 J-3.67055
X99.8183 Y22.86878 I-6.01373 J-1.25944
G1 Z-5.11499 F5000.
G0 Z3.175
X96.88281 Y20.60087
G1 Z-7.01999 F1250.
Z-7.65499 F3750.
X97.18598 Y19.83739 Z-7.79984 F3750.
X97.22536 Y18.90391 Z-7.96458
X96.94155 Y17.94652 Z-8.14066
X96.26648 Y17.03272 Z-8.34098
X95.61225 Y16.57789 Z-8.48148
X94.65757 Y16.29167 Z-8.65722
X93.14567 Y16.43416 Z-8.92499
G02 X95.61225 Y16.57789 I1.07407 J2.80445 F5000.
G1 X94.65757 Y16.29167
X93.14567 Y16.43416
G03 X92.08489 Y13.44161 I-0.53039 J-1.49627
X90.91162 Y14.00895 I2.10139 J5.84251
G1 X91.75895 Y13.55715
X92.08489 Y13.44161
Z-8.28999 F5000.
G0 Z3.175
X95.70981 Y21.32524
G1 Z-9.99499 F1250.
Z-10.62999 F3750.
X96.24777 Y20.86343 Z-10.755 F3750.
X96.69302 Y20.04378 Z-10.91948
X96.81778 Y19.14122 Z-11.08014
X96.61146 Y18.21588 Z-11.24731
X96.23682 Y17.60395 Z-11.37382
X95.57359 Y17.04386 Z-11.52689
X94.66234 Y16.70693 Z-11.6982
X93.51895 Y16.75558 Z-11.89999
G02 X91.94347 Y20.39635 I0.77433 J2.49634 F5000.
G1 X93.02503 Y21.52123
G02 X93.51895 Y16.75558 I1.21205 J-2.2828
G1 X92.78915 Y13.66559
G03 X90.75895 Y14.62344 I1.40979 J5.6186
X92.78915 Y13.66559 I3.23534 J4.22698
G1 Z-11.26499 F5000.
G0 Z3.175
X94.35594 Y21.34891
G1 Z-13.16999 F1250.
Z-13.80499 F3750.
X94.45023 Y21.35776 Z-13.82169 F3750.
X95.22226 Y21.13169 Z-13.96354
X95.84284 Y20.64911 Z-14.10215
X96.23945 Y19.9895 Z-14.23786
X96.37321 Y19.25625 Z-14.36929
X96.23804 Y18.50814 Z-14.50334
X95.83982 Y17.84585 Z-14.6396
X95.21583 Y17.35704 Z-14.77937
X94.55589 Y17.14415 Z-14.90164
X93.57461 Y17.20443 Z-15.07499
G02 X92.19326 Y19.7807 I0.73012 J2.04994 F5000.
G1 X92.95124 Y20.9303
G02 X93.57461 Y17.20443 I1.29264 J-1.69881
G1 X92.66195 Y14.16343
G03 X91.34281 Y14.75895 I1.52008 J5.12595
G1 X92.25895 Y14.28438
X92.66195 Y14.16343
Z-14.43999 F5000.
G0 Z3.175
X95.40729 Y18.19269
G1 Z-16.34499 F1250.
Z-16.97999 F3750.
X94.88416 Y17.69015 Z-17.1079 F3750.
X93.68942 Y17.63993 Z-17.31875
X93.05362 Y18.07975 Z-17.45507
X92.5679 Y19.08536 Z-17.65198
X92.78802 Y20.07567 Z-17.83086
X93.76531 Y20.86454 Z-18.05232
X94.88607 Y20.8395 Z-18.24999
X95.50465 Y20.36084 F5000.
X95.83451 Y19.81908
X95.73271 Y18.5053
X94.88416 Y17.69015
X93.68942 Y17.63993
G02 X92.78802 Y20.07567 I0.6557 J1.62731
G1 X93.76531 Y20.86454
X94.88607 Y20.8395
X96.10919 Y23.76945
G03 X97.91396 Y22.50895 I-1.83107 J-4.54399
X96.10919 Y23.76945 I-3.48386 J-3.06588
G1 Z-17.61499 F5000.
G0 Z3.175
X95.35359 Y19.58579
G1 Z-19.51999 F1250.
Z-20.15499 F3750.
X95.45694 Y19.00009 Z-20.25986 F3750.
X94.96222 Y18.2111 Z-20.42407
X93.87431 Y18.10038 Z-20.61689
X93.14083 Y18.71881 Z-20.78606
X93.04403 Y19.50448 Z-20.92564
X93.54118 Y20.29053 Z-21.08963
X94.50448 Y20.45597 Z-21.26198
X95.28693 Y19.96358 Z-21.42499
X95.45694 Y19.00009 F5000.
X94.96222 Y18.2111
X93.87431 Y18.10038
G02 X93.54118 Y20.29053 I0.36388 J1.17576
G1 X94.50448 Y20.45597
X95.28693 Y19.96358
X97.9789 Y21.647
G03 X98.67855 Y19.75895 I-3.71792 J-2.45138
X97.9789 Y21.647 I-4.08734 J-0.44096
G1 Z-20.78999 F5000.
G0 Z3.175
X94.37529 Y21.66386
G1 Z-21.49499 F1250.
Z-22.12999 F3750.
X95.22048 Y21.55259 Z-22.28031 F3750.
X95.81668 Y21.21026 Z-22.40153
X96.6105 Y19.93437 Z-22.66649
X96.67657 Y18.89604 Z-22.84995
X96.03565 Y17.51845 Z-23.11786
X95.3516 Y17.01303 Z-23.26782
X94.60987 Y16.90502 Z-23.39999
X94.40822 Y18.28982
X93.58116 Y18.58904 F5000.
X93.37145 Y19.59269
X93.60801 Y19.95774
X94.43 Y20.17589
X95.0262 Y19.83356
X95.09227 Y18.79524
X94.40822 Y18.28982
X95.68082 Y15.38101
G03 X91.97768 Y15.75895 I-1.47439 J3.88473
X95.68082 Y15.38101 I2.19172 J3.14397
G1 Z-22.76499 F5000.
G0 Z3.175
X128.4544 Y17.34364
G1 Z-0.66999 F1250.
Z-1.30499 F3750.
X129.21517 Y17.07327 Z-1.44735 F3750.
X129.96055 Y17.18845 Z-1.58035
X131.23911 Y18.30263 Z-1.87938
X131.42994 Y18.94098 Z-1.99686
X131.00642 Y20.54272 Z-2.28899
X130.44519 Y21.07969 Z-2.42595
X129.61713 Y21.24914 Z-2.57499
X129.34772 Y19.93264
G03 X128.97274 Y18.64214 I-0.09758 J-0.67137 F5000.
G1 X129.71812 Y18.75733
X129.90895 Y19.39567
X129.34772 Y19.93264
G02 X129.46442 Y23.1055 I0.05835 J1.58643
X129.98688 Y15.43143 I-0.19464 J-3.86807
G1 X128.14454 Y15.49308
G02 X129.46442 Y23.1055 I1.08958 J3.73172
G1 X129.81029 Y26.31941
G03 X131.50895 Y25.98805 I-0.50124 J-7.08913
G1 X130.50895 Y26.24423
X129.81029 Y26.31941
Z-1.93999 F5000.
G0 Z3.175
X127.68261 Y19.99055
G1 Z-3.84499 F1250.
Z-4.47999 F3750.
X127.50521 Y19.69507 Z-4.54076 F3750.
X127.63712 Y18.6629 Z-4.72424
X127.81242 Y18.30997 Z-4.79372
X128.63167 Y17.54747 Z-4.99107
X129.75038 Y17.51495 Z-5.18841
X130.61254 Y18.22858 Z-5.38575
X130.82042 Y18.59239 Z-5.45963
X131.0019 Y19.67507 Z-5.65321
X130.71969 Y20.14586 Z-5.74999
X129.44207 Y19.37999
X129.05889 Y19.36911 F5000.
X129.23419 Y19.01618
X129.44207 Y19.37999
G02 X131.52636 Y21.77506 I1.04215 J1.19753
X127.95893 Y22.44632 I-2.32415 J-2.53651
X131.52636 Y21.77506 I1.27607 J-3.03354
G1 X133.8517 Y24.04121
G03 X135.00895 Y22.59628 I-4.5697 J-4.84579
G1 X134.37041 Y23.50895
X133.8517 Y24.04121
Z-5.11499 F5000.
G0 Z3.175
X131.8828 Y20.60087
G1 Z-7.01999 F1250.
Z-7.65499 F3750.
X132.18598 Y19.83739 Z-7.79984 F3750.
X132.22535 Y18.90391 Z-7.96458
X131.94155 Y17.94652 Z-8.14066
X131.26648 Y17.03272 Z-8.34098
X130.61225 Y16.57789 Z-8.48148
X129.65757 Y16.29167 Z-8.65722
X128.14567 Y16.43416 Z-8.92499
G02 X130.61225 Y16.57789 I1.07407 J2.80445 F5000.
G1 X129.65757 Y16.29167
X128.14567 Y16.43416
X127.08489 Y13.44161
G03 X125.91162 Y14.00895 I2.10139 J5.84251
G1 X126.75895 Y13.55715
X127.08489 Y13.44161
Z-8.28999 F5000.
G0 Z3.175
X130.70981 Y21.32524
G1 Z-9.99499 F1250.
Z-10.62999 F3750.
X131.24777 Y20.86343 Z-10.755 F3750.
X131.69302 Y20.04377 Z-10.91948
X131.81778 Y19.14122 Z-11.08014
X131.61146 Y18.21588 Z-11.24731
X131.23682 Y17.60395 Z-11.37382
X130.57359 Y17.04386 Z-11.52689
X129.66234 Y16.70693 Z-11.6982
X128.51895 Y16.75558 Z-11.89999
G02 X126.94347 Y20.39635 I0.77433 J2.49634 F5000.
G1 X128.02503 Y21.52123
G02 X128.51895 Y16.75558 I1.21205 J-2.2828
G1 X127.78915 Y13.66559
G03 X125.75895 Y14.62344 I1.40979 J5.6186
X127.78915 Y13.66559 I3.23533 J4.22698
G1 Z-11.26499 F5000.
G0 Z3.175
X129.35594 Y21.34891
G1 Z-13.16999 F1250.
Z-13.80499 F3750.
X129.45023 Y21.35776 Z-13.82169 F3750.
X130.22226 Y21.13169 Z-13.96354
X130.84285 Y20.64911 Z-14.10215
X131.23945 Y19.98951 Z-14.23786
X131.37321 Y19.25625 Z-14.36929
X131.23804 Y18.50814 Z-14.50334
X130.83982 Y17.84586 Z-14.6396
X130.21583 Y17.35704 Z-14.77937
X129.55589 Y17.14415 Z-14.90164
X128.57461 Y17.20443 Z-15.07499
G02 X127.19326 Y19.7807 I0.73012 J2.04994 F5000.
G1 X127.95124 Y20.9303
G02 X128.57461 Y17.20443 I1.29264 J-1.69881
G1 X127.66195 Y14.16343
G03 X126.34281 Y14.75895 I1.52008 J5.12595
G1 X127.25895 Y14.28438
X127.66195 Y14.16343
Z-14.43999 F5000.
G0 Z3.175
X127.58954 Y19.18272
G1 Z-16.34499 F1250.
Z-16.97999 F3750.
X127.78802 Y20.07567 Z-17.14128 F3750.
X128.76531 Y20.86454 Z-17.36274
X129.88607 Y20.8395 Z-17.56041
X130.50465 Y20.36084 Z-17.69832
X130.83451 Y19.81908 Z-17.81017
X130.7327 Y18.5053 Z-18.04252
X129.88416 Y17.69015 Z-18.24999
X128.68942 Y17.63993 F5000.
G02 X127.78802 Y20.07567 I0.6557 J1.62731
G1 X128.76531 Y20.86454
X129.88607 Y20.8395
X130.50465 Y20.36084
X130.83451 Y19.81908
X130.7327 Y18.5053
X129.88416 Y17.69015
G03 X130.69616 Y14.62074 I0.406 J-1.5347
X125.75895 Y15.80648 I-1.4912 J4.66263
X130.69616 Y14.62074 I3.40021 J3.28616
G1 Z-17.61499 F5000.
G0 Z3.175
X128.91926 Y20.35546
G1 Z-19.51999 F1250.
Z-20.15499 F3750.
X129.50448 Y20.45597 Z-20.25969 F3750.
X130.28693 Y19.96358 Z-20.4227
X130.45694 Y19.00009 Z-20.59522
X129.96222 Y18.2111 Z-20.75942
X128.87431 Y18.10038 Z-20.95224
X128.14083 Y18.71881 Z-21.12141
X128.04403 Y19.50448 Z-21.26099
X128.54118 Y20.29053 Z-21.42499
G02 X130.45694 Y19.00009 I0.67803 J-1.06068 F5000.
G1 X129.96222 Y18.2111
X128.87431 Y18.10038
G02 X128.54118 Y20.29053 I0.36388 J1.17576
G1 X126.22493 Y22.46207
G03 X129.50895 Y23.69998 I3.08357 J-3.20534
X126.22493 Y22.46207 I-0.28521 J-4.21839
G1 Z-20.78999 F5000.
G0 Z3.175
X127.00546 Y18.36851
G1 Z-21.49499 F1250.
Z-22.12999 F3750.
X126.81751 Y19.26799 Z-22.29202 F3750.
X127.03922 Y20.45601 Z-22.50511
X127.27579 Y20.82106 Z-22.58182
X128.20081 Y21.49213 Z-22.78332
X129.0228 Y21.71027 Z-22.93328
X130.22048 Y21.55259 Z-23.14629
X130.81668 Y21.21026 Z-23.26751
X131.21359 Y20.57231 Z-23.39999
X130.0262 Y19.83356
X130.09227 Y18.79524 F5000.
X129.40822 Y18.28982
X128.58116 Y18.58904
X128.37145 Y19.59269
X128.60801 Y19.95774
X129.43 Y20.17589
X130.0262 Y19.83356
X132.45283 Y21.88102
G03 X133.2902 Y20.25895 I-3.19592 J-2.67703
G1 X132.76676 Y21.50895
X132.45283 Y21.88102
Z-22.76499 F5000.
G0 Z3.175
X153.45441 Y17.34364
G1 Z-0.66999 F1250.
Z-1.30499 F3750.
X154.21517 Y17.07326 Z-1.44735 F3750.
X154.96055 Y17.18845 Z-1.58034
X156.23911 Y18.30263 Z-1.87938
X156.42994 Y18.94098 Z-1.99686
X156.00642 Y20.54272 Z-2.28899
X155.44519 Y21.07969 Z-2.42595
X154.61712 Y21.24914 Z-2.57499
X154.34772 Y19.93264
G03 X153.97273 Y18.64214 I-0.09758 J-0.67137 F5000.
G1 X154.71812 Y18.75733
X154.90895 Y19.39567
X154.34772 Y19.93264
G02 X155.36795 Y22.93926 I0.51012 J1.50331
X154.98688 Y15.43143 I-1.08878 J-3.70832
G1 X153.14454 Y15.49308
G02 X155.36795 Y22.93926 I1.08725 J3.73039
G03 X156.17113 Y26.07459 I0.40159 J1.56767
X158.50895 Y24.93868 I-1.88443 J-6.85201
X156.17113 Y26.07459 I-4.02366 J-5.30737
G1 Z-1.93999 F5000.
G0 Z3.175
X153.41661 Y20.72961
G1 Z-3.84499 F1250.
Z-4.47999 F3750.
X153.04082 Y20.58718 Z-4.55085 F3750.
X152.50521 Y19.69505 Z-4.73433
X152.63712 Y18.66288 Z-4.91781
X152.81243 Y18.30996 Z-4.9873
X153.63168 Y17.54746 Z-5.18464
X154.75039 Y17.51495 Z-5.38198
X155.61254 Y18.22859 Z-5.57932
X155.82042 Y18.59239 Z-5.6532
X155.91116 Y19.13374 Z-5.74999
X154.44207 Y19.37999
X154.05888 Y19.36911 F5000.
X154.23419 Y19.01618
X154.44207 Y19.37999
G02 X156.52636 Y21.77506 I1.04215 J1.19753
X152.95893 Y22.44632 I-2.32414 J-2.53651
X156.52636 Y21.77506 I1.27607 J-3.03354
G1 X158.8517 Y24.04121
G03 X160.00895 Y22.59628 I-4.56971 J-4.84579
G1 X159.37041 Y23.50895
X158.8517 Y24.04121
Z-5.11499 F5000.
G0 Z3.175
X156.8828 Y20.60087
G1 Z-7.01999 F1250.
Z-7.65499 F3750.
X157.18598 Y19.83739 Z-7.79984 F3750.
X157.22535 Y18.90391 Z-7.96458
X156.94155 Y17.94652 Z-8.14066
X156.26648 Y17.03272 Z-8.34098
X155.61225 Y16.57789 Z-8.48148
X154.65757 Y16.29167 Z-8.65722
X153.14567 Y16.43416 Z-8.92499
G02 X155.61225 Y16.57789 I1.07407 J2.80445 F5000.
G1 X154.65757 Y16.29167
X153.14567 Y16.43416
X152.08489 Y13.44161
G03 X150.91163 Y14.00895 I2.10139 J5.84251
G1 X151.75895 Y13.55715
X152.08489 Y13.44161
Z-8.28999 F5000.
G0 Z3.175
X155.70981 Y21.32523
G1 Z-9.99499 F1250.
Z-10.62999 F3750.
X156.24777 Y20.86343 Z-10.755 F3750.
X156.69302 Y20.04377 Z-10.91948
X156.81778 Y19.14122 Z-11.08014
X156.61146 Y18.21588 Z-11.24731
X156.23682 Y17.60395 Z-11.37382
X155.57359 Y17.04386 Z-11.52689
X154.66234 Y16.70693 Z-11.6982
X153.51895 Y16.75558 Z-11.89999
G02 X151.94348 Y20.39635 I0.77432 J2.49633 F5000.
G1 X153.02502 Y21.52123
G02 X153.51895 Y16.75558 I1.21206 J-2.2828
G1 X152.78914 Y13.66559
G03 X150.75895 Y14.62343 I1.40979 J5.6186
X152.78914 Y13.66559 I3.23532 J4.22697
G1 Z-11.26499 F5000.
G0 Z3.175
X154.35594 Y21.34891
G1 Z-13.16999 F1250.
Z-13.80499 F3750.
X154.45023 Y21.35776 Z-13.82169 F3750.
X155.22226 Y21.13169 Z-13.96354
X155.84285 Y20.64911 Z-14.10215
X156.23945 Y19.98951 Z-14.23786
X156.37321 Y19.25625 Z-14.36929
X156.23804 Y18.50814 Z-14.50334
X155.83982 Y17.84586 Z-14.6396
X155.21583 Y17.35704 Z-14.77937
X154.55589 Y17.14415 Z-14.90164
X153.57461 Y17.20443 Z-15.07499
G02 X152.19326 Y19.7807 I0.73011 J2.04993 F5000.
G1 X152.95124 Y20.9303
G02 X153.57461 Y17.20443 I1.29264 J-1.69881
G03 X152.66195 Y14.16343 I-0.45633 J-1.5205
X151.3428 Y14.75895 I1.52007 J5.12596
G1 X152.25895 Y14.28438
X152.66195 Y14.16343
Z-14.43999 F5000.
G0 Z3.175
X152.58954 Y19.18272
G1 Z-16.34499 F1250.
Z-16.97999 F3750.
X152.78802 Y20.07567 Z-17.14128 F3750.
X153.76531 Y20.86454 Z-17.36274
X154.88607 Y20.8395 Z-17.56041
X155.50465 Y20.36084 Z-17.69832
X155.83451 Y19.81908 Z-17.81017
X155.7327 Y18.5053 Z-18.04252
X154.88416 Y17.69015 Z-18.24999
X153.68942 Y17.63993 F5000.
G02 X152.78802 Y20.07567 I0.6557 J1.62731
G1 X153.76531 Y20.86454
X154.88607 Y20.8395
X155.50465 Y20.36084
X155.83451 Y19.81908
X155.7327 Y18.5053
X154.88416 Y17.69015
G03 X155.69616 Y14.62074 I0.406 J-1.5347
X150.75895 Y15.80647 I-1.4912 J4.66263
X155.69616 Y14.62074 I3.4002 J3.28617
G1 Z-17.61499 F5000.
G0 Z3.175
X154.58058 Y18.17226
G1 Z-19.51999 F1250.
Z-20.15499 F3750.
X153.87431 Y18.10038 Z-20.28017 F3750.
X153.14083 Y18.71881 Z-20.44934
X153.04403 Y19.50448 Z-20.58892
X153.54118 Y20.29052 Z-20.75292
X154.50448 Y20.45597 Z-20.92526
X155.28693 Y19.96358 Z-21.08827
X155.45694 Y19.00009 Z-21.26078
X154.96222 Y18.2111 Z-21.42499
X153.87431 Y18.10038 F5000.
G02 X153.54118 Y20.29052 I0.36388 J1.17575
X155.45694 Y19.00009 I0.67803 J-1.06067
G1 X154.96222 Y18.2111
X156.66088 Y15.52872
G03 X154.75895 Y14.82146 I-2.46241 J3.71087
X156.66088 Y15.52872 I-0.44518 J4.10808
G1 Z-20.78999 F5000.
G0 Z3.175
X155.38128 Y17.03496
G1 Z-21.49499 F1250.
Z-22.12999 F3750.
X155.3516 Y17.01303 Z-22.1365 F3750.
X153.86815 Y16.79701 Z-22.40083
X153.04109 Y17.09623 Z-22.55591
X152.02722 Y18.26434 Z-22.82865
X151.81751 Y19.26799 Z-23.00944
X152.03922 Y20.45601 Z-23.22254
X152.27579 Y20.82106 Z-23.29924
X152.7383 Y21.15659 Z-23.39999
X153.60801 Y19.95774
X154.43 Y20.17589 F5000.
X155.0262 Y19.83356
X155.09227 Y18.79524
X154.40822 Y18.28982
X153.58116 Y18.58904
X153.37145 Y19.59269
X153.60801 Y19.95774
G03 X151.25184 Y22.0859 I-1.17808 J1.06408
X158.2902 Y20.25895 I3.0141 J-2.85932
X151.25184 Y22.0859 I-4.00861 J-0.97208
G1 Z-22.76499 F5000.
G0 Z3.175
X185.0567 Y20.62079
G1 Z-0.66999 F1250.
Z-1.30499 F3750.
X185.75895 Y20.08579 Z-1.46066 F3750.
X188.00895 Y18.83583 Z-1.9145
X190.00895 Y18.08598 Z-2.29113
X191.58525 Y17.75895 Z-2.57499
X192.50895 Y17.58597 F5000.
X196.00895 Y17.58599
G03 X208.81432 Y37.25895 I-1.79096 J15.16982
X191.58525 Y17.75895 I-14.54935 J-4.50634
G1 Z-1.93999 F5000.
G0 Z3.175
X200.27006 Y20.40469
G1 Z-0.66999 F1250.
Z-1.30499 F3750.
X198.75895 Y19.73984 Z-1.59609 F3750.
X196.25895 Y19.11996 Z-2.05025
X193.75895 Y18.98984 Z-2.49167
X193.2868 Y19.00895 Z-2.57499
G02 X196.25895 Y19.11996 I0.97497 J13.73939 F5000.
G1 X193.75895 Y18.98984
X193.2868 Y19.00895
Z-1.93999 F5000.
G0 Z3.175
X185.08401 Y20.64061
G1 Z-3.84499 F1250.
Z-4.47999 F3750.
X185.50895 Y20.28219 Z-4.57801 F3750.
X187.66462 Y19.00895 Z-5.01947
X190.00895 Y18.10231 Z-5.46267
X191.60183 Y17.75895 Z-5.74999
G03 X179.0555 Y33.75895 I2.6546 J15.00067 F5000.
X191.60183 Y17.75895 I15.19009 J-1.00783
G1 Z-5.11499 F5000.
G0 Z3.175
X200.26117 Y20.38074
G1 Z-3.84499 F1250.
Z-4.47999 F3750.
X199.75895 Y20.10349 Z-4.58114 F3750.
X197.50895 Y19.35337 Z-4.99935
X196.25895 Y19.10344 Z-5.22412
X194.25895 Y18.96252 Z-5.57765
X193.28264 Y19.00895 Z-5.74999
G02 X201.85199 Y21.25895 I0.97168 J13.74289 F5000.
X193.28264 Y19.00895 I-7.54614 J11.29663
G1 Z-5.11499 F5000.
G0 Z3.175
X185.10326 Y20.65079
G1 Z-7.01999 F1250.
Z-7.65499 F3750.
X186.25895 Y19.81365 Z-7.90661 F3750.
X187.68105 Y19.00895 Z-8.19473
X190.00895 Y18.11865 Z-8.6342
X191.61841 Y17.75895 Z-8.92499
G03 X184.25895 Y21.26237 I2.62409 J14.99382 F5000.
X191.61841 Y17.75895 I9.89027 J11.29447
G1 Z-8.28999 F5000.
G0 Z3.175
X200.26848 Y20.34168
G1 Z-7.01999 F1250.
Z-7.65499 F3750.
X199.75895 Y20.08695 Z-7.75543 F3750.
X197.50895 Y19.33689 Z-8.17364
X196.25895 Y19.08693 Z-8.39841
X194.25895 Y18.95423 Z-8.75184
X193.27847 Y19.00895 Z-8.92499
G02 X207.86852 Y30.50895 I0.98148 J13.76 F5000.
X193.27847 Y19.00895 I-13.57855 J2.22191
G1 Z-8.28999 F5000.
G0 Z3.175
X185.12556 Y20.65788
G1 Z-9.99499 F1250.
Z-10.62999 F3750.
X186.32145 Y19.75895 Z-10.89379 F3750.
X187.69645 Y19.00895 Z-11.16996
X190.00895 Y18.13395 Z-11.60593
X191.63395 Y17.75895 Z-11.89999
G03 X190.00895 Y18.13395 I2.60416 J14.99301 F5000.
G1 X191.63395 Y17.75895
Z-11.26499 F5000.
G0 Z3.175
X200.25832 Y20.34199
G1 Z-9.99499 F1250.
Z-10.62999 F3750.
X199.25895 Y19.88395 Z-10.82383 F3750.
X197.50895 Y19.32145 Z-11.14795
X196.25895 Y19.07145 Z-11.37273
X194.25895 Y18.94645 Z-11.72607
X193.27458 Y19.00895 Z-11.89999
G02 X202.75895 Y43.63395 I0.96414 J13.76762 F5000.
G1 X205.13395 Y41.25895
X206.44645 Y39.25895
X207.13395 Y37.75895
G02 X206.69645 Y26.75895 I-13.24104 J-4.98207
X193.27458 Y19.00895 I-12.37256 J5.93011
G1 Z-11.26499 F5000.
G0 Z3.175
X18.45442 Y42.34363
G1 Z-0.66999 F1250.
Z-1.30499 F3750.
X19.21517 Y42.07326 Z-1.44735 F3750.
X19.96055 Y42.18845 Z-1.58034
X21.23911 Y43.30264 Z-1.87938
X21.42994 Y43.941 Z-1.99686
X21.0064 Y45.54275 Z-2.289
X20.44517 Y46.0797 Z-2.42596
X19.61712 Y46.24915 Z-2.57499
X19.34772 Y44.93264
G03 X18.97274 Y43.64214 I-0.09758 J-0.67137 F5000.
G1 X19.71812 Y43.75732
X19.90895 Y44.39568
X19.34772 Y44.93264
G02 X19.46441 Y48.1055 I0.05835 J1.58643
X19.98688 Y40.43143 I-0.19462 J-3.86807
G1 X18.14454 Y40.49308
G02 X19.46441 Y48.1055 I1.08958 J3.73172
G1 X19.81028 Y51.31942
G03 X21.50895 Y50.98805 I-0.50123 J-7.08914
G1 X20.50895 Y51.24423
X19.81028 Y51.31942
Z-1.93999 F5000.
G0 Z3.175
X17.6826 Y44.99053
G1 Z-3.84499 F1250.
Z-4.47999 F3750.
X17.50521 Y44.69506 Z-4.54076 F3750.
X17.63712 Y43.6629 Z-4.72424
X17.81242 Y43.30997 Z-4.79372
X18.63166 Y42.54747 Z-4.99106
X19.75037 Y42.51495 Z-5.18841
X20.61253 Y43.22858 Z-5.38575
X20.82041 Y43.59238 Z-5.45963
X21.0019 Y44.67508 Z-5.6532
X20.71968 Y45.14587 Z-5.74999
X19.44207 Y44.37999
X19.05888 Y44.36911 F5000.
X19.23419 Y44.01618
X19.44207 Y44.37999
G02 X22.16518 Y46.01256 I1.36156 J0.81628
X20.01204 Y47.61073 I-2.96228 J-1.74144
X22.16518 Y46.01256 I-0.70322 J-3.1969
G1 X24.8183 Y47.86878
G03 X25.75895 Y45.66196 I-5.55236 J-3.67055
X24.8183 Y47.86878 I-6.01382 J-1.25948
G1 Z-5.11499 F5000.
G0 Z3.175
X21.88281 Y45.60086
G1 Z-7.01999 F1250.
Z-7.65499 F3750.
X22.18598 Y44.83739 Z-7.79984 F3750.
X22.22536 Y43.90391 Z-7.96458
X21.94155 Y42.94652 Z-8.14066
X21.26648 Y42.03272 Z-8.34098
X20.61226 Y41.57789 Z-8.48148
X19.65757 Y41.29167 Z-8.65722
X18.14567 Y41.43416 Z-8.92499
G02 X20.61226 Y41.57789 I1.07407 J2.80445 F5000.
G1 X19.65757 Y41.29167
X18.14567 Y41.43416
X17.08488 Y38.44161
G03 X15.91162 Y39.00895 I2.10139 J5.84252
G1 X16.75895 Y38.55715
X17.08488 Y38.44161
Z-8.28999 F5000.
G0 Z3.175
X20.70981 Y46.32523
G1 Z-9.99499 F1250.
Z-10.62999 F3750.
X21.24777 Y45.86343 Z-10.755 F3750.
X21.69302 Y45.04378 Z-10.91948
X21.81778 Y44.14122 Z-11.08014
X21.61146 Y43.21588 Z-11.24731
X21.23682 Y42.60395 Z-11.37382
X20.57359 Y42.04386 Z-11.52689
X19.66234 Y41.70693 Z-11.6982
X18.51895 Y41.75558 Z-11.89999
G02 X16.94347 Y45.39635 I0.77433 J2.49634 F5000.
G1 X18.02503 Y46.52123
G02 X18.51895 Y41.75558 I1.21205 J-2.2828
G1 X17.78914 Y38.66559
G03 X15.75895 Y39.62344 I1.4098 J5.6186
X17.78914 Y38.66559 I3.23533 J4.22696
G1 Z-11.26499 F5000.
G0 Z3.175
X19.35594 Y46.34891
G1 Z-13.16999 F1250.
Z-13.80499 F3750.
X19.45023 Y46.35776 Z-13.82169 F3750.
X20.22226 Y46.13169 Z-13.96354
X20.84284 Y45.64911 Z-14.10215
X21.23945 Y44.9895 Z-14.23787
X21.37321 Y44.25625 Z-14.36929
X21.23804 Y43.50815 Z-14.50334
X20.83982 Y42.84586 Z-14.6396
X20.21582 Y42.35704 Z-14.77937
X19.55589 Y42.14415 Z-14.90164
X18.57461 Y42.20443 Z-15.07499
G02 X17.19326 Y44.7807 I0.73012 J2.04994 F5000.
G1 X17.95124 Y45.9303
G02 X18.57461 Y42.20443 I1.29264 J-1.69881
G1 X17.66194 Y39.16343
G03 X16.3428 Y39.75895 I1.52008 J5.12596
G1 X17.25895 Y39.28438
X17.66194 Y39.16343
Z-14.43999 F5000.
G0 Z3.175
X20.40729 Y43.19269
G1 Z-16.34499 F1250.
Z-16.97999 F3750.
X19.88416 Y42.69015 Z-17.1079 F3750.
X18.68942 Y42.63993 Z-17.31875
X18.05362 Y43.07975 Z-17.45507
X17.5679 Y44.08536 Z-17.65198
X17.78802 Y45.07567 Z-17.83086
X18.76531 Y45.86454 Z-18.05232
X19.88606 Y45.8395 Z-18.24999
X20.50465 Y45.36084 F5000.
X20.83451 Y44.81908
X20.73271 Y43.5053
X19.88416 Y42.69015
X18.68942 Y42.63993
G02 X17.78802 Y45.07567 I0.6557 J1.62731
G1 X18.76531 Y45.86454
X19.88606 Y45.8395
G03 X21.1092 Y48.76944 I0.61157 J1.46497
X22.91396 Y47.50895 I-1.83108 J-4.54398
X21.1092 Y48.76944 I-3.48383 J-3.06584
G1 Z-17.61499 F5000.
G0 Z3.175
X18.91926 Y45.35546
G1 Z-19.51999 F1250.
Z-20.15499 F3750.
X19.50448 Y45.45597 Z-20.25969 F3750.
X20.28693 Y44.96358 Z-20.4227
X20.45694 Y44.00009 Z-20.59522
X19.96222 Y43.2111 Z-20.75942
X18.87431 Y43.10038 Z-20.95224
X18.14083 Y43.71881 Z-21.12141
X18.04403 Y44.50448 Z-21.26099
X18.54118 Y45.29053 Z-21.42499
G02 X20.45694 Y44.00009 I0.67803 J-1.06068 F5000.
G1 X19.96222 Y43.2111
X18.87431 Y43.10038
G02 X18.54118 Y45.29053 I0.36388 J1.17576
G1 X16.22492 Y47.46206
G03 X19.50895 Y48.69998 I3.08358 J-3.20533
X16.22492 Y47.46206 I-0.28522 J-4.21836
G1 Z-20.78999 F5000.
G0 Z3.175
X19.37529 Y46.66386
G1 Z-21.49499 F1250.
Z-22.12999 F3750.
X20.22048 Y46.55259 Z-22.28031 F3750.
X20.81668 Y46.21026 Z-22.40153
X21.6105 Y44.93437 Z-22.66649
X21.67657 Y43.89605 Z-22.84995
X21.03565 Y42.51845 Z-23.11786
X20.3516 Y42.01303 Z-23.26782
X19.60987 Y41.90502 Z-23.39999
X19.40822 Y43.28982
X18.58116 Y43.58904 F5000.
X18.37145 Y44.59269
X18.60801 Y44.95774
X19.43 Y45.17589
X20.0262 Y44.83356
X20.09227 Y43.79524
X19.40822 Y43.28982
X20.68082 Y40.38101
G03 X16.97768 Y40.75895 I-1.47439 J3.88473
X20.68082 Y40.38101 I2.19173 J3.14397
G1 Z-22.76499 F5000.
G0 Z3.175
X43.45442 Y42.34363
G1 Z-0.66999 F1250.
Z-1.30499 F3750.
X44.21517 Y42.07326 Z-1.44735 F3750.
X44.96055 Y42.18845 Z-1.58034
X46.23911 Y43.30264 Z-1.87938
X46.42994 Y43.941 Z-1.99686
X46.0064 Y45.54275 Z-2.289
X45.44517 Y46.07971 Z-2.42596
X44.61712 Y46.24915 Z-2.57499
X44.34772 Y44.93264
G03 X43.97274 Y43.64214 I-0.09757 J-0.67137 F5000.
G1 X44.71812 Y43.75732
X44.90895 Y44.39569
X44.34772 Y44.93264
G02 X44.46441 Y48.1055 I0.05835 J1.58643
X44.98687 Y40.43143 I-0.19462 J-3.86807
G1 X43.14454 Y40.49308
G02 X44.46441 Y48.1055 I1.08958 J3.73172
G1 X44.81028 Y51.31942
G03 X46.50895 Y50.98805 I-0.50123 J-7.08914
G1 X45.50895 Y51.24423
X44.81028 Y51.31942
Z-1.93999 F5000.
G0 Z3.175
X43.41662 Y45.72962
G1 Z-3.84499 F1250.
Z-4.47999 F3750.
X43.04081 Y45.58718 Z-4.55085 F3750.
X42.5052 Y44.69506 Z-4.73433
X42.63712 Y43.66289 Z-4.91781
X42.81242 Y43.30997 Z-4.9873
X43.63166 Y42.54747 Z-5.18464
X44.75037 Y42.51495 Z-5.38198
X45.61253 Y43.22857 Z-5.57932
X45.82041 Y43.59238 Z-5.6532
X45.91116 Y44.13372 Z-5.74999
X44.44207 Y44.37999
X44.05888 Y44.36911 F5000.
X44.23419 Y44.01618
X44.44207 Y44.37999
G02 X46.52636 Y46.77506 I1.04215 J1.19753
X42.95893 Y47.44632 I-2.32415 J-2.53651
X46.52636 Y46.77506 I1.27607 J-3.03354
G1 X48.85169 Y49.04122
G03 X50.00895 Y47.59628 I-4.5697 J-4.8458
G1 X49.37042 Y48.50895
X48.85169 Y49.04122
Z-5.11499 F5000.
G0 Z3.175
X46.88281 Y45.60086
G1 Z-7.01999 F1250.
Z-7.65499 F3750.
X47.18598 Y44.83739 Z-7.79984 F3750.
X47.22536 Y43.90391 Z-7.96458
X46.94155 Y42.94652 Z-8.14066
X46.26648 Y42.03272 Z-8.34098
X45.61225 Y41.57789 Z-8.48148
X44.65757 Y41.29167 Z-8.65722
X43.14567 Y41.43416 Z-8.92499
G02 X45.61225 Y41.57789 I1.07407 J2.80445 F5000.
G1 X44.65757 Y41.29167
X43.14567 Y41.43416
G03 X42.08489 Y38.44161 I-0.53039 J-1.49627
X40.91162 Y39.00895 I2.10139 J5.84252
G1 X41.75895 Y38.55715
X42.08489 Y38.44161
Z-8.28999 F5000.
G0 Z3.175
X45.70981 Y46.32523
G1 Z-9.99499 F1250.
Z-10.62999 F3750.
X46.24777 Y45.86343 Z-10.75501 F3750.
X46.69302 Y45.04378 Z-10.91948
X46.81778 Y44.14122 Z-11.08014
X46.61146 Y43.21588 Z-11.24731
X46.23682 Y42.60395 Z-11.37382
X45.57359 Y42.04386 Z-11.52689
X44.66234 Y41.70693 Z-11.6982
X43.51895 Y41.75558 Z-11.89999
G02 X41.94347 Y45.39635 I0.77433 J2.49634 F5000.
G1 X43.02503 Y46.52123
G02 X43.51895 Y41.75558 I1.21205 J-2.2828
G1 X42.78914 Y38.66559
G03 X40.75895 Y39.62344 I1.4098 J5.6186
X42.78914 Y38.66559 I3.23533 J4.22696
G1 Z-11.26499 F5000.
G0 Z3.175
X44.35594 Y46.34891
G1 Z-13.16999 F1250.
Z-13.80499 F3750.
X44.45023 Y46.35776 Z-13.82169 F3750.
X45.22226 Y46.13169 Z-13.96354
X45.84284 Y45.64911 Z-14.10215
X46.23945 Y44.9895 Z-14.23787
X46.37321 Y44.25625 Z-14.36929
X46.23804 Y43.50815 Z-14.50334
X45.83982 Y42.84586 Z-14.6396
X45.21583 Y42.35704 Z-14.77937
X44.55589 Y42.14415 Z-14.90164
X43.57461 Y42.20443 Z-15.07499
G02 X42.19326 Y44.7807 I0.73012 J2.04994 F5000.
G1 X42.95124 Y45.9303
G02 X43.57461 Y42.20443 I1.29264 J-1.69881
G03 X42.66195 Y39.16343 I-0.45633 J-1.5205
X41.3428 Y39.75895 I1.52007 J5.12595
G1 X42.25895 Y39.28438
X42.66195 Y39.16343
Z-14.43999 F5000.
G0 Z3.175
X44.68005 Y45.8441
G1 Z-16.34499 F1250.
Z-16.97999 F3750.
X44.88607 Y45.8395 Z-17.01632 F3750.
X45.50465 Y45.36084 Z-17.15424
X45.83451 Y44.81908 Z-17.26608
X45.73271 Y43.5053 Z-17.49843
X44.88416 Y42.69015 Z-17.7059
X43.68942 Y42.63993 Z-17.91676
X43.05362 Y43.07974 Z-18.05307
X42.5679 Y44.08536 Z-18.24999
X42.78802 Y45.07567 F5000.
X43.76531 Y45.86454
X44.88607 Y45.8395
X45.50465 Y45.36084
X45.83451 Y44.81908
X45.73271 Y43.5053
X44.88416 Y42.69015
X43.68942 Y42.63993
X43.05362 Y43.07974
X42.5679 Y44.08536
X39.39741 Y44.25445
X39.37098 Y43.75895
G03 X39.45098 Y45.25895 I4.8792 J0.49192
G1 X39.39741 Y44.25445
Z-17.61499 F5000.
G0 Z3.175
X44.58058 Y43.17226
G1 Z-19.51999 F1250.
Z-20.15499 F3750.
X43.87431 Y43.10038 Z-20.28017 F3750.
X43.14083 Y43.71881 Z-20.44934
X43.04403 Y44.50448 Z-20.58892
X43.54118 Y45.29053 Z-20.75292
X44.50448 Y45.45597 Z-20.92526
X45.28693 Y44.96358 Z-21.08827
X45.45694 Y44.00009 Z-21.26078
X44.96222 Y43.2111 Z-21.42499
X43.87431 Y43.10038 F5000.
G02 X43.54118 Y45.29053 I0.36388 J1.17576
X45.45694 Y44.00009 I0.67803 J-1.06068
G1 X44.96222 Y43.2111
X46.66088 Y40.52871
G03 X44.75895 Y39.82146 I-2.4624 J3.71088
X46.66088 Y40.52871 I-0.44517 J4.10804
G1 Z-20.78999 F5000.
G0 Z3.175
X43.40752 Y41.96366
G1 Z-21.49499 F1250.
Z-22.12999 F3750.
X43.04109 Y42.09623 Z-22.1987 F3750.
X42.02722 Y43.26434 Z-22.47143
X41.81751 Y44.26799 Z-22.65223
X42.03922 Y45.45601 Z-22.86532
X42.27579 Y45.82106 Z-22.94202
X43.20081 Y46.49213 Z-23.14353
X44.0228 Y46.71027 Z-23.29349
X44.62164 Y46.63143 Z-23.39999
X44.43 Y45.17589
X45.0262 Y44.83356 F5000.
X45.09227 Y43.79524
X44.40822 Y43.28982
X43.58116 Y43.58904
X43.37145 Y44.59269
X43.60801 Y44.95774
X44.43 Y45.17589
X45.30225 Y48.22872
G03 X48.2902 Y45.25895 I-1.03082 J-4.02513
X45.30225 Y48.22872 I-3.864 J-0.89965
G1 Z-22.76499 F5000.
G0 Z3.175
X68.45441 Y42.34363
G1 Z-0.66999 F1250.
Z-1.30499 F3750.
X69.21518 Y42.07327 Z-1.44735 F3750.
X69.96056 Y42.18845 Z-1.58034
X71.23911 Y43.30264 Z-1.87938
X71.42994 Y43.94099 Z-1.99686
X71.00641 Y45.54274 Z-2.289
X70.44518 Y46.0797 Z-2.42596
X69.61712 Y46.24915 Z-2.57499
X69.34772 Y44.93264
G03 X68.97274 Y43.64214 I-0.09758 J-0.67137 F5000.
G1 X69.71812 Y43.75733
X69.90895 Y44.39568
X69.34772 Y44.93264
G02 X69.46441 Y48.1055 I0.05835 J1.58643
X69.98687 Y40.43143 I-0.19462 J-3.86807
G1 X68.14454 Y40.49308
G02 X69.46441 Y48.1055 I1.08958 J3.73172
G1 X69.81028 Y51.31942
G03 X71.50895 Y50.98805 I-0.50123 J-7.08914
G1 X70.50895 Y51.24423
X69.81028 Y51.31942
Z-1.93999 F5000.
G0 Z3.175
X68.41662 Y45.72962
G1 Z-3.84499 F1250.
Z-4.47999 F3750.
X68.04081 Y45.58718 Z-4.55085 F3750.
X67.5052 Y44.69505 Z-4.73433
X67.63712 Y43.66289 Z-4.91781
X67.81242 Y43.30997 Z-4.9873
X68.63167 Y42.54747 Z-5.18464
X69.75038 Y42.51495 Z-5.38198
X70.61253 Y43.22857 Z-5.57932
X70.82041 Y43.59238 Z-5.6532
X70.91116 Y44.13373 Z-5.74999
X69.44207 Y44.37999
X69.05888 Y44.36911 F5000.
X69.23419 Y44.01618
X69.44207 Y44.37999
G02 X71.52636 Y46.77506 I1.04215 J1.19754
X67.95893 Y47.44632 I-2.32414 J-2.53651
X71.52636 Y46.77506 I1.27607 J-3.03354
G03 X73.85168 Y49.04123 I1.16266 J1.13308
X75.00895 Y47.59628 I-4.56969 J-4.84581
G1 X74.37042 Y48.50895
X73.85168 Y49.04123
Z-5.11499 F5000.
G0 Z3.175
X71.88281 Y45.60086
G1 Z-7.01999 F1250.
Z-7.65499 F3750.
X72.18598 Y44.83739 Z-7.79984 F3750.
X72.22536 Y43.90391 Z-7.96458
X71.94155 Y42.94652 Z-8.14066
X71.26648 Y42.03272 Z-8.34098
X70.61225 Y41.57789 Z-8.48148
X69.65757 Y41.29167 Z-8.65722
X68.14567 Y41.43416 Z-8.92499
G02 X70.61225 Y41.57789 I1.07407 J2.80445 F5000.
G1 X69.65757 Y41.29167
X68.14567 Y41.43416
X67.08488 Y38.44161
G03 X65.91162 Y39.00895 I2.1014 J5.84251
G1 X66.75895 Y38.55715
X67.08488 Y38.44161
Z-8.28999 F5000.
G0 Z3.175
X70.70981 Y46.32524
G1 Z-9.99499 F1250.
Z-10.62999 F3750.
X71.24777 Y45.86343 Z-10.755 F3750.
X71.69302 Y45.04378 Z-10.91948
X71.81778 Y44.14122 Z-11.08014
X71.61146 Y43.21588 Z-11.24731
X71.23682 Y42.60395 Z-11.37382
X70.57359 Y42.04386 Z-11.52689
X69.66234 Y41.70693 Z-11.6982
X68.51896 Y41.75558 Z-11.89999
G02 X66.94347 Y45.39635 I0.77432 J2.49634 F5000.
G1 X68.02503 Y46.52123
G02 X68.51896 Y41.75558 I1.21205 J-2.2828
G1 X67.78914 Y38.66559
G03 X65.75895 Y39.62344 I1.4098 J5.6186
X67.78914 Y38.66559 I3.23534 J4.22699
G1 Z-11.26499 F5000.
G0 Z3.175
X69.35594 Y46.34891
G1 Z-13.16999 F1250.
Z-13.80499 F3750.
X69.45023 Y46.35776 Z-13.82169 F3750.
X70.22226 Y46.13169 Z-13.96354
X70.84284 Y45.64911 Z-14.10215
X71.23945 Y44.9895 Z-14.23787
X71.37321 Y44.25625 Z-14.36929
X71.23804 Y43.50814 Z-14.50334
X70.83982 Y42.84586 Z-14.6396
X70.21582 Y42.35704 Z-14.77937
X69.55589 Y42.14415 Z-14.90164
X68.57461 Y42.20443 Z-15.07499
G02 X67.19326 Y44.7807 I0.73012 J2.04994 F5000.
G1 X67.95124 Y45.9303
G02 X68.57461 Y42.20443 I1.29264 J-1.69881
G1 X67.66194 Y39.16344
G03 X66.34281 Y39.75895 I1.52009 J5.12594
G1 X67.25895 Y39.28438
X67.66194 Y39.16344
Z-14.43999 F5000.
G0 Z3.175
X69.19374 Y42.66113
G1 Z-16.34499 F1250.
Z-16.97999 F3750.
X68.68942 Y42.63993 Z-17.06899 F3750.
X68.05362 Y43.07974 Z-17.20531
X67.5679 Y44.08536 Z-17.40223
X67.78802 Y45.07567 Z-17.58111
X68.76531 Y45.86454 Z-17.80257
X69.88607 Y45.8395 Z-18.00024
X70.50465 Y45.36084 Z-18.13815
X70.83451 Y44.81908 Z-18.24999
X70.73271 Y43.5053 F5000.
X69.88416 Y42.69015
X68.68942 Y42.63993
G02 X67.78802 Y45.07567 I0.6557 J1.62731
G1 X68.76531 Y45.86454
X69.88607 Y45.8395
X70.50465 Y45.36084
X70.83451 Y44.81908
G03 X73.9398 Y45.48074 I1.55264 J0.33083
X72.69352 Y40.75895 I-4.72149 J-1.27917
X73.9398 Y45.48074 I-3.31082 J3.39923
G1 Z-17.61499 F5000.
G0 Z3.175
X69.58058 Y43.17226
G1 Z-19.51999 F1250.
Z-20.15499 F3750.
X68.87431 Y43.10038 Z-20.28017 F3750.
X68.14083 Y43.71881 Z-20.44934
X68.04403 Y44.50448 Z-20.58892
X68.54118 Y45.29053 Z-20.75292
X69.50448 Y45.45597 Z-20.92526
X70.28693 Y44.96357 Z-21.08827
X70.45694 Y44.00009 Z-21.26078
X69.96222 Y43.2111 Z-21.42499
X68.87431 Y43.10038 F5000.
G02 X68.54118 Y45.29053 I0.36388 J1.17576
X70.45694 Y44.00009 I0.67803 J-1.06068
G1 X69.96222 Y43.2111
G03 X72.28924 Y41.05109 I1.16351 J-1.08
X69.75895 Y39.82146 I-3.11141 J3.18435
X72.28924 Y41.05109 I-0.38742 J4.01539
G1 Z-20.78999 F5000.
G0 Z3.175
X67.00546 Y43.36852
G1 Z-21.49499 F1250.
Z-22.12999 F3750.
X66.81751 Y44.26799 Z-22.29202 F3750.
X67.03922 Y45.45601 Z-22.50511
X67.27579 Y45.82106 Z-22.58182
X68.20081 Y46.49213 Z-22.78332
X69.0228 Y46.71027 Z-22.93328
X70.22048 Y46.55259 Z-23.14629
X70.81668 Y46.21026 Z-23.26751
X71.21359 Y45.57231 Z-23.39999
X70.0262 Y44.83356
X70.09227 Y43.79524 F5000.
X69.40822 Y43.28982
X68.58116 Y43.58904
X68.37145 Y44.59269
X68.60801 Y44.95774
X69.43 Y45.17589
X70.0262 Y44.83356
X72.45283 Y46.88102
G03 X73.2902 Y45.25895 I-3.19592 J-2.67703
G1 X72.76677 Y46.50895
X72.45283 Y46.88102
Z-22.76499 F5000.
G0 Z3.175
X93.45441 Y42.34364
G1 Z-0.66999 F1250.
Z-1.30499 F3750.
X94.21518 Y42.07327 Z-1.44735 F3750.
X94.96056 Y42.18845 Z-1.58034
X96.23911 Y43.30264 Z-1.87938
X96.42994 Y43.94099 Z-1.99686
X96.00641 Y45.54274 Z-2.289
X95.44518 Y46.0797 Z-2.42596
X94.61712 Y46.24915 Z-2.57499
X94.34772 Y44.93264
G03 X93.97274 Y43.64214 I-0.09758 J-0.67137 F5000.
G1 X94.71812 Y43.75733
X94.90895 Y44.39568
X94.34772 Y44.93264
G02 X94.46441 Y48.1055 I0.05835 J1.58643
X94.98687 Y40.43143 I-0.19462 J-3.86807
G1 X93.14454 Y40.49308
G02 X94.46441 Y48.1055 I1.08958 J3.73172
G1 X94.81028 Y51.31942
G03 X96.50895 Y50.98805 I-0.50123 J-7.08914
G1 X95.50895 Y51.24423
X94.81028 Y51.31942
Z-1.93999 F5000.
G0 Z3.175
X92.60068 Y43.94799
G1 Z-3.84499 F1250.
Z-4.47999 F3750.
X92.63711 Y43.66291 Z-4.53067 F3750.
X92.81242 Y43.30998 Z-4.60015
X93.63166 Y42.54747 Z-4.79749
X94.75037 Y42.51495 Z-4.99484
X95.61253 Y43.22857 Z-5.19218
X95.82041 Y43.59238 Z-5.26606
X96.00191 Y44.67507 Z-5.45963
X95.43747 Y45.61665 Z-5.6532
X94.91725 Y45.79175 Z-5.74999
X94.44207 Y44.37999
X94.05888 Y44.36911 F5000.
X94.23419 Y44.01618
X94.44207 Y44.37999
G02 X96.52636 Y46.77506 I1.04215 J1.19754
X92.95893 Y47.44632 I-2.32414 J-2.53651
X96.52636 Y46.77506 I1.27607 J-3.03354
G03 X98.85168 Y49.04123 I1.16266 J1.13308
X100.00895 Y47.59628 I-4.56969 J-4.84581
G1 X99.37042 Y48.50895
X98.85168 Y49.04123
Z-5.11499 F5000.
G0 Z3.175
X96.88281 Y45.60086
G1 Z-7.01999 F1250.
Z-7.65499 F3750.
X97.18598 Y44.83739 Z-7.79984 F3750.
X97.22536 Y43.90391 Z-7.96458
X96.94155 Y42.94652 Z-8.14066
X96.26648 Y42.03272 Z-8.34098
X95.61225 Y41.57789 Z-8.48148
X94.65757 Y41.29167 Z-8.65722
X93.14567 Y41.43416 Z-8.92499
G02 X95.61225 Y41.57789 I1.07407 J2.80445 F5000.
G1 X94.65757 Y41.29167
X93.14567 Y41.43416
X92.08488 Y38.44161
G03 X90.91162 Y39.00895 I2.10139 J5.84252
G1 X91.75895 Y38.55715
X92.08488 Y38.44161
Z-8.28999 F5000.
G0 Z3.175
X95.70981 Y46.32524
G1 Z-9.99499 F1250.
Z-10.62999 F3750.
X96.24777 Y45.86343 Z-10.755 F3750.
X96.69302 Y45.04378 Z-10.91948
X96.81778 Y44.14122 Z-11.08014
X96.61146 Y43.21588 Z-11.24731
X96.23682 Y42.60395 Z-11.37382
X95.57359 Y42.04386 Z-11.52689
X94.66234 Y41.70693 Z-11.6982
X93.51896 Y41.75558 Z-11.89999
G02 X91.94347 Y45.39635 I0.77432 J2.49634 F5000.
G1 X93.02503 Y46.52123
G02 X93.51896 Y41.75558 I1.21205 J-2.2828
G03 X92.78914 Y38.66559 I-0.36491 J-1.54499
X90.75895 Y39.62344 I1.4098 J5.6186
X92.78914 Y38.66559 I3.23534 J4.22699
G1 Z-11.26499 F5000.
G0 Z3.175
X94.35594 Y46.34891
G1 Z-13.16999 F1250.
Z-13.80499 F3750.
X94.45023 Y46.35776 Z-13.82169 F3750.
X95.22226 Y46.13169 Z-13.96354
X95.84284 Y45.64911 Z-14.10215
X96.23945 Y44.9895 Z-14.23787
X96.37321 Y44.25625 Z-14.36929
X96.23804 Y43.50814 Z-14.50334
X95.83982 Y42.84586 Z-14.6396
X95.21582 Y42.35704 Z-14.77937
X94.55589 Y42.14415 Z-14.90164
X93.57461 Y42.20443 Z-15.07499
G02 X92.19326 Y44.7807 I0.73012 J2.04994 F5000.
G1 X92.95124 Y45.9303
G02 X93.57461 Y42.20443 I1.29264 J-1.69881
G1 X92.66194 Y39.16344
G03 X91.34281 Y39.75895 I1.52009 J5.12594
G1 X92.25895 Y39.28438
X92.66194 Y39.16344
Z-14.43999 F5000.
G0 Z3.175
X94.68005 Y45.8441
G1 Z-16.34499 F1250.
Z-16.97999 F3750.
X94.88607 Y45.8395 Z-17.01632 F3750.
X95.50465 Y45.36084 Z-17.15424
X95.83451 Y44.81908 Z-17.26608
X95.73271 Y43.5053 Z-17.49843
X94.88416 Y42.69015 Z-17.70591
X93.68942 Y42.63993 Z-17.91676
X93.05362 Y43.07975 Z-18.05307
X92.5679 Y44.08536 Z-18.24999
X92.78802 Y45.07567 F5000.
X93.76531 Y45.86454
X94.88607 Y45.8395
X95.50465 Y45.36084
X95.83451 Y44.81908
X95.73271 Y43.5053
X94.88416 Y42.69015
X93.68942 Y42.63993
X93.05362 Y43.07975
X92.5679 Y44.08536
X89.497 Y43.27902
G03 X91.25895 Y48.13611 I4.79049 J1.01034
X89.497 Y43.27902 I2.85467 J-3.78368
G1 Z-17.61499 F5000.
G0 Z3.175
X94.58058 Y43.17226
G1 Z-19.51999 F1250.
Z-20.15499 F3750.
X93.87431 Y43.10038 Z-20.28017 F3750.
X93.14083 Y43.71881 Z-20.44933
X93.04403 Y44.50448 Z-20.58892
X93.54118 Y45.29053 Z-20.75291
X94.50448 Y45.45597 Z-20.92526
X95.28693 Y44.96357 Z-21.08827
X95.45694 Y44.00009 Z-21.26078
X94.96222 Y43.2111 Z-21.42499
X93.87431 Y43.10038 F5000.
G02 X93.54118 Y45.29053 I0.36388 J1.17576
X95.45694 Y44.00009 I0.67803 J-1.06068
G1 X94.96222 Y43.2111
G03 X97.28924 Y41.05109 I1.16351 J-1.08
X94.75895 Y39.82146 I-3.11141 J3.18435
X97.28924 Y41.05109 I-0.38742 J4.01539
G1 Z-20.78999 F5000.
G0 Z3.175
X92.00546 Y43.36852
G1 Z-21.49499 F1250.
Z-22.12999 F3750.
X91.81751 Y44.26799 Z-22.29202 F3750.
X92.03922 Y45.45601 Z-22.50511
X92.27579 Y45.82106 Z-22.58182
X93.20081 Y46.49213 Z-22.78332
X94.0228 Y46.71027 Z-22.93328
X95.22048 Y46.55259 Z-23.14629
X95.81668 Y46.21026 Z-23.26751
X96.21359 Y45.57231 Z-23.39999
X95.0262 Y44.83356
X95.09227 Y43.79524 F5000.
X94.40822 Y43.28982
X93.58116 Y43.58904
X93.37145 Y44.59269
X93.60801 Y44.95774
X94.43 Y45.17589
X95.0262 Y44.83356
X97.45283 Y46.88102
G03 X98.2902 Y45.25895 I-3.19592 J-2.67703
G1 X97.76677 Y46.50895
X97.45283 Y46.88102
Z-22.76499 F5000.
G0 Z3.175
X128.4544 Y42.34364
G1 Z-0.66999 F1250.
Z-1.30499 F3750.
X129.21518 Y42.07326 Z-1.44736 F3750.
X129.96056 Y42.18845 Z-1.58035
X131.23911 Y43.30263 Z-1.87938
X131.42994 Y43.94098 Z-1.99686
X131.00642 Y45.54271 Z-2.28899
X130.4452 Y46.07969 Z-2.42595
X129.61713 Y46.24914 Z-2.57499
X129.34772 Y44.93264
G03 X128.97274 Y43.64214 I-0.09758 J-0.67137 F5000.
G1 X129.71812 Y43.75733
X129.90895 Y44.39567
X129.34772 Y44.93264
G02 X129.46441 Y48.1055 I0.05835 J1.58643
X129.98688 Y40.43143 I-0.19463 J-3.86807
G1 X128.14454 Y40.49308
G02 X129.46441 Y48.1055 I1.08958 J3.73172
G1 X129.81028 Y51.31942
G03 X131.50895 Y50.98805 I-0.50123 J-7.08914
G1 X130.50895 Y51.24423
X129.81028 Y51.31942
Z-1.93999 F5000.
G0 Z3.175
X127.68261 Y44.99055
G1 Z-3.84499 F1250.
Z-4.47999 F3750.
X127.50521 Y44.69508 Z-4.54076 F3750.
X127.63711 Y43.66291 Z-4.72424
X127.81242 Y43.30998 Z-4.79372
X128.63166 Y42.54747 Z-4.99107
X129.75037 Y42.51495 Z-5.18841
X130.61253 Y43.22857 Z-5.38575
X130.82041 Y43.59237 Z-5.45963
X131.00191 Y44.67506 Z-5.6532
X130.71969 Y45.14585 Z-5.74999
X129.44207 Y44.37999
X129.05888 Y44.36911 F5000.
X129.23419 Y44.01618
X129.44207 Y44.37999
G02 X131.52636 Y46.77506 I1.04215 J1.19753
X127.95893 Y47.44632 I-2.32415 J-2.53651
X131.52636 Y46.77506 I1.27607 J-3.03354
G1 X133.8517 Y49.04121
G03 X135.00895 Y47.59628 I-4.5697 J-4.84579
G1 X134.37041 Y48.50895
X133.8517 Y49.04121
Z-5.11499 F5000.
G0 Z3.175
X131.8828 Y45.60087
G1 Z-7.01999 F1250.
Z-7.65499 F3750.
X132.18598 Y44.83739 Z-7.79984 F3750.
X132.22535 Y43.90391 Z-7.96458
X131.94155 Y42.94652 Z-8.14066
X131.26648 Y42.03272 Z-8.34098
X130.61225 Y41.57789 Z-8.48148
X129.65757 Y41.29167 Z-8.65722
X128.14567 Y41.43416 Z-8.92499
G02 X130.61225 Y41.57789 I1.07407 J2.80445 F5000.
G1 X129.65757 Y41.29167
X128.14567 Y41.43416
X127.08488 Y38.44161
G03 X125.91162 Y39.00895 I2.10139 J5.84252
G1 X126.75895 Y38.55715
X127.08488 Y38.44161
Z-8.28999 F5000.
G0 Z3.175
X130.70981 Y46.32524
G1 Z-9.99499 F1250.
Z-10.62999 F3750.
X131.24777 Y45.86343 Z-10.75501 F3750.
X131.69302 Y45.04377 Z-10.91948
X131.81778 Y44.14122 Z-11.08014
X131.61146 Y43.21588 Z-11.24731
X131.23682 Y42.60395 Z-11.37382
X130.57359 Y42.04386 Z-11.52689
X129.66234 Y41.70693 Z-11.6982
X128.51895 Y41.75558 Z-11.89999
G02 X126.94347 Y45.39635 I0.77433 J2.49634 F5000.
G1 X128.02503 Y46.52123
G02 X128.51895 Y41.75558 I1.21205 J-2.2828
G1 X127.78914 Y38.66559
G03 X125.75895 Y39.62344 I1.4098 J5.6186
X127.78914 Y38.66559 I3.23534 J4.22698
G1 Z-11.26499 F5000.
G0 Z3.175
X129.35594 Y46.34891
G1 Z-13.16999 F1250.
Z-13.80499 F3750.
X129.45023 Y46.35776 Z-13.82169 F3750.
X130.22226 Y46.13169 Z-13.96354
X130.84285 Y45.64911 Z-14.10215
X131.23945 Y44.98951 Z-14.23786
X131.37321 Y44.25625 Z-14.36929
X131.23804 Y43.50814 Z-14.50334
X130.83982 Y42.84586 Z-14.6396
X130.21583 Y42.35704 Z-14.77937
X129.55589 Y42.14415 Z-14.90164
X128.57461 Y42.20443 Z-15.07499
G02 X127.19326 Y44.7807 I0.73012 J2.04994 F5000.
G1 X127.95124 Y45.9303
G02 X128.57461 Y42.20443 I1.29264 J-1.69881
G1 X127.66194 Y39.16344
G03 X126.34281 Y39.75895 I1.52009 J5.12594
G1 X127.25895 Y39.28438
X127.66194 Y39.16344
Z-14.43999 F5000.
G0 Z3.175
X130.40729 Y43.19269
G1 Z-16.34499 F1250.
Z-16.97999 F3750.
X129.88416 Y42.69015 Z-17.1079 F3750.
X128.68942 Y42.63993 Z-17.31875
X128.05362 Y43.07975 Z-17.45507
X127.5679 Y44.08536 Z-17.65198
X127.78802 Y45.07567 Z-17.83086
X128.76531 Y45.86454 Z-18.05232
X129.88607 Y45.8395 Z-18.24999
X130.50465 Y45.36084 F5000.
X130.83451 Y44.81908
X130.7327 Y43.5053
X129.88416 Y42.69015
X128.68942 Y42.63993
G02 X127.78802 Y45.07567 I0.6557 J1.62731
G1 X128.76531 Y45.86454
X129.88607 Y45.8395
G03 X131.1092 Y48.76945 I0.61156 J1.46497
X132.91396 Y47.50895 I-1.83108 J-4.54398
X131.1092 Y48.76945 I-3.48382 J-3.06582
G1 Z-17.61499 F5000.
G0 Z3.175
X130.35359 Y44.5858
G1 Z-19.51999 F1250.
Z-20.15499 F3750.
X130.45694 Y44.00009 Z-20.25986 F3750.
X129.96223 Y43.2111 Z-20.42407
X128.8743 Y43.10038 Z-20.61689
X128.14083 Y43.71881 Z-20.78606
X128.04403 Y44.50448 Z-20.92564
X128.54118 Y45.29053 Z-21.08964
X129.50448 Y45.45597 Z-21.26198
X130.28693 Y44.96358 Z-21.42499
X130.45694 Y44.00009 F5000.
X129.96223 Y43.2111
X128.8743 Y43.10038
G02 X128.54118 Y45.29053 I0.36389 J1.17576
G1 X129.50448 Y45.45597
X130.28693 Y44.96358
X132.45602 Y47.28213
G03 X133.70098 Y44.00895 I-3.1994 J-3.09026
X132.45602 Y47.28213 I-4.22157 J0.26766
G1 Z-20.78999 F5000.
G0 Z3.175
X127.00546 Y43.36852
G1 Z-21.49499 F1250.
Z-22.12999 F3750.
X126.81751 Y44.26799 Z-22.29202 F3750.
X127.03922 Y45.45601 Z-22.50511
X127.27579 Y45.82106 Z-22.58182
X128.20081 Y46.49213 Z-22.78332
X129.0228 Y46.71027 Z-22.93328
X130.22048 Y46.55259 Z-23.14629
X130.81668 Y46.21026 Z-23.26751
X131.21359 Y45.57231 Z-23.39999
X130.0262 Y44.83356
X130.09227 Y43.79524 F5000.
X129.40822 Y43.28982
X128.58116 Y43.58904
X128.37145 Y44.59269
X128.60801 Y44.95774
X129.43 Y45.17589
X130.0262 Y44.83356
X132.9548 Y46.05991
X132.76676 Y46.50895
G03 X133.38395 Y43.75895 I-3.52328 J-2.235
G1 X133.2902 Y45.25895
X132.9548 Y46.05991
Z-22.76499 F5000.
G0 Z3.175
X153.45441 Y42.34364
G1 Z-0.66999 F1250.
Z-1.30499 F3750.
X154.21517 Y42.07326 Z-1.44735 F3750.
X154.96055 Y42.18845 Z-1.58034
X156.23911 Y43.30263 Z-1.87938
X156.42994 Y43.94098 Z-1.99686
X156.00642 Y45.54271 Z-2.28899
X155.44519 Y46.07969 Z-2.42595
X154.61713 Y46.24914 Z-2.57499
X154.34772 Y44.93264
G03 X153.97273 Y43.64214 I-0.09757 J-0.67137 F5000.
G1 X154.71812 Y43.75733
X154.90895 Y44.39567
X154.34772 Y44.93264
G02 X155.36795 Y47.93926 I0.51012 J1.50331
X154.98688 Y40.43143 I-1.08878 J-3.70832
G1 X153.14454 Y40.49308
G02 X155.36795 Y47.93926 I1.08725 J3.73039
G1 X156.17114 Y51.07459
G03 X158.50895 Y49.93868 I-1.88444 J-6.85201
X156.17114 Y51.07459 I-4.02368 J-5.3074
G1 Z-1.93999 F5000.
G0 Z3.175
X152.68261 Y44.99054
G1 Z-3.84499 F1250.
Z-4.47999 F3750.
X152.50521 Y44.69506 Z-4.54076 F3750.
X152.63712 Y43.66289 Z-4.72424
X152.81243 Y43.30997 Z-4.79372
X153.63167 Y42.54747 Z-4.99107
X154.75038 Y42.51495 Z-5.18841
X155.61253 Y43.22857 Z-5.38575
X155.82041 Y43.59238 Z-5.45963
X156.00191 Y44.67507 Z-5.6532
X155.71969 Y45.14586 Z-5.74999
X154.44207 Y44.37999
X154.05888 Y44.36911 F5000.
X154.23419 Y44.01618
X154.44207 Y44.37999
G02 X156.52636 Y46.77506 I1.04215 J1.19753
X152.95893 Y47.44632 I-2.32415 J-2.53651
X156.52636 Y46.77506 I1.27607 J-3.03354
G1 X158.8517 Y49.04121
G03 X160.00895 Y47.59628 I-4.56971 J-4.84579
G1 X159.37041 Y48.50895
X158.8517 Y49.04121
Z-5.11499 F5000.
G0 Z3.175
X156.8828 Y45.60087
G1 Z-7.01999 F1250.
Z-7.65499 F3750.
X157.18598 Y44.83739 Z-7.79984 F3750.
X157.22535 Y43.90391 Z-7.96458
X156.94155 Y42.94652 Z-8.14066
X156.26648 Y42.03272 Z-8.34098
X155.61225 Y41.57789 Z-8.48148
X154.65757 Y41.29167 Z-8.65722
X153.14567 Y41.43416 Z-8.92499
G02 X155.61225 Y41.57789 I1.07407 J2.80445 F5000.
G1 X154.65757 Y41.29167
X153.14567 Y41.43416
G03 X152.08489 Y38.44161 I-0.53039 J-1.49627
X150.91163 Y39.00895 I2.10139 J5.84252
G1 X151.75895 Y38.55715
X152.08489 Y38.44161
Z-8.28999 F5000.
G0 Z3.175
X155.70981 Y46.32523
G1 Z-9.99499 F1250.
Z-10.62999 F3750.
X156.24777 Y45.86343 Z-10.755 F3750.
X156.69302 Y45.04377 Z-10.91948
X156.81778 Y44.14122 Z-11.08014
X156.61146 Y43.21588 Z-11.24731
X156.23682 Y42.60395 Z-11.37382
X155.57359 Y42.04386 Z-11.52689
X154.66234 Y41.70693 Z-11.6982
X153.51895 Y41.75558 Z-11.89999
G02 X151.94348 Y45.39635 I0.77432 J2.49633 F5000.
G1 X153.02503 Y46.52123
G02 X153.51895 Y41.75558 I1.21205 J-2.2828
G1 X152.78914 Y38.66559
G03 X150.75895 Y39.62343 I1.40979 J5.6186
X152.78914 Y38.66559 I3.23533 J4.22698
G1 Z-11.26499 F5000.
G0 Z3.175
X154.35594 Y46.34891
G1 Z-13.16999 F1250.
Z-13.80499 F3750.
X154.45023 Y46.35776 Z-13.82169 F3750.
X155.22226 Y46.13169 Z-13.96354
X155.84285 Y45.64911 Z-14.10215
X156.23945 Y44.98951 Z-14.23786
X156.37321 Y44.25625 Z-14.36929
X156.23804 Y43.50814 Z-14.50334
X155.83982 Y42.84586 Z-14.6396
X155.21583 Y42.35704 Z-14.77937
X154.55589 Y42.14415 Z-14.90164
X153.57461 Y42.20443 Z-15.07499
G02 X152.19326 Y44.7807 I0.73011 J2.04993 F5000.
G1 X152.95124 Y45.9303
G02 X153.57461 Y42.20443 I1.29264 J-1.69881
G1 X152.66195 Y39.16343
G03 X151.3428 Y39.75895 I1.52007 J5.12596
G1 X152.25895 Y39.28438
X152.66195 Y39.16343
Z-14.43999 F5000.
G0 Z3.175
X154.68006 Y45.8441
G1 Z-16.34499 F1250.
Z-16.97999 F3750.
X154.88607 Y45.8395 Z-17.01632 F3750.
X155.50465 Y45.36084 Z-17.15424
X155.83451 Y44.81908 Z-17.26608
X155.7327 Y43.5053 Z-17.49843
X154.88416 Y42.69015 Z-17.7059
X153.68942 Y42.63993 Z-17.91676
X153.05363 Y43.07974 Z-18.05307
X152.5679 Y44.08536 Z-18.24999
X152.78802 Y45.07567 F5000.
X153.76531 Y45.86454
X154.88607 Y45.8395
X155.50465 Y45.36084
X155.83451 Y44.81908
X155.7327 Y43.5053
X154.88416 Y42.69015
X153.68942 Y42.63993
X153.05363 Y43.07974
X152.5679 Y44.08536
X149.39741 Y44.25444
X149.37098 Y43.75895
G03 X149.45098 Y45.25895 I4.8792 J0.49193
G1 X149.39741 Y44.25444
Z-17.61499 F5000.
G0 Z3.175
X155.35359 Y44.5858
G1 Z-19.51999 F1250.
Z-20.15499 F3750.
X155.45694 Y44.00009 Z-20.25986 F3750.
X154.96223 Y43.2111 Z-20.42407
X153.87431 Y43.10038 Z-20.61689
X153.14083 Y43.71881 Z-20.78606
X153.04403 Y44.50448 Z-20.92564
X153.54118 Y45.29052 Z-21.08963
X154.50448 Y45.45597 Z-21.26198
X155.28693 Y44.96358 Z-21.42499
X155.45694 Y44.00009 F5000.
X154.96223 Y43.2111
X153.87431 Y43.10038
G02 X153.54118 Y45.29052 I0.36388 J1.17575
G1 X154.50448 Y45.45597
X155.28693 Y44.96358
X157.45602 Y47.28213
G03 X158.70098 Y44.00895 I-3.1994 J-3.09026
X157.45602 Y47.28213 I-4.22157 J0.26766
G1 Z-20.78999 F5000.
G0 Z3.175
X152.00546 Y43.36852
G1 Z-21.49499 F1250.
Z-22.12999 F3750.
X151.81751 Y44.26799 Z-22.29202 F3750.
X152.03922 Y45.45601 Z-22.50511
X152.27579 Y45.82106 Z-22.58182
X153.20081 Y46.49213 Z-22.78332
X154.0228 Y46.71027 Z-22.93328
X155.22048 Y46.55259 Z-23.14629
X155.81668 Y46.21026 Z-23.26751
X156.21359 Y45.57231 Z-23.39999
X155.0262 Y44.83356
X155.09227 Y43.79524 F5000.
X154.40822 Y43.28982
X153.58116 Y43.58904
X153.37145 Y44.59269
X153.60801 Y44.95774
X154.43 Y45.17589
X155.0262 Y44.83356
G03 X157.9548 Y46.05991 I1.4643 J0.61318
G1 X157.76676 Y46.50895
G03 X158.38395 Y43.75895 I-3.52328 J-2.235
G1 X158.2902 Y45.25895
X157.9548 Y46.05991
Z-22.76499 F5000.
G0 Z3.175
X18.45442 Y67.34363
G1 Z-0.66999 F1250.
Z-1.30499 F3750.
X19.21517 Y67.07326 Z-1.44735 F3750.
X19.96055 Y67.18845 Z-1.58034
X21.23911 Y68.30264 Z-1.87938
X21.42994 Y68.94099 Z-1.99686
X21.0064 Y70.54274 Z-2.289
X20.44517 Y71.0797 Z-2.42596
X19.61712 Y71.24915 Z-2.57499
X19.34772 Y69.93264
G03 X18.97274 Y68.64214 I-0.09758 J-0.67137 F5000.
G1 X19.71812 Y68.75732
X19.90895 Y69.39568
X19.34772 Y69.93264
G02 X20.36794 Y72.93926 I0.51011 J1.50331
X19.98688 Y65.43143 I-1.08877 J-3.70832
G1 X18.14454 Y65.49308
G02 X20.36794 Y72.93926 I1.08725 J3.73039
G1 X21.17113 Y76.07459
G03 X23.50895 Y74.93867 I-1.88444 J-6.852
X21.17113 Y76.07459 I-4.02358 J-5.30718
G1 Z-1.93999 F5000.
G0 Z3.175
X18.41661 Y70.72961
G1 Z-3.84499 F1250.
Z-4.47999 F3750.
X18.04082 Y70.58718 Z-4.55085 F3750.
X17.50521 Y69.69506 Z-4.73433
X17.63711 Y68.6629 Z-4.91781
X17.81242 Y68.30998 Z-4.98729
X18.63166 Y67.54747 Z-5.18464
X19.75038 Y67.51495 Z-5.38198
X20.61253 Y68.22858 Z-5.57932
X20.82041 Y68.59239 Z-5.6532
X20.91116 Y69.13374 Z-5.74999
X19.44207 Y69.37999
X19.05888 Y69.36911 F5000.
X19.23419 Y69.01618
X19.44207 Y69.37999
G02 X22.16518 Y71.01256 I1.36156 J0.81629
X20.01204 Y72.61073 I-2.96228 J-1.74144
X22.16518 Y71.01256 I-0.70321 J-3.19689
G1 X24.8183 Y72.86878
G03 X25.75895 Y70.66196 I-5.55236 J-3.67055
X24.8183 Y72.86878 I-6.01389 J-1.25951
G1 Z-5.11499 F5000.
G0 Z3.175
X21.88281 Y70.60086
G1 Z-7.01999 F1250.
Z-7.65499 F3750.
X22.18598 Y69.83739 Z-7.79984 F3750.
X22.22536 Y68.90391 Z-7.96458
X21.94155 Y67.94652 Z-8.14066
X21.26648 Y67.03272 Z-8.34098
X20.61226 Y66.57789 Z-8.48148
X19.65757 Y66.29167 Z-8.65722
X18.14567 Y66.43416 Z-8.92499
G02 X20.61226 Y66.57789 I1.07407 J2.80445 F5000.
G1 X19.65757 Y66.29167
X18.14567 Y66.43416
X17.08488 Y63.44161
G03 X15.91162 Y64.00895 I2.10139 J5.84252
G1 X16.75895 Y63.55715
X17.08488 Y63.44161
Z-8.28999 F5000.
G0 Z3.175
X20.70981 Y71.32524
G1 Z-9.99499 F1250.
Z-10.62999 F3750.
X21.24777 Y70.86343 Z-10.755 F3750.
X21.69302 Y70.04378 Z-10.91948
X21.81778 Y69.14122 Z-11.08014
X21.61146 Y68.21588 Z-11.24731
X21.23682 Y67.60395 Z-11.37382
X20.57359 Y67.04386 Z-11.52689
X19.66234 Y66.70693 Z-11.6982
X18.51895 Y66.75558 Z-11.89999
G02 X16.94347 Y70.39635 I0.77433 J2.49634 F5000.
G1 X18.02502 Y71.52123
G02 X18.51895 Y66.75558 I1.21206 J-2.2828
G1 X17.78914 Y63.66559
G03 X15.75895 Y64.62344 I1.4098 J5.6186
X17.78914 Y63.66559 I3.23533 J4.22696
G1 Z-11.26499 F5000.
G0 Z3.175
X19.35594 Y71.34891
G1 Z-13.16999 F1250.
Z-13.80499 F3750.
X19.45023 Y71.35776 Z-13.82169 F3750.
X20.22226 Y71.13169 Z-13.96354
X20.84284 Y70.64911 Z-14.10215
X21.23945 Y69.9895 Z-14.23787
X21.37321 Y69.25625 Z-14.36929
X21.23804 Y68.50815 Z-14.50334
X20.83982 Y67.84586 Z-14.6396
X20.21582 Y67.35704 Z-14.77937
X19.55589 Y67.14415 Z-14.90164
X18.57461 Y67.20443 Z-15.07499
G02 X17.19326 Y69.7807 I0.73012 J2.04994 F5000.
G1 X17.95124 Y70.9303
G02 X18.57461 Y67.20443 I1.29264 J-1.69881
G1 X17.66194 Y64.16344
G03 X16.3428 Y64.75895 I1.52008 J5.12595
G1 X17.25895 Y64.28438
X17.66194 Y64.16344
Z-14.43999 F5000.
G0 Z3.175
X20.78445 Y69.17309
G1 Z-16.34499 F1250.
Z-16.97999 F3750.
X20.73271 Y68.5053 Z-17.09809 F3750.
X19.88416 Y67.69015 Z-17.30557
X18.68942 Y67.63993 Z-17.51642
X18.05362 Y68.07975 Z-17.65274
X17.5679 Y69.08536 Z-17.84965
X17.78802 Y70.07567 Z-18.02853
X18.76531 Y70.86454 Z-18.24999
X19.88607 Y70.8395 F5000.
X20.50465 Y70.36084
X20.83451 Y69.81908
X20.73271 Y68.5053
X19.88416 Y67.69015
X18.68942 Y67.63993
G02 X17.78802 Y70.07567 I0.6557 J1.62731
G1 X18.76531 Y70.86454
X18.27919 Y74.0021
G03 X22.91396 Y72.50895 I1.01626 J-4.7853
X18.27919 Y74.0021 I-3.56759 J-3.13407
G1 Z-17.61499 F5000.
G0 Z3.175
X19.58058 Y68.17226
G1 Z-19.51999 F1250.
Z-20.15499 F3750.
X18.87431 Y68.10038 Z-20.28017 F3750.
X18.14083 Y68.71881 Z-20.44933
X18.04402 Y69.50448 Z-20.58892
X18.54118 Y70.29053 Z-20.75292
X19.50448 Y70.45597 Z-20.92526
X20.28693 Y69.96358 Z-21.08827
X20.45694 Y69.00009 Z-21.26078
X19.96223 Y68.2111 Z-21.42499
X18.87431 Y68.10038 F5000.
G02 X18.54118 Y70.29053 I0.36388 J1.17576
X20.45694 Y69.00009 I0.67803 J-1.06068
G1 X19.96223 Y68.2111
X21.66088 Y65.52871
G03 X19.75895 Y64.82146 I-2.4624 J3.71088
X21.66088 Y65.52871 I-0.44516 J4.10803
G1 Z-20.78999 F5000.
G0 Z3.175
X21.37187 Y68.24112
G1 Z-21.49499 F1250.
Z-22.12999 F3750.
X21.03565 Y67.51845 Z-22.27053 F3750.
X20.3516 Y67.01303 Z-22.4205
X18.86814 Y66.79701 Z-22.68483
X18.04109 Y67.09623 Z-22.83992
X17.02723 Y68.26434 Z-23.11265
X16.81751 Y69.26799 Z-23.29344
X16.92837 Y69.862 Z-23.39999
X18.37145 Y69.59269
X18.60801 Y69.95774 F5000.
X19.43 Y70.17589
X20.0262 Y69.83356
X20.09227 Y68.79524
X19.40822 Y68.28982
X18.58116 Y68.58904
X18.37145 Y69.59269
X15.46428 Y70.86901
G03 X23.2902 Y70.25895 I3.80771 J-1.65524
X15.46428 Y70.86901 I-4.01289 J-0.97691
G1 Z-22.76499 F5000.
G0 Z3.175
X43.45442 Y67.34363
G1 Z-0.66999 F1250.
Z-1.30499 F3750.
X44.21517 Y67.07326 Z-1.44735 F3750.
X44.96055 Y67.18845 Z-1.58034
X46.23911 Y68.30264 Z-1.87938
X46.42994 Y68.941 Z-1.99686
X46.0064 Y70.54275 Z-2.289
X45.44517 Y71.07971 Z-2.42596
X44.61712 Y71.24915 Z-2.57499
X44.34772 Y69.93264
G03 X43.97274 Y68.64214 I-0.09758 J-0.67137 F5000.
G1 X44.71812 Y68.75732
X44.90895 Y69.39568
X44.34772 Y69.93264
G02 X44.46442 Y73.1055 I0.05835 J1.58643
X44.98687 Y65.43143 I-0.19463 J-3.86807
G1 X43.14454 Y65.49308
G02 X44.46442 Y73.1055 I1.08958 J3.73172
G1 X44.8103 Y76.31941
G03 X46.50895 Y75.98805 I-0.50125 J-7.08912
G1 X45.50895 Y76.24422
X44.8103 Y76.31941
Z-1.93999 F5000.
G0 Z3.175
X42.60068 Y68.94798
G1 Z-3.84499 F1250.
Z-4.47999 F3750.
X42.63711 Y68.6629 Z-4.53067 F3750.
X42.81242 Y68.30997 Z-4.60015
X43.63166 Y67.54747 Z-4.79749
X44.75038 Y67.51495 Z-4.99484
X45.61253 Y68.22858 Z-5.19218
X45.82041 Y68.59238 Z-5.26606
X46.0019 Y69.67508 Z-5.45963
X45.43747 Y70.61666 Z-5.6532
X44.91724 Y70.79175 Z-5.74999
X44.44207 Y69.37999
X44.05888 Y69.36911 F5000.
X44.23419 Y69.01618
X44.44207 Y69.37999
G02 X47.16518 Y71.01256 I1.36156 J0.81628
X45.01204 Y72.61073 I-2.96228 J-1.74144
X47.16518 Y71.01256 I-0.70321 J-3.1969
G1 X49.8183 Y72.86878
G03 X50.75895 Y70.66196 I-5.55236 J-3.67055
X49.8183 Y72.86878 I-6.01381 J-1.25948
G1 Z-5.11499 F5000.
G0 Z3.175
X46.88281 Y70.60086
G1 Z-7.01999 F1250.
Z-7.65499 F3750.
X47.18598 Y69.83739 Z-7.79984 F3750.
X47.22536 Y68.90391 Z-7.96458
X46.94155 Y67.94652 Z-8.14066
X46.26648 Y67.03272 Z-8.34098
X45.61225 Y66.57789 Z-8.48148
X44.65757 Y66.29167 Z-8.65722
X43.14567 Y66.43416 Z-8.92499
G02 X45.61225 Y66.57789 I1.07407 J2.80445 F5000.
G1 X44.65757 Y66.29167
X43.14567 Y66.43416
X42.08489 Y63.44161
G03 X40.91162 Y64.00895 I2.10139 J5.84252
G1 X41.75895 Y63.55715
X42.08489 Y63.44161
Z-8.28999 F5000.
G0 Z3.175
X45.70981 Y71.32524
G1 Z-9.99499 F1250.
Z-10.62999 F3750.
X46.24777 Y70.86343 Z-10.755 F3750.
X46.69302 Y70.04378 Z-10.91948
X46.81778 Y69.14122 Z-11.08014
X46.61146 Y68.21588 Z-11.24731
X46.23682 Y67.60395 Z-11.37382
X45.57359 Y67.04386 Z-11.52689
X44.66234 Y66.70693 Z-11.6982
X43.51895 Y66.75558 Z-11.89999
G02 X41.94347 Y70.39635 I0.77433 J2.49634 F5000.
G1 X43.02502 Y71.52123
G02 X43.51895 Y66.75558 I1.21206 J-2.2828
G1 X42.78914 Y63.66559
G03 X40.75895 Y64.62344 I1.4098 J5.6186
X42.78914 Y63.66559 I3.23533 J4.22696
G1 Z-11.26499 F5000.
G0 Z3.175
X44.35594 Y71.34891
G1 Z-13.16999 F1250.
Z-13.80499 F3750.
X44.45023 Y71.35776 Z-13.82169 F3750.
X45.22225 Y71.13169 Z-13.96354
X45.84284 Y70.64911 Z-14.10215
X46.23945 Y69.9895 Z-14.23787
X46.37321 Y69.25625 Z-14.36929
X46.23804 Y68.50815 Z-14.50334
X45.83982 Y67.84585 Z-14.6396
X45.21583 Y67.35704 Z-14.77937
X44.55589 Y67.14415 Z-14.90164
X43.57461 Y67.20443 Z-15.07499
G02 X42.19326 Y69.7807 I0.73012 J2.04994 F5000.
G1 X42.95124 Y70.9303
G02 X43.57461 Y67.20443 I1.29264 J-1.69881
G1 X42.66195 Y64.16344
G03 X41.3428 Y64.75895 I1.52007 J5.12594
G1 X42.25895 Y64.28438
X42.66195 Y64.16344
Z-14.43999 F5000.
G0 Z3.175
X44.68005 Y70.8441
G1 Z-16.34499 F1250.
Z-16.97999 F3750.
X44.88607 Y70.8395 Z-17.01632 F3750.
X45.50465 Y70.36084 Z-17.15424
X45.83451 Y69.81908 Z-17.26608
X45.73271 Y68.5053 Z-17.49843
X44.88416 Y67.69015 Z-17.7059
X43.68942 Y67.63993 Z-17.91676
X43.05362 Y68.07974 Z-18.05307
X42.5679 Y69.08536 Z-18.24999
X42.78802 Y70.07567 F5000.
X43.76531 Y70.86454
X44.88607 Y70.8395
X45.50465 Y70.36084
X45.83451 Y69.81908
X45.73271 Y68.5053
X44.88416 Y67.69015
X43.68942 Y67.63993
X43.05362 Y68.07974
X42.5679 Y69.08536
X39.497 Y68.27902
G03 X41.25895 Y73.13611 I4.79049 J1.01034
X39.497 Y68.27902 I2.85467 J-3.78368
G1 Z-17.61499 F5000.
G0 Z3.175
X43.91927 Y70.35546
G1 Z-19.51999 F1250.
Z-20.15499 F3750.
X44.50448 Y70.45597 Z-20.25969 F3750.
X45.28693 Y69.96358 Z-20.4227
X45.45694 Y69.00009 Z-20.59521
X44.96222 Y68.2111 Z-20.75942
X43.87431 Y68.10038 Z-20.95224
X43.14083 Y68.71881 Z-21.12141
X43.04403 Y69.50448 Z-21.26099
X43.54118 Y70.29053 Z-21.42499
G02 X45.45694 Y69.00009 I0.67803 J-1.06068 F5000.
G1 X44.96222 Y68.2111
X43.87431 Y68.10038
G02 X43.54118 Y70.29053 I0.36388 J1.17576
G03 X41.22493 Y72.46207 I-1.15812 J1.08577
X44.50895 Y73.69998 I3.08357 J-3.20534
X41.22493 Y72.46207 I-0.28522 J-4.21837
G1 Z-20.78999 F5000.
G0 Z3.175
X42.26981 Y70.81185
G1 Z-21.49499 F1250.
Z-22.12999 F3750.
X42.27579 Y70.82106 Z-22.13193 F3750.
X43.20081 Y71.49213 Z-22.33343
X44.0228 Y71.71027 Z-22.48339
X45.22048 Y71.55259 Z-22.69639
X45.81668 Y71.21026 Z-22.81762
X46.6105 Y69.93437 Z-23.08258
X46.67657 Y68.89604 Z-23.26604
X46.35611 Y68.20725 Z-23.39999
X45.09227 Y68.79524
X44.40822 Y68.28982 F5000.
X43.58116 Y68.58904
X43.37145 Y69.59269
X43.60801 Y69.95774
X44.43 Y70.17589
X45.0262 Y69.83356
X45.09227 Y68.79524
X47.73403 Y67.03406
X48.00895 Y67.44644
G03 X47.38395 Y66.50895 I-3.75106 J1.82363
G1 X47.73403 Y67.03406
Z-22.76499 F5000.
G0 Z3.175
X68.45441 Y67.34363
G1 Z-0.66999 F1250.
Z-1.30499 F3750.
X69.21518 Y67.07327 Z-1.44735 F3750.
X69.96056 Y67.18845 Z-1.58034
X71.23911 Y68.30264 Z-1.87938
X71.42994 Y68.94099 Z-1.99686
X71.00641 Y70.54273 Z-2.289
X70.44518 Y71.0797 Z-2.42596
X69.61712 Y71.24915 Z-2.57499
X69.34772 Y69.93264
G03 X68.97274 Y68.64214 I-0.09758 J-0.67137 F5000.
G1 X69.71812 Y68.75733
X69.90895 Y69.39568
X69.34772 Y69.93264
G02 X69.46442 Y73.1055 I0.05835 J1.58643
X69.98687 Y65.43143 I-0.19463 J-3.86807
G1 X68.14454 Y65.49308
G02 X69.46442 Y73.1055 I1.08958 J3.73172
G1 X69.8103 Y76.31941
G03 X71.50895 Y75.98805 I-0.50125 J-7.08912
G1 X70.50895 Y76.24422
X69.8103 Y76.31941
Z-1.93999 F5000.
G0 Z3.175
X67.60068 Y68.94798
G1 Z-3.84499 F1250.
Z-4.47999 F3750.
X67.63712 Y68.6629 Z-4.53067 F3750.
X67.81242 Y68.30997 Z-4.60015
X68.63167 Y67.54747 Z-4.79749
X69.75038 Y67.51495 Z-4.99484
X70.61253 Y68.22858 Z-5.19218
X70.82042 Y68.59238 Z-5.26606
X71.0019 Y69.67508 Z-5.45963
X70.43747 Y70.61666 Z-5.6532
X69.91724 Y70.79175 Z-5.74999
X69.44207 Y69.37999
X69.05888 Y69.36911 F5000.
X69.23419 Y69.01618
X69.44207 Y69.37999
G02 X72.16518 Y71.01256 I1.36156 J0.81628
X70.01204 Y72.61073 I-2.96228 J-1.74144
X72.16518 Y71.01256 I-0.70321 J-3.1969
G1 X74.8183 Y72.86878
G03 X75.75895 Y70.66196 I-5.55236 J-3.67055
X74.8183 Y72.86878 I-6.01379 J-1.25947
G1 Z-5.11499 F5000.
G0 Z3.175
X71.88281 Y70.60086
G1 Z-7.01999 F1250.
Z-7.65499 F3750.
X72.18598 Y69.83739 Z-7.79984 F3750.
X72.22536 Y68.90391 Z-7.96458
X71.94155 Y67.94652 Z-8.14066
X71.26648 Y67.03272 Z-8.34098
X70.61225 Y66.57789 Z-8.48148
X69.65757 Y66.29167 Z-8.65722
X68.14567 Y66.43416 Z-8.92499
G02 X70.61225 Y66.57789 I1.07407 J2.80445 F5000.
G1 X69.65757 Y66.29167
X68.14567 Y66.43416
X67.08488 Y63.44161
G03 X65.91162 Y64.00895 I2.1014 J5.84251
G1 X66.75895 Y63.55715
X67.08488 Y63.44161
Z-8.28999 F5000.
G0 Z3.175
X70.70981 Y71.32524
G1 Z-9.99499 F1250.
Z-10.62999 F3750.
X71.24777 Y70.86343 Z-10.755 F3750.
X71.69302 Y70.04378 Z-10.91948
X71.81778 Y69.14122 Z-11.08014
X71.61146 Y68.21588 Z-11.24731
X71.23682 Y67.60395 Z-11.37382
X70.57359 Y67.04386 Z-11.52689
X69.66234 Y66.70693 Z-11.6982
X68.51896 Y66.75558 Z-11.89999
G02 X66.94347 Y70.39635 I0.77432 J2.49634 F5000.
G1 X68.02503 Y71.52123
G02 X68.51896 Y66.75558 I1.21205 J-2.2828
G1 X67.78914 Y63.66559
G03 X65.75895 Y64.62344 I1.4098 J5.6186
X67.78914 Y63.66559 I3.23534 J4.22699
G1 Z-11.26499 F5000.
G0 Z3.175
X69.35594 Y71.34891
G1 Z-13.16999 F1250.
Z-13.80499 F3750.
X69.45023 Y71.35776 Z-13.82169 F3750.
X70.22225 Y71.13169 Z-13.96354
X70.84284 Y70.64911 Z-14.10215
X71.23945 Y69.9895 Z-14.23787
X71.37321 Y69.25625 Z-14.36929
X71.23804 Y68.50814 Z-14.50334
X70.83982 Y67.84586 Z-14.6396
X70.21582 Y67.35704 Z-14.77937
X69.55589 Y67.14415 Z-14.90164
X68.57461 Y67.20443 Z-15.07499
G02 X67.19326 Y69.7807 I0.73012 J2.04994 F5000.
G1 X67.95124 Y70.9303
G02 X68.57461 Y67.20443 I1.29264 J-1.69881
G1 X67.66194 Y64.16344
G03 X66.34281 Y64.75895 I1.52009 J5.12594
G1 X67.25895 Y64.28438
X67.66194 Y64.16344
Z-14.43999 F5000.
G0 Z3.175
X69.68005 Y70.8441
G1 Z-16.34499 F1250.
Z-16.97999 F3750.
X69.88607 Y70.8395 Z-17.01632 F3750.
X70.50465 Y70.36084 Z-17.15424
X70.83451 Y69.81908 Z-17.26608
X70.73271 Y68.5053 Z-17.49843
X69.88416 Y67.69015 Z-17.7059
X68.68942 Y67.63993 Z-17.91676
X68.05362 Y68.07974 Z-18.05307
X67.5679 Y69.08536 Z-18.24999
X67.78802 Y70.07567 F5000.
X68.76531 Y70.86454
X69.88607 Y70.8395
X70.50465 Y70.36084
X70.83451 Y69.81908
X70.73271 Y68.5053
X69.88416 Y67.69015
X68.68942 Y67.63993
X68.05362 Y68.07974
X67.5679 Y69.08536
X64.497 Y68.27902
G03 X66.25895 Y73.13611 I4.79048 J1.01034
X64.497 Y68.27902 I2.85467 J-3.78368
G1 Z-17.61499 F5000.
G0 Z3.175
X70.35359 Y69.58579
G1 Z-19.51999 F1250.
Z-20.15499 F3750.
X70.45694 Y69.00009 Z-20.25986 F3750.
X69.96222 Y68.2111 Z-20.42407
X68.87431 Y68.10038 Z-20.61689
X68.14083 Y68.71881 Z-20.78606
X68.04403 Y69.50448 Z-20.92564
X68.54118 Y70.29053 Z-21.08964
X69.50448 Y70.45597 Z-21.26198
X70.28693 Y69.96358 Z-21.42499
X70.45694 Y69.00009 F5000.
X69.96222 Y68.2111
X68.87431 Y68.10038
G02 X68.54118 Y70.29053 I0.36388 J1.17576
G1 X69.50448 Y70.45597
X70.28693 Y69.96358
X72.9789 Y71.64701
G03 X73.67855 Y69.75895 I-3.71791 J-2.45139
X72.9789 Y71.64701 I-4.08735 J-0.44097
G1 Z-20.78999 F5000.
G0 Z3.175
X70.38129 Y67.03496
G1 Z-21.49499 F1250.
Z-22.12999 F3750.
X70.3516 Y67.01303 Z-22.1365 F3750.
X68.86815 Y66.79701 Z-22.40083
X68.04109 Y67.09623 Z-22.55591
X67.02722 Y68.26434 Z-22.82865
X66.81751 Y69.26799 Z-23.00944
X67.03922 Y70.45601 Z-23.22254
X67.27579 Y70.82106 Z-23.29924
X67.7383 Y71.15659 Z-23.39999
X68.60801 Y69.95774
X69.43 Y70.17589 F5000.
X70.0262 Y69.83356
X70.09227 Y68.79524
X69.40822 Y68.28982
X68.58116 Y68.58904
X68.37145 Y69.59269
X68.60801 Y69.95774
G03 X66.25184 Y72.0859 I-1.17808 J1.06408
X73.2902 Y70.25895 I3.0141 J-2.85932
X66.25184 Y72.0859 I-4.00861 J-0.97208
G1 Z-22.76499 F5000.
G0 Z3.175
X93.45441 Y67.34364
G1 Z-0.66999 F1250.
Z-1.30499 F3750.
X94.21518 Y67.07327 Z-1.44735 F3750.
X94.96056 Y67.18845 Z-1.58034
X96.23911 Y68.30264 Z-1.87938
X96.42994 Y68.94099 Z-1.99686
X96.00641 Y70.54273 Z-2.289
X95.44518 Y71.0797 Z-2.42596
X94.61712 Y71.24915 Z-2.57499
X94.34772 Y69.93264
G03 X93.97274 Y68.64214 I-0.09758 J-0.67137 F5000.
G1 X94.71812 Y68.75733
X94.90895 Y69.39568
X94.34772 Y69.93264
G02 X94.46442 Y73.1055 I0.05835 J1.58643
X94.98687 Y65.43143 I-0.19463 J-3.86807
G1 X93.14454 Y65.49308
G02 X94.46442 Y73.1055 I1.08958 J3.73172
G1 X94.8103 Y76.31941
G03 X96.50895 Y75.98805 I-0.50125 J-7.08912
G1 X95.50895 Y76.24422
X94.8103 Y76.31941
Z-1.93999 F5000.
G0 Z3.175
X93.41662 Y70.72962
G1 Z-3.84499 F1250.
Z-4.47999 F3750.
X93.04083 Y70.5872 Z-4.55085 F3750.
X92.50521 Y69.69508 Z-4.73433
X92.63711 Y68.66292 Z-4.91781
X92.81241 Y68.30999 Z-4.98729
X93.63165 Y67.54747 Z-5.18464
X94.75037 Y67.51495 Z-5.38198
X95.61253 Y68.22858 Z-5.57932
X95.82041 Y68.59238 Z-5.6532
X95.91116 Y69.13373 Z-5.74999
X94.44207 Y69.37999
X94.05889 Y69.36911 F5000.
X94.23419 Y69.01618
X94.44207 Y69.37999
G02 X97.16518 Y71.01256 I1.36156 J0.81628
X95.01204 Y72.61073 I-2.96228 J-1.74144
X97.16518 Y71.01256 I-0.70321 J-3.1969
G1 X99.8183 Y72.86878
G03 X100.75895 Y70.66196 I-5.55236 J-3.67055
X99.8183 Y72.86878 I-6.01379 J-1.25947
G1 Z-5.11499 F5000.
G0 Z3.175
X96.88281 Y70.60086
G1 Z-7.01999 F1250.
Z-7.65499 F3750.
X97.18598 Y69.83739 Z-7.79984 F3750.
X97.22536 Y68.90391 Z-7.96458
X96.94155 Y67.94652 Z-8.14066
X96.26648 Y67.03272 Z-8.34098
X95.61225 Y66.57789 Z-8.48148
X94.65757 Y66.29167 Z-8.65722
X93.14567 Y66.43416 Z-8.92499
G02 X95.61225 Y66.57789 I1.07407 J2.80445 F5000.
G1 X94.65757 Y66.29167
X93.14567 Y66.43416
X92.08488 Y63.44161
G03 X90.91162 Y64.00895 I2.10139 J5.84252
G1 X91.75895 Y63.55715
X92.08488 Y63.44161
Z-8.28999 F5000.
G0 Z3.175
X95.70981 Y71.32524
G1 Z-9.99499 F1250.
Z-10.62999 F3750.
X96.24777 Y70.86343 Z-10.755 F3750.
X96.69302 Y70.04378 Z-10.91948
X96.81778 Y69.14122 Z-11.08014
X96.61146 Y68.21588 Z-11.24731
X96.23682 Y67.60395 Z-11.37382
X95.57359 Y67.04386 Z-11.52689
X94.66234 Y66.70693 Z-11.6982
X93.51896 Y66.75558 Z-11.89999
G02 X91.94347 Y70.39635 I0.77432 J2.49634 F5000.
G1 X93.02503 Y71.52123
G02 X93.51896 Y66.75558 I1.21205 J-2.2828
G1 X92.78914 Y63.66559
G03 X90.75895 Y64.62344 I1.4098 J5.6186
X92.78914 Y63.66559 I3.23534 J4.22699
G1 Z-11.26499 F5000.
G0 Z3.175
X94.35594 Y71.34891
G1 Z-13.16999 F1250.
Z-13.80499 F3750.
X94.45023 Y71.35776 Z-13.82169 F3750.
X95.22225 Y71.13169 Z-13.96354
X95.84284 Y70.64911 Z-14.10215
X96.23945 Y69.9895 Z-14.23787
X96.37321 Y69.25625 Z-14.36929
X96.23804 Y68.50814 Z-14.50334
X95.83982 Y67.84586 Z-14.6396
X95.21582 Y67.35704 Z-14.77937
X94.55589 Y67.14415 Z-14.90164
X93.57461 Y67.20443 Z-15.07499
G02 X92.19326 Y69.7807 I0.73012 J2.04994 F5000.
G1 X92.95124 Y70.9303
G02 X93.57461 Y67.20443 I1.29264 J-1.69881
G1 X92.66194 Y64.16344
G03 X91.34281 Y64.75895 I1.52009 J5.12594
G1 X92.25895 Y64.28438
X92.66194 Y64.16344
Z-14.43999 F5000.
G0 Z3.175
X94.68005 Y70.8441
G1 Z-16.34499 F1250.
Z-16.97999 F3750.
X94.88607 Y70.8395 Z-17.01633 F3750.
X95.50465 Y70.36084 Z-17.15424
X95.83451 Y69.81908 Z-17.26608
X95.73271 Y68.5053 Z-17.49843
X94.88416 Y67.69015 Z-17.70591
X93.68942 Y67.63993 Z-17.91676
X93.05362 Y68.07975 Z-18.05307
X92.5679 Y69.08536 Z-18.24999
X92.78802 Y70.07567 F5000.
X93.76531 Y70.86454
X94.88607 Y70.8395
X95.50465 Y70.36084
X95.83451 Y69.81908
X95.73271 Y68.5053
X94.88416 Y67.69015
X93.68942 Y67.63993
X93.05362 Y68.07975
X92.5679 Y69.08536
G03 X89.497 Y68.27902 I-1.53545 J-0.40317
X91.25895 Y73.13611 I4.79048 J1.01034
X89.497 Y68.27902 I2.85466 J-3.78368
G1 Z-17.61499 F5000.
G0 Z3.175
X93.91927 Y70.35546
G1 Z-19.51999 F1250.
Z-20.15499 F3750.
X94.50448 Y70.45597 Z-20.25969 F3750.
X95.28693 Y69.96358 Z-20.4227
X95.45694 Y69.00009 Z-20.59521
X94.96222 Y68.2111 Z-20.75942
X93.87431 Y68.10038 Z-20.95224
X93.14083 Y68.71881 Z-21.12141
X93.04402 Y69.50448 Z-21.26099
X93.54118 Y70.29053 Z-21.42499
G02 X95.45694 Y69.00009 I0.67803 J-1.06068 F5000.
G1 X94.96222 Y68.2111
X93.87431 Y68.10038
G02 X93.54118 Y70.29053 I0.36388 J1.17576
G03 X91.22493 Y72.46207 I-1.15813 J1.08577
X94.50895 Y73.69997 I3.08357 J-3.20534
X91.22493 Y72.46207 I-0.28522 J-4.21836
G1 Z-20.78999 F5000.
G0 Z3.175
X96.37187 Y68.24112
G1 Z-21.49499 F1250.
Z-22.12999 F3750.
X96.03565 Y67.51845 Z-22.27053 F3750.
X95.3516 Y67.01303 Z-22.4205
X93.86814 Y66.79701 Z-22.68483
X93.04109 Y67.09623 Z-22.83992
X92.02722 Y68.26434 Z-23.11265
X91.81751 Y69.26799 Z-23.29344
X91.92837 Y69.862 Z-23.39999
X93.37145 Y69.59269
X93.60801 Y69.95774 F5000.
X94.43 Y70.17589
X95.0262 Y69.83356
X95.09227 Y68.79524
X94.40822 Y68.28982
X93.58116 Y68.58904
X93.37145 Y69.59269
X90.46428 Y70.86901
G03 X98.2902 Y70.25895 I3.80771 J-1.65524
X90.46428 Y70.86901 I-4.01289 J-0.97691
G1 Z-22.76499 F5000.
G0 Z3.175
X128.4544 Y67.34364
G1 Z-0.66999 F1250.
Z-1.30499 F3750.
X129.21517 Y67.07326 Z-1.44736 F3750.
X129.96056 Y67.18845 Z-1.58035
X131.23911 Y68.30263 Z-1.87938
X131.42994 Y68.94097 Z-1.99686
X131.00642 Y70.54271 Z-2.28899
X130.44519 Y71.07969 Z-2.42595
X129.61713 Y71.24914 Z-2.57499
X129.34772 Y69.93264
G03 X128.97274 Y68.64214 I-0.09758 J-0.67137 F5000.
G1 X129.71812 Y68.75733
X129.90895 Y69.39567
X129.34772 Y69.93264
G02 X129.46442 Y73.1055 I0.05835 J1.58643
X129.98688 Y65.43143 I-0.19464 J-3.86807
G1 X128.14454 Y65.49308
G02 X129.46442 Y73.1055 I1.08958 J3.73172
G03 X129.8103 Y76.31941 I0.17294 J1.60695
X131.50895 Y75.98805 I-0.50125 J-7.08912
G1 X130.50895 Y76.24422
X129.8103 Y76.31941
Z-1.93999 F5000.
G0 Z3.175
X127.60068 Y68.948
G1 Z-3.84499 F1250.
Z-4.47999 F3750.
X127.63711 Y68.66292 Z-4.53067 F3750.
X127.81241 Y68.30999 Z-4.60015
X128.63166 Y67.54747 Z-4.79749
X129.75037 Y67.51495 Z-4.99484
X130.61253 Y68.22858 Z-5.19218
X130.82041 Y68.59238 Z-5.26606
X131.00191 Y69.67507 Z-5.45963
X130.43748 Y70.61665 Z-5.65321
X129.91726 Y70.79175 Z-5.74999
X129.44207 Y69.37999
X129.05889 Y69.36911 F5000.
X129.23419 Y69.01618
X129.44207 Y69.37999
G02 X131.52636 Y71.77506 I1.04215 J1.19753
X127.95893 Y72.44632 I-2.32415 J-2.53651
X131.52636 Y71.77506 I1.27606 J-3.03355
G03 X133.8517 Y74.04121 I1.16267 J1.13307
X135.00895 Y72.59629 I-4.5697 J-4.84579
G1 X134.37041 Y73.50895
X133.8517 Y74.04121
Z-5.11499 F5000.
G0 Z3.175
X131.8828 Y70.60087
G1 Z-7.01999 F1250.
Z-7.65499 F3750.
X132.18598 Y69.83739 Z-7.79984 F3750.
X132.22535 Y68.90391 Z-7.96458
X131.94155 Y67.94652 Z-8.14066
X131.26648 Y67.03272 Z-8.34098
X130.61225 Y66.57789 Z-8.48148
X129.65757 Y66.29167 Z-8.65722
X128.14567 Y66.43416 Z-8.92499
G02 X130.61225 Y66.57789 I1.07407 J2.80445 F5000.
G1 X129.65757 Y66.29167
X128.14567 Y66.43416
X127.08488 Y63.44161
G03 X125.91162 Y64.00895 I2.10139 J5.84252
G1 X126.75895 Y63.55715
X127.08488 Y63.44161
Z-8.28999 F5000.
G0 Z3.175
X130.70981 Y71.32524
G1 Z-9.99499 F1250.
Z-10.62999 F3750.
X131.24777 Y70.86343 Z-10.755 F3750.
X131.69302 Y70.04377 Z-10.91948
X131.81778 Y69.14122 Z-11.08014
X131.61146 Y68.21588 Z-11.24731
X131.23682 Y67.60395 Z-11.37382
X130.57359 Y67.04386 Z-11.52689
X129.66234 Y66.70693 Z-11.6982
X128.51895 Y66.75558 Z-11.89999
G02 X126.94347 Y70.39635 I0.77433 J2.49634 F5000.
G1 X128.02503 Y71.52123
G02 X128.51895 Y66.75558 I1.21205 J-2.2828
G1 X127.78914 Y63.66559
G03 X125.75895 Y64.62344 I1.4098 J5.6186
X127.78914 Y63.66559 I3.23534 J4.22698
G1 Z-11.26499 F5000.
G0 Z3.175
X129.35594 Y71.34891
G1 Z-13.16999 F1250.
Z-13.80499 F3750.
X129.45023 Y71.35776 Z-13.82169 F3750.
X130.22226 Y71.13169 Z-13.96354
X130.84285 Y70.64911 Z-14.10215
X131.23945 Y69.9895 Z-14.23786
X131.37321 Y69.25625 Z-14.36929
X131.23804 Y68.50814 Z-14.50334
X130.83982 Y67.84586 Z-14.6396
X130.21583 Y67.35704 Z-14.77937
X129.55589 Y67.14415 Z-14.90164
X128.57461 Y67.20443 Z-15.07499
G02 X127.19326 Y69.7807 I0.73012 J2.04994 F5000.
G1 X127.95124 Y70.9303
G02 X128.57461 Y67.20443 I1.29264 J-1.69881
G1 X127.66194 Y64.16344
G03 X126.34281 Y64.75895 I1.52009 J5.12594
G1 X127.25895 Y64.28438
X127.66194 Y64.16344
Z-14.43999 F5000.
G0 Z3.175
X130.40728 Y68.19269
G1 Z-16.34499 F1250.
Z-16.97999 F3750.
X129.88416 Y67.69015 Z-17.1079 F3750.
X128.68942 Y67.63993 Z-17.31875
X128.05362 Y68.07975 Z-17.45507
X127.5679 Y69.08536 Z-17.65198
X127.78802 Y70.07567 Z-17.83086
X128.76531 Y70.86454 Z-18.05232
X129.88607 Y70.8395 Z-18.24999
X130.50465 Y70.36084 F5000.
X130.83451 Y69.81908
X130.7327 Y68.5053
X129.88416 Y67.69015
X128.68942 Y67.63993
G02 X127.78802 Y70.07567 I0.6557 J1.62731
G1 X128.76531 Y70.86454
X129.88607 Y70.8395
G03 X131.1092 Y73.76944 I0.61157 J1.46497
X132.91396 Y72.50895 I-1.83108 J-4.54397
X131.1092 Y73.76944 I-3.48381 J-3.06581
G1 Z-17.61499 F5000.
G0 Z3.175
X128.91926 Y70.35546
G1 Z-19.51999 F1250.
Z-20.15499 F3750.
X129.50448 Y70.45597 Z-20.25969 F3750.
X130.28693 Y69.96358 Z-20.4227
X130.45694 Y69.00009 Z-20.59521
X129.96223 Y68.2111 Z-20.75942
X128.8743 Y68.10038 Z-20.95224
X128.14083 Y68.71881 Z-21.12141
X128.04402 Y69.50448 Z-21.26099
X128.54118 Y70.29053 Z-21.42499
G02 X130.45694 Y69.00009 I0.67803 J-1.06068 F5000.
G1 X129.96223 Y68.2111
X128.8743 Y68.10038
G02 X128.54118 Y70.29053 I0.36389 J1.17576
G1 X126.22493 Y72.46207
G03 X129.50895 Y73.69998 I3.08357 J-3.20534
X126.22493 Y72.46207 I-0.28522 J-4.21837
G1 Z-20.78999 F5000.
G0 Z3.175
X127.26981 Y70.81185
G1 Z-21.49499 F1250.
Z-22.12999 F3750.
X127.27579 Y70.82106 Z-22.13193 F3750.
X128.20081 Y71.49213 Z-22.33343
X129.0228 Y71.71027 Z-22.48339
X130.22048 Y71.55259 Z-22.69639
X130.81668 Y71.21026 Z-22.81762
X131.6105 Y69.93437 Z-23.08258
X131.67657 Y68.89604 Z-23.26604
X131.35611 Y68.20725 Z-23.39999
X130.09227 Y68.79524
X129.40822 Y68.28982 F5000.
X128.58116 Y68.58904
X128.37145 Y69.59269
X128.60801 Y69.95774
X129.43 Y70.17589
X130.0262 Y69.83356
X130.09227 Y68.79524
G03 X133.14511 Y67.923 I1.52642 J-0.43612
X129.25895 Y65.07145 I-3.94919 J1.30819
X133.14511 Y67.923 I0.01488 J4.05357
G1 Z-22.76499 F5000.
G0 Z3.175
X153.45441 Y67.34364
G1 Z-0.66999 F1250.
Z-1.30499 F3750.
X154.21517 Y67.07326 Z-1.44735 F3750.
X154.96055 Y67.18845 Z-1.58034
X156.23911 Y68.30263 Z-1.87938
X156.42994 Y68.94097 Z-1.99686
X156.00642 Y70.54271 Z-2.28899
X155.44519 Y71.07969 Z-2.42595
X154.61712 Y71.24914 Z-2.57499
X154.34772 Y69.93264
G03 X153.97273 Y68.64214 I-0.09758 J-0.67137 F5000.
G1 X154.71812 Y68.75733
X154.90895 Y69.39567
X154.34772 Y69.93264
G02 X155.36794 Y72.93926 I0.51011 J1.50331
X154.98688 Y65.43143 I-1.08877 J-3.70832
G1 X153.14454 Y65.49308
G02 X155.36794 Y72.93926 I1.08725 J3.73039
G1 X156.17113 Y76.07459
G03 X158.50895 Y74.93867 I-1.88443 J-6.85201
X156.17113 Y76.07459 I-4.0236 J-5.30724
G1 Z-1.93999 F5000.
G0 Z3.175
X153.41662 Y70.72962
G1 Z-3.84499 F1250.
Z-4.47999 F3750.
X153.04082 Y70.58718 Z-4.55085 F3750.
X152.50521 Y69.69506 Z-4.73433
X152.63712 Y68.6629 Z-4.91781
X152.81242 Y68.30997 Z-4.98729
X153.63167 Y67.54747 Z-5.18464
X154.75038 Y67.51495 Z-5.38198
X155.61253 Y68.22858 Z-5.57932
X155.82042 Y68.59238 Z-5.6532
X155.91116 Y69.13373 Z-5.74999
X154.44207 Y69.37999
X154.05888 Y69.36911 F5000.
X154.23419 Y69.01618
X154.44207 Y69.37999
G02 X156.52636 Y71.77506 I1.04215 J1.19753
X152.95893 Y72.44632 I-2.32415 J-2.53651
X156.52636 Y71.77506 I1.27606 J-3.03355
G03 X158.8517 Y74.04121 I1.16267 J1.13307
X160.00895 Y72.59629 I-4.56971 J-4.84579
G1 X159.37041 Y73.50895
X158.8517 Y74.04121
Z-5.11499 F5000.
G0 Z3.175
X156.8828 Y70.60087
G1 Z-7.01999 F1250.
Z-7.65499 F3750.
X157.18598 Y69.83739 Z-7.79984 F3750.
X157.22535 Y68.90391 Z-7.96458
X156.94155 Y67.94652 Z-8.14066
X156.26648 Y67.03272 Z-8.34098
X155.61225 Y66.57789 Z-8.48148
X154.65757 Y66.29167 Z-8.65722
X153.14567 Y66.43416 Z-8.92499
G02 X155.61225 Y66.57789 I1.07407 J2.80445 F5000.
G1 X154.65757 Y66.29167
X153.14567 Y66.43416
X152.08489 Y63.44161
G03 X150.91163 Y64.00895 I2.10139 J5.84252
G1 X151.75895 Y63.55715
X152.08489 Y63.44161
Z-8.28999 F5000.
G0 Z3.175
X155.70981 Y71.32523
G1 Z-9.99499 F1250.
Z-10.62999 F3750.
X156.24777 Y70.86343 Z-10.755 F3750.
X156.69302 Y70.04377 Z-10.91948
X156.81778 Y69.14122 Z-11.08014
X156.61146 Y68.21588 Z-11.24731
X156.23682 Y67.60395 Z-11.37382
X155.57359 Y67.04386 Z-11.52689
X154.66234 Y66.70693 Z-11.6982
X153.51895 Y66.75558 Z-11.89999
G02 X151.94348 Y70.39635 I0.77432 J2.49633 F5000.
G1 X153.02502 Y71.52123
G02 X153.51895 Y66.75558 I1.21206 J-2.2828
G1 X152.78914 Y63.66559
G03 X150.75895 Y64.62343 I1.40979 J5.6186
X152.78914 Y63.66559 I3.23533 J4.22698
G1 Z-11.26499 F5000.
G0 Z3.175
X154.35594 Y71.34891
G1 Z-13.16999 F1250.
Z-13.80499 F3750.
X154.45023 Y71.35776 Z-13.82169 F3750.
X155.22226 Y71.13169 Z-13.96354
X155.84285 Y70.64911 Z-14.10215
X156.23945 Y69.9895 Z-14.23786
X156.37321 Y69.25625 Z-14.36929
X156.23804 Y68.50814 Z-14.50334
X155.83982 Y67.84586 Z-14.6396
X155.21583 Y67.35704 Z-14.77937
X154.55589 Y67.14415 Z-14.90164
X153.57461 Y67.20443 Z-15.07499
G02 X152.19326 Y69.7807 I0.73011 J2.04993 F5000.
G1 X152.95124 Y70.9303
G02 X153.57461 Y67.20443 I1.29264 J-1.69881
G1 X152.66195 Y64.16343
G03 X151.3428 Y64.75895 I1.52007 J5.12596
G1 X152.25895 Y64.28438
X152.66195 Y64.16343
Z-14.43999 F5000.
G0 Z3.175
X155.40728 Y68.19269
G1 Z-16.34499 F1250.
Z-16.97999 F3750.
X154.88416 Y67.69015 Z-17.1079 F3750.
X153.68942 Y67.63993 Z-17.31875
X153.05363 Y68.07974 Z-17.45506
X152.5679 Y69.08537 Z-17.65198
X152.78802 Y70.07567 Z-17.83086
X153.76531 Y70.86454 Z-18.05232
X154.88607 Y70.8395 Z-18.24999
X155.50465 Y70.36084 F5000.
X155.83451 Y69.81908
X155.7327 Y68.5053
X154.88416 Y67.69015
X153.68942 Y67.63993
G02 X152.78802 Y70.07567 I0.6557 J1.62731
G1 X153.76531 Y70.86454
X154.88607 Y70.8395
X156.1092 Y73.76944
G03 X157.91396 Y72.50895 I-1.83108 J-4.54397
X156.1092 Y73.76944 I-3.48381 J-3.06581
G1 Z-17.61499 F5000.
G0 Z3.175
X153.91926 Y70.35546
G1 Z-19.51999 F1250.
Z-20.15499 F3750.
X154.50448 Y70.45597 Z-20.25969 F3750.
X155.28693 Y69.96358 Z-20.4227
X155.45694 Y69.00009 Z-20.59522
X154.96223 Y68.2111 Z-20.75942
X153.87431 Y68.10038 Z-20.95224
X153.14083 Y68.71881 Z-21.12141
X153.04403 Y69.50448 Z-21.26099
X153.54118 Y70.29053 Z-21.42499
G02 X155.45694 Y69.00009 I0.67803 J-1.06068 F5000.
G1 X154.96223 Y68.2111
X153.87431 Y68.10038
G02 X153.54118 Y70.29053 I0.36388 J1.17575
G1 X151.86133 Y72.98473
G03 X153.75895 Y73.68052 I2.44182 J-3.72395
X151.86133 Y72.98473 I0.42427 J-4.09265
G1 Z-20.78999 F5000.
G0 Z3.175
X152.26981 Y70.81185
G1 Z-21.49499 F1250.
Z-22.12999 F3750.
X152.27579 Y70.82106 Z-22.13193 F3750.
X153.20081 Y71.49213 Z-22.33343
X154.0228 Y71.71027 Z-22.48339
X155.22048 Y71.55259 Z-22.69639
X155.81668 Y71.21026 Z-22.81762
X156.6105 Y69.93437 Z-23.08258
X156.67657 Y68.89604 Z-23.26604
X156.35611 Y68.20725 Z-23.39999
X155.09227 Y68.79524
X154.40822 Y68.28982 F5000.
X153.58116 Y68.58904
X153.37145 Y69.59269
X153.60801 Y69.95774
X154.43 Y70.17589
X155.0262 Y69.83356
X155.09227 Y68.79524
G03 X158.14511 Y67.923 I1.52642 J-0.43612
X154.25895 Y65.07145 I-3.94919 J1.30819
X158.14511 Y67.923 I0.01488 J4.05357
G1 Z-22.76499 F5000.
G0 Z3.175
X185.0567 Y68.62079
G1 Z-0.66999 F1250.
Z-1.30499 F3750.
X185.75895 Y68.08579 Z-1.46066 F3750.
