%
G17 G21 G40 G90 G64 P0.1
(2 1/2 Axis Profiling)
(SlotDrill 1/8in 3.175mm Carbide Aluminium Cut)
T6 M06
S14737 M3
G0 Z1.5875
X-0.74714 Y10.85071
G1 Z0.0575 F73.5
X-0.73487 Y10.87326 Z0.05297 F220.5
X-0.61923 Y11.05461 Z0.01505
X-0.49126 Y11.22748 Z-0.02288
X-0.35157 Y11.39103 Z-0.0608
X-0.20084 Y11.54446 Z-0.09873
X-0.03981 Y11.68704 Z-0.13665
X0.13075 Y11.81807 Z-0.17458
X0.31002 Y11.93691 Z-0.2125
G17
G02 X4.28168 Y7.2974 I1.61895 J-2.63382 F294.
G1 Y1.16271
X4.20691 Y0.55371
X4.10956 Y0.19925
X3.8603 Y-0.27914
X3.64726 Y-0.57982
X3.23606 Y-1.01454
G02 X2.1414 Y-1.51246 I-1.69388 J2.27168
G1 X1.5317 Y-1.5875
X0.56685
G02 X-1.01572 Y-0.12501 I0. J1.5875
G1 X-1.58257 Y7.05082
G02 X-1.16236 Y8.2484 I1.54582 J0.13011
G1 Y9.22907
G02 X0.31002 Y11.93691 I3.0892 J0.07448
G1 Z-0.425
G02 X4.28168 Y7.2974 I1.61895 J-2.63382
G1 Y1.16271
X4.20691 Y0.55371
X4.10956 Y0.19925
X3.8603 Y-0.27914
X3.64726 Y-0.57982
X3.23606 Y-1.01454
G02 X2.1414 Y-1.51246 I-1.69388 J2.27168
G1 X1.5317 Y-1.5875
X0.56685
G02 X-1.01572 Y-0.12501 I0. J1.5875
G1 X-1.58257 Y7.05082
G02 X-1.16236 Y8.2484 I1.54582 J0.13011
G1 Y9.22907
G02 X0.31002 Y11.93691 I3.0892 J0.07448
G1 Z-0.6375
G02 X4.28168 Y7.2974 I1.61895 J-2.63382
G1 Y1.16271
X4.20691 Y0.55371
X4.10956 Y0.19925
X3.8603 Y-0.27914
X3.64726 Y-0.57982
X3.23606 Y-1.01454
G02 X2.1414 Y-1.51246 I-1.69388 J2.27168
G1 X1.5317 Y-1.5875
X0.56685
G02 X-1.01572 Y-0.12501 I0. J1.5875
G1 X-1.58257 Y7.05082
G02 X-1.16236 Y8.2484 I1.54582 J0.13011
G1 Y9.22907
G02 X0.31002 Y11.93691 I3.0892 J0.07448
G1 Z-0.85
G02 X4.28168 Y7.2974 I1.61895 J-2.63382
G1 Y1.16271
X4.20691 Y0.55371
X4.10956 Y0.19925
X3.8603 Y-0.27914
X3.64726 Y-0.57982
X3.23606 Y-1.01454
G02 X2.1414 Y-1.51246 I-1.69388 J2.27168
G1 X1.5317 Y-1.5875
X0.56685
G02 X-1.01572 Y-0.12501 I0. J1.5875
G1 X-1.58257 Y7.05082
G02 X-1.16236 Y8.2484 I1.54582 J0.13011
G1 Y9.22907
G02 X0.31002 Y11.93691 I3.0892 J0.07448
G0 Z1.5875
X6.45941 Y11.03679
G1 Z0.0575 F73.5
X6.47168 Y11.05934 Z0.05297 F220.5
X6.58732 Y11.24069 Z0.01505
X6.71529 Y11.41356 Z-0.02288
X6.85498 Y11.57711 Z-0.0608
X7.0057 Y11.73054 Z-0.09873
X7.16674 Y11.87312 Z-0.13665
X7.3373 Y12.00415 Z-0.17458
X7.51657 Y12.123 Z-0.2125
G02 X11.48823 Y7.48349 I1.61895 J-2.63383 F294.
G1 Y1.34879
X11.41346 Y0.73979
X11.31611 Y0.38534
X11.06685 Y-0.09306
X10.85381 Y-0.39374
X10.44261 Y-0.82846
G02 X9.34795 Y-1.32638 I-1.69389 J2.27168
G1 X8.73825 Y-1.40142
X7.7734
G02 X6.19083 Y0.06107 I0. J1.5875
G1 X5.62398 Y7.2369
G02 X6.04419 Y8.43448 I1.54581 J0.13011
G1 Y9.41516
G02 X7.51657 Y12.123 I3.0892 J0.07447
G1 Z-0.425
G02 X11.48823 Y7.48349 I1.61895 J-2.63383
G1 Y1.34879
X11.41346 Y0.73979
X11.31611 Y0.38534
X11.06685 Y-0.09306
X10.85381 Y-0.39374
X10.44261 Y-0.82846
G02 X9.34795 Y-1.32638 I-1.69389 J2.27168
G1 X8.73825 Y-1.40142
X7.7734
G02 X6.19083 Y0.06107 I0. J1.5875
G1 X5.62398 Y7.2369
G02 X6.04419 Y8.43448 I1.54581 J0.13011
G1 Y9.41516
G02 X7.51657 Y12.123 I3.0892 J0.07447
G1 Z-0.6375
G02 X11.48823 Y7.48349 I1.61895 J-2.63383
G1 Y1.34879
X11.41346 Y0.73979
X11.31611 Y0.38534
X11.06685 Y-0.09306
X10.85381 Y-0.39374
X10.44261 Y-0.82846
G02 X9.34795 Y-1.32638 I-1.69389 J2.27168
G1 X8.73825 Y-1.40142
X7.7734
G02 X6.19083 Y0.06107 I0. J1.5875
G1 X5.62398 Y7.2369
G02 X6.04419 Y8.43448 I1.54581 J0.13011
G1 Y9.41516
G02 X7.51657 Y12.123 I3.0892 J0.07447
G1 Z-0.85
G02 X11.48823 Y7.48349 I1.61895 J-2.63383
G1 Y1.34879
X11.41346 Y0.73979
X11.31611 Y0.38534
X11.06685 Y-0.09306
X10.85381 Y-0.39374
X10.44261 Y-0.82846
G02 X9.34795 Y-1.32638 I-1.69389 J2.27168
G1 X8.73825 Y-1.40142
X7.7734
G02 X6.19083 Y0.06107 I0. J1.5875
G1 X5.62398 Y7.2369
G02 X6.04419 Y8.43448 I1.54581 J0.13011
G1 Y9.41516
G02 X7.51657 Y12.123 I3.0892 J0.07447
G0 Z1.5875
X21.46433 Y16.7705
G1 Z0.0575 F73.5
X21.54728 Y16.53965 Z0.01425 F220.5
X21.62804 Y16.23161 Z-0.04191
X21.68124 Y15.91763 Z-0.09806
X21.6836 Y15.89761 Z-0.10161
X21.70727 Y15.26918 Z-0.2125
X21.61035 Y2.04822 F294.
G02 X14.41555 Y2.10091 I-3.5974 J0.02635
G1 X14.51377 Y15.50055
G02 X21.68124 Y15.91763 I3.59741 J-0.02635
G1 X21.6836 Y15.89761
X21.70727 Y15.26918
Z-0.425
X21.61035 Y2.04822
G02 X14.41555 Y2.10091 I-3.5974 J0.02635
G1 X14.51377 Y15.50055
G02 X21.68124 Y15.91763 I3.59741 J-0.02635
G1 X21.6836 Y15.89761
X21.70727 Y15.26918
Z-0.6375
X21.61035 Y2.04822
G02 X14.41555 Y2.10091 I-3.5974 J0.02635
G1 X14.51377 Y15.50055
G02 X21.68124 Y15.91763 I3.59741 J-0.02635
G1 X21.6836 Y15.89761
X21.70727 Y15.26918
Z-0.85
X21.61035 Y2.04822
G02 X14.41555 Y2.10091 I-3.5974 J0.02635
G1 X14.51377 Y15.50055
G02 X21.68124 Y15.91763 I3.59741 J-0.02635
G1 X21.6836 Y15.89761
X21.70727 Y15.26918
G0 Z1.5875
X34.15048 Y4.89982
G1 Z0.0575 F73.5
X34.18435 Y4.58522 Z0.00171 F220.5
X34.14561 Y4.2403 Z-0.05949
X34.03283 Y3.91203 Z-0.1207
X33.85141 Y3.61612 Z-0.1819
X33.73071 Y3.49142 Z-0.2125
X33.61001 Y3.36672 F294.
X28.73258 Y-0.67665
G02 X24.67507 Y3.31818 I-1.83413 J2.19509
G1 X25.70034 Y4.58518
Y10.71528
G02 X30.95303 Y11.87848 I2.75514 J0.
G1 X34.03593 Y5.25911
G02 X33.85141 Y3.61612 I-1.43908 J-0.67024
G1 X33.73071 Y3.49142
Z-0.425
X33.61001 Y3.36672
X28.73258 Y-0.67665
G02 X24.67507 Y3.31818 I-1.83413 J2.19509
G1 X25.70034 Y4.58518
Y10.71528
G02 X30.95303 Y11.87848 I2.75514 J0.
G1 X34.03593 Y5.25911
G02 X33.85141 Y3.61612 I-1.43908 J-0.67024
G1 X33.73071 Y3.49142
Z-0.6375
X33.61001 Y3.36672
X28.73258 Y-0.67665
G02 X24.67507 Y3.31818 I-1.83413 J2.19509
G1 X25.70034 Y4.58518
Y10.71528
G02 X30.95303 Y11.87848 I2.75514 J0.
G1 X34.03593 Y5.25911
G02 X33.85141 Y3.61612 I-1.43908 J-0.67024
G1 X33.73071 Y3.49142
Z-0.85
X33.61001 Y3.36672
X28.73258 Y-0.67665
G02 X24.67507 Y3.31818 I-1.83413 J2.19509
G1 X25.70034 Y4.58518
Y10.71528
G02 X30.95303 Y11.87848 I2.75514 J0.
G1 X34.03593 Y5.25911
G02 X33.85141 Y3.61612 I-1.43908 J-0.67024
G1 X33.73071 Y3.49142
G0 Z1.5875
M30
%
