%
G17 G21 G40 G90 G64 P0.1
(Standard Drill )
(0.8mm Carbide Drill)
T35 M06
S23873 M3
G0 Z0.9
X18.01302 Y2.07456
G21 S23873 M3
G81 X18.01302 Y2.07456 Z-1.23094 R0.5 F143.0
X18.11118Y15.47419
X26.89783Y1.51863
X28.45548Y5.69028
X30.13048Y4.85278
X30.13048Y6.52778
X28.45548Y7.36528
X30.13048Y8.20278
X28.45548Y9.04028
X28.45548Y10.71528
G80
G0 Z0.9
(1mm Carbide Drill)
T36 M06
Z1.
X8.73414 Y6.643
G21 S23873 M3
G81 X8.73414 Y6.643 Z-1.28868 R0.5 F143.0
X8.74502Y3.99352
X8.74052Y1.33167
X1.52759Y6.45691
X1.53847Y3.80744
X1.53397Y1.14558
G80
G0 Z1.
(1.6mmCarbide Drill)
T25 M06
S20491 M3
Z1.3
X1.92635 Y9.31422
G21 S20491 M3
G81 X1.92635 Y9.31422 Z-1.46188 R0.5 F122.0
X9.1329Y9.50031
X18.03781Y5.4255
X18.06207Y8.77435
X18.08663Y12.12424
G80
G0 Z1.3
G0 Z1.5875
M30
%
