%
G17 G21 G40 G90 G64 P0.1
(2 1/2 Axis Profiling)
(SlotDrill 1/8in 3.175mm Carbide Aluminium Cut)
T6 M06
S14737 M3
G0 Z1.5875
X15.43099 Y36.07351
G1 Z0.1 F92.
X17.41594 Z-0.25 F276.
X25. F368.
G17
G02 X26.5875 Y34.48601 I0. J-1.5875
G1 Y22.243
G02 X25. Y20.6555 I-1.5875 J0.
G1 X0.
G02 X-1.5875 Y22.243 I0. J1.5875
G1 Y25.243
G02 X0.87571 Y27.82751 I2.5875 J0.
G1 X8.41145 Y27.83041
X8.4125 Y34.48626
G02 X10. Y36.07351 I1.5875 J-0.00025
G1 X17.41594
G0 Z1.5875
X15.43099
G1 Z-0.15 F92.
X17.41594 Z-0.5 F276.
X25. F368.
G02 X26.5875 Y34.48601 I0. J-1.5875
G1 Y22.243
G02 X25. Y20.6555 I-1.5875 J0.
G1 X0.
G02 X-1.5875 Y22.243 I0. J1.5875
G1 Y25.243
G02 X0.87571 Y27.82751 I2.5875 J0.
G1 X8.41145 Y27.83041
X8.4125 Y34.48626
G02 X10. Y36.07351 I1.5875 J-0.00025
G1 X17.41594
G0 Z1.5875
X15.43099
G1 Z-0.4 F92.
X17.41594 Z-0.75 F276.
X25. F368.
G02 X26.5875 Y34.48601 I0. J-1.5875
G1 Y22.243
G02 X25. Y20.6555 I-1.5875 J0.
G1 X0.
G02 X-1.5875 Y22.243 I0. J1.5875
G1 Y25.243
G02 X0.87571 Y27.82751 I2.5875 J0.
G1 X8.41145 Y27.83041
X8.4125 Y34.48626
G02 X10. Y36.07351 I1.5875 J-0.00025
G1 X17.41594
G0 Z1.5875
X15.43099
G1 Z-0.65 F92.
X17.41594 Z-1. F276.
X25. F368.
G02 X26.5875 Y34.48601 I0. J-1.5875
G1 Y22.243
G02 X25. Y20.6555 I-1.5875 J0.
G1 X0.
G02 X-1.5875 Y22.243 I0. J1.5875
G1 Y25.243
G02 X0.87571 Y27.82751 I2.5875 J0.
G1 X8.41145 Y27.83041
X8.4125 Y34.48626
G02 X10. Y36.07351 I1.5875 J-0.00025
G1 X17.41594
G0 Z1.5875
X16.50694 Y13.83051
G1 Z0.1 F92.
X18.49189 Z-0.25 F276.
X25. F368.
G02 X26.5875 Y12.24301 I0. J-1.5875
G1 Y0.
G02 X25. Y-1.5875 I-1.5875 J0.
G1 X0.
G02 X-1.5875 Y0. I0. J1.5875
G1 Y3.
G02 X0.87571 Y5.58451 I2.5875 J0.
G1 X8.41145 Y5.58741
X8.4125 Y12.24326
G02 X10. Y13.83051 I1.5875 J-0.00025
G1 X18.49189
G0 Z1.5875
X16.50694
G1 Z-0.15 F92.
X18.49189 Z-0.5 F276.
X25. F368.
G02 X26.5875 Y12.24301 I0. J-1.5875
G1 Y0.
G02 X25. Y-1.5875 I-1.5875 J0.
G1 X0.
G02 X-1.5875 Y0. I0. J1.5875
G1 Y3.
G02 X0.87571 Y5.58451 I2.5875 J0.
G1 X8.41145 Y5.58741
X8.4125 Y12.24326
G02 X10. Y13.83051 I1.5875 J-0.00025
G1 X18.49189
G0 Z1.5875
X16.50694
G1 Z-0.4 F92.
X18.49189 Z-0.75 F276.
X25. F368.
G02 X26.5875 Y12.24301 I0. J-1.5875
G1 Y0.
G02 X25. Y-1.5875 I-1.5875 J0.
G1 X0.
G02 X-1.5875 Y0. I0. J1.5875
G1 Y3.
G02 X0.87571 Y5.58451 I2.5875 J0.
G1 X8.41145 Y5.58741
X8.4125 Y12.24326
G02 X10. Y13.83051 I1.5875 J-0.00025
G1 X18.49189
G0 Z1.5875
X16.50694
G1 Z-0.65 F92.
X18.49189 Z-1. F276.
X25. F368.
G02 X26.5875 Y12.24301 I0. J-1.5875
G1 Y0.
G02 X25. Y-1.5875 I-1.5875 J0.
G1 X0.
G02 X-1.5875 Y0. I0. J1.5875
G1 Y3.
G02 X0.87571 Y5.58451 I2.5875 J0.
G1 X8.41145 Y5.58741
X8.4125 Y12.24326
G02 X10. Y13.83051 I1.5875 J-0.00025
G1 X18.49189
G0 Z1.5875
M30
%
