%
G17 G21 G40 G90 G64 P0.1
(Horizontal Roughing)
(Router Straight Flute 13mm Carbide Tipped)
T38 M06
S13466 M3
G0 Z46.1975
X41.6337 Y-51.64581
G1 Z45.5625 F4039.5
X38.23698 Y-45.54233 F4039.5
Y45.55706 F5000.
X37.39246 Y46.03386
X35.39246 Y46.48698
X34.98698
Y-46.49864
X31.73698 Y-46.49221
Y46.48698
X28.48698
Y-46.48578
X25.23698 Y-46.47935
Y46.48698
X21.98698
Y-46.47292
X18.73698 Y-46.46649
Y46.48698
X15.48698
Y-46.46007
X12.23698 Y-46.45364
Y46.48698
X8.98698
Y-46.44721
X5.73698 Y-46.44078
Y46.48698
X2.48698
Y-46.43435
X-0.76302 Y-46.42792
Y46.48698
X-4.01302
Y-46.42149
X-7.26302 Y-46.41507
Y46.48698
X-10.51302
Y-46.40864
X-13.76302 Y-46.40221
Y46.48698
X-17.01302
Y-46.39578
X-20.26302 Y-46.38935
Y46.48698
X-23.51302
Y-46.38292
X-26.76302 Y-46.37649
Y46.48698
X-30.01302
Y-46.37006
X-33.26302 Y-46.36364
Y46.48698
X-35.35754
X-36.51302 Y46.23422
Y-46.29161
X-38.2802 Y-45.60754
X-39.76302 Y-44.38912
Y44.29161
Z46.1975 F5000.
G0 Z49.5625
X41.63467 Y-51.64581
G1 Z43.16 F1346.5
Z42.525 F4039.5
X38.23795 Y-45.54233 F4039.5
Y45.55726 F5000.
X37.39246 Y46.03483
X35.39246 Y46.48795
X34.98795
Y-46.49961
X31.73795 Y-46.49313
Y46.48795
X28.48795
Y-46.48666
X25.23795 Y-46.48019
Y46.48795
X21.98795
Y-46.47372
X18.73795 Y-46.46724
Y46.48795
X15.48795
Y-46.46077
X12.23795 Y-46.4543
Y46.48795
X8.98795
Y-46.44783
X5.73795 Y-46.44135
Y46.48795
X2.48795
Y-46.43488
X-0.76205 Y-46.42841
Y46.48795
X-4.01205
Y-46.42193
X-7.26205 Y-46.41546
Y46.48795
X-10.51205
Y-46.40899
X-13.76205 Y-46.40252
Y46.48795
X-17.01205
Y-46.39604
X-20.26205 Y-46.38957
Y46.48795
X-23.51205
Y-46.3831
X-26.76205 Y-46.37663
Y46.48795
X-30.01205
Y-46.37015
X-33.26205 Y-46.36368
Y46.48795
X-35.35754
X-36.51205 Y46.2354
Y-46.29236
X-38.28116 Y-45.60754
X-39.76205 Y-44.39087
Y44.29402
Z43.16 F5000.
G0 Z46.525
X42.61426 Y-51.05574
G1 Z40.1225 F1346.5
Z39.4875 F4039.5
X38.23892 Y-45.61087 F4039.5
Y45.55746 F5000.
X37.39246 Y46.0358
X35.39246 Y46.48892
X34.98892
Y-46.39302
X31.73892 Y-46.39728
Y46.48892
X28.48892
Y-46.40154
X25.23892 Y-46.4058
Y46.48892
X21.98892
Y-46.41007
X18.73892 Y-46.41433
Y46.48892
X15.48892
Y-46.41859
X12.23892 Y-46.42285
Y46.48892
X8.98892
Y-46.42711
X5.73892 Y-46.43137
Y46.48892
X2.48892
Y-46.43563
X-0.76108 Y-46.4399
Y46.48892
X-4.01108
Y-46.44416
X-7.26108 Y-46.44842
Y46.48892
X-10.51108
Y-46.45268
X-13.76108 Y-46.45694
Y46.48892
X-17.01108
Y-46.4612
X-20.26108 Y-46.46546
Y46.48892
X-23.51108
Y-46.46973
X-26.76108 Y-46.47399
Y46.48892
X-30.01108
Y-46.47825
X-33.26108 Y-46.48251
Y46.48892
X-35.35754
X-36.51108 Y46.23658
Y-46.29311
X-38.28213 Y-45.60754
X-39.76108 Y-44.39262
Y44.29643
Z40.1225 F5000.
G0 Z43.4875
X42.61523 Y-51.05593
G1 Z37.085 F1346.5
Z36.45 F4039.5
X38.23989 Y-45.61106 F4039.5
Y45.55765 F5000.
X37.39246 Y46.03677
X35.39246 Y46.48989
X34.98989
Y-46.39399
X31.73989 Y-46.39825
Y46.48989
X28.48989
Y-46.40251
X25.23989 Y-46.40677
Y46.48989
X21.98989
Y-46.41103
X18.73989 Y-46.41529
Y46.48989
X15.48989
Y-46.41956
X12.23989 Y-46.42382
Y46.48989
X8.98989
Y-46.42808
X5.73989 Y-46.43234
Y46.48989
X2.48989
Y-46.4366
X-0.76011 Y-46.44086
Y46.48989
X-4.01011
Y-46.44512
X-7.26011 Y-46.44939
Y46.48989
X-10.51011
Y-46.45365
X-13.76011 Y-46.45791
Y46.48989
X-17.01011
Y-46.46217
X-20.26011 Y-46.46643
Y46.48989
X-23.51011
Y-46.47069
X-26.76011 Y-46.47495
Y46.48989
X-30.01011
Y-46.47922
X-33.26011 Y-46.48348
Y46.48989
X-35.35754
X-36.51011 Y46.23776
Y-46.29386
X-38.2831 Y-45.60754
X-39.76011 Y-44.39438
Y44.29884
Z37.085 F5000.
G0 Z40.45
X41.62195 Y-51.65451
G1 Z34.0475 F1346.5
Z33.4125 F4039.5
X38.22523 Y-45.55102 F4039.5
Y45.64246 F5000.
G17
G03 X34.97523 Y46.49086 I-3.15994 J-5.45577
G1 Y-46.4872
X31.72523
Y46.49086
X28.47523
Y-46.4872
X25.22523
Y46.49086
X21.97523
Y-46.4872
X18.72523
Y46.49086
X15.47523
Y-46.4872
X12.22523
Y46.49086
X8.97523
Y-46.4872
X5.72523
Y46.49086
X2.47523
Y-46.4872
X-0.77477
Y46.49086
X-4.02477
Y-46.4872
X-7.27477
Y46.49086
X-10.52477
Y-46.4872
X-13.77477
Y46.49086
X-17.02477
Y-46.4872
X-20.27477
Y46.49086
X-23.52477
Y-46.4872
X-26.77477
Y46.49086
X-30.02477
Y-46.4872
X-33.27477
Y46.49086
X-35.35754
X-36.52477 Y46.23553
Y-46.28856
X-38.28407 Y-45.60754
X-39.77477 Y-44.3833
Y44.28181
Z34.0475 F5000.
G0 Z35.49203
X41.62292 Y-51.65451
G1 Z31.01 F1346.5
Z30.375 F4039.5
X38.2262 Y-45.55102 F4039.5
Y45.64246 F5000.
G03 X34.9762 Y46.49183 I-3.16041 J-5.45037
G1 Y-46.48816
X31.7262
Y46.49183
X28.4762
Y-46.48816
X25.2262
Y46.49183
X21.9762
Y-46.48816
X18.7262
Y46.49183
X15.4762
Z31.01 F5000.
G0 Z35.01509
X18.36953 Y17.2471
G1 Z32.28 F1346.5
Z31.645 F4039.5
X18.36852 Y16.06563 Z31.43667 F4039.5
X18.22408 Y15.06563 Z31.25852
X17.91801 Y14.06563 Z31.07412
X17.42438 Y13.06563 Z30.87748
X16.80294 Y12.19787 Z30.68928
X16.05294 Y11.43982 Z30.50125
X15.4762 Y11.01554 Z30.375
Y-46.48816 F5000.
X12.2262
Y9.79974
X8.9762 Y9.79487
Y-46.48816
X5.7262
Y9.78999
X2.4762 Y9.78511
Y-46.48816
X-0.7738
Y9.78024
X-4.0238 Y9.77536
Y-46.48816
X-7.2738
Y9.77048
X-10.5238 Y9.76561
Y-46.48816
X-13.7738
Y10.15032
G02 X-17.0238 Y12.49098 I2.04625 J6.26785
G1 Y-46.48816
X-20.2738
Z31.01 F5000.
G0 Z36.43074
X15.4762 Y53.47683
G1 Z31.01 F1346.5
Z30.375 F4039.5
Y46.49183 F4039.5
Y40.00854 F5000.
G03 X12.2262 Y41.3516 I-4.49414 J-6.27135
G1 Y46.49183
X8.9762
Y41.53907
X5.7262 Y41.54093
Y46.49183
X2.4762
Y41.5428
X-0.7738 Y41.54467
Y46.49183
X-4.0238
Y41.54653
X-7.2738 Y41.5484
Y46.49183
X-10.5238
Y41.53233
G03 X-13.7738 Y40.91121 I0.0218 J-8.92734
G1 Y46.49183
X-17.0238
Y38.47738
Z31.01 F5000.
G0 Z34.82288
X-20.2738 Y-53.47316
G1 Z31.01 F1346.5
Z30.375 F4039.5
Y-46.48816 F4039.5
Y46.49183 F5000.
X-23.5238
Y-46.48816
X-26.7738
Y46.49183
X-30.0238
Y-46.48816
X-33.2738
Y46.49183
X-35.35754
X-36.5238 Y46.23671
Y-46.28931
X-38.28504 Y-45.60754
X-39.7738 Y-44.38505
Y44.28422
Z31.01 F5000.
G0 Z35.49226
X41.62389 Y-51.65451
G1 Z27.9725 F1346.5
Z27.3375 F4039.5
X38.22717 Y-45.55102 F4039.5
Y45.64246 F5000.
G03 X34.97717 Y46.4928 I-3.16088 J-5.44499
G1 Y-46.48913
X31.72717
Y46.4928
X28.47717
Y-46.48913
X25.22717
Y46.4928
X21.97717
Z27.9725 F5000.
G0 Z32.06725
X23.35262 Y-31.66881
G1 Z29.2425 F1346.5
Z28.6075 F4039.5
X23.35183 Y-34.93437 Z28.03169 F4039.5
X23.20671 Y-35.93437 Z27.85352
X22.90324 Y-36.93437 Z27.66925
X22.41801 Y-37.93437 Z27.47326
X21.97717 Y-38.56563 Z27.3375
Y-46.48913 F5000.
X18.72717
Y-40.98904
G02 X15.47717 Y-41.54352 I-2.89243 J7.15162
G1 Y-46.48913
X12.22717
Y-41.54193
X8.97717 Y-41.54033
Y-46.48913
X5.72717
Y-41.53874
X2.47717 Y-41.53715
Y-46.48913
X-0.77283
Y-41.53555
X-4.02283 Y-41.53396
Y-46.48913
X-7.27283
Y-41.53237
X-10.52283 Y-41.53078
Y-46.48913
X-13.77283
Y-41.52918
X-16.44706 Y-41.52787
X-17.02283 Y-41.45464
Y-46.48913
X-20.27283
Y-40.19242
G02 X-23.36478 Y-34.68437 I3.7927 J5.7509
G1 X-23.35915 Y34.81563
G02 X-20.27283 Y40.19419 I6.88691 J-0.37707
G1 Z27.9725 F5000.
G0 Z32.01525
X21.97717 Y53.4778
G1 Z27.9725 F1346.5
Z27.3375 F4039.5
Y46.4928 F4039.5
Y38.58017 F5000.
G03 X18.72717 Y41.00017 I-5.68693 J-4.24507
G1 Y46.4928
X15.47717
Y41.53827
X12.22717 Y41.53949
Y46.4928
X8.97717
Y41.54071
X5.72717 Y41.54193
Y46.4928
X2.47717
Y41.54315
X-0.77283 Y41.54437
Y46.4928
X-4.02283
Y41.54559
X-7.27283 Y41.5468
Y46.4928
X-10.52283
Y41.54802
X-13.77283 Y41.54924
Y46.4928
X-17.02283
Y41.44751
G03 X-20.27283 Y40.19419 I0.98076 J-7.3837
G1 Y46.4928
X-23.52283
Y53.4778 F5000.
Y46.4928 F4039.5
Y-46.48913 F5000.
X-26.77283
Y46.4928
X-30.02283
Y-46.48913
X-33.27283
Y46.4928
X-35.35754
X-36.52283 Y46.23789
Y-46.29006
X-38.28601 Y-45.60754
X-39.77283 Y-44.38681
Y44.28663
Z27.9725 F5000.
G0 Z35.4925
X41.62486 Y-51.65451
G1 Z24.935 F1346.5
Z24.3 F4039.5
X38.22814 Y-45.55102 F4039.5
Y45.64246 F5000.
G03 X34.97814 Y46.49376 I-3.16135 J-5.43962
G1 Y-46.4901
X31.72814
Y46.49376
X28.47814
Y-46.4901
X25.22814
Y-53.4751 F5000.
Y-46.4901 F4039.5
Y-38.87189 F5000.
G02 X21.97814 Y-41.12028 I-5.48336 J4.45298
G1 Y-46.4901
X18.72814
Y-41.5432
X15.47814 Y-41.54135
Y-46.4901
X12.22814
Y-41.5395
X8.97814 Y-41.53766
Y-46.4901
X5.72814
Y-41.53581
X2.47814 Y-41.53396
Y-46.4901
X-0.77186
Y-41.53211
X-4.02186 Y-41.53027
Y-46.4901
X-7.27186
Y-41.52842
X-10.52186 Y-41.52657
Y-46.4901
X-13.77186
Y-41.52473
X-17.02186 Y-41.52288
Y-46.4901
X-20.27186
Y-41.51076
G02 X-23.52186 Y-40.36357 I0.6863 J7.12154
G1 Y-46.4901
X-26.77186
Y-35.13505
X-26.81963 Y-34.68437
X-26.81407 Y34.81563
X-26.77186 Y35.15223
Z24.935 F5000.
G0 Z36.43074
X18.84518 Y41.53427
G1 Z26.205 F1346.5
Z25.57 F4039.5
X20.05294 Y41.53407 Z25.35704 F4039.5
X21.05294 Y41.3897 Z25.17888
X22.16184 Y41.06563 Z24.97518
X23.22672 Y40.56563 Z24.76774
X24.05294 Y40.01742 Z24.5929
X24.84224 Y39.31563 Z24.40667
X25.22814 Y38.84972 Z24.3
Y46.49376 F5000.
X21.97814
Y41.11932
G03 X18.72814 Y41.53429 I-2.54334 J-6.98477
G1 Y46.49376
X15.47814
Y41.53482
X12.22814 Y41.53536
Y46.49376
X8.97814
Y41.5359
X5.72814 Y41.53643
Y46.49376
X2.47814
Y41.53697
X-0.77186 Y41.5375
Y46.49376
X-4.02186
Y41.53804
X-7.27186 Y41.53858
Y46.49376
X-10.52186
Y41.53911
X-13.77186 Y41.53965
Y46.49376
X-17.02186
Y41.54018
X-19.94706 Y41.54066
X-20.27186 Y41.49868
Y46.49376
X-23.52186
Y40.36069
G03 X-26.77186 Y35.15223 I3.5696 J-5.84559
G1 Y46.49376
X-30.02186
Y53.47876 F5000.
Y46.49376 F4039.5
Y-46.4901 F5000.
X-33.27186
Y46.49376
X-35.35754
X-36.52186 Y46.23907
Y-46.29081
X-38.28698 Y-45.60754
X-39.77186 Y-44.38856
Y44.28904
Z24.935 F5000.
G0 Z35.49274
X41.62583 Y-51.65451
G1 Z21.8975 F1346.5
Z21.2625 F4039.5
X38.22911 Y-45.55102 F4039.5
Y45.56748 F5000.
X37.39246 Y46.04161
X35.39246 Y46.49473
X34.97911
Y-46.49107
X31.72911
Y46.49473
X28.47911
Z21.8975 F5000.
G0 Z26.30426
X29.43327 Y-30.97359
G1 Z23.1675 F1346.5
Z22.5325 F4039.5
X29.43534 Y-34.93437 Z21.83411 F4039.5
X29.29351 Y-35.93437 Z21.65602
X28.99728 Y-36.93437 Z21.47211
X28.52472 Y-37.93437 Z21.27709
X28.47911 Y-38.00341 Z21.2625
Y-46.49107 F5000.
X25.22911
Y-40.88746
G02 X21.97911 Y-41.54377 I-2.94915 J6.22895
G1 Y-46.49107
X18.72911
Y-41.54349
X15.47911 Y-41.5432
Y-46.49107
X12.22911
Y-41.54291
X8.97911 Y-41.54262
Y-46.49107
X5.72911
Y-41.54234
X2.47911 Y-41.54205
Y-46.49107
X-0.77089
Y-41.54176
X-4.02089 Y-41.54148
Y-46.49107
X-7.27089
Y-41.54119
X-10.52089 Y-41.5409
Y-46.49107
X-13.77089
Y-41.54061
X-17.02089 Y-41.54033
Y-46.49107
X-20.27089
Y-41.54004
X-22.69706 Y-41.53982
X-23.52089 Y-41.43664
Y-46.49107
X-26.77089
Y-39.9633
G02 X-29.41376 Y-35.18437 I4.32545 J5.51233
G1 X-29.44253 Y34.81563
G02 X-26.77089 Y39.94235 I6.90346 J-0.33806
G1 Z21.8975 F5000.
G0 Z28.45073
X28.47911 Y53.47973
G1 Z21.8975 F1346.5
Z21.2625 F4039.5
Y46.49473 F4039.5
Y37.97154 F5000.
G03 X25.22911 Y40.88493 I-5.86496 J-3.27315
G1 Y46.49473
X21.97911
Y41.5322
X18.72911 Y41.53351
Y46.49473
X15.47911
Y41.53482
X12.22911 Y41.53612
Y46.49473
X8.97911
Y41.53743
X5.72911 Y41.53874
Y46.49473
X2.47911
Y41.54005
X-0.77089 Y41.54136
Y46.49473
X-4.02089
Y41.54266
X-7.27089 Y41.54397
Y46.49473
X-10.52089
Y41.54528
X-13.77089 Y41.54659
Y46.49473
X-17.02089
Y41.54789
X-20.27089 Y41.5492
Y46.49473
X-23.52089
Y41.43225
G03 X-26.77089 Y39.94235 I1.13557 J-6.76675
G1 Y46.49473
X-30.02089
Y53.47973 F5000.
Y46.49473 F4039.5
Y-46.49107 F5000.
X-33.27089
Y46.49473
X-35.35754
X-36.52089 Y46.24025
Y-46.29059
X-38.35754 Y-45.56919
X-39.77089 Y-44.31989
Y44.29145
Z21.8975 F5000.
G0 Z35.49297
X41.6268 Y-51.65451
G1 Z18.86 F1346.5
Z18.225 F4039.5
X38.23007 Y-45.55102 F4039.5
Y45.56768 F5000.
X37.39246 Y46.04258
X35.39246 Y46.4957
X34.98007
Y-46.49204
X31.73007
Y46.4957
X28.48007
Z18.86 F5000.
G0 Z25.97332
X31.22657 Y-33.6981
G1 Z20.13 F1346.5
Z19.495 F4039.5
X31.2263 Y-34.93437 Z19.27701 F4039.5
X31.05294 Y-36.0784 Z19.07299
X30.69207 Y-37.18437 Z18.86786
X30.17408 Y-38.18437 Z18.66928
X29.55294 Y-39.03275 Z18.48388
X28.80294 Y-39.78979 Z18.29597
X28.48007 Y-40.03015 Z18.225
Y-46.49204 F5000.
X25.23007
Y-41.4511
X25.05294 Y-41.48848
X21.98007 Y-41.491
Y-46.49204
X18.73007
Y-41.49367
X15.48007 Y-41.49633
Y-46.49204
X12.23007
Y-41.49899
X8.98007 Y-41.50166
Y-46.49204
X5.73007
Y-41.50432
X2.48007 Y-41.50699
Y-46.49204
X-0.76993
Y-41.50965
X-4.01993 Y-41.51232
Y-46.49204
X-7.26993
Y-41.51498
X-10.51993 Y-41.51764
Y-46.49204
X-13.76993
Y-41.52031
X-17.01993 Y-41.52297
Y-46.49204
X-20.26993
Y-41.52564
X-23.51993 Y-41.5283
Y-46.49204
X-26.76993
Y-41.01119
G02 X-30.01993 Y-38.40596 I2.45057 J6.38684
G1 Y-46.49204
X-33.26993
Z18.86 F5000.
G0 Z36.43074
X28.48007 Y53.4807
G1 Z18.86 F1346.5
Z18.225 F4039.5
Y46.4957 F4039.5
Y40.04705 F5000.
G03 X25.23007 Y41.44642 I-4.24906 J-5.39461
G1 Y46.4957
X21.98007
Y41.54017
X18.73007 Y41.54062
Y46.4957
X15.48007
Y41.54106
X12.23007 Y41.54151
Y46.4957
X8.98007
Y41.54195
X5.73007 Y41.5424
Y46.4957
X2.48007
Y41.54284
X-0.76993 Y41.54329
Y46.4957
X-4.01993
Y41.54373
X-7.26993 Y41.54418
Y46.4957
X-10.51993
Y41.54462
X-13.76993 Y41.54507
Y46.4957
X-17.01993
Y41.54551
X-20.26993 Y41.54596
Y46.4957
X-23.51993
Y41.5464
G03 X-26.76993 Y41.01308 I-0.52179 J-6.98941
G1 Y46.4957
X-30.01993
Y38.40439
Z18.86 F5000.
G0 Z24.16398
X-33.26993 Y-53.47704
G1 Z18.86 F1346.5
Z18.225 F4039.5
Y-46.49204 F4039.5
Y46.4957 F5000.
X-35.35754
X-36.51993 Y46.24143
Y-46.2914
X-38.35754 Y-45.57016
X-39.76993 Y-44.32172
Y44.29386
Z18.86 F5000.
G0 Z35.49321
X41.62776 Y-51.65451
G1 Z15.8225 F1346.5
Z15.1875 F4039.5
X38.23104 Y-45.55102 F4039.5
Y45.56788 F5000.
X37.39246 Y46.04355
X35.39246 Y46.49667
X34.98104
Y-46.49301
X31.73104
Y-53.47801 F5000.
Y-46.49301 F4039.5
Y-38.384 F5000.
G02 X28.48104 Y-41.00754 I-5.67443 J3.7046
G1 Y-46.49301
X25.23104
Y-41.54371
X21.98104 Y-41.54252
Y-46.49301
X18.73104
Y-41.54134
X15.48104 Y-41.54015
Y-46.49301
X12.23104
Y-41.53896
X8.98104 Y-41.53778
Y-46.49301
X5.73104
Y-41.53659
X2.48104 Y-41.5354
Y-46.49301
X-0.76896
Y-41.53422
X-4.01896 Y-41.53303
Y-46.49301
X-7.26896
Y-41.53184
X-10.51896 Y-41.53066
Y-46.49301
X-13.76896
Y-41.52947
X-17.01896 Y-41.52828
Y-46.49301
X-20.26896
Y-41.52709
X-23.51896 Y-41.52591
Y-46.49301
X-26.76896
Y-41.47975
G02 X-30.01896 Y-40.1592 I0.88798 J6.84496
G1 Y-46.49301
X-33.26896
Z15.8225 F5000.
G0 Z36.18857
X25.59824 Y41.537
G1 Z17.0925 F1346.5
Z16.4575 F4039.5
X26.30294 Y41.53681 Z16.33324 F4039.5
X27.30294 Y41.39194 Z16.15507
X28.38868 Y41.06563 Z15.95517
X29.4242 Y40.56563 Z15.75241
X30.30294 Y39.95934 Z15.56416
X31.05294 Y39.26044 Z15.3834
X31.62138 Y38.56563 Z15.22511
X31.73104 Y38.3827 Z15.1875
Y46.49667 F5000.
X28.48104
Y41.02103
G03 X25.23104 Y41.53709 I-2.70239 J-6.52713
G1 Y46.49667
X21.98104
Y41.53793
X18.73104 Y41.53876
Y46.49667
X15.48104
Y41.5396
X12.23104 Y41.54043
Y46.49667
X8.98104
Y41.54127
X5.73104 Y41.54211
Y46.49667
X2.48104
Y41.54294
X-0.76896 Y41.54378
Y46.49667
X-4.01896
Y41.54462
X-7.26896 Y41.54545
Y46.49667
X-10.51896
Y41.54629
X-13.76896 Y41.54712
Y46.49667
X-17.01896
Y41.54796
X-20.26896 Y41.5488
Y46.49667
X-23.51896
Y41.54963
X-25.94706 Y41.55026
X-26.76896 Y41.47364
Y46.49667
X-30.01896
Y40.1579
Z15.8225 F5000.
G0 Z24.05975
X-33.26896 Y-53.47801
G1 Z15.8225 F1346.5
Z15.1875 F4039.5
Y-46.49301 F4039.5
Y46.49667 F5000.
X-35.35754
X-36.51896 Y46.24261
Y-46.29221
X-38.35754 Y-45.57113
X-39.76896 Y-44.32354
Y44.29627
Z15.8225 F5000.
G0 Z35.49345
X41.62873 Y-51.65451
G1 Z12.785 F1346.5
Z12.15 F4039.5
X38.23201 Y-45.55102 F4039.5
Y45.56807 F5000.
X37.39246 Y46.04451
X35.39246 Y46.49764
X34.98201
Y-46.49398
X31.73201
Y-53.47898 F5000.
Y-46.49398 F4039.5
Y-39.75435 F5000.
G02 X28.48201 Y-41.39327 I-4.53583 J4.95277
G1 Y-46.49398
X25.23201
Y-41.54345
X21.98201 Y-41.54226
Y-46.49398
X18.73201
Y-41.54107
X15.48201 Y-41.53988
Y-46.49398
X12.23201
Y-41.5387
X8.98201 Y-41.53751
Y-46.49398
X5.73201
Y-41.53632
X2.48201 Y-41.53513
Y-46.49398
X-0.76799
Y-41.53395
X-4.01799 Y-41.53276
Y-46.49398
X-7.26799
Y-41.53157
X-10.51799 Y-41.53038
Y-46.49398
X-13.76799
Y-41.5292
X-17.01799 Y-41.52801
Y-46.49398
X-20.26799
Y-41.52682
X-23.51799 Y-41.52563
Y-46.49398
X-26.76799
Y-41.52445
G02 X-30.01799 Y-40.87255 I-0.41902 J6.33827
G1 Y-46.49398
X-33.26799
Y-37.84349
G02 X-34.14335 Y-34.68437 I5.89444 J3.33412
G1 X-34.13791 Y34.81563
G02 X-33.26799 Y37.84621 I6.89157 J-0.33808
G1 Z12.785 F5000.
G0 Z36.43074
X24.97065 Y41.53708
G1 Z14.055 F1346.5
Z13.42 F4039.5
X27.55294 Y41.53642 Z12.96467 F4039.5
X28.55294 Y41.38902 Z12.78644
X29.61818 Y41.06563 Z12.59014
X30.64687 Y40.56563 Z12.38847
X31.55294 Y39.9325 Z12.19356
X31.73201 Y39.76229 Z12.15
Y46.49764 F5000.
X28.48201
Y41.39948
X27.55294 Y41.53642
X25.23201 Y41.53702
Y46.49764
X21.98201
Y41.53785
X18.73201 Y41.53868
Y46.49764
X15.48201
Y41.53951
X12.23201 Y41.54034
Y46.49764
X8.98201
Y41.54118
X5.73201 Y41.54201
Y46.49764
X2.48201
Y41.54284
X-0.76799 Y41.54367
Y46.49764
X-4.01799
Y41.54451
X-7.26799 Y41.54534
Y46.49764
X-10.51799
Y41.54617
X-13.76799 Y41.547
Y46.49764
X-17.01799
Y41.54783
X-20.26799 Y41.54867
Y46.49764
X-23.51799
Y41.5495
X-26.76799 Y41.55033
Y46.49764
X-30.01799
Y40.88292
G03 X-33.26799 Y37.84621 I2.83417 J-6.29072
G1 Y46.49764
X-35.35754
X-36.51799 Y46.24379
X-38.01066 Y53.06744 F5000.
X-36.51799 Y46.24379 F4039.5
Y-46.29302 F5000.
X-38.35754 Y-45.5721
X-39.76799 Y-44.32537
Y44.29868
Z12.785 F5000.
G0 Z35.49368
X41.6297 Y-51.65451
G1 Z9.7475 F1346.5
Z9.1125 F4039.5
X38.23298 Y-45.55102 F4039.5
Y45.56827 F5000.
X37.39246 Y46.04548
X35.39246 Y46.49861
X34.98298
Y36.55926
X35.21592 Y35.56563
X35.30294 Y34.52849
X35.28726 Y-34.93437
X35.14727 Y-35.93437
X34.98298 Y-36.47574
Z9.7475 F5000.
G0 Z13.7283
X35.28854 Y-29.30734
G1 Z11.0175 F1346.5
Z10.3825 F4039.5
X35.28726 Y-34.93437 Z9.3903 F4039.5
X35.14727 Y-35.93437 Z9.21226
X34.98298 Y-36.47574 Z9.1125
Y-46.49494 F5000.
X31.73298
Y-40.58386
G02 X28.48298 Y-41.5011 I-3.21744 J5.18375
G1 Y-46.49494
X25.23298
Y-41.50315
X21.98298 Y-41.5052
Y-46.49494
X18.73298
Y-41.50724
X15.48298 Y-41.50929
Y-46.49494
X12.23298
Y-41.51134
X8.98298 Y-41.51339
Y-46.49494
X5.73298
Y-41.51544
X2.48298 Y-41.51748
Y-46.49494
X-0.76702
Y-41.51953
X-4.01702 Y-41.52158
Y-46.49494
X-7.26702
Y-41.52363
X-10.51702 Y-41.52567
Y-46.49494
X-13.76702
Y-41.52772
X-17.01702 Y-41.52977
Y-46.49494
X-20.26702
Y-41.53182
X-23.51702 Y-41.53386
Y-46.49494
X-26.76702
Y-41.53591
G02 X-30.01702 Y-41.29651 I-0.97069 J9.00222
G1 Y-46.49494
X-33.26702
Y-39.42117
G02 X-35.29977 Y-34.68437 I5.03374 J4.96474
G1 X-35.29433 Y34.81563
G02 X-33.26702 Y39.4058 I6.99297 J-0.34577
G1 Z9.7475 F5000.
G0 Z36.43074
X24.70274 Y41.54673
G1 Z11.0175 F1346.5
Z10.3825 F4039.5
X28.55294 Y41.5464 Z9.7036 F4039.5
X29.55294 Y41.42172 Z9.52591
X30.55294 Y41.14803 Z9.3431
X31.55294 Y40.70645 Z9.15035
X31.73298 Y40.58958 Z9.1125
Y46.49861 F5000.
X28.48298
Y41.54641
X25.23298 Y41.54668
Y46.49861
X21.98298
Y41.54695
X18.73298 Y41.54722
Y46.49861
X15.48298
Y41.54749
X12.23298 Y41.54776
Y46.49861
X8.98298
Y41.54804
X5.73298 Y41.54831
Y46.49861
X2.48298
Y41.54858
X-0.76702 Y41.54885
Y46.49861
X-4.01702
Y41.54912
X-7.26702 Y41.54939
Y46.49861
X-10.51702
Y41.54966
X-13.76702 Y41.54993
Y46.49861
X-17.01702
Y41.5502
X-20.26702 Y41.55047
Y46.49861
X-23.51702
Y41.55074
X-26.76702 Y41.55102
Y46.49861
X-30.01702
Y41.30095
G03 X-33.26702 Y39.4058 I1.65432 J-6.57129
G1 Y46.49861
X-35.35754
X-36.51702 Y46.24497
X-38.00969 Y53.06862 F5000.
X-36.51702 Y46.24497 F4039.5
Y-46.29383 F5000.
X-38.35754 Y-45.57307
X-39.76702 Y-44.32719
Y44.30109
Z9.7475 F5000.
G0 Z35.49392
X41.63067 Y-51.65451
G1 Z6.71 F1346.5
Z6.075 F4039.5
X38.23395 Y-45.55102 F4039.5
Y45.56847 F5000.
X37.39246 Y46.04645
X35.39246 Y46.49958
X34.98395
Y38.09615
G02 X36.00735 Y34.56563 I-5.81133 J-3.59814
G1 X35.99213 Y-34.93437
G02 X34.98395 Y-38.11146 I-6.88399 J0.43598
G1 Z6.71 F5000.
G0 Z12.69306
X35.99297 Y-31.09565
G1 Z7.98 F1346.5
Z7.345 F4039.5
X35.99213 Y-34.93437 Z6.66813 F4039.5
X35.85264 Y-35.93437 Z6.4901
X35.55294 Y-36.95683 Z6.30222
X35.05294 Y-38.01149 Z6.09642
X34.98395 Y-38.11146 Z6.075
Y-46.49591 F5000.
X31.73395
Y-40.96203
G02 X28.48395 Y-41.50006 I-2.64192 J5.87374
G1 Y-46.49591
X25.23395
Y-41.50205
X21.98395 Y-41.50405
Y-46.49591
X18.73395
Y-41.50604
X15.48395 Y-41.50804
Y-46.49591
X12.23395
Y-41.51003
X8.98395 Y-41.51203
Y-46.49591
X5.73395
Y-41.51402
X2.48395 Y-41.51602
Y-46.49591
X-0.76605
Y-41.51801
X-4.01605 Y-41.52001
Y-46.49591
X-7.26605
Y-41.522
X-10.51605 Y-41.524
Y-46.49591
X-13.76605
Y-41.52599
X-17.01605 Y-41.52799
Y-46.49591
X-20.26605
Y-41.52999
X-23.51605 Y-41.53198
Y-46.49591
X-26.76605
Y-41.53398
X-29.44706 Y-41.53562
X-30.01605 Y-41.4606
Y-46.49591
X-33.26605
Y-40.05114
G02 X-36.00458 Y-34.68437 I4.32105 J5.58701
G1 X-35.99916 Y34.81563
G02 X-33.26605 Y40.0515 I7.054 J-0.3509
G1 Z6.71 F5000.
G0 Z36.43074
X24.61911 Y41.5456
G1 Z7.98 F1346.5
Z7.345 F4039.5
X29.30294 Y41.54519 Z6.51911 F4039.5
X30.30294 Y41.41686 Z6.34134
X31.30294 Y41.13807 Z6.15829
X31.73395 Y40.9448 Z6.075
Y46.49958 F5000.
X28.48395
Y41.54526
X25.23395 Y41.54555
Y46.49958
X21.98395
Y41.54583
X18.73395 Y41.54612
Y46.49958
X15.48395
Y41.5464
X12.23395 Y41.54669
Y46.49958
X8.98395
Y41.54697
X5.73395 Y41.54726
Y46.49958
X2.48395
Y41.54754
X-0.76605 Y41.54782
Y46.49958
X-4.01605
Y41.54811
X-7.26605 Y41.54839
Y46.49958
X-10.51605
Y41.54868
X-13.76605 Y41.54896
Y46.49958
X-17.01605
Y41.54925
X-20.26605 Y41.54953
Y46.49958
X-23.51605
Y41.54981
X-26.76605 Y41.5501
Y46.49958
X-30.01605
Y41.45804
G03 X-33.26605 Y40.0515 I0.98866 J-6.74247
G1 Y46.49958
X-35.35754
X-36.51605 Y46.24615
X-38.00872 Y53.0698 F5000.
X-36.51605 Y46.24615 F4039.5
Y-46.29856 F5000.
G02 X-39.76605 Y-44.37747 I1.20784 J5.75298
G1 Y44.30351
Z6.71 F5000.
G0 Z35.49416
X41.63164 Y-51.65451
G1 Z3.6725 F1346.5
Z3.0375 F4039.5
X38.23492 Y-45.55102 F4039.5
Y45.56867 F5000.
X37.39246 Y46.04742
X35.39246 Y46.50054
X34.98492
Y39.01898
G02 X36.6193 Y35.31563 I-5.19236 J-4.50384
G1 X36.65537 Y-34.93437
G02 X34.98492 Y-39.01624 I-6.89338 J0.43829
G1 Z3.6725 F5000.
G0 Z10.58981
X36.65397 Y-32.21955
G1 Z4.9425 F1346.5
Z4.3075 F4039.5
X36.65537 Y-34.93437 Z3.8288 F4039.5
X36.51588 Y-35.93437 Z3.65077
X36.22462 Y-36.93437 Z3.46712
X35.76024 Y-37.93437 Z3.2727
X35.27362 Y-38.68437 Z3.11506
X34.98492 Y-39.01624 Z3.0375
Y-46.49688 F5000.
X31.73492
Y-41.21202
G02 X28.48492 Y-41.54662 I-2.42722 J7.62474
G1 Y-46.49688
X25.23492
Y-41.54651
X21.98492 Y-41.5464
Y-46.49688
X18.73492
Y-41.5463
X15.48492 Y-41.54619
Y-46.49688
X12.23492
Y-41.54609
X8.98492 Y-41.54598
Y-46.49688
X5.73492
Y-41.54587
X2.48492 Y-41.54577
Y-46.49688
X-0.76508
Y-41.54566
X-4.01508 Y-41.54556
Y-46.49688
X-7.26508
Y-41.54545
X-10.51508 Y-41.54534
Y-46.49688
X-13.76508
Y-41.54524
X-17.01508 Y-41.54513
Y-46.49688
X-20.26508
Y-41.54503
X-23.51508 Y-41.54492
Y-46.49688
X-26.76508
Y-41.54481
X-29.94706 Y-41.54471
X-30.01508 Y-41.53665
Y-46.49688
X-33.26508
Y-40.49399
G02 X-36.51508 Y-35.88043 I3.53169 J5.93938
G1 Y-46.29933
G02 X-39.76508 Y-44.37978 I1.2046 J5.75059
G1 Z3.6725 F5000.
G0 Z36.43074
X24.57249 Y41.54084
G1 Z4.9425 F1346.5
Z4.3075 F4039.5
X30.05294 Y41.53963 Z3.34115 F4039.5
X31.05294 Y41.39914 Z3.16309
X31.73492 Y41.19368 Z3.0375
Y46.50054 F5000.
X28.48492
Y41.53998
X25.23492 Y41.5407
Y46.50054
X21.98492
Y41.54141
X18.73492 Y41.54213
Y46.50054
X15.48492
Y41.54285
X12.23492 Y41.54357
Y46.50054
X8.98492
Y41.54429
X5.73492 Y41.545
Y46.50054
X2.48492
Y41.54572
X-0.76508 Y41.54644
Y46.50054
X-4.01508
Y41.54715
X-7.26508 Y41.54787
Y46.50054
X-10.51508
Y41.54859
X-13.76508 Y41.54931
Y46.50054
X-17.01508
Y41.55002
X-20.26508 Y41.55074
Y46.50054
X-23.51508
Y41.55146
X-26.76508 Y41.55218
Y46.50054
X-30.01508
Y41.5252
G03 X-33.26508 Y40.49771 I0.29006 J-6.57119
G1 Y46.50054
X-35.35754
X-36.51508 Y46.24733
Y35.90756
Z3.6725 F5000.
G0 Z7.23384
X-45.36073 Y-48.56056
G1 Z3.6725 F1346.5
Z3.0375 F4039.5
X-39.76508 Y-44.37978 F4039.5
Y44.30592 F5000.
Z3.6725 F5000.
G0 Z35.54095
X42.5869 Y-51.09091
G1 Z0.635 F1346.5
Z0. F4039.5
X38.23589 Y-45.62658 F4039.5
Y45.56886 F5000.
X37.39246 Y46.04839
X35.39246 Y46.50151
X34.98589 Y46.50124
Y39.68841
G02 X37.31912 Y34.56563 I-4.6415 J-5.20677
G1 X37.30294 Y-34.95036
G02 X34.98589 Y-39.63276 I-6.69193 J0.39698
G1 Z0.635 F5000.
G0 Z8.28904
X37.30337 Y-33.10791
G1 Z1.905 F1346.5
Z1.27 F4039.5
X37.30294 Y-34.95036 Z0.94513 F4039.5
X37.16319 Y-35.93437 Z0.76988
X36.53862 Y-37.68437 Z0.44224
X35.50757 Y-39.18437 Z0.12129
X34.98589 Y-39.63276 Z0.
Y-46.49785 F5000.
X31.73589
Y-41.37176
X31.05294 Y-41.5017
X28.48589 Y-41.50309
Y-46.49785
X25.23589
Y-41.50484
X21.98589 Y-41.5066
Y-46.49785
X18.73589
Y-41.50835
X15.48589 Y-41.51011
Y-46.49785
X12.23589
Y-41.51186
X8.98589 Y-41.51362
Y-46.49785
X5.73589
Y-41.51537
X2.48589 Y-41.51712
Y-46.49785
X-0.76411
Y-41.51888
X-4.01411 Y-41.52063
Y-46.49785
X-7.26411
Y-41.52239
X-10.51411 Y-41.52414
Y-46.49785
X-13.76411
Y-41.5259
X-17.01411 Y-41.52765
Y-46.49785
X-20.26411
Y-41.52941
X-23.51411 Y-41.53116
Y-46.49785
X-26.76411
Y-41.53292
X-30.01411 Y-41.53467
Y-46.49785
X-33.26411
Y-40.84762
G02 X-36.51411 Y-37.72947 I2.85465 J6.22814
G1 Y-46.30009
G02 X-39.76411 Y-44.38209 I1.20136 J5.74819
G1 Z0.635 F5000.
G0 Z36.43074
X24.54727 Y41.5506
G1 Z1.905 F1346.5
Z1.27 F4039.5
X30.55294 Y41.5501 Z0.21104 F4039.5
X31.55294 Y41.42728 Z0.03338
X31.73589 Y41.37848 Z0.
Y46.49911 F5000.
X28.48589 Y46.49697
Y41.55027
X25.23589 Y41.55054
Y46.49483
X21.98589 Y46.49269
Y41.55081
X18.73589 Y41.55108
Y46.49055
X15.48589 Y46.48842
Y41.55135
X12.23589 Y41.55162
Y46.48628
X8.98589 Y46.48414
Y41.55189
X5.73589 Y41.55216
Y46.482
X2.48589 Y46.47986
Y41.55243
X-0.76411 Y41.5527
Y46.47773
X-4.01411 Y46.47559
Y41.55296
X-7.26411 Y41.55323
Y46.47345
X-10.51411 Y46.47131
Y41.5535
X-13.76411 Y41.55377
Y46.46917
X-17.01411 Y46.46703
Y41.55404
X-20.26411 Y41.55431
Y46.4649
X-23.51411 Y46.46276
Y41.55458
X-26.76411 Y41.55485
Y46.46062
X-30.01411 Y46.45848
Y41.55512
G03 X-33.26411 Y40.85893 I-0.16566 J-7.16075
G1 Y46.45634
X-35.85754 Y46.45464
X-36.51411 Y46.24034
Y37.72106
Z0.635 F5000.
G0 Z6.3771
X-45.35932 Y-48.56346
G1 Z0.635 F1346.5
Z0. F4039.5
X-39.76411 Y-44.38209 F4039.5
Y44.36071 F5000.
Z0.635 F5000.
G0 Z32.68708
X-4.95401 Y-25.27071
G1 Z29.2425 F1346.5
Z28.6075 F4039.5
X2.24852 Z27.3375 F4039.5
Y6.70041 F5000.
X-1.00148
Y-25.27071
X-4.25148
Y6.70041
Z27.9725 F5000.
G0 Z31.3375
X-4.96132 Y-24.43437
G1 Z26.205 F1346.5
Z25.57 F4039.5
X2.24121 Z24.3 F4039.5
Y3.66291 F5000.
X-1.00879
Y-24.43437
X-4.25879
Y3.66291
Z24.935 F5000.
G0 Z28.3
X-4.95652 Y-23.62503
G1 Z23.1675 F1346.5
Z22.5325 F4039.5
X2.24601 Z21.2625 F4039.5
Y2.94976 F5000.
X-1.00399
Y-23.62503
X-4.25399
Y2.94976
Z21.8975 F5000.
G0 Z25.2625
X-4.9586 Y-22.80578
G1 Z20.13 F1346.5
Z19.495 F4039.5
X2.24392 Z18.225 F4039.5
Y2.67725 F5000.
X-1.00608
Y-22.80578
X-4.25608
Y2.67725
Z18.86 F5000.
G0 Z22.225
X-4.95986 Y-21.93437
G1 Z17.0925 F1346.5
Z16.4575 F4039.5
X2.24267 Z15.1875 F4039.5
Y2.40475 F5000.
X-1.00733
Y-21.93437
X-4.25733
Y2.40475
Z15.8225 F5000.
G0 Z19.1875
X-4.96049 Y-21.16729
G1 Z14.055 F1346.5
Z13.42 F4039.5
X2.24204 Z12.15 F4039.5
Y2.13225 F5000.
X-1.00796
Y-21.16729
X-4.25796
Y2.13225
Z12.785 F5000.
G0 Z16.15
X-4.96112 Y-20.34804
G1 Z11.0175 F1346.5
Z10.3825 F4039.5
X2.24141 Z9.1125 F4039.5
Y1.81563 F5000.
X-1.00859
Y-20.34804
X-4.25859
Y1.81563
Z9.7475 F5000.
G0 Z45.5625
(Parallel Finishing)
(Router Straight Flute 13mm Carbide Tipped)
Z38.33074
X-37.30771 Y-33.81783
G1 Z0.72329 F1346.5
Z0.12329 F4039.5
X-35.41137 Z8.80842 F5000.
X-35.38364 Z8.90176
X-33.10942 Z14.8753
X-33.05395 Z14.9934
X-29.83676 Z20.73299
X-29.72583 Z20.91624
X-27.72895 Z23.43874
X-27.61801 Z23.55514
X-24.06801 Z26.88262
X-23.95708 Z26.97343
X-21.29457 Z28.61827
X-21.18364 Z28.66306
X-21.0727 Z28.68435
X20.97261 Z28.68708
X21.08355 Z28.68321
X21.19449 Z28.65978
X21.30542 Z28.61241
X23.96793 Z26.96622
X24.07886 Z26.87241
X27.62886 Z23.5449
X27.7398 Z23.42494
X29.73667 Z20.90188
X29.84761 Z20.71349
X33.0648 Z14.97392
X33.09253 Z14.91787
X35.38247 Z8.90473
X35.41185 Z8.80604
X37.30705 Z0.12636
X37.30771 Y-32.51783 Z0.12329
X35.41137 Z8.80823
X35.38364 Z8.90165
X33.10942 Z14.87513
X33.05395 Z14.99328
X29.83676 Z20.73285
X29.72582 Z20.91614
X27.72895 Z23.43865
X27.61801 Z23.55507
X24.06801 Z26.88258
X23.95707 Z26.9734
X21.29457 Z28.61825
X21.18364 Z28.66305
X21.0727 Z28.68435
X-20.97261 Z28.68708
X-21.08355 Z28.68322
X-21.19449 Z28.65978
X-21.30543 Z28.61242
X-23.96793 Z26.96625
X-24.07886 Z26.87245
X-27.62886 Z23.54497
X-27.7398 Z23.42503
X-29.73668 Z20.90199
X-29.84761 Z20.71363
X-33.0648 Z14.97404
X-33.09254 Z14.91803
X-35.38247 Z8.90483
X-35.41185 Z8.80622
X-37.30705 Z0.12636
X-37.30771 Y-31.21783 Z0.12329
X-35.41137 Z8.80842
X-35.38364 Z8.90176
X-33.10942 Z14.8753
X-33.05395 Z14.9934
X-29.83676 Z20.73299
X-29.72583 Z20.91624
X-27.72895 Z23.43874
X-27.61801 Z23.55514
X-24.06801 Z26.88262
X-23.95708 Z26.97343
X-21.29457 Z28.61827
X-21.18364 Z28.66306
X-21.0727 Z28.68435
X20.97261 Z28.68708
X21.08355 Z28.68321
X21.19449 Z28.65978
X21.30542 Z28.61241
X23.96793 Z26.96622
X24.07886 Z26.87241
X27.62886 Z23.5449
X27.7398 Z23.42494
X29.73667 Z20.90188
X29.84761 Z20.71349
X33.0648 Z14.97392
X33.09253 Z14.91787
X35.38247 Z8.90473
X35.41185 Z8.80604
X37.30705 Z0.12636
X37.30771 Y-29.91783 Z0.12329
X35.41137 Z8.80823
X35.38364 Z8.90165
X33.10942 Z14.87513
X33.05395 Z14.99328
X29.83676 Z20.73285
X29.72582 Z20.91614
X27.72895 Z23.43865
X27.61801 Z23.55507
X24.06801 Z26.88258
X23.95707 Z26.9734
X21.29457 Z28.61825
X21.18364 Z28.66305
X21.0727 Z28.68435
X-20.97261 Z28.68708
X-21.08355 Z28.68322
X-21.19449 Z28.65978
X-21.30543 Z28.61242
X-23.96793 Z26.96625
X-24.07886 Z26.87245
X-27.62886 Z23.54497
X-27.7398 Z23.42503
X-29.73668 Z20.90199
X-29.84761 Z20.71363
X-33.0648 Z14.97404
X-33.09254 Z14.91803
X-35.38247 Z8.90483
X-35.41185 Z8.80622
X-37.30705 Z0.12636
X-37.30771 Y-28.61783 Z0.12329
X-35.41137 Z8.80842
X-35.38364 Z8.90176
X-33.10942 Z14.8753
X-33.05395 Z14.9934
X-29.83676 Z20.73299
X-29.72583 Z20.91624
X-27.72895 Z23.43874
X-27.61801 Z23.55514
X-24.06801 Z26.88262
X-23.95708 Z26.97343
X-21.29457 Z28.61827
X-21.18364 Z28.66306
X-21.0727 Z28.68435
X20.97261 Z28.68708
X21.08355 Z28.68321
X21.19449 Z28.65978
X21.30542 Z28.61241
X23.96793 Z26.96622
X24.07886 Z26.87241
X27.62886 Z23.5449
X27.7398 Z23.42494
X29.73667 Z20.90188
X29.84761 Z20.71349
X33.0648 Z14.97392
X33.09253 Z14.91787
X35.38247 Z8.90473
X35.41185 Z8.80604
X37.30705 Z0.12636
X37.30771 Y-27.31783 Z0.12329
X35.41137 Z8.80823
X35.38364 Z8.90165
X33.10942 Z14.87513
X33.05395 Z14.99328
X29.83676 Z20.73285
X29.72582 Z20.91614
X27.72895 Z23.43865
X27.61801 Z23.55507
X24.06801 Z26.88258
X23.95707 Z26.9734
X21.29457 Z28.61825
X21.18364 Z28.66305
X21.0727 Z28.68435
X6.0788 Z28.68603
X5.97133 Z28.66982
X5.86386 Z28.63235
X5.75639 Z28.5687
X5.64892 Z28.46589
X5.59518 Z28.38808
X5.56832 Z28.33606
X5.54145 Z28.26579
X5.51372 Z27.70303
X-5.49683
X-5.52457 Z28.19796
X-5.5419 Z28.26718
X-5.55923 Z28.31507
X-5.5939 Z28.38584
X-5.66324 Z28.48281
X-5.77418 Z28.58141
X-5.88511 Z28.64161
X-5.99605 Z28.67533
X-6.10699 Z28.68704
X-20.97261 Z28.68708
X-21.08355 Z28.68322
X-21.19449 Z28.65978
X-21.30543 Z28.61242
X-23.96793 Z26.96625
X-24.07886 Z26.87245
X-27.62886 Z23.54497
X-27.7398 Z23.42503
X-29.73668 Z20.90199
X-29.84761 Z20.71363
X-33.0648 Z14.97404
X-33.09254 Z14.91803
X-35.38247 Z8.90483
X-35.41185 Z8.80622
X-37.30705 Z0.12636
X-37.30771 Y-26.01782 Z0.12329
X-35.41137 Z8.80842
X-35.38364 Z8.90176
X-33.10942 Z14.8753
X-33.05395 Z14.9934
X-29.83676 Z20.73299
X-29.72583 Z20.91624
X-27.72895 Z23.43874
X-27.61801 Z23.55514
X-24.06801 Z26.88262
X-23.95708 Z26.97343
X-21.29457 Z28.61827
X-21.18364 Z28.66306
X-21.0727 Z28.68435
X-6.0788 Z28.68603
X-5.97133 Z28.66981
X-5.86386 Z28.63235
X-5.75639 Z28.56869
X-5.64892 Z28.46588
X-5.59519 Z28.38806
X-5.56832 Z28.33603
X-5.54145 Z28.26575
X-5.51372 Z27.70303
X5.49683
X5.52457 Z28.19803
X5.5419 Z28.26722
X5.55923 Z28.3151
X5.5939 Z28.38586
X5.66324 Z28.48283
X5.77417 Z28.58142
X5.88511 Z28.64162
X5.99605 Z28.67533
X6.10699 Z28.68704
X20.97261 Z28.68708
X21.08355 Z28.68321
X21.19449 Z28.65978
X21.30542 Z28.61241
X23.96793 Z26.96622
X24.07886 Z26.87241
X27.62886 Z23.5449
X27.7398 Z23.42494
X29.73667 Z20.90188
X29.84761 Z20.71349
X33.0648 Z14.97392
X33.09253 Z14.91787
X35.38247 Z8.90473
X35.41185 Z8.80604
X37.30705 Z0.12636
X37.30771 Y-24.71783 Z0.12329
X35.41137 Z8.80823
X35.38364 Z8.90165
X33.10942 Z14.87513
X33.05395 Z14.99328
X29.83676 Z20.73285
X29.72582 Z20.91614
X27.72895 Z23.43865
X27.61801 Z23.55507
X24.06801 Z26.88258
X23.95707 Z26.9734
X21.29457 Z28.61825
X21.18364 Z28.66305
X21.0727 Z28.68435
X6.0788 Z28.68603
X5.97133 Z28.66982
X5.86386 Z28.63235
X5.75639 Z28.5687
X5.64892 Z28.46589
X5.59518 Z28.38808
X5.56832 Z28.33606
X5.54145 Z28.26579
X5.51372 Z25.31421
X-5.49683
X-5.52457 Z28.19796
X-5.55111 Z28.29419
X-5.57765 Z28.35556
X-5.63074 Z28.44237
X-5.73691 Z28.55359
X-5.84308 Z28.62231
X-5.94925 Z28.66395
X-6.05542 Z28.68419
X-20.97261 Z28.68708
X-21.08355 Z28.68322
X-21.19449 Z28.65978
X-21.30543 Z28.61242
X-23.96793 Z26.96625
X-24.07886 Z26.87245
X-27.62886 Z23.54497
X-27.7398 Z23.42503
X-29.73668 Z20.90199
X-29.84761 Z20.71363
X-33.0648 Z14.97404
X-33.09254 Z14.91803
X-35.38247 Z8.90483
X-35.41185 Z8.80622
X-37.30705 Z0.12636
X-37.30771 Y-23.41782 Z0.12329
X-35.41137 Z8.80842
X-35.38364 Z8.90176
X-33.10942 Z14.8753
X-33.05395 Z14.9934
X-29.83676 Z20.73299
X-29.72583 Z20.91624
X-27.72895 Z23.43874
X-27.61801 Z23.55514
X-24.06801 Z26.88262
X-23.95708 Z26.97343
X-21.29457 Z28.61827
X-21.18364 Z28.66306
X-21.0727 Z28.68435
X-6.0788 Z28.68603
X-5.97133 Z28.66981
X-5.86386 Z28.63235
X-5.75639 Z28.56869
X-5.64892 Z28.46588
X-5.59519 Z28.38806
X-5.56832 Z28.33603
X-5.54145 Z28.26575
X-5.51372 Z20.49424
X5.49683
X5.52457 Z28.19803
X5.55111 Z28.29422
X5.57765 Z28.35559
X5.63074 Z28.44239
X5.73691 Z28.55359
X5.84308 Z28.62232
X5.94925 Z28.66395
X6.05542 Z28.68419
X20.97261 Z28.68708
X21.08355 Z28.68321
X21.19449 Z28.65978
X21.30542 Z28.61241
X23.96793 Z26.96622
X24.07886 Z26.87241
X27.62886 Z23.5449
X27.7398 Z23.42494
X29.73667 Z20.90188
X29.84761 Z20.71349
X33.0648 Z14.97392
X33.09253 Z14.91787
X35.38247 Z8.90473
X35.41185 Z8.80604
X37.30705 Z0.12636
X37.30771 Y-22.11782 Z0.12329
X35.41137 Z8.80823
X35.38364 Z8.90165
X33.10942 Z14.87513
X33.05395 Z14.99328
X29.83676 Z20.73285
X29.72582 Z20.91614
X27.72895 Z23.43865
X27.61801 Z23.55507
X24.06801 Z26.88258
X23.95707 Z26.9734
X21.29457 Z28.61825
X21.18364 Z28.66305
X21.0727 Z28.68435
X6.0788 Z28.68603
X5.97133 Z28.66982
X5.86386 Z28.63235
X5.75639 Z28.5687
X5.64892 Z28.46589
X5.59518 Z28.38808
X5.56832 Z28.33606
X5.54145 Z28.26579
X5.51372 Z15.67428
X-5.49683
X-5.52457 Z28.19796
X-5.55111 Z28.29419
X-5.57765 Z28.35556
X-5.63074 Z28.44237
X-5.73691 Z28.55359
X-5.84308 Z28.62231
X-5.94925 Z28.66395
X-6.05542 Z28.68419
X-20.97261 Z28.68708
X-21.08355 Z28.68322
X-21.19449 Z28.65978
X-21.30543 Z28.61242
X-23.96793 Z26.96625
X-24.07886 Z26.87245
X-27.62886 Z23.54497
X-27.7398 Z23.42503
X-29.73668 Z20.90199
X-29.84761 Z20.71363
X-33.0648 Z14.97404
X-33.09254 Z14.91803
X-35.38247 Z8.90483
X-35.41185 Z8.80622
X-37.30705 Z0.12636
X-37.30771 Y-20.81782 Z0.12329
X-35.41137 Z8.80842
X-35.38364 Z8.90176
X-33.10942 Z14.8753
X-33.05395 Z14.9934
X-29.83676 Z20.73299
X-29.72583 Z20.91624
X-27.72895 Z23.43874
X-27.61801 Z23.55514
X-24.06801 Z26.88262
X-23.95708 Z26.97343
X-21.29457 Z28.61827
X-21.18364 Z28.66306
X-21.0727 Z28.68435
X-6.0788 Z28.68603
X-5.97133 Z28.66981
X-5.86386 Z28.63235
X-5.75639 Z28.56869
X-5.64892 Z28.46588
X-5.59519 Z28.38806
X-5.56832 Z28.33603
X-5.54145 Z28.26575
X-5.51372 Z10.85432
X5.49683
X5.52457 Z28.19803
X5.55111 Z28.29422
X5.57765 Z28.35559
X5.63074 Z28.44239
X5.73691 Z28.55359
X5.84308 Z28.62232
X5.94925 Z28.66395
X6.05542 Z28.68419
X20.97261 Z28.68708
X21.08355 Z28.68321
X21.19449 Z28.65978
X21.30542 Z28.61241
X23.96793 Z26.96622
X24.07886 Z26.87241
X27.62886 Z23.5449
X27.7398 Z23.42494
X29.73667 Z20.90188
X29.84761 Z20.71349
X33.0648 Z14.97392
X33.09253 Z14.91787
X35.38247 Z8.90473
X35.41185 Z8.80604
X37.30705 Z0.12636
X37.30771 Y-19.51782 Z0.12329
X35.41137 Z8.80823
X35.38364 Z8.90165
X33.10942 Z14.87513
X33.05395 Z14.99328
X29.83676 Z20.73285
X29.72582 Z20.91614
X27.72895 Z23.43865
X27.61801 Z23.55507
X24.06801 Z26.88258
X23.95707 Z26.9734
X21.29457 Z28.61825
X21.18364 Z28.66305
X21.0727 Z28.68435
X6.0788 Z28.68603
X5.97133 Z28.66982
X5.86386 Z28.63235
X5.75639 Z28.5687
X5.64892 Z28.46589
X5.59518 Z28.38808
X5.56832 Z28.33606
X5.54145 Z28.26579
X5.51372 Z7.10069
X-5.49683
X-5.52457 Z28.19796
X-5.5419 Z28.26718
X-5.55923 Z28.31507
X-5.5939 Z28.38584
X-5.66324 Z28.48281
X-5.77418 Z28.58141
X-5.88511 Z28.64161
X-5.99605 Z28.67533
X-6.10699 Z28.68704
X-20.97261 Z28.68708
X-21.08355 Z28.68322
X-21.19449 Z28.65978
X-21.30543 Z28.61242
X-23.96793 Z26.96625
X-24.07886 Z26.87245
X-27.62886 Z23.54497
X-27.7398 Z23.42503
X-29.73668 Z20.90199
X-29.84761 Z20.71363
X-33.0648 Z14.97404
X-33.09254 Z14.91803
X-35.38247 Z8.90483
X-35.41185 Z8.80622
X-37.30705 Z0.12636
X-37.30771 Y-18.21783 Z0.12329
X-35.41137 Z8.80842
X-35.38364 Z8.90176
X-33.10942 Z14.8753
X-33.05395 Z14.9934
X-29.83676 Z20.73299
X-29.72583 Z20.91624
X-27.72895 Z23.43874
X-27.61801 Z23.55514
X-24.06801 Z26.88262
X-23.95708 Z26.97343
X-21.29457 Z28.61827
X-21.18364 Z28.66306
X-21.0727 Z28.68435
X-6.0788 Z28.68603
X-5.97133 Z28.66981
X-5.86386 Z28.63235
X-5.75639 Z28.56869
X-5.64892 Z28.46588
X-5.59519 Z28.38806
X-5.56832 Z28.33603
X-5.54145 Z28.26575
X-5.51372 Z7.10069
X5.49683
X5.52457 Z28.19803
X5.5419 Z28.26722
X5.55923 Z28.3151
X5.5939 Z28.38586
X5.66324 Z28.48283
X5.77417 Z28.58142
X5.88511 Z28.64162
X5.99605 Z28.67533
X6.10699 Z28.68704
X20.97261 Z28.68708
X21.08355 Z28.68321
X21.19449 Z28.65978
X21.30542 Z28.61241
X23.96793 Z26.96622
X24.07886 Z26.87241
X27.62886 Z23.5449
X27.7398 Z23.42494
X29.73667 Z20.90188
X29.84761 Z20.71349
X33.0648 Z14.97392
X33.09253 Z14.91787
X35.38247 Z8.90473
X35.41185 Z8.80604
X37.30705 Z0.12636
X37.30771 Y-16.91782 Z0.12329
X35.41137 Z8.80823
X35.38364 Z8.90165
X33.10942 Z14.87513
X33.05395 Z14.99328
X29.83676 Z20.73285
X29.72582 Z20.91614
X27.72895 Z23.43865
X27.61801 Z23.55507
X24.06801 Z26.88258
X23.95707 Z26.9734
X21.29457 Z28.61825
X21.18364 Z28.66305
X21.0727 Z28.68435
X6.0788 Z28.68603
X5.97133 Z28.66982
X5.86386 Z28.63235
X5.75639 Z28.5687
X5.64892 Z28.46589
X5.59518 Z28.38808
X5.56832 Z28.33606
X5.54145 Z28.26579
X5.51372 Z7.10069
X-5.49683
X-5.52457 Z28.19796
X-5.5419 Z28.26718
X-5.55923 Z28.31507
X-5.5939 Z28.38584
X-5.66324 Z28.48281
X-5.77418 Z28.58141
X-5.88511 Z28.64161
X-5.99605 Z28.67533
X-6.10699 Z28.68704
X-20.97261 Z28.68708
X-21.08355 Z28.68322
X-21.19449 Z28.65978
X-21.30543 Z28.61242
X-23.96793 Z26.96625
X-24.07886 Z26.87245
X-27.62886 Z23.54497
X-27.7398 Z23.42503
X-29.73668 Z20.90199
X-29.84761 Z20.71363
X-33.0648 Z14.97404
X-33.09254 Z14.91803
X-35.38247 Z8.90483
X-35.41185 Z8.80622
X-37.30705 Z0.12636
X-37.30771 Y-15.61782 Z0.12329
X-35.41137 Z8.80842
X-35.38364 Z8.90176
X-33.10942 Z14.8753
X-33.05395 Z14.9934
X-29.83676 Z20.73299
X-29.72583 Z20.91624
X-27.72895 Z23.43874
X-27.61801 Z23.55514
X-24.06801 Z26.88262
X-23.95708 Z26.97343
X-21.29457 Z28.61827
X-21.18364 Z28.66306
X-21.0727 Z28.68435
X-6.0788 Z28.68603
X-5.97133 Z28.66981
X-5.86386 Z28.63235
X-5.75639 Z28.56869
X-5.64892 Z28.46588
X-5.59519 Z28.38806
X-5.56832 Z28.33603
X-5.54145 Z28.26575
X-5.51372 Z7.10069
X5.49683
X5.52457 Z28.19803
X5.5419 Z28.26722
X5.55923 Z28.3151
X5.5939 Z28.38586
X5.66324 Z28.48283
X5.77417 Z28.58142
X5.88511 Z28.64162
X5.99605 Z28.67533
X6.10699 Z28.68704
X20.97261 Z28.68708
X21.08355 Z28.68321
X21.19449 Z28.65978
X21.30542 Z28.61241
X23.96793 Z26.96622
X24.07886 Z26.87241
X27.62886 Z23.5449
X27.7398 Z23.42494
X29.73667 Z20.90188
X29.84761 Z20.71349
X33.0648 Z14.97392
X33.09253 Z14.91787
X35.38247 Z8.90473
X35.41185 Z8.80604
X37.30705 Z0.12636
X37.30771 Y-14.31782 Z0.12329
X35.41137 Z8.80823
X35.38364 Z8.90165
X33.10942 Z14.87513
X33.05395 Z14.99328
X29.83676 Z20.73285
X29.72582 Z20.91614
X27.72895 Z23.43865
X27.61801 Z23.55507
X24.06801 Z26.88258
X23.95707 Z26.9734
X21.29457 Z28.61825
X21.18364 Z28.66305
X21.0727 Z28.68435
X6.0788 Z28.68603
X5.97133 Z28.66982
X5.86386 Z28.63235
X5.75639 Z28.5687
X5.64892 Z28.46589
X5.59518 Z28.38808
X5.56832 Z28.33606
X5.54145 Z28.26579
X5.51372 Z7.10069
X-5.49683
X-5.52457 Z28.19796
X-5.5419 Z28.26718
X-5.55923 Z28.31507
X-5.5939 Z28.38584
X-5.66324 Z28.48281
X-5.77418 Z28.58141
X-5.88511 Z28.64161
X-5.99605 Z28.67533
X-6.10699 Z28.68704
X-20.97261 Z28.68708
X-21.08355 Z28.68322
X-21.19449 Z28.65978
X-21.30543 Z28.61242
X-23.96793 Z26.96625
X-24.07886 Z26.87245
X-27.62886 Z23.54497
X-27.7398 Z23.42503
X-29.73668 Z20.90199
X-29.84761 Z20.71363
X-33.0648 Z14.97404
X-33.09254 Z14.91803
X-35.38247 Z8.90483
X-35.41185 Z8.80622
X-37.30705 Z0.12636
X-37.30771 Y-13.01782 Z0.12329
X-35.41137 Z8.80842
X-35.38364 Z8.90176
X-33.10942 Z14.8753
X-33.05395 Z14.9934
X-29.83676 Z20.73299
X-29.72583 Z20.91624
X-27.72895 Z23.43874
X-27.61801 Z23.55514
X-24.06801 Z26.88262
X-23.95708 Z26.97343
X-21.29457 Z28.61827
X-21.18364 Z28.66306
X-21.0727 Z28.68435
X-6.0788 Z28.68603
X-5.97133 Z28.66981
X-5.86386 Z28.63235
X-5.75639 Z28.56869
X-5.64892 Z28.46588
X-5.59519 Z28.38806
X-5.56832 Z28.33603
X-5.54145 Z28.26575
X-5.51372 Z7.10069
X5.49683
X5.52457 Z28.19803
X5.5419 Z28.26722
X5.55923 Z28.3151
X5.5939 Z28.38586
X5.66324 Z28.48283
X5.77417 Z28.58142
X5.88511 Z28.64162
X5.99605 Z28.67533
X6.10699 Z28.68704
X20.97261 Z28.68708
X21.08355 Z28.68321
X21.19449 Z28.65978
X21.30542 Z28.61241
X23.96793 Z26.96622
X24.07886 Z26.87241
X27.62886 Z23.5449
X27.7398 Z23.42494
X29.73667 Z20.90188
X29.84761 Z20.71349
X33.0648 Z14.97392
X33.09253 Z14.91787
X35.38247 Z8.90473
X35.41185 Z8.80604
X37.30705 Z0.12636
X37.30771 Y-11.71782 Z0.12329
X35.41137 Z8.80823
X35.38364 Z8.90165
X33.10942 Z14.87513
X33.05395 Z14.99328
X29.83676 Z20.73285
X29.72582 Z20.91614
X27.72895 Z23.43865
X27.61801 Z23.55507
X24.06801 Z26.88258
X23.95707 Z26.9734
X21.29457 Z28.61825
X21.18364 Z28.66305
X21.0727 Z28.68435
X6.0788 Z28.68603
X5.97133 Z28.66982
X5.86386 Z28.63235
X5.75639 Z28.5687
X5.64892 Z28.46589
X5.59518 Z28.38808
X5.56832 Z28.33606
X5.54145 Z28.26579
X5.51372 Z7.10069
X-5.49683
X-5.52457 Z28.19796
X-5.5419 Z28.26718
X-5.55923 Z28.31507
X-5.5939 Z28.38584
X-5.66324 Z28.48281
X-5.77418 Z28.58141
X-5.88511 Z28.64161
X-5.99605 Z28.67533
X-6.10699 Z28.68704
X-20.97261 Z28.68708
X-21.08355 Z28.68322
X-21.19449 Z28.65978
X-21.30543 Z28.61242
X-23.96793 Z26.96625
X-24.07886 Z26.87245
X-27.62886 Z23.54497
X-27.7398 Z23.42503
X-29.73668 Z20.90199
X-29.84761 Z20.71363
X-33.0648 Z14.97404
X-33.09254 Z14.91803
X-35.38247 Z8.90483
X-35.41185 Z8.80622
X-37.30705 Z0.12636
X-37.30771 Y-10.41783 Z0.12329
X-35.41137 Z8.80842
X-35.38364 Z8.90176
X-33.10942 Z14.8753
X-33.05395 Z14.9934
X-29.83676 Z20.73299
X-29.72583 Z20.91624
X-27.72895 Z23.43874
X-27.61801 Z23.55514
X-24.06801 Z26.88262
X-23.95708 Z26.97343
X-21.29457 Z28.61827
X-21.18364 Z28.66306
X-21.0727 Z28.68435
X-6.0788 Z28.68603
X-5.97133 Z28.66981
X-5.86386 Z28.63235
X-5.75639 Z28.56869
X-5.64892 Z28.46588
X-5.59519 Z28.38806
X-5.56832 Z28.33603
X-5.54145 Z28.26575
X-5.51372 Z7.10069
X5.49683
X5.52457 Z28.19803
X5.5419 Z28.26722
X5.55923 Z28.3151
X5.5939 Z28.38586
X5.66324 Z28.48283
X5.77417 Z28.58142
X5.88511 Z28.64162
X5.99605 Z28.67533
X6.10699 Z28.68704
X20.97261 Z28.68708
X21.08355 Z28.68321
X21.19449 Z28.65978
X21.30542 Z28.61241
X23.96793 Z26.96622
X24.07886 Z26.87241
X27.62886 Z23.5449
X27.7398 Z23.42494
X29.73667 Z20.90188
X29.84761 Z20.71349
X33.0648 Z14.97392
X33.09253 Z14.91787
X35.38247 Z8.90473
X35.41185 Z8.80604
X37.30705 Z0.12636
X37.30771 Y-9.11782 Z0.12329
X35.41137 Z8.80823
X35.38364 Z8.90165
X33.10942 Z14.87513
X33.05395 Z14.99328
X29.83676 Z20.73285
X29.72582 Z20.91614
X27.72895 Z23.43865
X27.61801 Z23.55507
X24.06801 Z26.88258
X23.95707 Z26.9734
X21.29457 Z28.61825
X21.18364 Z28.66305
X21.0727 Z28.68435
X6.0788 Z28.68603
X5.97133 Z28.66982
X5.86386 Z28.63235
X5.75639 Z28.5687
X5.64892 Z28.46589
X5.59518 Z28.38808
X5.56832 Z28.33606
X5.54145 Z28.26579
X5.51372 Z7.10069
X-5.49683
X-5.52457 Z28.19796
X-5.5419 Z28.26718
X-5.55923 Z28.31507
X-5.5939 Z28.38584
X-5.66324 Z28.48281
X-5.77418 Z28.58141
X-5.88511 Z28.64161
X-5.99605 Z28.67533
X-6.10699 Z28.68704
X-20.97261 Z28.68708
X-21.08355 Z28.68322
X-21.19449 Z28.65978
X-21.30543 Z28.61242
X-23.96793 Z26.96625
X-24.07886 Z26.87245
X-27.62886 Z23.54497
X-27.7398 Z23.42503
X-29.73668 Z20.90199
X-29.84761 Z20.71363
X-33.0648 Z14.97404
X-33.09254 Z14.91803
X-35.38247 Z8.90483
X-35.41185 Z8.80622
X-37.30705 Z0.12636
X-37.30771 Y-7.81783 Z0.12329
X-35.41137 Z8.80842
X-35.38364 Z8.90176
X-33.10942 Z14.8753
X-33.05395 Z14.9934
X-29.83676 Z20.73299
X-29.72583 Z20.91624
X-27.72895 Z23.43874
X-27.61801 Z23.55514
X-24.06801 Z26.88262
X-23.95708 Z26.97343
X-21.29457 Z28.61827
X-21.18364 Z28.66306
X-21.0727 Z28.68435
X-6.0788 Z28.68603
X-5.97133 Z28.66981
X-5.86386 Z28.63235
X-5.75639 Z28.56869
X-5.64892 Z28.46588
X-5.59519 Z28.38806
X-5.56832 Z28.33603
X-5.54145 Z28.26575
X-5.51372 Z7.10069
X5.49683
X5.52457 Z28.19803
X5.5419 Z28.26722
X5.55923 Z28.3151
X5.5939 Z28.38586
X5.66324 Z28.48283
X5.77417 Z28.58142
X5.88511 Z28.64162
X5.99605 Z28.67533
X6.10699 Z28.68704
X20.97261 Z28.68708
X21.08355 Z28.68321
X21.19449 Z28.65978
X21.30542 Z28.61241
X23.96793 Z26.96622
X24.07886 Z26.87241
X27.62886 Z23.5449
X27.7398 Z23.42494
X29.73667 Z20.90188
X29.84761 Z20.71349
X33.0648 Z14.97392
X33.09253 Z14.91787
X35.38247 Z8.90473
X35.41185 Z8.80604
X37.30705 Z0.12636
X37.30771 Y-6.51783 Z0.12329
X35.41137 Z8.80823
X35.38364 Z8.90165
X33.10942 Z14.87513
X33.05395 Z14.99328
X29.83676 Z20.73285
X29.72582 Z20.91614
X27.72895 Z23.43865
X27.61801 Z23.55507
X24.06801 Z26.88258
X23.95707 Z26.9734
X21.29457 Z28.61825
X21.18364 Z28.66305
X21.0727 Z28.68435
X6.0788 Z28.68603
X5.97133 Z28.66982
X5.86386 Z28.63235
X5.75639 Z28.5687
X5.64892 Z28.46589
X5.59518 Z28.38808
X5.56832 Z28.33606
X5.54145 Z28.26579
X5.51372 Z7.10069
X-5.49683
X-5.52457 Z28.19796
X-5.5419 Z28.26718
X-5.55923 Z28.31507
X-5.5939 Z28.38584
X-5.66324 Z28.48281
X-5.77418 Z28.58141
X-5.88511 Z28.64161
X-5.99605 Z28.67533
X-6.10699 Z28.68704
X-20.97261 Z28.68708
X-21.08355 Z28.68322
X-21.19449 Z28.65978
X-21.30543 Z28.61242
X-23.96793 Z26.96625
X-24.07886 Z26.87245
X-27.62886 Z23.54497
X-27.7398 Z23.42503
X-29.73668 Z20.90199
X-29.84761 Z20.71363
X-33.0648 Z14.97404
X-33.09254 Z14.91803
X-35.38247 Z8.90483
X-35.41185 Z8.80622
X-37.30705 Z0.12636
X-37.30771 Y-5.21783 Z0.12329
X-35.41137 Z8.80842
X-35.38364 Z8.90176
X-33.10942 Z14.8753
X-33.05395 Z14.9934
X-29.83676 Z20.73299
X-29.72583 Z20.91624
X-27.72895 Z23.43874
X-27.61801 Z23.55514
X-24.06801 Z26.88262
X-23.95708 Z26.97343
X-21.29457 Z28.61827
X-21.18364 Z28.66306
X-21.0727 Z28.68435
X-6.0788 Z28.68603
X-5.97133 Z28.66981
X-5.86386 Z28.63235
X-5.75639 Z28.56869
X-5.64892 Z28.46588
X-5.59519 Z28.38806
X-5.56832 Z28.33603
X-5.54145 Z28.26575
X-5.51372 Z7.10069
X5.49683
X5.52457 Z28.19803
X5.5419 Z28.26722
X5.55923 Z28.3151
X5.5939 Z28.38586
X5.66324 Z28.48283
X5.77417 Z28.58142
X5.88511 Z28.64162
X5.99605 Z28.67533
X6.10699 Z28.68704
X20.97261 Z28.68708
X21.08355 Z28.68321
X21.19449 Z28.65978
X21.30542 Z28.61241
X23.96793 Z26.96622
X24.07886 Z26.87241
X27.62886 Z23.5449
X27.7398 Z23.42494
X29.73667 Z20.90188
X29.84761 Z20.71349
X33.0648 Z14.97392
X33.09253 Z14.91787
X35.38247 Z8.90473
X35.41185 Z8.80604
X37.30705 Z0.12636
X37.30771 Y-3.91783 Z0.12329
X35.41137 Z8.80823
X35.38364 Z8.90165
X33.10942 Z14.87513
X33.05395 Z14.99328
X29.83676 Z20.73285
X29.72582 Z20.91614
X27.72895 Z23.43865
X27.61801 Z23.55507
X24.06801 Z26.88258
X23.95707 Z26.9734
X21.29457 Z28.61825
X21.18364 Z28.66305
X21.0727 Z28.68435
X6.0788 Z28.68603
X5.97133 Z28.66982
X5.86386 Z28.63235
X5.75639 Z28.5687
X5.64892 Z28.46589
X5.59518 Z28.38808
X5.56832 Z28.33606
X5.54145 Z28.26579
X5.51372 Z7.10069
X-5.49683
X-5.52457 Z28.19796
X-5.5419 Z28.26718
X-5.55923 Z28.31507
X-5.5939 Z28.38584
X-5.66324 Z28.48281
X-5.77418 Z28.58141
X-5.88511 Z28.64161
X-5.99605 Z28.67533
X-6.10699 Z28.68704
X-20.97261 Z28.68708
X-21.08355 Z28.68322
X-21.19449 Z28.65978
X-21.30543 Z28.61242
X-23.96793 Z26.96625
X-24.07886 Z26.87245
X-27.62886 Z23.54497
X-27.7398 Z23.42503
X-29.73668 Z20.90199
X-29.84761 Z20.71363
X-33.0648 Z14.97404
X-33.09254 Z14.91803
X-35.38247 Z8.90483
X-35.41185 Z8.80622
X-37.30705 Z0.12636
X-37.30771 Y-2.61783 Z0.12329
X-35.41137 Z8.80842
X-35.38364 Z8.90176
X-33.10942 Z14.8753
X-33.05395 Z14.9934
X-29.83676 Z20.73299
X-29.72583 Z20.91624
X-27.72895 Z23.43874
X-27.61801 Z23.55514
X-24.06801 Z26.88262
X-23.95708 Z26.97343
X-21.29457 Z28.61827
X-21.18364 Z28.66306
X-21.0727 Z28.68435
X-6.0788 Z28.68603
X-5.97133 Z28.66981
X-5.86386 Z28.63235
X-5.75639 Z28.56869
X-5.64892 Z28.46588
X-5.59519 Z28.38806
X-5.56832 Z28.33603
X-5.54145 Z28.26575
X-5.51372 Z7.10069
X5.49683
X5.52457 Z28.19803
X5.5419 Z28.26722
X5.55923 Z28.3151
X5.5939 Z28.38586
X5.66324 Z28.48283
X5.77417 Z28.58142
X5.88511 Z28.64162
X5.99605 Z28.67533
X6.10699 Z28.68704
X20.97261 Z28.68708
X21.08355 Z28.68321
X21.19449 Z28.65978
X21.30542 Z28.61241
X23.96793 Z26.96622
X24.07886 Z26.87241
X27.62886 Z23.5449
X27.7398 Z23.42494
X29.73667 Z20.90188
X29.84761 Z20.71349
X33.0648 Z14.97392
X33.09253 Z14.91787
X35.38247 Z8.90473
X35.41185 Z8.80604
X37.30705 Z0.12636
X37.30771 Y-1.31783 Z0.12329
X35.41137 Z8.80823
X35.38364 Z8.90165
X33.10942 Z14.87513
X33.05395 Z14.99328
X29.83676 Z20.73285
X29.72582 Z20.91614
X27.72895 Z23.43865
X27.61801 Z23.55507
X24.06801 Z26.88258
X23.95707 Z26.9734
X21.29457 Z28.61825
X21.18364 Z28.66305
X21.0727 Z28.68435
X6.0788 Z28.68603
X5.97133 Z28.66982
X5.86386 Z28.63235
X5.75639 Z28.5687
X5.64892 Z28.46589
X5.59518 Z28.38808
X5.56832 Z28.33606
X5.54145 Z28.26579
X5.51372 Z7.10069
X-5.49683
X-5.52457 Z28.19796
X-5.5419 Z28.26718
X-5.55923 Z28.31507
X-5.5939 Z28.38584
X-5.66324 Z28.48281
X-5.77418 Z28.58141
X-5.88511 Z28.64161
X-5.99605 Z28.67533
X-6.10699 Z28.68704
X-20.97261 Z28.68708
X-21.08355 Z28.68322
X-21.19449 Z28.65978
X-21.30543 Z28.61242
X-23.96793 Z26.96625
X-24.07886 Z26.87245
X-27.62886 Z23.54497
X-27.7398 Z23.42503
X-29.73668 Z20.90199
X-29.84761 Z20.71363
X-33.0648 Z14.97404
X-33.09254 Z14.91803
X-35.38247 Z8.90483
X-35.41185 Z8.80622
X-37.30705 Z0.12636
X-37.30771 Y-0.01783 Z0.12329
X-35.41137 Z8.80842
X-35.38364 Z8.90176
X-33.10942 Z14.8753
X-33.05395 Z14.9934
X-29.83676 Z20.73299
X-29.72583 Z20.91624
X-27.72895 Z23.43874
X-27.61801 Z23.55514
X-24.06801 Z26.88262
X-23.95708 Z26.97343
X-21.29457 Z28.61827
X-21.18364 Z28.66306
X-21.0727 Z28.68435
X-6.0788 Z28.68603
X-5.97133 Z28.66981
X-5.86386 Z28.63235
X-5.75639 Z28.56869
X-5.64892 Z28.46588
X-5.59519 Z28.38806
X-5.56832 Z28.33603
X-5.54145 Z28.26575
X-5.51372 Z7.10069
X5.49683
X5.52457 Z28.19803
X5.5419 Z28.26722
X5.55923 Z28.3151
X5.5939 Z28.38586
X5.66324 Z28.48283
X5.77417 Z28.58142
X5.88511 Z28.64162
X5.99605 Z28.67533
X6.10699 Z28.68704
X20.97261 Z28.68708
X21.08355 Z28.68321
X21.19449 Z28.65978
X21.30542 Z28.61241
X23.96793 Z26.96622
X24.07886 Z26.87241
X27.62886 Z23.5449
X27.7398 Z23.42494
X29.73667 Z20.90188
X29.84761 Z20.71349
X33.0648 Z14.97392
X33.09253 Z14.91787
X35.38247 Z8.90473
X35.41185 Z8.80604
X37.30705 Z0.12636
X37.30771 Y1.28218 Z0.12329
X35.41137 Z8.80823
X35.38364 Z8.90165
X33.10942 Z14.87513
X33.05395 Z14.99328
X29.83676 Z20.73285
X29.72582 Z20.91614
X27.72895 Z23.43865
X27.61801 Z23.55507
X24.06801 Z26.88258
X23.95707 Z26.9734
X21.29457 Z28.61825
X21.18364 Z28.66305
X21.0727 Z28.68435
X6.0788 Z28.68603
X5.97133 Z28.66982
X5.86386 Z28.63235
X5.75639 Z28.5687
X5.64892 Z28.46589
X5.59518 Z28.38808
X5.56832 Z28.33606
X5.54145 Z28.26579
X5.51372 Z7.10069
X-5.49683
X-5.52457 Z28.19796
X-5.5419 Z28.26718
X-5.55923 Z28.31507
X-5.5939 Z28.38584
X-5.66324 Z28.48281
X-5.77418 Z28.58141
X-5.88511 Z28.64161
X-5.99605 Z28.67533
X-6.10699 Z28.68704
X-20.97261 Z28.68708
X-21.08355 Z28.68322
X-21.19449 Z28.65978
X-21.30543 Z28.61242
X-23.96793 Z26.96625
X-24.07886 Z26.87245
X-27.62886 Z23.54497
X-27.7398 Z23.42503
X-29.73668 Z20.90199
X-29.84761 Z20.71363
X-33.0648 Z14.97404
X-33.09254 Z14.91803
X-35.38247 Z8.90483
X-35.41185 Z8.80622
X-37.30705 Z0.12636
X-37.30771 Y2.58217 Z0.12329
X-35.41137 Z8.80842
X-35.38364 Z8.90176
X-33.10942 Z14.8753
X-33.05395 Z14.9934
X-29.83676 Z20.73299
X-29.72583 Z20.91624
X-27.72895 Z23.43874
X-27.61801 Z23.55514
X-24.06801 Z26.88262
X-23.95708 Z26.97343
X-21.29457 Z28.61827
X-21.18364 Z28.66306
X-21.0727 Z28.68435
X-6.0788 Z28.68603
X-5.97133 Z28.66981
X-5.86386 Z28.63235
X-5.75639 Z28.56869
X-5.64892 Z28.46588
X-5.59519 Z28.38806
X-5.56832 Z28.33603
X-5.54145 Z28.26575
X-5.51372 Z17.16519
X5.49683
X5.52457 Z28.19803
X5.55111 Z28.29422
X5.57765 Z28.35559
X5.63074 Z28.44239
X5.73691 Z28.55359
X5.84308 Z28.62232
X5.94925 Z28.66395
X6.05542 Z28.68419
X20.97261 Z28.68708
X21.08355 Z28.68321
X21.19449 Z28.65978
X21.30542 Z28.61241
X23.96793 Z26.96622
X24.07886 Z26.87241
X27.62886 Z23.5449
X27.7398 Z23.42494
X29.73667 Z20.90188
X29.84761 Z20.71349
X33.0648 Z14.97392
X33.09253 Z14.91787
X35.38247 Z8.90473
X35.41185 Z8.80604
X37.30705 Z0.12636
X37.30771 Y3.88217 Z0.12329
X35.41137 Z8.80823
X35.38364 Z8.90165
X33.10942 Z14.87513
X33.05395 Z14.99328
X29.83676 Z20.73285
X29.72582 Z20.91614
X27.72895 Z23.43865
X27.61801 Z23.55507
X24.06801 Z26.88258
X23.95707 Z26.9734
X21.29457 Z28.61825
X21.18364 Z28.66305
X21.0727 Z28.68435
X6.0788 Z28.68603
X5.97133 Z28.66982
X5.86386 Z28.63235
X5.75639 Z28.5687
X5.64892 Z28.46589
X5.59518 Z28.38808
X5.56832 Z28.33606
X5.54145 Z28.26579
X5.51372 Z24.51926
X-5.49683
X-5.52457 Z28.19796
X-5.55111 Z28.29419
X-5.57765 Z28.35556
X-5.63074 Z28.44237
X-5.73691 Z28.55359
X-5.84308 Z28.62231
X-5.94925 Z28.66395
X-6.05542 Z28.68419
X-20.97261 Z28.68708
X-21.08355 Z28.68322
X-21.19449 Z28.65978
X-21.30543 Z28.61242
X-23.96793 Z26.96625
X-24.07886 Z26.87245
X-27.62886 Z23.54497
X-27.7398 Z23.42503
X-29.73668 Z20.90199
X-29.84761 Z20.71363
X-33.0648 Z14.97404
X-33.09254 Z14.91803
X-35.38247 Z8.90483
X-35.41185 Z8.80622
X-37.30705 Z0.12636
X-37.30771 Y5.18217 Z0.12329
X-35.41137 Z8.80842
X-35.38364 Z8.90176
X-33.10942 Z14.8753
X-33.05395 Z14.9934
X-29.83676 Z20.73299
X-29.72583 Z20.91624
X-27.72895 Z23.43874
X-27.61801 Z23.55514
X-24.06801 Z26.88262
X-23.95708 Z26.97343
X-21.29457 Z28.61827
X-21.18364 Z28.66306
X-21.0727 Z28.68435
X-6.0788 Z28.68603
X-5.97133 Z28.66981
X-5.86386 Z28.63235
X-5.75639 Z28.56869
X-5.64892 Z28.46588
X-5.59519 Z28.38806
X-5.56832 Z28.33603
X-5.54145 Z28.26575
X-5.51372 Z25.81926
X5.49683
X5.52457 Z28.19803
X5.55111 Z28.29422
X5.57765 Z28.35559
X5.63074 Z28.44239
X5.73691 Z28.55359
X5.84308 Z28.62232
X5.94925 Z28.66395
X6.05542 Z28.68419
X20.97261 Z28.68708
X21.08355 Z28.68321
X21.19449 Z28.65978
X21.30542 Z28.61241
X23.96793 Z26.96622
X24.07886 Z26.87241
X27.62886 Z23.5449
X27.7398 Z23.42494
X29.73667 Z20.90188
X29.84761 Z20.71349
X33.0648 Z14.97392
X33.09253 Z14.91787
X35.38247 Z8.90473
X35.41185 Z8.80604
X37.30705 Z0.12636
X37.30771 Y6.48217 Z0.12329
X35.41137 Z8.80823
X35.38364 Z8.90165
X33.10942 Z14.87513
X33.05395 Z14.99328
X29.83676 Z20.73285
X29.72582 Z20.91614
X27.72895 Z23.43865
X27.61801 Z23.55507
X24.06801 Z26.88258
X23.95707 Z26.9734
X21.29457 Z28.61825
X21.18364 Z28.66305
X21.0727 Z28.68435
X6.0788 Z28.68603
X5.97133 Z28.66982
X5.86386 Z28.63235
X5.75639 Z28.5687
X5.64892 Z28.46589
X5.59518 Z28.38808
X5.56832 Z28.33606
X5.54145 Z28.26579
X5.51372 Z27.11926
X-5.49683
X-5.52457 Z28.19796
X-5.55111 Z28.29419
X-5.57765 Z28.35556
X-5.63074 Z28.44237
X-5.73691 Z28.55359
X-5.84308 Z28.62231
X-5.94925 Z28.66395
X-6.05542 Z28.68419
X-20.97261 Z28.68708
X-21.08355 Z28.68322
X-21.19449 Z28.65978
X-21.30543 Z28.61242
X-23.96793 Z26.96625
X-24.07886 Z26.87245
X-27.62886 Z23.54497
X-27.7398 Z23.42503
X-29.73668 Z20.90199
X-29.84761 Z20.71363
X-33.0648 Z14.97404
X-33.09254 Z14.91803
X-35.38247 Z8.90483
X-35.41185 Z8.80622
X-37.30705 Z0.12636
X-37.30771 Y7.78217 Z0.12329
X-35.41137 Z8.80842
X-35.38364 Z8.90176
X-33.10942 Z14.8753
X-33.05395 Z14.9934
X-29.83676 Z20.73299
X-29.72583 Z20.91624
X-27.72895 Z23.43874
X-27.61801 Z23.55514
X-24.06801 Z26.88262
X-23.95708 Z26.97343
X-21.29457 Z28.61827
X-21.18364 Z28.66306
X-21.0727 Z28.68435
X-6.46362 Z28.68708
X-6.04414 Z28.68297
X-5.93927 Z28.661
X-5.83439 Z28.61783
X-5.72952 Z28.54751
X-5.62465 Z28.43394
X-5.59692 Z28.41927
X5.60777
X5.73994 Z28.55603
X5.84438 Z28.62298
X5.94881 Z28.66383
X6.05325 Z28.68397
X20.97261 Z28.68708
X21.08355 Z28.68321
X21.19449 Z28.65978
X21.30542 Z28.61241
X23.96793 Z26.96622
X24.07886 Z26.87241
X27.62886 Z23.5449
X27.7398 Z23.42494
X29.73667 Z20.90188
X29.84761 Z20.71349
X33.0648 Z14.97392
X33.09253 Z14.91787
X35.38247 Z8.90473
X35.41185 Z8.80604
X37.30705 Z0.12636
X37.30771 Y9.08217 Z0.12329
X35.41137 Z8.80823
X35.38364 Z8.90165
X33.10942 Z14.87513
X33.05395 Z14.99328
X29.83676 Z20.73285
X29.72582 Z20.91614
X27.72895 Z23.43865
X27.61801 Z23.55507
X24.06801 Z26.88258
X23.95707 Z26.9734
X21.29457 Z28.61825
X21.18364 Z28.66305
X21.0727 Z28.68435
X17.93871 Z28.68767
X16.96801 Z28.97197
X16.08051 Z29.20376
X15.26235 Z29.38956
X14.41645 Z29.54771
X13.73696 Z29.64377
X13.05747 Z29.70432
X12.56908 Z29.71926
X-12.57137
X-12.98278 Z29.70834
X-13.3942 Z29.67937
X-13.92315 Z29.6206
X-14.4689 Z29.53905
X-15.54361 Z29.32901
X-16.34964 Z29.13657
X-16.96565 Z28.97263
X-17.9461 Z28.68708
X-20.97261
X-21.08355 Z28.68322
X-21.19449 Z28.65978
X-21.30543 Z28.61242
X-23.96793 Z26.96625
X-24.07886 Z26.87245
X-27.62886 Z23.54497
X-27.7398 Z23.42503
X-29.73668 Z20.90199
X-29.84761 Z20.71363
X-33.0648 Z14.97404
X-33.09254 Z14.91803
X-35.38247 Z8.90483
X-35.41185 Z8.80622
X-37.30705 Z0.12636
X-37.30771 Y10.38218 Z0.12329
X-35.41137 Z8.80842
X-35.38364 Z8.90176
X-33.10942 Z14.8753
X-33.05395 Z14.9934
X-29.83676 Z20.73299
X-29.72583 Z20.91624
X-27.72895 Z23.43874
X-27.61801 Z23.55514
X-24.06801 Z26.88262
X-23.95708 Z26.97343
X-21.34224 Z28.59053
X-21.22735 Z28.64846
X-21.11246 Z28.67921
X-20.88268 Z28.68708
X-19.48577 Z28.68775
X-18.4934 Z29.07359
X-17.89018 Z29.2969
X-17.05132 Z29.59256
X-16.29729 Z29.84265
X-15.63676 Z30.04857
X-15.19301 Z30.1795
X-14.74926 Z30.30155
X-14.30551 Z30.39252
X-13.41801 Z30.56341
X-12.53051 Z30.7175
X-11.64301 Z30.85011
X-10.64458 Z30.96381
X-10.31176 Z30.99028
X-9.86801 Z31.01346
X-9.42426 Z31.01927
X9.65699 Z31.01848
X10.54449 Z30.97248
X11.43199 Z30.87773
X12.31949 Z30.7512
X12.91578 Z30.65292
X13.51207 Z30.54603
X14.10836 Z30.43176
X14.80561 Z30.28815
X15.31827 Z30.14317
X15.90416 Z29.96676
X16.78299 Z29.68332
X17.07593 Z29.58414
X18.24771 Z29.16559
X19.47496 Z28.69207
X19.50269 Z28.68708
X20.97261
X21.08355 Z28.68321
X21.19449 Z28.65978
X21.30542 Z28.61241
X23.96793 Z26.96622
X24.07886 Z26.87241
X27.62886 Z23.5449
X27.7398 Z23.42494
X29.73667 Z20.90188
X29.84761 Z20.71349
X33.0648 Z14.97392
X33.09253 Z14.91787
X35.38247 Z8.90473
X35.41185 Z8.80604
X37.30705 Z0.12636
X37.30771 Y11.68218 Z0.12329
X35.41137 Z8.80823
X35.38364 Z8.90165
X33.10942 Z14.87513
X33.05395 Z14.99328
X29.83676 Z20.73285
X29.72582 Z20.91614
X27.72895 Z23.43865
X27.61801 Z23.55507
X24.06801 Z26.88258
X23.95707 Z26.9734
X21.29457 Z28.61825
X21.18364 Z28.66305
X21.0727 Z28.68435
X20.40707 Z28.68708
X20.37934 Z28.69129
X19.63051 Z29.0335
X18.4102 Z29.56535
X17.85551 Z29.79644
X16.74614 Z30.23816
X16.52426 Z30.32003
X14.74926 Z30.78065
X13.41801 Z31.10615
X12.08676 Z31.41169
X11.80942 Z31.4542
X8.09301 Z31.78008
X5.43051 Z31.99685
X3.65551 Z32.12772
X1.88051 Z32.23875
X0.99301 Z32.28167
X0.10551 Z32.31013
X-0.78199 Z32.29006
X-1.66949 Z32.24993
X-3.27808 Z32.1534
X-5.21949 Z32.01312
X-8.2148 Z31.76976
X-11.87574 Z31.44721
X-12.09761 Z31.40929
X-13.65074 Z31.05059
X-15.42574 Z30.60856
X-16.53511 Z30.31674
X-17.20074 Z30.0605
X-18.13157 Z29.68227
X-19.19761 Z29.22584
X-19.97862 Z28.87592
X-20.37134 Z28.69502
X-20.39843 Z28.68708
X-21.06199 Z28.68528
X-21.22788 Z28.64826
X-21.39377 Z28.55866
X-23.91939 Z26.99687
X-24.02773 Z26.91998
X-27.62886 Z23.54497
X-27.7398 Z23.42503
X-29.73668 Z20.90199
X-29.84761 Z20.71363
X-33.0648 Z14.97404
X-33.09254 Z14.91803
X-35.38247 Z8.90483
X-35.41185 Z8.80622
X-37.30705 Z0.12636
X-37.30771 Y12.98218 Z0.12329
X-35.41137 Z8.80842
X-35.38364 Z8.90176
X-33.10942 Z14.8753
X-33.05395 Z14.9934
X-29.83676 Z20.73299
X-29.72583 Z20.91624
X-27.72895 Z23.43874
X-27.61801 Z23.55514
X-24.06801 Z26.88262
X-23.95708 Z26.97343
X-21.35524 Z28.58249
X-21.21484 Z28.65302
X-21.07443 Z28.68419
X-20.91063 Z28.68993
X-19.89399 Z29.2108
X-18.77075 Z29.75908
X-17.63364 Z30.28607
X-17.41176 Z30.36352
X-16.08051 Z30.7553
X-14.30551 Z31.25878
X-13.63989 Z31.44034
X-13.41801 Z31.46983
X-7.20551 Z32.07615
X-3.65551 Z32.41305
X-3.43364 Z32.42973
X3.44449 Z32.42937
X4.33199 Z32.34952
X10.54449 Z31.75255
X13.42886 Z31.46876
X13.65074 Z31.43789
X15.00972 Z31.06172
X16.75699 Z30.55768
X17.53355 Z30.32675
X17.64449 Z30.28117
X18.53199 Z29.87204
X19.41949 Z29.44582
X20.30699 Z29.00208
X20.91714 Z28.68708
X21.08355 Z28.68321
X21.19449 Z28.65978
X21.30542 Z28.61241
X23.96793 Z26.96622
X24.07886 Z26.87241
X27.62886 Z23.5449
X27.7398 Z23.42494
X29.73667 Z20.90188
X29.84761 Z20.71349
X33.0648 Z14.97392
X33.09253 Z14.91787
X35.38247 Z8.90473
X35.41185 Z8.80604
X37.30705 Z0.12636
X37.30771 Y14.28218 Z0.12329
X35.41137 Z8.80823
X35.38364 Z8.90165
X33.10942 Z14.87513
X33.05395 Z14.99328
X29.83676 Z20.73285
X29.72582 Z20.91614
X27.72895 Z23.43865
X27.61801 Z23.55507
X24.06801 Z26.88258
X23.95707 Z26.9734
X21.29457 Z28.61825
X21.18364 Z28.67284
X20.51801 Z29.05716
X19.40864 Z29.67086
X18.74301 Z30.02414
X18.18832 Z30.30955
X18.07739 Z30.34956
X16.08051 Z30.98598
X14.74926 Z31.39663
X14.52739 Z31.45637
X8.98051 Z32.02515
X4.98676 Z32.42787
X-4.77574 Z32.43074
X-4.99761 Z32.427
X-14.47757 Z31.46268
X-14.58547 Z31.44489
X-15.77242 Z31.08199
X-18.14631 Z30.32667
X-18.57792 Z30.11011
X-19.57159 Z29.58272
X-20.52886 Z29.05101
X-21.22222 Z28.65037
X-21.33143 Z28.59722
X-23.96793 Z26.96625
X-24.07886 Z26.87245
X-27.62886 Z23.54497
X-27.7398 Z23.42503
X-29.73668 Z20.90199
X-29.84761 Z20.71363
X-33.0648 Z14.97404
X-33.09254 Z14.91803
X-35.38247 Z8.90483
X-35.41185 Z8.80622
X-37.30705 Z0.12636
X-37.30771 Y15.58218 Z0.12329
X-35.41137 Z8.80842
X-35.38364 Z8.90176
X-33.10942 Z14.8753
X-33.05395 Z14.9934
X-29.83676 Z20.73299
X-29.72583 Z20.91624
X-27.72895 Z23.43874
X-27.61801 Z23.55514
X-24.06801 Z26.88262
X-23.95708 Z26.97343
X-19.63051 Z29.64588
X-18.99262 Z30.02484
X-18.57661 Z30.26545
X-18.4726 Z30.31979
X-17.74458 Z30.57368
X-16.08051 Z31.13854
X-15.19301 Z31.43279
X-15.08208 Z31.45913
X-5.87426 Z32.42572
X-5.43051 Z32.43074
X5.66324
X5.88511 Z32.4246
X15.09292 Z31.45744
X15.20386 Z31.42922
X15.86949 Z31.20894
X18.08824 Z30.45484
X18.47652 Z30.31812
X18.64293 Z30.22742
X19.64136 Z29.63932
X23.96793 Z26.96622
X24.07886 Z26.87241
X27.62886 Z23.5449
X27.7398 Z23.42494
X29.73667 Z20.90188
X29.84761 Z20.71349
X33.0648 Z14.97392
X33.09253 Z14.91787
X35.38247 Z8.90473
X35.41185 Z8.80604
X37.30705 Z0.12636
X37.30771 Y16.88218 Z0.12329
X35.41137 Z8.80823
X35.38364 Z8.90165
X33.10942 Z14.87513
X33.05395 Z14.99328
X29.83676 Z20.73285
X29.72582 Z20.91614
X27.72895 Z23.43865
X27.61801 Z23.55507
X24.06801 Z26.88258
X23.95707 Z26.9734
X18.74301 Z30.19784
X18.52114 Z30.3245
X16.30239 Z31.13346
X15.41489 Z31.44672
X15.19301 Z31.47723
X6.31801 Z32.42986
X-6.32886 Z32.4292
X-14.98199 Z31.50009
X-15.42574 Z31.4438
X-16.75699 Z30.96972
X-18.53199 Z30.32004
X-19.41949 Z29.77952
X-23.96793 Z26.96625
X-24.07886 Z26.87245
X-27.62886 Z23.54497
X-27.7398 Z23.42503
X-29.73668 Z20.90199
X-29.84761 Z20.71363
X-33.0648 Z14.97404
X-33.09254 Z14.91803
X-35.38247 Z8.90483
X-35.41185 Z8.80622
X-37.30705 Z0.12636
X-37.30771 Y18.18218 Z0.12329
X-35.41137 Z8.80842
X-35.38364 Z8.90176
X-33.10942 Z14.8753
X-33.05395 Z14.9934
X-29.83676 Z20.73299
X-29.72583 Z20.91624
X-27.72895 Z23.43874
X-27.61801 Z23.55514
X-24.06801 Z26.88262
X-23.95708 Z26.97343
X-18.74301 Z30.19784
X-18.52114 Z30.3245
X-15.63676 Z31.38172
X-15.41489 Z31.45502
X-6.53989 Z32.42867
X6.10699 Z32.43074
X6.57847 Z32.42466
X14.98199 Z31.50459
X15.42574 Z31.4528
X15.86949 Z31.29644
X18.53199 Z30.32004
X19.41949 Z29.77951
X23.96793 Z26.96622
X24.07886 Z26.87241
X27.62886 Z23.5449
X27.7398 Z23.42494
X29.73667 Z20.90188
X29.84761 Z20.71349
X33.0648 Z14.97392
X33.09253 Z14.91787
X35.38247 Z8.90473
X35.41185 Z8.80604
X37.30705 Z0.12636
X37.30771 Y19.48218 Z0.12329
X35.41137 Z8.80823
X35.38364 Z8.90165
X33.10942 Z14.87513
X33.05395 Z14.99328
X29.83676 Z20.73285
X29.72582 Z20.91614
X27.72895 Z23.43865
X27.61801 Z23.55507
X24.06801 Z26.88258
X23.95707 Z26.9734
X18.74301 Z30.19784
X18.52114 Z30.3245
X15.63676 Z31.38172
X15.41489 Z31.45502
X6.53989 Z32.42941
X-6.55074 Z32.42859
X-15.42574 Z31.4528
X-15.86949 Z31.29644
X-18.53199 Z30.32004
X-19.41949 Z29.77952
X-23.96793 Z26.96625
X-24.07886 Z26.87245
X-27.62886 Z23.54497
X-27.7398 Z23.42503
X-29.73668 Z20.90199
X-29.84761 Z20.71363
X-33.0648 Z14.97404
X-33.09254 Z14.91803
X-35.38247 Z8.90483
X-35.41185 Z8.80622
X-37.30705 Z0.12636
X-37.30771 Y20.78217 Z0.12329
X-35.41137 Z8.80842
X-35.38364 Z8.90176
X-33.10942 Z14.8753
X-33.05395 Z14.9934
X-29.83676 Z20.73299
X-29.72583 Z20.91624
X-27.72895 Z23.43874
X-27.61801 Z23.55514
X-24.06801 Z26.88262
X-23.95708 Z26.97343
X-18.74301 Z30.19784
X-18.52114 Z30.3245
X-15.63676 Z31.38172
X-15.41489 Z31.45502
X-6.53989 Z32.42941
X6.55074 Z32.42859
X15.42574 Z31.4528
X15.86949 Z31.29644
X18.53199 Z30.32004
X19.41949 Z29.77951
X23.96793 Z26.96622
X24.07886 Z26.87241
X27.62886 Z23.5449
X27.7398 Z23.42494
X29.73667 Z20.90188
X29.84761 Z20.71349
X33.0648 Z14.97392
X33.09253 Z14.91787
X35.38247 Z8.90473
X35.41185 Z8.80604
X37.30705 Z0.12636
X37.30771 Y22.08218 Z0.12329
X35.41137 Z8.80823
X35.38364 Z8.90165
X33.10942 Z14.87513
X33.05395 Z14.99328
X29.83676 Z20.73285
X29.72582 Z20.91614
X27.72895 Z23.43865
X27.61801 Z23.55507
X24.06801 Z26.88258
X23.95707 Z26.9734
X18.74301 Z30.19784
X18.52114 Z30.3245
X15.63676 Z31.38172
X15.41489 Z31.45502
X6.53989 Z32.42941
X-6.55074 Z32.42859
X-15.42574 Z31.4528
X-15.86949 Z31.29644
X-18.53199 Z30.32004
X-19.41949 Z29.77952
X-23.96793 Z26.96625
X-24.07886 Z26.87245
X-27.62886 Z23.54497
X-27.7398 Z23.42503
X-29.73668 Z20.90199
X-29.84761 Z20.71363
X-33.0648 Z14.97404
X-33.09254 Z14.91803
X-35.38247 Z8.90483
X-35.41185 Z8.80622
X-37.30705 Z0.12636
X-37.30771 Y23.38218 Z0.12329
X-35.41137 Z8.80842
X-35.38364 Z8.90176
X-33.10942 Z14.8753
X-33.05395 Z14.9934
X-29.83676 Z20.73299
X-29.72583 Z20.91624
X-27.72895 Z23.43874
X-27.61801 Z23.55514
X-24.06801 Z26.88262
X-23.95708 Z26.97343
X-18.74301 Z30.19784
X-18.52114 Z30.3245
X-15.63676 Z31.38172
X-15.41489 Z31.45502
X-6.53989 Z32.42941
X6.55074 Z32.42859
X15.42574 Z31.4528
X15.86949 Z31.29644
X18.53199 Z30.32004
X19.41949 Z29.77951
X23.96793 Z26.96622
X24.07886 Z26.87241
X27.62886 Z23.5449
X27.7398 Z23.42494
X29.73667 Z20.90188
X29.84761 Z20.71349
X33.0648 Z14.97392
X33.09253 Z14.91787
X35.38247 Z8.90473
X35.41185 Z8.80604
X37.30705 Z0.12636
X37.30771 Y24.68218 Z0.12329
X35.41137 Z8.80823
X35.38364 Z8.90165
X33.10942 Z14.87513
X33.05395 Z14.99328
X29.83676 Z20.73285
X29.72582 Z20.91614
X27.72895 Z23.43865
X27.61801 Z23.55507
X24.06801 Z26.88258
X23.95707 Z26.9734
X18.74301 Z30.19784
X18.52114 Z30.3245
X15.63676 Z31.38172
X15.41489 Z31.45502
X6.53989 Z32.42941
X-6.55074 Z32.42859
X-15.42574 Z31.4528
X-15.86949 Z31.29644
X-18.53199 Z30.32004
X-19.41949 Z29.77952
X-23.96793 Z26.96625
X-24.07886 Z26.87245
X-27.62886 Z23.54497
X-27.7398 Z23.42503
X-29.73668 Z20.90199
X-29.84761 Z20.71363
X-33.0648 Z14.97404
X-33.09254 Z14.91803
X-35.38247 Z8.90483
X-35.41185 Z8.80622
X-37.30705 Z0.12636
X-37.30771 Y25.98218 Z0.12329
X-35.41137 Z8.80842
X-35.38364 Z8.90176
X-33.10942 Z14.8753
X-33.05395 Z14.9934
X-29.83676 Z20.73299
X-29.72583 Z20.91624
X-27.72895 Z23.43874
X-27.61801 Z23.55514
X-24.06801 Z26.88262
X-23.95708 Z26.97343
X-18.74301 Z30.19784
X-18.52114 Z30.3245
X-15.63676 Z31.38172
X-15.41489 Z31.45502
X-6.53989 Z32.42941
X6.55074 Z32.42859
X15.42574 Z31.4528
X15.86949 Z31.29644
X18.53199 Z30.32004
X19.41949 Z29.77951
X23.96793 Z26.96622
X24.07886 Z26.87241
X27.62886 Z23.5449
X27.7398 Z23.42494
X29.73667 Z20.90188
X29.84761 Z20.71349
X33.0648 Z14.97392
X33.09253 Z14.91787
X35.38247 Z8.90473
X35.41185 Z8.80604
X37.30705 Z0.12636
X37.30771 Y27.28217 Z0.12329
X35.41137 Z8.80823
X35.38364 Z8.90165
X33.10942 Z14.87513
X33.05395 Z14.99328
X29.83676 Z20.73285
X29.72582 Z20.91614
X27.72895 Z23.43865
X27.61801 Z23.55507
X24.06801 Z26.88258
X23.95707 Z26.9734
X18.74301 Z30.19784
X18.52114 Z30.3245
X15.63676 Z31.38172
X15.41489 Z31.45502
X6.53989 Z32.42941
X-6.55074 Z32.42859
X-15.42574 Z31.4528
X-15.86949 Z31.29644
X-18.53199 Z30.32004
X-19.41949 Z29.77952
X-23.96793 Z26.96625
X-24.07886 Z26.87245
X-27.62886 Z23.54497
X-27.7398 Z23.42503
X-29.73668 Z20.90199
X-29.84761 Z20.71363
X-33.0648 Z14.97404
X-33.09254 Z14.91803
X-35.38247 Z8.90483
X-35.41185 Z8.80622
X-37.30705 Z0.12636
X-37.30771 Y28.58217 Z0.12329
X-35.41137 Z8.80842
X-35.38364 Z8.90176
X-33.10942 Z14.8753
X-33.05395 Z14.9934
X-29.83676 Z20.73299
X-29.72583 Z20.91624
X-27.72895 Z23.43874
X-27.61801 Z23.55514
X-24.06801 Z26.88262
X-23.95708 Z26.97343
X-18.74301 Z30.19784
X-18.52114 Z30.3245
X-15.63676 Z31.38172
X-15.41489 Z31.45502
X-6.53989 Z32.42941
X6.55074 Z32.42859
X15.42574 Z31.4528
X15.86949 Z31.29644
X18.53199 Z30.32004
X19.41949 Z29.77951
X23.96793 Z26.96622
X24.07886 Z26.87241
X27.62886 Z23.5449
X27.7398 Z23.42494
X29.73667 Z20.90188
X29.84761 Z20.71349
X33.0648 Z14.97392
X33.09253 Z14.91787
X35.38247 Z8.90473
X35.41185 Z8.80604
X37.30705 Z0.12636
X37.30771 Y29.88217 Z0.12329
X35.41137 Z8.80823
X35.38364 Z8.90165
X33.10942 Z14.87513
X33.05395 Z14.99328
X29.83676 Z20.73285
X29.72582 Z20.91614
X27.72895 Z23.43865
X27.61801 Z23.55507
X24.06801 Z26.88258
X23.95707 Z26.9734
X18.74301 Z30.19784
X18.52114 Z30.3245
X15.63676 Z31.38172
X15.41489 Z31.45502
X6.53989 Z32.42941
X-6.55074 Z32.42859
X-15.42574 Z31.4528
X-15.86949 Z31.29644
X-18.53199 Z30.32004
X-19.41949 Z29.77952
X-23.96793 Z26.96625
X-24.07886 Z26.87245
X-27.62886 Z23.54497
X-27.7398 Z23.42503
X-29.73668 Z20.90199
X-29.84761 Z20.71363
X-33.0648 Z14.97404
X-33.09254 Z14.91803
X-35.38247 Z8.90483
X-35.41185 Z8.80622
X-37.30705 Z0.12636
X-37.30771 Y31.18217 Z0.12329
X-35.41137 Z8.80842
X-35.38364 Z8.90176
X-33.10942 Z14.8753
X-33.05395 Z14.9934
X-29.83676 Z20.73299
X-29.72583 Z20.91624
X-27.72895 Z23.43874
X-27.61801 Z23.55514
X-24.06801 Z26.88262
X-23.95708 Z26.97343
X-18.74301 Z30.19784
X-18.52114 Z30.3245
X-15.63676 Z31.38172
X-15.41489 Z31.45502
X-6.53989 Z32.42941
X6.55074 Z32.42859
X15.42574 Z31.4528
X15.86949 Z31.29644
X18.53199 Z30.32004
X19.41949 Z29.77951
X23.96793 Z26.96622
X24.07886 Z26.87241
X27.62886 Z23.5449
X27.7398 Z23.42494
X29.73667 Z20.90188
X29.84761 Z20.71349
X33.0648 Z14.97392
X33.09253 Z14.91787
X35.38247 Z8.90473
X35.41185 Z8.80604
X37.30705 Z0.12636
X37.30771 Y32.48217 Z0.12329
X35.41137 Z8.80823
X35.38364 Z8.90165
X33.10942 Z14.87513
X33.05395 Z14.99328
X29.83676 Z20.73285
X29.72582 Z20.91614
X27.72895 Z23.43865
X27.61801 Z23.55507
X24.06801 Z26.88258
X23.95707 Z26.9734
X18.74301 Z30.19784
X18.52114 Z30.3245
X15.63676 Z31.38172
X15.41489 Z31.45502
X6.53989 Z32.42941
X-6.55074 Z32.42859
X-15.42574 Z31.4528
X-15.86949 Z31.29644
X-18.53199 Z30.32004
X-19.41949 Z29.77952
X-23.96793 Z26.96625
X-24.07886 Z26.87245
X-27.62886 Z23.54497
X-27.7398 Z23.42503
X-29.73668 Z20.90199
X-29.84761 Z20.71363
X-33.0648 Z14.97404
X-33.09254 Z14.91803
X-35.38247 Z8.90483
X-35.41185 Z8.80622
X-37.30705 Z0.12636
X-37.30771 Y33.78217 Z0.12329
X-35.41137 Z8.80842
X-35.38364 Z8.90176
X-33.10942 Z14.8753
X-33.05395 Z14.9934
X-29.83676 Z20.73299
X-29.72583 Z20.91624
X-27.72895 Z23.43874
X-27.61801 Z23.55514
X-24.06801 Z26.88262
X-23.95708 Z26.97343
X-18.74301 Z30.19784
X-18.52114 Z30.3245
X-15.63676 Z31.38172
X-15.41489 Z31.45502
X-6.53989 Z32.42941
X6.55074 Z32.42859
X15.42574 Z31.4528
X15.86949 Z31.29644
X18.53199 Z30.32004
X19.41949 Z29.77951
X23.96793 Z26.96622
X24.07886 Z26.87241
X27.62886 Z23.5449
X27.7398 Z23.42494
X29.73667 Z20.90188
X29.84761 Z20.71349
X33.0648 Z14.97392
X33.09253 Z14.91787
X35.38247 Z8.90473
X35.41185 Z8.80604
X37.30705 Z0.12636
Z0.72636 F5000.
G0 Z38.33074
(2 1/2 Axis Profiling)
(Router Straight Flute 13mm Carbide Tipped)
X-51.42051 Y11.42696
G1 Z0. F1346.5
X-45.07051 F4039.5
G02 X-38.72051 Y5.07696 I0. J-6.35
G1 Y-34.45783 F5000.
G03 X-38.44108 Y-36.60838 I8.70684 J0.03791
X-30.34127 Y-42.95418 I8.22057 J2.15055
G1 X-30.22051 Y-42.95783
X30.22051
G03 X32.37107 Y-42.67839 I-0.0379 J8.70684
X38.71686 Y-34.57858 I-2.15056 J8.22056
G1 X38.72051 Y-34.45783
Y34.45783
G03 X38.44108 Y36.60838 I-8.70684 J-0.03791
X30.34127 Y42.95418 I-8.22057 J-2.15055
G1 X30.22051 Y42.95783
X-30.22051
G03 X-32.37107 Y42.67839 I0.0379 J-8.70684
X-38.71686 Y34.57858 I2.15056 J-8.22056
G1 X-38.72051 Y34.45783
Y5.07696
X-36.72051
Y34.45783
X-36.67312 Y35.24131
X-36.53163 Y36.01338
X-36.29812 Y36.76276
X-35.97598 Y37.47852
X-35.56991 Y38.15025
X-35.08583 Y38.76812
X-34.53081 Y39.32314
X-33.91293 Y39.80722
X-33.24121 Y40.21329
X-32.52544 Y40.53543
X-31.77606 Y40.76895
X-31.004 Y40.91043
X-30.22051 Y40.95783
X30.22051
X31.004 Y40.91043
X31.77606 Y40.76895
X32.52544 Y40.53543
X33.24121 Y40.21329
X33.91293 Y39.80722
X34.53081 Y39.32314
X35.08583 Y38.76812
X35.56991 Y38.15025
X35.97598 Y37.47852
X36.29812 Y36.76276
X36.53163 Y36.01338
X36.67312 Y35.24131
X36.72051 Y34.45783
Y-34.45783
X36.67312 Y-35.24131
X36.53163 Y-36.01338
X36.29812 Y-36.76276
X35.97598 Y-37.47852
X35.56991 Y-38.15025
X35.08583 Y-38.76812
X34.53081 Y-39.32314
X33.91293 Y-39.80722
X33.24121 Y-40.21329
X32.52544 Y-40.53543
X31.77606 Y-40.76895
X31.004 Y-40.91043
X30.22051 Y-40.95783
X-30.22051
X-31.004 Y-40.91043
X-31.77606 Y-40.76895
X-32.52544 Y-40.53543
X-33.24121 Y-40.21329
X-33.91293 Y-39.80722
X-34.53081 Y-39.32314
X-35.08583 Y-38.76812
X-35.56991 Y-38.15025
X-35.97598 Y-37.47852
X-36.29812 Y-36.76276
X-36.53163 Y-36.01338
X-36.67312 Y-35.24131
X-36.72051 Y-34.45783
Y5.07696
G03 X-43.07051 Y11.42696 I-6.35 J0. F5000.
G1 X-49.42051
G0 Z38.33074
M30
%
