%
G17 G21 G40 G90 G64 P0.1
(2 1/2 Axis Pocketing)
(SlotDrill 1mm Carbide)
T42 M06
S23873 M3
G0 Z5.
X-0.46482 Y-8.52261
G1 Z2.2625 F179.
Z1.6625 F537.
X-0.54837 Y-7.84212 Z1.54161
X-0.84354 Y-8.94369 Z1.34052
X-0.62754 Y-8.9743 Z1.30206
X-0.40939 Y-8.97404 Z1.26359
X-0.54837 Y-7.84212 Z1.0625
X-0.84354 Y-8.94369 F716.
X-0.62754 Y-8.9743
X-0.40939 Y-8.97404
X-0.54837 Y-7.84212
X-1.03134 Y-7.71271
X-1.4726 Y-9.35952
X-0.66251 Y-9.47434
X0.15567 Y-9.47338
X-0.36558 Y-5.22808
X-1.03134 Y-7.71271
X-1.5143 Y-7.5833
X-2.07713 Y-9.6838
X-2.07007 Y-9.74341
X-2.01005 Y-9.78835
X-0.69748 Y-9.97438
X0.68753 Y-9.97276
X0.71127 Y-9.96607
X0.7147 Y-9.92354
X0.06799 Y-4.65652
G17
G03 X-0.7154 Y-4.60174 I-0.39701 J-0.04875
G1 X-1.5143 Y-7.5833
G0 Z5.
X-0.54837 Y-7.84212
G1 Z0.625 F179.
X-0.84354 Y-8.94369 F716.
X-0.62754 Y-8.9743
X-0.40939 Y-8.97404
X-0.54837 Y-7.84212
X-1.03134 Y-7.71271
X-1.4726 Y-9.35952
X-0.66251 Y-9.47434
X0.15567 Y-9.47338
X-0.36558 Y-5.22808
X-1.03134 Y-7.71271
X-1.5143 Y-7.5833
X-2.07713 Y-9.6838
X-2.07007 Y-9.74341
X-2.01005 Y-9.78835
X-0.69748 Y-9.97438
X0.68753 Y-9.97276
X0.71127 Y-9.96607
X0.7147 Y-9.92354
X0.06799 Y-4.65652
G03 X-0.7154 Y-4.60174 I-0.39701 J-0.04875
G1 X-1.5143 Y-7.5833
G0 Z5.
X-0.54837 Y-7.84212
G1 Z0.1875 F179.
X-0.84354 Y-8.94369 F716.
X-0.62754 Y-8.9743
X-0.40939 Y-8.97404
X-0.54837 Y-7.84212
X-1.03134 Y-7.71271
X-1.4726 Y-9.35952
X-0.66251 Y-9.47434
X0.15567 Y-9.47338
X-0.36558 Y-5.22808
X-1.03134 Y-7.71271
X-1.5143 Y-7.5833
X-2.07713 Y-9.6838
X-2.07007 Y-9.74341
X-2.01005 Y-9.78835
X-0.69748 Y-9.97438
X0.68753 Y-9.97276
X0.71127 Y-9.96607
X0.7147 Y-9.92354
X0.06799 Y-4.65652
G03 X-0.7154 Y-4.60174 I-0.39701 J-0.04875
G1 X-1.5143 Y-7.5833
G0 Z5.
X-0.54837 Y-7.84212
G1 Z-0.25 F179.
X-0.84354 Y-8.94369 F716.
X-0.62754 Y-8.9743
X-0.40939 Y-8.97404
X-0.54837 Y-7.84212
X-1.03134 Y-7.71271
X-1.4726 Y-9.35952
X-0.66251 Y-9.47434
X0.15567 Y-9.47338
X-0.36558 Y-5.22808
X-1.03134 Y-7.71271
X-1.5143 Y-7.5833
X-2.07713 Y-9.6838
X-2.07007 Y-9.74341
X-2.01005 Y-9.78835
X-0.69748 Y-9.97438
X0.68753 Y-9.97276
X0.71127 Y-9.96607
X0.7147 Y-9.92354
X0.06799 Y-4.65652
G03 X-0.7154 Y-4.60174 I-0.39701 J-0.04875
G1 X-1.5143 Y-7.5833
Z0.35 F1074.
G0 Z5.
X4.48519 Y-7.49868
G1 Z2.2625 F179.
Z1.6625 F537.
X4.57453 Y-7.73141 Z1.61854
X4.76727 Y-7.62922 Z1.58008
X4.94361 Y-7.50079 Z1.54161
X4.16584 Y-6.66673 Z1.34052
X4.57453 Y-7.73141 Z1.13943
X4.76727 Y-7.62922 Z1.10097
X4.94361 Y-7.50079 Z1.0625
X4.16584 Y-6.66673 F716.
X4.57453 Y-7.73141
X4.76727 Y-7.62922
X4.94361 Y-7.50079
X5.30928 Y-7.15979
X2.77722 Y-4.44449
X4.31003 Y-8.43759
X5.03289 Y-8.05432
X5.69426 Y-7.57262
X5.30928 Y-7.15979
X5.67496 Y-6.81879
X2.79204 Y-3.72724
G03 X2.12607 Y-4.14339 I-0.29254 J-0.2728
G1 X4.01156 Y-9.05527
X4.05231 Y-9.09935
X4.12728 Y-9.10041
X5.29852 Y-8.47941
X6.44023 Y-7.64787
X6.41456 Y-7.61191
X5.67496 Y-6.81879
G0 Z5.
X4.94361 Y-7.50079
G1 Z0.625 F179.
X4.16584 Y-6.66673 F716.
X4.57453 Y-7.73141
X4.76727 Y-7.62922
X4.94361 Y-7.50079
X5.30928 Y-7.15979
X2.77722 Y-4.44449
X4.31003 Y-8.43759
X5.03289 Y-8.05432
X5.69426 Y-7.57262
X5.30928 Y-7.15979
X5.67496 Y-6.81879
X2.79204 Y-3.72724
G03 X2.12607 Y-4.14339 I-0.29254 J-0.2728
G1 X4.01156 Y-9.05527
X4.05231 Y-9.09935
X4.12728 Y-9.10041
X5.29852 Y-8.47941
X6.44023 Y-7.64787
X6.41456 Y-7.61191
X5.67496 Y-6.81879
G0 Z5.
X4.94361 Y-7.50079
G1 Z0.1875 F179.
X4.16584 Y-6.66673 F716.
X4.57453 Y-7.73141
X4.76727 Y-7.62922
X4.94361 Y-7.50079
X5.30928 Y-7.15979
X2.77722 Y-4.44449
X4.31003 Y-8.43759
X5.03289 Y-8.05432
X5.69426 Y-7.57262
X5.30928 Y-7.15979
X5.67496 Y-6.81879
X2.79204 Y-3.72724
G03 X2.12607 Y-4.14339 I-0.29254 J-0.2728
G1 X4.01156 Y-9.05527
X4.05231 Y-9.09935
X4.12728 Y-9.10041
X5.29852 Y-8.47941
X6.44023 Y-7.64787
X6.41456 Y-7.61191
X5.67496 Y-6.81879
G0 Z5.
X4.94361 Y-7.50079
G1 Z-0.25 F179.
X4.16584 Y-6.66673 F716.
X4.57453 Y-7.73141
X4.76727 Y-7.62922
X4.94361 Y-7.50079
X5.30928 Y-7.15979
X2.77722 Y-4.44449
X4.31003 Y-8.43759
X5.03289 Y-8.05432
X5.69426 Y-7.57262
X5.30928 Y-7.15979
X5.67496 Y-6.81879
X2.79204 Y-3.72724
G03 X2.12607 Y-4.14339 I-0.29254 J-0.2728
G1 X4.01156 Y-9.05527
X4.05231 Y-9.09935
X4.12728 Y-9.10041
X5.29852 Y-8.47941
X6.44023 Y-7.64787
X6.41456 Y-7.61191
X5.67496 Y-6.81879
Z0.35 F1074.
G0 Z5.
X7.85325 Y-3.31141
G1 Z2.2625 F179.
Z1.6625 F537.
X8.24528 Y-3.566 Z1.58008
X8.34114 Y-3.37004 Z1.54161
X8.40831 Y-3.16249 Z1.50314
X7.28884 Y-2.94488 Z1.30206
X8.24528 Y-3.566 Z1.10097
X8.34114 Y-3.37004 Z1.0625
X8.40831 Y-3.16249 F716.
X7.28884 Y-2.94488
X8.24528 Y-3.566
X8.34114 Y-3.37004
X8.81685 Y-3.52399
X9.05783 Y-2.77938
X4.85922 Y-1.96325
X8.44638 Y-4.29278
X8.80591 Y-3.55782
X8.81685 Y-3.52399
X9.29256 Y-3.67795
X9.70734 Y-2.39628
X4.44963 Y-1.37428
G03 X4.15545 Y-2.1024 I-0.07633 J-0.39265
G1 X8.56797 Y-4.96793
X8.62685 Y-4.97964
X8.68813 Y-4.93643
X9.27067 Y-3.74559
X9.29256 Y-3.67795
G0 Z5.
X8.34114 Y-3.37004
G1 Z0.625 F179.
X8.40831 Y-3.16249 F716.
X7.28884 Y-2.94488
X8.24528 Y-3.566
X8.34114 Y-3.37004
X8.81685 Y-3.52399
X9.05783 Y-2.77938
X4.85922 Y-1.96325
X8.44638 Y-4.29278
X8.80591 Y-3.55782
X8.81685 Y-3.52399
X9.29256 Y-3.67795
X9.70734 Y-2.39628
X4.44963 Y-1.37428
G03 X4.15545 Y-2.1024 I-0.07633 J-0.39265
G1 X8.56797 Y-4.96793
X8.62685 Y-4.97964
X8.68813 Y-4.93643
X9.27067 Y-3.74559
X9.29256 Y-3.67795
G0 Z5.
X8.34114 Y-3.37004
G1 Z0.1875 F179.
X8.40831 Y-3.16249 F716.
X7.28884 Y-2.94488
X8.24528 Y-3.566
X8.34114 Y-3.37004
X8.81685 Y-3.52399
X9.05783 Y-2.77938
X4.85922 Y-1.96325
X8.44638 Y-4.29278
X8.80591 Y-3.55782
X8.81685 Y-3.52399
X9.29256 Y-3.67795
X9.70734 Y-2.39628
X4.44963 Y-1.37428
G03 X4.15545 Y-2.1024 I-0.07633 J-0.39265
G1 X8.56797 Y-4.96793
X8.62685 Y-4.97964
X8.68813 Y-4.93643
X9.27067 Y-3.74559
X9.29256 Y-3.67795
G0 Z5.
X8.34114 Y-3.37004
G1 Z-0.25 F179.
X8.40831 Y-3.16249 F716.
X7.28884 Y-2.94488
X8.24528 Y-3.566
X8.34114 Y-3.37004
X8.81685 Y-3.52399
X9.05783 Y-2.77938
X4.85922 Y-1.96325
X8.44638 Y-4.29278
X8.80591 Y-3.55782
X8.81685 Y-3.52399
X9.29256 Y-3.67795
X9.70734 Y-2.39628
X4.44963 Y-1.37428
G03 X4.15545 Y-2.1024 I-0.07633 J-0.39265
G1 X8.56797 Y-4.96793
X8.62685 Y-4.97964
X8.68813 Y-4.93643
X9.27067 Y-3.74559
X9.29256 Y-3.67795
Z0.35 F1074.
G0 Z5.
X5.75071 Y6.58624
G1 Z2.2625 F179.
Z1.6625 F537.
X5.93974 Y6.73945 Z1.6196
X5.78265 Y6.8915 Z1.58105
X5.60601 Y7.01952 Z1.54258
X5.05187 Y6.01981 Z1.34104
X5.93974 Y6.73945 Z1.13952
X5.78265 Y6.8915 Z1.10097
X5.60601 Y7.01952 Z1.0625
X5.05187 Y6.01981 F716.
X5.93974 Y6.73945
X5.78265 Y6.8915
X5.60601 Y7.01952
X5.89943 Y7.42437
X5.44237 Y7.75563
X3.36601 Y4.00977
X6.6929 Y6.70629
X6.10486 Y7.27549
X5.89943 Y7.42437
X6.19285 Y7.82922
X5.27873 Y8.49174
X2.68275 Y3.80847
G03 X3.31936 Y3.32835 I0.35395 J-0.19279
G1 X7.37243 Y6.61345
X7.40176 Y6.66583
X7.37961 Y6.73746
X6.42707 Y7.65948
X6.19285 Y7.82922
G0 Z5.
X5.60601 Y7.01952
G1 Z0.625 F179.
X5.05187 Y6.01981 F716.
X5.93974 Y6.73945
X5.78265 Y6.8915
X5.60601 Y7.01952
X5.89943 Y7.42437
X5.44237 Y7.75563
X3.36601 Y4.00977
X6.6929 Y6.70629
X6.10486 Y7.27549
X5.89943 Y7.42437
X6.19285 Y7.82922
X5.27873 Y8.49174
X2.68275 Y3.80847
G03 X3.31936 Y3.32835 I0.35395 J-0.19279
G1 X7.37243 Y6.61345
X7.40176 Y6.66583
X7.37961 Y6.73746
X6.42707 Y7.65948
X6.19285 Y7.82922
G0 Z5.
X5.60601 Y7.01952
G1 Z0.1875 F179.
X5.05187 Y6.01981 F716.
X5.93974 Y6.73945
X5.78265 Y6.8915
X5.60601 Y7.01952
X5.89943 Y7.42437
X5.44237 Y7.75563
X3.36601 Y4.00977
X6.6929 Y6.70629
X6.10486 Y7.27549
X5.89943 Y7.42437
X6.19285 Y7.82922
X5.27873 Y8.49174
X2.68275 Y3.80847
G03 X3.31936 Y3.32835 I0.35395 J-0.19279
G1 X7.37243 Y6.61345
X7.40176 Y6.66583
X7.37961 Y6.73746
X6.42707 Y7.65948
X6.19285 Y7.82922
G0 Z5.
X5.60601 Y7.01952
G1 Z-0.25 F179.
X5.05187 Y6.01981 F716.
X5.93974 Y6.73945
X5.78265 Y6.8915
X5.60601 Y7.01952
X5.89943 Y7.42437
X5.44237 Y7.75563
X3.36601 Y4.00977
X6.6929 Y6.70629
X6.10486 Y7.27549
X5.89943 Y7.42437
X6.19285 Y7.82922
X5.27873 Y8.49174
X2.68275 Y3.80847
G03 X3.31936 Y3.32835 I0.35395 J-0.19279
G1 X7.37243 Y6.61345
X7.40176 Y6.66583
X7.37961 Y6.73746
X6.42707 Y7.65948
X6.19285 Y7.82922
Z0.35 F1074.
G0 Z5.
X0.46482 Y8.52261
G1 Z2.2625 F179.
Z1.6625 F537.
X0.54837 Y7.84211 Z1.54161
X0.84354 Y8.94368 Z1.34052
X0.62754 Y8.9743 Z1.30206
X0.40939 Y8.97404 Z1.26359
X0.54837 Y7.84211 Z1.0625
X0.84354 Y8.94368 F716.
X0.62754 Y8.9743
X0.40939 Y8.97404
X0.54837 Y7.84211
X0.0521 Y7.78118
X0.36558 Y5.22808
X1.4726 Y9.35952
X0.66251 Y9.47434
X-0.15568 Y9.47338
X0.0521 Y7.78118
X-0.44417 Y7.72025
X-0.06799 Y4.65652
G03 X0.61627 Y4.4269 I0.39701 J0.04875
G1 X0.72857 Y4.6509
X2.07713 Y9.6838
X2.07007 Y9.74341
X2.01005 Y9.78835
X0.69748 Y9.97438
X-0.72074 Y9.97272
X-0.44417 Y7.72025
G0 Z5.
X0.54837 Y7.84211
G1 Z0.625 F179.
X0.84354 Y8.94368 F716.
X0.62754 Y8.9743
X0.40939 Y8.97404
X0.54837 Y7.84211
X0.0521 Y7.78118
X0.36558 Y5.22808
X1.4726 Y9.35952
X0.66251 Y9.47434
X-0.15568 Y9.47338
X0.0521 Y7.78118
X-0.44417 Y7.72025
X-0.06799 Y4.65652
G03 X0.61627 Y4.4269 I0.39701 J0.04875
G1 X0.72857 Y4.6509
X2.07713 Y9.6838
X2.07007 Y9.74341
X2.01005 Y9.78835
X0.69748 Y9.97438
X-0.72074 Y9.97272
X-0.44417 Y7.72025
G0 Z5.
X0.54837 Y7.84211
G1 Z0.1875 F179.
X0.84354 Y8.94368 F716.
X0.62754 Y8.9743
X0.40939 Y8.97404
X0.54837 Y7.84211
X0.0521 Y7.78118
X0.36558 Y5.22808
X1.4726 Y9.35952
X0.66251 Y9.47434
X-0.15568 Y9.47338
X0.0521 Y7.78118
X-0.44417 Y7.72025
X-0.06799 Y4.65652
G03 X0.61627 Y4.4269 I0.39701 J0.04875
G1 X0.72857 Y4.6509
X2.07713 Y9.6838
X2.07007 Y9.74341
X2.01005 Y9.78835
X0.69748 Y9.97438
X-0.72074 Y9.97272
X-0.44417 Y7.72025
G0 Z5.
X0.54837 Y7.84211
G1 Z-0.25 F179.
X0.84354 Y8.94368 F716.
X0.62754 Y8.9743
X0.40939 Y8.97404
X0.54837 Y7.84211
X0.0521 Y7.78118
X0.36558 Y5.22808
X1.4726 Y9.35952
X0.66251 Y9.47434
X-0.15568 Y9.47338
X0.0521 Y7.78118
X-0.44417 Y7.72025
X-0.06799 Y4.65652
G03 X0.61627 Y4.4269 I0.39701 J0.04875
G1 X0.72857 Y4.6509
X2.07713 Y9.6838
X2.07007 Y9.74341
X2.01005 Y9.78835
X0.69748 Y9.97438
X-0.72074 Y9.97272
X-0.44417 Y7.72025
Z0.35 F1074.
G0 Z5.
X-4.63342 Y7.16815
G1 Z2.2625 F179.
Z1.6625 F537.
X-4.16584 Y6.66673 Z1.54161
X-4.57453 Y7.73141 Z1.34052
X-4.76727 Y7.62922 Z1.30206
X-4.94361 Y7.50079 Z1.26359
X-4.16584 Y6.66673 Z1.0625
X-4.57453 Y7.73141 F716.
X-4.76727 Y7.62922
X-4.94361 Y7.50079
X-4.16584 Y6.66673
X-4.53151 Y6.32573
X-2.77722 Y4.44449
X-4.31003 Y8.43759
X-5.0329 Y8.05432
X-5.69426 Y7.57262
X-4.53151 Y6.32573
X-4.89719 Y5.98473
X-2.79204 Y3.72724
G03 X-2.10349 Y3.94368 I0.29254 J0.2728
G1 X-2.14431 Y4.1909
X-4.01156 Y9.05526
X-4.05231 Y9.09934
X-4.12728 Y9.10041
X-5.29852 Y8.47941
X-6.44491 Y7.64446
X-4.89719 Y5.98473
G0 Z5.
X-4.16584 Y6.66673
G1 Z0.625 F179.
X-4.57453 Y7.73141 F716.
X-4.76727 Y7.62922
X-4.94361 Y7.50079
X-4.16584 Y6.66673
X-4.53151 Y6.32573
X-2.77722 Y4.44449
X-4.31003 Y8.43759
X-5.0329 Y8.05432
X-5.69426 Y7.57262
X-4.53151 Y6.32573
X-4.89719 Y5.98473
X-2.79204 Y3.72724
G03 X-2.10349 Y3.94368 I0.29254 J0.2728
G1 X-2.14431 Y4.1909
X-4.01156 Y9.05526
X-4.05231 Y9.09934
X-4.12728 Y9.10041
X-5.29852 Y8.47941
X-6.44491 Y7.64446
X-4.89719 Y5.98473
G0 Z5.
X-4.16584 Y6.66673
G1 Z0.1875 F179.
X-4.57453 Y7.73141 F716.
X-4.76727 Y7.62922
X-4.94361 Y7.50079
X-4.16584 Y6.66673
X-4.53151 Y6.32573
X-2.77722 Y4.44449
X-4.31003 Y8.43759
X-5.0329 Y8.05432
X-5.69426 Y7.57262
X-4.53151 Y6.32573
X-4.89719 Y5.98473
X-2.79204 Y3.72724
G03 X-2.10349 Y3.94368 I0.29254 J0.2728
G1 X-2.14431 Y4.1909
X-4.01156 Y9.05526
X-4.05231 Y9.09934
X-4.12728 Y9.10041
X-5.29852 Y8.47941
X-6.44491 Y7.64446
X-4.89719 Y5.98473
G0 Z5.
X-4.16584 Y6.66673
G1 Z-0.25 F179.
X-4.57453 Y7.73141 F716.
X-4.76727 Y7.62922
X-4.94361 Y7.50079
X-4.16584 Y6.66673
X-4.53151 Y6.32573
X-2.77722 Y4.44449
X-4.31003 Y8.43759
X-5.0329 Y8.05432
X-5.69426 Y7.57262
X-4.53151 Y6.32573
X-4.89719 Y5.98473
X-2.79204 Y3.72724
G03 X-2.10349 Y3.94368 I0.29254 J0.2728
G1 X-2.14431 Y4.1909
X-4.01156 Y9.05526
X-4.05231 Y9.09934
X-4.12728 Y9.10041
X-5.29852 Y8.47941
X-6.44491 Y7.64446
X-4.89719 Y5.98473
Z0.35 F1074.
G0 Z5.
X-7.96185 Y3.0757
G1 Z2.2625 F179.
Z1.6625 F537.
X-7.28884 Y2.94488 Z1.54161
X-8.24528 Y3.566 Z1.34052
X-8.34114 Y3.37004 Z1.30206
X-8.40831 Y3.16249 Z1.26359
X-7.28884 Y2.94488 Z1.0625
X-8.24528 Y3.566 F716.
X-8.34114 Y3.37004
X-8.40831 Y3.16249
X-7.28884 Y2.94488
X-7.01652 Y3.36422
X-8.44638 Y4.29278
X-8.80591 Y3.55782
X-9.05783 Y2.77938
X-4.85923 Y1.96325
X-7.01652 Y3.36422
X-6.7442 Y3.78355
X-8.56797 Y4.96793
X-8.62685 Y4.97964
X-8.68813 Y4.93643
X-9.27067 Y3.74559
X-9.70734 Y2.39627
X-4.5197 Y1.3879
X-4.23433 Y1.41412
X-4.01938 Y1.58055
G03 X-4.15545 Y2.1024 I-0.35392 J0.18638
G1 X-6.7442 Y3.78355
G0 Z5.
X-7.28884 Y2.94488
G1 Z0.625 F179.
X-8.24528 Y3.566 F716.
X-8.34114 Y3.37004
X-8.40831 Y3.16249
X-7.28884 Y2.94488
X-7.01652 Y3.36422
X-8.44638 Y4.29278
X-8.80591 Y3.55782
X-9.05783 Y2.77938
X-4.85923 Y1.96325
X-7.01652 Y3.36422
X-6.7442 Y3.78355
X-8.56797 Y4.96793
X-8.62685 Y4.97964
X-8.68813 Y4.93643
X-9.27067 Y3.74559
X-9.70734 Y2.39627
X-4.5197 Y1.3879
X-4.23433 Y1.41412
X-4.01938 Y1.58055
G03 X-4.15545 Y2.1024 I-0.35392 J0.18638
G1 X-6.7442 Y3.78355
G0 Z5.
X-7.28884 Y2.94488
G1 Z0.1875 F179.
X-8.24528 Y3.566 F716.
X-8.34114 Y3.37004
X-8.40831 Y3.16249
X-7.28884 Y2.94488
X-7.01652 Y3.36422
X-8.44638 Y4.29278
X-8.80591 Y3.55782
X-9.05783 Y2.77938
X-4.85923 Y1.96325
X-7.01652 Y3.36422
X-6.7442 Y3.78355
X-8.56797 Y4.96793
X-8.62685 Y4.97964
X-8.68813 Y4.93643
X-9.27067 Y3.74559
X-9.70734 Y2.39627
X-4.5197 Y1.3879
X-4.23433 Y1.41412
X-4.01938 Y1.58055
G03 X-4.15545 Y2.1024 I-0.35392 J0.18638
G1 X-6.7442 Y3.78355
G0 Z5.
X-7.28884 Y2.94488
G1 Z-0.25 F179.
X-8.24528 Y3.566 F716.
X-8.34114 Y3.37004
X-8.40831 Y3.16249
X-7.28884 Y2.94488
X-7.01652 Y3.36422
X-8.44638 Y4.29278
X-8.80591 Y3.55782
X-9.05783 Y2.77938
X-4.85923 Y1.96325
X-7.01652 Y3.36422
X-6.7442 Y3.78355
X-8.56797 Y4.96793
X-8.62685 Y4.97964
X-8.68813 Y4.93643
X-9.27067 Y3.74559
X-9.70734 Y2.39627
X-4.5197 Y1.3879
X-4.23433 Y1.41412
X-4.01938 Y1.58055
G03 X-4.15545 Y2.1024 I-0.35392 J0.18638
G1 X-6.7442 Y3.78355
Z0.35 F1074.
G0 Z5.
X-8.08195 Y-1.92562
G1 Z2.2625 F179.
Z1.6625 F537.
X-8.76662 Y-1.9615 Z1.54161
X-8.72899 Y-2.17638 Z1.50314
X-8.66133 Y-2.38378 Z1.46468
X-7.62775 Y-1.90181 Z1.26359
X-8.76662 Y-1.9615 Z1.0625
X-8.72899 Y-2.17638 F716.
X-8.66133 Y-2.38378
X-7.62775 Y-1.90181
X-8.76662 Y-1.9615
X-9.25912 Y-2.04775
X-9.21536 Y-2.29765
X-8.96162 Y-3.07549
X-5.08517 Y-1.26788
X-9.35649 Y-1.49173
X-9.25912 Y-2.04775
X-9.75163 Y-2.13399
X-9.70173 Y-2.41891
X-9.2619 Y-3.76721
X-4.4076 Y-1.50361
G03 X-4.20913 Y-0.98319 I-0.16905 J0.36252
X-4.59758 Y-0.74164 I-0.36752 J-0.1579
G1 X-9.85171 Y-1.01699
X-9.90622 Y-1.04212
X-9.93041 Y-1.1131
X-9.75163 Y-2.13399
G0 Z5.
X-8.76662 Y-1.9615
G1 Z0.625 F179.
X-8.72899 Y-2.17638 F716.
X-8.66133 Y-2.38378
X-7.62775 Y-1.90181
X-8.76662 Y-1.9615
X-9.25912 Y-2.04775
X-9.21536 Y-2.29765
X-8.96162 Y-3.07549
X-5.08517 Y-1.26788
X-9.35649 Y-1.49173
X-9.25912 Y-2.04775
X-9.75163 Y-2.13399
X-9.70173 Y-2.41891
X-9.2619 Y-3.76721
X-4.4076 Y-1.50361
G03 X-4.20913 Y-0.98319 I-0.16905 J0.36252
X-4.59758 Y-0.74164 I-0.36752 J-0.1579
G1 X-9.85171 Y-1.01699
X-9.90622 Y-1.04212
X-9.93041 Y-1.1131
X-9.75163 Y-2.13399
G0 Z5.
X-8.76662 Y-1.9615
G1 Z0.1875 F179.
X-8.72899 Y-2.17638 F716.
X-8.66133 Y-2.38378
X-7.62775 Y-1.90181
X-8.76662 Y-1.9615
X-9.25912 Y-2.04775
X-9.21536 Y-2.29765
X-8.96162 Y-3.07549
X-5.08517 Y-1.26788
X-9.35649 Y-1.49173
X-9.25912 Y-2.04775
X-9.75163 Y-2.13399
X-9.70173 Y-2.41891
X-9.2619 Y-3.76721
X-4.4076 Y-1.50361
G03 X-4.20913 Y-0.98319 I-0.16905 J0.36252
X-4.59758 Y-0.74164 I-0.36752 J-0.1579
G1 X-9.85171 Y-1.01699
X-9.90622 Y-1.04212
X-9.93041 Y-1.1131
X-9.75163 Y-2.13399
G0 Z5.
X-8.76662 Y-1.9615
G1 Z-0.25 F179.
X-8.72899 Y-2.17638 F716.
X-8.66133 Y-2.38378
X-7.62775 Y-1.90181
X-8.76662 Y-1.9615
X-9.25912 Y-2.04775
X-9.21536 Y-2.29765
X-8.96162 Y-3.07549
X-5.08517 Y-1.26788
X-9.35649 Y-1.49173
X-9.25912 Y-2.04775
X-9.75163 Y-2.13399
X-9.70173 Y-2.41891
X-9.2619 Y-3.76721
X-4.4076 Y-1.50361
G03 X-4.20913 Y-0.98319 I-0.16905 J0.36252
X-4.59758 Y-0.74164 I-0.36752 J-0.1579
G1 X-9.85171 Y-1.01699
X-9.90622 Y-1.04212
X-9.93041 Y-1.1131
X-9.75163 Y-2.13399
Z0.35 F1074.
G0 Z5.
X-5.40659 Y-6.30831
G1 Z2.2625 F179.
Z1.6625 F537.
X-5.9394 Y-6.73977 Z1.54161
X-5.78265 Y-6.8915 Z1.50314
X-5.60602 Y-7.01952 Z1.46468
X-5.05312 Y-6.02208 Z1.26359
X-5.9394 Y-6.73977 Z1.0625
X-5.78265 Y-6.8915 F716.
X-5.60602 Y-7.01952
X-5.05312 Y-6.02208
X-5.9394 Y-6.73977
X-6.28715 Y-7.09904
X-6.10486 Y-7.27549
X-5.44237 Y-7.75563
X-3.36875 Y-4.01472
X-6.69275 Y-6.70644
X-6.28715 Y-7.09904
X-6.6349 Y-7.4583
X-6.42707 Y-7.65948
X-5.27873 Y-8.49174
X-2.71663 Y-3.8696
X-2.65339 Y-3.5901
X-2.74525 Y-3.33424
G03 X-3.2836 Y-3.30239 I-0.28662 J-0.27901
G1 X-7.37243 Y-6.61345
X-7.40176 Y-6.66583
X-7.37961 Y-6.73746
X-6.6349 Y-7.4583
G0 Z5.
X-5.9394 Y-6.73977
G1 Z0.625 F179.
X-5.78265 Y-6.8915 F716.
X-5.60602 Y-7.01952
X-5.05312 Y-6.02208
X-5.9394 Y-6.73977
X-6.28715 Y-7.09904
X-6.10486 Y-7.27549
X-5.44237 Y-7.75563
X-3.36875 Y-4.01472
X-6.69275 Y-6.70644
X-6.28715 Y-7.09904
X-6.6349 Y-7.4583
X-6.42707 Y-7.65948
X-5.27873 Y-8.49174
X-2.71663 Y-3.8696
X-2.65339 Y-3.5901
X-2.74525 Y-3.33424
G03 X-3.2836 Y-3.30239 I-0.28662 J-0.27901
G1 X-7.37243 Y-6.61345
X-7.40176 Y-6.66583
X-7.37961 Y-6.73746
X-6.6349 Y-7.4583
G0 Z5.
X-5.9394 Y-6.73977
G1 Z0.1875 F179.
X-5.78265 Y-6.8915 F716.
X-5.60602 Y-7.01952
X-5.05312 Y-6.02208
X-5.9394 Y-6.73977
X-6.28715 Y-7.09904
X-6.10486 Y-7.27549
X-5.44237 Y-7.75563
X-3.36875 Y-4.01472
X-6.69275 Y-6.70644
X-6.28715 Y-7.09904
X-6.6349 Y-7.4583
X-6.42707 Y-7.65948
X-5.27873 Y-8.49174
X-2.71663 Y-3.8696
X-2.65339 Y-3.5901
X-2.74525 Y-3.33424
G03 X-3.2836 Y-3.30239 I-0.28662 J-0.27901
G1 X-7.37243 Y-6.61345
X-7.40176 Y-6.66583
X-7.37961 Y-6.73746
X-6.6349 Y-7.4583
G0 Z5.
X-5.9394 Y-6.73977
G1 Z-0.25 F179.
X-5.78265 Y-6.8915 F716.
X-5.60602 Y-7.01952
X-5.05312 Y-6.02208
X-5.9394 Y-6.73977
X-6.28715 Y-7.09904
X-6.10486 Y-7.27549
X-5.44237 Y-7.75563
X-3.36875 Y-4.01472
X-6.69275 Y-6.70644
X-6.28715 Y-7.09904
X-6.6349 Y-7.4583
X-6.42707 Y-7.65948
X-5.27873 Y-8.49174
X-2.71663 Y-3.8696
X-2.65339 Y-3.5901
X-2.74525 Y-3.33424
G03 X-3.2836 Y-3.30239 I-0.28662 J-0.27901
G1 X-7.37243 Y-6.61345
X-7.40176 Y-6.66583
X-7.37961 Y-6.73746
X-6.6349 Y-7.4583
Z0.35 F1074.
G0 Z5.
X8.08195 Y1.92562
G1 Z2.2625 F179.
Z1.6625 F537.
X8.76662 Y1.9615 Z1.54161
X8.72899 Y2.17638 Z1.50314
X8.66133 Y2.38378 Z1.46468
X7.62775 Y1.90181 Z1.26359
X8.76662 Y1.9615 Z1.0625
X8.72899 Y2.17638 F716.
X8.66133 Y2.38378
X7.62775 Y1.90181
X8.76662 Y1.9615
X9.25912 Y2.04775
X9.21536 Y2.29765
X8.96162 Y3.07549
X5.08517 Y1.26787
X9.35649 Y1.49172
X9.25912 Y2.04775
X9.75163 Y2.13399
X9.70173 Y2.41891
X9.2619 Y3.76721
X4.4076 Y1.50361
G03 X4.59758 Y0.74163 I0.16905 J-0.36252
G1 X9.85171 Y1.01699
X9.90622 Y1.04212
X9.93041 Y1.1131
X9.75163 Y2.13399
G0 Z5.
X8.76662 Y1.9615
G1 Z0.625 F179.
X8.72899 Y2.17638 F716.
X8.66133 Y2.38378
X7.62775 Y1.90181
X8.76662 Y1.9615
X9.25912 Y2.04775
X9.21536 Y2.29765
X8.96162 Y3.07549
X5.08517 Y1.26787
X9.35649 Y1.49172
X9.25912 Y2.04775
X9.75163 Y2.13399
X9.70173 Y2.41891
X9.2619 Y3.76721
X4.4076 Y1.50361
G03 X4.59758 Y0.74163 I0.16905 J-0.36252
G1 X9.85171 Y1.01699
X9.90622 Y1.04212
X9.93041 Y1.1131
X9.75163 Y2.13399
G0 Z5.
X8.76662 Y1.9615
G1 Z0.1875 F179.
X8.72899 Y2.17638 F716.
X8.66133 Y2.38378
X7.62775 Y1.90181
X8.76662 Y1.9615
X9.25912 Y2.04775
X9.21536 Y2.29765
X8.96162 Y3.07549
X5.08517 Y1.26787
X9.35649 Y1.49172
X9.25912 Y2.04775
X9.75163 Y2.13399
X9.70173 Y2.41891
X9.2619 Y3.76721
X4.4076 Y1.50361
G03 X4.59758 Y0.74163 I0.16905 J-0.36252
G1 X9.85171 Y1.01699
X9.90622 Y1.04212
X9.93041 Y1.1131
X9.75163 Y2.13399
G0 Z5.
X8.76662 Y1.9615
G1 Z-0.25 F179.
X8.72899 Y2.17638 F716.
X8.66133 Y2.38378
X7.62775 Y1.90181
X8.76662 Y1.9615
X9.25912 Y2.04775
X9.21536 Y2.29765
X8.96162 Y3.07549
X5.08517 Y1.26787
X9.35649 Y1.49172
X9.25912 Y2.04775
X9.75163 Y2.13399
X9.70173 Y2.41891
X9.2619 Y3.76721
X4.4076 Y1.50361
G03 X4.59758 Y0.74163 I0.16905 J-0.36252
G1 X9.85171 Y1.01699
X9.90622 Y1.04212
X9.93041 Y1.1131
X9.75163 Y2.13399
Z0.35 F1074.
G0 Z5.
(2 1/2 Axis Profiling)
(SlotDrill 1mm Carbide)
X10.82933 Y-3.83286
G1 Z0.525 F119.2
G03 X9.62562 Y-6.29266 I-10.85561 J3.78782 F477.
X10.82933 Y-3.83286 I-9.00991 J5.93346
G1 Z0.3
G03 X9.62562 Y-6.29266 I-10.85561 J3.78782
X10.82933 Y-3.83286 I-9.00991 J5.93346
G1 Z0.075
G03 X9.62562 Y-6.29266 I-10.85561 J3.78782
X10.82933 Y-3.83286 I-9.00991 J5.93346
G1 Z-0.15
G03 X9.62562 Y-6.29266 I-10.85561 J3.78782
X10.82933 Y-3.83286 I-9.00991 J5.93346
G0 Z5.
M30
%
