%
G17 G21 G40 G90 G64 P0.1
(2 1/2 Axis Pocketing)
(SlotDrill 1mm Carbide)
T41 M06
S23873 M3
G0 Z5.
X-2.58336 Y-7.34402
G1 Z2.45 F179.
Z1.85 F537.
X-2.55739 Y-7.22186 Z1.82798
X-2.7018 Y-7.50527 Z1.77189
X-2.62353 Y-7.53298 Z1.75725
X-2.55739 Y-7.22186 Z1.70117
X-2.7018 Y-7.50527 Z1.64508
X-2.62353 Y-7.53298 Z1.63044
X-2.55739 Y-7.22186 Z1.57435
X-2.7018 Y-7.50527 Z1.51827
X-2.62353 Y-7.53298 Z1.50363
X-2.55739 Y-7.22186 Z1.44754
X-2.7018 Y-7.50527 Z1.39145
X-2.62353 Y-7.53298 Z1.37681
X-2.55739 Y-7.22186 Z1.32073
X-2.7018 Y-7.50527 Z1.26464
X-2.62353 Y-7.53298 Z1.25
X-2.55739 Y-7.22186 F716.
X-2.7018 Y-7.50527
X-2.62353 Y-7.53298
X-2.79043 Y-8.00431
X-2.25299 Y-8.19462
X-1.29516 Y-3.68839
X-1.2991 Y-3.65096
X-3.40614 Y-7.78627
X-2.79043 Y-8.00431
G0 Z5.
X-2.62353 Y-7.53298
G1 Z1. F179.
X-2.55739 Y-7.22186 F716.
X-2.7018 Y-7.50527
X-2.62353 Y-7.53298
X-2.79043 Y-8.00431
X-2.25299 Y-8.19462
X-1.29516 Y-3.68839
X-1.2991 Y-3.65096
X-3.40614 Y-7.78627
X-2.79043 Y-8.00431
G0 Z5.
X-2.62353 Y-7.53298
G1 Z0.75 F179.
X-2.55739 Y-7.22186 F716.
X-2.7018 Y-7.50527
X-2.62353 Y-7.53298
X-2.79043 Y-8.00431
X-2.25299 Y-8.19462
X-1.29516 Y-3.68839
X-1.2991 Y-3.65096
X-3.40614 Y-7.78627
X-2.79043 Y-8.00431
G0 Z5.
X-2.62353 Y-7.53298
G1 Z0.5 F179.
X-2.55739 Y-7.22186 F716.
X-2.7018 Y-7.50527
X-2.62353 Y-7.53298
X-2.79043 Y-8.00431
X-2.25299 Y-8.19462
X-1.29516 Y-3.68839
X-1.2991 Y-3.65096
X-3.40614 Y-7.78627
X-2.79043 Y-8.00431
G0 Z5.
X-2.62353 Y-7.53298
G1 Z0.25 F179.
X-2.55739 Y-7.22186 F716.
X-2.7018 Y-7.50527
X-2.62353 Y-7.53298
X-2.79043 Y-8.00431
X-2.25299 Y-8.19462
X-1.29516 Y-3.68839
X-1.2991 Y-3.65096
X-3.40614 Y-7.78627
X-2.79043 Y-8.00431
G0 Z5.
X-2.62353 Y-7.53298
G1 Z0. F179.
X-2.55739 Y-7.22186 F716.
X-2.7018 Y-7.50527
X-2.62353 Y-7.53298
X-2.79043 Y-8.00431
X-2.25299 Y-8.19462
X-1.29516 Y-3.68839
X-1.2991 Y-3.65096
X-3.40614 Y-7.78627
X-2.79043 Y-8.00431
G0 Z5.
X-2.62353 Y-7.53298
G1 Z-0.25 F179.
X-2.55739 Y-7.22186 F716.
X-2.7018 Y-7.50527
X-2.62353 Y-7.53298
X-2.79043 Y-8.00431
X-2.25299 Y-8.19462
X-1.29516 Y-3.68839
X-1.2991 Y-3.65096
X-3.40614 Y-7.78627
X-2.79043 Y-8.00431
Z0.35 F1074.
G0 Z5.
X1.46041 Y-7.73076
G1 Z2.45 F179.
Z1.85 F537.
X1.39616 Y-7.53301 Z1.81334
X1.41281 Y-7.85065 Z1.75725
X1.49445 Y-7.83552 Z1.74261
X1.39616 Y-7.53301 Z1.68652
X1.41281 Y-7.85065 Z1.63044
X1.49445 Y-7.83552 Z1.6158
X1.39616 Y-7.53301 Z1.55971
X1.41281 Y-7.85065 Z1.50363
X1.49445 Y-7.83552 Z1.48898
X1.39616 Y-7.53301 Z1.4329
X1.41281 Y-7.85065 Z1.37681
X1.49445 Y-7.83552 Z1.36217
X1.39616 Y-7.53301 Z1.30609
X1.41281 Y-7.85065 Z1.25
X1.49445 Y-7.83552 F716.
X1.39616 Y-7.53301
X1.41281 Y-7.85065
X0.91349 Y-7.87682
X0.94333 Y-8.44618
X2.14616 Y-8.22325
X0.69808 Y-3.7665
X0.91349 Y-7.87682
G0 Z5.
X1.41281 Y-7.85065
G1 Z1. F179.
X1.49445 Y-7.83552 F716.
X1.39616 Y-7.53301
X1.41281 Y-7.85065
X0.91349 Y-7.87682
X0.94333 Y-8.44618
X2.14616 Y-8.22325
X0.69808 Y-3.7665
X0.91349 Y-7.87682
G0 Z5.
X1.41281 Y-7.85065
G1 Z0.75 F179.
X1.49445 Y-7.83552 F716.
X1.39616 Y-7.53301
X1.41281 Y-7.85065
X0.91349 Y-7.87682
X0.94333 Y-8.44618
X2.14616 Y-8.22325
X0.69808 Y-3.7665
X0.91349 Y-7.87682
G0 Z5.
X1.41281 Y-7.85065
G1 Z0.5 F179.
X1.49445 Y-7.83552 F716.
X1.39616 Y-7.53301
X1.41281 Y-7.85065
X0.91349 Y-7.87682
X0.94333 Y-8.44618
X2.14616 Y-8.22325
X0.69808 Y-3.7665
X0.91349 Y-7.87682
G0 Z5.
X1.41281 Y-7.85065
G1 Z0.25 F179.
X1.49445 Y-7.83552 F716.
X1.39616 Y-7.53301
X1.41281 Y-7.85065
X0.91349 Y-7.87682
X0.94333 Y-8.44618
X2.14616 Y-8.22325
X0.69808 Y-3.7665
X0.91349 Y-7.87682
G0 Z5.
X1.41281 Y-7.85065
G1 Z0. F179.
X1.49445 Y-7.83552 F716.
X1.39616 Y-7.53301
X1.41281 Y-7.85065
X0.91349 Y-7.87682
X0.94333 Y-8.44618
X2.14616 Y-8.22325
X0.69808 Y-3.7665
X0.91349 Y-7.87682
G0 Z5.
X1.41281 Y-7.85065
G1 Z-0.25 F179.
X1.49445 Y-7.83552 F716.
X1.39616 Y-7.53301
X1.41281 Y-7.85065
X0.91349 Y-7.87682
X0.94333 Y-8.44618
X2.14616 Y-8.22325
X0.69808 Y-3.7665
X0.91349 Y-7.87682
Z0.35 F1074.
G0 Z5.
X-5.98772 Y-5.08083
G1 Z2.45 F179.
Z1.85 F537.
X-6.09246 Y-5.14885 Z1.82798
X-6.03853 Y-5.21199 Z1.81334
X-5.8257 Y-4.97561 Z1.75725
X-6.09246 Y-5.14885 Z1.70117
X-6.03853 Y-5.21199 Z1.68652
X-5.8257 Y-4.97561 Z1.63044
X-6.09246 Y-5.14885 Z1.57435
X-6.03853 Y-5.21199 Z1.55971
X-5.8257 Y-4.97561 Z1.50363
X-6.09246 Y-5.14885 Z1.44754
X-6.03853 Y-5.21199 Z1.4329
X-5.8257 Y-4.97561 Z1.37681
X-6.09246 Y-5.14885 Z1.32073
X-6.03853 Y-5.21199 Z1.30609
X-5.8257 Y-4.97561 Z1.25
X-6.09246 Y-5.14885 F716.
X-6.03853 Y-5.21199
X-5.8257 Y-4.97561
X-6.09802 Y-4.55628
X-6.84294 Y-5.04004
X-6.04846 Y-5.97026
X-2.96584 Y-2.54666
X-2.95053 Y-2.51228
X-6.09802 Y-4.55628
G0 Z5.
X-5.8257 Y-4.97561
G1 Z1. F179.
X-6.09246 Y-5.14885 F716.
X-6.03853 Y-5.21199
X-5.8257 Y-4.97561
X-6.09802 Y-4.55628
X-6.84294 Y-5.04004
X-6.04846 Y-5.97026
X-2.96584 Y-2.54666
X-2.95053 Y-2.51228
X-6.09802 Y-4.55628
G0 Z5.
X-5.8257 Y-4.97561
G1 Z0.75 F179.
X-6.09246 Y-5.14885 F716.
X-6.03853 Y-5.21199
X-5.8257 Y-4.97561
X-6.09802 Y-4.55628
X-6.84294 Y-5.04004
X-6.04846 Y-5.97026
X-2.96584 Y-2.54666
X-2.95053 Y-2.51228
X-6.09802 Y-4.55628
G0 Z5.
X-5.8257 Y-4.97561
G1 Z0.5 F179.
X-6.09246 Y-5.14885 F716.
X-6.03853 Y-5.21199
X-5.8257 Y-4.97561
X-6.09802 Y-4.55628
X-6.84294 Y-5.04004
X-6.04846 Y-5.97026
X-2.96584 Y-2.54666
X-2.95053 Y-2.51228
X-6.09802 Y-4.55628
G0 Z5.
X-5.8257 Y-4.97561
G1 Z0.25 F179.
X-6.09246 Y-5.14885 F716.
X-6.03853 Y-5.21199
X-5.8257 Y-4.97561
X-6.09802 Y-4.55628
X-6.84294 Y-5.04004
X-6.04846 Y-5.97026
X-2.96584 Y-2.54666
X-2.95053 Y-2.51228
X-6.09802 Y-4.55628
G0 Z5.
X-5.8257 Y-4.97561
G1 Z0. F179.
X-6.09246 Y-5.14885 F716.
X-6.03853 Y-5.21199
X-5.8257 Y-4.97561
X-6.09802 Y-4.55628
X-6.84294 Y-5.04004
X-6.04846 Y-5.97026
X-2.96584 Y-2.54666
X-2.95053 Y-2.51228
X-6.09802 Y-4.55628
G0 Z5.
X-5.8257 Y-4.97561
G1 Z-0.25 F179.
X-6.09246 Y-5.14885 F716.
X-6.03853 Y-5.21199
X-5.8257 Y-4.97561
X-6.09802 Y-4.55628
X-6.84294 Y-5.04004
X-6.04846 Y-5.97026
X-2.96584 Y-2.54666
X-2.95053 Y-2.51228
X-6.09802 Y-4.55628
Z0.35 F1074.
G0 Z5.
X-7.73076 Y-1.46041
G1 Z2.45 F179.
Z1.85 F537.
X-7.53301 Y-1.39616 Z1.81334
X-7.85065 Y-1.41281 Z1.75725
X-7.83552 Y-1.49445 Z1.74261
X-7.53301 Y-1.39616 Z1.68652
X-7.85065 Y-1.41281 Z1.63044
X-7.83552 Y-1.49445 Z1.6158
X-7.53301 Y-1.39616 Z1.55971
X-7.85065 Y-1.41281 Z1.50363
X-7.83552 Y-1.49445 Z1.48898
X-7.53301 Y-1.39616 Z1.4329
X-7.85065 Y-1.41281 Z1.37681
X-7.83552 Y-1.49445 Z1.36217
X-7.53301 Y-1.39616 Z1.30609
X-7.85065 Y-1.41281 Z1.25
X-7.83552 Y-1.49445 F716.
X-7.53301 Y-1.39616
X-7.85065 Y-1.41281
X-8.34228 Y-1.50392
X-8.22325 Y-2.14616
X-3.84182 Y-0.72255
X-3.81137 Y-0.70043
X-8.44618 Y-0.94333
X-8.34228 Y-1.50392
G0 Z5.
X-7.85065 Y-1.41281
G1 Z1. F179.
X-7.83552 Y-1.49445 F716.
X-7.53301 Y-1.39616
X-7.85065 Y-1.41281
X-8.34228 Y-1.50392
X-8.22325 Y-2.14616
X-3.84182 Y-0.72255
X-3.81137 Y-0.70043
X-8.44618 Y-0.94333
X-8.34228 Y-1.50392
G0 Z5.
X-7.85065 Y-1.41281
G1 Z0.75 F179.
X-7.83552 Y-1.49445 F716.
X-7.53301 Y-1.39616
X-7.85065 Y-1.41281
X-8.34228 Y-1.50392
X-8.22325 Y-2.14616
X-3.84182 Y-0.72255
X-3.81137 Y-0.70043
X-8.44618 Y-0.94333
X-8.34228 Y-1.50392
G0 Z5.
X-7.85065 Y-1.41281
G1 Z0.5 F179.
X-7.83552 Y-1.49445 F716.
X-7.53301 Y-1.39616
X-7.85065 Y-1.41281
X-8.34228 Y-1.50392
X-8.22325 Y-2.14616
X-3.84182 Y-0.72255
X-3.81137 Y-0.70043
X-8.44618 Y-0.94333
X-8.34228 Y-1.50392
G0 Z5.
X-7.85065 Y-1.41281
G1 Z0.25 F179.
X-7.83552 Y-1.49445 F716.
X-7.53301 Y-1.39616
X-7.85065 Y-1.41281
X-8.34228 Y-1.50392
X-8.22325 Y-2.14616
X-3.84182 Y-0.72255
X-3.81137 Y-0.70043
X-8.44618 Y-0.94333
X-8.34228 Y-1.50392
G0 Z5.
X-7.85065 Y-1.41281
G1 Z0. F179.
X-7.83552 Y-1.49445 F716.
X-7.53301 Y-1.39616
X-7.85065 Y-1.41281
X-8.34228 Y-1.50392
X-8.22325 Y-2.14616
X-3.84182 Y-0.72255
X-3.81137 Y-0.70043
X-8.44618 Y-0.94333
X-8.34228 Y-1.50392
G0 Z5.
X-7.85065 Y-1.41281
G1 Z-0.25 F179.
X-7.83552 Y-1.49445 F716.
X-7.53301 Y-1.39616
X-7.85065 Y-1.41281
X-8.34228 Y-1.50392
X-8.22325 Y-2.14616
X-3.84182 Y-0.72255
X-3.81137 Y-0.70043
X-8.44618 Y-0.94333
X-8.34228 Y-1.50392
Z0.35 F1074.
G0 Z5.
X-7.42524 Y2.60062
G1 Z2.45 F179.
Z1.85 F537.
X-7.22186 Y2.55739 Z1.81334
X-7.50527 Y2.7018 Z1.75725
X-7.53298 Y2.62353 Z1.74261
X-7.22186 Y2.55739 Z1.68652
X-7.50527 Y2.7018 Z1.63044
X-7.53298 Y2.62353 Z1.6158
X-7.22186 Y2.55739 Z1.55971
X-7.50527 Y2.7018 Z1.50363
X-7.53298 Y2.62353 Z1.48898
X-7.22186 Y2.55739 Z1.4329
X-7.50527 Y2.7018 Z1.37681
X-7.53298 Y2.62353 Z1.36217
X-7.22186 Y2.55739 Z1.30609
X-7.50527 Y2.7018 Z1.25
X-7.53298 Y2.62353 F716.
X-7.22186 Y2.55739
X-7.50527 Y2.7018
X-7.27827 Y3.1473
X-7.78627 Y3.40614
X-8.19462 Y2.25299
X-3.68839 Y1.29516
X-3.65096 Y1.2991
X-7.27827 Y3.1473
G0 Z5.
X-7.50527 Y2.7018
G1 Z1. F179.
X-7.53298 Y2.62353 F716.
X-7.22186 Y2.55739
X-7.50527 Y2.7018
X-7.27827 Y3.1473
X-7.78627 Y3.40614
X-8.19462 Y2.25299
X-3.68839 Y1.29516
X-3.65096 Y1.2991
X-7.27827 Y3.1473
G0 Z5.
X-7.50527 Y2.7018
G1 Z0.75 F179.
X-7.53298 Y2.62353 F716.
X-7.22186 Y2.55739
X-7.50527 Y2.7018
X-7.27827 Y3.1473
X-7.78627 Y3.40614
X-8.19462 Y2.25299
X-3.68839 Y1.29516
X-3.65096 Y1.2991
X-7.27827 Y3.1473
G0 Z5.
X-7.50527 Y2.7018
G1 Z0.5 F179.
X-7.53298 Y2.62353 F716.
X-7.22186 Y2.55739
X-7.50527 Y2.7018
X-7.27827 Y3.1473
X-7.78627 Y3.40614
X-8.19462 Y2.25299
X-3.68839 Y1.29516
X-3.65096 Y1.2991
X-7.27827 Y3.1473
G0 Z5.
X-7.50527 Y2.7018
G1 Z0.25 F179.
X-7.53298 Y2.62353 F716.
X-7.22186 Y2.55739
X-7.50527 Y2.7018
X-7.27827 Y3.1473
X-7.78627 Y3.40614
X-8.19462 Y2.25299
X-3.68839 Y1.29516
X-3.65096 Y1.2991
X-7.27827 Y3.1473
G0 Z5.
X-7.50527 Y2.7018
G1 Z0. F179.
X-7.53298 Y2.62353 F716.
X-7.22186 Y2.55739
X-7.50527 Y2.7018
X-7.27827 Y3.1473
X-7.78627 Y3.40614
X-8.19462 Y2.25299
X-3.68839 Y1.29516
X-3.65096 Y1.2991
X-7.27827 Y3.1473
G0 Z5.
X-7.50527 Y2.7018
G1 Z-0.25 F179.
X-7.53298 Y2.62353 F716.
X-7.22186 Y2.55739
X-7.50527 Y2.7018
X-7.27827 Y3.1473
X-7.78627 Y3.40614
X-8.19462 Y2.25299
X-3.68839 Y1.29516
X-3.65096 Y1.2991
X-7.27827 Y3.1473
Z0.35 F1074.
G0 Z5.
X-5.08083 Y5.98772
G1 Z2.45 F179.
Z1.85 F537.
X-5.14885 Y6.09246 Z1.82798
X-5.21199 Y6.03853 Z1.81334
X-4.97561 Y5.8257 Z1.75725
X-5.14885 Y6.09246 Z1.70117
X-5.21199 Y6.03853 Z1.68652
X-4.97561 Y5.8257 Z1.63044
X-5.14885 Y6.09246 Z1.57435
X-5.21199 Y6.03853 Z1.55971
X-4.97561 Y5.8257 Z1.50363
X-5.14885 Y6.09246 Z1.44754
X-5.21199 Y6.03853 Z1.4329
X-4.97561 Y5.8257 Z1.37681
X-5.14885 Y6.09246 Z1.32073
X-5.21199 Y6.03853 Z1.30609
X-4.97561 Y5.8257 Z1.25
X-5.14885 Y6.09246 F716.
X-5.21199 Y6.03853
X-4.97561 Y5.8257
X-4.55628 Y6.09802
X-5.04004 Y6.84294
X-5.97026 Y6.04846
X-2.48781 Y2.91285
X-4.55628 Y6.09802
G0 Z5.
X-4.97561 Y5.8257
G1 Z1. F179.
X-5.14885 Y6.09246 F716.
X-5.21199 Y6.03853
X-4.97561 Y5.8257
X-4.55628 Y6.09802
X-5.04004 Y6.84294
X-5.97026 Y6.04846
X-2.48781 Y2.91285
X-4.55628 Y6.09802
G0 Z5.
X-4.97561 Y5.8257
G1 Z0.75 F179.
X-5.14885 Y6.09246 F716.
X-5.21199 Y6.03853
X-4.97561 Y5.8257
X-4.55628 Y6.09802
X-5.04004 Y6.84294
X-5.97026 Y6.04846
X-2.48781 Y2.91285
X-4.55628 Y6.09802
G0 Z5.
X-4.97561 Y5.8257
G1 Z0.5 F179.
X-5.14885 Y6.09246 F716.
X-5.21199 Y6.03853
X-4.97561 Y5.8257
X-4.55628 Y6.09802
X-5.04004 Y6.84294
X-5.97026 Y6.04846
X-2.48781 Y2.91285
X-4.55628 Y6.09802
G0 Z5.
X-4.97561 Y5.8257
G1 Z0.25 F179.
X-5.14885 Y6.09246 F716.
X-5.21199 Y6.03853
X-4.97561 Y5.8257
X-4.55628 Y6.09802
X-5.04004 Y6.84294
X-5.97026 Y6.04846
X-2.48781 Y2.91285
X-4.55628 Y6.09802
G0 Z5.
X-4.97561 Y5.8257
G1 Z0. F179.
X-5.14885 Y6.09246 F716.
X-5.21199 Y6.03853
X-4.97561 Y5.8257
X-4.55628 Y6.09802
X-5.04004 Y6.84294
X-5.97026 Y6.04846
X-2.48781 Y2.91285
X-4.55628 Y6.09802
G0 Z5.
X-4.97561 Y5.8257
G1 Z-0.25 F179.
X-5.14885 Y6.09246 F716.
X-5.21199 Y6.03853
X-4.97561 Y5.8257
X-4.55628 Y6.09802
X-5.04004 Y6.84294
X-5.97026 Y6.04846
X-2.48781 Y2.91285
X-4.55628 Y6.09802
Z0.35 F1074.
G0 Z5.
X2.58336 Y7.34402
G1 Z2.45 F179.
Z1.85 F537.
X2.55739 Y7.22186 Z1.82798
X2.7018 Y7.50527 Z1.77189
X2.62353 Y7.53298 Z1.75725
X2.55739 Y7.22186 Z1.70117
X2.7018 Y7.50527 Z1.64508
X2.62353 Y7.53298 Z1.63044
X2.55739 Y7.22186 Z1.57435
X2.7018 Y7.50527 Z1.51827
X2.62353 Y7.53298 Z1.50363
X2.55739 Y7.22186 Z1.44754
X2.7018 Y7.50527 Z1.39145
X2.62353 Y7.53298 Z1.37681
X2.55739 Y7.22186 Z1.32073
X2.7018 Y7.50527 Z1.26464
X2.62353 Y7.53298 Z1.25
X2.55739 Y7.22186 F716.
X2.7018 Y7.50527
X2.62353 Y7.53298
X2.79043 Y8.0043
X2.25299 Y8.19462
X1.28296 Y3.63097
X1.3018 Y3.65628
X3.40614 Y7.78627
X2.79043 Y8.0043
G0 Z5.
X2.62353 Y7.53298
G1 Z1. F179.
X2.55739 Y7.22186 F716.
X2.7018 Y7.50527
X2.62353 Y7.53298
X2.79043 Y8.0043
X2.25299 Y8.19462
X1.28296 Y3.63097
X1.3018 Y3.65628
X3.40614 Y7.78627
X2.79043 Y8.0043
G0 Z5.
X2.62353 Y7.53298
G1 Z0.75 F179.
X2.55739 Y7.22186 F716.
X2.7018 Y7.50527
X2.62353 Y7.53298
X2.79043 Y8.0043
X2.25299 Y8.19462
X1.28296 Y3.63097
X1.3018 Y3.65628
X3.40614 Y7.78627
X2.79043 Y8.0043
G0 Z5.
X2.62353 Y7.53298
G1 Z0.5 F179.
X2.55739 Y7.22186 F716.
X2.7018 Y7.50527
X2.62353 Y7.53298
X2.79043 Y8.0043
X2.25299 Y8.19462
X1.28296 Y3.63097
X1.3018 Y3.65628
X3.40614 Y7.78627
X2.79043 Y8.0043
G0 Z5.
X2.62353 Y7.53298
G1 Z0.25 F179.
X2.55739 Y7.22186 F716.
X2.7018 Y7.50527
X2.62353 Y7.53298
X2.79043 Y8.0043
X2.25299 Y8.19462
X1.28296 Y3.63097
X1.3018 Y3.65628
X3.40614 Y7.78627
X2.79043 Y8.0043
G0 Z5.
X2.62353 Y7.53298
G1 Z0. F179.
X2.55739 Y7.22186 F716.
X2.7018 Y7.50527
X2.62353 Y7.53298
X2.79043 Y8.0043
X2.25299 Y8.19462
X1.28296 Y3.63097
X1.3018 Y3.65628
X3.40614 Y7.78627
X2.79043 Y8.0043
G0 Z5.
X2.62353 Y7.53298
G1 Z-0.25 F179.
X2.55739 Y7.22186 F716.
X2.7018 Y7.50527
X2.62353 Y7.53298
X2.79043 Y8.0043
X2.25299 Y8.19462
X1.28296 Y3.63097
X1.3018 Y3.65628
X3.40614 Y7.78627
X2.79043 Y8.0043
Z0.35 F1074.
G0 Z5.
X5.90926 Y5.06843
G1 Z2.45 F179.
Z1.85 F537.
X5.8257 Y4.97561 Z1.82798
X6.09246 Y5.14885 Z1.77189
X6.03853 Y5.21199 Z1.75725
X5.8257 Y4.97561 Z1.70117
X6.09246 Y5.14885 Z1.64508
X6.03853 Y5.21199 Z1.63044
X5.8257 Y4.97561 Z1.57435
X6.09246 Y5.14885 Z1.51827
X6.03853 Y5.21199 Z1.50363
X5.8257 Y4.97561 Z1.44754
X6.09246 Y5.14885 Z1.39145
X6.03853 Y5.21199 Z1.37681
X5.8257 Y4.97561 Z1.32073
X6.09246 Y5.14885 Z1.26464
X6.03853 Y5.21199 Z1.25
X5.8257 Y4.97561 F716.
X6.09246 Y5.14885
X6.03853 Y5.21199
X5.66696 Y5.54656
X2.91285 Y2.48781
X6.84294 Y5.04004
X6.04846 Y5.97026
X5.66696 Y5.54656
G0 Z5.
X6.03853 Y5.21199
G1 Z1. F179.
X5.8257 Y4.97561 F716.
X6.09246 Y5.14885
X6.03853 Y5.21199
X5.66696 Y5.54656
X2.91285 Y2.48781
X6.84294 Y5.04004
X6.04846 Y5.97026
X5.66696 Y5.54656
G0 Z5.
X6.03853 Y5.21199
G1 Z0.75 F179.
X5.8257 Y4.97561 F716.
X6.09246 Y5.14885
X6.03853 Y5.21199
X5.66696 Y5.54656
X2.91285 Y2.48781
X6.84294 Y5.04004
X6.04846 Y5.97026
X5.66696 Y5.54656
G0 Z5.
X6.03853 Y5.21199
G1 Z0.5 F179.
X5.8257 Y4.97561 F716.
X6.09246 Y5.14885
X6.03853 Y5.21199
X5.66696 Y5.54656
X2.91285 Y2.48781
X6.84294 Y5.04004
X6.04846 Y5.97026
X5.66696 Y5.54656
G0 Z5.
X6.03853 Y5.21199
G1 Z0.25 F179.
X5.8257 Y4.97561 F716.
X6.09246 Y5.14885
X6.03853 Y5.21199
X5.66696 Y5.54656
X2.91285 Y2.48781
X6.84294 Y5.04004
X6.04846 Y5.97026
X5.66696 Y5.54656
G0 Z5.
X6.03853 Y5.21199
G1 Z0. F179.
X5.8257 Y4.97561 F716.
X6.09246 Y5.14885
X6.03853 Y5.21199
X5.66696 Y5.54656
X2.91285 Y2.48781
X6.84294 Y5.04004
X6.04846 Y5.97026
X5.66696 Y5.54656
G0 Z5.
X6.03853 Y5.21199
G1 Z-0.25 F179.
X5.8257 Y4.97561 F716.
X6.09246 Y5.14885
X6.03853 Y5.21199
X5.66696 Y5.54656
X2.91285 Y2.48781
X6.84294 Y5.04004
X6.04846 Y5.97026
X5.66696 Y5.54656
Z0.35 F1074.
G0 Z5.
X7.72593 Y1.40627
G1 Z2.45 F179.
Z1.85 F537.
X7.85065 Y1.41281 Z1.82798
X7.83552 Y1.49445 Z1.81334
X7.53301 Y1.39616 Z1.75725
X7.85065 Y1.41281 Z1.70117
X7.83552 Y1.49445 Z1.68652
X7.53301 Y1.39616 Z1.63044
X7.85065 Y1.41281 Z1.57435
X7.83552 Y1.49445 Z1.55971
X7.53301 Y1.39616 Z1.50363
X7.85065 Y1.41281 Z1.44754
X7.83552 Y1.49445 Z1.4329
X7.53301 Y1.39616 Z1.37681
X7.85065 Y1.41281 Z1.32073
X7.83552 Y1.49445 Z1.30609
X7.53301 Y1.39616 Z1.25
X7.85065 Y1.41281 F716.
X7.83552 Y1.49445
X7.53301 Y1.39616
X7.3785 Y1.87169
X3.7665 Y0.69808
X8.44618 Y0.94333
X8.22325 Y2.14616
X7.3785 Y1.87169
G0 Z5.
X7.53301 Y1.39616
G1 Z1. F179.
X7.85065 Y1.41281 F716.
X7.83552 Y1.49445
X7.53301 Y1.39616
X7.3785 Y1.87169
X3.7665 Y0.69808
X8.44618 Y0.94333
X8.22325 Y2.14616
X7.3785 Y1.87169
G0 Z5.
X7.53301 Y1.39616
G1 Z0.75 F179.
X7.85065 Y1.41281 F716.
X7.83552 Y1.49445
X7.53301 Y1.39616
X7.3785 Y1.87169
X3.7665 Y0.69808
X8.44618 Y0.94333
X8.22325 Y2.14616
X7.3785 Y1.87169
G0 Z5.
X7.53301 Y1.39616
G1 Z0.5 F179.
X7.85065 Y1.41281 F716.
X7.83552 Y1.49445
X7.53301 Y1.39616
X7.3785 Y1.87169
X3.7665 Y0.69808
X8.44618 Y0.94333
X8.22325 Y2.14616
X7.3785 Y1.87169
G0 Z5.
X7.53301 Y1.39616
G1 Z0.25 F179.
X7.85065 Y1.41281 F716.
X7.83552 Y1.49445
X7.53301 Y1.39616
X7.3785 Y1.87169
X3.7665 Y0.69808
X8.44618 Y0.94333
X8.22325 Y2.14616
X7.3785 Y1.87169
G0 Z5.
X7.53301 Y1.39616
G1 Z0. F179.
X7.85065 Y1.41281 F716.
X7.83552 Y1.49445
X7.53301 Y1.39616
X7.3785 Y1.87169
X3.7665 Y0.69808
X8.44618 Y0.94333
X8.22325 Y2.14616
X7.3785 Y1.87169
G0 Z5.
X7.53301 Y1.39616
G1 Z-0.25 F179.
X7.85065 Y1.41281 F716.
X7.83552 Y1.49445
X7.53301 Y1.39616
X7.3785 Y1.87169
X3.7665 Y0.69808
X8.44618 Y0.94333
X8.22325 Y2.14616
X7.3785 Y1.87169
Z0.35 F1074.
G0 Z5.
X7.39399 Y-2.6451
G1 Z2.45 F179.
Z1.85 F537.
X7.50527 Y-2.7018 Z1.82798
X7.53298 Y-2.62353 Z1.81334
X7.22186 Y-2.55739 Z1.75725
X7.50527 Y-2.7018 Z1.70117
X7.53298 Y-2.62353 Z1.68652
X7.22186 Y-2.55739 Z1.63044
X7.50527 Y-2.7018 Z1.57435
X7.53298 Y-2.62353 Z1.55971
X7.22186 Y-2.55739 Z1.50363
X7.50527 Y-2.7018 Z1.44754
X7.53298 Y-2.62353 Z1.4329
X7.22186 Y-2.55739 Z1.37681
X7.50527 Y-2.7018 Z1.32073
X7.53298 Y-2.62353 Z1.30609
X7.22186 Y-2.55739 Z1.25
X7.50527 Y-2.7018 F716.
X7.53298 Y-2.62353
X7.22186 Y-2.55739
X6.99486 Y-3.0029
X7.78627 Y-3.40614
X8.19462 Y-2.25299
X3.61093 Y-1.2787
X6.99486 Y-3.0029
G0 Z5.
X7.22186 Y-2.55739
G1 Z1. F179.
X7.50527 Y-2.7018 F716.
X7.53298 Y-2.62353
X7.22186 Y-2.55739
X6.99486 Y-3.0029
X7.78627 Y-3.40614
X8.19462 Y-2.25299
X3.61093 Y-1.2787
X6.99486 Y-3.0029
G0 Z5.
X7.22186 Y-2.55739
G1 Z0.75 F179.
X7.50527 Y-2.7018 F716.
X7.53298 Y-2.62353
X7.22186 Y-2.55739
X6.99486 Y-3.0029
X7.78627 Y-3.40614
X8.19462 Y-2.25299
X3.61093 Y-1.2787
X6.99486 Y-3.0029
G0 Z5.
X7.22186 Y-2.55739
G1 Z0.5 F179.
X7.50527 Y-2.7018 F716.
X7.53298 Y-2.62353
X7.22186 Y-2.55739
X6.99486 Y-3.0029
X7.78627 Y-3.40614
X8.19462 Y-2.25299
X3.61093 Y-1.2787
X6.99486 Y-3.0029
G0 Z5.
X7.22186 Y-2.55739
G1 Z0.25 F179.
X7.50527 Y-2.7018 F716.
X7.53298 Y-2.62353
X7.22186 Y-2.55739
X6.99486 Y-3.0029
X7.78627 Y-3.40614
X8.19462 Y-2.25299
X3.61093 Y-1.2787
X6.99486 Y-3.0029
G0 Z5.
X7.22186 Y-2.55739
G1 Z0. F179.
X7.50527 Y-2.7018 F716.
X7.53298 Y-2.62353
X7.22186 Y-2.55739
X6.99486 Y-3.0029
X7.78627 Y-3.40614
X8.19462 Y-2.25299
X3.61093 Y-1.2787
X6.99486 Y-3.0029
G0 Z5.
X7.22186 Y-2.55739
G1 Z-0.25 F179.
X7.50527 Y-2.7018 F716.
X7.53298 Y-2.62353
X7.22186 Y-2.55739
X6.99486 Y-3.0029
X7.78627 Y-3.40614
X8.19462 Y-2.25299
X3.61093 Y-1.2787
X6.99486 Y-3.0029
Z0.35 F1074.
G0 Z5.
X5.06843 Y-5.90926
G1 Z2.45 F179.
Z1.85 F537.
X4.97561 Y-5.8257 Z1.82798
X5.14885 Y-6.09246 Z1.77189
X5.21199 Y-6.03853 Z1.75725
X4.97561 Y-5.8257 Z1.70117
X5.14885 Y-6.09246 Z1.64508
X5.21199 Y-6.03853 Z1.63044
X4.97561 Y-5.8257 Z1.57435
X5.14885 Y-6.09246 Z1.51827
X5.21199 Y-6.03853 Z1.50363
X4.97561 Y-5.8257 Z1.44754
X5.14885 Y-6.09246 Z1.39145
X5.21199 Y-6.03853 Z1.37681
X4.97561 Y-5.8257 Z1.32073
X5.14885 Y-6.09246 Z1.26464
X5.21199 Y-6.03853 Z1.25
X4.97561 Y-5.8257 F716.
X5.14885 Y-6.09246
X5.21199 Y-6.03853
X5.54656 Y-5.66696
X2.48781 Y-2.91285
X5.04004 Y-6.84294
X5.97026 Y-6.04846
X5.54656 Y-5.66696
G0 Z5.
X5.21199 Y-6.03853
G1 Z1. F179.
X4.97561 Y-5.8257 F716.
X5.14885 Y-6.09246
X5.21199 Y-6.03853
X5.54656 Y-5.66696
X2.48781 Y-2.91285
X5.04004 Y-6.84294
X5.97026 Y-6.04846
X5.54656 Y-5.66696
G0 Z5.
X5.21199 Y-6.03853
G1 Z0.75 F179.
X4.97561 Y-5.8257 F716.
X5.14885 Y-6.09246
X5.21199 Y-6.03853
X5.54656 Y-5.66696
X2.48781 Y-2.91285
X5.04004 Y-6.84294
X5.97026 Y-6.04846
X5.54656 Y-5.66696
G0 Z5.
X5.21199 Y-6.03853
G1 Z0.5 F179.
X4.97561 Y-5.8257 F716.
X5.14885 Y-6.09246
X5.21199 Y-6.03853
X5.54656 Y-5.66696
X2.48781 Y-2.91285
X5.04004 Y-6.84294
X5.97026 Y-6.04846
X5.54656 Y-5.66696
G0 Z5.
X5.21199 Y-6.03853
G1 Z0.25 F179.
X4.97561 Y-5.8257 F716.
X5.14885 Y-6.09246
X5.21199 Y-6.03853
X5.54656 Y-5.66696
X2.48781 Y-2.91285
X5.04004 Y-6.84294
X5.97026 Y-6.04846
X5.54656 Y-5.66696
G0 Z5.
X5.21199 Y-6.03853
G1 Z0. F179.
X4.97561 Y-5.8257 F716.
X5.14885 Y-6.09246
X5.21199 Y-6.03853
X5.54656 Y-5.66696
X2.48781 Y-2.91285
X5.04004 Y-6.84294
X5.97026 Y-6.04846
X5.54656 Y-5.66696
G0 Z5.
X5.21199 Y-6.03853
G1 Z-0.25 F179.
X4.97561 Y-5.8257 F716.
X5.14885 Y-6.09246
X5.21199 Y-6.03853
X5.54656 Y-5.66696
X2.48781 Y-2.91285
X5.04004 Y-6.84294
X5.97026 Y-6.04846
X5.54656 Y-5.66696
Z0.35 F1074.
G0 Z5.
X-1.40627 Y7.72593
G1 Z2.45 F179.
Z1.85 F537.
X-1.41281 Y7.85065 Z1.82798
X-1.49445 Y7.83552 Z1.81334
X-1.39616 Y7.53301 Z1.75725
X-1.41281 Y7.85065 Z1.70117
X-1.49445 Y7.83552 Z1.68652
X-1.39616 Y7.53301 Z1.63044
X-1.41281 Y7.85065 Z1.57435
X-1.49445 Y7.83552 Z1.55971
X-1.39616 Y7.53301 Z1.50363
X-1.41281 Y7.85065 Z1.44754
X-1.49445 Y7.83552 Z1.4329
X-1.39616 Y7.53301 Z1.37681
X-1.41281 Y7.85065 Z1.32073
X-1.49445 Y7.83552 Z1.30609
X-1.39616 Y7.53301 Z1.25
X-1.41281 Y7.85065 F716.
X-1.49445 Y7.83552
X-1.39616 Y7.53301
X-1.87169 Y7.3785
X-0.69808 Y3.7665
X-0.93837 Y8.35156
X-0.96978 Y8.41969
X-1.00673 Y8.43443
X-2.14616 Y8.22325
X-1.87169 Y7.3785
G0 Z5.
X-1.39616 Y7.53301
G1 Z1. F179.
X-1.41281 Y7.85065 F716.
X-1.49445 Y7.83552
X-1.39616 Y7.53301
X-1.87169 Y7.3785
X-0.69808 Y3.7665
X-0.93837 Y8.35156
X-0.96978 Y8.41969
X-1.00673 Y8.43443
X-2.14616 Y8.22325
X-1.87169 Y7.3785
G0 Z5.
X-1.39616 Y7.53301
G1 Z0.75 F179.
X-1.41281 Y7.85065 F716.
X-1.49445 Y7.83552
X-1.39616 Y7.53301
X-1.87169 Y7.3785
X-0.69808 Y3.7665
X-0.93837 Y8.35156
X-0.96978 Y8.41969
X-1.00673 Y8.43443
X-2.14616 Y8.22325
X-1.87169 Y7.3785
G0 Z5.
X-1.39616 Y7.53301
G1 Z0.5 F179.
X-1.41281 Y7.85065 F716.
X-1.49445 Y7.83552
X-1.39616 Y7.53301
X-1.87169 Y7.3785
X-0.69808 Y3.7665
X-0.93837 Y8.35156
X-0.96978 Y8.41969
X-1.00673 Y8.43443
X-2.14616 Y8.22325
X-1.87169 Y7.3785
G0 Z5.
X-1.39616 Y7.53301
G1 Z0.25 F179.
X-1.41281 Y7.85065 F716.
X-1.49445 Y7.83552
X-1.39616 Y7.53301
X-1.87169 Y7.3785
X-0.69808 Y3.7665
X-0.93837 Y8.35156
X-0.96978 Y8.41969
X-1.00673 Y8.43443
X-2.14616 Y8.22325
X-1.87169 Y7.3785
G0 Z5.
X-1.39616 Y7.53301
G1 Z0. F179.
X-1.41281 Y7.85065 F716.
X-1.49445 Y7.83552
X-1.39616 Y7.53301
X-1.87169 Y7.3785
X-0.69808 Y3.7665
X-0.93837 Y8.35156
X-0.96978 Y8.41969
X-1.00673 Y8.43443
X-2.14616 Y8.22325
X-1.87169 Y7.3785
G0 Z5.
X-1.39616 Y7.53301
G1 Z-0.25 F179.
X-1.41281 Y7.85065 F716.
X-1.49445 Y7.83552
X-1.39616 Y7.53301
X-1.87169 Y7.3785
X-0.69808 Y3.7665
X-0.93837 Y8.35156
X-0.96978 Y8.41969
X-1.00673 Y8.43443
X-2.14616 Y8.22325
X-1.87169 Y7.3785
Z0.35 F1074.
G0 Z5.
(2 1/2 Axis Profiling)
(SlotDrill 1mm Carbide)
X10.09469 Y2.88916
G1 Z0.525 F119.2
G17
G03 X-10.09469 Y-2.88916 I-10.09469 J-2.88916 F477.
X10.09469 Y2.88916 I10.09469 J2.88916
G1 Z0.3
G03 X-10.09469 Y-2.88916 I-10.09469 J-2.88916
X10.09469 Y2.88916 I10.09469 J2.88916
G1 Z0.075
G03 X-10.09469 Y-2.88916 I-10.09469 J-2.88916
X10.09469 Y2.88916 I10.09469 J2.88916
G1 Z-0.15
G03 X-10.09469 Y-2.88916 I-10.09469 J-2.88916
X10.09469 Y2.88916 I10.09469 J2.88916
G0 Z5.
M30
%
