%
G17 G21 G40 G90 G64 P0.1
(2 1/2 Axis Facing)
(SlotDrill 1/8in 3.175mm Carbide Aluminium Cut)
T6 M06
S23979 M3
G0 Z6.0875
X13.8155 Y-2.2559
G1 X13.92717 Y-1.42615 Z5.93987 F2157.7
X13.98958 Y-0.53996 Z5.78323
X13.99566 Y0.3484 Z5.62658
X13.94539 Y1.23536 Z5.46994
X13.83896 Y2.11734 Z5.31329
X13.67681 Y2.9908 Z5.15665
X13.45959 Y3.85222 Z5.
G17
G03 X-13.45959 Y-3.85222 I-13.45959 J-3.85222 F2877.
X13.45959 Y3.85222 I13.45959 J3.85222
G1 X11.93337 Y3.4154
G02 X-11.93337 Y-3.4154 I-11.93337 J-3.4154
X11.93337 Y3.4154 I11.93337 J3.4154
G1 X10.40714 Y2.97859
G03 X-10.40714 Y-2.97859 I-10.40714 J-2.97859
X10.40714 Y2.97859 I10.40714 J2.97859
G1 X8.88092 Y2.54177
G02 X-8.88092 Y-2.54177 I-8.88092 J-2.54177
X8.88092 Y2.54177 I8.88092 J2.54177
G1 X7.3547 Y2.10496
G03 X-7.3547 Y-2.10496 I-7.3547 J-2.10496
X7.3547 Y2.10496 I7.3547 J2.10496
G1 X5.82848 Y1.66815
G02 X-5.82848 Y-1.66815 I-5.82848 J-1.66815
X5.82848 Y1.66815 I5.82848 J1.66815
G1 X4.30226 Y1.23133
G03 X-4.30226 Y-1.23133 I-4.30226 J-1.23133
X4.30226 Y1.23133 I4.30226 J1.23133
G1 X2.77604 Y0.79452
G02 X-2.77604 Y-0.79452 I-2.77604 J-0.79452
X2.77604 Y0.79452 I2.77604 J0.79452
G1 X1.24982 Y0.35771
G03 X-1.24982 Y-0.35771 I-1.24982 J-0.35771
X1.24982 Y0.35771 I1.24982 J0.35771
G0 Z6.0875
X13.60997 Y-3.27
G1 Z5.77 F719.2
X13.63458 Y-3.17775 Z5.75317 F2157.7
X13.80868 Y-2.30659 Z5.59652
X13.92717 Y-1.42615 Z5.43987
X13.98958 Y-0.53996 Z5.28323
X13.99566 Y0.3484 Z5.12658
X13.94539 Y1.23536 Z4.96994
X13.83896 Y2.11734 Z4.81329
X13.67681 Y2.9908 Z4.65665
X13.45959 Y3.85222 Z4.5
G03 X-13.45959 Y-3.85222 I-13.45959 J-3.85222 F2877.
X13.45959 Y3.85222 I13.45959 J3.85222
G1 X11.93337 Y3.4154
G02 X-11.93337 Y-3.4154 I-11.93337 J-3.4154
X11.93337 Y3.4154 I11.93337 J3.4154
G1 X10.40714 Y2.97859
G03 X-10.40714 Y-2.97859 I-10.40714 J-2.97859
X10.40714 Y2.97859 I10.40714 J2.97859
G1 X8.88092 Y2.54177
G02 X-8.88092 Y-2.54177 I-8.88092 J-2.54177
X8.88092 Y2.54177 I8.88092 J2.54177
G1 X7.3547 Y2.10496
G03 X-7.3547 Y-2.10496 I-7.3547 J-2.10496
X7.3547 Y2.10496 I7.3547 J2.10496
G1 X5.82848 Y1.66815
G02 X-5.82848 Y-1.66815 I-5.82848 J-1.66815
X5.82848 Y1.66815 I5.82848 J1.66815
G1 X4.30226 Y1.23133
G03 X-4.30226 Y-1.23133 I-4.30226 J-1.23133
X4.30226 Y1.23133 I4.30226 J1.23133
G1 X2.77604 Y0.79452
G02 X-2.77604 Y-0.79452 I-2.77604 J-0.79452
X2.77604 Y0.79452 I2.77604 J0.79452
G1 X1.24982 Y0.35771
G03 X-1.24982 Y-0.35771 I-1.24982 J-0.35771
X1.24982 Y0.35771 I1.24982 J0.35771
G0 Z6.0875
(2 1/2 Axis Pocketing)
(SlotDrill 1/8in 3.175mm Carbide Aluminium Cut)
X2.05855 Y12.17018
G1 Z4.95 F719.2
Z4.35 F2157.7
X2.30467 Y12.13361 Z4.30613
X2.78448 Y12.04282 Z4.22002
X3.26071 Y11.93304 Z4.13385
X3.73261 Y11.80443 Z4.0476
X4.19943 Y11.65714 Z3.96129
X4.66044 Y11.49139 Z3.87491
X5.1149 Y11.3074 Z3.78846
X5.31366 Y11.21763 Z3.75
G03 X-10.99189 Y4.84195 I-5.05368 J-11.11367 F2877.
X-4.99809 Y-10.49204 I10.89103 J-4.58131
X9.9929 Y-5.129 I4.73465 J10.39876
X4.94972 Y9.63888 I-9.90649 J4.86202
X-9.03322 Y5.25774 I-4.68416 J-9.55463
X-5.51623 Y-8.42279 I8.96285 J-4.98817
X7.81111 Y-5.72558 I5.24338 J8.36647
X5.35357 Y7.58428 I-7.76549 J5.44799
X-6.90678 Y5.61908 I-5.0789 J-7.54128
X-5.81821 Y-6.22978 I6.88231 J-5.34215
X5.5591 Y-5.95234 I5.54026 J6.22391
X5.94536 Y4.98875 I-5.57047 J5.67402
X-4.30986 Y5.99465 I-5.6688 J-5.01452
X-5.77752 Y-3.93905 I4.35155 J-5.7182
X3.58188 Y-5.54584 I5.50211 J3.98709
X5.25668 Y3.30299 I-3.63516 J5.27093
X-2.81793 Y5.09866 I-4.98514 J-3.36431
X-4.90385 Y-2.36157 I2.89365 J-4.83081
X1.93644 Y-4.67498 I4.64041 J2.45137
X4.43732 Y1.48959 I-2.04084 J4.41751
X-1.03528 Y4.17789 I-4.18876 J-1.61262
X-3.87645 Y-0.63329 I1.17683 J-3.93945
X-0.24445 Y-3.57916 I3.66184 J0.80282
G0 Z6.0875
X-0.84577 Y-12.38365
G1 Z3.75 F719.2
G02 X0.84577 Y12.38365 I0.84577 J12.38365 F2877.
X-0.84577 Y-12.38365 I-0.84577 J-12.38365
G1 X-0.57995 Y-11.35684 Z4.81066 F4315.5
Z5.41066
G0 Z6.0875
X2.91505 Y2.09046
G1 Z4.95 F719.2
Z4.35 F2157.7
X2.78442 Y2.26211 Z4.31197
X2.63535 Y2.43415 Z4.27183
X2.47566 Y2.5964 Z4.23169
X2.306 Y2.74818 Z4.19154
X2.12706 Y2.88891 Z4.1514
X1.93955 Y3.018 Z4.11126
X1.74423 Y3.13494 Z4.07112
X1.54189 Y3.23925 Z4.03098
X1.33334 Y3.33052 Z3.99084
X1.11942 Y3.40838 Z3.9507
X0.90099 Y3.47252 Z3.91056
X0.67894 Y3.52267 Z3.87042
X0.45415 Y3.55864 Z3.83028
X0.22753 Y3.58028 Z3.79014
X0. Y3.5875 Z3.75
G03 Y-3.5875 I0. J-3.5875 F2877.
Y3.5875 I0. J3.5875
G1 X0.9329 Y4.09217 Z4.81066 F4315.5
Z5.41066
G0 Z6.0875
X2.05855 Y12.17018
G1 Z4.2 F719.2
Z3.6 F2157.7
X2.30467 Y12.13361 Z3.55613
X2.78448 Y12.04282 Z3.47002
X3.26071 Y11.93304 Z3.38385
X3.73261 Y11.80443 Z3.2976
X4.19943 Y11.65714 Z3.21129
X4.66044 Y11.49139 Z3.12491
X5.1149 Y11.3074 Z3.03846
X5.31366 Y11.21763 Z3.
G03 X-10.99189 Y4.84195 I-5.05368 J-11.11367 F2877.
X-4.99809 Y-10.49204 I10.89103 J-4.58131
X9.9929 Y-5.129 I4.73465 J10.39876
X4.94972 Y9.63888 I-9.90649 J4.86202
X-9.03322 Y5.25774 I-4.68416 J-9.55463
X-5.51623 Y-8.42279 I8.96285 J-4.98817
X7.81111 Y-5.72558 I5.24338 J8.36647
X5.35357 Y7.58428 I-7.76549 J5.44799
X-6.90678 Y5.61908 I-5.0789 J-7.54128
X-5.81821 Y-6.22978 I6.88231 J-5.34215
X5.5591 Y-5.95234 I5.54026 J6.22391
X5.94536 Y4.98875 I-5.57047 J5.67402
X-4.30986 Y5.99465 I-5.6688 J-5.01452
X-5.77752 Y-3.93905 I4.35155 J-5.7182
X3.58188 Y-5.54584 I5.50211 J3.98709
X5.25668 Y3.30299 I-3.63516 J5.27093
X-2.81793 Y5.09866 I-4.98514 J-3.36431
X-4.90385 Y-2.36157 I2.89365 J-4.83081
X1.93644 Y-4.67498 I4.64041 J2.45137
X4.43732 Y1.48959 I-2.04084 J4.41751
X-1.03528 Y4.17789 I-4.18876 J-1.61262
X-3.87645 Y-0.63329 I1.17683 J-3.93945
X-0.24445 Y-3.57916 I3.66184 J0.80282
G0 Z6.0875
X-0.84577 Y-12.38365
G1 Z3. F719.2
G02 X0.84577 Y12.38365 I0.84577 J12.38365 F2877.
X-0.84577 Y-12.38365 I-0.84577 J-12.38365
G1 X-0.57995 Y-11.35684 Z4.06066 F4315.5
Z4.66066
G0 Z6.0875
X2.91505 Y2.09046
G1 Z4.2 F719.2
Z3.6 F2157.7
X2.78442 Y2.26211 Z3.56197
X2.63535 Y2.43415 Z3.52183
X2.47566 Y2.5964 Z3.48169
X2.306 Y2.74818 Z3.44154
X2.12706 Y2.88891 Z3.4014
X1.93955 Y3.018 Z3.36126
X1.74423 Y3.13494 Z3.32112
X1.54189 Y3.23925 Z3.28098
X1.33334 Y3.33052 Z3.24084
X1.11942 Y3.40838 Z3.2007
X0.90099 Y3.47252 Z3.16056
X0.67894 Y3.52267 Z3.12042
X0.45415 Y3.55864 Z3.08028
X0.22753 Y3.58028 Z3.04014
X0. Y3.5875 Z3.
G03 Y-3.5875 I0. J-3.5875 F2877.
Y3.5875 I0. J3.5875
G1 X0.9329 Y4.09217 Z4.06066 F4315.5
Z4.66066
G0 Z6.0875
X2.05855 Y12.17018
G1 Z3.45 F719.2
Z2.85 F2157.7
X2.30467 Y12.13361 Z2.80613
X2.78448 Y12.04282 Z2.72002
X3.26071 Y11.93304 Z2.63385
X3.73261 Y11.80443 Z2.5476
X4.19943 Y11.65714 Z2.46129
X4.66044 Y11.49139 Z2.37491
X5.1149 Y11.3074 Z2.28846
X5.31366 Y11.21763 Z2.25
G03 X-10.99189 Y4.84195 I-5.05368 J-11.11367 F2877.
X-4.99809 Y-10.49204 I10.89103 J-4.58131
X9.9929 Y-5.129 I4.73465 J10.39876
X4.94972 Y9.63888 I-9.90649 J4.86202
X-9.03322 Y5.25774 I-4.68416 J-9.55463
X-5.51623 Y-8.42279 I8.96285 J-4.98817
X7.81111 Y-5.72558 I5.24338 J8.36647
X5.35357 Y7.58428 I-7.76549 J5.44799
X-6.90678 Y5.61908 I-5.0789 J-7.54128
X-5.81821 Y-6.22978 I6.88231 J-5.34215
X5.5591 Y-5.95234 I5.54026 J6.22391
X5.94536 Y4.98875 I-5.57047 J5.67402
X-4.30986 Y5.99465 I-5.6688 J-5.01452
X-5.77752 Y-3.93905 I4.35155 J-5.7182
X3.58188 Y-5.54584 I5.50211 J3.98709
X5.25668 Y3.30299 I-3.63516 J5.27093
X-2.81793 Y5.09866 I-4.98514 J-3.36431
X-4.90385 Y-2.36157 I2.89365 J-4.83081
X1.93644 Y-4.67498 I4.64041 J2.45137
X4.43732 Y1.48959 I-2.04084 J4.41751
X-1.03528 Y4.17789 I-4.18876 J-1.61262
X-3.87645 Y-0.63329 I1.17683 J-3.93945
X-0.24445 Y-3.57916 I3.66184 J0.80282
G0 Z6.0875
X-0.84577 Y-12.38365
G1 Z2.25 F719.2
G02 X0.84577 Y12.38365 I0.84577 J12.38365 F2877.
X-0.84577 Y-12.38365 I-0.84577 J-12.38365
G1 X-0.57995 Y-11.35684 Z3.31066 F4315.5
Z3.91066
G0 Z6.0875
X2.91505 Y2.09046
G1 Z3.45 F719.2
Z2.85 F2157.7
X2.78442 Y2.26211 Z2.81197
X2.63535 Y2.43415 Z2.77183
X2.47566 Y2.5964 Z2.73169
X2.306 Y2.74818 Z2.69154
X2.12706 Y2.88891 Z2.6514
X1.93955 Y3.018 Z2.61126
X1.74423 Y3.13494 Z2.57112
X1.54189 Y3.23925 Z2.53098
X1.33334 Y3.33052 Z2.49084
X1.11942 Y3.40838 Z2.4507
X0.90099 Y3.47252 Z2.41056
X0.67894 Y3.52267 Z2.37042
X0.45415 Y3.55864 Z2.33028
X0.22753 Y3.58028 Z2.29014
X0. Y3.5875 Z2.25
G03 Y-3.5875 I0. J-3.5875 F2877.
Y3.5875 I0. J3.5875
G1 X0.9329 Y4.09217 Z3.31066 F4315.5
Z3.91066
G0 Z6.0875
X2.05855 Y12.17018
G1 Z2.7 F719.2
Z2.1 F2157.7
X2.30467 Y12.13361 Z2.05613
X2.78448 Y12.04282 Z1.97002
X3.26071 Y11.93304 Z1.88385
X3.73261 Y11.80443 Z1.7976
X4.19943 Y11.65714 Z1.71129
X4.66044 Y11.49139 Z1.62491
X5.1149 Y11.3074 Z1.53846
X5.31366 Y11.21763 Z1.5
G03 X-10.99189 Y4.84195 I-5.05368 J-11.11367 F2877.
X-4.99809 Y-10.49204 I10.89103 J-4.58131
X9.9929 Y-5.129 I4.73465 J10.39876
X4.94972 Y9.63888 I-9.90649 J4.86202
X-9.03322 Y5.25774 I-4.68416 J-9.55463
X-5.51623 Y-8.42279 I8.96285 J-4.98817
X7.81111 Y-5.72558 I5.24338 J8.36647
X5.35357 Y7.58428 I-7.76549 J5.44799
X-6.90678 Y5.61908 I-5.0789 J-7.54128
X-5.81821 Y-6.22978 I6.88231 J-5.34215
X5.5591 Y-5.95234 I5.54026 J6.22391
X5.94536 Y4.98875 I-5.57047 J5.67402
X-4.30986 Y5.99465 I-5.6688 J-5.01452
X-5.77752 Y-3.93905 I4.35155 J-5.7182
X3.58188 Y-5.54584 I5.50211 J3.98709
X5.25668 Y3.30299 I-3.63516 J5.27093
X-2.81793 Y5.09866 I-4.98514 J-3.36431
X-4.90385 Y-2.36157 I2.89365 J-4.83081
X1.93644 Y-4.67498 I4.64041 J2.45137
X4.43732 Y1.48959 I-2.04084 J4.41751
X-1.03528 Y4.17789 I-4.18876 J-1.61262
X-3.87645 Y-0.63329 I1.17683 J-3.93945
X-0.24445 Y-3.57916 I3.66184 J0.80282
G0 Z6.0875
X-0.84577 Y-12.38365
G1 Z1.5 F719.2
G02 X0.84577 Y12.38365 I0.84577 J12.38365 F2877.
X-0.84577 Y-12.38365 I-0.84577 J-12.38365
G1 X-0.57995 Y-11.35684 Z2.56066 F4315.5
Z3.16066
G0 Z6.0875
X2.91505 Y2.09046
G1 Z2.7 F719.2
Z2.1 F2157.7
X2.78442 Y2.26211 Z2.06197
X2.63535 Y2.43415 Z2.02183
X2.47566 Y2.5964 Z1.98169
X2.306 Y2.74818 Z1.94154
X2.12706 Y2.88891 Z1.9014
X1.93955 Y3.018 Z1.86126
X1.74423 Y3.13494 Z1.82112
X1.54189 Y3.23925 Z1.78098
X1.33334 Y3.33052 Z1.74084
X1.11942 Y3.40838 Z1.7007
X0.90099 Y3.47252 Z1.66056
X0.67894 Y3.52267 Z1.62042
X0.45415 Y3.55864 Z1.58028
X0.22753 Y3.58028 Z1.54014
X0. Y3.5875 Z1.5
G03 Y-3.5875 I0. J-3.5875 F2877.
Y3.5875 I0. J3.5875
G1 X0.9329 Y4.09217 Z2.56066 F4315.5
Z3.16066
G0 Z6.0875
(2 1/2 Axis Profiling)
(SlotDrill 1/8in 3.175mm Carbide Aluminium Cut)
X7.19655 Y9.07699
G1 Z2.02 F719.2
X7.64796 Y8.7051 Z1.91687 F2157.7
X8.18468 Y8.20251 Z1.78722
X8.68843 Y7.66689 Z1.65757
X9.15721 Y7.1004 Z1.52791
X9.58911 Y6.50532 Z1.39826
X9.98239 Y5.88405 Z1.26861
X10.33548 Y5.23908 Z1.13896
X10.64696 Y4.57301 Z1.0093
X10.91556 Y3.88853 Z0.87965
X11.14021 Y3.1884 Z0.75
G02 X-11.14021 Y-3.1884 I-11.14021 J-3.1884 F2877.
X11.14021 Y3.1884 I11.14021 J3.1884
G0 Z6.0875
M30
%
