%
G17 G21 G40 G90 G64 P0.1
(2 1/2 Axis Pocketing)
(SlotDrill 1mm Carbide)
T42 M06
S23873 M3
G0 Z5.
X-10.04151 Y-3.72589
G1 Z2.45 F179.
Z1.85 F537.
X-10.30153 Y-3.79556 Z1.80253
X-10.19525 Y-4.07242 Z1.75024
X-8.93135 Y-3.42843 Z1.50012
X-10.30153 Y-3.79556 Z1.25
X-10.19525 Y-4.07242 F716.
X-8.93135 Y-3.42843
X-10.30153 Y-3.79556
X-10.76832 Y-3.97475
X-10.46304 Y-4.77002
X-4.46568 Y-1.71421
X-10.87545 Y-3.43171
X-10.92432 Y-3.4682
X-10.93364 Y-3.54407
X-10.76832 Y-3.97475
G0 Z5.
X-10.30153 Y-3.79556
G1 Z1. F179.
X-10.19525 Y-4.07242 F716.
X-8.93135 Y-3.42843
X-10.30153 Y-3.79556
X-10.76832 Y-3.97475
X-10.46304 Y-4.77002
X-4.46568 Y-1.71421
X-10.87545 Y-3.43171
X-10.92432 Y-3.4682
X-10.93364 Y-3.54407
X-10.76832 Y-3.97475
G0 Z5.
X-10.30153 Y-3.79556
G1 Z0.75 F179.
X-10.19525 Y-4.07242 F716.
X-8.93135 Y-3.42843
X-10.30153 Y-3.79556
X-10.76832 Y-3.97475
X-10.46304 Y-4.77002
X-4.46568 Y-1.71421
X-10.87545 Y-3.43171
X-10.92432 Y-3.4682
X-10.93364 Y-3.54407
X-10.76832 Y-3.97475
G0 Z5.
X-10.30153 Y-3.79556
G1 Z0.5 F179.
X-10.19525 Y-4.07242 F716.
X-8.93135 Y-3.42843
X-10.30153 Y-3.79556
X-10.76832 Y-3.97475
X-10.46304 Y-4.77002
X-4.46568 Y-1.71421
X-10.87545 Y-3.43171
X-10.92432 Y-3.4682
X-10.93364 Y-3.54407
X-10.76832 Y-3.97475
G0 Z5.
X-10.30153 Y-3.79556
G1 Z0.25 F179.
X-10.19525 Y-4.07242 F716.
X-8.93135 Y-3.42843
X-10.30153 Y-3.79556
X-10.76832 Y-3.97475
X-10.46304 Y-4.77002
X-4.46568 Y-1.71421
X-10.87545 Y-3.43171
X-10.92432 Y-3.4682
X-10.93364 Y-3.54407
X-10.76832 Y-3.97475
G0 Z5.
X-10.30153 Y-3.79556
G1 Z0. F179.
X-10.19525 Y-4.07242 F716.
X-8.93135 Y-3.42843
X-10.30153 Y-3.79556
X-10.76832 Y-3.97475
X-10.46304 Y-4.77002
X-4.46568 Y-1.71421
X-10.87545 Y-3.43171
X-10.92432 Y-3.4682
X-10.93364 Y-3.54407
X-10.76832 Y-3.97475
G0 Z5.
X-10.30153 Y-3.79556
G1 Z-0.25 F179.
X-10.19525 Y-4.07242 F716.
X-8.93135 Y-3.42843
X-10.30153 Y-3.79556
X-10.76832 Y-3.97475
X-10.46304 Y-4.77002
X-4.46568 Y-1.71421
X-10.87545 Y-3.43171
X-10.92432 Y-3.4682
X-10.93364 Y-3.54407
X-10.76832 Y-3.97475
Z0.35 F1074.
G0 Z5.
X-10.68883 Y0.68048
G1 Z2.45 F179.
Z1.85 F537.
X-10.95471 Y0.72259 Z1.80253
X-10.97023 Y0.42645 Z1.75024
X-9.55366 Y0.50069 Z1.50012
X-10.95471 Y0.72259 Z1.25
X-10.97023 Y0.42645 F716.
X-9.55366 Y0.50069
X-10.95471 Y0.72259
X-10.87649 Y1.21643
X-11.33102 Y1.28842
X-11.39051 Y1.27496
X-11.42988 Y1.20944
X-11.49861 Y-0.10193
X-4.77683 Y0.25034
X-10.87649 Y1.21643
G0 Z5.
X-10.95471 Y0.72259
G1 Z1. F179.
X-10.97023 Y0.42645 F716.
X-9.55366 Y0.50069
X-10.95471 Y0.72259
X-10.87649 Y1.21643
X-11.33102 Y1.28842
X-11.39051 Y1.27496
X-11.42988 Y1.20944
X-11.49861 Y-0.10193
X-4.77683 Y0.25034
X-10.87649 Y1.21643
G0 Z5.
X-10.95471 Y0.72259
G1 Z0.75 F179.
X-10.97023 Y0.42645 F716.
X-9.55366 Y0.50069
X-10.95471 Y0.72259
X-10.87649 Y1.21643
X-11.33102 Y1.28842
X-11.39051 Y1.27496
X-11.42988 Y1.20944
X-11.49861 Y-0.10193
X-4.77683 Y0.25034
X-10.87649 Y1.21643
G0 Z5.
X-10.95471 Y0.72259
G1 Z0.5 F179.
X-10.97023 Y0.42645 F716.
X-9.55366 Y0.50069
X-10.95471 Y0.72259
X-10.87649 Y1.21643
X-11.33102 Y1.28842
X-11.39051 Y1.27496
X-11.42988 Y1.20944
X-11.49861 Y-0.10193
X-4.77683 Y0.25034
X-10.87649 Y1.21643
G0 Z5.
X-10.95471 Y0.72259
G1 Z0.25 F179.
X-10.97023 Y0.42645 F716.
X-9.55366 Y0.50069
X-10.95471 Y0.72259
X-10.87649 Y1.21643
X-11.33102 Y1.28842
X-11.39051 Y1.27496
X-11.42988 Y1.20944
X-11.49861 Y-0.10193
X-4.77683 Y0.25034
X-10.87649 Y1.21643
G0 Z5.
X-10.95471 Y0.72259
G1 Z0. F179.
X-10.97023 Y0.42645 F716.
X-9.55366 Y0.50069
X-10.95471 Y0.72259
X-10.87649 Y1.21643
X-11.33102 Y1.28842
X-11.39051 Y1.27496
X-11.42988 Y1.20944
X-11.49861 Y-0.10193
X-4.77683 Y0.25034
X-10.87649 Y1.21643
G0 Z5.
X-10.95471 Y0.72259
G1 Z-0.25 F179.
X-10.97023 Y0.42645 F716.
X-9.55366 Y0.50069
X-10.95471 Y0.72259
X-10.87649 Y1.21643
X-11.33102 Y1.28842
X-11.39051 Y1.27496
X-11.42988 Y1.20944
X-11.49861 Y-0.10193
X-4.77683 Y0.25034
X-10.87649 Y1.21643
Z0.35 F1074.
G0 Z5.
X-8.77537 Y4.43969
G1 Z2.45 F179.
Z1.85 F537.
X-8.52406 Y4.34322 Z1.80253
X-9.71372 Y5.1158 Z1.55241
X-9.84835 Y4.85157 Z1.50012
X-8.52406 Y4.34322 Z1.25
X-9.71372 Y5.1158 F716.
X-9.84835 Y4.85157
X-8.52406 Y4.34322
X-8.25174 Y4.76256
X-9.82735 Y5.78577
X-9.88717 Y5.79767
X-9.94979 Y5.75383
X-10.54596 Y4.58379
X-4.26203 Y2.17161
X-8.25174 Y4.76256
G0 Z5.
X-8.52406 Y4.34322
G1 Z1. F179.
X-9.71372 Y5.1158 F716.
X-9.84835 Y4.85157
X-8.52406 Y4.34322
X-8.25174 Y4.76256
X-9.82735 Y5.78577
X-9.88717 Y5.79767
X-9.94979 Y5.75383
X-10.54596 Y4.58379
X-4.26203 Y2.17161
X-8.25174 Y4.76256
G0 Z5.
X-8.52406 Y4.34322
G1 Z0.75 F179.
X-9.71372 Y5.1158 F716.
X-9.84835 Y4.85157
X-8.52406 Y4.34322
X-8.25174 Y4.76256
X-9.82735 Y5.78577
X-9.88717 Y5.79767
X-9.94979 Y5.75383
X-10.54596 Y4.58379
X-4.26203 Y2.17161
X-8.25174 Y4.76256
G0 Z5.
X-8.52406 Y4.34322
G1 Z0.5 F179.
X-9.71372 Y5.1158 F716.
X-9.84835 Y4.85157
X-8.52406 Y4.34322
X-8.25174 Y4.76256
X-9.82735 Y5.78577
X-9.88717 Y5.79767
X-9.94979 Y5.75383
X-10.54596 Y4.58379
X-4.26203 Y2.17161
X-8.25174 Y4.76256
G0 Z5.
X-8.52406 Y4.34322
G1 Z0.25 F179.
X-9.71372 Y5.1158 F716.
X-9.84835 Y4.85157
X-8.52406 Y4.34322
X-8.25174 Y4.76256
X-9.82735 Y5.78577
X-9.88717 Y5.79767
X-9.94979 Y5.75383
X-10.54596 Y4.58379
X-4.26203 Y2.17161
X-8.25174 Y4.76256
G0 Z5.
X-8.52406 Y4.34322
G1 Z0. F179.
X-9.71372 Y5.1158 F716.
X-9.84835 Y4.85157
X-8.52406 Y4.34322
X-8.25174 Y4.76256
X-9.82735 Y5.78577
X-9.88717 Y5.79767
X-9.94979 Y5.75383
X-10.54596 Y4.58379
X-4.26203 Y2.17161
X-8.25174 Y4.76256
G0 Z5.
X-8.52406 Y4.34322
G1 Z-0.25 F179.
X-9.71372 Y5.1158 F716.
X-9.84835 Y4.85157
X-8.52406 Y4.34322
X-8.25174 Y4.76256
X-9.82735 Y5.78577
X-9.88717 Y5.79767
X-9.94979 Y5.75383
X-10.54596 Y4.58379
X-4.26203 Y2.17161
X-8.25174 Y4.76256
Z0.35 F1074.
G0 Z5.
X-6.8144 Y8.60723
G1 Z2.45 F179.
Z1.85 F537.
X-7.0236 Y8.43782 Z1.80253
X-6.02057 Y7.43478 Z1.55241
X-6.79314 Y8.62444 Z1.30229
X-7.0236 Y8.43782 Z1.25
X-6.02057 Y7.43478 F716.
X-6.79314 Y8.62444
X-7.0236 Y8.43782
X-7.37716 Y8.08427
X-3.01028 Y3.71739
X-6.62444 Y9.28271
X-6.67425 Y9.31791
X-6.74929 Y9.30333
X-7.76982 Y8.47693
X-7.37716 Y8.08427
G0 Z5.
X-7.0236 Y8.43782
G1 Z1. F179.
X-6.02057 Y7.43478 F716.
X-6.79314 Y8.62444
X-7.0236 Y8.43782
X-7.37716 Y8.08427
X-3.01028 Y3.71739
X-6.62444 Y9.28271
X-6.67425 Y9.31791
X-6.74929 Y9.30333
X-7.76982 Y8.47693
X-7.37716 Y8.08427
G0 Z5.
X-7.0236 Y8.43782
G1 Z0.75 F179.
X-6.02057 Y7.43478 F716.
X-6.79314 Y8.62444
X-7.0236 Y8.43782
X-7.37716 Y8.08427
X-3.01028 Y3.71739
X-6.62444 Y9.28271
X-6.67425 Y9.31791
X-6.74929 Y9.30333
X-7.76982 Y8.47693
X-7.37716 Y8.08427
G0 Z5.
X-7.0236 Y8.43782
G1 Z0.5 F179.
X-6.02057 Y7.43478 F716.
X-6.79314 Y8.62444
X-7.0236 Y8.43782
X-7.37716 Y8.08427
X-3.01028 Y3.71739
X-6.62444 Y9.28271
X-6.67425 Y9.31791
X-6.74929 Y9.30333
X-7.76982 Y8.47693
X-7.37716 Y8.08427
G0 Z5.
X-7.0236 Y8.43782
G1 Z0.25 F179.
X-6.02057 Y7.43478 F716.
X-6.79314 Y8.62444
X-7.0236 Y8.43782
X-7.37716 Y8.08427
X-3.01028 Y3.71739
X-6.62444 Y9.28271
X-6.67425 Y9.31791
X-6.74929 Y9.30333
X-7.76982 Y8.47693
X-7.37716 Y8.08427
G0 Z5.
X-7.0236 Y8.43782
G1 Z0. F179.
X-6.02057 Y7.43478 F716.
X-6.79314 Y8.62444
X-7.0236 Y8.43782
X-7.37716 Y8.08427
X-3.01028 Y3.71739
X-6.62444 Y9.28271
X-6.67425 Y9.31791
X-6.74929 Y9.30333
X-7.76982 Y8.47693
X-7.37716 Y8.08427
G0 Z5.
X-7.0236 Y8.43782
G1 Z-0.25 F179.
X-6.02057 Y7.43478 F716.
X-6.79314 Y8.62444
X-7.0236 Y8.43782
X-7.37716 Y8.08427
X-3.01028 Y3.71739
X-6.62444 Y9.28271
X-6.67425 Y9.31791
X-6.74929 Y9.30333
X-7.76982 Y8.47693
X-7.37716 Y8.08427
Z0.35 F1074.
G0 Z5.
X-2.65586 Y10.37596
G1 Z2.45 F179.
Z1.85 F537.
X-2.69797 Y10.64184 Z1.80253
X-2.98441 Y10.56509 Z1.75024
X-2.47606 Y9.24079 Z1.50012
X-2.69797 Y10.64184 Z1.25
X-2.98441 Y10.56509 F716.
X-2.47606 Y9.24079
X-2.69797 Y10.64184
X-2.20412 Y10.72006
X-2.27611 Y11.17458
X-2.3073 Y11.227
X-2.38178 Y11.2442
X-3.65021 Y10.90433
X-1.23803 Y4.6204
X-2.20412 Y10.72006
G0 Z5.
X-2.69797 Y10.64184
G1 Z1. F179.
X-2.98441 Y10.56509 F716.
X-2.47606 Y9.24079
X-2.69797 Y10.64184
X-2.20412 Y10.72006
X-2.27611 Y11.17458
X-2.3073 Y11.227
X-2.38178 Y11.2442
X-3.65021 Y10.90433
X-1.23803 Y4.6204
X-2.20412 Y10.72006
G0 Z5.
X-2.69797 Y10.64184
G1 Z0.75 F179.
X-2.98441 Y10.56509 F716.
X-2.47606 Y9.24079
X-2.69797 Y10.64184
X-2.20412 Y10.72006
X-2.27611 Y11.17458
X-2.3073 Y11.227
X-2.38178 Y11.2442
X-3.65021 Y10.90433
X-1.23803 Y4.6204
X-2.20412 Y10.72006
G0 Z5.
X-2.69797 Y10.64184
G1 Z0.5 F179.
X-2.98441 Y10.56509 F716.
X-2.47606 Y9.24079
X-2.69797 Y10.64184
X-2.20412 Y10.72006
X-2.27611 Y11.17458
X-2.3073 Y11.227
X-2.38178 Y11.2442
X-3.65021 Y10.90433
X-1.23803 Y4.6204
X-2.20412 Y10.72006
G0 Z5.
X-2.69797 Y10.64184
G1 Z0.25 F179.
X-2.98441 Y10.56509 F716.
X-2.47606 Y9.24079
X-2.69797 Y10.64184
X-2.20412 Y10.72006
X-2.27611 Y11.17458
X-2.3073 Y11.227
X-2.38178 Y11.2442
X-3.65021 Y10.90433
X-1.23803 Y4.6204
X-2.20412 Y10.72006
G0 Z5.
X-2.69797 Y10.64184
G1 Z0. F179.
X-2.98441 Y10.56509 F716.
X-2.47606 Y9.24079
X-2.69797 Y10.64184
X-2.20412 Y10.72006
X-2.27611 Y11.17458
X-2.3073 Y11.227
X-2.38178 Y11.2442
X-3.65021 Y10.90433
X-1.23803 Y4.6204
X-2.20412 Y10.72006
G0 Z5.
X-2.69797 Y10.64184
G1 Z-0.25 F179.
X-2.98441 Y10.56509 F716.
X-2.47606 Y9.24079
X-2.69797 Y10.64184
X-2.20412 Y10.72006
X-2.27611 Y11.17458
X-2.3073 Y11.227
X-2.38178 Y11.2442
X-3.65021 Y10.90433
X-1.23803 Y4.6204
X-2.20412 Y10.72006
Z0.35 F1074.
G0 Z5.
X1.79404 Y10.55914
G1 Z2.45 F179.
Z1.85 F537.
X1.86371 Y10.81917 Z1.80253
X1.57081 Y10.86556 Z1.75024
X1.49657 Y9.44899 Z1.50012
X1.86371 Y10.81917 Z1.25
X1.57081 Y10.86556 F716.
X1.49657 Y9.44899
X1.86371 Y10.81917
X1.94193 Y11.31301
X1.10056 Y11.44627
X0.75261 Y4.80693
X0.76172 Y4.77462
X2.46578 Y11.13427
X2.45861 Y11.19484
X2.39756 Y11.24085
X1.94193 Y11.31301
G0 Z5.
X1.86371 Y10.81917
G1 Z1. F179.
X1.57081 Y10.86556 F716.
X1.49657 Y9.44899
X1.86371 Y10.81917
X1.94193 Y11.31301
X1.10056 Y11.44627
X0.75261 Y4.80693
X0.76172 Y4.77462
X2.46578 Y11.13427
X2.45861 Y11.19484
X2.39756 Y11.24085
X1.94193 Y11.31301
G0 Z5.
X1.86371 Y10.81917
G1 Z0.75 F179.
X1.57081 Y10.86556 F716.
X1.49657 Y9.44899
X1.86371 Y10.81917
X1.94193 Y11.31301
X1.10056 Y11.44627
X0.75261 Y4.80693
X0.76172 Y4.77462
X2.46578 Y11.13427
X2.45861 Y11.19484
X2.39756 Y11.24085
X1.94193 Y11.31301
G0 Z5.
X1.86371 Y10.81917
G1 Z0.5 F179.
X1.57081 Y10.86556 F716.
X1.49657 Y9.44899
X1.86371 Y10.81917
X1.94193 Y11.31301
X1.10056 Y11.44627
X0.75261 Y4.80693
X0.76172 Y4.77462
X2.46578 Y11.13427
X2.45861 Y11.19484
X2.39756 Y11.24085
X1.94193 Y11.31301
G0 Z5.
X1.86371 Y10.81917
G1 Z0.25 F179.
X1.57081 Y10.86556 F716.
X1.49657 Y9.44899
X1.86371 Y10.81917
X1.94193 Y11.31301
X1.10056 Y11.44627
X0.75261 Y4.80693
X0.76172 Y4.77462
X2.46578 Y11.13427
X2.45861 Y11.19484
X2.39756 Y11.24085
X1.94193 Y11.31301
G0 Z5.
X1.86371 Y10.81917
G1 Z0. F179.
X1.57081 Y10.86556 F716.
X1.49657 Y9.44899
X1.86371 Y10.81917
X1.94193 Y11.31301
X1.10056 Y11.44627
X0.75261 Y4.80693
X0.76172 Y4.77462
X2.46578 Y11.13427
X2.45861 Y11.19484
X2.39756 Y11.24085
X1.94193 Y11.31301
G0 Z5.
X1.86371 Y10.81917
G1 Z-0.25 F179.
X1.57081 Y10.86556 F716.
X1.49657 Y9.44899
X1.86371 Y10.81917
X1.94193 Y11.31301
X1.10056 Y11.44627
X0.75261 Y4.80693
X0.76172 Y4.77462
X2.46578 Y11.13427
X2.45861 Y11.19484
X2.39756 Y11.24085
X1.94193 Y11.31301
Z0.35 F1074.
G0 Z5.
X5.33265 Y8.26322
G1 Z2.45 F179.
Z1.85 F537.
X5.21044 Y8.02337 Z1.80253
X6.10314 Y9.12576 Z1.55241
X5.85443 Y9.28727 Z1.50012
X5.21044 Y8.02337 Z1.25
X6.10314 Y9.12576 F716.
X5.85443 Y9.28727
X5.21044 Y8.02337
X4.76493 Y8.25037
X2.60522 Y4.01168
X6.78132 Y9.16874
X6.7994 Y9.22699
X6.76235 Y9.29385
X5.66103 Y10.00905
X4.76493 Y8.25037
G0 Z5.
X5.21044 Y8.02337
G1 Z1. F179.
X6.10314 Y9.12576 F716.
X5.85443 Y9.28727
X5.21044 Y8.02337
X4.76493 Y8.25037
X2.60522 Y4.01168
X6.78132 Y9.16874
X6.7994 Y9.22699
X6.76235 Y9.29385
X5.66103 Y10.00905
X4.76493 Y8.25037
G0 Z5.
X5.21044 Y8.02337
G1 Z0.75 F179.
X6.10314 Y9.12576 F716.
X5.85443 Y9.28727
X5.21044 Y8.02337
X4.76493 Y8.25037
X2.60522 Y4.01168
X6.78132 Y9.16874
X6.7994 Y9.22699
X6.76235 Y9.29385
X5.66103 Y10.00905
X4.76493 Y8.25037
G0 Z5.
X5.21044 Y8.02337
G1 Z0.5 F179.
X6.10314 Y9.12576 F716.
X5.85443 Y9.28727
X5.21044 Y8.02337
X4.76493 Y8.25037
X2.60522 Y4.01168
X6.78132 Y9.16874
X6.7994 Y9.22699
X6.76235 Y9.29385
X5.66103 Y10.00905
X4.76493 Y8.25037
G0 Z5.
X5.21044 Y8.02337
G1 Z0.25 F179.
X6.10314 Y9.12576 F716.
X5.85443 Y9.28727
X5.21044 Y8.02337
X4.76493 Y8.25037
X2.60522 Y4.01168
X6.78132 Y9.16874
X6.7994 Y9.22699
X6.76235 Y9.29385
X5.66103 Y10.00905
X4.76493 Y8.25037
G0 Z5.
X5.21044 Y8.02337
G1 Z0. F179.
X6.10314 Y9.12576 F716.
X5.85443 Y9.28727
X5.21044 Y8.02337
X4.76493 Y8.25037
X2.60522 Y4.01168
X6.78132 Y9.16874
X6.7994 Y9.22699
X6.76235 Y9.29385
X5.66103 Y10.00905
X4.76493 Y8.25037
G0 Z5.
X5.21044 Y8.02337
G1 Z-0.25 F179.
X6.10314 Y9.12576 F716.
X5.85443 Y9.28727
X5.21044 Y8.02337
X4.76493 Y8.25037
X2.60522 Y4.01168
X6.78132 Y9.16874
X6.7994 Y9.22699
X6.76235 Y9.29385
X5.66103 Y10.00905
X4.76493 Y8.25037
Z0.35 F1074.
G0 Z5.
X9.04742 Y5.73222
G1 Z2.45 F179.
Z1.85 F537.
X9.28727 Y5.85443 Z1.80253
X9.12576 Y6.10314 Z1.75024
X8.02337 Y5.21044 Z1.50012
X9.28727 Y5.85443 Z1.25
X9.12576 Y6.10314 F716.
X8.02337 Y5.21044
X9.28727 Y5.85443
X9.51427 Y5.40893
X9.9243 Y5.61785
X9.96452 Y5.6637
X9.95786 Y5.73986
X9.24265 Y6.84117
X4.01168 Y2.60522
X9.51427 Y5.40893
G0 Z5.
X9.28727 Y5.85443
G1 Z1. F179.
X9.12576 Y6.10314 F716.
X8.02337 Y5.21044
X9.28727 Y5.85443
X9.51427 Y5.40893
X9.9243 Y5.61785
X9.96452 Y5.6637
X9.95786 Y5.73986
X9.24265 Y6.84117
X4.01168 Y2.60522
X9.51427 Y5.40893
G0 Z5.
X9.28727 Y5.85443
G1 Z0.75 F179.
X9.12576 Y6.10314 F716.
X8.02337 Y5.21044
X9.28727 Y5.85443
X9.51427 Y5.40893
X9.9243 Y5.61785
X9.96452 Y5.6637
X9.95786 Y5.73986
X9.24265 Y6.84117
X4.01168 Y2.60522
X9.51427 Y5.40893
G0 Z5.
X9.28727 Y5.85443
G1 Z0.5 F179.
X9.12576 Y6.10314 F716.
X8.02337 Y5.21044
X9.28727 Y5.85443
X9.51427 Y5.40893
X9.9243 Y5.61785
X9.96452 Y5.6637
X9.95786 Y5.73986
X9.24265 Y6.84117
X4.01168 Y2.60522
X9.51427 Y5.40893
G0 Z5.
X9.28727 Y5.85443
G1 Z0.25 F179.
X9.12576 Y6.10314 F716.
X8.02337 Y5.21044
X9.28727 Y5.85443
X9.51427 Y5.40893
X9.9243 Y5.61785
X9.96452 Y5.6637
X9.95786 Y5.73986
X9.24265 Y6.84117
X4.01168 Y2.60522
X9.51427 Y5.40893
G0 Z5.
X9.28727 Y5.85443
G1 Z0. F179.
X9.12576 Y6.10314 F716.
X8.02337 Y5.21044
X9.28727 Y5.85443
X9.51427 Y5.40893
X9.9243 Y5.61785
X9.96452 Y5.6637
X9.95786 Y5.73986
X9.24265 Y6.84117
X4.01168 Y2.60522
X9.51427 Y5.40893
G0 Z5.
X9.28727 Y5.85443
G1 Z-0.25 F179.
X9.12576 Y6.10314 F716.
X8.02337 Y5.21044
X9.28727 Y5.85443
X9.51427 Y5.40893
X9.9243 Y5.61785
X9.96452 Y5.6637
X9.95786 Y5.73986
X9.24265 Y6.84117
X4.01168 Y2.60522
X9.51427 Y5.40893
Z0.35 F1074.
G0 Z5.
X9.70901 Y1.56625
G1 Z2.45 F179.
Z1.85 F537.
X9.44899 Y1.49657 Z1.80253
X10.86556 Y1.57081 Z1.55241
X10.81917 Y1.86371 Z1.50012
X9.44899 Y1.49657 Z1.25
X10.86556 Y1.57081 F716.
X10.81917 Y1.86371
X9.44899 Y1.49657
X9.31958 Y1.97954
X4.80423 Y0.76965
X4.77632 Y0.751
X11.35129 Y1.09558
X11.40668 Y1.12112
X11.43157 Y1.19339
X11.22614 Y2.4904
X9.31958 Y1.97954
G0 Z5.
X9.44899 Y1.49657
G1 Z1. F179.
X10.86556 Y1.57081 F716.
X10.81917 Y1.86371
X9.44899 Y1.49657
X9.31958 Y1.97954
X4.80423 Y0.76965
X4.77632 Y0.751
X11.35129 Y1.09558
X11.40668 Y1.12112
X11.43157 Y1.19339
X11.22614 Y2.4904
X9.31958 Y1.97954
G0 Z5.
X9.44899 Y1.49657
G1 Z0.75 F179.
X10.86556 Y1.57081 F716.
X10.81917 Y1.86371
X9.44899 Y1.49657
X9.31958 Y1.97954
X4.80423 Y0.76965
X4.77632 Y0.751
X11.35129 Y1.09558
X11.40668 Y1.12112
X11.43157 Y1.19339
X11.22614 Y2.4904
X9.31958 Y1.97954
G0 Z5.
X9.44899 Y1.49657
G1 Z0.5 F179.
X10.86556 Y1.57081 F716.
X10.81917 Y1.86371
X9.44899 Y1.49657
X9.31958 Y1.97954
X4.80423 Y0.76965
X4.77632 Y0.751
X11.35129 Y1.09558
X11.40668 Y1.12112
X11.43157 Y1.19339
X11.22614 Y2.4904
X9.31958 Y1.97954
G0 Z5.
X9.44899 Y1.49657
G1 Z0.25 F179.
X10.86556 Y1.57081 F716.
X10.81917 Y1.86371
X9.44899 Y1.49657
X9.31958 Y1.97954
X4.80423 Y0.76965
X4.77632 Y0.751
X11.35129 Y1.09558
X11.40668 Y1.12112
X11.43157 Y1.19339
X11.22614 Y2.4904
X9.31958 Y1.97954
G0 Z5.
X9.44899 Y1.49657
G1 Z0. F179.
X10.86556 Y1.57081 F716.
X10.81917 Y1.86371
X9.44899 Y1.49657
X9.31958 Y1.97954
X4.80423 Y0.76965
X4.77632 Y0.751
X11.35129 Y1.09558
X11.40668 Y1.12112
X11.43157 Y1.19339
X11.22614 Y2.4904
X9.31958 Y1.97954
G0 Z5.
X9.44899 Y1.49657
G1 Z-0.25 F179.
X10.86556 Y1.57081 F716.
X10.81917 Y1.86371
X9.44899 Y1.49657
X9.31958 Y1.97954
X4.80423 Y0.76965
X4.77632 Y0.751
X11.35129 Y1.09558
X11.40668 Y1.12112
X11.43157 Y1.19339
X11.22614 Y2.4904
X9.31958 Y1.97954
Z0.35 F1074.
G0 Z5.
X10.31377 Y-2.88794
G1 Z2.45 F179.
Z1.85 F537.
X10.56509 Y-2.98441 Z1.80253
X10.64184 Y-2.69797 Z1.75024
X9.24079 Y-2.47606 Z1.50012
X10.56509 Y-2.98441 Z1.25
X10.64184 Y-2.69797 F716.
X9.24079 Y-2.47606
X10.56509 Y-2.98441
X11.04805 Y-3.11382
X11.26853 Y-2.29099
X4.70193 Y-1.25094
X4.66885 Y-1.25663
X10.81553 Y-3.61612
X10.87652 Y-3.61532
X10.92865 Y-3.55942
X11.04805 Y-3.11382
G0 Z5.
X10.56509 Y-2.98441
G1 Z1. F179.
X10.64184 Y-2.69797 F716.
X9.24079 Y-2.47606
X10.56509 Y-2.98441
X11.04805 Y-3.11382
X11.26853 Y-2.29099
X4.70193 Y-1.25094
X4.66885 Y-1.25663
X10.81553 Y-3.61612
X10.87652 Y-3.61532
X10.92865 Y-3.55942
X11.04805 Y-3.11382
G0 Z5.
X10.56509 Y-2.98441
G1 Z0.75 F179.
X10.64184 Y-2.69797 F716.
X9.24079 Y-2.47606
X10.56509 Y-2.98441
X11.04805 Y-3.11382
X11.26853 Y-2.29099
X4.70193 Y-1.25094
X4.66885 Y-1.25663
X10.81553 Y-3.61612
X10.87652 Y-3.61532
X10.92865 Y-3.55942
X11.04805 Y-3.11382
G0 Z5.
X10.56509 Y-2.98441
G1 Z0.5 F179.
X10.64184 Y-2.69797 F716.
X9.24079 Y-2.47606
X10.56509 Y-2.98441
X11.04805 Y-3.11382
X11.26853 Y-2.29099
X4.70193 Y-1.25094
X4.66885 Y-1.25663
X10.81553 Y-3.61612
X10.87652 Y-3.61532
X10.92865 Y-3.55942
X11.04805 Y-3.11382
G0 Z5.
X10.56509 Y-2.98441
G1 Z0.25 F179.
X10.64184 Y-2.69797 F716.
X9.24079 Y-2.47606
X10.56509 Y-2.98441
X11.04805 Y-3.11382
X11.26853 Y-2.29099
X4.70193 Y-1.25094
X4.66885 Y-1.25663
X10.81553 Y-3.61612
X10.87652 Y-3.61532
X10.92865 Y-3.55942
X11.04805 Y-3.11382
G0 Z5.
X10.56509 Y-2.98441
G1 Z0. F179.
X10.64184 Y-2.69797 F716.
X9.24079 Y-2.47606
X10.56509 Y-2.98441
X11.04805 Y-3.11382
X11.26853 Y-2.29099
X4.70193 Y-1.25094
X4.66885 Y-1.25663
X10.81553 Y-3.61612
X10.87652 Y-3.61532
X10.92865 Y-3.55942
X11.04805 Y-3.11382
G0 Z5.
X10.56509 Y-2.98441
G1 Z-0.25 F179.
X10.64184 Y-2.69797 F716.
X9.24079 Y-2.47606
X10.56509 Y-2.98441
X11.04805 Y-3.11382
X11.26853 Y-2.29099
X4.70193 Y-1.25094
X4.66885 Y-1.25663
X10.81553 Y-3.61612
X10.87652 Y-3.61532
X10.92865 Y-3.55942
X11.04805 Y-3.11382
Z0.35 F1074.
G0 Z5.
X8.45503 Y-7.00235
G1 Z2.45 F179.
Z1.85 F537.
X8.62444 Y-6.79314 Z1.80253
X7.43478 Y-6.02057 Z1.55241
X8.43782 Y-7.0236 Z1.30229
X8.62444 Y-6.79314 Z1.25
X7.43478 Y-6.02057 F716.
X8.43782 Y-7.0236
X8.62444 Y-6.79314
X8.89676 Y-6.37381
X3.73885 Y-3.02422
X3.75338 Y-3.04627
X8.40967 Y-7.70256
X8.46571 Y-7.72664
X8.53607 Y-7.69678
X9.36248 Y-6.67625
X8.89676 Y-6.37381
G0 Z5.
X8.62444 Y-6.79314
G1 Z1. F179.
X7.43478 Y-6.02057 F716.
X8.43782 Y-7.0236
X8.62444 Y-6.79314
X8.89676 Y-6.37381
X3.73885 Y-3.02422
X3.75338 Y-3.04627
X8.40967 Y-7.70256
X8.46571 Y-7.72664
X8.53607 Y-7.69678
X9.36248 Y-6.67625
X8.89676 Y-6.37381
G0 Z5.
X8.62444 Y-6.79314
G1 Z0.75 F179.
X7.43478 Y-6.02057 F716.
X8.43782 Y-7.0236
X8.62444 Y-6.79314
X8.89676 Y-6.37381
X3.73885 Y-3.02422
X3.75338 Y-3.04627
X8.40967 Y-7.70256
X8.46571 Y-7.72664
X8.53607 Y-7.69678
X9.36248 Y-6.67625
X8.89676 Y-6.37381
G0 Z5.
X8.62444 Y-6.79314
G1 Z0.5 F179.
X7.43478 Y-6.02057 F716.
X8.43782 Y-7.0236
X8.62444 Y-6.79314
X8.89676 Y-6.37381
X3.73885 Y-3.02422
X3.75338 Y-3.04627
X8.40967 Y-7.70256
X8.46571 Y-7.72664
X8.53607 Y-7.69678
X9.36248 Y-6.67625
X8.89676 Y-6.37381
G0 Z5.
X8.62444 Y-6.79314
G1 Z0.25 F179.
X7.43478 Y-6.02057 F716.
X8.43782 Y-7.0236
X8.62444 Y-6.79314
X8.89676 Y-6.37381
X3.73885 Y-3.02422
X3.75338 Y-3.04627
X8.40967 Y-7.70256
X8.46571 Y-7.72664
X8.53607 Y-7.69678
X9.36248 Y-6.67625
X8.89676 Y-6.37381
G0 Z5.
X8.62444 Y-6.79314
G1 Z0. F179.
X7.43478 Y-6.02057 F716.
X8.43782 Y-7.0236
X8.62444 Y-6.79314
X8.89676 Y-6.37381
X3.73885 Y-3.02422
X3.75338 Y-3.04627
X8.40967 Y-7.70256
X8.46571 Y-7.72664
X8.53607 Y-7.69678
X9.36248 Y-6.67625
X8.89676 Y-6.37381
G0 Z5.
X8.62444 Y-6.79314
G1 Z-0.25 F179.
X7.43478 Y-6.02057 F716.
X8.43782 Y-7.0236
X8.62444 Y-6.79314
X8.89676 Y-6.37381
X3.73885 Y-3.02422
X3.75338 Y-3.04627
X8.40967 Y-7.70256
X8.46571 Y-7.72664
X8.53607 Y-7.69678
X9.36248 Y-6.67625
X8.89676 Y-6.37381
Z0.35 F1074.
G0 Z5.
X4.7551 Y-9.59704
G1 Z2.45 F179.
Z1.85 F537.
X4.85157 Y-9.84835 Z1.80253
X5.1158 Y-9.71372 Z1.75024
X4.34322 Y-8.52406 Z1.50012
X4.85157 Y-9.84835 Z1.25
X5.1158 Y-9.71372 F716.
X4.34322 Y-8.52406
X4.85157 Y-9.84835
X5.07857 Y-10.29386
X5.83758 Y-9.90712
X2.18555 Y-4.28349
X2.18985 Y-4.30955
X4.5497 Y-10.45716
X4.5911 Y-10.50195
X4.66753 Y-10.50329
X5.07857 Y-10.29386
G0 Z5.
X4.85157 Y-9.84835
G1 Z1. F179.
X5.1158 Y-9.71372 F716.
X4.34322 Y-8.52406
X4.85157 Y-9.84835
X5.07857 Y-10.29386
X5.83758 Y-9.90712
X2.18555 Y-4.28349
X2.18985 Y-4.30955
X4.5497 Y-10.45716
X4.5911 Y-10.50195
X4.66753 Y-10.50329
X5.07857 Y-10.29386
G0 Z5.
X4.85157 Y-9.84835
G1 Z0.75 F179.
X5.1158 Y-9.71372 F716.
X4.34322 Y-8.52406
X4.85157 Y-9.84835
X5.07857 Y-10.29386
X5.83758 Y-9.90712
X2.18555 Y-4.28349
X2.18985 Y-4.30955
X4.5497 Y-10.45716
X4.5911 Y-10.50195
X4.66753 Y-10.50329
X5.07857 Y-10.29386
G0 Z5.
X4.85157 Y-9.84835
G1 Z0.5 F179.
X5.1158 Y-9.71372 F716.
X4.34322 Y-8.52406
X4.85157 Y-9.84835
X5.07857 Y-10.29386
X5.83758 Y-9.90712
X2.18555 Y-4.28349
X2.18985 Y-4.30955
X4.5497 Y-10.45716
X4.5911 Y-10.50195
X4.66753 Y-10.50329
X5.07857 Y-10.29386
G0 Z5.
X4.85157 Y-9.84835
G1 Z0.25 F179.
X5.1158 Y-9.71372 F716.
X4.34322 Y-8.52406
X4.85157 Y-9.84835
X5.07857 Y-10.29386
X5.83758 Y-9.90712
X2.18555 Y-4.28349
X2.18985 Y-4.30955
X4.5497 Y-10.45716
X4.5911 Y-10.50195
X4.66753 Y-10.50329
X5.07857 Y-10.29386
G0 Z5.
X4.85157 Y-9.84835
G1 Z0. F179.
X5.1158 Y-9.71372 F716.
X4.34322 Y-8.52406
X4.85157 Y-9.84835
X5.07857 Y-10.29386
X5.83758 Y-9.90712
X2.18555 Y-4.28349
X2.18985 Y-4.30955
X4.5497 Y-10.45716
X4.5911 Y-10.50195
X4.66753 Y-10.50329
X5.07857 Y-10.29386
G0 Z5.
X4.85157 Y-9.84835
G1 Z-0.25 F179.
X5.1158 Y-9.71372 F716.
X4.34322 Y-8.52406
X4.85157 Y-9.84835
X5.07857 Y-10.29386
X5.83758 Y-9.90712
X2.18555 Y-4.28349
X2.18985 Y-4.30955
X4.5497 Y-10.45716
X4.5911 Y-10.50195
X4.66753 Y-10.50329
X5.07857 Y-10.29386
Z0.35 F1074.
G0 Z5.
X0.5428 Y-9.81954
G1 Z2.45 F179.
Z1.85 F537.
X0.50069 Y-9.55366 Z1.80253
X0.42645 Y-10.97023 Z1.55241
X0.72259 Y-10.95471 Z1.50012
X0.50069 Y-9.55366 Z1.25
X0.42645 Y-10.97023 F716.
X0.72259 Y-10.95471
X0.50069 Y-9.55366
X0.00137 Y-9.52749
X-0.09695 Y-11.40362
X-0.07735 Y-11.46138
X-0.00807 Y-11.49369
X1.3033 Y-11.42496
X0.25435 Y-4.80211
X0.24768 Y-4.82766
X0.00137 Y-9.52749
G0 Z5.
X0.50069 Y-9.55366
G1 Z1. F179.
X0.42645 Y-10.97023 F716.
X0.72259 Y-10.95471
X0.50069 Y-9.55366
X0.00137 Y-9.52749
X-0.09695 Y-11.40362
X-0.07735 Y-11.46138
X-0.00807 Y-11.49369
X1.3033 Y-11.42496
X0.25435 Y-4.80211
X0.24768 Y-4.82766
X0.00137 Y-9.52749
G0 Z5.
X0.50069 Y-9.55366
G1 Z0.75 F179.
X0.42645 Y-10.97023 F716.
X0.72259 Y-10.95471
X0.50069 Y-9.55366
X0.00137 Y-9.52749
X-0.09695 Y-11.40362
X-0.07735 Y-11.46138
X-0.00807 Y-11.49369
X1.3033 Y-11.42496
X0.25435 Y-4.80211
X0.24768 Y-4.82766
X0.00137 Y-9.52749
G0 Z5.
X0.50069 Y-9.55366
G1 Z0.5 F179.
X0.42645 Y-10.97023 F716.
X0.72259 Y-10.95471
X0.50069 Y-9.55366
X0.00137 Y-9.52749
X-0.09695 Y-11.40362
X-0.07735 Y-11.46138
X-0.00807 Y-11.49369
X1.3033 Y-11.42496
X0.25435 Y-4.80211
X0.24768 Y-4.82766
X0.00137 Y-9.52749
G0 Z5.
X0.50069 Y-9.55366
G1 Z0.25 F179.
X0.42645 Y-10.97023 F716.
X0.72259 Y-10.95471
X0.50069 Y-9.55366
X0.00137 Y-9.52749
X-0.09695 Y-11.40362
X-0.07735 Y-11.46138
X-0.00807 Y-11.49369
X1.3033 Y-11.42496
X0.25435 Y-4.80211
X0.24768 Y-4.82766
X0.00137 Y-9.52749
G0 Z5.
X0.50069 Y-9.55366
G1 Z0. F179.
X0.42645 Y-10.97023 F716.
X0.72259 Y-10.95471
X0.50069 Y-9.55366
X0.00137 Y-9.52749
X-0.09695 Y-11.40362
X-0.07735 Y-11.46138
X-0.00807 Y-11.49369
X1.3033 Y-11.42496
X0.25435 Y-4.80211
X0.24768 Y-4.82766
X0.00137 Y-9.52749
G0 Z5.
X0.50069 Y-9.55366
G1 Z-0.25 F179.
X0.42645 Y-10.97023 F716.
X0.72259 Y-10.95471
X0.50069 Y-9.55366
X0.00137 Y-9.52749
X-0.09695 Y-11.40362
X-0.07735 Y-11.46138
X-0.00807 Y-11.49369
X1.3033 Y-11.42496
X0.25435 Y-4.80211
X0.24768 Y-4.82766
X0.00137 Y-9.52749
Z0.35 F1074.
G0 Z5.
X-3.4981 Y-9.19137
G1 Z2.45 F179.
Z1.85 F537.
X-3.42843 Y-8.93135 Z1.80253
X-4.07242 Y-10.19525 Z1.55241
X-3.79556 Y-10.30153 Z1.50012
X-3.42843 Y-8.93135 Z1.25
X-4.07242 Y-10.19525 F716.
X-3.79556 Y-10.30153
X-3.42843 Y-8.93135
X-3.87393 Y-8.70436
X-4.72684 Y-10.37829
X-4.73242 Y-10.43903
X-4.68228 Y-10.49672
X-3.45632 Y-10.96732
X-1.73558 Y-4.54541
X-1.73777 Y-4.51192
X-3.87393 Y-8.70436
G0 Z5.
X-3.42843 Y-8.93135
G1 Z1. F179.
X-4.07242 Y-10.19525 F716.
X-3.79556 Y-10.30153
X-3.42843 Y-8.93135
X-3.87393 Y-8.70436
X-4.72684 Y-10.37829
X-4.73242 Y-10.43903
X-4.68228 Y-10.49672
X-3.45632 Y-10.96732
X-1.73558 Y-4.54541
X-1.73777 Y-4.51192
X-3.87393 Y-8.70436
G0 Z5.
X-3.42843 Y-8.93135
G1 Z0.75 F179.
X-4.07242 Y-10.19525 F716.
X-3.79556 Y-10.30153
X-3.42843 Y-8.93135
X-3.87393 Y-8.70436
X-4.72684 Y-10.37829
X-4.73242 Y-10.43903
X-4.68228 Y-10.49672
X-3.45632 Y-10.96732
X-1.73558 Y-4.54541
X-1.73777 Y-4.51192
X-3.87393 Y-8.70436
G0 Z5.
X-3.42843 Y-8.93135
G1 Z0.5 F179.
X-4.07242 Y-10.19525 F716.
X-3.79556 Y-10.30153
X-3.42843 Y-8.93135
X-3.87393 Y-8.70436
X-4.72684 Y-10.37829
X-4.73242 Y-10.43903
X-4.68228 Y-10.49672
X-3.45632 Y-10.96732
X-1.73558 Y-4.54541
X-1.73777 Y-4.51192
X-3.87393 Y-8.70436
G0 Z5.
X-3.42843 Y-8.93135
G1 Z0.25 F179.
X-4.07242 Y-10.19525 F716.
X-3.79556 Y-10.30153
X-3.42843 Y-8.93135
X-3.87393 Y-8.70436
X-4.72684 Y-10.37829
X-4.73242 Y-10.43903
X-4.68228 Y-10.49672
X-3.45632 Y-10.96732
X-1.73558 Y-4.54541
X-1.73777 Y-4.51192
X-3.87393 Y-8.70436
G0 Z5.
X-3.42843 Y-8.93135
G1 Z0. F179.
X-4.07242 Y-10.19525 F716.
X-3.79556 Y-10.30153
X-3.42843 Y-8.93135
X-3.87393 Y-8.70436
X-4.72684 Y-10.37829
X-4.73242 Y-10.43903
X-4.68228 Y-10.49672
X-3.45632 Y-10.96732
X-1.73558 Y-4.54541
X-1.73777 Y-4.51192
X-3.87393 Y-8.70436
G0 Z5.
X-3.42843 Y-8.93135
G1 Z-0.25 F179.
X-4.07242 Y-10.19525 F716.
X-3.79556 Y-10.30153
X-3.42843 Y-8.93135
X-3.87393 Y-8.70436
X-4.72684 Y-10.37829
X-4.73242 Y-10.43903
X-4.68228 Y-10.49672
X-3.45632 Y-10.96732
X-1.73558 Y-4.54541
X-1.73777 Y-4.51192
X-3.87393 Y-8.70436
Z0.35 F1074.
G0 Z5.
X-6.93414 Y-6.97393
G1 Z2.45 F179.
Z1.85 F537.
X-6.76473 Y-6.76473 Z1.80253
X-7.86712 Y-7.65743 Z1.55241
X-7.65743 Y-7.86712 Z1.50012
X-6.76473 Y-6.76473 Z1.25
X-7.86712 Y-7.65743 F716.
X-7.65743 Y-7.86712
X-6.76473 Y-6.76473
X-7.07939 Y-6.37616
X-8.53942 Y-7.55846
X-8.56922 Y-7.61168
X-8.54687 Y-7.68478
X-7.61832 Y-8.61333
X-3.38236 Y-3.38236
X-7.07939 Y-6.37616
G0 Z5.
X-6.76473 Y-6.76473
G1 Z1. F179.
X-7.86712 Y-7.65743 F716.
X-7.65743 Y-7.86712
X-6.76473 Y-6.76473
X-7.07939 Y-6.37616
X-8.53942 Y-7.55846
X-8.56922 Y-7.61168
X-8.54687 Y-7.68478
X-7.61832 Y-8.61333
X-3.38236 Y-3.38236
X-7.07939 Y-6.37616
G0 Z5.
X-6.76473 Y-6.76473
G1 Z0.75 F179.
X-7.86712 Y-7.65743 F716.
X-7.65743 Y-7.86712
X-6.76473 Y-6.76473
X-7.07939 Y-6.37616
X-8.53942 Y-7.55846
X-8.56922 Y-7.61168
X-8.54687 Y-7.68478
X-7.61832 Y-8.61333
X-3.38236 Y-3.38236
X-7.07939 Y-6.37616
G0 Z5.
X-6.76473 Y-6.76473
G1 Z0.5 F179.
X-7.86712 Y-7.65743 F716.
X-7.65743 Y-7.86712
X-6.76473 Y-6.76473
X-7.07939 Y-6.37616
X-8.53942 Y-7.55846
X-8.56922 Y-7.61168
X-8.54687 Y-7.68478
X-7.61832 Y-8.61333
X-3.38236 Y-3.38236
X-7.07939 Y-6.37616
G0 Z5.
X-6.76473 Y-6.76473
G1 Z0.25 F179.
X-7.86712 Y-7.65743 F716.
X-7.65743 Y-7.86712
X-6.76473 Y-6.76473
X-7.07939 Y-6.37616
X-8.53942 Y-7.55846
X-8.56922 Y-7.61168
X-8.54687 Y-7.68478
X-7.61832 Y-8.61333
X-3.38236 Y-3.38236
X-7.07939 Y-6.37616
G0 Z5.
X-6.76473 Y-6.76473
G1 Z0. F179.
X-7.86712 Y-7.65743 F716.
X-7.65743 Y-7.86712
X-6.76473 Y-6.76473
X-7.07939 Y-6.37616
X-8.53942 Y-7.55846
X-8.56922 Y-7.61168
X-8.54687 Y-7.68478
X-7.61832 Y-8.61333
X-3.38236 Y-3.38236
X-7.07939 Y-6.37616
G0 Z5.
X-6.76473 Y-6.76473
G1 Z-0.25 F179.
X-7.86712 Y-7.65743 F716.
X-7.65743 Y-7.86712
X-6.76473 Y-6.76473
X-7.07939 Y-6.37616
X-8.53942 Y-7.55846
X-8.56922 Y-7.61168
X-8.54687 Y-7.68478
X-7.61832 Y-8.61333
X-3.38236 Y-3.38236
X-7.07939 Y-6.37616
Z0.35 F1074.
G0 Z5.
(2 1/2 Axis Profiling)
(SlotDrill 1mm Carbide)
X-4.96928 Y12.55214
G1 Z0.525 F119.2
G17
G03 X4.96928 Y-12.55214 I4.96928 J-12.55214 F477.
X-4.96928 Y12.55214 I-4.96928 J12.55214
G1 Z0.3
G03 X4.96928 Y-12.55214 I4.96928 J-12.55214
X-4.96928 Y12.55214 I-4.96928 J12.55214
G1 Z0.075
G03 X4.96928 Y-12.55214 I4.96928 J-12.55214
X-4.96928 Y12.55214 I-4.96928 J12.55214
G1 Z-0.15
G03 X4.96928 Y-12.55214 I4.96928 J-12.55214
X-4.96928 Y12.55214 I-4.96928 J12.55214
G0 Z5.
M30
%
