%
G17 G21 G40 G90 G64 P0.1
(2 1/2 Axis Facing)
(SlotDrill 1/8in 3.175mm Carbide Aluminium Cut)
T6 M06
S23979 M3
G0 Z6.0875
X8.24113 Y-12.55153
G1 X8.79958 Y-12.17056 Z5.9683 F2157.7
X9.52279 Y-11.60962 Z5.80691
X10.21043 Y-11.00561 Z5.64553
X10.85994 Y-10.36077 Z5.48415
X11.46891 Y-9.67752 Z5.32277
X12.03508 Y-8.95839 Z5.16138
X12.55632 Y-8.20607 Z5.
G17
G03 X14.13847 Y-4.97294 I-11.94061 J7.84687 F2877.
X12.55632 Y-8.20607 I-14.16475 J4.9279
G1 X11.22443 Y-7.34222
G02 X12.63911 Y-4.45132 I-11.25071 J7.29718
G1 X12.63601 Y-4.46033
G02 X11.22964 Y-7.33424 I-12.0203 J4.10113
G1 X11.22443 Y-7.34222
X9.89255 Y-6.47836
X9.90297 Y-6.4624
G03 X11.13355 Y-3.94771 I-9.28726 J6.1032
G1 X11.13976 Y-3.92969
G03 X9.89255 Y-6.47836 I-11.16604 J3.88465
G1 X8.56067 Y-5.61451
G02 X9.6404 Y-3.40807 I-8.58695 J5.56947
G1 X9.63109 Y-3.4351
G02 X8.5763 Y-5.59057 I-9.01538 J3.0759
G1 X8.56067 Y-5.61451
X7.22879 Y-4.75065
X7.24963 Y-4.71873
G03 X8.12863 Y-2.92248 I-6.63392 J4.35953
G1 X8.14105 Y-2.88644
G03 X7.22879 Y-4.75065 I-8.16733 J2.8414
G1 X5.89691 Y-3.8868
G02 X6.64169 Y-2.36482 I-5.92319 J3.84176
G1 X6.62617 Y-2.40987
G02 X5.92295 Y-3.8469 I-6.01046 J2.05067
G1 X5.89691 Y-3.8868
X4.56502 Y-3.02294
X4.59628 Y-2.97506
G03 X5.12371 Y-1.89725 I-3.98057 J2.61586
G1 X5.14234 Y-1.8432
G03 X4.56502 Y-3.02294 I-5.16862 J1.79816
G1 X3.23314 Y-2.15909
G02 X3.64298 Y-1.32157 I-3.25942 J2.11405
G1 X3.62125 Y-1.38464
G02 X3.26961 Y-2.10323 I-3.00554 J1.02544
G1 X3.23314 Y-2.15909
X1.90126 Y-1.29523
X1.94293 Y-1.2314
G03 X2.11879 Y-0.87202 I-1.32722 J0.8722
G1 X2.14363 Y-0.79995
G03 X1.90126 Y-1.29523 I-2.16991 J0.75491
G1 X0.56938 Y-0.43138
G02 X0.64427 Y-0.27832 I-0.59566 J0.38634
X0.56938 Y-0.43138 I-0.34178 J0.0724
G0 Z6.0875
X7.35999 Y-13.09387
G1 Z5.77 F719.2
X8.04351 Y-12.68635 Z5.62968 F2157.7
X8.79958 Y-12.17056 Z5.4683
X9.52279 Y-11.60962 Z5.30691
X10.21043 Y-11.00561 Z5.14553
X10.85994 Y-10.36077 Z4.98415
X11.46891 Y-9.67752 Z4.82277
X12.03508 Y-8.95839 Z4.66138
X12.55632 Y-8.20607 Z4.5
G03 X14.13847 Y-4.97294 I-11.94061 J7.84687 F2877.
X12.55632 Y-8.20607 I-14.16475 J4.9279
G1 X11.22443 Y-7.34222
G02 X12.63911 Y-4.45132 I-11.25071 J7.29718
G1 X12.63601 Y-4.46033
G02 X11.22964 Y-7.33424 I-12.0203 J4.10113
G1 X11.22443 Y-7.34222
X9.89255 Y-6.47836
X9.90297 Y-6.4624
G03 X11.13355 Y-3.94771 I-9.28726 J6.1032
G1 X11.13976 Y-3.92969
G03 X9.89255 Y-6.47836 I-11.16604 J3.88465
G1 X8.56067 Y-5.61451
G02 X9.6404 Y-3.40807 I-8.58695 J5.56947
G1 X9.63109 Y-3.4351
G02 X8.5763 Y-5.59057 I-9.01538 J3.0759
G1 X8.56067 Y-5.61451
X7.22879 Y-4.75065
X7.24963 Y-4.71873
G03 X8.12863 Y-2.92248 I-6.63392 J4.35953
G1 X8.14105 Y-2.88644
G03 X7.22879 Y-4.75065 I-8.16733 J2.8414
G1 X5.89691 Y-3.8868
G02 X6.64169 Y-2.36482 I-5.92319 J3.84176
G1 X6.62617 Y-2.40987
G02 X5.92295 Y-3.8469 I-6.01046 J2.05067
G1 X5.89691 Y-3.8868
X4.56502 Y-3.02294
X4.59628 Y-2.97506
G03 X5.12371 Y-1.89725 I-3.98057 J2.61586
G1 X5.14234 Y-1.8432
G03 X4.56502 Y-3.02294 I-5.16862 J1.79816
G1 X3.23314 Y-2.15909
G02 X3.64298 Y-1.32157 I-3.25942 J2.11405
G1 X3.62125 Y-1.38464
G02 X3.26961 Y-2.10323 I-3.00554 J1.02544
G1 X3.23314 Y-2.15909
X1.90126 Y-1.29523
X1.94293 Y-1.2314
G03 X2.11879 Y-0.87202 I-1.32722 J0.8722
G1 X2.14363 Y-0.79995
G03 X1.90126 Y-1.29523 I-2.16991 J0.75491
G1 X0.56938 Y-0.43138
G02 X0.64427 Y-0.27832 I-0.59566 J0.38634
X0.56938 Y-0.43138 I-0.34178 J0.0724
G0 Z6.0875
(2 1/2 Axis Pocketing)
(SlotDrill 1/8in 3.175mm Carbide Aluminium Cut)
X-11.22424 Y-7.30584
G1 Z4.95 F719.2
Z4.35 F2157.7
X-11.33123 Y-7.14899 Z4.31652
X-11.59712 Y-6.72602 Z4.22843
X-11.84719 Y-6.2931 Z4.14027
X-12.08105 Y-5.85081 Z4.05205
X-12.29835 Y-5.39977 Z3.96377
X-12.49878 Y-4.94059 Z3.87543
X-12.68202 Y-4.4739 Z3.78703
X-12.7514 Y-4.2757 Z3.75
G03 X4.27177 Y-12.32694 I12.47201 J4.34811 F2877.
X12.12421 Y3.40404 I-4.42174 J12.03255
X-2.54915 Y11.94272 I-11.90926 J-3.58844
X-11.70004 Y-2.14344 I2.67645 J-11.75418
X1.66803 Y-11.39149 I11.44498 J2.25792
X11.02601 Y0.88901 I-1.86187 J11.12451
X0.08723 Y10.6724 I-10.84595 J-1.11982
X-10.33982 Y0.60798 I0.08677 J-10.52348
X-1.17716 Y-9.92963 I10.13046 J-0.44372
X9.40607 Y-1.65148 I0.93263 J9.71184
X1.84194 Y8.9426 I-9.27269 J1.37675
X-8.4997 Y2.329 I-1.63295 J-8.83895
X-2.84567 Y-7.97974 I8.34108 J-2.13008
X7.34956 Y-3.24885 I2.56736 J7.81825
X3.11965 Y6.92565 I-7.27262 J2.94302
X-6.56422 Y3.10347 I-2.88502 J-6.86912
X-3.15836 Y-6.15565 I6.44271 J-2.88609
X5.66159 Y-3.14246 I2.86782 J6.02067
X2.91558 Y5.27667 I-5.60411 J2.82954
X-4.85039 Y2.98623 I-2.6741 J-5.24406
X-3.10157 Y-4.38023 I4.76107 J-2.76053
X3.83069 Y-3.12071 I2.80187 J4.2858
X3.00398 Y3.34894 I-3.82694 J2.79863
X-2.9042 Y2.9765 I-2.75292 J-3.37755
X-3.67582 Y1.78774 I2.95854 J-2.76517
G0 Z6.0875
X-12.00998 Y5.97311
G1 Z3.75 F719.2
G02 X12.63911 Y-4.45132 I11.9837 J-6.01815 F2877.
G1 X12.63601 Y-4.46033
G02 X11.22964 Y-7.33424 I-12.0203 J4.10113
G1 X11.22443 Y-7.34222
G02 X-12.00998 Y5.97311 I-11.25071 J7.29718
G1 X-12.41808 Y4.9941 Z4.81066 F4315.5
Z5.41066
G0 Z6.0875
X4.08208 Y-0.1929
G1 Z4.95 F719.2
Z4.35 F2157.7
X4.08429 Y-0.16209 Z4.34455
X4.08634 Y0.09727 Z4.29882
X4.07195 Y0.35625 Z4.25308
X4.04115 Y0.61379 Z4.20735
X3.99409 Y0.86886 Z4.16162
X3.93094 Y1.12043 Z4.11588
X3.85196 Y1.36749 Z4.07014
X3.75748 Y1.60904 Z4.02441
X3.64786 Y1.84412 Z3.97867
X3.52355 Y2.07177 Z3.93294
X3.38506 Y2.29108 Z3.8872
X3.23294 Y2.50116 Z3.84147
X3.06779 Y2.70117 Z3.79573
X2.8903 Y2.8903 Z3.75
G03 X-2.8903 Y-2.8903 I-2.8903 J-2.8903 F2877.
X2.8903 Y2.8903 I2.8903 J2.8903
G1 X3.92892 Y2.67519 Z4.81066 F4315.5
Z5.41066
G0 Z6.0875
X-11.22424 Y-7.30584
G1 Z4.2 F719.2
Z3.6 F2157.7
X-11.33123 Y-7.14899 Z3.56652
X-11.59712 Y-6.72602 Z3.47843
X-11.84719 Y-6.2931 Z3.39027
X-12.08105 Y-5.85081 Z3.30205
X-12.29835 Y-5.39977 Z3.21377
X-12.49878 Y-4.94059 Z3.12543
X-12.68202 Y-4.4739 Z3.03703
X-12.7514 Y-4.2757 Z3.
G03 X4.27177 Y-12.32694 I12.47201 J4.34811 F2877.
X12.12421 Y3.40404 I-4.42174 J12.03255
X-2.54915 Y11.94272 I-11.90926 J-3.58844
X-11.70004 Y-2.14344 I2.67645 J-11.75418
X1.66803 Y-11.39149 I11.44498 J2.25792
X11.02601 Y0.88901 I-1.86187 J11.12451
X0.08723 Y10.6724 I-10.84595 J-1.11982
X-10.33982 Y0.60798 I0.08677 J-10.52348
X-1.17716 Y-9.92963 I10.13046 J-0.44372
X9.40607 Y-1.65148 I0.93263 J9.71184
X1.84194 Y8.9426 I-9.27269 J1.37675
X-8.4997 Y2.329 I-1.63295 J-8.83895
X-2.84567 Y-7.97974 I8.34108 J-2.13008
X7.34956 Y-3.24885 I2.56736 J7.81825
X3.11965 Y6.92565 I-7.27262 J2.94302
X-6.56422 Y3.10347 I-2.88502 J-6.86912
X-3.15836 Y-6.15565 I6.44271 J-2.88609
X5.66159 Y-3.14246 I2.86782 J6.02067
X2.91558 Y5.27667 I-5.60411 J2.82954
X-4.85039 Y2.98623 I-2.6741 J-5.24406
X-3.10157 Y-4.38023 I4.76107 J-2.76053
X3.83069 Y-3.12071 I2.80187 J4.2858
X3.00398 Y3.34894 I-3.82694 J2.79863
X-2.9042 Y2.9765 I-2.75292 J-3.37755
X-3.67582 Y1.78774 I2.95854 J-2.76517
G0 Z6.0875
X-12.00998 Y5.97311
G1 Z3. F719.2
G02 X12.63911 Y-4.45132 I11.9837 J-6.01815 F2877.
G1 X12.63601 Y-4.46033
G02 X11.22964 Y-7.33424 I-12.0203 J4.10113
G1 X11.22443 Y-7.34222
G02 X-12.00998 Y5.97311 I-11.25071 J7.29718
G1 X-12.41808 Y4.9941 Z4.06066 F4315.5
Z4.66066
G0 Z6.0875
X4.08208 Y-0.1929
G1 Z4.2 F719.2
Z3.6 F2157.7
X4.08429 Y-0.16209 Z3.59455
X4.08634 Y0.09727 Z3.54882
X4.07195 Y0.35625 Z3.50308
X4.04115 Y0.61379 Z3.45735
X3.99409 Y0.86886 Z3.41161
X3.93094 Y1.12043 Z3.36588
X3.85196 Y1.36749 Z3.32014
X3.75748 Y1.60904 Z3.27441
X3.64786 Y1.84412 Z3.22867
X3.52355 Y2.07177 Z3.18294
X3.38506 Y2.29108 Z3.1372
X3.23294 Y2.50116 Z3.09147
X3.06779 Y2.70117 Z3.04573
X2.8903 Y2.8903 Z3.
G03 X-2.8903 Y-2.8903 I-2.8903 J-2.8903 F2877.
X2.8903 Y2.8903 I2.8903 J2.8903
G1 X3.92892 Y2.67519 Z4.06066 F4315.5
Z4.66066
G0 Z6.0875
X-11.22424 Y-7.30584
G1 Z3.45 F719.2
Z2.85 F2157.7
X-11.33123 Y-7.14899 Z2.81652
X-11.59712 Y-6.72602 Z2.72843
X-11.84719 Y-6.2931 Z2.64027
X-12.08105 Y-5.85081 Z2.55205
X-12.29835 Y-5.39977 Z2.46377
X-12.49878 Y-4.94059 Z2.37543
X-12.68202 Y-4.4739 Z2.28703
X-12.7514 Y-4.2757 Z2.25
G03 X4.27177 Y-12.32694 I12.47201 J4.34811 F2877.
X12.12421 Y3.40404 I-4.42174 J12.03255
X-2.54915 Y11.94272 I-11.90926 J-3.58844
X-11.70004 Y-2.14344 I2.67645 J-11.75418
X1.66803 Y-11.39149 I11.44498 J2.25792
X11.02601 Y0.88901 I-1.86187 J11.12451
X0.08723 Y10.6724 I-10.84595 J-1.11982
X-10.33982 Y0.60798 I0.08677 J-10.52348
X-1.17716 Y-9.92963 I10.13046 J-0.44372
X9.40607 Y-1.65148 I0.93263 J9.71184
X1.84194 Y8.9426 I-9.27269 J1.37675
X-8.4997 Y2.329 I-1.63295 J-8.83895
X-2.84567 Y-7.97974 I8.34108 J-2.13008
X7.34956 Y-3.24885 I2.56736 J7.81825
X3.11965 Y6.92565 I-7.27262 J2.94302
X-6.56422 Y3.10347 I-2.88502 J-6.86912
X-3.15836 Y-6.15565 I6.44271 J-2.88609
X5.66159 Y-3.14246 I2.86782 J6.02067
X2.91558 Y5.27667 I-5.60411 J2.82954
X-4.85039 Y2.98623 I-2.6741 J-5.24406
X-3.10157 Y-4.38023 I4.76107 J-2.76053
X3.83069 Y-3.12071 I2.80187 J4.2858
X3.00398 Y3.34894 I-3.82694 J2.79863
X-2.9042 Y2.9765 I-2.75292 J-3.37755
X-3.67582 Y1.78774 I2.95854 J-2.76517
G0 Z6.0875
X-12.00998 Y5.97311
G1 Z2.25 F719.2
G02 X12.63911 Y-4.45132 I11.9837 J-6.01815 F2877.
G1 X12.63601 Y-4.46033
G02 X11.22964 Y-7.33424 I-12.0203 J4.10113
G1 X11.22443 Y-7.34222
G02 X-12.00998 Y5.97311 I-11.25071 J7.29718
G1 X-12.41808 Y4.9941 Z3.31066 F4315.5
Z3.91066
G0 Z6.0875
X4.08208 Y-0.1929
G1 Z3.45 F719.2
Z2.85 F2157.7
X4.08429 Y-0.16209 Z2.84455
X4.08634 Y0.09727 Z2.79882
X4.07195 Y0.35625 Z2.75308
X4.04115 Y0.61379 Z2.70735
X3.99409 Y0.86886 Z2.66161
X3.93094 Y1.12043 Z2.61588
X3.85196 Y1.36749 Z2.57014
X3.75748 Y1.60904 Z2.52441
X3.64786 Y1.84412 Z2.47867
X3.52355 Y2.07177 Z2.43294
X3.38506 Y2.29108 Z2.3872
X3.23294 Y2.50116 Z2.34147
X3.06779 Y2.70117 Z2.29574
X2.8903 Y2.8903 Z2.25
G03 X-2.8903 Y-2.8903 I-2.8903 J-2.8903 F2877.
X2.8903 Y2.8903 I2.8903 J2.8903
G1 X3.92892 Y2.67519 Z3.31066 F4315.5
Z3.91066
G0 Z6.0875
X-11.22424 Y-7.30584
G1 Z2.7 F719.2
Z2.1 F2157.7
X-11.33123 Y-7.14899 Z2.06652
X-11.59712 Y-6.72602 Z1.97843
X-11.84719 Y-6.2931 Z1.89027
X-12.08105 Y-5.85081 Z1.80205
X-12.29835 Y-5.39977 Z1.71377
X-12.49878 Y-4.94059 Z1.62543
X-12.68202 Y-4.4739 Z1.53703
X-12.7514 Y-4.2757 Z1.5
G03 X4.27177 Y-12.32694 I12.47201 J4.34811 F2877.
X12.12421 Y3.40404 I-4.42174 J12.03255
X-2.54915 Y11.94272 I-11.90926 J-3.58844
X-11.70004 Y-2.14344 I2.67645 J-11.75418
X1.66803 Y-11.39149 I11.44498 J2.25792
X11.02601 Y0.88901 I-1.86187 J11.12451
X0.08723 Y10.6724 I-10.84595 J-1.11982
X-10.33982 Y0.60798 I0.08677 J-10.52348
X-1.17716 Y-9.92963 I10.13046 J-0.44372
X9.40607 Y-1.65148 I0.93263 J9.71184
X1.84194 Y8.9426 I-9.27269 J1.37675
X-8.4997 Y2.329 I-1.63295 J-8.83895
X-2.84567 Y-7.97974 I8.34108 J-2.13008
X7.34956 Y-3.24885 I2.56736 J7.81825
X3.11965 Y6.92565 I-7.27262 J2.94302
X-6.56422 Y3.10347 I-2.88502 J-6.86912
X-3.15836 Y-6.15565 I6.44271 J-2.88609
X5.66159 Y-3.14246 I2.86782 J6.02067
X2.91558 Y5.27667 I-5.60411 J2.82954
X-4.85039 Y2.98623 I-2.6741 J-5.24406
X-3.10157 Y-4.38023 I4.76107 J-2.76053
X3.83069 Y-3.12071 I2.80187 J4.2858
X3.00398 Y3.34894 I-3.82694 J2.79863
X-2.9042 Y2.9765 I-2.75292 J-3.37755
X-3.67582 Y1.78774 I2.95854 J-2.76517
G0 Z6.0875
X-12.00998 Y5.97311
G1 Z1.5 F719.2
G02 X12.63911 Y-4.45132 I11.9837 J-6.01815 F2877.
G1 X12.63601 Y-4.46033
G02 X11.22964 Y-7.33424 I-12.0203 J4.10113
G1 X11.22443 Y-7.34222
G02 X-12.00998 Y5.97311 I-11.25071 J7.29718
G1 X-12.41808 Y4.9941 Z2.56066 F4315.5
Z3.16066
G0 Z6.0875
X4.08208 Y-0.1929
G1 Z2.7 F719.2
Z2.1 F2157.7
X4.08429 Y-0.16209 Z2.09455
X4.08634 Y0.09727 Z2.04882
X4.07195 Y0.35625 Z2.00308
X4.04115 Y0.61379 Z1.95735
X3.99409 Y0.86886 Z1.91161
X3.93094 Y1.12043 Z1.86588
X3.85196 Y1.36749 Z1.82014
X3.75748 Y1.60904 Z1.77441
X3.64786 Y1.84412 Z1.72867
X3.52355 Y2.07177 Z1.68294
X3.38506 Y2.29108 Z1.6372
X3.23294 Y2.50116 Z1.59147
X3.06779 Y2.70117 Z1.54574
X2.8903 Y2.8903 Z1.5
G03 X-2.8903 Y-2.8903 I-2.8903 J-2.8903 F2877.
X2.8903 Y2.8903 I2.8903 J2.8903
G1 X3.92892 Y2.67519 Z2.56066 F4315.5
Z3.16066
G0 Z6.0875
(2 1/2 Axis Profiling)
(SlotDrill 1/8in 3.175mm Carbide Aluminium Cut)
X12.2015 Y2.9087
G1 Z2.02 F719.2
X12.27148 Y2.62829 Z1.96904 F2157.7
X12.41167 Y1.87302 Z1.83359
X12.50552 Y1.11061 Z1.69814
X12.55268 Y0.34389 Z1.56269
X12.55298 Y-0.42428 Z1.42724
X12.50641 Y-1.19103 Z1.29179
X12.41314 Y-1.95352 Z1.15635
X12.27354 Y-2.70889 Z1.0209
X12.0881 Y-3.45434 Z0.88545
X11.85753 Y-4.18709 Z0.75
G02 X10.53622 Y-6.88719 I-11.24182 J3.82789 F2877.
X11.85753 Y-4.18709 I-10.5625 J6.84215
G0 Z6.0875
M30
%
