%
G17 G21 G40 G90 G64 P0.1
(2 1/2 Axis Facing)
(SlotDrill 1/8in 3.175mm Carbide Aluminium Cut)
T6 M06
S23979 M3
G0 Z6.0875
X-0.42356 Y17.47452
G1 X-1.04215 Y17.45726 Z5.97838 F2157.7
X-2.14726 Y17.35601 Z5.78271
X-3.24372 Y17.18488 Z5.58703
X-4.32712 Y16.94455 Z5.39135
X-5.3931 Y16.636 Z5.19568
X-6.43736 Y16.26045 Z5.
G17
G03 X6.43736 Y-16.26045 I6.43736 J-16.26045 F2877.
X-6.43736 Y16.26045 I-6.43736 J16.26045
G1 X-5.85301 Y14.78441
G02 X5.85301 Y-14.78441 I5.85301 J-14.78441
X-5.85301 Y14.78441 I-5.85301 J14.78441
G1 X-5.26866 Y13.30837
G03 X5.26866 Y-13.30837 I5.26866 J-13.30837
X-5.26866 Y13.30837 I-5.26866 J13.30837
G1 X-4.68431 Y11.83233
G02 X4.68431 Y-11.83233 I4.68431 J-11.83233
X-4.68431 Y11.83233 I-4.68431 J11.83233
G1 X-4.09996 Y10.35629
G03 X4.09996 Y-10.3563 I4.09996 J-10.35629
X-4.09996 Y10.35629 I-4.09996 J10.3563
G1 X-3.51561 Y8.88026
G02 X3.51561 Y-8.88026 I3.51561 J-8.88026
X-3.51561 Y8.88026 I-3.51561 J8.88026
G1 X-2.93126 Y7.40422
G03 X2.93126 Y-7.40422 I2.93126 J-7.40422
X-2.93126 Y7.40422 I-2.93126 J7.40422
G1 X-2.34691 Y5.92818
G02 X2.34691 Y-5.92818 I2.34691 J-5.92818
X-2.34691 Y5.92818 I-2.34691 J5.92818
G1 X-1.76256 Y4.45214
G03 X1.76256 Y-4.45214 I1.76256 J-4.45214
X-1.76256 Y4.45214 I-1.76256 J4.45214
G1 X-1.17821 Y2.9761
G02 X1.17821 Y-2.9761 I1.17821 J-2.9761
X-1.17821 Y2.9761 I-1.17821 J2.9761
G1 X-0.59386 Y1.50006
G03 X0.59386 Y-1.50006 I0.59386 J-1.50006
X-0.59386 Y1.50006 I-0.59386 J1.50006
G1 X-0.00951 Y0.02402
X0.01605 Y0.02025
X0.02556 Y-0.00378
X0.00951 Y-0.02402
X-0.01605 Y-0.02025
X-0.02556 Y0.00377
X-0.00951 Y0.02402
G0 Z6.0875
X0.61091 Y17.46886
G1 Z5.77 F719.2
X0.06716 Y17.48821 Z5.67406 F2157.7
X-1.04215 Y17.45726 Z5.47838
X-2.14726 Y17.35601 Z5.28271
X-3.24372 Y17.18488 Z5.08703
X-4.32712 Y16.94455 Z4.89135
X-5.3931 Y16.636 Z4.69568
X-6.43736 Y16.26045 Z4.5
G03 X6.43736 Y-16.26045 I6.43736 J-16.26045 F2877.
X-6.43736 Y16.26045 I-6.43736 J16.26045
G1 X-5.85301 Y14.78441
G02 X5.85301 Y-14.78441 I5.85301 J-14.78441
X-5.85301 Y14.78441 I-5.85301 J14.78441
G1 X-5.26866 Y13.30837
G03 X5.26866 Y-13.30837 I5.26866 J-13.30837
X-5.26866 Y13.30837 I-5.26866 J13.30837
G1 X-4.68431 Y11.83233
G02 X4.68431 Y-11.83233 I4.68431 J-11.83233
X-4.68431 Y11.83233 I-4.68431 J11.83233
G1 X-4.09996 Y10.35629
G03 X4.09996 Y-10.3563 I4.09996 J-10.35629
X-4.09996 Y10.35629 I-4.09996 J10.3563
G1 X-3.51561 Y8.88026
G02 X3.51561 Y-8.88026 I3.51561 J-8.88026
X-3.51561 Y8.88026 I-3.51561 J8.88026
G1 X-2.93126 Y7.40422
G03 X2.93126 Y-7.40422 I2.93126 J-7.40422
X-2.93126 Y7.40422 I-2.93126 J7.40422
G1 X-2.34691 Y5.92818
G02 X2.34691 Y-5.92818 I2.34691 J-5.92818
X-2.34691 Y5.92818 I-2.34691 J5.92818
G1 X-1.76256 Y4.45214
G03 X1.76256 Y-4.45214 I1.76256 J-4.45214
X-1.76256 Y4.45214 I-1.76256 J4.45214
G1 X-1.17821 Y2.9761
G02 X1.17821 Y-2.9761 I1.17821 J-2.9761
X-1.17821 Y2.9761 I-1.17821 J2.9761
G1 X-0.59386 Y1.50006
G03 X0.59386 Y-1.50006 I0.59386 J-1.50006
X-0.59386 Y1.50006 I-0.59386 J1.50006
G1 X-0.00951 Y0.02402
X0.01605 Y0.02025
X0.02556 Y-0.00378
X0.00951 Y-0.02402
X-0.01605 Y-0.02025
X-0.02556 Y0.00377
X-0.00951 Y0.02402
G0 Z6.0875
(2 1/2 Axis Pocketing)
(SlotDrill 1/8in 3.175mm Carbide Aluminium Cut)
X15.57026 Y2.84619
G1 Z4.95 F719.2
Z4.35 F2157.7
X15.58449 Y2.77949 Z4.33797
X15.6817 Y2.22901 Z4.23941
X15.75947 Y1.67514 Z4.14079
X15.81766 Y1.11855 Z4.04211
X15.8562 Y0.55994 Z3.94338
X15.875 Y0. Z3.84459
X15.87447 Y-0.53645 Z3.75
G03 X1.36609 Y15.44011 I-15.68799 J0.32951 F2877.
X-14.96649 Y2.12735 I-1.14951 J-15.26483
X-2.84246 Y-14.45663 I14.80283 J-1.90186
X13.91409 Y-3.50978 I2.60869 J14.30503
X3.61228 Y13.4812 I-13.77187 J3.26851
X-12.9665 Y3.99964 I-3.36943 J-13.34345
X-4.35371 Y-12.44219 I12.8378 J-3.75188
X11.91006 Y-4.67435 I4.10138 J12.32271
X4.66044 Y11.49139 I-11.79896 J4.41712
X-10.99189 Y4.84195 I-4.40283 J-11.38302
X-4.99809 Y-10.49204 I10.89103 J-4.58131
X9.9929 Y-5.129 I4.73465 J10.39876
X4.94972 Y9.63888 I-9.90649 J4.86202
X-9.03322 Y5.25774 I-4.68416 J-9.55463
X-5.51623 Y-8.42279 I8.96285 J-4.98817
X7.81111 Y-5.72558 I5.24338 J8.36647
X5.35357 Y7.58428 I-7.76549 J5.44799
X-6.90678 Y5.61908 I-5.0789 J-7.54128
X-5.81821 Y-6.22978 I6.88231 J-5.34215
X5.5591 Y-5.95234 I5.54026 J6.22391
X5.94536 Y4.98875 I-5.57047 J5.67402
X-4.30986 Y5.99465 I-5.6688 J-5.01452
X-5.77752 Y-3.93905 I4.35155 J-5.7182
X3.58188 Y-5.54584 I5.50211 J3.98709
X5.25668 Y3.30299 I-3.63516 J5.27093
X-2.81793 Y5.09866 I-4.98514 J-3.36431
X-4.90385 Y-2.36157 I2.89365 J-4.83081
X1.93644 Y-4.67498 I4.64041 J2.45137
X4.43732 Y1.48959 I-2.04084 J4.41751
X3.55806 Y2.89575 I-4.23093 J-1.66758
G0 Z6.0875
X12.33267 Y10.03702
G1 Z3.75 F719.2
G02 X-12.33267 Y-10.03702 I-12.33267 J-10.03702 F2877.
X12.33267 Y10.03702 I12.33267 J10.03702
G1 X11.28432 Y10.19813 Z4.81066 F4315.5
Z5.41066
G0 Z6.0875
X-1.134 Y4.44309
G1 Z4.95 F719.2
Z4.35 F2157.7
X-1.32779 Y4.39114 Z4.31462
X-1.60362 Y4.29809 Z4.26329
X-1.87299 Y4.18773 Z4.21196
X-2.13482 Y4.0605 Z4.16064
X-2.38806 Y3.91693 Z4.10931
X-2.63168 Y3.75758 Z4.05798
X-2.8647 Y3.58311 Z4.00665
X-3.08619 Y3.3942 Z3.95532
X-3.29525 Y3.19163 Z3.90399
X-3.49104 Y2.97621 Z3.85266
X-3.67277 Y2.7488 Z3.80133
X-3.83972 Y2.51032 Z3.75
G03 X3.83972 Y-2.51033 I3.83972 J-2.51032 F2877.
X-3.83972 Y2.51032 I-3.83972 J2.51033
G1 Y3.57098 Z4.81066 F4315.5
Z5.41066
G0 Z6.0875
X15.57026 Y2.84619
G1 Z4.2 F719.2
Z3.6 F2157.7
X15.58449 Y2.77949 Z3.58797
X15.6817 Y2.22901 Z3.48941
X15.75947 Y1.67514 Z3.39079
X15.81766 Y1.11855 Z3.29211
X15.8562 Y0.55994 Z3.19338
X15.875 Y0. Z3.09459
X15.87447 Y-0.53645 Z3.
G03 X1.36609 Y15.44011 I-15.68799 J0.32951 F2877.
X-14.96649 Y2.12735 I-1.14951 J-15.26483
X-2.84246 Y-14.45663 I14.80283 J-1.90186
X13.91409 Y-3.50978 I2.60869 J14.30503
X3.61228 Y13.4812 I-13.77187 J3.26851
X-12.9665 Y3.99964 I-3.36943 J-13.34345
X-4.35371 Y-12.44219 I12.8378 J-3.75188
X11.91006 Y-4.67435 I4.10138 J12.32271
X4.66044 Y11.49139 I-11.79896 J4.41712
X-10.99189 Y4.84195 I-4.40283 J-11.38302
X-4.99809 Y-10.49204 I10.89103 J-4.58131
X9.9929 Y-5.129 I4.73465 J10.39876
X4.94972 Y9.63888 I-9.90649 J4.86202
X-9.03322 Y5.25774 I-4.68416 J-9.55463
X-5.51623 Y-8.42279 I8.96285 J-4.98817
X7.81111 Y-5.72558 I5.24338 J8.36647
X5.35357 Y7.58428 I-7.76549 J5.44799
X-6.90678 Y5.61908 I-5.0789 J-7.54128
X-5.81821 Y-6.22978 I6.88231 J-5.34215
X5.5591 Y-5.95234 I5.54026 J6.22391
X5.94536 Y4.98875 I-5.57047 J5.67402
X-4.30986 Y5.99465 I-5.6688 J-5.01452
X-5.77752 Y-3.93905 I4.35155 J-5.7182
X3.58188 Y-5.54584 I5.50211 J3.98709
X5.25668 Y3.30299 I-3.63516 J5.27093
X-2.81793 Y5.09866 I-4.98514 J-3.36431
X-4.90385 Y-2.36157 I2.89365 J-4.83081
X1.93644 Y-4.67498 I4.64041 J2.45137
X4.43732 Y1.48959 I-2.04084 J4.41751
X3.55806 Y2.89575 I-4.23093 J-1.66758
G0 Z6.0875
X12.33267 Y10.03702
G1 Z3. F719.2
G02 X-12.33267 Y-10.03702 I-12.33267 J-10.03702 F2877.
X12.33267 Y10.03702 I12.33267 J10.03702
G1 X11.28432 Y10.19813 Z4.06066 F4315.5
Z4.66066
G0 Z6.0875
X-1.134 Y4.44309
G1 Z4.2 F719.2
Z3.6 F2157.7
X-1.32779 Y4.39114 Z3.56462
X-1.60362 Y4.29809 Z3.51329
X-1.87299 Y4.18773 Z3.46196
X-2.13482 Y4.0605 Z3.41064
X-2.38806 Y3.91693 Z3.35931
X-2.63168 Y3.75758 Z3.30798
X-2.8647 Y3.58311 Z3.25665
X-3.08619 Y3.3942 Z3.20532
X-3.29525 Y3.19163 Z3.15399
X-3.49104 Y2.97621 Z3.10266
X-3.67277 Y2.7488 Z3.05133
X-3.83972 Y2.51032 Z3.
G03 X3.83972 Y-2.51033 I3.83972 J-2.51032 F2877.
X-3.83972 Y2.51032 I-3.83972 J2.51033
G1 Y3.57098 Z4.06066 F4315.5
Z4.66066
G0 Z6.0875
X15.57026 Y2.84619
G1 Z3.45 F719.2
Z2.85 F2157.7
X15.58449 Y2.77949 Z2.83798
X15.6817 Y2.22901 Z2.73941
X15.75947 Y1.67514 Z2.64079
X15.81766 Y1.11855 Z2.54211
X15.8562 Y0.55994 Z2.44338
X15.875 Y0. Z2.34459
X15.87447 Y-0.53645 Z2.25
G03 X1.36609 Y15.44011 I-15.68799 J0.32951 F2877.
X-14.96649 Y2.12735 I-1.14951 J-15.26483
X-2.84246 Y-14.45663 I14.80283 J-1.90186
X13.91409 Y-3.50978 I2.60869 J14.30503
X3.61228 Y13.4812 I-13.77187 J3.26851
X-12.9665 Y3.99964 I-3.36943 J-13.34345
X-4.35371 Y-12.44219 I12.8378 J-3.75188
X11.91006 Y-4.67435 I4.10138 J12.32271
X4.66044 Y11.49139 I-11.79896 J4.41712
X-10.99189 Y4.84195 I-4.40283 J-11.38302
X-4.99809 Y-10.49204 I10.89103 J-4.58131
X9.9929 Y-5.129 I4.73465 J10.39876
X4.94972 Y9.63888 I-9.90649 J4.86202
X-9.03322 Y5.25774 I-4.68416 J-9.55463
X-5.51623 Y-8.42279 I8.96285 J-4.98817
X7.81111 Y-5.72558 I5.24338 J8.36647
X5.35357 Y7.58428 I-7.76549 J5.44799
X-6.90678 Y5.61908 I-5.0789 J-7.54128
X-5.81821 Y-6.22978 I6.88231 J-5.34215
X5.5591 Y-5.95234 I5.54026 J6.22391
X5.94536 Y4.98875 I-5.57047 J5.67402
X-4.30986 Y5.99465 I-5.6688 J-5.01452
X-5.77752 Y-3.93905 I4.35155 J-5.7182
X3.58188 Y-5.54584 I5.50211 J3.98709
X5.25668 Y3.30299 I-3.63516 J5.27093
X-2.81793 Y5.09866 I-4.98514 J-3.36431
X-4.90385 Y-2.36157 I2.89365 J-4.83081
X1.93644 Y-4.67498 I4.64041 J2.45137
X4.43732 Y1.48959 I-2.04084 J4.41751
X3.55806 Y2.89575 I-4.23093 J-1.66758
G0 Z6.0875
X12.33267 Y10.03702
G1 Z2.25 F719.2
G02 X-12.33267 Y-10.03702 I-12.33267 J-10.03702 F2877.
X12.33267 Y10.03702 I12.33267 J10.03702
G1 X11.28432 Y10.19813 Z3.31066 F4315.5
Z3.91066
G0 Z6.0875
X-1.134 Y4.44309
G1 Z3.45 F719.2
Z2.85 F2157.7
X-1.32779 Y4.39114 Z2.81462
X-1.60362 Y4.29809 Z2.76329
X-1.87299 Y4.18773 Z2.71196
X-2.13482 Y4.0605 Z2.66064
X-2.38806 Y3.91693 Z2.60931
X-2.63168 Y3.75758 Z2.55798
X-2.8647 Y3.58311 Z2.50665
X-3.08619 Y3.3942 Z2.45532
X-3.29525 Y3.19163 Z2.40399
X-3.49104 Y2.97621 Z2.35266
X-3.67277 Y2.7488 Z2.30133
X-3.83972 Y2.51032 Z2.25
G03 X3.83972 Y-2.51033 I3.83972 J-2.51032 F2877.
X-3.83972 Y2.51032 I-3.83972 J2.51033
G1 Y3.57098 Z3.31066 F4315.5
Z3.91066
G0 Z6.0875
X15.57026 Y2.84619
G1 Z2.7 F719.2
Z2.1 F2157.7
X15.58449 Y2.77949 Z2.08798
X15.6817 Y2.22901 Z1.98941
X15.75947 Y1.67514 Z1.89079
X15.81766 Y1.11855 Z1.79211
X15.8562 Y0.55994 Z1.69338
X15.875 Y0. Z1.59459
X15.87447 Y-0.53645 Z1.5
G03 X1.36609 Y15.44011 I-15.68799 J0.32951 F2877.
X-14.96649 Y2.12735 I-1.14951 J-15.26483
X-2.84246 Y-14.45663 I14.80283 J-1.90186
X13.91409 Y-3.50978 I2.60869 J14.30503
X3.61228 Y13.4812 I-13.77187 J3.26851
X-12.9665 Y3.99964 I-3.36943 J-13.34345
X-4.35371 Y-12.44219 I12.8378 J-3.75188
X11.91006 Y-4.67435 I4.10138 J12.32271
X4.66044 Y11.49139 I-11.79896 J4.41712
X-10.99189 Y4.84195 I-4.40283 J-11.38302
X-4.99809 Y-10.49204 I10.89103 J-4.58131
X9.9929 Y-5.129 I4.73465 J10.39876
X4.94972 Y9.63888 I-9.90649 J4.86202
X-9.03322 Y5.25774 I-4.68416 J-9.55463
X-5.51623 Y-8.42279 I8.96285 J-4.98817
X7.81111 Y-5.72558 I5.24338 J8.36647
X5.35357 Y7.58428 I-7.76549 J5.44799
X-6.90678 Y5.61908 I-5.0789 J-7.54128
X-5.81821 Y-6.22978 I6.88231 J-5.34215
X5.5591 Y-5.95234 I5.54026 J6.22391
X5.94536 Y4.98875 I-5.57047 J5.67402
X-4.30986 Y5.99465 I-5.6688 J-5.01452
X-5.77752 Y-3.93905 I4.35155 J-5.7182
X3.58188 Y-5.54584 I5.50211 J3.98709
X5.25668 Y3.30299 I-3.63516 J5.27093
X-2.81793 Y5.09866 I-4.98514 J-3.36431
X-4.90385 Y-2.36157 I2.89365 J-4.83081
X1.93644 Y-4.67498 I4.64041 J2.45137
X4.43732 Y1.48959 I-2.04084 J4.41751
X3.55806 Y2.89575 I-4.23093 J-1.66758
G0 Z6.0875
X12.33267 Y10.03702
G1 Z1.5 F719.2
G02 X-12.33267 Y-10.03702 I-12.33267 J-10.03702 F2877.
X12.33267 Y10.03702 I12.33267 J10.03702
G1 X11.28432 Y10.19813 Z2.56066 F4315.5
Z3.16066
G0 Z6.0875
X-1.134 Y4.44309
G1 Z2.7 F719.2
Z2.1 F2157.7
X-1.32779 Y4.39114 Z2.06462
X-1.60362 Y4.29809 Z2.01329
X-1.87299 Y4.18773 Z1.96196
X-2.13482 Y4.0605 Z1.91064
X-2.38806 Y3.91693 Z1.85931
X-2.63168 Y3.75758 Z1.80798
X-2.8647 Y3.58311 Z1.75665
X-3.08619 Y3.3942 Z1.70532
X-3.29525 Y3.19163 Z1.65399
X-3.49104 Y2.97621 Z1.60266
X-3.67277 Y2.7488 Z1.55133
X-3.83972 Y2.51032 Z1.5
G03 X3.83972 Y-2.51033 I3.83972 J-2.51032 F2877.
X-3.83972 Y2.51032 I-3.83972 J2.51033
G1 Y3.57098 Z2.56066 F4315.5
Z3.16066
G0 Z6.0875
(2 1/2 Axis Profiling)
(SlotDrill 1/8in 3.175mm Carbide Aluminium Cut)
X-11.15326 Y9.39433
G1 Z2.02 F719.2
X-10.67777 Y9.93883 Z1.89254 F2157.7
X-10.02591 Y10.59605 Z1.72932
X-9.33368 Y11.2106 Z1.5661
X-8.60387 Y11.78001 Z1.40288
X-7.83942 Y12.30198 Z1.23966
X-7.04339 Y12.77442 Z1.07644
X-6.21901 Y13.19542 Z0.91322
X-5.36958 Y13.56329 Z0.75
G02 X5.36958 Y-13.56329 I5.36958 J-13.56329 F2877.
X-5.36958 Y13.56329 I-5.36958 J13.56329
G0 Z6.0875
M30
%
