%
G17 G21 G40 G90 G64 P0.1
(2 1/2 Axis Profiling)
(SlotDrill 1/8in 3.175mm Carbide Aluminium Cut)
T6 M06
S23873 M3
G0 Z1.5875
X63.79072 Y20.90071
G1 Z0.43667 F775.7
X63.83396 Y20.88873 Z0.42875 F2327.2
X63.99229 Y20.87353 Z0.40071
X64.15086 Y20.88606 Z0.37266
X64.30484 Y20.92592 Z0.34462
X64.44956 Y20.99192 Z0.31657
X64.58062 Y21.08205 Z0.28852
X64.69404 Y21.19357 Z0.26048
X64.78637 Y21.32309 Z0.23243
X64.8548 Y21.46667 Z0.20438
X64.89727 Y21.61996 Z0.17634
X64.91247 Y21.77829 Z0.14829
X64.89995 Y21.93686 Z0.12024
X64.86008 Y22.09084 Z0.0922
X64.79408 Y22.23556 Z0.06415
X64.70395 Y22.36661 Z0.03611
X64.59243 Y22.48003 Z0.00806
X64.46291 Y22.57236 Z-0.01999
X64.31933 Y22.6408 Z-0.04803
X64.16604 Y22.68326 Z-0.07608
X64.00771 Y22.69847 Z-0.10413
X63.84915 Y22.68594 Z-0.13217
X63.69516 Y22.64607 Z-0.16022
X63.55044 Y22.58007 Z-0.18827
X63.41939 Y22.48994 Z-0.21631
X63.30597 Y22.37843 Z-0.24436
X63.21364 Y22.24891 Z-0.27241
X63.1452 Y22.10533 Z-0.30045
X63.10274 Y21.95204 Z-0.3285
X63.08754 Y21.79371 Z-0.35654
X63.10006 Y21.63514 Z-0.38459
X63.13993 Y21.48116 Z-0.41264
X63.20593 Y21.33644 Z-0.44068
X63.29606 Y21.20538 Z-0.46873
X63.40757 Y21.09196 Z-0.49678
X63.53709 Y20.99963 Z-0.52482
X63.68067 Y20.9312 Z-0.55287
X63.83396 Y20.88873 Z-0.58092
X63.99229 Y20.87353 Z-0.60896
X64.15086 Y20.88606 Z-0.63701
X64.30484 Y20.92592 Z-0.66505
X64.44956 Y20.99192 Z-0.6931
X64.58062 Y21.08205 Z-0.72115
X64.69404 Y21.19357 Z-0.74919
X64.78637 Y21.32309 Z-0.77724
X64.8548 Y21.46667 Z-0.80529
X64.89727 Y21.61996 Z-0.83333
G17
G03 X63.10274 Y21.95204 I-0.89727 J0.16604 F3103.
X64.89727 Y21.61996 I0.89726 J-0.16604
G1 Z-1.66667
G03 X63.10274 Y21.95204 I-0.89727 J0.16604
X64.89727 Y21.61996 I0.89726 J-0.16604
G1 Z-2.5
G03 X63.10274 Y21.95204 I-0.89727 J0.16604
X64.89727 Y21.61996 I0.89726 J-0.16604
G0 Z1.5875
X52.45978 Y21.00106
G1 Z0.43667 F775.7
X52.49933 Y21.02224 Z0.42875 F2327.2
X52.62437 Y21.12055 Z0.40071
X52.73044 Y21.23908 Z0.37266
X52.81431 Y21.37423 Z0.34462
X52.87344 Y21.52189 Z0.31657
X52.90604 Y21.67757 Z0.28852
X52.9111 Y21.83655 Z0.26048
X52.88848 Y21.99399 Z0.23243
X52.83886 Y22.14512 Z0.20438
X52.76376 Y22.28533 Z0.17634
X52.66545 Y22.41037 Z0.14829
X52.54692 Y22.51644 Z0.12024
X52.41177 Y22.60031 Z0.0922
X52.26411 Y22.65944 Z0.06415
X52.10843 Y22.69203 Z0.03611
X51.94945 Y22.6971 Z0.00806
X51.79201 Y22.67448 Z-0.01999
X51.64088 Y22.62486 Z-0.04803
X51.50067 Y22.54976 Z-0.07608
X51.37563 Y22.45145 Z-0.10413
X51.26957 Y22.33292 Z-0.13217
X51.18569 Y22.19777 Z-0.16022
X51.12656 Y22.05011 Z-0.18827
X51.09397 Y21.89442 Z-0.21631
X51.0889 Y21.73545 Z-0.24436
X51.11152 Y21.578 Z-0.27241
X51.16114 Y21.42688 Z-0.30045
X51.23624 Y21.28667 Z-0.3285
X51.33456 Y21.16163 Z-0.35654
X51.45309 Y21.05556 Z-0.38459
X51.58823 Y20.97169 Z-0.41264
X51.73589 Y20.91256 Z-0.44068
X51.89158 Y20.87996 Z-0.46873
X52.05055 Y20.8749 Z-0.49678
X52.208 Y20.89752 Z-0.52482
X52.35912 Y20.94714 Z-0.55287
X52.49933 Y21.02224 Z-0.58092
X52.62437 Y21.12055 Z-0.60896
X52.73044 Y21.23908 Z-0.63701
X52.81431 Y21.37423 Z-0.66505
X52.87344 Y21.52189 Z-0.6931
X52.90604 Y21.67757 Z-0.72115
X52.9111 Y21.83655 Z-0.74919
X52.88848 Y21.99399 Z-0.77724
X52.83886 Y22.14512 Z-0.80529
X52.76376 Y22.28533 Z-0.83333
G03 X51.23624 Y21.28667 I-0.76376 J-0.49933 F3103.
X52.76376 Y22.28533 I0.76376 J0.49933
G1 Z-1.66667
G03 X51.23624 Y21.28667 I-0.76376 J-0.49933
X52.76376 Y22.28533 I0.76376 J0.49933
G1 Z-2.5
G03 X51.23624 Y21.28667 I-0.76376 J-0.49933
X52.76376 Y22.28533 I0.76376 J0.49933
G0 Z1.5875
X39.50139 Y21.02623
G1 Z0.43667 F775.7
X39.53403 Y21.00273 Z0.42957 F2327.2
X39.67781 Y20.93346 Z0.40143
X39.83146 Y20.89031 Z0.37329
X39.99028 Y20.87458 Z0.34515
X40.1494 Y20.88677 Z0.31701
X40.30397 Y20.9265 Z0.28887
X40.44926 Y20.99255 Z0.26073
X40.58081 Y21.0829 Z0.23259
X40.69461 Y21.19479 Z0.20445
X40.78718 Y21.3248 Z0.17631
X40.78724 Y21.32491 Z0.17628
X40.78731 Y21.32503 Z0.17626
X40.78738 Y21.32515 Z0.17624
X40.78745 Y21.32526 Z0.17621
X40.78752 Y21.32538 Z0.17619
X40.78759 Y21.3255 Z0.17616
X40.78766 Y21.32562 Z0.17614
X40.78773 Y21.32573 Z0.17612
X40.7878 Y21.32585 Z0.17609
X40.78786 Y21.32597 Z0.17607
X40.78793 Y21.32609 Z0.17605
X40.788 Y21.3262 Z0.17602
X40.78807 Y21.32632 Z0.176
X40.78814 Y21.32644 Z0.17597
X40.78821 Y21.32655 Z0.17595
X40.84795 Y21.44889 Z0.15194
X40.84869 Y21.45077 Z0.15159
X40.8943 Y21.60371 Z0.12345
X40.91256 Y21.76225 Z0.09531
X40.90292 Y21.92155 Z0.06717
X40.86568 Y22.07674 Z0.03902
X40.80196 Y22.22306 Z0.01088
X40.71373 Y22.35604 Z-0.01726
X40.60367 Y22.47162 Z-0.0454
X40.47516 Y22.56625 Z-0.07354
X40.33213 Y22.63705 Z-0.10168
X40.17895 Y22.68184 Z-0.12982
X40.02031 Y22.69925 Z-0.15796
X39.86106 Y22.68877 Z-0.1861
X39.70608 Y22.65069 Z-0.21424
X39.5601 Y22.5862 Z-0.24238
X39.42759 Y22.49725 Z-0.27052
X39.3126 Y22.38658 Z-0.29866
X39.21865 Y22.25757 Z-0.3268
X39.14862 Y22.11416 Z-0.35494
X39.10465 Y21.96075 Z-0.38308
X39.08808 Y21.80202 Z-0.41123
X39.09942 Y21.64283 Z-0.43937
X39.13832 Y21.48805 Z-0.46751
X39.20359 Y21.34241 Z-0.49565
X39.29324 Y21.21038 Z-0.52379
X39.40452 Y21.09598 Z-0.55193
X39.53403 Y21.00273 Z-0.58007
X39.67781 Y20.93346 Z-0.60821
X39.83146 Y20.89031 Z-0.63635
X39.99028 Y20.87458 Z-0.66449
X40.1494 Y20.88677 Z-0.69263
X40.30397 Y20.9265 Z-0.72077
X40.44926 Y20.99255 Z-0.74891
X40.58081 Y21.0829 Z-0.77705
X40.69461 Y21.19479 Z-0.80519
X40.78718 Y21.3248 Z-0.83333
G03 X40.78821 Y21.32655 I-0.78675 J0.4622 F3103.
G1 X40.84795 Y21.44889
X40.84869 Y21.45077
G03 X40.78718 Y21.3248 I-0.84826 J0.33623
G1 Z-1.66667
G03 X40.78821 Y21.32655 I-0.78675 J0.4622
G1 X40.84795 Y21.44889
X40.84869 Y21.45077
G03 X40.78718 Y21.3248 I-0.84826 J0.33623
G1 Z-2.5
G03 X40.78821 Y21.32655 I-0.78675 J0.4622
G1 X40.84795 Y21.44889
X40.84869 Y21.45077
G03 X40.78718 Y21.3248 I-0.84826 J0.33623
G0 Z1.5875
X28.45978 Y21.00106
G1 Z0.43667 F775.7
X28.49933 Y21.02224 Z0.42875 F2327.2
X28.62437 Y21.12055 Z0.40071
X28.73044 Y21.23908 Z0.37266
X28.81431 Y21.37423 Z0.34462
X28.87344 Y21.52189 Z0.31657
X28.90604 Y21.67757 Z0.28852
X28.9111 Y21.83655 Z0.26048
X28.88848 Y21.99399 Z0.23243
X28.83886 Y22.14512 Z0.20438
X28.76376 Y22.28533 Z0.17634
X28.66545 Y22.41037 Z0.14829
X28.54692 Y22.51644 Z0.12024
X28.41177 Y22.60031 Z0.0922
X28.26411 Y22.65944 Z0.06415
X28.10843 Y22.69203 Z0.03611
X27.94945 Y22.6971 Z0.00806
X27.79201 Y22.67448 Z-0.01999
X27.64089 Y22.62486 Z-0.04803
X27.50067 Y22.54976 Z-0.07608
X27.37564 Y22.45145 Z-0.10413
X27.26957 Y22.33292 Z-0.13217
X27.18569 Y22.19777 Z-0.16022
X27.12656 Y22.05011 Z-0.18827
X27.09397 Y21.89442 Z-0.21631
X27.0889 Y21.73545 Z-0.24436
X27.11152 Y21.578 Z-0.27241
X27.16114 Y21.42688 Z-0.30045
X27.23624 Y21.28667 Z-0.3285
X27.33456 Y21.16163 Z-0.35654
X27.45309 Y21.05556 Z-0.38459
X27.58823 Y20.97169 Z-0.41264
X27.73589 Y20.91256 Z-0.44068
X27.89158 Y20.87996 Z-0.46873
X28.05055 Y20.8749 Z-0.49678
X28.208 Y20.89752 Z-0.52482
X28.35912 Y20.94714 Z-0.55287
X28.49933 Y21.02224 Z-0.58092
X28.62437 Y21.12055 Z-0.60896
X28.73044 Y21.23908 Z-0.63701
X28.81431 Y21.37423 Z-0.66505
X28.87344 Y21.52189 Z-0.6931
X28.90604 Y21.67757 Z-0.72115
X28.9111 Y21.83655 Z-0.74919
X28.88848 Y21.99399 Z-0.77724
X28.83886 Y22.14512 Z-0.80529
X28.76376 Y22.28533 Z-0.83333
G03 X27.23624 Y21.28667 I-0.76376 J-0.49933 F3103.
X28.76376 Y22.28533 I0.76376 J0.49933
G1 Z-1.66667
G03 X27.23624 Y21.28667 I-0.76376 J-0.49933
X28.76376 Y22.28533 I0.76376 J0.49933
G1 Z-2.5
G03 X27.23624 Y21.28667 I-0.76376 J-0.49933
X28.76376 Y22.28533 I0.76376 J0.49933
G0 Z1.5875
X15.50139 Y21.02623
G1 Z0.43667 F775.7
X15.53403 Y21.00273 Z0.42957 F2327.2
X15.67781 Y20.93346 Z0.40143
X15.83146 Y20.89031 Z0.37329
X15.99028 Y20.87458 Z0.34515
X16.14941 Y20.88677 Z0.31701
X16.30397 Y20.9265 Z0.28887
X16.44926 Y20.99255 Z0.26073
X16.58081 Y21.0829 Z0.23259
X16.69461 Y21.19479 Z0.20445
X16.78718 Y21.3248 Z0.17631
X16.78724 Y21.32491 Z0.17628
X16.78731 Y21.32503 Z0.17626
X16.78738 Y21.32515 Z0.17624
X16.78745 Y21.32526 Z0.17621
X16.78752 Y21.32538 Z0.17619
X16.78759 Y21.3255 Z0.17616
X16.78766 Y21.32562 Z0.17614
X16.78773 Y21.32573 Z0.17612
X16.78779 Y21.32585 Z0.17609
X16.78786 Y21.32597 Z0.17607
X16.78793 Y21.32609 Z0.17605
X16.788 Y21.3262 Z0.17602
X16.78807 Y21.32632 Z0.176
X16.78814 Y21.32644 Z0.17597
X16.78821 Y21.32655 Z0.17595
X16.84795 Y21.44889 Z0.15194
X16.84869 Y21.45077 Z0.15159
X16.8943 Y21.60371 Z0.12345
X16.91256 Y21.76225 Z0.09531
X16.90292 Y21.92155 Z0.06717
X16.86568 Y22.07674 Z0.03902
X16.80196 Y22.22306 Z0.01088
X16.71373 Y22.35604 Z-0.01726
X16.60367 Y22.47162 Z-0.0454
X16.47516 Y22.56625 Z-0.07354
X16.33213 Y22.63705 Z-0.10168
X16.17895 Y22.68184 Z-0.12982
X16.02031 Y22.69925 Z-0.15796
X15.86106 Y22.68877 Z-0.1861
X15.70608 Y22.65069 Z-0.21424
X15.5601 Y22.5862 Z-0.24238
X15.42759 Y22.49725 Z-0.27052
X15.3126 Y22.38658 Z-0.29866
X15.21865 Y22.25757 Z-0.3268
X15.14862 Y22.11416 Z-0.35494
X15.10465 Y21.96075 Z-0.38308
X15.08808 Y21.80202 Z-0.41123
X15.09942 Y21.64283 Z-0.43937
X15.13832 Y21.48805 Z-0.46751
X15.20359 Y21.34241 Z-0.49565
X15.29324 Y21.21038 Z-0.52379
X15.40452 Y21.09598 Z-0.55193
X15.53403 Y21.00273 Z-0.58007
X15.67781 Y20.93346 Z-0.60821
X15.83146 Y20.89031 Z-0.63635
X15.99028 Y20.87458 Z-0.66449
X16.14941 Y20.88677 Z-0.69263
X16.30397 Y20.9265 Z-0.72077
X16.44926 Y20.99255 Z-0.74891
X16.58081 Y21.0829 Z-0.77705
X16.69461 Y21.19479 Z-0.80519
X16.78718 Y21.3248 Z-0.83333
G03 X16.78821 Y21.32655 I-0.78675 J0.4622 F3103.
G1 X16.84795 Y21.44889
X16.84869 Y21.45077
G03 X16.78718 Y21.3248 I-0.84826 J0.33623
G1 Z-1.66667
G03 X16.78821 Y21.32655 I-0.78675 J0.4622
G1 X16.84795 Y21.44889
X16.84869 Y21.45077
G03 X16.78718 Y21.3248 I-0.84826 J0.33623
G1 Z-2.5
G03 X16.78821 Y21.32655 I-0.78675 J0.4622
G1 X16.84795 Y21.44889
X16.84869 Y21.45077
G03 X16.78718 Y21.3248 I-0.84826 J0.33623
G0 Z1.5875
X4.90968 Y21.78185
G1 Z0.43667 F775.7
X4.91159 Y21.82668 Z0.42875 F2327.2
X4.89068 Y21.98436 Z0.40071
X4.8427 Y22.13601 Z0.37266
X4.76912 Y22.27703 Z0.34462
X4.67217 Y22.40312 Z0.31657
X4.5548 Y22.51047 Z0.28852
X4.42057 Y22.5958 Z0.26048
X4.27356 Y22.65653 Z0.23243
X4.11823 Y22.69081 Z0.20438
X3.95932 Y22.69759 Z0.17634
X3.80164 Y22.67668 Z0.14829
X3.64999 Y22.6287 Z0.12024
X3.50897 Y22.55512 Z0.0922
X3.38288 Y22.45817 Z0.06415
X3.27553 Y22.3408 Z0.03611
X3.1902 Y22.20657 Z0.00806
X3.12947 Y22.05956 Z-0.01999
X3.09519 Y21.90423 Z-0.04803
X3.08841 Y21.74532 Z-0.07608
X3.10932 Y21.58764 Z-0.10413
X3.1573 Y21.43599 Z-0.13217
X3.23088 Y21.29497 Z-0.16022
X3.32783 Y21.16888 Z-0.18827
X3.4452 Y21.06153 Z-0.21631
X3.57943 Y20.9762 Z-0.24436
X3.72644 Y20.91547 Z-0.27241
X3.88177 Y20.88119 Z-0.30045
X4.04068 Y20.87441 Z-0.3285
X4.19836 Y20.89532 Z-0.35654
X4.35001 Y20.9433 Z-0.38459
X4.49103 Y21.01688 Z-0.41264
X4.61712 Y21.11383 Z-0.44068
X4.72447 Y21.2312 Z-0.46873
X4.8098 Y21.36543 Z-0.49678
X4.87053 Y21.51244 Z-0.52482
X4.90481 Y21.66776 Z-0.55287
X4.91159 Y21.82668 Z-0.58092
X4.89068 Y21.98436 Z-0.60896
X4.8427 Y22.13601 Z-0.63701
X4.76912 Y22.27703 Z-0.66505
X4.67217 Y22.40312 Z-0.6931
X4.5548 Y22.51047 Z-0.72115
X4.42057 Y22.5958 Z-0.74919
X4.27356 Y22.65653 Z-0.77724
X4.11823 Y22.69081 Z-0.80529
X3.95932 Y22.69759 Z-0.83333
G03 X4.04068 Y20.87441 I0.04068 J-0.91159 F3103.
X3.95932 Y22.69759 I-0.04068 J0.91159
G1 Z-1.66667
G03 X4.04068 Y20.87441 I0.04068 J-0.91159
X3.95932 Y22.69759 I-0.04068 J0.91159
G1 Z-2.5
G03 X4.04068 Y20.87441 I0.04068 J-0.91159
X3.95932 Y22.69759 I-0.04068 J0.91159
G0 Z1.5875
X63.79072 Y2.90071
G1 Z0.43667 F775.7
X63.83396 Y2.88873 Z0.42875 F2327.2
X63.99229 Y2.87353 Z0.40071
X64.15086 Y2.88606 Z0.37266
X64.30484 Y2.92592 Z0.34462
X64.44956 Y2.99192 Z0.31657
X64.58062 Y3.08205 Z0.28852
X64.69404 Y3.19357 Z0.26048
X64.78637 Y3.32309 Z0.23243
X64.8548 Y3.46667 Z0.20438
X64.89727 Y3.61996 Z0.17634
X64.91247 Y3.77829 Z0.14829
X64.89995 Y3.93685 Z0.12024
X64.86008 Y4.09084 Z0.0922
X64.79408 Y4.23556 Z0.06415
X64.70395 Y4.36662 Z0.03611
X64.59243 Y4.48003 Z0.00806
X64.46291 Y4.57236 Z-0.01999
X64.31933 Y4.6408 Z-0.04803
X64.16604 Y4.68326 Z-0.07608
X64.00771 Y4.69847 Z-0.10413
X63.84915 Y4.68594 Z-0.13217
X63.69516 Y4.64607 Z-0.16022
X63.55044 Y4.58007 Z-0.18827
X63.41939 Y4.48994 Z-0.21631
X63.30597 Y4.37843 Z-0.24436
X63.21364 Y4.24891 Z-0.27241
X63.1452 Y4.10533 Z-0.30045
X63.10274 Y3.95204 Z-0.3285
X63.08754 Y3.79371 Z-0.35654
X63.10006 Y3.63514 Z-0.38459
X63.13993 Y3.48116 Z-0.41264
X63.20593 Y3.33644 Z-0.44068
X63.29606 Y3.20538 Z-0.46873
X63.40757 Y3.09196 Z-0.49678
X63.53709 Y2.99963 Z-0.52482
X63.68067 Y2.9312 Z-0.55287
X63.83396 Y2.88873 Z-0.58092
X63.99229 Y2.87353 Z-0.60896
X64.15086 Y2.88606 Z-0.63701
X64.30484 Y2.92592 Z-0.66505
X64.44956 Y2.99192 Z-0.6931
X64.58062 Y3.08205 Z-0.72115
X64.69404 Y3.19357 Z-0.74919
X64.78637 Y3.32309 Z-0.77724
X64.8548 Y3.46667 Z-0.80529
X64.89727 Y3.61996 Z-0.83333
G03 X63.10274 Y3.95204 I-0.89727 J0.16604 F3103.
X64.89727 Y3.61996 I0.89726 J-0.16604
G1 Z-1.66667
G03 X63.10274 Y3.95204 I-0.89727 J0.16604
X64.89727 Y3.61996 I0.89726 J-0.16604
G1 Z-2.5
G03 X63.10274 Y3.95204 I-0.89727 J0.16604
X64.89727 Y3.61996 I0.89726 J-0.16604
G0 Z1.5875
X52.45978 Y3.00106
G1 Z0.43667 F775.7
X52.49933 Y3.02224 Z0.42875 F2327.2
X52.62437 Y3.12055 Z0.40071
X52.73044 Y3.23908 Z0.37266
X52.81431 Y3.37423 Z0.34462
X52.87344 Y3.52189 Z0.31657
X52.90604 Y3.67757 Z0.28852
X52.9111 Y3.83655 Z0.26048
X52.88848 Y3.99399 Z0.23243
X52.83886 Y4.14512 Z0.20438
X52.76376 Y4.28533 Z0.17634
X52.66545 Y4.41037 Z0.14829
X52.54692 Y4.51644 Z0.12024
X52.41177 Y4.60031 Z0.0922
X52.26411 Y4.65944 Z0.06415
X52.10843 Y4.69203 Z0.03611
X51.94945 Y4.6971 Z0.00806
X51.79201 Y4.67448 Z-0.01999
X51.64088 Y4.62486 Z-0.04803
X51.50067 Y4.54976 Z-0.07608
X51.37563 Y4.45145 Z-0.10413
X51.26957 Y4.33292 Z-0.13217
X51.18569 Y4.19777 Z-0.16022
X51.12656 Y4.05011 Z-0.18827
X51.09397 Y3.89442 Z-0.21631
X51.0889 Y3.73545 Z-0.24436
X51.11152 Y3.578 Z-0.27241
X51.16114 Y3.42688 Z-0.30045
X51.23624 Y3.28667 Z-0.3285
X51.33456 Y3.16163 Z-0.35654
X51.45309 Y3.05556 Z-0.38459
X51.58823 Y2.97169 Z-0.41264
X51.73589 Y2.91256 Z-0.44068
X51.89158 Y2.87996 Z-0.46873
X52.05055 Y2.8749 Z-0.49678
X52.208 Y2.89752 Z-0.52482
X52.35912 Y2.94714 Z-0.55287
X52.49933 Y3.02224 Z-0.58092
X52.62437 Y3.12055 Z-0.60896
X52.73044 Y3.23908 Z-0.63701
X52.81431 Y3.37423 Z-0.66505
X52.87344 Y3.52189 Z-0.6931
X52.90604 Y3.67757 Z-0.72115
X52.9111 Y3.83655 Z-0.74919
X52.88848 Y3.99399 Z-0.77724
X52.83886 Y4.14512 Z-0.80529
X52.76376 Y4.28533 Z-0.83333
G03 X51.23624 Y3.28667 I-0.76376 J-0.49933 F3103.
X52.76376 Y4.28533 I0.76376 J0.49933
G1 Z-1.66667
G03 X51.23624 Y3.28667 I-0.76376 J-0.49933
X52.76376 Y4.28533 I0.76376 J0.49933
G1 Z-2.5
G03 X51.23624 Y3.28667 I-0.76376 J-0.49933
X52.76376 Y4.28533 I0.76376 J0.49933
G0 Z1.5875
X39.50139 Y3.02623
G1 Z0.43667 F775.7
X39.53403 Y3.00273 Z0.42957 F2327.2
X39.67781 Y2.93346 Z0.40143
X39.83146 Y2.89031 Z0.37329
X39.99028 Y2.87458 Z0.34515
X40.1494 Y2.88677 Z0.31701
X40.30397 Y2.9265 Z0.28887
X40.44926 Y2.99255 Z0.26073
X40.58081 Y3.0829 Z0.23259
X40.69461 Y3.19479 Z0.20445
X40.78718 Y3.3248 Z0.17631
X40.78724 Y3.32491 Z0.17628
X40.78731 Y3.32503 Z0.17626
X40.78738 Y3.32515 Z0.17624
X40.78745 Y3.32526 Z0.17621
X40.78752 Y3.32538 Z0.17619
X40.78759 Y3.3255 Z0.17616
X40.78766 Y3.32562 Z0.17614
X40.78773 Y3.32573 Z0.17612
X40.7878 Y3.32585 Z0.17609
X40.78786 Y3.32597 Z0.17607
X40.78793 Y3.32608 Z0.17605
X40.788 Y3.3262 Z0.17602
X40.78807 Y3.32632 Z0.176
X40.78814 Y3.32644 Z0.17597
X40.78821 Y3.32655 Z0.17595
X40.84795 Y3.44889 Z0.15194
X40.84869 Y3.45077 Z0.15159
X40.8943 Y3.60371 Z0.12345
X40.91256 Y3.76225 Z0.09531
X40.90292 Y3.92155 Z0.06717
X40.86568 Y4.07674 Z0.03902
X40.80196 Y4.22306 Z0.01088
X40.71373 Y4.35604 Z-0.01726
X40.60367 Y4.47162 Z-0.0454
X40.47516 Y4.56625 Z-0.07354
X40.33213 Y4.63705 Z-0.10168
X40.17895 Y4.68184 Z-0.12982
X40.02031 Y4.69925 Z-0.15796
X39.86106 Y4.68877 Z-0.1861
X39.70608 Y4.65069 Z-0.21424
X39.5601 Y4.5862 Z-0.24238
X39.42759 Y4.49725 Z-0.27052
X39.3126 Y4.38658 Z-0.29866
X39.21865 Y4.25757 Z-0.3268
X39.14862 Y4.11416 Z-0.35494
X39.10465 Y3.96075 Z-0.38308
X39.08808 Y3.80202 Z-0.41123
X39.09942 Y3.64283 Z-0.43937
X39.13832 Y3.48805 Z-0.46751
X39.20359 Y3.34241 Z-0.49565
X39.29324 Y3.21038 Z-0.52379
X39.40452 Y3.09598 Z-0.55193
X39.53403 Y3.00273 Z-0.58007
X39.67781 Y2.93346 Z-0.60821
X39.83146 Y2.89031 Z-0.63635
X39.99028 Y2.87458 Z-0.66449
X40.1494 Y2.88677 Z-0.69263
X40.30397 Y2.9265 Z-0.72077
X40.44926 Y2.99255 Z-0.74891
X40.58081 Y3.0829 Z-0.77705
X40.69461 Y3.19479 Z-0.80519
X40.78718 Y3.3248 Z-0.83333
G03 X40.78821 Y3.32655 I-0.78675 J0.4622 F3103.
G1 X40.84795 Y3.44889
X40.84869 Y3.45077
G03 X40.78718 Y3.3248 I-0.84826 J0.33623
G1 Z-1.66667
G03 X40.78821 Y3.32655 I-0.78675 J0.4622
G1 X40.84795 Y3.44889
X40.84869 Y3.45077
G03 X40.78718 Y3.3248 I-0.84826 J0.33623
G1 Z-2.5
G03 X40.78821 Y3.32655 I-0.78675 J0.4622
G1 X40.84795 Y3.44889
X40.84869 Y3.45077
G03 X40.78718 Y3.3248 I-0.84826 J0.33623
G0 Z1.5875
X28.45978 Y3.00106
G1 Z0.43667 F775.7
X28.49933 Y3.02224 Z0.42875 F2327.2
X28.62437 Y3.12055 Z0.40071
X28.73044 Y3.23908 Z0.37266
X28.81431 Y3.37423 Z0.34462
X28.87344 Y3.52189 Z0.31657
X28.90604 Y3.67757 Z0.28852
X28.9111 Y3.83655 Z0.26048
X28.88848 Y3.99399 Z0.23243
X28.83886 Y4.14512 Z0.20438
X28.76376 Y4.28533 Z0.17634
X28.66545 Y4.41037 Z0.14829
X28.54692 Y4.51644 Z0.12024
X28.41177 Y4.60031 Z0.0922
X28.26411 Y4.65944 Z0.06415
X28.10843 Y4.69203 Z0.03611
X27.94945 Y4.6971 Z0.00806
X27.79201 Y4.67448 Z-0.01999
X27.64089 Y4.62486 Z-0.04803
X27.50067 Y4.54976 Z-0.07608
X27.37564 Y4.45145 Z-0.10413
X27.26957 Y4.33292 Z-0.13217
X27.18569 Y4.19777 Z-0.16022
X27.12656 Y4.05011 Z-0.18827
X27.09397 Y3.89442 Z-0.21631
X27.0889 Y3.73545 Z-0.24436
X27.11152 Y3.578 Z-0.27241
X27.16114 Y3.42688 Z-0.30045
X27.23624 Y3.28667 Z-0.3285
X27.33456 Y3.16163 Z-0.35654
X27.45309 Y3.05556 Z-0.38459
X27.58823 Y2.97169 Z-0.41264
X27.73589 Y2.91256 Z-0.44068
X27.89158 Y2.87996 Z-0.46873
X28.05055 Y2.8749 Z-0.49678
X28.208 Y2.89752 Z-0.52482
X28.35912 Y2.94714 Z-0.55287
X28.49933 Y3.02224 Z-0.58092
X28.62437 Y3.12055 Z-0.60896
X28.73044 Y3.23908 Z-0.63701
X28.81431 Y3.37423 Z-0.66505
X28.87344 Y3.52189 Z-0.6931
X28.90604 Y3.67757 Z-0.72115
X28.9111 Y3.83655 Z-0.74919
X28.88848 Y3.99399 Z-0.77724
X28.83886 Y4.14512 Z-0.80529
X28.76376 Y4.28533 Z-0.83333
G03 X27.23624 Y3.28667 I-0.76376 J-0.49933 F3103.
X28.76376 Y4.28533 I0.76376 J0.49933
G1 Z-1.66667
G03 X27.23624 Y3.28667 I-0.76376 J-0.49933
X28.76376 Y4.28533 I0.76376 J0.49933
G1 Z-2.5
G03 X27.23624 Y3.28667 I-0.76376 J-0.49933
X28.76376 Y4.28533 I0.76376 J0.49933
G0 Z1.5875
X15.50139 Y3.02623
G1 Z0.43667 F775.7
X15.53403 Y3.00273 Z0.42957 F2327.2
X15.67781 Y2.93346 Z0.40143
X15.83146 Y2.89031 Z0.37329
X15.99028 Y2.87458 Z0.34515
X16.14941 Y2.88677 Z0.31701
X16.30397 Y2.9265 Z0.28887
X16.44926 Y2.99255 Z0.26073
X16.58081 Y3.0829 Z0.23259
X16.69461 Y3.19479 Z0.20445
X16.78718 Y3.3248 Z0.17631
X16.78724 Y3.32491 Z0.17628
X16.78731 Y3.32503 Z0.17626
X16.78738 Y3.32515 Z0.17624
X16.78745 Y3.32526 Z0.17621
X16.78752 Y3.32538 Z0.17619
X16.78759 Y3.3255 Z0.17616
X16.78766 Y3.32562 Z0.17614
X16.78773 Y3.32573 Z0.17612
X16.78779 Y3.32585 Z0.17609
X16.78786 Y3.32597 Z0.17607
X16.78793 Y3.32608 Z0.17605
X16.788 Y3.3262 Z0.17602
X16.78807 Y3.32632 Z0.176
X16.78814 Y3.32644 Z0.17597
X16.78821 Y3.32655 Z0.17595
X16.84795 Y3.44889 Z0.15194
X16.84869 Y3.45077 Z0.15159
X16.8943 Y3.60371 Z0.12345
X16.91256 Y3.76225 Z0.09531
X16.90292 Y3.92155 Z0.06717
X16.86568 Y4.07674 Z0.03902
X16.80196 Y4.22306 Z0.01088
X16.71373 Y4.35604 Z-0.01726
X16.60367 Y4.47162 Z-0.0454
X16.47516 Y4.56625 Z-0.07354
X16.33213 Y4.63705 Z-0.10168
X16.17895 Y4.68184 Z-0.12982
X16.02031 Y4.69925 Z-0.15796
X15.86106 Y4.68877 Z-0.1861
X15.70608 Y4.65069 Z-0.21424
X15.5601 Y4.5862 Z-0.24238
X15.42759 Y4.49725 Z-0.27052
X15.3126 Y4.38658 Z-0.29866
X15.21865 Y4.25757 Z-0.3268
X15.14862 Y4.11416 Z-0.35494
X15.10465 Y3.96075 Z-0.38308
X15.08808 Y3.80202 Z-0.41123
X15.09942 Y3.64283 Z-0.43937
X15.13832 Y3.48805 Z-0.46751
X15.20359 Y3.34241 Z-0.49565
X15.29324 Y3.21038 Z-0.52379
X15.40452 Y3.09598 Z-0.55193
X15.53403 Y3.00273 Z-0.58007
X15.67781 Y2.93346 Z-0.60821
X15.83146 Y2.89031 Z-0.63635
X15.99028 Y2.87458 Z-0.66449
X16.14941 Y2.88677 Z-0.69263
X16.30397 Y2.9265 Z-0.72077
X16.44926 Y2.99255 Z-0.74891
X16.58081 Y3.0829 Z-0.77705
X16.69461 Y3.19479 Z-0.80519
X16.78718 Y3.3248 Z-0.83333
G03 X16.78821 Y3.32655 I-0.78675 J0.4622 F3103.
G1 X16.84795 Y3.44889
X16.84869 Y3.45077
G03 X16.78718 Y3.3248 I-0.84826 J0.33623
G1 Z-1.66667
G03 X16.78821 Y3.32655 I-0.78675 J0.4622
G1 X16.84795 Y3.44889
X16.84869 Y3.45077
G03 X16.78718 Y3.3248 I-0.84826 J0.33623
G1 Z-2.5
G03 X16.78821 Y3.32655 I-0.78675 J0.4622
G1 X16.84795 Y3.44889
X16.84869 Y3.45077
G03 X16.78718 Y3.3248 I-0.84826 J0.33623
G0 Z1.5875
X4.90968 Y3.78185
G1 Z0.43667 F775.7
X4.91159 Y3.82668 Z0.42875 F2327.2
X4.89068 Y3.98436 Z0.40071
X4.8427 Y4.13601 Z0.37266
X4.76912 Y4.27703 Z0.34462
X4.67217 Y4.40312 Z0.31657
X4.5548 Y4.51047 Z0.28852
X4.42057 Y4.5958 Z0.26048
X4.27356 Y4.65653 Z0.23243
X4.11823 Y4.69081 Z0.20438
X3.95932 Y4.69759 Z0.17634
X3.80164 Y4.67668 Z0.14829
X3.64999 Y4.6287 Z0.12024
X3.50897 Y4.55512 Z0.0922
X3.38288 Y4.45817 Z0.06415
X3.27553 Y4.3408 Z0.03611
X3.1902 Y4.20657 Z0.00806
X3.12947 Y4.05956 Z-0.01999
X3.09519 Y3.90423 Z-0.04803
X3.08841 Y3.74532 Z-0.07608
X3.10932 Y3.58764 Z-0.10413
X3.1573 Y3.43599 Z-0.13217
X3.23088 Y3.29497 Z-0.16022
X3.32783 Y3.16888 Z-0.18827
X3.4452 Y3.06153 Z-0.21631
X3.57943 Y2.9762 Z-0.24436
X3.72644 Y2.91547 Z-0.27241
X3.88177 Y2.88119 Z-0.30045
X4.04068 Y2.87441 Z-0.3285
X4.19836 Y2.89532 Z-0.35654
X4.35001 Y2.9433 Z-0.38459
X4.49103 Y3.01688 Z-0.41264
X4.61712 Y3.11383 Z-0.44068
X4.72447 Y3.2312 Z-0.46873
X4.8098 Y3.36543 Z-0.49678
X4.87053 Y3.51244 Z-0.52482
X4.90481 Y3.66776 Z-0.55287
X4.91159 Y3.82668 Z-0.58092
X4.89068 Y3.98436 Z-0.60896
X4.8427 Y4.13601 Z-0.63701
X4.76912 Y4.27703 Z-0.66505
X4.67217 Y4.40312 Z-0.6931
X4.5548 Y4.51047 Z-0.72115
X4.42057 Y4.5958 Z-0.74919
X4.27356 Y4.65653 Z-0.77724
X4.11823 Y4.69081 Z-0.80529
X3.95932 Y4.69759 Z-0.83333
G03 X4.04068 Y2.87441 I0.04068 J-0.91159 F3103.
X3.95932 Y4.69759 I-0.04068 J0.91159
G1 Z-1.66667
G03 X4.04068 Y2.87441 I0.04068 J-0.91159
X3.95932 Y4.69759 I-0.04068 J0.91159
G1 Z-2.5
G03 X4.04068 Y2.87441 I0.04068 J-0.91159
X3.95932 Y4.69759 I-0.04068 J0.91159
G0 Z1.5875
(2 1/2 Axis Profiling-1)
(SlotDrill 1/8in 3.175mm Carbide Aluminium Cut)
X47.2666 Y27.1595
G1 Z0.43667 F775.7
X54.46913 Z-0.83333 F2327.2
X73.647 F3103.
G02 X75.2345 Y25.572 I0. J-1.5875
G1 Y18.
G02 X73.647 Y16.4125 I-1.5875 J0.
G1 X0.
G02 X-1.5875 Y18. I0. J1.5875
G1 Y25.572
G02 X0. Y27.1595 I1.5875 J0.
G1 X54.46913
Z-1.66667
X73.647
G02 X75.2345 Y25.572 I0. J-1.5875
G1 Y18.
G02 X73.647 Y16.4125 I-1.5875 J0.
G1 X0.
G02 X-1.5875 Y18. I0. J1.5875
G1 Y25.572
G02 X0. Y27.1595 I1.5875 J0.
G1 X54.46913
Z-2.5
X73.647
G02 X75.2345 Y25.572 I0. J-1.5875
G1 Y18.
G02 X73.647 Y16.4125 I-1.5875 J0.
G1 X0.
G02 X-1.5875 Y18. I0. J1.5875
G1 Y25.572
G02 X0. Y27.1595 I1.5875 J0.
G1 X54.46913
G0 Z1.5875
X47.14698 Y9.1595
G1 Z0.43667 F775.7
X54.34951 Z-0.83333 F2327.2
X73.647 F3103.
G02 X75.2345 Y7.572 I0. J-1.5875
G1 Y0.
G02 X73.647 Y-1.5875 I-1.5875 J0.
G1 X0.
G02 X-1.5875 Y0. I0. J1.5875
G1 Y7.572
G02 X0. Y9.1595 I1.5875 J0.
G1 X54.34951
Z-1.66667
X73.647
G02 X75.2345 Y7.572 I0. J-1.5875
G1 Y0.
G02 X73.647 Y-1.5875 I-1.5875 J0.
G1 X0.
G02 X-1.5875 Y0. I0. J1.5875
G1 Y7.572
G02 X0. Y9.1595 I1.5875 J0.
G1 X54.34951
Z-2.5
X73.647
G02 X75.2345 Y7.572 I0. J-1.5875
G1 Y0.
G02 X73.647 Y-1.5875 I-1.5875 J0.
G1 X0.
G02 X-1.5875 Y0. I0. J1.5875
G1 Y7.572
G02 X0. Y9.1595 I1.5875 J0.
G1 X54.34951
G0 Z1.5875
M30
%
