%
G17 G21 G40 G90 G64 P0.1
(2 1/2 Axis Profiling - Inside)
(1/16in 1.6mm 1 Flute Carbide Router)
T31 M06
S24000 M3
G0 Z0.8
X17.84673 Y6.16002
G1 Z0.43667 F600.
X25.04926 Z-0.83333 F1800.
X39.23337 F2400.
G17
G03 X41.08251 Y6.95578 I0.00102 J2.54399
G1 X41.08334 Y6.95666
G03 X41.02465 Y10.52467 I-1.84872 J1.75408
X30.29863 Y14.79894 I-12.19496 J-15.00726
X13.58732 Y12.5262 I-4.4803 J-29.63168
X10.61214 Y10.52473 I8.58501 J-15.97357
X12.40358 Y6.16002 I1.79147 J-1.81471
G1 X25.04926
G0 Z0.8
X17.84673
G1 Z-0.39667 F600.
X25.04926 Z-1.66667 F1800.
X39.23337 F2400.
G03 X41.08251 Y6.95578 I0.00102 J2.54399
G1 X41.08334 Y6.95666
G03 X41.02465 Y10.52467 I-1.84872 J1.75408
X30.29863 Y14.79894 I-12.19496 J-15.00726
X13.58732 Y12.5262 I-4.4803 J-29.63168
X10.61214 Y10.52473 I8.58501 J-15.97357
X12.40358 Y6.16002 I1.79147 J-1.81471
G1 X25.04926
G0 Z0.8
X17.84673
G1 Z-1.23 F600.
X25.04926 Z-2.5 F1800.
X39.23337 F2400.
G03 X41.08251 Y6.95578 I0.00102 J2.54399
G1 X41.08334 Y6.95666
G03 X41.02465 Y10.52467 I-1.84872 J1.75408
X30.29863 Y14.79894 I-12.19496 J-15.00726
X13.58732 Y12.5262 I-4.4803 J-29.63168
X10.61214 Y10.52473 I8.58501 J-15.97357
X12.40358 Y6.16002 I1.79147 J-1.81471
G1 X25.04926
G0 Z0.8
(2 1/2 Axis Profiling - Outside)
(1/16in 1.6mm 1 Flute Carbide Router)
X32.81358 Y1.21002
G1 Z0.43667 F600.
X25.61105 Z-0.83333 F1800.
X9.06831 F2400.
G03 X7.85831 Y0.00002 I0. J-1.21
G02 X7.05831 Y-0.79998 I-0.8 J0.
G1 X5.04831
G02 X4.24831 Y0.00002 I0. J0.8
G1 Y3.22002
X0.
G02 X-0.67948 Y4.4423 I0. J0.8
X10.40528 Y16.24761 I26.41005 J-13.69132
X23.57648 Y20.0137 I14.4195 J-25.51461
X37.00451 Y18.2124 I2.53269 J-32.07089
X50.45234 Y7.44133 I-9.05335 J-25.08367
G1 X52.31623 Y4.44231
G02 X51.63676 Y3.22002 I-0.67947 J-0.42229
G1 X47.38831
Y0.00002
G02 X46.58831 Y-0.79998 I-0.8 J0.
G1 X44.57831
G02 X43.77831 Y0.00002 I0. J0.8
G03 X42.56831 Y1.21002 I-1.21 J0.
G1 X25.61105
G0 Z0.8
X32.81358
G1 Z-0.39667 F600.
X25.61105 Z-1.66667 F1800.
X9.06831 F2400.
G03 X7.85831 Y0.00002 I0. J-1.21
G02 X7.05831 Y-0.79998 I-0.8 J0.
G1 X5.04831
G02 X4.24831 Y0.00002 I0. J0.8
G1 Y3.22002
X0.
G02 X-0.67948 Y4.4423 I0. J0.8
X10.40528 Y16.24761 I26.41005 J-13.69132
X23.57648 Y20.0137 I14.4195 J-25.51461
X37.00451 Y18.2124 I2.53269 J-32.07089
X50.45234 Y7.44133 I-9.05335 J-25.08367
G1 X52.31623 Y4.44231
G02 X51.63676 Y3.22002 I-0.67947 J-0.42229
G1 X47.38831
Y0.00002
G02 X46.58831 Y-0.79998 I-0.8 J0.
G1 X44.57831
G02 X43.77831 Y0.00002 I0. J0.8
G03 X42.56831 Y1.21002 I-1.21 J0.
G1 X25.61105
G0 Z0.8
X32.81358
G1 Z-1.23 F600.
X25.61105 Z-2.5 F1800.
X9.06831 F2400.
G03 X7.85831 Y0.00002 I0. J-1.21
G02 X7.05831 Y-0.79998 I-0.8 J0.
G1 X5.04831
G02 X4.24831 Y0.00002 I0. J0.8
G1 Y3.22002
X0.
G02 X-0.67948 Y4.4423 I0. J0.8
X10.40528 Y16.24761 I26.41005 J-13.69132
X23.57648 Y20.0137 I14.4195 J-25.51461
X37.00451 Y18.2124 I2.53269 J-32.07089
X50.45234 Y7.44133 I-9.05335 J-25.08367
G1 X52.31623 Y4.44231
G02 X51.63676 Y3.22002 I-0.67947 J-0.42229
G1 X47.38831
Y0.00002
G02 X46.58831 Y-0.79998 I-0.8 J0.
G1 X44.57831
G02 X43.77831 Y0.00002 I0. J0.8
G03 X42.56831 Y1.21002 I-1.21 J0.
G1 X25.61105
G0 Z0.8
M30
%
