%
G17 G21 G40 G90 G64 P0.1
(2 1/2 Axis Profiling)
(SlotDrill 1/8in 3.175mm Carbide Aluminium Cut)
T6 M06
S23960 M3
G0 Z1.5875
X39.05744 Y-1.5875
G1 Z-1.5 F1198.
X0. F4792.
G17
G02 X-1.5875 Y0. I0. J1.5875
G1 Y423.
G02 X0. Y424.5875 I1.5875 J0.
G1 X35.02927
G0 Z1.5875
X39.05744 Y-1.5875
G1 Z-3. F1198.
X0. F4792.
G02 X-1.5875 Y0. I0. J1.5875
G1 Y423.
G02 X0. Y424.5875 I1.5875 J0.
G1 X35.02927
G0 Z1.5875
X39.05744 Y-1.5875
G1 Z-4.5 F1198.
X0. F4792.
G02 X-1.5875 Y0. I0. J1.5875
G1 Y423.
G02 X0. Y424.5875 I1.5875 J0.
G1 X35.02927
G0 Z1.5875
X39.05744 Y-1.5875
G1 Z-6. F1198.
X0. F4792.
G02 X-1.5875 Y0. I0. J1.5875
G1 Y423.
G02 X0. Y424.5875 I1.5875 J0.
G1 X35.02927
G0 Z1.5875
X39.05744 Y-1.5875
G1 Z-7.5 F1198.
X0. F4792.
G02 X-1.5875 Y0. I0. J1.5875
G1 Y423.
G02 X0. Y424.5875 I1.5875 J0.
G1 X35.02927
G0 Z1.5875
X39.05744 Y-1.5875
G1 Z-9. F1198.
X0. F4792.
G02 X-1.5875 Y0. I0. J1.5875
G1 Y423.
G02 X0. Y424.5875 I1.5875 J0.
G1 X35.02927
G0 Z1.5875
X39.05744 Y-1.5875
G1 Z-10.5 F1198.
X0. F4792.
G02 X-1.5875 Y0. I0. J1.5875
G1 Y423.
G02 X0. Y424.5875 I1.5875 J0.
G1 X35.02927
G0 Z1.5875
X39.05744 Y-1.5875
G1 Z-12. F1198.
X0. F4792.
G02 X-1.5875 Y0. I0. J1.5875
G1 Y423.
G02 X0. Y424.5875 I1.5875 J0.
G1 X35.02927
G0 Z1.5875
M30
%
