%
G17 G21 G40 G90 G64 P0.1
(2 1/2 Axis Profiling)
(SlotDrill 1/8in 3.175mm Carbide Aluminium Cut)
T6 M06
S23960 M3
G0 Z30.
X147.50137 Y59.56961
G1 Z-1.5 F4198.
G17
G03 X147.04992 Y58.87909 I-0.22572 J-0.34526 F4792.
X147.50137 Y59.56961 I0.22573 J0.34526
G1 Z-3.
G03 X147.04992 Y58.87909 I-0.22572 J-0.34526
X147.50137 Y59.56961 I0.22573 J0.34526
G1 Z-4.5
G03 X147.04992 Y58.87909 I-0.22572 J-0.34526
X147.50137 Y59.56961 I0.22573 J0.34526
G1 Z-6.
G03 X147.04992 Y58.87909 I-0.22572 J-0.34526
X147.50137 Y59.56961 I0.22573 J0.34526
G1 Z-7.5
G03 X147.04992 Y58.87909 I-0.22572 J-0.34526
X147.50137 Y59.56961 I0.22573 J0.34526
G1 Z-9.
G03 X147.04992 Y58.87909 I-0.22572 J-0.34526
X147.50137 Y59.56961 I0.22573 J0.34526
G1 Z-10.5
G03 X147.04992 Y58.87909 I-0.22572 J-0.34526
X147.50137 Y59.56961 I0.22573 J0.34526
G1 Z-12.
G03 X147.04992 Y58.87909 I-0.22572 J-0.34526
X147.50137 Y59.56961 I0.22573 J0.34526
G0 Z30.
X33.01603 Y174.06733
G1 Z-1.5 F4198.
G03 X32.43267 Y173.48397 I-0.29168 J-0.29168 F4792.
X33.01603 Y174.06733 I0.29168 J0.29168
G1 Z-3.
G03 X32.43267 Y173.48397 I-0.29168 J-0.29168
X33.01603 Y174.06733 I0.29168 J0.29168
G1 Z-4.5
G03 X32.43267 Y173.48397 I-0.29168 J-0.29168
X33.01603 Y174.06733 I0.29168 J0.29168
G1 Z-6.
G03 X32.43267 Y173.48397 I-0.29168 J-0.29168
X33.01603 Y174.06733 I0.29168 J0.29168
G1 Z-7.5
G03 X32.43267 Y173.48397 I-0.29168 J-0.29168
X33.01603 Y174.06733 I0.29168 J0.29168
G1 Z-9.
G03 X32.43267 Y173.48397 I-0.29168 J-0.29168
X33.01603 Y174.06733 I0.29168 J0.29168
G1 Z-10.5
G03 X32.43267 Y173.48397 I-0.29168 J-0.29168
X33.01603 Y174.06733 I0.29168 J0.29168
G1 Z-12.
G03 X32.43267 Y173.48397 I-0.29168 J-0.29168
X33.01603 Y174.06733 I0.29168 J0.29168
G0 Z30.
X147.65919 Y249.37619
G1 Z-1.5 F4198.
G03 X146.89211 Y249.07251 I-0.38354 J-0.15184 F4792.
X147.65919 Y249.37619 I0.38354 J0.15184
G1 Z-3.
G03 X146.89211 Y249.07251 I-0.38354 J-0.15184
X147.65919 Y249.37619 I0.38354 J0.15184
G1 Z-4.5
G03 X146.89211 Y249.07251 I-0.38354 J-0.15184
X147.65919 Y249.37619 I0.38354 J0.15184
G1 Z-6.
G03 X146.89211 Y249.07251 I-0.38354 J-0.15184
X147.65919 Y249.37619 I0.38354 J0.15184
G1 Z-7.5
G03 X146.89211 Y249.07251 I-0.38354 J-0.15184
X147.65919 Y249.37619 I0.38354 J0.15184
G1 Z-9.
G03 X146.89211 Y249.07251 I-0.38354 J-0.15184
X147.65919 Y249.37619 I0.38354 J0.15184
G1 Z-10.5
G03 X146.89211 Y249.07251 I-0.38354 J-0.15184
X147.65919 Y249.37619 I0.38354 J0.15184
G1 Z-12.
G03 X146.89211 Y249.07251 I-0.38354 J-0.15184
X147.65919 Y249.37619 I0.38354 J0.15184
G0 Z30.
X33.10789 Y363.92749
G1 Z-1.5 F4198.
G03 X32.34081 Y363.62381 I-0.38354 J-0.15184 F4792.
X33.10789 Y363.92749 I0.38354 J0.15184
G1 Z-3.
G03 X32.34081 Y363.62381 I-0.38354 J-0.15184
X33.10789 Y363.92749 I0.38354 J0.15184
G1 Z-4.5
G03 X32.34081 Y363.62381 I-0.38354 J-0.15184
X33.10789 Y363.92749 I0.38354 J0.15184
G1 Z-6.
G03 X32.34081 Y363.62381 I-0.38354 J-0.15184
X33.10789 Y363.92749 I0.38354 J0.15184
G1 Z-7.5
G03 X32.34081 Y363.62381 I-0.38354 J-0.15184
X33.10789 Y363.92749 I0.38354 J0.15184
G1 Z-9.
G03 X32.34081 Y363.62381 I-0.38354 J-0.15184
X33.10789 Y363.92749 I0.38354 J0.15184
G1 Z-10.5
G03 X32.34081 Y363.62381 I-0.38354 J-0.15184
X33.10789 Y363.92749 I0.38354 J0.15184
G1 Z-12.
G03 X32.34081 Y363.62381 I-0.38354 J-0.15184
X33.10789 Y363.92749 I0.38354 J0.15184
G0 Z30.
(2 1/2 Axis Profiling-1)
(SlotDrill 1/8in 3.175mm Carbide Aluminium Cut)
X128.16019 Y160.87779
G1 Z-1.5 F4198.
X131.7584 Y166.10993 F3594.
G03 X130.12447 Y174.94029 I-5.23214 J3.59822
X130.12256 Y174.94161 I-40.1787 J-58.42364 F4792.
X102.90451 Y186.22845 I-39.98377 J-57.9589
G1 X102.90223 Y186.22887
G03 X130.12447 Y174.94029 I-12.95707 J-69.7131
X121.29411 Y173.30636 I-3.59821 J-5.23214 F5000.
G1 X117.69589 Y168.07422
G0 Z30.
X128.16019 Y160.87779
G1 Z-3. F4198.
X131.7584 Y166.10993 F3594.
G03 X130.12447 Y174.94029 I-5.23214 J3.59822
X130.12256 Y174.94161 I-40.1787 J-58.42364 F4792.
X102.90451 Y186.22845 I-39.98377 J-57.9589
G1 X102.90223 Y186.22887
G03 X130.12447 Y174.94029 I-12.95707 J-69.7131
X121.29411 Y173.30636 I-3.59821 J-5.23214 F5000.
G1 X117.69589 Y168.07422
G0 Z30.
X128.16019 Y160.87779
G1 Z-4.5 F4198.
X131.7584 Y166.10993 F3594.
G03 X130.12447 Y174.94029 I-5.23214 J3.59822
X130.12256 Y174.94161 I-40.1787 J-58.42364 F4792.
X102.90451 Y186.22845 I-39.98377 J-57.9589
G1 X102.90223 Y186.22887
G03 X130.12447 Y174.94029 I-12.95707 J-69.7131
X121.29411 Y173.30636 I-3.59821 J-5.23214 F5000.
G1 X117.69589 Y168.07422
G0 Z30.
X128.16019 Y160.87779
G1 Z-6. F4198.
X131.7584 Y166.10993 F3594.
G03 X130.12447 Y174.94029 I-5.23214 J3.59822
X130.12256 Y174.94161 I-40.1787 J-58.42364 F4792.
X102.90451 Y186.22845 I-39.98377 J-57.9589
G1 X102.90223 Y186.22887
G03 X130.12447 Y174.94029 I-12.95707 J-69.7131
X121.29411 Y173.30636 I-3.59821 J-5.23214 F5000.
G1 X117.69589 Y168.07422
G0 Z30.
X128.16019 Y160.87779
G1 Z-7.5 F4198.
X131.7584 Y166.10993 F3594.
G03 X130.12447 Y174.94029 I-5.23214 J3.59822
X130.12256 Y174.94161 I-40.1787 J-58.42364 F4792.
X102.90451 Y186.22845 I-39.98377 J-57.9589
G1 X102.90223 Y186.22887
G03 X130.12447 Y174.94029 I-12.95707 J-69.7131
X121.29411 Y173.30636 I-3.59821 J-5.23214 F5000.
G1 X117.69589 Y168.07422
G0 Z30.
X128.16019 Y160.87779
G1 Z-9. F4198.
X131.7584 Y166.10993 F3594.
G03 X130.12447 Y174.94029 I-5.23214 J3.59822
X130.12256 Y174.94161 I-40.1787 J-58.42364 F4792.
X102.90451 Y186.22845 I-39.98377 J-57.9589
G1 X102.90223 Y186.22887
G03 X130.12447 Y174.94029 I-12.95707 J-69.7131
X121.29411 Y173.30636 I-3.59821 J-5.23214 F5000.
G1 X117.69589 Y168.07422
G0 Z30.
X128.16019 Y160.87779
G1 Z-10.5 F4198.
X131.7584 Y166.10993 F3594.
G03 X130.12447 Y174.94029 I-5.23214 J3.59822
X130.12256 Y174.94161 I-40.1787 J-58.42364 F4792.
X102.90451 Y186.22845 I-39.98377 J-57.9589
G1 X102.90223 Y186.22887
G03 X130.12447 Y174.94029 I-12.95707 J-69.7131
X121.29411 Y173.30636 I-3.59821 J-5.23214 F5000.
G1 X117.69589 Y168.07422
G0 Z30.
X128.16019 Y160.87779
G1 Z-12. F4198.
X131.7584 Y166.10993 F3594.
G03 X130.12447 Y174.94029 I-5.23214 J3.59822
X130.12256 Y174.94161 I-40.1787 J-58.42364 F4792.
X102.90451 Y186.22845 I-39.98377 J-57.9589
G1 X102.90223 Y186.22887
G03 X130.12447 Y174.94029 I-12.95707 J-69.7131
X121.29411 Y173.30636 I-3.59821 J-5.23214 F5000.
G1 X117.69589 Y168.07422
G0 Z30.
X133.6739 Y267.52337
G1 Z-1.5 F4198.
X138.83903 Y263.82959 F3594.
G03 X147.69793 Y265.30094 I3.69377 J5.16513
X147.6993 Y265.30286 I-57.67725 J41.24718 F4792.
X157.14135 Y283.68286 I-57.02964 J40.91212
G1 X157.14211 Y283.68509
G03 X147.69793 Y265.30094 I-67.12269 J22.86393
X146.22658 Y274.15984 I-5.16513 J3.69378 F5000.
G1 X141.06146 Y277.85362
G0 Z30.
X133.6739 Y267.52337
G1 Z-3. F4198.
X138.83903 Y263.82959 F3594.
G03 X147.69793 Y265.30094 I3.69377 J5.16513
X147.6993 Y265.30286 I-57.67725 J41.24718 F4792.
X157.14135 Y283.68286 I-57.02964 J40.91212
G1 X157.14211 Y283.68509
G03 X147.69793 Y265.30094 I-67.12269 J22.86393
X146.22658 Y274.15984 I-5.16513 J3.69378 F5000.
G1 X141.06146 Y277.85362
G0 Z30.
X133.6739 Y267.52337
G1 Z-4.5 F4198.
X138.83903 Y263.82959 F3594.
G03 X147.69793 Y265.30094 I3.69377 J5.16513
X147.6993 Y265.30286 I-57.67725 J41.24718 F4792.
X157.14135 Y283.68286 I-57.02964 J40.91212
G1 X157.14211 Y283.68509
G03 X147.69793 Y265.30094 I-67.12269 J22.86393
X146.22658 Y274.15984 I-5.16513 J3.69378 F5000.
G1 X141.06146 Y277.85362
G0 Z30.
X133.6739 Y267.52337
G1 Z-6. F4198.
X138.83903 Y263.82959 F3594.
G03 X147.69793 Y265.30094 I3.69377 J5.16513
X147.6993 Y265.30286 I-57.67725 J41.24718 F4792.
X157.14135 Y283.68286 I-57.02964 J40.91212
G1 X157.14211 Y283.68509
G03 X147.69793 Y265.30094 I-67.12269 J22.86393
X146.22658 Y274.15984 I-5.16513 J3.69378 F5000.
G1 X141.06146 Y277.85362
G0 Z30.
X133.6739 Y267.52337
G1 Z-7.5 F4198.
X138.83903 Y263.82959 F3594.
G03 X147.69793 Y265.30094 I3.69377 J5.16513
X147.6993 Y265.30286 I-57.67725 J41.24718 F4792.
X157.14135 Y283.68286 I-57.02964 J40.91212
G1 X157.14211 Y283.68509
G03 X147.69793 Y265.30094 I-67.12269 J22.86393
X146.22658 Y274.15984 I-5.16513 J3.69378 F5000.
G1 X141.06146 Y277.85362
G0 Z30.
X133.6739 Y267.52337
G1 Z-9. F4198.
X138.83903 Y263.82959 F3594.
G03 X147.69793 Y265.30094 I3.69377 J5.16513
X147.6993 Y265.30286 I-57.67725 J41.24718 F4792.
X157.14135 Y283.68286 I-57.02964 J40.91212
G1 X157.14211 Y283.68509
G03 X147.69793 Y265.30094 I-67.12269 J22.86393
X146.22658 Y274.15984 I-5.16513 J3.69378 F5000.
G1 X141.06146 Y277.85362
G0 Z30.
X133.6739 Y267.52337
G1 Z-10.5 F4198.
X138.83903 Y263.82959 F3594.
G03 X147.69793 Y265.30094 I3.69377 J5.16513
X147.6993 Y265.30286 I-57.67725 J41.24718 F4792.
X157.14135 Y283.68286 I-57.02964 J40.91212
G1 X157.14211 Y283.68509
G03 X147.69793 Y265.30094 I-67.12269 J22.86393
X146.22658 Y274.15984 I-5.16513 J3.69378 F5000.
G1 X141.06146 Y277.85362
G0 Z30.
X133.6739 Y267.52337
G1 Z-12. F4198.
X138.83903 Y263.82959 F3594.
G03 X147.69793 Y265.30094 I3.69377 J5.16513
X147.6993 Y265.30286 I-57.67725 J41.24718 F4792.
X157.14135 Y283.68286 I-57.02964 J40.91212
G1 X157.14211 Y283.68509
G03 X147.69793 Y265.30094 I-67.12269 J22.86393
X146.22658 Y274.15984 I-5.16513 J3.69378 F5000.
G1 X141.06146 Y277.85362
G0 Z30.
M30
%
