%
G17 G21 G40 G90 G64 P0.1
(Inside rough)
(SlotDrill 1/8in 3.175mm Carbide Aluminium Cut)
T6 M06
S21454 M3
G0 Z1.5875
X205.6125 Y180.3106
G1 Y194.98505 Z-1. F408.
Y254. F544.
G17
G03 X203.12178 Y256.88179 I-2.9125 J0.
G1 X203.12177 Y256.8818
X202.69999 Y256.9125
X29.5
G03 X26.5875 Y254. I0. J-2.9125
G1 Y30.
G03 X29.5 Y27.0875 I2.9125 J0.
G1 X202.7
G03 X205.6125 Y30. I0. J2.9125
G1 Y194.98505
G0 Z1.5875
Y174.63932
G1 Y194.98505 Z-2. F408.
Y254. F544.
G03 X203.12178 Y256.88179 I-2.9125 J0.
G1 X203.12177 Y256.8818
X202.69999 Y256.9125
X29.5
G03 X26.5875 Y254. I0. J-2.9125
G1 Y30.
G03 X29.5 Y27.0875 I2.9125 J0.
G1 X202.7
G03 X205.6125 Y30. I0. J2.9125
G1 Y194.98505
G0 Z1.5875
Y172.29992
G1 Z1. F136.
Y194.98505 Z-3. F408.
Y254. F544.
G03 X203.12178 Y256.88179 I-2.9125 J0.
G1 X203.12177 Y256.8818
X202.69999 Y256.9125
X29.5
G03 X26.5875 Y254. I0. J-2.9125
G1 Y30.
G03 X29.5 Y27.0875 I2.9125 J0.
G1 X202.7
G03 X205.6125 Y30. I0. J2.9125
G1 Y194.98505
G0 Z1.5875
Y172.29992
G1 Z0. F136.
Y194.98505 Z-4. F408.
Y254. F544.
G03 X203.12178 Y256.88179 I-2.9125 J0.
G1 X203.12177 Y256.8818
X202.69999 Y256.9125
X29.5
G03 X26.5875 Y254. I0. J-2.9125
G1 Y30.
G03 X29.5 Y27.0875 I2.9125 J0.
G1 X202.7
G03 X205.6125 Y30. I0. J2.9125
G1 Y194.98505
G0 Z1.5875
(Inside finish)
(SlotDrill 1/8in 3.175mm Carbide Aluminium Cut)
X205.8625 Y172.29992
G1 Z0. F136.
Y194.98505 Z-4. F408.
Y254. F544.
G03 X203.1668 Y257.12786 I-3.1625 J0.
G1 X202.69091 Y257.1625
X29.5
G03 X26.3375 Y254. I0. J-3.1625
G1 Y30.
G03 X29.5 Y26.8375 I3.1625 J0.
G1 X202.7
G03 X205.8625 Y30. I0. J3.1625
G1 Y194.98505
X206.1125
Y254.
G03 X203.19419 Y257.37652 I-3.4125 J0.
G1 X203.19418
X202.69999 Y257.4125
X29.5
G03 X26.0875 Y254. I0. J-3.4125
G1 Y30.
G03 X29.5 Y26.5875 I3.4125 J0.
G1 X202.7
G03 X206.1125 Y30. I0. J3.4125
G1 Y194.98505
G0 Z1.5875
(Outside)
(SlotDrill 1/8in 3.175mm Carbide Aluminium Cut)
X233.7875 Y185.88367
G1 Y171.20922 Z-1. F408.
Y5. F544.
G02 X227.2 Y-1.5875 I-6.5875 J0.
G1 X5.
G02 X-1.5875 Y5. I0. J6.5875
G1 Y279.
G02 X5. Y285.5875 I6.5875 J0.
G1 X227.2
G02 X233.7875 Y279. I0. J-6.5875
G1 Y171.20922
G0 Z1.5875
Y191.55495
G1 Y171.20922 Z-2. F408.
Y5. F544.
G02 X227.2 Y-1.5875 I-6.5875 J0.
G1 X5.
G02 X-1.5875 Y5. I0. J6.5875
G1 Y279.
G02 X5. Y285.5875 I6.5875 J0.
G1 X227.2
G02 X233.7875 Y279. I0. J-6.5875
G1 Y171.20922
G0 Z1.5875
Y193.89435
G1 Z1. F136.
Y171.20922 Z-3. F408.
Y5. F544.
G02 X227.2 Y-1.5875 I-6.5875 J0.
G1 X5.
G02 X-1.5875 Y5. I0. J6.5875
G1 Y279.
G02 X5. Y285.5875 I6.5875 J0.
G1 X227.2
G02 X233.7875 Y279. I0. J-6.5875
G1 Y171.20922
G0 Z1.5875
Y193.89435
G1 Z0. F136.
Y171.20922 Z-4. F408.
Y5. F544.
G02 X227.2 Y-1.5875 I-6.5875 J0.
G1 X5.
G02 X-1.5875 Y5. I0. J6.5875
G1 Y279.
G02 X5. Y285.5875 I6.5875 J0.
G1 X227.2
G02 X233.7875 Y279. I0. J-6.5875
G1 Y171.20922
G0 Z1.5875
M30
%
