%
G17 G21 G40 G90 G64 P0.1
(Engraving)
(Ballnose 1mm Carbide)
T23 M06
S2000 M3
G0 Z0.995
X28.97254 Y18.49066
G1 Z-1. F240.5
Y49.85778 F3000.
X28.30778 Y47.55319
X27.92285 Y46.42962
X27.27594 Y44.79277
X26.14003 Y42.47656
X25.26569 Y41.04717
X24.79168 Y40.37257
X24.03298 Y39.4161
X23.43711 Y38.75659
X22.16615 Y37.55329
X20.8176 Y36.5011
X19.89207 Y35.88172
X18.02225 Y34.8349
X16.11232 Y34.02117
X15.12312 Y33.70864
X13.53977 Y33.3543
X11.77638 Y33.13357
X10.80589 Y33.072
X13.06429 Y32.23232
X14.16545 Y31.75273
X15.77751 Y30.95287
X17.74237 Y29.79435
X18.68557 Y29.15599
X20.0428 Y28.12773
X21.92892 Y26.43372
X23.60472 Y24.56913
X24.35299 Y23.57686
X25.38981 Y21.95898
X25.99786 Y20.83471
X27.02773 Y18.49066
X28.97254
G0 Z0.995
X25.52014 Y26.95719
G1 Z-1. F240.5
Y29.57475 F3000.
G0 Z0.995
X26.5703 Y31.12647
G1 Z-1. F240.5
X26.36654 Y31.14214 F3000.
X26.17845 Y31.18917
X26.00604 Y31.23619
X25.86497 Y31.29888
X25.69256 Y31.39293
X25.55149 Y31.50265
X25.4261 Y31.64371
X25.31638 Y31.78478
X25.22234 Y31.95719
X25.15964 Y32.12961
X25.11262 Y32.30202
X25.09695 Y32.49011
X25.11262 Y32.6782
X25.14397 Y32.85061
X25.20666 Y33.0387
X25.28503 Y33.19544
X25.39475 Y33.35218
X25.52014 Y33.47757
X25.66121 Y33.60296
X25.81795 Y33.697
X25.99036 Y33.79105
X26.16278 Y33.85374
X26.33519 Y33.88509
X26.52328 Y33.90077
X26.71137
X26.89945 Y33.88509
X27.08754 Y33.83807
X27.24428 Y33.7597
X27.41669 Y33.68133
X27.57343 Y33.58729
X27.69883 Y33.46189
X27.82422 Y33.32083
X27.93394 Y33.16409
X28.01231 Y32.99167
X28.05933 Y32.81926
X28.09068 Y32.63117
X28.10635 Y32.44308
X28.075 Y32.27067
X28.02798 Y32.08258
X27.96528 Y31.92584
X27.87124 Y31.75343
X27.74585 Y31.61236
X27.62046 Y31.48697
X27.46372 Y31.37726
X27.30698 Y31.28321
X27.13456 Y31.20484
X26.96215 Y31.15782
X26.77406 Y31.12647
X26.53895 Y31.09512
X26.31952 Y31.07945
X26.10008 Y31.06377
X25.88065 Y31.0481
X25.64553
X25.4261
X25.22234 Y31.06377
X25.01858 Y31.07945
X24.81481 Y31.09512
X24.62673 Y31.12647
X24.42296 Y31.15782
X24.23488 Y31.20484
X24.07814 Y31.25186
X23.9214 Y31.33023
X23.73331 Y31.42428
X23.51387 Y31.59669
X23.41983 Y31.72208
X23.32579 Y31.86315
X23.24742 Y32.03556
X23.18472 Y32.20798
X23.15337 Y32.39606
X23.1377 Y32.58415
X23.16905 Y32.78791
X23.20039 Y32.96033
X23.27876 Y33.13274
X23.37281 Y33.30515
X23.46685 Y33.44622
X23.5609 Y33.55594
X23.68629 Y33.66566
X23.9214 Y33.8224
G0 Z0.995
X24.5797 Y35.10766
G1 Z-1. F240.5
Y36.67506 F3000.
G0 Z0.995
X28.1377 Y35.79732
G1 Z-1. F240.5
X23.67061 F3000.
X23.52955 Y35.82866
X23.40416 Y35.90704
X23.32579 Y36.00108
X23.24742 Y36.14215
X23.20039 Y36.28321
X23.16905 Y36.42428
X23.1377 Y36.56534
Y36.70641
X23.16905 Y36.84747
G0 Z0.995
X23.18472 Y29.9666
G1 Z-1. F240.5
Y26.95719 F3000.
X28.1377
G0 Z0.995
X56.49027 Y27.23497
G1 Z-1. F240.5
G17
G02 X44.49323 Y27.50133 I-5.99852 J0.13318 F3000.
X56.49027 Y27.23497 I5.99852 J-0.13318
G0 Z0.995
X66.30281 Y26.03573
G1 Z-1. F240.5
G02 X67.6807 Y28.70058 I0.68894 J1.33242 F3000.
X66.30281 Y26.03573 I-0.68895 J-1.33243
G0 Z0.995
X65.63904 Y38.19451
G1 Z-1. F240.5
Y43.19451 F3000.
X65.48327 Y42.94529
X65.34308 Y42.77395
X65.21847 Y42.61819
X65.07829 Y42.46243
X64.92252 Y42.32224
X64.76676 Y42.19763
X64.59542 Y42.07302
X64.42408 Y41.97956
X64.25274 Y41.90168
G0 Z0.995
X63.44277 Y43.11663
G1 Z-1. F240.5
X60.45212 F3000.
Y38.19451
G0 Z0.995
Y40.79576
G1 Z-1. F240.5
X63.05336 F3000.
G0 Z0.995
X69.75118 Y39.09794
G1 Z-1. F240.5
X69.65773 Y38.94218 F3000.
X69.56427 Y38.80199
X69.47081 Y38.67738
X69.3462 Y38.55277
X69.22159 Y38.45931
X69.0814 Y38.36585
X68.92564 Y38.30355
X68.76988 Y38.25682
X68.61411 Y38.22567
X68.45835
X68.28701 Y38.25682
X68.13125 Y38.30355
X67.99106 Y38.38143
X67.8353 Y38.47489
X67.71069 Y38.56835
X67.60165 Y38.69296
X67.50819 Y38.81757
X67.41474 Y38.95775
X67.32128 Y39.14467
X67.25897 Y39.33159
X67.19667 Y39.5185
X67.16551 Y39.72099
X67.14994 Y39.92349
X67.16551 Y40.09483
X67.18109 Y40.26617
X67.19667 Y40.42193
X67.2434 Y40.57769
X67.29012 Y40.73346
X67.35243 Y40.88922
X67.44589 Y41.04498
X67.53935 Y41.18517
X67.6328 Y41.30978
X67.75741 Y41.41881
X67.88203 Y41.51227
X68.03779 Y41.60573
X68.17798 Y41.66804
X68.33374 Y41.71476
X68.50508 Y41.73034
X68.66084 Y41.71476
X68.8166 Y41.69919
X68.97237 Y41.65246
X69.12813 Y41.57458
X69.26832 Y41.48112
X69.39293 Y41.37208
X69.50196 Y41.24747
X69.59542 Y41.10729
X69.68888 Y40.9671
G0 Z0.995
X51.85716 Y43.24714
G1 Z-1. F240.5
G02 X49.12634 Y44.48916 I-1.36541 J0.62101 F3000.
X51.85716 Y43.24714 I1.36541 J-0.62101
G0 Z0.995
X50.49147 Y53.29086
G1 Z-1. F240.5
Y27.36816 F3000.
X36.5558
G0 Z0.995
X51.88644 Y11.42029
G1 Z-1. F240.5
G02 X49.09707 Y10.31601 I-1.39469 J-0.55214 F3000.
X51.88644 Y11.42029 I1.39468 J0.55214
G0 Z0.995
X50.49147 Y1.44546
G1 Z-1. F240.5
Y27.36816 F3000.
X74.13624
G0 Z0.995
X78.41151 Y10.08563
G1 Z-1. F240.5
X77.81015 Y9.40622 F3000.
X69.8418 Y4.49045
X62.84251 Y2.27012
X57.9808 Y1.57158
X54.92716 Y1.45139
X46.81849 Y1.74059
X43.00146 Y2.46558
Y12.63417
X40.99146
Y42.11403
X43.00146
Y52.28262
X46.81848 Y53.00767
X54.92713 Y53.29681
X57.98079 Y53.17663
X62.84251 Y52.47817
X69.8418 Y50.25788
X77.81015 Y45.34211
X82.99963 Y39.47911
X85.77225 Y33.48025
X86.47471 Y30.27019
X86.64821 Y28.37917
X78.57189
Y26.36917
X86.64821
X86.47471 Y24.47811
X85.77225 Y21.26801
X82.99963 Y15.26919
X78.41151 Y10.08563
G0 Z0.995
X107.55644 Y0.
G1 Z-1. F240.5
Y25.12366 F3000.
X137.03872
G0 Z0.995
X138.07592 Y24.21812
G1 Z-1. F240.5
X133.07592 F3000.
X133.32514 Y24.06236
X133.49648 Y23.92217
X133.65225 Y23.79756
X133.80801 Y23.65737
X133.9482 Y23.50161
X134.07281 Y23.34585
X134.19742 Y23.17451
X134.29088 Y23.00317
X134.36876 Y22.83183
G0 Z0.995
X133.15381 Y22.02186
G1 Z-1. F240.5
Y19.0312 F3000.
X138.07592
G0 Z0.995
X135.47468
G1 Z-1. F240.5
Y21.63245 F3000.
G0 Z0.995
X133.0915 Y25.8069
G1 Z-1. F240.5
X138.07592 F3000.
G0 Z0.995
X134.5401 Y27.1932
G1 Z-1. F240.5
X134.55567 Y27.00628 F3000.
X134.61798 Y26.80379
X134.68028 Y26.6636
X134.75817 Y26.50784
X134.88278 Y26.36765
X135.02296 Y26.24304
X135.17873 Y26.11843
X135.36564 Y26.02497
X135.56813 Y25.93152
X135.80178 Y25.85363
X136.03543 Y25.82248
X136.28465 Y25.8069
X136.53387 Y25.82248
X136.76751 Y25.85363
X137.00116 Y25.93152
X137.20365 Y26.02497
X137.39057 Y26.11843
X137.54633 Y26.24304
X137.67094 Y26.36765
X137.79555 Y26.50784
X137.88901 Y26.6636
X137.95131 Y26.80379
X137.99804 Y27.00628
X138.02919 Y27.1932
X137.99804 Y27.38011
X137.95131 Y27.58261
X137.88901 Y27.72279
X137.79555 Y27.87856
X137.67094 Y28.01874
X137.54633 Y28.14335
X137.39057 Y28.26796
X137.20365 Y28.377
X137.00116 Y28.45488
X136.76751 Y28.51719
X136.53387 Y28.56391
X136.28465 Y28.57949
X136.03543 Y28.56391
X135.80178 Y28.51719
X135.56813 Y28.45488
X135.36564 Y28.377
X135.17873 Y28.26796
X135.02296 Y28.14335
X134.88278 Y28.01874
X134.75817 Y27.87856
X134.68028 Y27.72279
X134.61798 Y27.58261
X134.55567 Y27.38011
X134.5401 Y27.1932
G0 Z0.995
X138.38159 Y35.4106
G1 Z-1. F240.5
X139.60706 Y32.61724 F3000.
X140.82212 Y27.11114
X140.90311 Y25.2501
X140.82212 Y23.38899
X139.60706 Y17.88297
X138.38159 Y15.08961
X134.91547 Y10.07286
X132.46413 Y7.65283
X126.75741 Y3.79331
X123.71911 Y2.41211
X117.33293 Y0.63673
X111.42085 Y0.1264
X103.28723 Y0.65773
X99.49516 Y1.60889
Y10.50997
X97.48516
Y39.9901
X99.49516
Y48.89119
X103.28722 Y49.84241
X111.42082 Y50.37369
X117.33292 Y49.86334
X123.71911 Y48.08797
X126.75741 Y46.70678
X132.46413 Y42.84733
X134.91547 Y40.42733
X138.38159 Y35.4106
G0 Z0.995
X128.24444 Y36.24899
G1 Z-1. F240.5
G03 X102.71083 Y43.36487 I-16.82361 J-10.99892 F3000.
G1 Y31.28645
G03 Y18.96085 I4.27434 J-6.1628
G1 Y7.13527
G03 X128.24444 Y36.24899 I8.71 J18.1148
G0 Z0.995
X145.97645 Y24.43477
G1 Z-1. F240.5
X169.57285 F3000.
Y0.17299
G0 Z0.995
X152.97423 Y9.69474
G1 Z-1. F240.5
X150.96423 F3000.
Y4.83751
Y4.83764
X149.43414 Y6.25239
X148.51825 Y7.30303
X147.95271 Y8.05103
X146.92692 Y9.66073
X146.24723 Y10.96712
X145.83563 Y11.88505
X145.10924 Y13.83329
X144.79319 Y14.86339
X144.25226 Y17.03508
X143.82868 Y19.35473
X143.60902 Y20.98297
X143.3135 Y24.43474
X143.60902 Y27.88655
X143.82868 Y29.51481
X144.25226 Y31.83447
X144.79319 Y34.00615
X145.10924 Y35.03626
X145.83563 Y36.98449
X146.24723 Y37.90243
X146.92692 Y39.20882
X147.95271 Y40.81853
X148.51825 Y41.56653
X149.43414 Y42.61719
X150.96423 Y44.03197
Y44.03211
Y39.17474
X152.97423
Y9.69474
G0 Z0.995
Y24.43474
G1 Z-1. F240.5
G0 Z0.995
X169.57285 Y48.69667
G1 Z-1. F240.5
Y24.43477 F3000.
X196.30303
G0 Z0.995
X197.857 Y25.80075
G1 Z-1. F240.5
X193.857 F3000.
X194.05638 Y25.67614
X194.19345 Y25.56399
X194.31806 Y25.4643
X194.44267 Y25.35215
X194.55482 Y25.22754
X194.65451 Y25.10293
X194.7542 Y24.96586
X194.82897 Y24.82879
X194.89127 Y24.69172
G0 Z0.995
X193.91931 Y24.04374
G1 Z-1. F240.5
Y21.65122 F3000.
X197.857
G0 Z0.995
X195.77601
G1 Z-1. F240.5
Y23.73222 F3000.
G0 Z0.995
X195.62647 Y27.17147
G1 Z-1. F240.5
X195.4894 Y27.22131 F3000.
X195.37725 Y27.28362
X195.27756 Y27.35838
X195.19034 Y27.45807
X195.12803 Y27.55776
X195.07819 Y27.66991
X195.0408 Y27.79452
X195.02834 Y27.90667
X195.00342 Y28.04374
Y28.16835
Y28.30542
X195.02834 Y28.45496
X195.05326 Y28.60449
X195.09065 Y28.71664
X195.12803 Y28.82879
X195.17787 Y28.91602
X195.25264 Y28.99078
X195.32741 Y29.05309
X195.4271 Y29.11539
X195.53925 Y29.15278
X195.66386 Y29.1777
X195.86323 Y29.19016
X197.24641
X197.37102 Y29.20262
X197.49563 Y29.21508
X197.60778 Y29.22754
X197.71993 Y29.24
X197.857 Y29.28985
G0 Z0.995
X196.06261 Y29.1777
G1 Z-1. F240.5
X196.14984 Y28.94094 F3000.
X196.2246 Y28.70418
X196.28691 Y28.47988
X196.32429 Y28.26804
X196.34921 Y28.0562
Y27.89421
X196.37414 Y27.74468
X196.39906 Y27.62007
X196.43644 Y27.49546
X196.48629 Y27.38331
X196.54859 Y27.28362
X196.63582 Y27.18393
X196.74797 Y27.0967
X196.87258 Y27.04686
X197.00965 Y27.00947
X197.14672 Y26.99701
X197.30872 Y27.02194
X197.45825 Y27.07178
X197.5704 Y27.14655
X197.68255 Y27.24623
X197.74485 Y27.38331
X197.7947 Y27.52038
X197.81962 Y27.63253
X197.83208 Y27.75714
Y27.88175
X197.81962 Y28.01882
X197.7947 Y28.18081
X197.75731 Y28.33035
X197.70747 Y28.47988
X197.6327 Y28.61695
X197.55794 Y28.74156
X197.43333 Y28.89109
X197.32118 Y29.02817
X197.23395 Y29.11539
X197.15918 Y29.19016
G0 Z0.995
X197.87599 Y32.50723
G1 Z-1. F240.5
X198.37129 Y31.46895 F3000.
X199.36712 Y27.054
X199.52548 Y24.41661
X199.36712 Y21.77927
X198.37129 Y17.36429
X195.96157 Y12.31293
X192.91788 Y8.4464
X189.20956 Y5.26804
X184.81014 Y2.7438
X180.55766 Y1.2003
X175.81759 Y0.31033
X172.79529 Y0.15475
X166.27958 Y0.75772
X163.1294 Y1.55644
X158.85963 Y3.42685
Y45.4065
X163.12937 Y47.27688
X166.27956 Y48.07556
X172.79529 Y48.67847
X175.81759 Y48.52289
X180.55766 Y47.63291
X184.81014 Y46.08941
X189.20956 Y43.5652
X192.91788 Y40.38693
X195.96157 Y36.5204
X197.87599 Y32.50723
G0 Z0.995
X189.33134 Y35.84332
G1 Z-1. F240.5
G03 X164.0853 Y42.5314 I-16.53603 J-11.42671 F3000.
G1 Y30.57941
G03 Y18.25381 I4.27433 J-6.1628
G1 Y6.30182
G03 X189.33134 Y35.84332 I8.71001 J18.11479
G0 Z0.995
X226.85377 Y29.11398
G1 Z-1. F240.5
X226.68243 Y29.17628 F3000.
X226.54224 Y29.25416
X226.41763 Y29.34762
X226.30859 Y29.47223
X226.23071 Y29.59684
X226.16841 Y29.73703
X226.12168 Y29.89279
X226.1061 Y30.03298
X226.07495 Y30.20432
Y30.36008
Y30.53142
X226.1061 Y30.71834
X226.13725 Y30.90525
X226.18398 Y31.04544
X226.23071 Y31.18563
X226.29302 Y31.29466
X226.38648 Y31.38812
X226.47994 Y31.466
X226.60454 Y31.54388
X226.74473 Y31.59061
X226.90049 Y31.62176
X227.14972 Y31.63734
X228.87869
X229.03445 Y31.65292
X229.19021 Y31.66849
X229.3304 Y31.68407
X229.47059 Y31.69964
X229.64193 Y31.76195
G0 Z0.995
X227.39894 Y31.62176
G1 Z-1. F240.5
X227.50797 Y31.32581 F3000.
X227.60143 Y31.02986
X227.67931 Y30.74949
X227.72604 Y30.48469
X227.75719 Y30.21989
Y30.0174
X227.78835 Y29.83049
X227.8195 Y29.67472
X227.86623 Y29.51896
X227.92853 Y29.37877
X228.00641 Y29.25416
X228.11545 Y29.12955
X228.25564 Y29.02052
X228.4114 Y28.95821
X228.58274 Y28.91148
X228.75408 Y28.89591
X228.95657 Y28.92706
X229.14349 Y28.98936
X229.28367 Y29.08282
X229.42386 Y29.20743
X229.50174 Y29.37877
X229.56405 Y29.55011
X229.5952 Y29.6903
X229.61078 Y29.84606
Y30.00183
X229.5952 Y30.17317
X229.56405 Y30.37566
X229.51732 Y30.56257
X229.45501 Y30.74949
X229.36155 Y30.92083
X229.2681 Y31.07659
X229.11233 Y31.26351
X228.97215 Y31.43485
X228.86311 Y31.54388
X228.76965 Y31.63734
G0 Z0.995
X225.99707 Y24.6903
G1 Z-1. F240.5
X225.81015 Y24.72145 F3000.
X225.62324 Y24.76818
X225.43632 Y24.86164
X225.26498 Y24.9551
X225.10922 Y25.07971
X224.98461 Y25.21989
X224.87557 Y25.37566
X224.78212 Y25.56257
X224.71981 Y25.73391
X224.68866 Y25.93641
X224.67308 Y26.12332
X224.70423 Y26.32581
X224.75096 Y26.51273
X224.84442 Y26.68407
X224.95345 Y26.85541
X225.07807 Y26.9956
X225.21825 Y27.13578
X225.38959 Y27.24482
X225.56093 Y27.3227
X225.74785 Y27.385
X225.93476 Y27.43173
X226.23071 Y27.47846
X226.44878 Y27.49404
X226.66685 Y27.50961
X226.90049
X227.11856 Y27.52519
X227.33663 Y27.50961
X227.53913
X227.74162 Y27.49404
X227.94411 Y27.46289
X228.13102 Y27.43173
X228.33352 Y27.40058
X228.55159 Y27.36943
X228.75408 Y27.29155
X228.94099 Y27.19809
X229.12791 Y27.07348
X229.2681 Y26.91771
X229.39271 Y26.77753
X229.48616 Y26.60619
X229.54847 Y26.43485
X229.57962 Y26.24793
X229.61078 Y26.06102
X229.57962 Y25.8741
X229.54847 Y25.68718
X229.48616 Y25.51584
X229.39271 Y25.3445
X229.2681 Y25.20432
X229.14349 Y25.07971
X228.98772 Y24.9551
X228.81638 Y24.86164
X228.64504 Y24.78376
X228.45813 Y24.73703
X228.24006 Y24.70588
X227.94411 Y24.65915
X227.74162 Y24.64357
X227.53913 Y24.62799
X227.33663 Y24.61242
X227.11856 Y24.59684
X226.90049 Y24.61242
X226.66685
X226.44878 Y24.62799
X226.23071 Y24.65915
X225.99707 Y24.6903
G0 Z0.995
X229.64193 Y23.08594
G1 Z-1. F240.5
X224.64193 F3000.
X224.89115 Y22.93017
X225.06249 Y22.78999
X225.21825 Y22.66538
X225.37402 Y22.52519
X225.5142 Y22.36943
X225.63881 Y22.21366
X225.76342 Y22.04232
X225.85688 Y21.87098
X225.93476 Y21.69964
G0 Z0.995
X224.71981 Y20.88968
G1 Z-1. F240.5
Y17.89902 F3000.
X229.64193
G0 Z0.995
X227.04068
G1 Z-1. F240.5
Y20.50027 F3000.
G0 Z0.995
X189.8039 Y83.96253
G1 Z-1. F240.5
X124.68834 F3000.
G0 Z0.995
X117.83732 Y82.81267
G1 Z-1. F240.5
X70.24521 F3000.
G0 Z0.995
X83.75369 Y79.09752
G1 Z-1. F240.5
X86.38776 F3000.
G0 Z0.995
X87.94928 Y78.04073
G1 Z-1. F240.5
X87.96505 Y78.24578 F3000.
X88.01237 Y78.43506
X88.05969 Y78.60856
X88.12278 Y78.75051
X88.21742 Y78.92402
X88.32783 Y79.06597
X88.46978 Y79.19215
X88.61174 Y79.30256
X88.78524 Y79.3972
X88.95874 Y79.46029
X89.13224 Y79.50761
X89.32152 Y79.52339
X89.51079 Y79.50761
X89.68429 Y79.47607
X89.87357 Y79.41297
X90.0313 Y79.33411
X90.18902 Y79.2237
X90.31521 Y79.09752
X90.44139 Y78.95556
X90.53603 Y78.79783
X90.63067 Y78.62433
X90.69376 Y78.45083
X90.7253 Y78.27733
X90.74107 Y78.08805
Y77.89878
X90.7253 Y77.7095
X90.67798 Y77.52023
X90.59912 Y77.3625
X90.52026 Y77.189
X90.42562 Y77.03127
X90.29943 Y76.90509
X90.15748 Y76.77891
X89.99975 Y76.6685
X89.82625 Y76.58963
X89.65275 Y76.54231
X89.46347 Y76.51077
X89.2742 Y76.49499
X89.1007 Y76.52654
X88.91142 Y76.57386
X88.75369 Y76.63695
X88.58019 Y76.73159
X88.43824 Y76.85777
X88.31205 Y76.98395
X88.20164 Y77.14168
X88.107 Y77.29941
X88.02814 Y77.47291
X87.98082 Y77.64641
X87.94928 Y77.83569
X87.91773 Y78.07228
X87.90196 Y78.2931
X87.88618 Y78.51392
X87.87041 Y78.73474
Y78.97133
Y79.19215
X87.88618 Y79.3972
X87.90196 Y79.60225
X87.91773 Y79.8073
X87.94928 Y79.99657
X87.98082 Y80.20162
X88.02814 Y80.39089
X88.07546 Y80.54862
X88.15432 Y80.70635
X88.24896 Y80.89562
X88.42246 Y81.11645
X88.54865 Y81.21108
X88.6906 Y81.30572
X88.8641 Y81.38458
X89.0376 Y81.44768
X89.22688 Y81.47922
X89.41615 Y81.49499
X89.6212 Y81.46345
X89.7947 Y81.4319
X89.9682 Y81.35304
X90.14171 Y81.2584
X90.28366 Y81.16376
X90.39407 Y81.06913
X90.50448 Y80.94294
X90.66221 Y80.70635
G0 Z0.995
X92.34991 Y79.28679
G1 Z-1. F240.5
X92.413 Y79.46029 F3000.
X92.49186 Y79.60225
X92.5865 Y79.72843
X92.71268 Y79.83884
X92.83887 Y79.91771
X92.98082 Y79.9808
X93.13855 Y80.02812
X93.28051 Y80.04389
X93.45401 Y80.07544
X93.61174
X93.78524
X93.97451 Y80.04389
X94.16379 Y80.01234
X94.30574 Y79.96503
X94.4477 Y79.91771
X94.55811 Y79.85462
X94.65275 Y79.75998
X94.73161 Y79.66534
X94.81047 Y79.53916
X94.85779 Y79.3972
X94.88934 Y79.23947
X94.90511 Y78.98711
Y77.23632
X94.92089 Y77.07859
X94.93666 Y76.92086
X94.95243 Y76.77891
X94.9682 Y76.63695
X95.0313 Y76.46345
G0 Z0.995
X94.88934 Y78.73474
G1 Z-1. F240.5
X94.58965 Y78.62433 F3000.
X94.28997 Y78.52969
X94.00606 Y78.45083
X93.73792 Y78.40351
X93.46978 Y78.37197
X93.26473
X93.07546 Y78.34042
X92.91773 Y78.30887
X92.76 Y78.26156
X92.61805 Y78.19846
X92.49186 Y78.1196
X92.36568 Y78.00919
X92.25527 Y77.86723
X92.19218 Y77.7095
X92.14486 Y77.536
X92.12909 Y77.3625
X92.16063 Y77.15746
X92.22372 Y76.96818
X92.31836 Y76.82622
X92.44454 Y76.68427
X92.61805 Y76.6054
X92.79155 Y76.54231
X92.9335 Y76.51077
X93.09123 Y76.49499
X93.24896
X93.42246 Y76.51077
X93.62751 Y76.54231
X93.81678 Y76.58963
X94.00606 Y76.65272
X94.17956 Y76.74736
X94.33729 Y76.842
X94.52656 Y76.99973
X94.70006 Y77.14168
X94.81047 Y77.25209
X94.90511 Y77.34673
G0 Z0.995
X86.78208 Y81.44768
G1 Z-1. F240.5
X83.75369 F3000.
Y76.46345
G0 Z0.995
X53.23423 Y80.03991
G1 Z-1. F240.5
X53.0702 Y80.05253 F3000.
X52.91878 Y80.09038
X52.77998 Y80.12824
X52.66641 Y80.17871
X52.52761 Y80.25442
X52.41404 Y80.34275
X52.3131 Y80.45631
X52.22477 Y80.56988
X52.14906 Y80.70868
X52.09859 Y80.84748
X52.06073 Y80.98628
X52.04811 Y81.1377
X52.06073 Y81.28912
X52.08597 Y81.42792
X52.13644 Y81.57934
X52.19953 Y81.70552
X52.28786 Y81.83171
X52.38881 Y81.93265
X52.50237 Y82.0336
X52.62856 Y82.10931
X52.76736 Y82.18502
X52.90616 Y82.23549
X53.04496 Y82.26073
X53.19638 Y82.27335
X53.3478
X53.49922 Y82.26073
X53.65064 Y82.22287
X53.77682 Y82.15978
X53.91562 Y82.09669
X54.04181 Y82.02098
X54.14275 Y81.92003
X54.2437 Y81.80647
X54.33203 Y81.68029
X54.39512 Y81.54149
X54.43297 Y81.40268
X54.45821 Y81.25126
X54.47083 Y81.09984
X54.44559 Y80.96104
X54.40774 Y80.80962
X54.35726 Y80.68344
X54.28155 Y80.54464
X54.18061 Y80.43108
X54.07966 Y80.33013
X53.95348 Y80.2418
X53.8273 Y80.16609
X53.68849 Y80.103
X53.54969 Y80.06515
X53.39827 Y80.03991
X53.209 Y80.01467
X53.03234 Y80.00205
X52.85569 Y79.98943
X52.67903 Y79.97682
X52.48975
X52.3131
X52.14906 Y79.98943
X51.98502 Y80.00205
X51.82098 Y80.01467
X51.66957 Y80.03991
X51.50553 Y80.06515
X51.35411 Y80.103
X51.22792 Y80.14085
X51.10174 Y80.20395
X50.95032 Y80.27966
X50.77367 Y80.41846
X50.69796 Y80.5194
X50.62225 Y80.63297
X50.55916 Y80.77177
X50.50868 Y80.91057
X50.48345 Y81.06199
X50.47083 Y81.21341
X50.49606 Y81.37745
X50.5213 Y81.51625
X50.58439 Y81.65505
X50.6601 Y81.79385
X50.73581 Y81.90742
X50.81152 Y81.99574
X50.91247 Y82.08407
X51.10174 Y82.21025
G0 Z0.995
X50.50868 Y79.10615
G1 Z-1. F240.5
Y76.68344 F3000.
X54.49606
G0 Z0.995
X52.38881
G1 Z-1. F240.5
Y78.7907 F3000.
G0 Z0.995
X53.7642 Y85.50363
G1 Z-1. F240.5
X53.89039 Y85.42792 F3000.
X54.00395 Y85.35221
X54.1049 Y85.2765
X54.20584 Y85.17555
X54.28155 Y85.07461
X54.35726 Y84.96104
X54.40774 Y84.83486
X54.44559 Y84.70868
X54.47083 Y84.58249
Y84.45631
X54.44559 Y84.31751
X54.40774 Y84.19133
X54.34465 Y84.07776
X54.26893 Y83.95158
X54.19322 Y83.85063
X54.09228 Y83.76231
X53.99133 Y83.6866
X53.87777 Y83.61089
X53.72635 Y83.53518
X53.57493 Y83.4847
X53.42351 Y83.43423
X53.25947 Y83.40899
X53.09543 Y83.39637
X52.95663 Y83.40899
X52.81783 Y83.42161
X52.69165 Y83.43423
X52.56546 Y83.47209
X52.43928 Y83.50994
X52.3131 Y83.56041
X52.18692 Y83.63612
X52.07335 Y83.71183
X51.9724 Y83.78754
X51.88408 Y83.88849
X51.80837 Y83.98943
X51.73266 Y84.11562
X51.68218 Y84.22918
X51.64433 Y84.35537
X51.63171 Y84.49417
X51.64433 Y84.62035
X51.65695 Y84.74653
X51.6948 Y84.87272
X51.75789 Y84.9989
X51.8336 Y85.11246
X51.92193 Y85.21341
X52.02288 Y85.30174
X52.13644 Y85.37745
X52.25001 Y85.45316
G0 Z0.995
X34.64442 Y81.003
G1 Z-1. F240.5
X62.28501 F3000.
G0 Z0.995
X10.89573 Y71.97043
G1 Z-1. F240.5
X6.42864 F3000.
X6.28758 Y72.00177
X6.16218 Y72.08015
X6.08382 Y72.17419
X6.00544 Y72.31525
X5.95842 Y72.45632
X5.92708 Y72.59739
X5.89573 Y72.73845
Y72.87952
X5.92708 Y73.02058
G0 Z0.995
X7.33773 Y71.28077
G1 Z-1. F240.5
Y72.84817 F3000.
G0 Z0.995
X9.32833 Y67.29958
G1 Z-1. F240.5
X9.12457 Y67.31525 F3000.
X8.93648 Y67.36228
X8.76407 Y67.4093
X8.623 Y67.47199
X8.45059 Y67.56604
X8.30952 Y67.67576
X8.18413 Y67.81682
X8.07441 Y67.95789
X7.98037 Y68.1303
X7.91767 Y68.30272
X7.87065 Y68.47513
X7.85497 Y68.66322
X7.87065 Y68.8513
X7.902 Y69.02372
X7.96469 Y69.21181
X8.04306 Y69.36855
X8.15278 Y69.52529
X8.27817 Y69.65068
X8.41924 Y69.77607
X8.57598 Y69.87011
X8.74839 Y69.96416
X8.92081 Y70.02685
X9.09322 Y70.0582
X9.28131 Y70.07387
X9.4694
X9.65748 Y70.0582
X9.84557 Y70.01118
X10.00231 Y69.93281
X10.17472 Y69.85444
X10.33146 Y69.7604
X10.45686 Y69.635
X10.58225 Y69.49394
X10.69197 Y69.3372
X10.77034 Y69.16478
X10.81736 Y68.99237
X10.84871 Y68.80428
X10.86438 Y68.6162
X10.83303 Y68.44378
X10.78601 Y68.25569
X10.72331 Y68.09895
X10.62927 Y67.92654
X10.50388 Y67.78547
X10.37849 Y67.66008
X10.22175 Y67.55036
X10.06501 Y67.45632
X9.89259 Y67.37795
X9.72018 Y67.33093
X9.53209 Y67.29958
X9.29698 Y67.26823
X9.07755 Y67.25256
X8.85811 Y67.23689
X8.63867 Y67.22121
X8.40356
X8.18413
X7.98037 Y67.23689
X7.7766 Y67.25256
X7.57284 Y67.26823
X7.38476 Y67.29958
X7.18099 Y67.33093
X6.99291 Y67.37795
X6.83617 Y67.42497
X6.67943 Y67.50334
X6.49134 Y67.59739
X6.2719 Y67.7698
X6.17786 Y67.89519
X6.08382 Y68.03626
X6.00544 Y68.20867
X5.94275 Y68.38108
X5.9114 Y68.56917
X5.89573 Y68.75726
X5.92708 Y68.96102
X5.95842 Y69.13344
X6.03679 Y69.30585
X6.13084 Y69.47826
X6.22488 Y69.61933
X6.31892 Y69.72905
X6.44432 Y69.83877
X6.67943 Y69.9955
G0 Z0.995
X5.94275 Y66.13971
G1 Z-1. F240.5
Y63.1303 F3000.
X10.89573
G0 Z0.995
X8.27817
G1 Z-1. F240.5
Y65.74786 F3000.
G0 Z0.995
X57.29337 Y149.56116
G1 Z-1. F240.5
X113.5861 F3000.
G0 Z0.995
X134.06452 Y127.51494
G1 Z-1. F240.5
Y156.30149 F3000.
Y185.08804
G0 Z0.995
X157.1345 Y195.78807
G1 Z-1. F240.5
Y199.45726 F3000.
Y227.47908
Y255.50089
Y259.17008
G0 Z0.995
X151.85336 Y278.9001
G1 Z-1. F240.5
Y292.81627 F3000.
Y326.31627
Y340.23257
G0 Z0.995
X157.28062 Y365.93444
G1 Z-1. F240.5
X76.0783 F3000.
G0 Z0.995
X115.41262 Y355.63179
G1 Z-1. F240.5
Y352.89761 F3000.
X119.91262
G0 Z0.995
X117.53446
G1 Z-1. F240.5
Y355.27577 F3000.
G0 Z0.995
X118.6737 Y359.14919
G1 Z-1. F240.5
X118.51705 Y359.13495 F3000.
X118.34617 Y359.09223
X118.1468 Y359.02102
X117.96167 Y358.89286
X117.86199 Y358.79318
X117.74806 Y358.67925
X117.66262 Y358.53685
X117.59142 Y358.3802
X117.53446 Y358.20932
X117.50598 Y358.02419
X117.49174 Y357.8533
X117.4775 Y358.02419
X117.44901 Y358.18083
X117.39205 Y358.33748
X117.32085 Y358.47989
X117.20693 Y358.65077
X117.06452 Y358.80742
X116.89363 Y358.92134
X116.72275 Y358.99254
X116.58034 Y359.02102
X116.4237 Y359.03527
X116.29553 Y359.02102
X116.13889 Y358.99254
X115.968 Y358.92134
X115.79712 Y358.80742
X115.65471 Y358.65077
X115.54079 Y358.47989
X115.46958 Y358.33748
X115.42686 Y358.18083
X115.38414 Y358.02419
X115.3699 Y357.8533
X115.38414 Y357.68242
X115.42686 Y357.51153
X115.46958 Y357.36913
X115.54079 Y357.22672
X115.65471 Y357.04159
X115.79712 Y356.89919
X115.968 Y356.78527
X116.13889 Y356.69982
X116.29553 Y356.67134
X116.4237 Y356.6571
X116.58034 Y356.67134
X116.72275 Y356.69982
X116.89363 Y356.78527
X117.06452 Y356.89919
X117.20693 Y357.04159
X117.32085 Y357.22672
X117.39205 Y357.36913
X117.44901 Y357.51153
X117.4775 Y357.68242
X117.49174 Y357.8533
X117.50598 Y357.66818
X117.53446 Y357.48305
X117.59142 Y357.31216
X117.66262 Y357.15552
X117.74806 Y357.02735
X117.86199 Y356.91343
X117.96167 Y356.81375
X118.1468 Y356.68558
X118.34617 Y356.60014
X118.51705 Y356.55742
X118.6737 Y356.54318
X118.83034 Y356.55742
X119.01547 Y356.60014
X119.2006 Y356.68558
X119.38572 Y356.81375
X119.54237 Y356.97039
X119.68477 Y357.15552
X119.75598 Y357.31216
X119.81294 Y357.48305
X119.85566 Y357.66818
X119.8699 Y357.8533
X119.85566 Y358.02419
X119.81294 Y358.20932
X119.75598 Y358.3802
X119.68477 Y358.53685
X119.59933 Y358.67925
X119.49965 Y358.79318
X119.38572 Y358.89286
X119.2006 Y359.02102
X119.01547 Y359.09223
X118.83034 Y359.13495
X118.6737 Y359.14919
G0 Z0.995
X116.88565 Y363.81225
G1 Z-1. F240.5
G03 Y361.13225 I0. J-1.34 F3000.
Y363.81225 I0. J1.34
G0 Z0.995
X114.88115 Y345.60812
G1 Z-1. F240.5
Y365.93444 F3000.
Y386.26077
G0 Z0.995
X155.40271 Y300.63454
G1 Z-1. F240.5
Y297.59656 F3000.
X160.40271
G0 Z0.995
X157.76031
G1 Z-1. F240.5
Y300.23897 F3000.
G0 Z0.995
X159.40588 Y301.5839
G1 Z-1. F240.5
X159.59575 Y301.66302 F3000.
X159.75398 Y301.77378
X159.9122 Y301.90036
X160.03879 Y302.05859
X160.14955 Y302.21681
X160.24448 Y302.40669
X160.30777 Y302.58074
X160.33942 Y302.77061
X160.37107 Y302.97631
X160.35524 Y303.182
X160.3236 Y303.37188
X160.27613 Y303.56175
X160.18119 Y303.7358
X160.08626 Y303.90985
X159.95967 Y304.06808
X159.81727 Y304.19466
X159.65904 Y304.32124
X159.46917 Y304.41618
X159.29512 Y304.47947
X159.10524 Y304.52694
X158.89955 Y304.54276
X158.70967
X158.50398 Y304.51112
X158.3141 Y304.44783
X158.14005 Y304.36871
X157.966 Y304.25795
X157.80777 Y304.13137
X157.68119 Y303.98897
X157.57043 Y303.83074
X157.4755 Y303.65669
X157.39638 Y303.46681
X157.36474 Y303.27694
X157.33309 Y303.08707
Y302.88137
X157.38056 Y302.67567
X157.42803 Y302.50162
X157.50714 Y302.31175
X157.66537 Y302.05859
X157.87107 Y301.83707
X155.40271 Y302.26428
Y304.38454
G0 Z0.995
X195.47619 Y309.56627
G1 Z-1. F240.5
X119.86086 F3000.
G0 Z0.995
X81.8339 Y261.12491
G1 Z-1. F240.5
X81.93203 Y260.85856 F3000.
X82.01614 Y260.5922
X82.08624 Y260.33987
X82.12829 Y260.10155
X82.15633 Y259.86323
Y259.68099
X82.18437 Y259.51276
X82.2124 Y259.37258
X82.25446 Y259.23239
X82.31054 Y259.10622
X82.38063 Y258.99407
X82.47876 Y258.88192
X82.60493 Y258.78379
X82.74511 Y258.72772
X82.89932 Y258.68566
X83.05352 Y258.67164
X83.23577 Y258.69968
X83.40399 Y258.75576
X83.53016 Y258.83987
X83.65633 Y258.95202
X83.72642 Y259.10622
X83.7825 Y259.26043
X83.81054 Y259.3866
X83.82455 Y259.52678
Y259.66697
X83.81054 Y259.82117
X83.7825 Y260.00342
X83.74044 Y260.17164
X83.68437 Y260.33987
X83.60025 Y260.49407
X83.51614 Y260.63426
X83.37595 Y260.80248
X83.24979 Y260.95669
X83.15166 Y261.05482
X83.06754 Y261.13893
G0 Z0.995
X81.34325 Y258.8679
G1 Z-1. F240.5
X81.18904 Y258.92398 F3000.
X81.06287 Y258.99407
X80.95072 Y259.07818
X80.85259 Y259.19033
X80.7825 Y259.30248
X80.72642 Y259.42865
X80.68437 Y259.56884
X80.67035 Y259.69501
X80.64231 Y259.84921
Y259.9894
Y260.1436
X80.67035 Y260.31183
X80.69839 Y260.48005
X80.74044 Y260.60622
X80.7825 Y260.73239
X80.83857 Y260.83052
X80.92268 Y260.91463
X81.0068 Y260.98473
X81.11895 Y261.05482
X81.24511 Y261.09688
X81.3853 Y261.12491
X81.6096 Y261.13893
X83.16567
X83.30586 Y261.15295
X83.44605 Y261.16697
X83.57222 Y261.18099
X83.69839 Y261.19501
X83.85259 Y261.25108
G0 Z0.995
X80.26381 Y254.8866
G1 Z-1. F240.5
X80.1096 Y254.92865 F3000.
X79.96941 Y254.99874
X79.84325 Y255.09688
X79.70306 Y255.22304
X79.59091 Y255.39127
X79.49278 Y255.54547
X79.4367 Y255.7137
X79.40867 Y255.88192
X79.38063 Y256.06417
X79.39465 Y256.24641
X79.40867 Y256.40062
X79.45072 Y256.56884
X79.53483 Y256.75108
X79.63296 Y256.91931
X79.75913 Y257.07351
X79.89932 Y257.18566
X80.02549 Y257.28379
X80.16567 Y257.33987
X80.31988 Y257.3679
X80.47409 Y257.38192
X80.62829 Y257.35389
X80.83857 Y257.28379
X81.14698 Y257.12959
X81.41334 Y256.96136
X81.66567 Y256.77912
X81.88997 Y256.58286
X82.07222 Y256.37258
X82.2124 Y256.19033
X82.31054 Y256.06417
X82.39465 Y255.92398
X82.52081 Y255.7137
X82.68904 Y255.50342
X82.85726 Y255.30716
X83.03951 Y255.15295
X83.23577 Y255.01276
X83.43203 Y254.91463
X83.62829 Y254.83052
X83.7825 Y254.78846
Y257.38192
G0 Z0.995
X83.85259 Y253.48473
G1 Z-1. F240.5
X79.35259 F3000.
X79.57689 Y253.34454
X79.73109 Y253.21837
X79.87128 Y253.10622
X80.01147 Y252.98005
X80.13764 Y252.83987
X80.24979 Y252.69968
X80.36194 Y252.54547
X80.44605 Y252.39127
X80.51614 Y252.23706
G0 Z0.995
X79.42268 Y251.50809
G1 Z-1. F240.5
Y248.8165 F3000.
X83.85259
G0 Z0.995
X81.51147
G1 Z-1. F240.5
Y251.15762 F3000.
G0 Z0.995
X71.70015 Y256.7767
G1 Z-1. F240.5
Y259.37016 F3000.
Y256.7767
X71.54595 Y256.81875
X71.34968 Y256.90287
X71.15342 Y257.001
X70.95716 Y257.14118
X70.77492 Y257.29539
X70.60669 Y257.49165
X70.43847 Y257.70193
X70.3123 Y257.91221
X70.22819 Y258.0524
X70.13006 Y258.17857
X69.98987 Y258.36081
X69.80763 Y258.57109
X69.58333 Y258.76735
X69.33099 Y258.9496
X69.06464 Y259.11782
X68.75623 Y259.27203
X68.54595 Y259.34212
X68.39174 Y259.37016
X68.23753 Y259.35614
X68.08333 Y259.3281
X67.94314 Y259.27203
X67.81697 Y259.17389
X67.67679 Y259.06175
X67.55062 Y258.90754
X67.45249 Y258.73932
X67.36837 Y258.55707
X67.32632 Y258.38885
X67.3123 Y258.23464
X67.29828 Y258.0524
X67.32632 Y257.87016
X67.35436 Y257.70193
X67.41043 Y257.53371
X67.50856 Y257.3795
X67.62071 Y257.21128
X67.7609 Y257.08511
X67.88707 Y256.98698
X68.02725 Y256.91689
X68.18146 Y256.87483
X68.02725 Y256.91689
X67.88707 Y256.98698
X67.7609 Y257.08511
X67.62071 Y257.21128
X67.50856 Y257.3795
X67.41043 Y257.53371
X67.35436 Y257.70193
X67.32632 Y257.87016
X67.29828 Y258.0524
X67.3123 Y258.23464
X67.32632 Y258.38885
X67.36837 Y258.55707
X67.45249 Y258.73932
X67.55062 Y258.90754
X67.67679 Y259.06175
X67.81697 Y259.17389
X67.94314 Y259.27203
X68.08333 Y259.3281
X68.23753 Y259.35614
X68.39174 Y259.37016
X68.54595 Y259.34212
X68.75623 Y259.27203
X69.06464 Y259.11782
X69.33099 Y258.9496
X69.58333 Y258.76735
X69.80763 Y258.57109
X69.98987 Y258.36081
X70.13006 Y258.17857
X70.22819 Y258.0524
X70.3123 Y257.91221
X70.43847 Y257.70193
X70.60669 Y257.49165
X70.77492 Y257.29539
X70.95716 Y257.14118
X71.15342 Y257.001
X71.34968 Y256.90287
X71.54595 Y256.81875
X71.70015 Y256.7767
G0 Z0.995
X68.4338 Y254.2253
G1 Z-1. F240.5
X68.3637 Y254.3795 F3000.
X68.27959 Y254.53371
X68.16744 Y254.68791
X68.05529 Y254.8281
X67.92912 Y254.96829
X67.78894 Y255.09446
X67.64875 Y255.20661
X67.49454 Y255.33277
X67.27024 Y255.47296
X71.77024
X67.27024
X67.49454 Y255.33277
X67.64875 Y255.20661
X67.78894 Y255.09446
X67.92912 Y254.96829
X68.05529 Y254.8281
X68.16744 Y254.68791
X68.27959 Y254.53371
X68.3637 Y254.3795
X68.4338 Y254.2253
G0 Z0.995
X67.34034 Y253.49633
G1 Z-1. F240.5
Y250.80474 F3000.
X71.77024
X67.34034
Y253.49633
G0 Z0.995
X69.42912 Y250.80474
G1 Z-1. F240.5
Y253.14586 F3000.
Y250.80474
G0 Z0.995
X69.2609 Y260.85614
G1 Z-1. F240.5
X69.10669 Y260.91221 F3000.
X68.98052 Y260.98231
X68.86837 Y261.06642
X68.77024 Y261.17857
X68.70015 Y261.29072
X68.64408 Y261.41689
X68.60202 Y261.55707
X68.588 Y261.68324
X68.55996 Y261.83745
Y261.97763
Y262.13184
X68.588 Y262.30006
X68.61604 Y262.46829
X68.65809 Y262.59446
X68.70015 Y262.72062
X68.75623 Y262.81875
X68.84034 Y262.90287
X68.92445 Y262.97296
X69.0366 Y263.04305
X69.16277 Y263.08511
X69.30295 Y263.11315
X69.52725 Y263.12717
X71.08333
X71.22352 Y263.14118
X71.3637 Y263.1552
X71.48987 Y263.16922
X71.61604 Y263.18324
X71.77024 Y263.23932
X71.61604 Y263.18324
X71.48987 Y263.16922
X71.3637 Y263.1552
X71.22352 Y263.14118
X71.08333 Y263.12717
X69.52725
X69.30295 Y263.11315
X69.16277 Y263.08511
X69.0366 Y263.04305
X68.92445 Y262.97296
X68.84034 Y262.90287
X68.75623 Y262.81875
X68.70015 Y262.72062
X68.65809 Y262.59446
X68.61604 Y262.46829
X68.588 Y262.30006
X68.55996 Y262.13184
Y261.97763
Y261.83745
X68.588 Y261.68324
X68.60202 Y261.55707
X68.64408 Y261.41689
X68.70015 Y261.29072
X68.77024 Y261.17857
X68.86837 Y261.06642
X68.98052 Y260.98231
X69.10669 Y260.91221
X69.2609 Y260.85614
G0 Z0.995
X69.75155 Y263.11315
G1 Z-1. F240.5
X69.84968 Y262.84679 F3000.
X69.9338 Y262.58044
X70.00389 Y262.3281
X70.04595 Y262.08978
X70.07398 Y261.85147
Y261.66922
X70.10202 Y261.501
X70.13006 Y261.36081
X70.17211 Y261.22062
X70.22819 Y261.09446
X70.29828 Y260.98231
X70.39641 Y260.87016
X70.52258 Y260.77203
X70.66277 Y260.71595
X70.81697 Y260.67389
X70.97118 Y260.65988
X71.15342 Y260.68791
X71.32165 Y260.74399
X71.44781 Y260.8281
X71.57398 Y260.94025
X71.64408 Y261.09446
X71.70015 Y261.24866
X71.72819 Y261.37483
X71.74221 Y261.51502
Y261.6552
X71.72819 Y261.80941
X71.70015 Y261.99165
X71.65809 Y262.15988
X71.60202 Y262.3281
X71.51791 Y262.48231
X71.4338 Y262.62249
X71.29361 Y262.79072
X71.16744 Y262.94492
X71.06931 Y263.04305
X70.9852 Y263.12717
X71.06931 Y263.04305
X71.16744 Y262.94492
X71.29361 Y262.79072
X71.4338 Y262.62249
X71.51791 Y262.48231
X71.60202 Y262.3281
X71.65809 Y262.15988
X71.70015 Y261.99165
X71.72819 Y261.80941
X71.74221 Y261.6552
Y261.51502
X71.72819 Y261.37483
X71.70015 Y261.24866
X71.64408 Y261.09446
X71.57398 Y260.94025
X71.44781 Y260.8281
X71.32165 Y260.74399
X71.15342 Y260.68791
X70.97118 Y260.65988
X70.81697 Y260.67389
X70.66277 Y260.71595
X70.52258 Y260.77203
X70.39641 Y260.87016
X70.29828 Y260.98231
X70.22819 Y261.09446
X70.17211 Y261.22062
X70.13006 Y261.36081
X70.10202 Y261.501
X70.07398 Y261.66922
Y261.85147
X70.04595 Y262.08978
X70.00389 Y262.3281
X69.9338 Y262.58044
X69.84968 Y262.84679
X69.75155 Y263.11315
G0 Z0.995
X48.30717 Y278.32891
G1 Z-1. F240.5
Y280.67003 F3000.
G0 Z0.995
X46.21838 Y281.02049
G1 Z-1. F240.5
Y278.32891 F3000.
X50.64829
G0 Z0.995
Y282.99713
G1 Z-1. F240.5
X46.14829 F3000.
X46.37259 Y282.85694
X46.5268 Y282.73077
X46.66698 Y282.61863
X46.80717 Y282.49246
X46.93334 Y282.35227
X47.04549 Y282.21208
X47.15764 Y282.05788
X47.24175 Y281.90367
X47.31184 Y281.74947
G0 Z0.995
X50.64829 Y285.43638
G1 Z-1. F240.5
X46.14829 F3000.
X46.37259 Y285.2962
X46.5268 Y285.17003
X46.66698 Y285.05788
X46.80717 Y284.93171
X46.93334 Y284.79152
X47.04549 Y284.65134
X47.15764 Y284.49713
X47.24175 Y284.34292
X47.31184 Y284.18872
G0 Z0.995
X8.2366 Y295.30537
G1 Z-1. F240.5
Y297.64649 F3000.
Y295.30537
G0 Z0.995
X6.14782 Y297.99696
G1 Z-1. F240.5
Y295.30537 F3000.
X10.57772
X6.14782
Y297.99696
G0 Z0.995
X7.24128 Y298.72593
G1 Z-1. F240.5
X7.17118 Y298.88013 F3000.
X7.08707 Y299.03434
X6.97492 Y299.18854
X6.86277 Y299.32873
X6.7366 Y299.46892
X6.59642 Y299.59509
X6.45623 Y299.70724
X6.30202 Y299.8334
X6.07772 Y299.97359
X10.57772
X6.07772
X6.30202 Y299.8334
X6.45623 Y299.70724
X6.59642 Y299.59509
X6.7366 Y299.46892
X6.86277 Y299.32873
X6.97492 Y299.18854
X7.08707 Y299.03434
X7.17118 Y298.88013
X7.24128 Y298.72593
G0 Z0.995
Y301.16518
G1 Z-1. F240.5
X7.17118 Y301.31939 F3000.
X7.08707 Y301.47359
X6.97492 Y301.6278
X6.86277 Y301.76798
X6.7366 Y301.90817
X6.59642 Y302.03434
X6.45623 Y302.14649
X6.30202 Y302.27266
X6.07772 Y302.41284
X10.57772
X6.07772
X6.30202 Y302.27266
X6.45623 Y302.14649
X6.59642 Y302.03434
X6.7366 Y301.90817
X6.86277 Y301.76798
X6.97492 Y301.6278
X7.08707 Y301.47359
X7.17118 Y301.31939
X7.24128 Y301.16518
G0 Z0.995
X90.88233 Y207.55075
G1 Z-1. F240.5
X90.72813 Y207.5928 F3000.
X90.58794 Y207.6629
X90.46177 Y207.76103
X90.32159 Y207.8872
X90.20944 Y208.05542
X90.11131 Y208.20963
X90.05523 Y208.37785
X90.02719 Y208.54608
X89.99916 Y208.72832
X90.01318 Y208.91056
X90.02719 Y209.06477
X90.06925 Y209.23299
X90.15336 Y209.41523
X90.25149 Y209.58346
X90.37766 Y209.73766
X90.51785 Y209.84981
X90.64402 Y209.94794
X90.7842 Y210.00402
X90.93841 Y210.03206
X91.09261 Y210.04608
X91.24682 Y210.01804
X91.4571 Y209.94794
X91.76551 Y209.79374
X92.03187 Y209.62551
X92.2842 Y209.44327
X92.5085 Y209.24701
X92.69074 Y209.03673
X92.83093 Y208.85449
X92.92906 Y208.72832
X93.01318 Y208.58813
X93.13934 Y208.37785
X93.30757 Y208.16757
X93.47579 Y207.97131
X93.65803 Y207.8171
X93.8543 Y207.67692
X94.05056 Y207.57879
X94.24682 Y207.49467
X94.40103 Y207.45262
Y210.04608
G0 Z0.995
X94.47112 Y206.14888
G1 Z-1. F240.5
X89.97112 F3000.
X90.19542 Y206.00869
X90.34962 Y205.88252
X90.48981 Y205.77038
X90.63 Y205.64421
X90.75617 Y205.50402
X90.86832 Y205.36383
X90.98046 Y205.20963
X91.06458 Y205.05542
X91.13467 Y204.90122
G0 Z0.995
X90.04121 Y204.17224
G1 Z-1. F240.5
Y201.48066 F3000.
X94.47112
G0 Z0.995
X92.13
G1 Z-1. F240.5
Y203.82178 F3000.
G0 Z0.995
X101.35885 Y196.52519
G1 Z-1. F240.5
Y193.8336 F3000.
X105.78876
X101.35885
Y196.52519
G0 Z0.995
X102.45231 Y197.25416
G1 Z-1. F240.5
X102.38222 Y197.40837 F3000.
X102.29811 Y197.56257
X102.18596 Y197.71678
X102.07381 Y197.85696
X101.94764 Y197.99715
X101.80745 Y198.12332
X101.66727 Y198.23547
X101.51306 Y198.36164
X101.28876 Y198.50182
X105.78876
X101.28876
X101.51306 Y198.36164
X101.66727 Y198.23547
X101.80745 Y198.12332
X101.94764 Y197.99715
X102.07381 Y197.85696
X102.18596 Y197.71678
X102.29811 Y197.56257
X102.38222 Y197.40837
X102.45231 Y197.25416
G0 Z0.995
X103.44764 Y193.8336
G1 Z-1. F240.5
Y196.17472 F3000.
Y193.8336
G0 Z0.995
X105.71867 Y199.80556
G1 Z-1. F240.5
Y202.39902 F3000.
Y199.80556
X105.56446 Y199.84762
X105.3682 Y199.93173
X105.17194 Y200.02986
X104.97568 Y200.17005
X104.79343 Y200.32425
X104.62521 Y200.52052
X104.45698 Y200.7308
X104.33082 Y200.94108
X104.2467 Y201.08126
X104.14857 Y201.20743
X104.00839 Y201.38968
X103.82614 Y201.59996
X103.60184 Y201.79622
X103.34951 Y201.97846
X103.08315 Y202.14668
X102.77474 Y202.30089
X102.56446 Y202.37098
X102.41025 Y202.39902
X102.25605 Y202.385
X102.10184 Y202.35696
X101.96166 Y202.30089
X101.83549 Y202.20276
X101.6953 Y202.09061
X101.56913 Y201.9364
X101.471 Y201.76818
X101.38689 Y201.58594
X101.34483 Y201.41771
X101.33082 Y201.26351
X101.3168 Y201.08126
X101.34483 Y200.89902
X101.37287 Y200.7308
X101.42895 Y200.56257
X101.52708 Y200.40837
X101.63923 Y200.24014
X101.77941 Y200.11397
X101.90558 Y200.01584
X102.04577 Y199.94575
X102.19997 Y199.90369
X102.04577 Y199.94575
X101.90558 Y200.01584
X101.77941 Y200.11397
X101.63923 Y200.24014
X101.52708 Y200.40837
X101.42895 Y200.56257
X101.37287 Y200.7308
X101.34483 Y200.89902
X101.3168 Y201.08126
X101.33082 Y201.26351
X101.34483 Y201.41771
X101.38689 Y201.58594
X101.471 Y201.76818
X101.56913 Y201.9364
X101.6953 Y202.09061
X101.83549 Y202.20276
X101.96166 Y202.30089
X102.10184 Y202.35696
X102.25605 Y202.385
X102.41025 Y202.39902
X102.56446 Y202.37098
X102.77474 Y202.30089
X103.08315 Y202.14668
X103.34951 Y201.97846
X103.60184 Y201.79622
X103.82614 Y201.59996
X104.00839 Y201.38968
X104.14857 Y201.20743
X104.2467 Y201.08126
X104.33082 Y200.94108
X104.45698 Y200.7308
X104.62521 Y200.52052
X104.79343 Y200.32425
X104.97568 Y200.17005
X105.17194 Y200.02986
X105.3682 Y199.93173
X105.56446 Y199.84762
X105.71867 Y199.80556
G0 Z0.995
X74.11215 Y175.08417
G1 Z-1. F240.5
X73.92465 Y175.06854 F3000.
X73.72153 Y175.00604
X73.5809 Y174.94354
X73.42465 Y174.86542
X73.28403 Y174.74042
X73.15903 Y174.59979
X73.03403 Y174.44354
X72.94028 Y174.25604
X72.84653 Y174.05292
X72.7684 Y173.81854
X72.73715 Y173.58417
X72.72153 Y173.33417
X72.73715 Y173.08417
X72.7684 Y172.84979
X72.84653 Y172.61542
X72.94028 Y172.41229
X73.03403 Y172.22479
X73.15903 Y172.06854
X73.28403 Y171.94354
X73.42465 Y171.81854
X73.5809 Y171.72479
X73.72153 Y171.66229
X73.92465 Y171.61542
X74.11215 Y171.58417
X74.29965 Y171.61542
X74.50278 Y171.66229
X74.6434 Y171.72479
X74.79965 Y171.81854
X74.94028 Y171.94354
X75.06528 Y172.06854
X75.19028 Y172.22479
X75.29965 Y172.41229
X75.37778 Y172.61542
X75.44028 Y172.84979
X75.48715 Y173.08417
X75.50278 Y173.33417
X75.48715 Y173.58417
X75.44028 Y173.81854
X75.37778 Y174.05292
X75.29965 Y174.25604
X75.19028 Y174.44354
X75.06528 Y174.59979
X74.94028 Y174.74042
X74.79965 Y174.86542
X74.6434 Y174.94354
X74.50278 Y175.00604
X74.29965 Y175.06854
X74.11215 Y175.08417
G0 Z0.995
X72.72153 Y176.53729
G1 Z-1. F240.5
Y171.53729 F3000.
G0 Z0.995
X68.48715 Y173.09979
G1 Z-1. F240.5
X68.50278 Y173.30292 F3000.
X68.54965 Y173.49042
X68.59653 Y173.66229
X68.65903 Y173.80292
X68.75278 Y173.97479
X68.86215 Y174.11542
X69.00278 Y174.24042
X69.1434 Y174.34979
X69.31528 Y174.44354
X69.48715 Y174.50604
X69.65903 Y174.55292
X69.84653 Y174.56854
X70.03403 Y174.55292
X70.2059 Y174.52167
X70.3934 Y174.45917
X70.54965 Y174.38104
X70.7059 Y174.27167
X70.8309 Y174.14667
X70.9559 Y174.00604
X71.04965 Y173.84979
X71.1434 Y173.67792
X71.2059 Y173.50604
X71.23715 Y173.33417
X71.25278 Y173.14667
Y172.95917
X71.23715 Y172.77167
X71.19028 Y172.58417
X71.11215 Y172.42792
X71.03403 Y172.25604
X70.94028 Y172.09979
X70.81528 Y171.97479
X70.67465 Y171.84979
X70.5184 Y171.74042
X70.34653 Y171.66229
X70.17465 Y171.61542
X69.98715 Y171.58417
X69.79965 Y171.56854
X69.62778 Y171.59979
X69.44028 Y171.64667
X69.28403 Y171.70917
X69.11215 Y171.80292
X68.97153 Y171.92792
X68.84653 Y172.05292
X68.73715 Y172.20917
X68.6434 Y172.36542
X68.56528 Y172.53729
X68.5184 Y172.70917
X68.48715 Y172.89667
X68.4559 Y173.13104
X68.44028 Y173.34979
X68.42465 Y173.56854
X68.40903 Y173.78729
Y174.02167
Y174.24042
X68.42465 Y174.44354
X68.44028 Y174.64667
X68.4559 Y174.84979
X68.48715 Y175.03729
X68.5184 Y175.24042
X68.56528 Y175.42792
X68.61215 Y175.58417
X68.69028 Y175.74042
X68.78403 Y175.92792
X68.9559 Y176.14667
X69.0809 Y176.24042
X69.22153 Y176.33417
X69.3934 Y176.41229
X69.56528 Y176.47479
X69.75278 Y176.50604
X69.94028 Y176.52167
X70.1434 Y176.49042
X70.31528 Y176.45917
X70.48715 Y176.38104
X70.65903 Y176.28729
X70.79965 Y176.19354
X70.90903 Y176.09979
X71.0184 Y175.97479
X71.17465 Y175.74042
G0 Z0.995
X67.3309 Y176.47479
G1 Z-1. F240.5
X64.3309 F3000.
Y171.53729
G0 Z0.995
Y174.14667
G1 Z-1. F240.5
X66.94028 F3000.
G0 Z0.995
X26.36948 Y174.84593
G1 Z-1. F240.5
X26.40063 Y175.03284 F3000.
X26.44736 Y175.21976
X26.54082 Y175.40667
X26.63427 Y175.57801
X26.75889 Y175.73378
X26.89907 Y175.85839
X27.05484 Y175.96742
X27.24175 Y176.06088
X27.41309 Y176.12319
X27.61558 Y176.15434
X27.8025 Y176.16991
X28.00499 Y176.13876
X28.19191 Y176.09203
X28.36325 Y175.99858
X28.53459 Y175.88954
X28.67477 Y175.76493
X28.81496 Y175.62474
X28.92399 Y175.4534
X29.00187 Y175.28206
X29.06418 Y175.09515
X29.11091 Y174.90823
X29.15764 Y174.61228
X29.17321 Y174.39421
X29.18879 Y174.17615
Y173.9425
X29.20437 Y173.72443
X29.18879 Y173.50636
Y173.30387
X29.17321 Y173.10138
X29.14206 Y172.89889
X29.11091 Y172.71197
X29.07976 Y172.50948
X29.0486 Y172.29141
X28.97072 Y172.08892
X28.87726 Y171.902
X28.75265 Y171.71509
X28.59689 Y171.5749
X28.4567 Y171.45029
X28.28536 Y171.35683
X28.11402 Y171.29453
X27.92711 Y171.26337
X27.74019 Y171.23222
X27.55328 Y171.26337
X27.36636 Y171.29453
X27.19502 Y171.35683
X27.02368 Y171.45029
X26.88349 Y171.5749
X26.75889 Y171.69951
X26.63427 Y171.85527
X26.54082 Y172.02661
X26.46294 Y172.19795
X26.41621 Y172.38487
X26.38505 Y172.60294
X26.33832 Y172.89889
X26.32275 Y173.10138
X26.30717 Y173.30387
X26.29159 Y173.50636
X26.27602 Y173.72443
X26.29159 Y173.9425
Y174.17615
X26.30717 Y174.39421
X26.33832 Y174.61228
X26.36948 Y174.84593
G0 Z0.995
X24.76512 Y171.20107
G1 Z-1. F240.5
Y176.20107 F3000.
X24.60935 Y175.95185
X24.46916 Y175.78051
X24.34455 Y175.62474
X24.20437 Y175.46898
X24.0486 Y175.32879
X23.89284 Y175.20418
X23.7215 Y175.07957
X23.55016 Y174.98611
X23.37882 Y174.90823
G0 Z0.995
X22.56885 Y176.12319
G1 Z-1. F240.5
X19.5782 F3000.
Y171.20107
G0 Z0.995
Y173.80231
G1 Z-1. F240.5
X22.17944 F3000.
G0 Z0.995
X131.0774 Y102.63809
G1 Z-1. F240.5
X133.71981 F3000.
G0 Z0.995
X135.17551 Y104.04632
G1 Z-1. F240.5
X135.22297 Y104.22037 F3000.
X135.30209 Y104.3786
X135.41285 Y104.521
X135.55525 Y104.67923
X135.74513 Y104.80581
X135.91918 Y104.91657
X136.10905 Y104.97986
X136.29892 Y105.01151
X136.50462 Y105.04315
X136.71032 Y105.02733
X136.88437 Y105.01151
X137.07424 Y104.96404
X137.27994 Y104.8691
X137.46981 Y104.75834
X137.64386 Y104.61594
X137.77044 Y104.45771
X137.8812 Y104.31531
X137.94449 Y104.15708
X137.97614 Y103.98303
X137.99196 Y103.80898
X137.96032 Y103.63493
X137.8812 Y103.39758
X137.70715 Y103.04948
X137.51728 Y102.74885
X137.31158 Y102.46404
X137.09006 Y102.21088
X136.85272 Y102.00518
X136.64703 Y101.84695
X136.50462 Y101.73619
X136.34639 Y101.64125
X136.10905 Y101.49885
X135.87171 Y101.30898
X135.65019 Y101.1191
X135.47614 Y100.91341
X135.31791 Y100.69189
X135.20715 Y100.47037
X135.11221 Y100.24885
X135.06475 Y100.0748
X137.99196
G0 Z0.995
X134.11538 Y104.99569
G1 Z-1. F240.5
X131.0774 F3000.
Y99.99569
G0 Z0.995
X140.09834 Y71.57423
G1 Z-1. F240.5
Y51.91723 F3000.
Y71.90253
Y83.96253
Y96.02253
Y116.00769
G0 Z0.995
X169.48441 Y148.96689
G1 Z-1. F240.5
X172.11848 F3000.
G0 Z0.995
X172.5128 Y151.31705
G1 Z-1. F240.5
X169.48441 F3000.
Y146.33282
G0 Z0.995
X174.92605 Y149.04575
G1 Z-1. F240.5
X175.16264 Y149.01421 F3000.
X175.38346 Y148.98266
X175.60428 Y148.88802
X175.80933 Y148.77761
X175.9986 Y148.61989
X176.15633 Y148.44638
X176.28251 Y148.24134
X176.37715 Y148.00474
X176.4087 Y147.75238
X176.39292 Y147.51579
X176.32983 Y147.26342
X176.20365 Y147.0426
X176.06169 Y146.83755
X175.87242 Y146.67982
X175.6516 Y146.53787
X175.41501 Y146.44323
X175.16264 Y146.39591
X174.92605 Y146.36437
X174.65791 Y146.39591
X174.42132 Y146.44323
X174.18472 Y146.53787
X173.9639 Y146.67982
X173.77463 Y146.83755
X173.63267 Y147.0426
X173.53804 Y147.18455
X173.47494 Y147.34228
G0 Z0.995
X175.14687 Y149.02998
G1 Z-1. F240.5
X175.4781 Y149.09307 F3000.
X175.6516 Y149.18771
X175.79356 Y149.29812
X175.93551 Y149.44008
X176.04592 Y149.5978
X176.12479 Y149.77131
X176.1721 Y149.94481
X176.20365 Y150.13408
X176.18788 Y150.32336
X176.14056 Y150.51263
X176.07747 Y150.68613
X175.96706 Y150.84386
X175.84087 Y150.98582
X175.69892 Y151.112
X175.50964 Y151.20664
X175.32037 Y151.2855
X175.09955 Y151.33282
X174.8945 Y151.36437
X174.67368 Y151.34859
X174.48441 Y151.30127
X174.29513 Y151.22241
X174.12163 Y151.12777
X173.97967 Y151.01736
X173.85349 Y150.87541
X173.74308 Y150.73345
X173.64845 Y150.55995
X173.60113 Y150.37068
G0 Z0.995
X187.10172 Y152.90821
G1 Z-1. F240.5
Y156.30149 F3000.
Y159.69491
G0 Z0.995
Y157.97652
G1 Z-1. F240.5
G03 Y154.62652 I0. J-1.675 F3000.
Y157.97652 I0. J1.675
G0 Z0.995
X192.32913 Y156.30149
G1 Z-1. F240.5
X122.13886 F3000.
G0 Z0.995
X184.42513 Y120.16912
G1 Z-1. F240.5
X228.25311 F3000.
Y97.2125
Y93.82498
G0 Z0.995
X237.97652 Y136.69377
G1 Z-1. F240.5
Y138.80769 F3000.
G0 Z0.995
X236.09044 Y139.12414
G1 Z-1. F240.5
Y136.69377 F3000.
X240.09044
G0 Z0.995
X236.09044 Y139.71908
G1 Z-1. F240.5
Y141.97225 F3000.
X236.3436 Y141.79503
X236.58411 Y141.64313
X236.82462 Y141.49123
X237.03981 Y141.35199
X237.255 Y141.22541
X237.45753 Y141.11149
X237.67272 Y140.99756
X237.87525 Y140.88364
X238.06512 Y140.79503
X238.255 Y140.71908
X238.41955 Y140.65579
X238.60943 Y140.5925
X238.7993 Y140.54187
X239.00183 Y140.49123
X239.22968 Y140.45326
X239.45753 Y140.42794
X239.68538 Y140.40262
X239.93854 Y140.37731
X240.09044 Y140.36465
G0 Z0.995
X222.4667 Y174.63091
G1 Z-1. F240.5
G03 Y171.95091 I0. J-1.34 F3000.
Y174.63091 I0. J1.34
G0 Z0.995
X219.4779 Y176.84475
G1 Z-1. F240.5
X222.11197 F3000.
G0 Z0.995
X222.50629 Y179.1949
G1 Z-1. F240.5
X219.4779 F3000.
Y174.21068
G0 Z0.995
X226.38642 Y177.69648
G1 Z-1. F240.5
X226.37064 Y177.49143 F3000.
X226.32333 Y177.28639
X226.27601 Y177.12866
X226.21292 Y176.9867
X226.11828 Y176.8132
X226.00787 Y176.67125
X225.86591 Y176.54506
X225.72396 Y176.43465
X225.55046 Y176.34001
X225.39273 Y176.27692
X225.20345 Y176.2296
X225.01418 Y176.21383
X224.84068 Y176.2296
X224.6514 Y176.26115
X224.4779 Y176.32424
X224.3044 Y176.40311
X224.16244 Y176.51352
X224.02049 Y176.6397
X223.8943 Y176.78166
X223.79967 Y176.93938
X223.7208 Y177.11289
X223.65771 Y177.28639
X223.61039 Y177.45989
X223.59462 Y177.64916
Y177.83844
X223.62617 Y178.02771
X223.67348 Y178.20121
X223.73658 Y178.37472
X223.81544 Y178.54822
X223.92585 Y178.70595
X224.05203 Y178.83213
X224.17822 Y178.95831
X224.35172 Y179.06872
X224.50945 Y179.14759
X224.68295 Y179.1949
X224.87222 Y179.22645
X225.0615 Y179.24222
X225.25077 Y179.21068
X225.42427 Y179.16336
X225.59777 Y179.10027
X225.7555 Y179.00563
X225.89746 Y178.87945
X226.02364 Y178.75326
X226.14982 Y178.59554
X226.24446 Y178.43781
X226.30755 Y178.26431
X226.37064 Y178.07503
X226.38642 Y177.90153
X226.41796 Y177.66494
X226.44951 Y177.44412
X226.46528 Y177.2233
Y176.9867
Y176.76588
Y176.54506
X226.44951 Y176.34001
Y176.13497
X226.41796 Y175.92992
X226.38642 Y175.74065
X226.35487 Y175.5356
X226.32333 Y175.34632
X226.26024 Y175.1886
X226.19714 Y175.01509
X226.08673 Y174.84159
X225.91323 Y174.62077
X225.78705 Y174.52614
X225.64509 Y174.4315
X225.47159 Y174.33686
X225.29809 Y174.28954
X225.10882 Y174.258
X224.91954 Y174.24222
X224.73027 Y174.27377
X224.54099 Y174.30531
X224.36749 Y174.38418
X224.19399 Y174.46304
X224.06781 Y174.57345
X223.94162 Y174.66809
X223.83121 Y174.79427
X223.68926 Y175.01509
G0 Z0.995
X222.4667 Y182.70575
G1 Z-1. F240.5
G03 Y180.02575 I0. J-1.34 F3000.
Y182.70575 I0. J1.34
Y180.02575 I0. J-1.34
Y182.70575 I0. J1.34
G0 Z0.995
Y190.78059
G1 Z-1. F240.5
G03 Y188.10059 I0. J-1.34 F3000.
Y190.78059 I0. J1.34
G0 Z0.995
X225.55138 Y193.73291
G1 Z-1. F240.5
Y181.36578 F3000.
Y168.99865
G0 Z0.995
X257.85362 Y181.36578
G1 Z-1. F240.5
X194.02058 F3000.
G0 Z0.995
X195.76335 Y227.47908
G1 Z-1. F240.5
X125.98084 F3000.
G0 Z0.995
X186.85061 Y237.79839
G1 Z-1. F240.5
X189.45186 F3000.
G0 Z0.995
X189.84127 Y240.11926
G1 Z-1. F240.5
X186.85061 F3000.
Y235.19715
G0 Z0.995
X193.23691
G1 Z-1. F240.5
Y240.19715 F3000.
X190.71354 Y236.58344
X193.92226
G0 Z0.995
X219.73295 Y233.82192
G1 Z-1. F240.5
X222.33419 F3000.
G0 Z0.995
X222.7236 Y236.1428
G1 Z-1. F240.5
X219.73295 F3000.
Y231.22068
G0 Z0.995
X224.91986
G1 Z-1. F240.5
Y236.22068 F3000.
X224.7641 Y235.97146
X224.62391 Y235.80012
X224.4993 Y235.64435
X224.35912 Y235.48859
X224.20335 Y235.3484
X224.04759 Y235.22379
X223.87625 Y235.09918
X223.70491 Y235.00572
X223.53357 Y234.92784
G0 Z0.995
X228.82952 Y231.22068
G1 Z-1. F240.5
Y236.22068 F3000.
X226.30616 Y232.60697
X229.51488
G0 Z0.995
X279.39482 Y120.16912
G1 Z-1. F240.5
X228.25311 F3000.
Y143.12573
Y146.51338
G0 Z0.995
X107.55644 Y50.24732
G1 Z-1. F240.5
Y25.12366 F3000.
X96.30077
G0 Z0.995
M30
%
