%
G17 G21 G40 G90 G64 P0.1
(2 1/2 Axis Profiling - Inside)
(1/16in 1.6mm 1 Flute Carbide Router)
T31 M06
S24000 M3
G0 Z1.295
X49.88179 Y11.20466
G1 Z0.43667 F600.
X49.84933 Y11.14618 Z0.42487 F1800.
X49.80744 Y11.0155 Z0.40068
X49.79184 Y10.87917 Z0.37648
X49.80314 Y10.74241 Z0.35228
X49.8409 Y10.61049 Z0.32809
X49.90368 Y10.48846 Z0.30389
X49.98905 Y10.38103 Z0.2797
X50.09374 Y10.29232 Z0.2555
X50.21373 Y10.22573 Z0.2313
X50.3444 Y10.18384 Z0.20711
X50.48074 Y10.16824 Z0.18291
X50.61749 Y10.17954 Z0.15871
X50.74942 Y10.2173 Z0.13452
X50.87144 Y10.28007 Z0.11032
X50.97888 Y10.36545 Z0.08613
X51.06759 Y10.47014 Z0.06193
X51.13417 Y10.59013 Z0.03773
X51.17607 Y10.7208 Z0.01354
X51.19167 Y10.85713 Z-0.01066
X51.18037 Y10.99389 Z-0.03486
X51.14261 Y11.12582 Z-0.05905
X51.07983 Y11.24784 Z-0.08325
X50.99446 Y11.35527 Z-0.10744
X50.88977 Y11.44399 Z-0.13164
X50.76978 Y11.51057 Z-0.15584
X50.63911 Y11.55247 Z-0.18003
X50.50277 Y11.56807 Z-0.20423
X50.36601 Y11.55677 Z-0.22843
X50.23409 Y11.519 Z-0.25262
X50.11206 Y11.45623 Z-0.27682
X50.00463 Y11.37086 Z-0.30101
X49.91592 Y11.26616 Z-0.32521
X49.84933 Y11.14618 Z-0.34941
X49.80744 Y11.0155 Z-0.3736
X49.79184 Y10.87917 Z-0.3978
X49.80314 Y10.74241 Z-0.422
X49.8409 Y10.61049 Z-0.44619
X49.90368 Y10.48846 Z-0.47039
X49.98905 Y10.38103 Z-0.49459
X50.09374 Y10.29232 Z-0.51878
X50.21373 Y10.22573 Z-0.54298
X50.3444 Y10.18384 Z-0.56717
X50.48074 Y10.16824 Z-0.59137
X50.61749 Y10.17954 Z-0.61557
X50.74942 Y10.2173 Z-0.63976
X50.87144 Y10.28007 Z-0.66396
X50.97888 Y10.36545 Z-0.68816
X51.06759 Y10.47014 Z-0.71235
X51.13417 Y10.59013 Z-0.73655
X51.17607 Y10.7208 Z-0.76074
X51.19167 Y10.85713 Z-0.78494
X51.18037 Y10.99389 Z-0.80914
X51.14261 Y11.12582 Z-0.83333
G17
G03 X49.8409 Y10.61049 I-0.65086 J-0.25767 F2400.
X51.14261 Y11.12582 I0.65085 J0.25766
G0 Z1.295
X49.88179 Y11.20466
G1 Z-0.39667 F600.
X49.84933 Y11.14618 Z-0.40846 F1800.
X49.80744 Y11.0155 Z-0.43266
X49.79184 Y10.87917 Z-0.45685
X49.80314 Y10.74241 Z-0.48105
X49.8409 Y10.61049 Z-0.50525
X49.90368 Y10.48846 Z-0.52944
X49.98905 Y10.38103 Z-0.55364
X50.09374 Y10.29232 Z-0.57783
X50.21373 Y10.22573 Z-0.60203
X50.3444 Y10.18384 Z-0.62623
X50.48074 Y10.16824 Z-0.65042
X50.61749 Y10.17954 Z-0.67462
X50.74942 Y10.2173 Z-0.69881
X50.87144 Y10.28007 Z-0.72301
X50.97888 Y10.36545 Z-0.74721
X51.06759 Y10.47014 Z-0.7714
X51.13417 Y10.59013 Z-0.7956
X51.17607 Y10.7208 Z-0.8198
X51.19167 Y10.85713 Z-0.84399
X51.18037 Y10.99389 Z-0.86819
X51.14261 Y11.12582 Z-0.89239
X51.07983 Y11.24784 Z-0.91658
X50.99446 Y11.35527 Z-0.94078
X50.88977 Y11.44399 Z-0.96497
X50.76978 Y11.51057 Z-0.98917
X50.63911 Y11.55247 Z-1.01337
X50.50277 Y11.56807 Z-1.03756
X50.36601 Y11.55677 Z-1.06176
X50.23409 Y11.519 Z-1.08596
X50.11206 Y11.45623 Z-1.11015
X50.00463 Y11.37086 Z-1.13435
X49.91592 Y11.26616 Z-1.15855
X49.84933 Y11.14618 Z-1.18274
X49.80744 Y11.0155 Z-1.20694
X49.79184 Y10.87917 Z-1.23113
X49.80314 Y10.74241 Z-1.25533
X49.8409 Y10.61049 Z-1.27953
X49.90368 Y10.48846 Z-1.30372
X49.98905 Y10.38103 Z-1.32792
X50.09374 Y10.29232 Z-1.35212
X50.21373 Y10.22573 Z-1.37631
X50.3444 Y10.18384 Z-1.40051
X50.48074 Y10.16824 Z-1.4247
X50.61749 Y10.17954 Z-1.4489
X50.74942 Y10.2173 Z-1.4731
X50.87144 Y10.28007 Z-1.49729
X50.97888 Y10.36545 Z-1.52149
X51.06759 Y10.47014 Z-1.54569
X51.13417 Y10.59013 Z-1.56988
X51.17607 Y10.7208 Z-1.59408
X51.19167 Y10.85713 Z-1.61827
X51.18037 Y10.99389 Z-1.64247
X51.14261 Y11.12582 Z-1.66667
G03 X49.8409 Y10.61049 I-0.65086 J-0.25767 F2400.
X51.14261 Y11.12582 I0.65085 J0.25766
G0 Z1.295
X49.88179 Y11.20466
G1 Z-1.23 F600.
X49.84933 Y11.14618 Z-1.24179 F1800.
X49.80744 Y11.0155 Z-1.26599
X49.79184 Y10.87917 Z-1.29019
X49.80314 Y10.74241 Z-1.31438
X49.8409 Y10.61049 Z-1.33858
X49.90368 Y10.48846 Z-1.36278
X49.98905 Y10.38103 Z-1.38697
X50.09374 Y10.29232 Z-1.41117
X50.21373 Y10.22573 Z-1.43536
X50.3444 Y10.18384 Z-1.45956
X50.48074 Y10.16824 Z-1.48376
X50.61749 Y10.17954 Z-1.50795
X50.74942 Y10.2173 Z-1.53215
X50.87144 Y10.28007 Z-1.55635
X50.97888 Y10.36545 Z-1.58054
X51.06759 Y10.47014 Z-1.60474
X51.13417 Y10.59013 Z-1.62893
X51.17607 Y10.7208 Z-1.65313
X51.19167 Y10.85713 Z-1.67733
X51.18037 Y10.99389 Z-1.70152
X51.14261 Y11.12582 Z-1.72572
X51.07983 Y11.24784 Z-1.74992
X50.99446 Y11.35527 Z-1.77411
X50.88977 Y11.44399 Z-1.79831
X50.76978 Y11.51057 Z-1.8225
X50.63911 Y11.55247 Z-1.8467
X50.50277 Y11.56807 Z-1.8709
X50.36601 Y11.55677 Z-1.89509
X50.23409 Y11.519 Z-1.91929
X50.11206 Y11.45623 Z-1.94349
X50.00463 Y11.37086 Z-1.96768
X49.91592 Y11.26616 Z-1.99188
X49.84933 Y11.14618 Z-2.01607
X49.80744 Y11.0155 Z-2.04027
X49.79184 Y10.87917 Z-2.06447
X49.80314 Y10.74241 Z-2.08866
X49.8409 Y10.61049 Z-2.11286
X49.90368 Y10.48846 Z-2.13706
X49.98905 Y10.38103 Z-2.16125
X50.09374 Y10.29232 Z-2.18545
X50.21373 Y10.22573 Z-2.20965
X50.3444 Y10.18384 Z-2.23384
X50.48074 Y10.16824 Z-2.25804
X50.61749 Y10.17954 Z-2.28223
X50.74942 Y10.2173 Z-2.30643
X50.87144 Y10.28007 Z-2.33063
X50.97888 Y10.36545 Z-2.35482
X51.06759 Y10.47014 Z-2.37902
X51.13417 Y10.59013 Z-2.40321
X51.17607 Y10.7208 Z-2.42741
X51.19167 Y10.85713 Z-2.45161
X51.18037 Y10.99389 Z-2.4758
X51.14261 Y11.12582 Z-2.5
G03 X49.8409 Y10.61049 I-0.65086 J-0.25767 F2400.
X51.14261 Y11.12582 I0.65085 J0.25766
G0 Z1.295
X51.33631 Y22.23925
G1 Z0.43667 F600.
X51.40433 Y22.24885 Z0.42455 F1800.
X51.77134 Y22.32805 Z0.35835
X52.13169 Y22.43352 Z0.29214
X52.48349 Y22.56472 Z0.22594
X52.8249 Y22.72096 Z0.15974
X53.15415 Y22.90143 Z0.09353
X53.46952 Y23.10518 Z0.02733
X53.76936 Y23.33116 Z-0.03888
X54.05212 Y23.57819 Z-0.10508
X54.31631 Y23.84498 Z-0.17129
X54.56057 Y24.13014 Z-0.23749
X54.78361 Y24.43217 Z-0.3037
X54.98427 Y24.74952 Z-0.3699
X55.16152 Y25.08051 Z-0.43611
X55.31442 Y25.42344 Z-0.50231
X55.44217 Y25.7765 Z-0.56852
X55.54412 Y26.13786 Z-0.63472
X55.61972 Y26.50563 Z-0.70092
X55.66859 Y26.8779 Z-0.76713
X55.69047 Y27.25273 Z-0.83333
G03 X45.29303 Y27.48357 I-5.19872 J0.11542 F2400.
X55.69047 Y27.25273 I5.19872 J-0.11542
G0 Z1.295
X51.33631 Y22.23925
G1 Z-0.39667 F600.
X51.40433 Y22.24885 Z-0.40878 F1800.
X51.77134 Y22.32805 Z-0.47498
X52.13169 Y22.43352 Z-0.54119
X52.48349 Y22.56472 Z-0.60739
X52.8249 Y22.72096 Z-0.6736
X53.15415 Y22.90143 Z-0.7398
X53.46952 Y23.10518 Z-0.80601
X53.76936 Y23.33116 Z-0.87221
X54.05212 Y23.57819 Z-0.93842
X54.31631 Y23.84498 Z-1.00462
X54.56057 Y24.13014 Z-1.07083
X54.78361 Y24.43217 Z-1.13703
X54.98427 Y24.74952 Z-1.20323
X55.16152 Y25.08051 Z-1.26944
X55.31442 Y25.42344 Z-1.33564
X55.44217 Y25.7765 Z-1.40185
X55.54412 Y26.13786 Z-1.46805
X55.61972 Y26.50563 Z-1.53426
X55.66859 Y26.8779 Z-1.60046
X55.69047 Y27.25273 Z-1.66667
G03 X45.29303 Y27.48357 I-5.19872 J0.11542 F2400.
X55.69047 Y27.25273 I5.19872 J-0.11542
G0 Z1.295
X51.33631 Y22.23925
G1 Z-1.23 F600.
X51.40433 Y22.24885 Z-1.24211 F1800.
X51.77134 Y22.32805 Z-1.30832
X52.13169 Y22.43352 Z-1.37452
X52.48349 Y22.56472 Z-1.44073
X52.8249 Y22.72096 Z-1.50693
X53.15415 Y22.90143 Z-1.57314
X53.46952 Y23.10518 Z-1.63934
X53.76936 Y23.33116 Z-1.70555
X54.05212 Y23.57819 Z-1.77175
X54.31631 Y23.84498 Z-1.83795
X54.56057 Y24.13014 Z-1.90416
X54.78361 Y24.43217 Z-1.97036
X54.98427 Y24.74952 Z-2.03657
X55.16152 Y25.08051 Z-2.10277
X55.31442 Y25.42344 Z-2.16898
X55.44217 Y25.7765 Z-2.23518
X55.54412 Y26.13786 Z-2.30139
X55.61972 Y26.50563 Z-2.36759
X55.66859 Y26.8779 Z-2.4338
X55.69047 Y27.25273 Z-2.5
G03 X45.29303 Y27.48357 I-5.19872 J0.11542 F2400.
X55.69047 Y27.25273 I5.19872 J-0.11542
G0 Z1.295
X67.67271 Y27.51507
G1 Z0.43667 F600.
X67.65877 Y27.58049 Z0.42487 F1800.
X67.60453 Y27.70654 Z0.40068
X67.52674 Y27.81958 Z0.37648
X67.42839 Y27.91528 Z0.35228
X67.31326 Y27.98995 Z0.32809
X67.18578 Y28.04072 Z0.30389
X67.05084 Y28.06565 Z0.2797
X66.91362 Y28.06378 Z0.2555
X66.77942 Y28.03517 Z0.2313
X66.65337 Y27.98093 Z0.20711
X66.54032 Y27.90314 Z0.18291
X66.44463 Y27.80479 Z0.15871
X66.36996 Y27.68966 Z0.13452
X66.31918 Y27.56217 Z0.11032
X66.29425 Y27.42723 Z0.08612
X66.29613 Y27.29002 Z0.06193
X66.32474 Y27.15581 Z0.03773
X66.37898 Y27.02976 Z0.01354
X66.45677 Y26.91672 Z-0.01066
X66.55512 Y26.82102 Z-0.03486
X66.67025 Y26.74635 Z-0.05905
X66.79773 Y26.69558 Z-0.08325
X66.93267 Y26.67065 Z-0.10744
X67.06988 Y26.67252 Z-0.13164
X67.20409 Y26.70113 Z-0.15584
X67.33014 Y26.75538 Z-0.18003
X67.44319 Y26.83317 Z-0.20423
X67.53888 Y26.93151 Z-0.22843
X67.61355 Y27.04664 Z-0.25262
X67.66433 Y27.17413 Z-0.27682
X67.68926 Y27.30907 Z-0.30101
X67.68738 Y27.44628 Z-0.32521
X67.65877 Y27.58049 Z-0.34941
X67.60453 Y27.70654 Z-0.3736
X67.52674 Y27.81958 Z-0.3978
X67.42839 Y27.91528 Z-0.422
X67.31326 Y27.98995 Z-0.44619
X67.18578 Y28.04072 Z-0.47039
X67.05084 Y28.06565 Z-0.49459
X66.91362 Y28.06378 Z-0.51878
X66.77942 Y28.03517 Z-0.54298
X66.65337 Y27.98093 Z-0.56717
X66.54032 Y27.90314 Z-0.59137
X66.44463 Y27.80479 Z-0.61557
X66.36996 Y27.68966 Z-0.63976
X66.31918 Y27.56217 Z-0.66396
X66.29425 Y27.42723 Z-0.68816
X66.29613 Y27.29002 Z-0.71235
X66.32474 Y27.15581 Z-0.73655
X66.37898 Y27.02976 Z-0.76074
X66.45677 Y26.91672 Z-0.78494
X66.55512 Y26.82102 Z-0.80914
X66.67025 Y26.74635 Z-0.83333
G03 X67.31326 Y27.98995 I0.3215 J0.6218 F2400.
X66.67025 Y26.74635 I-0.32151 J-0.6218
G0 Z1.295
X67.67271 Y27.51507
G1 Z-0.39667 F600.
X67.65877 Y27.58049 Z-0.40846 F1800.
X67.60453 Y27.70654 Z-0.43266
X67.52674 Y27.81958 Z-0.45685
X67.42839 Y27.91528 Z-0.48105
X67.31326 Y27.98995 Z-0.50525
X67.18578 Y28.04072 Z-0.52944
X67.05084 Y28.06565 Z-0.55364
X66.91362 Y28.06378 Z-0.57783
X66.77942 Y28.03517 Z-0.60203
X66.65337 Y27.98093 Z-0.62623
X66.54032 Y27.90314 Z-0.65042
X66.44463 Y27.80479 Z-0.67462
X66.36996 Y27.68966 Z-0.69882
X66.31918 Y27.56217 Z-0.72301
X66.29425 Y27.42723 Z-0.74721
X66.29613 Y27.29002 Z-0.7714
X66.32474 Y27.15581 Z-0.7956
X66.37898 Y27.02976 Z-0.8198
X66.45677 Y26.91672 Z-0.84399
X66.55512 Y26.82102 Z-0.86819
X66.67025 Y26.74635 Z-0.89239
X66.79773 Y26.69558 Z-0.91658
X66.93267 Y26.67065 Z-0.94078
X67.06988 Y26.67252 Z-0.96498
X67.20409 Y26.70113 Z-0.98917
X67.33014 Y26.75538 Z-1.01337
X67.44319 Y26.83317 Z-1.03756
X67.53888 Y26.93151 Z-1.06176
X67.61355 Y27.04664 Z-1.08596
X67.66433 Y27.17413 Z-1.11015
X67.68926 Y27.30907 Z-1.13435
X67.68738 Y27.44628 Z-1.15855
X67.65877 Y27.58049 Z-1.18274
X67.60453 Y27.70654 Z-1.20694
X67.52674 Y27.81958 Z-1.23113
X67.42839 Y27.91528 Z-1.25533
X67.31326 Y27.98995 Z-1.27953
X67.18578 Y28.04072 Z-1.30372
X67.05084 Y28.06565 Z-1.32792
X66.91362 Y28.06378 Z-1.35212
X66.77942 Y28.03517 Z-1.37631
X66.65337 Y27.98093 Z-1.40051
X66.54032 Y27.90314 Z-1.4247
X66.44463 Y27.80479 Z-1.4489
X66.36996 Y27.68966 Z-1.4731
X66.31918 Y27.56217 Z-1.49729
X66.29425 Y27.42723 Z-1.52149
X66.29613 Y27.29002 Z-1.54569
X66.32474 Y27.15581 Z-1.56988
X66.37898 Y27.02976 Z-1.59408
X66.45677 Y26.91672 Z-1.61827
X66.55512 Y26.82102 Z-1.64247
X66.67025 Y26.74635 Z-1.66667
G03 X67.31326 Y27.98995 I0.3215 J0.6218 F2400.
X66.67025 Y26.74635 I-0.32151 J-0.6218
G0 Z1.295
X67.67271 Y27.51507
G1 Z-1.23 F600.
X67.65877 Y27.58049 Z-1.24179 F1800.
X67.60453 Y27.70654 Z-1.26599
X67.52674 Y27.81958 Z-1.29019
X67.42839 Y27.91528 Z-1.31438
X67.31326 Y27.98995 Z-1.33858
X67.18578 Y28.04072 Z-1.36278
X67.05084 Y28.06565 Z-1.38697
X66.91362 Y28.06378 Z-1.41117
X66.77942 Y28.03517 Z-1.43536
X66.65337 Y27.98093 Z-1.45956
X66.54032 Y27.90314 Z-1.48376
X66.44463 Y27.80479 Z-1.50795
X66.36996 Y27.68966 Z-1.53215
X66.31918 Y27.56217 Z-1.55635
X66.29425 Y27.42723 Z-1.58054
X66.29613 Y27.29002 Z-1.60474
X66.32474 Y27.15581 Z-1.62893
X66.37898 Y27.02976 Z-1.65313
X66.45677 Y26.91672 Z-1.67733
X66.55512 Y26.82102 Z-1.70152
X66.67025 Y26.74635 Z-1.72572
X66.79773 Y26.69558 Z-1.74992
X66.93267 Y26.67065 Z-1.77411
X67.06988 Y26.67252 Z-1.79831
X67.20409 Y26.70113 Z-1.8225
X67.33014 Y26.75538 Z-1.8467
X67.44319 Y26.83317 Z-1.8709
X67.53888 Y26.93151 Z-1.89509
X67.61355 Y27.04664 Z-1.91929
X67.66433 Y27.17413 Z-1.94349
X67.68926 Y27.30907 Z-1.96768
X67.68738 Y27.44628 Z-1.99188
X67.65877 Y27.58049 Z-2.01607
X67.60453 Y27.70654 Z-2.04027
X67.52674 Y27.81958 Z-2.06447
X67.42839 Y27.91528 Z-2.08866
X67.31326 Y27.98995 Z-2.11286
X67.18578 Y28.04072 Z-2.13706
X67.05084 Y28.06565 Z-2.16125
X66.91362 Y28.06378 Z-2.18545
X66.77942 Y28.03517 Z-2.20965
X66.65337 Y27.98093 Z-2.23384
X66.54032 Y27.90314 Z-2.25804
X66.44463 Y27.80479 Z-2.28223
X66.36996 Y27.68966 Z-2.30643
X66.31918 Y27.56217 Z-2.33063
X66.29425 Y27.42723 Z-2.35482
X66.29613 Y27.29002 Z-2.37902
X66.32474 Y27.15581 Z-2.40321
X66.37898 Y27.02976 Z-2.42741
X66.45677 Y26.91672 Z-2.45161
X66.55512 Y26.82102 Z-2.4758
X66.67025 Y26.74635 Z-2.5
G03 X67.31326 Y27.98995 I0.3215 J0.6218 F2400.
X66.67025 Y26.74635 I-0.32151 J-0.6218
G0 Z1.295
X50.31074 Y44.54086
G1 Z0.43667 F600.
X50.24611 Y44.52364 Z0.42487 F1800.
X50.12296 Y44.46312 Z0.40068
X50.01397 Y44.37974 Z0.37648
X49.92334 Y44.2767 Z0.35228
X49.85456 Y44.15796 Z0.32809
X49.81027 Y44.02808 Z0.30389
X49.79216 Y43.89205 Z0.2797
X49.80094 Y43.75511 Z0.2555
X49.83627 Y43.62251 Z0.2313
X49.89678 Y43.49935 Z0.20711
X49.98017 Y43.39037 Z0.18291
X50.08321 Y43.29974 Z0.15871
X50.20195 Y43.23096 Z0.13452
X50.33183 Y43.18667 Z0.11032
X50.46785 Y43.16856 Z0.08612
X50.60479 Y43.17734 Z0.06193
X50.73739 Y43.21267 Z0.03773
X50.86055 Y43.27318 Z0.01354
X50.96954 Y43.35656 Z-0.01066
X51.06016 Y43.4596 Z-0.03486
X51.12894 Y43.57835 Z-0.05905
X51.17324 Y43.70822 Z-0.08325
X51.19134 Y43.84425 Z-0.10744
X51.18256 Y43.98119 Z-0.13164
X51.14724 Y44.11379 Z-0.15584
X51.08672 Y44.23695 Z-0.18003
X51.00334 Y44.34593 Z-0.20423
X50.9003 Y44.43656 Z-0.22843
X50.78156 Y44.50534 Z-0.25262
X50.65168 Y44.54964 Z-0.27682
X50.51566 Y44.56774 Z-0.30101
X50.37871 Y44.55896 Z-0.32521
X50.24611 Y44.52364 Z-0.34941
X50.12296 Y44.46312 Z-0.3736
X50.01397 Y44.37974 Z-0.3978
X49.92334 Y44.2767 Z-0.422
X49.85456 Y44.15796 Z-0.44619
X49.81027 Y44.02808 Z-0.47039
X49.79216 Y43.89205 Z-0.49459
X49.80094 Y43.75511 Z-0.51878
X49.83627 Y43.62251 Z-0.54298
X49.89678 Y43.49935 Z-0.56717
X49.98017 Y43.39037 Z-0.59137
X50.08321 Y43.29974 Z-0.61557
X50.20195 Y43.23096 Z-0.63976
X50.33183 Y43.18667 Z-0.66396
X50.46785 Y43.16856 Z-0.68816
X50.60479 Y43.17734 Z-0.71235
X50.73739 Y43.21267 Z-0.73655
X50.86055 Y43.27318 Z-0.76075
X50.96954 Y43.35656 Z-0.78494
X51.06016 Y43.4596 Z-0.80914
X51.12894 Y43.57835 Z-0.83333
G03 X49.85456 Y44.15796 I-0.63719 J0.2898 F2400.
X51.12894 Y43.57835 I0.63719 J-0.28981
G0 Z1.295
X50.31074 Y44.54086
G1 Z-0.39667 F600.
X50.24611 Y44.52364 Z-0.40846 F1800.
X50.12296 Y44.46312 Z-0.43266
X50.01397 Y44.37974 Z-0.45685
X49.92334 Y44.2767 Z-0.48105
X49.85456 Y44.15796 Z-0.50525
X49.81027 Y44.02808 Z-0.52944
X49.79216 Y43.89205 Z-0.55364
X49.80094 Y43.75511 Z-0.57783
X49.83627 Y43.62251 Z-0.60203
X49.89678 Y43.49935 Z-0.62623
X49.98017 Y43.39037 Z-0.65042
X50.08321 Y43.29974 Z-0.67462
X50.20195 Y43.23096 Z-0.69882
X50.33183 Y43.18667 Z-0.72301
X50.46785 Y43.16856 Z-0.74721
X50.60479 Y43.17734 Z-0.7714
X50.73739 Y43.21267 Z-0.7956
X50.86055 Y43.27318 Z-0.8198
X50.96954 Y43.35656 Z-0.84399
X51.06016 Y43.4596 Z-0.86819
X51.12894 Y43.57835 Z-0.89239
X51.17324 Y43.70822 Z-0.91658
X51.19134 Y43.84425 Z-0.94078
X51.18256 Y43.98119 Z-0.96498
X51.14724 Y44.11379 Z-0.98917
X51.08672 Y44.23695 Z-1.01337
X51.00334 Y44.34593 Z-1.03756
X50.9003 Y44.43656 Z-1.06176
X50.78156 Y44.50534 Z-1.08596
X50.65168 Y44.54964 Z-1.11015
X50.51566 Y44.56774 Z-1.13435
X50.37871 Y44.55896 Z-1.15855
X50.24611 Y44.52364 Z-1.18274
X50.12296 Y44.46312 Z-1.20694
X50.01397 Y44.37974 Z-1.23113
X49.92334 Y44.2767 Z-1.25533
X49.85456 Y44.15796 Z-1.27953
X49.81027 Y44.02808 Z-1.30372
X49.79216 Y43.89205 Z-1.32792
X49.80094 Y43.75511 Z-1.35212
X49.83627 Y43.62251 Z-1.37631
X49.89678 Y43.49935 Z-1.40051
X49.98017 Y43.39037 Z-1.4247
X50.08321 Y43.29974 Z-1.4489
X50.20195 Y43.23096 Z-1.4731
X50.33183 Y43.18667 Z-1.49729
X50.46785 Y43.16856 Z-1.52149
X50.60479 Y43.17734 Z-1.54569
X50.73739 Y43.21267 Z-1.56988
X50.86055 Y43.27318 Z-1.59408
X50.96954 Y43.35656 Z-1.61827
X51.06016 Y43.4596 Z-1.64247
X51.12894 Y43.57835 Z-1.66667
G03 X49.85456 Y44.15796 I-0.63719 J0.2898 F2400.
X51.12894 Y43.57835 I0.63719 J-0.28981
G0 Z1.295
X50.31074 Y44.54086
G1 Z-1.23 F600.
X50.24611 Y44.52364 Z-1.24179 F1800.
X50.12296 Y44.46312 Z-1.26599
X50.01397 Y44.37974 Z-1.29019
X49.92334 Y44.2767 Z-1.31438
X49.85456 Y44.15796 Z-1.33858
X49.81027 Y44.02808 Z-1.36278
X49.79216 Y43.89205 Z-1.38697
X49.80094 Y43.75511 Z-1.41117
X49.83627 Y43.62251 Z-1.43536
X49.89678 Y43.49935 Z-1.45956
X49.98017 Y43.39037 Z-1.48376
X50.08321 Y43.29974 Z-1.50795
X50.20195 Y43.23096 Z-1.53215
X50.33183 Y43.18667 Z-1.55635
X50.46785 Y43.16856 Z-1.58054
X50.60479 Y43.17734 Z-1.60474
X50.73739 Y43.21267 Z-1.62893
X50.86055 Y43.27318 Z-1.65313
X50.96954 Y43.35656 Z-1.67733
X51.06016 Y43.4596 Z-1.70152
X51.12894 Y43.57835 Z-1.72572
X51.17324 Y43.70822 Z-1.74992
X51.19134 Y43.84425 Z-1.77411
X51.18256 Y43.98119 Z-1.79831
X51.14724 Y44.11379 Z-1.8225
X51.08672 Y44.23695 Z-1.8467
X51.00334 Y44.34593 Z-1.8709
X50.9003 Y44.43656 Z-1.89509
X50.78156 Y44.50534 Z-1.91929
X50.65168 Y44.54964 Z-1.94349
X50.51566 Y44.56774 Z-1.96768
X50.37871 Y44.55896 Z-1.99188
X50.24611 Y44.52364 Z-2.01607
X50.12296 Y44.46312 Z-2.04027
X50.01397 Y44.37974 Z-2.06447
X49.92334 Y44.2767 Z-2.08866
X49.85456 Y44.15796 Z-2.11286
X49.81027 Y44.02808 Z-2.13706
X49.79216 Y43.89205 Z-2.16125
X49.80094 Y43.75511 Z-2.18545
X49.83627 Y43.62251 Z-2.20965
X49.89678 Y43.49935 Z-2.23384
X49.98017 Y43.39037 Z-2.25804
X50.08321 Y43.29974 Z-2.28223
X50.20195 Y43.23096 Z-2.30643
X50.33183 Y43.18667 Z-2.33063
X50.46785 Y43.16856 Z-2.35482
X50.60479 Y43.17734 Z-2.37902
X50.73739 Y43.21267 Z-2.40321
X50.86055 Y43.27318 Z-2.42741
X50.96954 Y43.35656 Z-2.45161
X51.06016 Y43.4596 Z-2.4758
X51.12894 Y43.57835 Z-2.5
G03 X49.85456 Y44.15796 I-0.63719 J0.2898 F2400.
X51.12894 Y43.57835 I0.63719 J-0.28981
G0 Z1.295
X51.90248 Y68.403
G1 Z0.43667 F600.
X52.10501 Z0.40096 F1800.
Y71.493 Z-0.1439
X51.69501 Z-0.21619
Y68.403 Z-0.76104
X52.10501 Z-0.83333
Y71.493 F2400.
X51.69501
Y68.403
X52.10501
G0 Z1.295
X51.90248
G1 Z-0.39667 F600.
X52.10501 Z-0.43238 F1800.
Y71.493 Z-0.97723
X51.69501 Z-1.04952
Y68.403 Z-1.59437
X52.10501 Z-1.66667
Y71.493 F2400.
X51.69501
Y68.403
X52.10501
G0 Z1.295
X51.90248
G1 Z-1.23 F600.
X52.10501 Z-1.26571 F1800.
Y71.493 Z-1.81056
X51.69501 Z-1.88286
Y68.403 Z-2.42771
X52.10501 Z-2.5
Y71.493 F2400.
X51.69501
Y68.403
X52.10501
G0 Z1.295
X48.08501 Y73.80047
G1 Z0.43667 F600.
Y81.003 Z-0.83333 F1800.
Y90.12476 F2400.
G03 X46.19575 Y91.12626 I-1.21008 J0.00001
G1 X39.67596 Y86.77524
G03 X37.48063 Y82.46723 I3.09474 J-4.29043
X37.9574 Y77.3263 I12.16669 J-1.46423
X39.67596 Y75.23064 I4.91034 J2.27425
G1 X46.19575 Y70.87968
G03 X48.08501 Y71.88118 I0.67918 J1.00149
G1 Y81.003
G0 Z1.295
Y73.80047
G1 Z-0.39667 F600.
Y81.003 Z-1.66667 F1800.
Y90.12476 F2400.
G03 X46.19575 Y91.12626 I-1.21008 J0.00001
G1 X39.67596 Y86.77524
G03 X37.48063 Y82.46723 I3.09474 J-4.29043
X37.9574 Y77.3263 I12.16669 J-1.46423
X39.67596 Y75.23064 I4.91034 J2.27425
G1 X46.19575 Y70.87968
G03 X48.08501 Y71.88118 I0.67918 J1.00149
G1 Y81.003
G0 Z1.295
Y73.80047
G1 Z-1.23 F600.
Y81.003 Z-2.5 F1800.
Y90.12476 F2400.
G03 X46.19575 Y91.12626 I-1.21008 J0.00001
G1 X39.67596 Y86.77524
G03 X37.48063 Y82.46723 I3.09474 J-4.29043
X37.9574 Y77.3263 I12.16669 J-1.46423
X39.67596 Y75.23064 I4.91034 J2.27425
G1 X46.19575 Y70.87968
G03 X48.08501 Y71.88118 I0.67918 J1.00149
G1 Y81.003
G0 Z1.295
X52.10501 Y93.40047
G1 Z0.43667 F600.
Y93.603 Z0.40096 F1800.
X51.69501 Z0.32866
Y90.513 Z-0.21619
X52.10501 Z-0.28848
Y93.603 Z-0.83333
X51.69501 F2400.
Y90.513
X52.10501
Y93.603
G0 Z1.295
Y93.40047
G1 Z-0.39667 F600.
Y93.603 Z-0.43238 F1800.
X51.69501 Z-0.50467
Y90.513 Z-1.04952
X52.10501 Z-1.12182
Y93.603 Z-1.66667
X51.69501 F2400.
Y90.513
X52.10501
Y93.603
G0 Z1.295
Y93.40047
G1 Z-1.23 F600.
Y93.603 Z-1.26571 F1800.
X51.69501 Z-1.33801
Y90.513 Z-1.88286
X52.10501 Z-1.95515
Y93.603 Z-2.5
X51.69501 F2400.
Y90.513
X52.10501
Y93.603
G0 Z1.295
X80.00875 Y92.58383
G1 Z0.43667 F600.
X77.98678 Y91.22912 Z0.00751 F1800.
X76.32962 Y90.16433 Z-0.33981
X75.87098 Y89.83969 Z-0.43889
X75.48998 Y89.52713 Z-0.52578
X75.10042 Y89.15466 Z-0.62082
X74.82033 Y88.84897 Z-0.69392
X74.33335 Y88.22611 Z-0.83333
G03 X84.35456 Y95.49552 I-2.33153 J13.75617 F2400.
G02 X75.87098 Y89.83969 I-310.26384 J456.19619
G03 X74.33335 Y88.22611 I4.44112 J-5.77148
G0 Z1.295
X80.00875 Y92.58383
G1 Z-0.39667 F600.
X77.98678 Y91.22912 Z-0.82582 F1800.
X76.32962 Y90.16433 Z-1.17314
X75.87098 Y89.83969 Z-1.27222
X75.48998 Y89.52713 Z-1.35912
X75.10042 Y89.15466 Z-1.45415
X74.82033 Y88.84897 Z-1.52726
X74.33335 Y88.22611 Z-1.66667
G03 X84.35456 Y95.49552 I-2.33153 J13.75617 F2400.
G02 X75.87098 Y89.83969 I-310.26384 J456.19619
G03 X74.33335 Y88.22611 I4.44112 J-5.77148
G0 Z1.295
X80.00875 Y92.58383
G1 Z-1.23 F600.
X77.98678 Y91.22912 Z-1.65915 F1800.
X76.32962 Y90.16433 Z-2.00647
X75.87098 Y89.83969 Z-2.10555
X75.48998 Y89.52713 Z-2.19245
X75.10042 Y89.15466 Z-2.28748
X74.82033 Y88.84897 Z-2.36059
X74.33335 Y88.22611 Z-2.5
G03 X84.35456 Y95.49552 I-2.33153 J13.75617 F2400.
G02 X75.87098 Y89.83969 I-310.26384 J456.19619
G03 X74.33335 Y88.22611 I4.44112 J-5.77148
G0 Z1.295
X89.11127 Y92.32267
G1 Z0.43667 F600.
X89.31379 Z0.40096 F1800.
Y95.41267 Z-0.1439
X88.90379 Z-0.21619
Y92.32267 Z-0.76104
X89.31379 Z-0.83333
Y95.41267 F2400.
X88.90379
Y92.32267
X89.31379
G0 Z1.295
X89.11127
G1 Z-0.39667 F600.
X89.31379 Z-0.43238 F1800.
Y95.41267 Z-0.97723
X88.90379 Z-1.04952
Y92.32267 Z-1.59437
X89.31379 Z-1.66667
Y95.41267 F2400.
X88.90379
Y92.32267
X89.31379
G0 Z1.295
X89.11127
G1 Z-1.23 F600.
X89.31379 Z-1.26571 F1800.
Y95.41267 Z-1.81056
X88.90379 Z-1.88286
Y92.32267 Z-2.42771
X89.31379 Z-2.5
Y95.41267 F2400.
X88.90379
Y92.32267
X89.31379
G0 Z1.295
Y73.10014
G1 Z0.43667 F600.
Y73.30267 Z0.40096 F1800.
X88.90379 Z0.32866
Y70.21267 Z-0.21619
X89.31379 Z-0.28848
Y73.30267 Z-0.83333
X88.90379 F2400.
Y70.21267
X89.31379
Y73.30267
G0 Z1.295
Y73.10014
G1 Z-0.39667 F600.
Y73.30267 Z-0.43238 F1800.
X88.90379 Z-0.50467
Y70.21267 Z-1.04952
X89.31379 Z-1.12182
Y73.30267 Z-1.66667
X88.90379 F2400.
Y70.21267
X89.31379
Y73.30267
G0 Z1.295
Y73.10014
G1 Z-1.23 F600.
Y73.30267 Z-1.26571 F1800.
X88.90379 Z-1.33801
Y70.21267 Z-1.88286
X89.31379 Z-1.95515
Y73.30267 Z-2.5
X88.90379 F2400.
Y70.21267
X89.31379
Y73.30267
G0 Z1.295
X78.37098 Y74.13884
G1 Z0.43667 F600.
X84.35458 Y70.12973 Z-0.83333 F1800.
G03 X74.33339 Y77.39916 I-12.35278 J-6.48677 F2400.
X78.0013 Y74.38654 I7.83644 J5.80178
G1 X84.35458 Y70.12973
G0 Z1.295
X78.37098 Y74.13884
G1 Z-0.39667 F600.
X84.35458 Y70.12973 Z-1.66667 F1800.
G03 X74.33339 Y77.39916 I-12.35278 J-6.48677 F2400.
X78.0013 Y74.38654 I7.83644 J5.80178
G1 X84.35458 Y70.12973
G0 Z1.295
X78.37098 Y74.13884
G1 Z-1.23 F600.
X84.35458 Y70.12973 Z-2.5 F1800.
G03 X74.33339 Y77.39916 I-12.35278 J-6.48677 F2400.
X78.0013 Y74.38654 I7.83644 J5.80178
G1 X84.35458 Y70.12973
G0 Z1.295
X111.95738 Y74.94865
G1 Z0.43667 F600.
X111.89739 Y75.02749 Z0.4192 F1800.
X111.56512 Y75.41095 Z0.32973
X111.2092 Y75.77256 Z0.24026
X110.83106 Y76.11087 Z0.1508
X110.43222 Y76.42452 Z0.06133
X110.0143 Y76.71224 Z-0.02813
X109.57896 Y76.97288 Z-0.1176
X109.12798 Y77.20537 Z-0.20707
X108.66315 Y77.4088 Z-0.29653
X108.18636 Y77.58234 Z-0.386
X107.69953 Y77.72529 Z-0.47547
X107.2046 Y77.83707 Z-0.56493
X106.70359 Y77.91724 Z-0.6544
X106.19849 Y77.96547 Z-0.74387
X105.69136 Y77.98157 Z-0.83333
G03 Y61.98967 I0. J-7.99595 F2400.
Y77.98157 I0. J7.99595
G0 Z1.295
X111.95738 Y74.94865
G1 Z-0.39667 F600.
X111.89739 Y75.02749 Z-0.41414 F1800.
X111.56512 Y75.41095 Z-0.5036
X111.2092 Y75.77256 Z-0.59307
X110.83106 Y76.11087 Z-0.68254
X110.43222 Y76.42452 Z-0.772
X110.0143 Y76.71224 Z-0.86147
X109.57896 Y76.97288 Z-0.95093
X109.12798 Y77.20537 Z-1.0404
X108.66315 Y77.4088 Z-1.12987
X108.18636 Y77.58234 Z-1.21933
X107.69953 Y77.72529 Z-1.3088
X107.2046 Y77.83707 Z-1.39827
X106.70359 Y77.91724 Z-1.48773
X106.19849 Y77.96547 Z-1.5772
X105.69136 Y77.98157 Z-1.66667
G03 Y61.98967 I0. J-7.99595 F2400.
Y77.98157 I0. J7.99595
G0 Z1.295
X111.95738 Y74.94865
G1 Z-1.23 F600.
X111.89739 Y75.02749 Z-1.24747 F1800.
X111.56512 Y75.41095 Z-1.33694
X111.2092 Y75.77256 Z-1.4264
X110.83106 Y76.11087 Z-1.51587
X110.43222 Y76.42452 Z-1.60534
X110.0143 Y76.71224 Z-1.6948
X109.57896 Y76.97288 Z-1.78427
X109.12798 Y77.20537 Z-1.87373
X108.66315 Y77.4088 Z-1.9632
X108.18636 Y77.58234 Z-2.05267
X107.69953 Y77.72529 Z-2.14213
X107.2046 Y77.83707 Z-2.2316
X106.70359 Y77.91724 Z-2.32107
X106.19849 Y77.96547 Z-2.41053
X105.69136 Y77.98157 Z-2.5
G03 Y61.98967 I0. J-7.99595 F2400.
Y77.98157 I0. J7.99595
G0 Z1.295
X111.95738 Y100.60268
G1 Z0.43667 F600.
X111.89739 Y100.68152 Z0.4192 F1800.
X111.56512 Y101.06498 Z0.32973
X111.2092 Y101.42659 Z0.24026
X110.83106 Y101.76491 Z0.1508
X110.43222 Y102.07855 Z0.06133
X110.0143 Y102.36627 Z-0.02813
X109.57896 Y102.62691 Z-0.1176
X109.12798 Y102.85941 Z-0.20707
X108.66315 Y103.06284 Z-0.29653
X108.18636 Y103.23637 Z-0.386
X107.69953 Y103.37932 Z-0.47547
X107.2046 Y103.49111 Z-0.56493
X106.70359 Y103.57127 Z-0.6544
X106.19849 Y103.6195 Z-0.74387
X105.69136 Y103.6356 Z-0.83333
G03 Y87.64371 I0. J-7.99595 F2400.
Y103.6356 I0. J7.99594
G0 Z1.295
X111.95738 Y100.60268
G1 Z-0.39667 F600.
X111.89739 Y100.68152 Z-0.41414 F1800.
X111.56512 Y101.06498 Z-0.5036
X111.2092 Y101.42659 Z-0.59307
X110.83106 Y101.76491 Z-0.68254
X110.43222 Y102.07855 Z-0.772
X110.0143 Y102.36627 Z-0.86147
X109.57896 Y102.62691 Z-0.95093
X109.12798 Y102.85941 Z-1.0404
X108.66315 Y103.06284 Z-1.12987
X108.18636 Y103.23637 Z-1.21933
X107.69953 Y103.37932 Z-1.3088
X107.2046 Y103.49111 Z-1.39827
X106.70359 Y103.57127 Z-1.48773
X106.19849 Y103.6195 Z-1.5772
X105.69136 Y103.6356 Z-1.66667
G03 Y87.64371 I0. J-7.99595 F2400.
Y103.6356 I0. J7.99594
G0 Z1.295
X111.95738 Y100.60268
G1 Z-1.23 F600.
X111.89739 Y100.68152 Z-1.24747 F1800.
X111.56512 Y101.06498 Z-1.33694
X111.2092 Y101.42659 Z-1.4264
X110.83106 Y101.76491 Z-1.51587
X110.43222 Y102.07855 Z-1.60534
X110.0143 Y102.36627 Z-1.6948
X109.57896 Y102.62691 Z-1.78427
X109.12798 Y102.85941 Z-1.87373
X108.66315 Y103.06284 Z-1.9632
X108.18636 Y103.23637 Z-2.05267
X107.69953 Y103.37932 Z-2.14213
X107.2046 Y103.49111 Z-2.2316
X106.70359 Y103.57127 Z-2.32107
X106.19849 Y103.6195 Z-2.41053
X105.69136 Y103.6356 Z-2.5
G03 Y87.64371 I0. J-7.99595 F2400.
Y103.6356 I0. J7.99594
G0 Z1.295
X89.64085 Y124.90115
G1 Z0.43667 F600.
X91.33337 Z0.13823 F1800.
Y125.31115 Z0.06593
X86.23337 Z-0.83333
Y124.90115 F2400.
X91.33337
Y125.31115
X86.23337
G0 Z1.295
X89.64085 Y124.90115
G1 Z-0.39667 F600.
X91.33337 Z-0.69511 F1800.
Y125.31115 Z-0.7674
X86.23337 Z-1.66667
Y124.90115 F2400.
X91.33337
Y125.31115
X86.23337
G0 Z1.295
X89.64085 Y124.90115
G1 Z-1.23 F600.
X91.33337 Z-1.52844 F1800.
Y125.31115 Z-1.60073
X86.23337 Z-2.5
Y124.90115 F2400.
X91.33337
Y125.31115
X86.23337
G0 Z1.295
X68.76889 Y122.75376
G1 Z0.43667 F600.
X68.7207 Y122.80195 Z0.42465 F1800.
X68.61831 Y122.86628 Z0.40333
X68.50418 Y122.90622 Z0.38201
X68.38402 Y122.91976 Z0.36068
X68.26386 Y122.90622 Z0.33936
X68.14972 Y122.86628 Z0.31804
X68.04733 Y122.80195 Z0.29672
X67.96183 Y122.71644 Z0.2754
X67.89749 Y122.61405 Z0.25408
X67.85756 Y122.49992 Z0.23275
X67.84402 Y122.37976 Z0.21143
X67.85756 Y122.2596 Z0.19011
X67.89749 Y122.14546 Z0.16879
X67.96183 Y122.04307 Z0.14747
X68.04733 Y121.95757 Z0.12614
X68.14972 Y121.89323 Z0.10482
X68.26386 Y121.8533 Z0.0835
X68.38402 Y121.83976 Z0.06218
X68.50418 Y121.8533 Z0.04086
X68.61831 Y121.89323 Z0.01954
X68.7207 Y121.95757 Z-0.00178
X68.80621 Y122.04307 Z-0.02311
X68.87054 Y122.14546 Z-0.04443
X68.91048 Y122.2596 Z-0.06575
X68.92402 Y122.37976 Z-0.08707
X68.91048 Y122.49992 Z-0.10839
X68.87054 Y122.61405 Z-0.12972
X68.80621 Y122.71644 Z-0.15104
X68.7207 Y122.80195 Z-0.17236
X68.61831 Y122.86628 Z-0.19368
X68.50418 Y122.90622 Z-0.215
X68.38402 Y122.91976 Z-0.23632
X68.26386 Y122.90622 Z-0.25765
X68.14972 Y122.86628 Z-0.27897
X68.04733 Y122.80195 Z-0.30029
X67.96183 Y122.71644 Z-0.32161
X67.89749 Y122.61405 Z-0.34293
X67.85756 Y122.49992 Z-0.36426
X67.84402 Y122.37976 Z-0.38558
X67.85756 Y122.2596 Z-0.4069
X67.89749 Y122.14546 Z-0.42822
X67.96183 Y122.04307 Z-0.44954
X68.04733 Y121.95757 Z-0.47086
X68.14972 Y121.89323 Z-0.49219
X68.26386 Y121.8533 Z-0.51351
X68.38402 Y121.83976 Z-0.53483
X68.50418 Y121.8533 Z-0.55615
X68.61831 Y121.89323 Z-0.57747
X68.7207 Y121.95757 Z-0.59879
X68.80621 Y122.04307 Z-0.62012
X68.87054 Y122.14546 Z-0.64144
X68.91048 Y122.2596 Z-0.66276
X68.92402 Y122.37976 Z-0.68408
X68.91048 Y122.49992 Z-0.7054
X68.87054 Y122.61405 Z-0.72673
X68.80621 Y122.71644 Z-0.74805
X68.7207 Y122.80195 Z-0.76937
X68.61831 Y122.86628 Z-0.79069
X68.50418 Y122.90622 Z-0.81201
X68.38402 Y122.91976 Z-0.83333
G03 Y121.83976 I0. J-0.54 F2400.
Y122.91976 I0. J0.54
G0 Z1.295
X68.76889 Y122.75376
G1 Z-0.39667 F600.
X68.7207 Y122.80195 Z-0.40868 F1800.
X68.61831 Y122.86628 Z-0.43001
X68.50418 Y122.90622 Z-0.45133
X68.38402 Y122.91976 Z-0.47265
X68.26386 Y122.90622 Z-0.49397
X68.14972 Y122.86628 Z-0.51529
X68.04733 Y122.80195 Z-0.53661
X67.96183 Y122.71644 Z-0.55794
X67.89749 Y122.61405 Z-0.57926
X67.85756 Y122.49992 Z-0.60058
X67.84402 Y122.37976 Z-0.6219
X67.85756 Y122.2596 Z-0.64322
X67.89749 Y122.14546 Z-0.66455
X67.96183 Y122.04307 Z-0.68587
X68.04733 Y121.95757 Z-0.70719
X68.14972 Y121.89323 Z-0.72851
X68.26386 Y121.8533 Z-0.74983
X68.38402 Y121.83976 Z-0.77115
X68.50418 Y121.8533 Z-0.79248
X68.61831 Y121.89323 Z-0.8138
X68.7207 Y121.95757 Z-0.83512
X68.80621 Y122.04307 Z-0.85644
X68.87054 Y122.14546 Z-0.87776
X68.91048 Y122.2596 Z-0.89908
X68.92402 Y122.37976 Z-0.92041
X68.91048 Y122.49992 Z-0.94173
X68.87054 Y122.61405 Z-0.96305
X68.80621 Y122.71644 Z-0.98437
X68.7207 Y122.80195 Z-1.00569
X68.61831 Y122.86628 Z-1.02701
X68.50418 Y122.90622 Z-1.04834
X68.38402 Y122.91976 Z-1.06966
X68.26386 Y122.90622 Z-1.09098
X68.14972 Y122.86628 Z-1.1123
X68.04733 Y122.80195 Z-1.13362
X67.96183 Y122.71644 Z-1.15494
X67.89749 Y122.61405 Z-1.17627
X67.85756 Y122.49992 Z-1.19759
X67.84402 Y122.37976 Z-1.21891
X67.85756 Y122.2596 Z-1.24023
X67.89749 Y122.14546 Z-1.26155
X67.96183 Y122.04307 Z-1.28288
X68.04733 Y121.95757 Z-1.3042
X68.14972 Y121.89323 Z-1.32552
X68.26386 Y121.8533 Z-1.34684
X68.38402 Y121.83976 Z-1.36816
X68.50418 Y121.8533 Z-1.38948
X68.61831 Y121.89323 Z-1.41081
X68.7207 Y121.95757 Z-1.43213
X68.80621 Y122.04307 Z-1.45345
X68.87054 Y122.14546 Z-1.47477
X68.91048 Y122.2596 Z-1.49609
X68.92402 Y122.37976 Z-1.51741
X68.91048 Y122.49992 Z-1.53874
X68.87054 Y122.61405 Z-1.56006
X68.80621 Y122.71644 Z-1.58138
X68.7207 Y122.80195 Z-1.6027
X68.61831 Y122.86628 Z-1.62402
X68.50418 Y122.90622 Z-1.64535
X68.38402 Y122.91976 Z-1.66667
G03 Y121.83976 I0. J-0.54 F2400.
Y122.91976 I0. J0.54
G0 Z1.295
X68.76889 Y122.75376
G1 Z-1.23 F600.
X68.7207 Y122.80195 Z-1.24202 F1800.
X68.61831 Y122.86628 Z-1.26334
X68.50418 Y122.90622 Z-1.28466
X68.38402 Y122.91976 Z-1.30598
X68.26386 Y122.90622 Z-1.3273
X68.14972 Y122.86628 Z-1.34863
X68.04733 Y122.80195 Z-1.36995
X67.96183 Y122.71644 Z-1.39127
X67.89749 Y122.61405 Z-1.41259
X67.85756 Y122.49992 Z-1.43391
X67.84402 Y122.37976 Z-1.45523
X67.85756 Y122.2596 Z-1.47656
X67.89749 Y122.14546 Z-1.49788
X67.96183 Y122.04307 Z-1.5192
X68.04733 Y121.95757 Z-1.54052
X68.14972 Y121.89323 Z-1.56184
X68.26386 Y121.8533 Z-1.58317
X68.38402 Y121.83976 Z-1.60449
X68.50418 Y121.8533 Z-1.62581
X68.61831 Y121.89323 Z-1.64713
X68.7207 Y121.95757 Z-1.66845
X68.80621 Y122.04307 Z-1.68977
X68.87054 Y122.14546 Z-1.7111
X68.91048 Y122.2596 Z-1.73242
X68.92402 Y122.37976 Z-1.75374
X68.91048 Y122.49992 Z-1.77506
X68.87054 Y122.61405 Z-1.79638
X68.80621 Y122.71644 Z-1.8177
X68.7207 Y122.80195 Z-1.83903
X68.61831 Y122.86628 Z-1.86035
X68.50418 Y122.90622 Z-1.88167
X68.38402 Y122.91976 Z-1.90299
X68.26386 Y122.90622 Z-1.92431
X68.14972 Y122.86628 Z-1.94564
X68.04733 Y122.80195 Z-1.96696
X67.96183 Y122.71644 Z-1.98828
X67.89749 Y122.61405 Z-2.0096
X67.85756 Y122.49992 Z-2.03092
X67.84402 Y122.37976 Z-2.05224
X67.85756 Y122.2596 Z-2.07356
X67.89749 Y122.14546 Z-2.09489
X67.96183 Y122.04307 Z-2.11621
X68.04733 Y121.95757 Z-2.13753
X68.14972 Y121.89323 Z-2.15885
X68.26386 Y121.8533 Z-2.18017
X68.38402 Y121.83976 Z-2.2015
X68.50418 Y121.8533 Z-2.22282
X68.61831 Y121.89323 Z-2.24414
X68.7207 Y121.95757 Z-2.26546
X68.80621 Y122.04307 Z-2.28678
X68.87054 Y122.14546 Z-2.3081
X68.91048 Y122.2596 Z-2.32943
X68.92402 Y122.37976 Z-2.35075
X68.91048 Y122.49992 Z-2.37207
X68.87054 Y122.61405 Z-2.39339
X68.80621 Y122.71644 Z-2.41471
X68.7207 Y122.80195 Z-2.43604
X68.61831 Y122.86628 Z-2.45736
X68.50418 Y122.90622 Z-2.47868
X68.38402 Y122.91976 Z-2.5
G03 Y121.83976 I0. J-0.54 F2400.
Y122.91976 I0. J0.54
G0 Z1.295
X68.76889 Y138.23531
G1 Z0.43667 F600.
X68.7207 Y138.2835 Z0.42465 F1800.
X68.61831 Y138.34784 Z0.40333
X68.50418 Y138.38777 Z0.38201
X68.38402 Y138.40131 Z0.36068
X68.26386 Y138.38777 Z0.33936
X68.14972 Y138.34784 Z0.31804
X68.04733 Y138.2835 Z0.29672
X67.96183 Y138.198 Z0.2754
X67.89749 Y138.09561 Z0.25408
X67.85756 Y137.98147 Z0.23275
X67.84402 Y137.86131 Z0.21143
X67.85756 Y137.74115 Z0.19011
X67.89749 Y137.62702 Z0.16879
X67.96183 Y137.52463 Z0.14747
X68.04733 Y137.43912 Z0.12614
X68.14972 Y137.37479 Z0.10482
X68.26386 Y137.33485 Z0.0835
X68.38402 Y137.32131 Z0.06218
X68.50418 Y137.33485 Z0.04086
X68.61831 Y137.37479 Z0.01954
X68.7207 Y137.43912 Z-0.00178
X68.80621 Y137.52463 Z-0.02311
X68.87054 Y137.62702 Z-0.04443
X68.91048 Y137.74115 Z-0.06575
X68.92402 Y137.86131 Z-0.08707
X68.91048 Y137.98147 Z-0.10839
X68.87054 Y138.09561 Z-0.12972
X68.80621 Y138.198 Z-0.15104
X68.7207 Y138.2835 Z-0.17236
X68.61831 Y138.34784 Z-0.19368
X68.50418 Y138.38777 Z-0.215
X68.38402 Y138.40131 Z-0.23632
X68.26386 Y138.38777 Z-0.25765
X68.14972 Y138.34784 Z-0.27897
X68.04733 Y138.2835 Z-0.30029
X67.96183 Y138.198 Z-0.32161
X67.89749 Y138.09561 Z-0.34293
X67.85756 Y137.98147 Z-0.36426
X67.84402 Y137.86131 Z-0.38558
X67.85756 Y137.74115 Z-0.4069
X67.89749 Y137.62702 Z-0.42822
X67.96183 Y137.52463 Z-0.44954
X68.04733 Y137.43912 Z-0.47086
X68.14972 Y137.37479 Z-0.49219
X68.26386 Y137.33485 Z-0.51351
X68.38402 Y137.32131 Z-0.53483
X68.50418 Y137.33485 Z-0.55615
X68.61831 Y137.37479 Z-0.57747
X68.7207 Y137.43912 Z-0.59879
X68.80621 Y137.52463 Z-0.62012
X68.87054 Y137.62702 Z-0.64144
X68.91048 Y137.74115 Z-0.66276
X68.92402 Y137.86131 Z-0.68408
X68.91048 Y137.98147 Z-0.7054
X68.87054 Y138.09561 Z-0.72673
X68.80621 Y138.198 Z-0.74805
X68.7207 Y138.2835 Z-0.76937
X68.61831 Y138.34784 Z-0.79069
X68.50418 Y138.38777 Z-0.81201
X68.38402 Y138.40131 Z-0.83333
G03 Y137.32131 I0. J-0.54 F2400.
Y138.40131 I0. J0.54
G0 Z1.295
X68.76889 Y138.23531
G1 Z-0.39667 F600.
X68.7207 Y138.2835 Z-0.40868 F1800.
X68.61831 Y138.34784 Z-0.43001
X68.50418 Y138.38777 Z-0.45133
X68.38402 Y138.40131 Z-0.47265
X68.26386 Y138.38777 Z-0.49397
X68.14972 Y138.34784 Z-0.51529
X68.04733 Y138.2835 Z-0.53661
X67.96183 Y138.198 Z-0.55794
X67.89749 Y138.09561 Z-0.57926
X67.85756 Y137.98147 Z-0.60058
X67.84402 Y137.86131 Z-0.6219
X67.85756 Y137.74115 Z-0.64322
X67.89749 Y137.62702 Z-0.66455
X67.96183 Y137.52463 Z-0.68587
X68.04733 Y137.43912 Z-0.70719
X68.14972 Y137.37479 Z-0.72851
X68.26386 Y137.33485 Z-0.74983
X68.38402 Y137.32131 Z-0.77115
X68.50418 Y137.33485 Z-0.79248
X68.61831 Y137.37479 Z-0.8138
X68.7207 Y137.43912 Z-0.83512
X68.80621 Y137.52463 Z-0.85644
X68.87054 Y137.62702 Z-0.87776
X68.91048 Y137.74115 Z-0.89908
X68.92402 Y137.86131 Z-0.92041
X68.91048 Y137.98147 Z-0.94173
X68.87054 Y138.09561 Z-0.96305
X68.80621 Y138.198 Z-0.98437
X68.7207 Y138.2835 Z-1.00569
X68.61831 Y138.34784 Z-1.02701
X68.50418 Y138.38777 Z-1.04834
X68.38402 Y138.40131 Z-1.06966
X68.26386 Y138.38777 Z-1.09098
X68.14972 Y138.34784 Z-1.1123
X68.04733 Y138.2835 Z-1.13362
X67.96183 Y138.198 Z-1.15494
X67.89749 Y138.09561 Z-1.17627
X67.85756 Y137.98147 Z-1.19759
X67.84402 Y137.86131 Z-1.21891
X67.85756 Y137.74115 Z-1.24023
X67.89749 Y137.62702 Z-1.26155
X67.96183 Y137.52463 Z-1.28288
X68.04733 Y137.43912 Z-1.3042
X68.14972 Y137.37479 Z-1.32552
X68.26386 Y137.33485 Z-1.34684
X68.38402 Y137.32131 Z-1.36816
X68.50418 Y137.33485 Z-1.38948
X68.61831 Y137.37479 Z-1.41081
X68.7207 Y137.43912 Z-1.43213
X68.80621 Y137.52463 Z-1.45345
X68.87054 Y137.62702 Z-1.47477
X68.91048 Y137.74115 Z-1.49609
X68.92402 Y137.86131 Z-1.51741
X68.91048 Y137.98147 Z-1.53874
X68.87054 Y138.09561 Z-1.56006
X68.80621 Y138.198 Z-1.58138
X68.7207 Y138.2835 Z-1.6027
X68.61831 Y138.34784 Z-1.62402
X68.50418 Y138.38777 Z-1.64535
X68.38402 Y138.40131 Z-1.66667
G03 Y137.32131 I0. J-0.54 F2400.
Y138.40131 I0. J0.54
G0 Z1.295
X68.76889 Y138.23531
G1 Z-1.23 F600.
X68.7207 Y138.2835 Z-1.24202 F1800.
X68.61831 Y138.34784 Z-1.26334
X68.50418 Y138.38777 Z-1.28466
X68.38402 Y138.40131 Z-1.30598
X68.26386 Y138.38777 Z-1.3273
X68.14972 Y138.34784 Z-1.34863
X68.04733 Y138.2835 Z-1.36995
X67.96183 Y138.198 Z-1.39127
X67.89749 Y138.09561 Z-1.41259
X67.85756 Y137.98147 Z-1.43391
X67.84402 Y137.86131 Z-1.45523
X67.85756 Y137.74115 Z-1.47656
X67.89749 Y137.62702 Z-1.49788
X67.96183 Y137.52463 Z-1.5192
X68.04733 Y137.43912 Z-1.54052
X68.14972 Y137.37479 Z-1.56184
X68.26386 Y137.33485 Z-1.58317
X68.38402 Y137.32131 Z-1.60449
X68.50418 Y137.33485 Z-1.62581
X68.61831 Y137.37479 Z-1.64713
X68.7207 Y137.43912 Z-1.66845
X68.80621 Y137.52463 Z-1.68977
X68.87054 Y137.62702 Z-1.7111
X68.91048 Y137.74115 Z-1.73242
X68.92402 Y137.86131 Z-1.75374
X68.91048 Y137.98147 Z-1.77506
X68.87054 Y138.09561 Z-1.79638
X68.80621 Y138.198 Z-1.8177
X68.7207 Y138.2835 Z-1.83903
X68.61831 Y138.34784 Z-1.86035
X68.50418 Y138.38777 Z-1.88167
X68.38402 Y138.40131 Z-1.90299
X68.26386 Y138.38777 Z-1.92431
X68.14972 Y138.34784 Z-1.94564
X68.04733 Y138.2835 Z-1.96696
X67.96183 Y138.198 Z-1.98828
X67.89749 Y138.09561 Z-2.0096
X67.85756 Y137.98147 Z-2.03092
X67.84402 Y137.86131 Z-2.05224
X67.85756 Y137.74115 Z-2.07356
X67.89749 Y137.62702 Z-2.09489
X67.96183 Y137.52463 Z-2.11621
X68.04733 Y137.43912 Z-2.13753
X68.14972 Y137.37479 Z-2.15885
X68.26386 Y137.33485 Z-2.18017
X68.38402 Y137.32131 Z-2.2015
X68.50418 Y137.33485 Z-2.22282
X68.61831 Y137.37479 Z-2.24414
X68.7207 Y137.43912 Z-2.26546
X68.80621 Y137.52463 Z-2.28678
X68.87054 Y137.62702 Z-2.3081
X68.91048 Y137.74115 Z-2.32943
X68.92402 Y137.86131 Z-2.35075
X68.91048 Y137.98147 Z-2.37207
X68.87054 Y138.09561 Z-2.39339
X68.80621 Y138.198 Z-2.41471
X68.7207 Y138.2835 Z-2.43604
X68.61831 Y138.34784 Z-2.45736
X68.50418 Y138.38777 Z-2.47868
X68.38402 Y138.40131 Z-2.5
G03 Y137.32131 I0. J-0.54 F2400.
Y138.40131 I0. J0.54
G0 Z1.295
X68.76889 Y161.63506
G1 Z0.43667 F600.
X68.7207 Y161.68325 Z0.42465 F1800.
X68.61831 Y161.74759 Z0.40333
X68.50418 Y161.78753 Z0.38201
X68.38402 Y161.80106 Z0.36068
X68.26386 Y161.78753 Z0.33936
X68.14972 Y161.74759 Z0.31804
X68.04733 Y161.68325 Z0.29672
X67.96183 Y161.59775 Z0.2754
X67.89749 Y161.49536 Z0.25408
X67.85756 Y161.38123 Z0.23275
X67.84402 Y161.26106 Z0.21143
X67.85756 Y161.1409 Z0.19011
X67.89749 Y161.02677 Z0.16879
X67.96183 Y160.92438 Z0.14747
X68.04733 Y160.83887 Z0.12614
X68.14972 Y160.77454 Z0.10482
X68.26386 Y160.7346 Z0.0835
X68.38402 Y160.72106 Z0.06218
X68.50418 Y160.7346 Z0.04086
X68.61831 Y160.77454 Z0.01954
X68.7207 Y160.83887 Z-0.00178
X68.80621 Y160.92438 Z-0.02311
X68.87054 Y161.02677 Z-0.04443
X68.91048 Y161.1409 Z-0.06575
X68.92402 Y161.26106 Z-0.08707
X68.91048 Y161.38123 Z-0.10839
X68.87054 Y161.49536 Z-0.12972
X68.80621 Y161.59775 Z-0.15104
X68.7207 Y161.68325 Z-0.17236
X68.61831 Y161.74759 Z-0.19368
X68.50418 Y161.78753 Z-0.215
X68.38402 Y161.80106 Z-0.23632
X68.26386 Y161.78753 Z-0.25765
X68.14972 Y161.74759 Z-0.27897
X68.04733 Y161.68325 Z-0.30029
X67.96183 Y161.59775 Z-0.32161
X67.89749 Y161.49536 Z-0.34293
X67.85756 Y161.38123 Z-0.36426
X67.84402 Y161.26106 Z-0.38558
X67.85756 Y161.1409 Z-0.4069
X67.89749 Y161.02677 Z-0.42822
X67.96183 Y160.92438 Z-0.44954
X68.04733 Y160.83887 Z-0.47086
X68.14972 Y160.77454 Z-0.49219
X68.26386 Y160.7346 Z-0.51351
X68.38402 Y160.72106 Z-0.53483
X68.50418 Y160.7346 Z-0.55615
X68.61831 Y160.77454 Z-0.57747
X68.7207 Y160.83887 Z-0.59879
X68.80621 Y160.92438 Z-0.62012
X68.87054 Y161.02677 Z-0.64144
X68.91048 Y161.1409 Z-0.66276
X68.92402 Y161.26106 Z-0.68408
X68.91048 Y161.38123 Z-0.7054
X68.87054 Y161.49536 Z-0.72673
X68.80621 Y161.59775 Z-0.74805
X68.7207 Y161.68325 Z-0.76937
X68.61831 Y161.74759 Z-0.79069
X68.50418 Y161.78753 Z-0.81201
X68.38402 Y161.80106 Z-0.83333
G03 Y160.72106 I0. J-0.54 F2400.
Y161.80106 I0. J0.54
G0 Z1.295
X68.76889 Y161.63506
G1 Z-0.39667 F600.
X68.7207 Y161.68325 Z-0.40868 F1800.
X68.61831 Y161.74759 Z-0.43001
X68.50418 Y161.78753 Z-0.45133
X68.38402 Y161.80106 Z-0.47265
X68.26386 Y161.78753 Z-0.49397
X68.14972 Y161.74759 Z-0.51529
X68.04733 Y161.68325 Z-0.53661
X67.96183 Y161.59775 Z-0.55794
X67.89749 Y161.49536 Z-0.57926
X67.85756 Y161.38123 Z-0.60058
X67.84402 Y161.26106 Z-0.6219
X67.85756 Y161.1409 Z-0.64322
X67.89749 Y161.02677 Z-0.66455
X67.96183 Y160.92438 Z-0.68587
X68.04733 Y160.83887 Z-0.70719
X68.14972 Y160.77454 Z-0.72851
X68.26386 Y160.7346 Z-0.74983
X68.38402 Y160.72106 Z-0.77115
X68.50418 Y160.7346 Z-0.79248
X68.61831 Y160.77454 Z-0.8138
X68.7207 Y160.83887 Z-0.83512
X68.80621 Y160.92438 Z-0.85644
X68.87054 Y161.02677 Z-0.87776
X68.91048 Y161.1409 Z-0.89908
X68.92402 Y161.26106 Z-0.92041
X68.91048 Y161.38123 Z-0.94173
X68.87054 Y161.49536 Z-0.96305
X68.80621 Y161.59775 Z-0.98437
X68.7207 Y161.68325 Z-1.00569
X68.61831 Y161.74759 Z-1.02701
X68.50418 Y161.78753 Z-1.04834
X68.38402 Y161.80106 Z-1.06966
X68.26386 Y161.78753 Z-1.09098
X68.14972 Y161.74759 Z-1.1123
X68.04733 Y161.68325 Z-1.13362
X67.96183 Y161.59775 Z-1.15494
X67.89749 Y161.49536 Z-1.17627
X67.85756 Y161.38123 Z-1.19759
X67.84402 Y161.26106 Z-1.21891
X67.85756 Y161.1409 Z-1.24023
X67.89749 Y161.02677 Z-1.26155
X67.96183 Y160.92438 Z-1.28288
X68.04733 Y160.83887 Z-1.3042
X68.14972 Y160.77454 Z-1.32552
X68.26386 Y160.7346 Z-1.34684
X68.38402 Y160.72106 Z-1.36816
X68.50418 Y160.7346 Z-1.38948
X68.61831 Y160.77454 Z-1.41081
X68.7207 Y160.83887 Z-1.43213
X68.80621 Y160.92438 Z-1.45345
X68.87054 Y161.02677 Z-1.47477
X68.91048 Y161.1409 Z-1.49609
X68.92402 Y161.26106 Z-1.51741
X68.91048 Y161.38123 Z-1.53874
X68.87054 Y161.49536 Z-1.56006
X68.80621 Y161.59775 Z-1.58138
X68.7207 Y161.68325 Z-1.6027
X68.61831 Y161.74759 Z-1.62402
X68.50418 Y161.78753 Z-1.64535
X68.38402 Y161.80106 Z-1.66667
G03 Y160.72106 I0. J-0.54 F2400.
Y161.80106 I0. J0.54
G0 Z1.295
X68.76889 Y161.63506
G1 Z-1.23 F600.
X68.7207 Y161.68325 Z-1.24202 F1800.
X68.61831 Y161.74759 Z-1.26334
X68.50418 Y161.78753 Z-1.28466
X68.38402 Y161.80106 Z-1.30598
X68.26386 Y161.78753 Z-1.3273
X68.14972 Y161.74759 Z-1.34863
X68.04733 Y161.68325 Z-1.36995
X67.96183 Y161.59775 Z-1.39127
X67.89749 Y161.49536 Z-1.41259
X67.85756 Y161.38123 Z-1.43391
X67.84402 Y161.26106 Z-1.45523
X67.85756 Y161.1409 Z-1.47656
X67.89749 Y161.02677 Z-1.49788
X67.96183 Y160.92438 Z-1.5192
X68.04733 Y160.83887 Z-1.54052
X68.14972 Y160.77454 Z-1.56184
X68.26386 Y160.7346 Z-1.58317
X68.38402 Y160.72106 Z-1.60449
X68.50418 Y160.7346 Z-1.62581
X68.61831 Y160.77454 Z-1.64713
X68.7207 Y160.83887 Z-1.66845
X68.80621 Y160.92438 Z-1.68977
X68.87054 Y161.02677 Z-1.7111
X68.91048 Y161.1409 Z-1.73242
X68.92402 Y161.26106 Z-1.75374
X68.91048 Y161.38123 Z-1.77506
X68.87054 Y161.49536 Z-1.79638
X68.80621 Y161.59775 Z-1.8177
X68.7207 Y161.68325 Z-1.83903
X68.61831 Y161.74759 Z-1.86035
X68.50418 Y161.78753 Z-1.88167
X68.38402 Y161.80106 Z-1.90299
X68.26386 Y161.78753 Z-1.92431
X68.14972 Y161.74759 Z-1.94564
X68.04733 Y161.68325 Z-1.96696
X67.96183 Y161.59775 Z-1.98828
X67.89749 Y161.49536 Z-2.0096
X67.85756 Y161.38123 Z-2.03092
X67.84402 Y161.26106 Z-2.05224
X67.85756 Y161.1409 Z-2.07356
X67.89749 Y161.02677 Z-2.09489
X67.96183 Y160.92438 Z-2.11621
X68.04733 Y160.83887 Z-2.13753
X68.14972 Y160.77454 Z-2.15885
X68.26386 Y160.7346 Z-2.18017
X68.38402 Y160.72106 Z-2.2015
X68.50418 Y160.7346 Z-2.22282
X68.61831 Y160.77454 Z-2.24414
X68.7207 Y160.83887 Z-2.26546
X68.80621 Y160.92438 Z-2.28678
X68.87054 Y161.02677 Z-2.3081
X68.91048 Y161.1409 Z-2.32943
X68.92402 Y161.26106 Z-2.35075
X68.91048 Y161.38123 Z-2.37207
X68.87054 Y161.49536 Z-2.39339
X68.80621 Y161.59775 Z-2.41471
X68.7207 Y161.68325 Z-2.43604
X68.61831 Y161.74759 Z-2.45736
X68.50418 Y161.78753 Z-2.47868
X68.38402 Y161.80106 Z-2.5
G03 Y160.72106 I0. J-0.54 F2400.
Y161.80106 I0. J0.54
G0 Z1.295
X90.05085 Y173.81116
G1 Z0.43667 F600.
X91.33337 Z0.21052 F1800.
Y174.22116 Z0.13823
X86.23337 Z-0.76104
Y173.81116 Z-0.83333
X91.33337 F2400.
Y174.22116
X86.23337
Y173.81116
G0 Z1.295
X90.05085
G1 Z-0.39667 F600.
X91.33337 Z-0.62281 F1800.
Y174.22116 Z-0.69511
X86.23337 Z-1.59437
Y173.81116 Z-1.66667
X91.33337 F2400.
Y174.22116
X86.23337
Y173.81116
G0 Z1.295
X90.05085
G1 Z-1.23 F600.
X91.33337 Z-1.45614 F1800.
Y174.22116 Z-1.52844
X86.23337 Z-2.42771
Y173.81116 Z-2.5
X91.33337 F2400.
Y174.22116
X86.23337
Y173.81116
G0 Z1.295
X95.7432 Y163.90894
G1 Z0.43667 F600.
X95.6386 Y163.96287 Z0.41592 F1800.
X94.71139 Y164.36866 Z0.23745
X93.76031 Y164.71482 Z0.05899
X92.78918 Y164.99997 Z-0.11948
X91.80193 Y165.22295 Z-0.29794
X90.80252 Y165.38287 Z-0.47641
X89.79499 Y165.47908 Z-0.65487
X88.78337 Y165.51119 Z-0.83333
G03 Y133.61119 I0. J-15.95 F2400.
Y165.51119 I0. J15.95
G0 Z1.295
X95.7432 Y163.90894
G1 Z-0.39667 F600.
X95.6386 Y163.96287 Z-0.41742 F1800.
X94.71139 Y164.36866 Z-0.59588
X93.76031 Y164.71482 Z-0.77434
X92.78918 Y164.99997 Z-0.95281
X91.80193 Y165.22295 Z-1.13127
X90.80252 Y165.38287 Z-1.30974
X89.79499 Y165.47908 Z-1.4882
X88.78337 Y165.51119 Z-1.66667
G03 Y133.61119 I0. J-15.95 F2400.
Y165.51119 I0. J15.95
G0 Z1.295
X95.7432 Y163.90894
G1 Z-1.23 F600.
X95.6386 Y163.96287 Z-1.25075 F1800.
X94.71139 Y164.36866 Z-1.42921
X93.76031 Y164.71482 Z-1.60768
X92.78918 Y164.99997 Z-1.78614
X91.80193 Y165.22295 Z-1.96461
X90.80252 Y165.38287 Z-2.14307
X89.79499 Y165.47908 Z-2.32154
X88.78337 Y165.51119 Z-2.5
G03 Y133.61119 I0. J-15.95 F2400.
Y165.51119 I0. J15.95
G0 Z1.295
X128.74077 Y183.29863
G1 Z0.43667 F600.
X129.66941 Y183.55686 Z0.26671 F1800.
X130.6616 Y183.78068 Z0.08736
X131.95409 Y184.01245 Z-0.14417
X132.86077 Y184.1431 Z-0.3057
X134.4731 Y184.32421 Z-0.59178
X135.83843 Y184.4361 Z-0.83333
G03 X128.01234 Y183.05601 I1.3897 J-30.76035 F2400.
X126.28886 Y180.65228 I0.8265 J-2.41234
G1 Y131.95076
G03 X128.01235 Y129.54703 I2.54998 J0.00862
X135.83978 Y128.16668 I8.62779 J26.04147
X148.55352 Y140.07091 I0.78374 J11.90423
G02 X149.35352 Y141.45029 I0.90562 J0.39645
G1 X158.52247 Y141.45032
G03 X159.06247 Y141.99032 I0. J0.54
G1 Y170.61272
G03 X158.52247 Y171.15272 I-0.54 J0.
G1 X149.35352 Y171.15269
G02 X148.55352 Y172.53214 I0.06635 J0.96018
G03 X135.83942 Y184.43634 I-11.93 J0.
G0 Z1.295
X128.74077 Y183.29863
G1 Z-0.39667 F600.
X129.66941 Y183.55686 Z-0.56662 F1800.
X130.6616 Y183.78068 Z-0.74597
X131.95409 Y184.01245 Z-0.97751
X132.86077 Y184.1431 Z-1.13903
X134.4731 Y184.32421 Z-1.42512
X135.83843 Y184.4361 Z-1.66667
G03 X128.01234 Y183.05601 I1.3897 J-30.76035 F2400.
X126.28886 Y180.65228 I0.8265 J-2.41234
G1 Y131.95076
G03 X128.01235 Y129.54703 I2.54998 J0.00862
X135.83978 Y128.16668 I8.62779 J26.04147
X148.55352 Y140.07091 I0.78374 J11.90423
G02 X149.35352 Y141.45029 I0.90562 J0.39645
G1 X158.52247 Y141.45032
G03 X159.06247 Y141.99032 I0. J0.54
G1 Y170.61272
G03 X158.52247 Y171.15272 I-0.54 J0.
G1 X149.35352 Y171.15269
G02 X148.55352 Y172.53214 I0.06635 J0.96018
G03 X135.83942 Y184.43634 I-11.93 J0.
G0 Z1.295
X128.74077 Y183.29863
G1 Z-1.23 F600.
X129.66941 Y183.55686 Z-1.39996 F1800.
X130.6616 Y183.78068 Z-1.5793
X131.95409 Y184.01245 Z-1.81084
X132.86077 Y184.1431 Z-1.97236
X134.4731 Y184.32421 Z-2.25845
X135.83843 Y184.4361 Z-2.5
G03 X128.01234 Y183.05601 I1.3897 J-30.76035 F2400.
X126.28886 Y180.65228 I0.8265 J-2.41234
G1 Y131.95076
G03 X128.01235 Y129.54703 I2.54998 J0.00862
X135.83978 Y128.16668 I8.62779 J26.04147
X148.55352 Y140.07091 I0.78374 J11.90423
G02 X149.35352 Y141.45029 I0.90562 J0.39645
G1 X158.52247 Y141.45032
G03 X159.06247 Y141.99032 I0. J0.54
G1 Y170.61272
G03 X158.52247 Y171.15272 I-0.54 J0.
G1 X149.35352 Y171.15269
G02 X148.55352 Y172.53214 I0.06635 J0.96018
G03 X135.83942 Y184.43634 I-11.93 J0.
G0 Z1.295
X168.83199 Y180.55149
G1 Z0.43667 F600.
X170.11452 Z0.21052 F1800.
Y180.96149 Z0.13823
X165.01452 Z-0.76104
Y180.55149 Z-0.83333
X170.11452 F2400.
Y180.96149
X165.01452
Y180.55149
G0 Z1.295
X168.83199
G1 Z-0.39667 F600.
X170.11452 Z-0.62281 F1800.
Y180.96149 Z-0.69511
X165.01452 Z-1.59437
Y180.55149 Z-1.66667
X170.11452 F2400.
Y180.96149
X165.01452
Y180.55149
G0 Z1.295
X168.83199
G1 Z-1.23 F600.
X170.11452 Z-1.45614 F1800.
Y180.96149 Z-1.52844
X165.01452 Z-2.42771
Y180.55149 Z-2.5
X170.11452 F2400.
Y180.96149
X165.01452
Y180.55149
G0 Z1.295
X185.52255 Y204.09147
G1 Z0.43667 F600.
X185.49256 Y204.34122 Z0.39231 F1800.
X185.42645 Y204.66556 Z0.33395
X185.33412 Y204.98342 Z0.27558
X185.21619 Y205.29269 Z0.21722
X185.07344 Y205.59133 Z0.15886
X184.90682 Y205.87734 Z0.10049
X184.71745 Y206.14881 Z0.04213
X184.50658 Y206.40395 Z-0.01624
X184.27562 Y206.64105 Z-0.0746
X184.0261 Y206.85853 Z-0.13296
X183.75968 Y207.05495 Z-0.19133
X183.47814 Y207.22901 Z-0.24969
X183.18334 Y207.37953 Z-0.30806
X182.87726 Y207.50553 Z-0.36642
X182.56193 Y207.60616 Z-0.42479
X182.23945 Y207.68075 Z-0.48315
X181.91196 Y207.72881 Z-0.54151
X181.58164 Y207.75001 Z-0.59988
X181.25069 Y207.74422 Z-0.65824
X180.92131 Y207.71148 Z-0.71661
X180.5957 Y207.65199 Z-0.77497
X180.27602 Y207.56617 Z-0.83333
G03 X182.69813 Y199.82107 I1.21106 J-3.87255 F2400.
X180.27602 Y207.56617 I-1.21105 J3.87255
G0 Z1.295
X185.52255 Y204.09147
G1 Z-0.39667 F600.
X185.49256 Y204.34122 Z-0.44102 F1800.
X185.42645 Y204.66556 Z-0.49939
X185.33412 Y204.98342 Z-0.55775
X185.21619 Y205.29269 Z-0.61611
X185.07344 Y205.59133 Z-0.67448
X184.90682 Y205.87734 Z-0.73284
X184.71745 Y206.14881 Z-0.79121
X184.50658 Y206.40395 Z-0.84957
X184.27562 Y206.64105 Z-0.90793
X184.0261 Y206.85853 Z-0.9663
X183.75968 Y207.05495 Z-1.02466
X183.47814 Y207.22901 Z-1.08303
X183.18334 Y207.37953 Z-1.14139
X182.87726 Y207.50553 Z-1.19975
X182.56193 Y207.60616 Z-1.25812
X182.23945 Y207.68075 Z-1.31648
X181.91196 Y207.72881 Z-1.37485
X181.58164 Y207.75001 Z-1.43321
X181.25069 Y207.74422 Z-1.49157
X180.92131 Y207.71148 Z-1.54994
X180.5957 Y207.65199 Z-1.6083
X180.27602 Y207.56617 Z-1.66667
G03 X182.69813 Y199.82107 I1.21106 J-3.87255 F2400.
X180.27602 Y207.56617 I-1.21105 J3.87255
G0 Z1.295
X185.52255 Y204.09147
G1 Z-1.23 F600.
X185.49256 Y204.34122 Z-1.27435 F1800.
X185.42645 Y204.66556 Z-1.33272
X185.33412 Y204.98342 Z-1.39108
X185.21619 Y205.29269 Z-1.44945
X185.07344 Y205.59133 Z-1.50781
X184.90682 Y205.87734 Z-1.56618
X184.71745 Y206.14881 Z-1.62454
X184.50658 Y206.40395 Z-1.6829
X184.27562 Y206.64105 Z-1.74127
X184.0261 Y206.85853 Z-1.79963
X183.75968 Y207.05495 Z-1.85799
X183.47814 Y207.22901 Z-1.91636
X183.18334 Y207.37953 Z-1.97472
X182.87726 Y207.50553 Z-2.03309
X182.56193 Y207.60616 Z-2.09145
X182.23945 Y207.68075 Z-2.14981
X181.91196 Y207.72881 Z-2.20818
X181.58164 Y207.75001 Z-2.26654
X181.25069 Y207.74422 Z-2.32491
X180.92131 Y207.71148 Z-2.38327
X180.5957 Y207.65199 Z-2.44164
X180.27602 Y207.56617 Z-2.5
G03 X182.69813 Y199.82107 I1.21106 J-3.87255 F2400.
X180.27602 Y207.56617 I-1.21105 J3.87255
G0 Z1.295
X178.74703 Y212.67799
G1 Z0.43667 F600.
X181.59239 Z-0.06505 F1800.
X181.64883 Y212.68095 Z-0.07501
X181.70466 Y212.6898 Z-0.08498
X181.75925 Y212.70443 Z-0.09495
X181.81202 Y212.72469 Z-0.10491
X181.86238 Y212.75035 Z-0.11488
X181.90978 Y212.78114 Z-0.12485
X181.95371 Y212.81671 Z-0.13481
X181.99367 Y212.85668 Z-0.14478
X182.02924 Y212.9006 Z-0.15474
X182.06003 Y212.94801 Z-0.16471
X182.08568 Y212.99837 Z-0.17468
X182.10594 Y213.05114 Z-0.18464
X182.12057 Y213.10574 Z-0.19461
X182.12941 Y213.16156 Z-0.20458
X182.13236 Y213.21801 Z-0.21454
X182.13235 Y216.72735 Z-0.83333
X182.1323 Y241.84042 F2400.
G03 X181.5923 Y242.38039 I-0.54 J-0.00003
G1 X172.4229 Y242.38037
G02 X171.6229 Y243.18037 I0. J0.8
G1 Y244.13984
G03 X161.93445 Y255.28966 I-11.26 J0.00003
G1 Y199.7679
G03 X171.62345 Y210.91773 I-1.571 J11.14987
G02 X171.85776 Y212.44366 I1.51292 J0.54864
G1 X172.02345 Y212.57079
X172.21639 Y212.65071
X172.42345 Y212.67797
X181.59239 Y212.67799
G03 X182.13236 Y213.21801 I-0.00003 J0.54
G1 X182.13235 Y216.72735
G0 Z1.295
X178.74703 Y212.67799
G1 Z-0.39667 F600.
X181.59239 Z-0.89838 F1800.
X181.64883 Y212.68095 Z-0.90835
X181.70466 Y212.6898 Z-0.91831
X181.75925 Y212.70443 Z-0.92828
X181.81202 Y212.72469 Z-0.93825
X181.86238 Y212.75035 Z-0.94821
X181.90978 Y212.78114 Z-0.95818
X181.95371 Y212.81671 Z-0.96814
X181.99367 Y212.85668 Z-0.97811
X182.02924 Y212.9006 Z-0.98808
X182.06003 Y212.94801 Z-0.99804
X182.08568 Y212.99837 Z-1.00801
X182.10594 Y213.05114 Z-1.01798
X182.12057 Y213.10574 Z-1.02794
X182.12941 Y213.16156 Z-1.03791
X182.13236 Y213.21801 Z-1.04788
X182.13235 Y216.72735 Z-1.66667
X182.1323 Y241.84042 F2400.
G03 X181.5923 Y242.38039 I-0.54 J-0.00003
G1 X172.4229 Y242.38037
G02 X171.6229 Y243.18037 I0. J0.8
G1 Y244.13984
G03 X161.93445 Y255.28966 I-11.26 J0.00003
G1 Y199.7679
G03 X171.62345 Y210.91773 I-1.571 J11.14987
G02 X171.85776 Y212.44366 I1.51292 J0.54864
G1 X172.02345 Y212.57079
X172.21639 Y212.65071
X172.42345 Y212.67797
X181.59239 Y212.67799
G03 X182.13236 Y213.21801 I-0.00003 J0.54
G1 X182.13235 Y216.72735
G0 Z1.295
X178.74703 Y212.67799
G1 Z-1.23 F600.
X181.59239 Z-1.73171 F1800.
X181.64883 Y212.68095 Z-1.74168
X181.70466 Y212.6898 Z-1.75165
X181.75925 Y212.70443 Z-1.76161
X181.81202 Y212.72469 Z-1.77158
X181.86238 Y212.75035 Z-1.78154
X181.90978 Y212.78114 Z-1.79151
X181.95371 Y212.81671 Z-1.80148
X181.99367 Y212.85668 Z-1.81144
X182.02924 Y212.9006 Z-1.82141
X182.06003 Y212.94801 Z-1.83138
X182.08568 Y212.99837 Z-1.84134
X182.10594 Y213.05114 Z-1.85131
X182.12057 Y213.10574 Z-1.86128
X182.12941 Y213.16156 Z-1.87124
X182.13236 Y213.21801 Z-1.88121
X182.13235 Y216.72735 Z-2.5
X182.1323 Y241.84042 F2400.
G03 X181.5923 Y242.38039 I-0.54 J-0.00003
G1 X172.4229 Y242.38037
G02 X171.6229 Y243.18037 I0. J0.8
G1 Y244.13984
G03 X161.93445 Y255.28966 I-11.26 J0.00003
G1 Y199.7679
G03 X171.62345 Y210.91773 I-1.571 J11.14987
G02 X171.85776 Y212.44366 I1.51292 J0.54864
G1 X172.02345 Y212.57079
X172.21639 Y212.65071
X172.42345 Y212.67797
X181.59239 Y212.67799
G03 X182.13236 Y213.21801 I-0.00003 J0.54
G1 X182.13235 Y216.72735
G0 Z1.295
X177.897 Y253.25003
G1 Z0.43667 F600.
X177.78479 Y253.0249 Z0.39231 F1800.
X177.66179 Y252.7176 Z0.33395
X177.56424 Y252.4013 Z0.27559
X177.49279 Y252.07811 Z0.21722
X177.44793 Y251.75016 Z0.15886
X177.42995 Y251.41965 Z0.10049
X177.43897 Y251.08877 Z0.04213
X177.47492 Y250.75973 Z-0.01624
X177.53758 Y250.43472 Z-0.0746
X177.62652 Y250.11589 Z-0.13296
X177.74115 Y249.80538 Z-0.19133
X177.88071 Y249.50524 Z-0.24969
X178.04427 Y249.21747 Z-0.30806
X178.23074 Y248.944 Z-0.36642
X178.43888 Y248.68663 Z-0.42479
X178.66731 Y248.44708 Z-0.48315
X178.9145 Y248.22695 Z-0.54151
X179.17881 Y248.02771 Z-0.59988
X179.45848 Y247.85066 Z-0.65824
X179.75166 Y247.69701 Z-0.71661
X180.05638 Y247.56776 Z-0.77497
X180.37062 Y247.46378 Z-0.83333
G03 X182.60353 Y255.26553 I1.11645 J3.90087 F2400.
X180.37062 Y247.46378 I-1.11646 J-3.90088
G0 Z1.295
X177.897 Y253.25003
G1 Z-0.39667 F600.
X177.78479 Y253.0249 Z-0.44102 F1800.
X177.66179 Y252.7176 Z-0.49939
X177.56424 Y252.4013 Z-0.55775
X177.49279 Y252.07811 Z-0.61611
X177.44793 Y251.75016 Z-0.67448
X177.42995 Y251.41965 Z-0.73284
X177.43897 Y251.08877 Z-0.79121
X177.47492 Y250.75973 Z-0.84957
X177.53758 Y250.43472 Z-0.90793
X177.62652 Y250.11589 Z-0.9663
X177.74115 Y249.80538 Z-1.02466
X177.88071 Y249.50524 Z-1.08303
X178.04427 Y249.21747 Z-1.14139
X178.23074 Y248.944 Z-1.19975
X178.43888 Y248.68663 Z-1.25812
X178.66731 Y248.44708 Z-1.31648
X178.9145 Y248.22695 Z-1.37485
X179.17881 Y248.02771 Z-1.43321
X179.45848 Y247.85066 Z-1.49157
X179.75166 Y247.69701 Z-1.54994
X180.05638 Y247.56776 Z-1.6083
X180.37062 Y247.46378 Z-1.66667
G03 X182.60353 Y255.26553 I1.11645 J3.90087 F2400.
X180.37062 Y247.46378 I-1.11646 J-3.90088
G0 Z1.295
X177.897 Y253.25003
G1 Z-1.23 F600.
X177.78479 Y253.0249 Z-1.27435 F1800.
X177.66179 Y252.7176 Z-1.33272
X177.56424 Y252.4013 Z-1.39108
X177.49279 Y252.07811 Z-1.44945
X177.44793 Y251.75016 Z-1.50781
X177.42995 Y251.41965 Z-1.56617
X177.43897 Y251.08877 Z-1.62454
X177.47492 Y250.75973 Z-1.6829
X177.53758 Y250.43472 Z-1.74127
X177.62652 Y250.11589 Z-1.79963
X177.74115 Y249.80538 Z-1.85799
X177.88071 Y249.50524 Z-1.91636
X178.04427 Y249.21747 Z-1.97472
X178.23074 Y248.944 Z-2.03309
X178.43888 Y248.68663 Z-2.09145
X178.66731 Y248.44708 Z-2.14981
X178.9145 Y248.22695 Z-2.20818
X179.17881 Y248.02771 Z-2.26654
X179.45848 Y247.85066 Z-2.32491
X179.75166 Y247.69701 Z-2.38327
X180.05638 Y247.56776 Z-2.44164
X180.37062 Y247.46378 Z-2.5
G03 X182.60353 Y255.26553 I1.11645 J3.90087 F2400.
X180.37062 Y247.46378 I-1.11646 J-3.90088
G0 Z1.295
X156.33445 Y247.64219
G1 Z0.43667 F600.
Y254.84472 Z-0.83333 F1800.
G03 X153.87768 Y254.2517 I8.1063 J-38.96876 F2400.
G1 X152.1271 Y253.72893
X150.76921 Y253.26545
G03 X149.33252 Y251.2023 I1.0685 J-2.27586
X149.3432 Y250.65631 I2.74856 J-0.21933
G1 X149.34655 Y250.62196
G02 X145.2084 Y246.15851 I-4.13815 J-0.31345
G1 X143.72094
G02 X141.90543 Y246.57668 I-0.00003 J4.15001
G1 X141.89923 Y246.57973
X141.44046 Y246.8372
G03 X138.85671 Y246.79762 I-1.2582 J-2.21798
X131.09772 Y235.62107 I11.83427 J-16.4971
X132.29535 Y216.07247 I31.07066 J-7.90746
X138.85674 Y208.26025 I19.17667 J9.44474
X141.29516 Y208.14391 I1.32592 J2.17818
X141.62253 Y208.32862 I-1.63374 J3.2779
G1 X141.65199 Y208.34642
G02 X143.72131 Y208.89915 I2.06934 J-3.59729
G1 X145.20878
G02 X149.35721 Y204.86265 I-0.00002 J-4.15
G1 X149.35734 Y204.85734
X149.3284 Y204.21898
G03 X150.77149 Y201.79128 I2.50967 J-0.15093
G1 X152.82127 Y201.1115
X153.87805 Y200.80583
G03 X156.33445 Y200.2129 I10.55871 J38.35857
G1 Y212.15055
G02 X157.13445 Y212.95055 I0.8 J0.
G1 X158.33445
Y241.35055
G02 X156.73445 Y241.45773 I-0.6 J3.03923
G1 X156.56877 Y241.58486
X156.44163 Y241.75055
X156.36171 Y241.94349
X156.33445 Y242.15055
Y254.84472
G0 Z1.295
Y247.64219
G1 Z-0.39667 F600.
Y254.84472 Z-1.66667 F1800.
G03 X153.87768 Y254.2517 I8.1063 J-38.96876 F2400.
G1 X152.1271 Y253.72893
X150.76921 Y253.26545
G03 X149.33252 Y251.2023 I1.0685 J-2.27586
X149.3432 Y250.65631 I2.74856 J-0.21933
G1 X149.34655 Y250.62196
G02 X145.2084 Y246.15851 I-4.13815 J-0.31345
G1 X143.72094
G02 X141.90543 Y246.57668 I-0.00003 J4.15001
G1 X141.89923 Y246.57973
X141.44046 Y246.8372
G03 X138.85671 Y246.79762 I-1.2582 J-2.21798
X131.09772 Y235.62107 I11.83427 J-16.4971
X132.29535 Y216.07247 I31.07066 J-7.90746
X138.85674 Y208.26025 I19.17667 J9.44474
X141.29516 Y208.14391 I1.32592 J2.17818
X141.62253 Y208.32862 I-1.63374 J3.2779
G1 X141.65199 Y208.34642
G02 X143.72131 Y208.89915 I2.06934 J-3.59729
G1 X145.20878
G02 X149.35721 Y204.86265 I-0.00002 J-4.15
G1 X149.35734 Y204.85734
X149.3284 Y204.21898
G03 X150.77149 Y201.79128 I2.50967 J-0.15093
G1 X152.82127 Y201.1115
X153.87805 Y200.80583
G03 X156.33445 Y200.2129 I10.55871 J38.35857
G1 Y212.15055
G02 X157.13445 Y212.95055 I0.8 J0.
G1 X158.33445
Y241.35055
G02 X156.73445 Y241.45773 I-0.6 J3.03923
G1 X156.56877 Y241.58486
X156.44163 Y241.75055
X156.36171 Y241.94349
X156.33445 Y242.15055
Y254.84472
G0 Z1.295
Y247.64219
G1 Z-1.23 F600.
Y254.84472 Z-2.5 F1800.
G03 X153.87768 Y254.2517 I8.1063 J-38.96876 F2400.
G1 X152.1271 Y253.72893
X150.76921 Y253.26545
G03 X149.33252 Y251.2023 I1.0685 J-2.27586
X149.3432 Y250.65631 I2.74856 J-0.21933
G1 X149.34655 Y250.62196
G02 X145.2084 Y246.15851 I-4.13815 J-0.31345
G1 X143.72094
G02 X141.90543 Y246.57668 I-0.00003 J4.15001
G1 X141.89923 Y246.57973
X141.44046 Y246.8372
G03 X138.85671 Y246.79762 I-1.2582 J-2.21798
X131.09772 Y235.62107 I11.83427 J-16.4971
X132.29535 Y216.07247 I31.07066 J-7.90746
X138.85674 Y208.26025 I19.17667 J9.44474
X141.29516 Y208.14391 I1.32592 J2.17818
X141.62253 Y208.32862 I-1.63374 J3.2779
G1 X141.65199 Y208.34642
G02 X143.72131 Y208.89915 I2.06934 J-3.59729
G1 X145.20878
G02 X149.35721 Y204.86265 I-0.00002 J-4.15
G1 X149.35734 Y204.85734
X149.3284 Y204.21898
G03 X150.77149 Y201.79128 I2.50967 J-0.15093
G1 X152.82127 Y201.1115
X153.87805 Y200.80583
G03 X156.33445 Y200.2129 I10.55871 J38.35857
G1 Y212.15055
G02 X157.13445 Y212.95055 I0.8 J0.
G1 X158.33445
Y241.35055
G02 X156.73445 Y241.45773 I-0.6 J3.03923
G1 X156.56877 Y241.58486
X156.44163 Y241.75055
X156.36171 Y241.94349
X156.33445 Y242.15055
Y254.84472
G0 Z1.295
X127.02161 Y255.66932
G1 Z0.43667 F600.
X127.15135 Y255.56767 Z0.40761 F1800.
X127.34563 Y255.45023 Z0.36758
X127.55265 Y255.35705 Z0.32755
X127.76939 Y255.28951 Z0.28751
X127.9927 Y255.24859 Z0.24749
X128.21931 Y255.23488 Z0.20745
X128.44592 Y255.24859 Z0.16742
X128.66922 Y255.28951 Z0.12739
X128.88596 Y255.35705 Z0.08736
X129.09299 Y255.45023 Z0.04733
X129.28727 Y255.56767 Z0.0073
X129.46598 Y255.70768 Z-0.03273
X129.62651 Y255.86821 Z-0.07276
X129.76652 Y256.04692 Z-0.11279
X129.88396 Y256.2412 Z-0.15282
X129.97714 Y256.44823 Z-0.19285
X130.04468 Y256.66497 Z-0.23288
X130.0856 Y256.88828 Z-0.27291
X130.09931 Y257.11488 Z-0.31294
X130.0856 Y257.34149 Z-0.35297
X130.04468 Y257.5648 Z-0.393
X129.97714 Y257.78154 Z-0.43303
X129.88396 Y257.98856 Z-0.47306
X129.76652 Y258.18285 Z-0.51309
X129.62651 Y258.36156 Z-0.55312
X129.46598 Y258.52208 Z-0.59315
X129.28727 Y258.66209 Z-0.63318
X129.09299 Y258.77954 Z-0.67321
X128.88596 Y258.87272 Z-0.71324
X128.66922 Y258.94026 Z-0.75327
X128.44592 Y258.98118 Z-0.7933
X128.21931 Y258.99489 Z-0.83333
G03 Y255.23488 I0. J-1.88001 F2400.
Y258.99489 I0. J1.88
G0 Z1.295
X127.02161 Y255.66932
G1 Z-0.39667 F600.
X127.15135 Y255.56767 Z-0.42573 F1800.
X127.34563 Y255.45023 Z-0.46576
X127.55265 Y255.35705 Z-0.50579
X127.76939 Y255.28951 Z-0.54582
X127.9927 Y255.24859 Z-0.58585
X128.21931 Y255.23488 Z-0.62588
X128.44592 Y255.24859 Z-0.66591
X128.66922 Y255.28951 Z-0.70594
X128.88596 Y255.35705 Z-0.74597
X129.09299 Y255.45023 Z-0.786
X129.28727 Y255.56767 Z-0.82603
X129.46598 Y255.70768 Z-0.86606
X129.62651 Y255.86821 Z-0.90609
X129.76652 Y256.04692 Z-0.94612
X129.88396 Y256.2412 Z-0.98615
X129.97714 Y256.44823 Z-1.02618
X130.04468 Y256.66497 Z-1.06621
X130.0856 Y256.88828 Z-1.10624
X130.09931 Y257.11488 Z-1.14627
X130.0856 Y257.34149 Z-1.1863
X130.04468 Y257.5648 Z-1.22633
X129.97714 Y257.78154 Z-1.26636
X129.88396 Y257.98856 Z-1.30639
X129.76652 Y258.18285 Z-1.34642
X129.62651 Y258.36156 Z-1.38646
X129.46598 Y258.52208 Z-1.42649
X129.28727 Y258.66209 Z-1.46651
X129.09299 Y258.77954 Z-1.50655
X128.88596 Y258.87272 Z-1.54658
X128.66922 Y258.94026 Z-1.58661
X128.44592 Y258.98118 Z-1.62664
X128.21931 Y258.99489 Z-1.66667
G03 Y255.23488 I0. J-1.88001 F2400.
Y258.99489 I0. J1.88
G0 Z1.295
X127.02161 Y255.66932
G1 Z-1.23 F600.
X127.15135 Y255.56767 Z-1.25906 F1800.
X127.34563 Y255.45023 Z-1.29909
X127.55265 Y255.35705 Z-1.33912
X127.76939 Y255.28951 Z-1.37915
X127.9927 Y255.24859 Z-1.41918
X128.21931 Y255.23488 Z-1.45921
X128.44592 Y255.24859 Z-1.49924
X128.66922 Y255.28951 Z-1.53927
X128.88596 Y255.35705 Z-1.5793
X129.09299 Y255.45023 Z-1.61933
X129.28727 Y255.56767 Z-1.65936
X129.46598 Y255.70768 Z-1.69939
X129.62651 Y255.86821 Z-1.73942
X129.76652 Y256.04692 Z-1.77945
X129.88396 Y256.2412 Z-1.81949
X129.97714 Y256.44823 Z-1.85952
X130.04468 Y256.66497 Z-1.89955
X130.0856 Y256.88828 Z-1.93958
X130.09931 Y257.11488 Z-1.97961
X130.0856 Y257.34149 Z-2.01964
X130.04468 Y257.5648 Z-2.05967
X129.97714 Y257.78154 Z-2.0997
X129.88396 Y257.98856 Z-2.13973
X129.76652 Y258.18285 Z-2.17976
X129.62651 Y258.36156 Z-2.21979
X129.46598 Y258.52208 Z-2.25982
X129.28727 Y258.66209 Z-2.29985
X129.09299 Y258.77954 Z-2.33988
X128.88596 Y258.87272 Z-2.37991
X128.66922 Y258.94026 Z-2.41994
X128.44592 Y258.98118 Z-2.45997
X128.21931 Y258.99489 Z-2.5
G03 Y255.23488 I0. J-1.88001 F2400.
Y258.99489 I0. J1.88
G0 Z1.295
X127.02161 Y265.28804
G1 Z0.43667 F600.
X127.15135 Y265.1864 Z0.40761 F1800.
X127.34563 Y265.06895 Z0.36758
X127.55265 Y264.97578 Z0.32755
X127.76939 Y264.90823 Z0.28751
X127.9927 Y264.86731 Z0.24749
X128.21931 Y264.85361 Z0.20745
X128.44592 Y264.86731 Z0.16742
X128.66922 Y264.90823 Z0.12739
X128.88596 Y264.97578 Z0.08736
X129.09299 Y265.06895 Z0.04733
X129.28727 Y265.1864 Z0.0073
X129.46598 Y265.32641 Z-0.03273
X129.62651 Y265.48694 Z-0.07276
X129.76652 Y265.66564 Z-0.11279
X129.88396 Y265.85993 Z-0.15282
X129.97714 Y266.06695 Z-0.19285
X130.04468 Y266.28369 Z-0.23288
X130.0856 Y266.507 Z-0.27291
X130.09931 Y266.73361 Z-0.31294
X130.0856 Y266.96022 Z-0.35297
X130.04468 Y267.18352 Z-0.393
X129.97714 Y267.40026 Z-0.43303
X129.88396 Y267.60729 Z-0.47306
X129.76652 Y267.80157 Z-0.51309
X129.62651 Y267.98028 Z-0.55312
X129.46598 Y268.14081 Z-0.59315
X129.28727 Y268.28082 Z-0.63318
X129.09299 Y268.39826 Z-0.67321
X128.88596 Y268.49144 Z-0.71324
X128.66922 Y268.55898 Z-0.75327
X128.44592 Y268.5999 Z-0.7933
X128.21931 Y268.61361 Z-0.83333
G03 Y264.85361 I0. J-1.88 F2400.
Y268.61361 I0. J1.88
G0 Z1.295
X127.02161 Y265.28804
G1 Z-0.39667 F600.
X127.15135 Y265.1864 Z-0.42573 F1800.
X127.34563 Y265.06895 Z-0.46576
X127.55265 Y264.97578 Z-0.50579
X127.76939 Y264.90823 Z-0.54582
X127.9927 Y264.86731 Z-0.58585
X128.21931 Y264.85361 Z-0.62588
X128.44592 Y264.86731 Z-0.66591
X128.66922 Y264.90823 Z-0.70594
X128.88596 Y264.97578 Z-0.74597
X129.09299 Y265.06895 Z-0.786
X129.28727 Y265.1864 Z-0.82603
X129.46598 Y265.32641 Z-0.86606
X129.62651 Y265.48694 Z-0.90609
X129.76652 Y265.66564 Z-0.94612
X129.88396 Y265.85993 Z-0.98615
X129.97714 Y266.06695 Z-1.02618
X130.04468 Y266.28369 Z-1.06621
X130.0856 Y266.507 Z-1.10624
X130.09931 Y266.73361 Z-1.14627
X130.0856 Y266.96022 Z-1.1863
X130.04468 Y267.18352 Z-1.22633
X129.97714 Y267.40026 Z-1.26636
X129.88396 Y267.60729 Z-1.30639
X129.76652 Y267.80157 Z-1.34642
X129.62651 Y267.98028 Z-1.38646
X129.46598 Y268.14081 Z-1.42649
X129.28727 Y268.28082 Z-1.46651
X129.09299 Y268.39826 Z-1.50655
X128.88596 Y268.49144 Z-1.54658
X128.66922 Y268.55898 Z-1.58661
X128.44592 Y268.5999 Z-1.62664
X128.21931 Y268.61361 Z-1.66667
G03 Y264.85361 I0. J-1.88 F2400.
Y268.61361 I0. J1.88
G0 Z1.295
X127.02161 Y265.28804
G1 Z-1.23 F600.
X127.15135 Y265.1864 Z-1.25906 F1800.
X127.34563 Y265.06895 Z-1.29909
X127.55265 Y264.97578 Z-1.33912
X127.76939 Y264.90823 Z-1.37915
X127.9927 Y264.86731 Z-1.41918
X128.21931 Y264.85361 Z-1.45921
X128.44592 Y264.86731 Z-1.49924
X128.66922 Y264.90823 Z-1.53927
X128.88596 Y264.97578 Z-1.5793
X129.09299 Y265.06895 Z-1.61933
X129.28727 Y265.1864 Z-1.65936
X129.46598 Y265.32641 Z-1.69939
X129.62651 Y265.48694 Z-1.73942
X129.76652 Y265.66564 Z-1.77945
X129.88396 Y265.85993 Z-1.81949
X129.97714 Y266.06695 Z-1.85952
X130.04468 Y266.28369 Z-1.89955
X130.0856 Y266.507 Z-1.93958
X130.09931 Y266.73361 Z-1.97961
X130.0856 Y266.96022 Z-2.01964
X130.04468 Y267.18352 Z-2.05967
X129.97714 Y267.40026 Z-2.0997
X129.88396 Y267.60729 Z-2.13973
X129.76652 Y267.80157 Z-2.17976
X129.62651 Y267.98028 Z-2.21979
X129.46598 Y268.14081 Z-2.25982
X129.28727 Y268.28082 Z-2.29985
X129.09299 Y268.39826 Z-2.33988
X128.88596 Y268.49144 Z-2.37991
X128.66922 Y268.55898 Z-2.41994
X128.44592 Y268.5999 Z-2.45997
X128.21931 Y268.61361 Z-2.5
G03 Y264.85361 I0. J-1.88 F2400.
Y268.61361 I0. J1.88
G0 Z1.295
X127.02161 Y274.90676
G1 Z0.43667 F600.
X127.15135 Y274.80512 Z0.40761 F1800.
X127.34563 Y274.68767 Z0.36758
X127.55265 Y274.5945 Z0.32755
X127.76939 Y274.52696 Z0.28751
X127.9927 Y274.48603 Z0.24749
X128.21931 Y274.47233 Z0.20745
X128.44592 Y274.48603 Z0.16742
X128.66922 Y274.52696 Z0.12739
X128.88596 Y274.5945 Z0.08736
X129.09299 Y274.68767 Z0.04733
X129.28727 Y274.80512 Z0.0073
X129.46598 Y274.94513 Z-0.03273
X129.62651 Y275.10566 Z-0.07276
X129.76652 Y275.28437 Z-0.11279
X129.88396 Y275.47865 Z-0.15282
X129.97714 Y275.68567 Z-0.19285
X130.04468 Y275.90241 Z-0.23288
X130.0856 Y276.12572 Z-0.27291
X130.09931 Y276.35233 Z-0.31294
X130.0856 Y276.57894 Z-0.35297
X130.04468 Y276.80224 Z-0.393
X129.97714 Y277.01898 Z-0.43303
X129.88396 Y277.22601 Z-0.47306
X129.76652 Y277.42029 Z-0.51309
X129.62651 Y277.599 Z-0.55312
X129.46598 Y277.75953 Z-0.59315
X129.28727 Y277.89954 Z-0.63318
X129.09299 Y278.01698 Z-0.67321
X128.88596 Y278.11016 Z-0.71324
X128.66922 Y278.1777 Z-0.75327
X128.44592 Y278.21862 Z-0.7933
X128.21931 Y278.23233 Z-0.83333
G03 Y274.47233 I0. J-1.88 F2400.
Y278.23233 I0. J1.88
G0 Z1.295
X127.02161 Y274.90676
G1 Z-0.39667 F600.
X127.15135 Y274.80512 Z-0.42573 F1800.
X127.34563 Y274.68767 Z-0.46576
X127.55265 Y274.5945 Z-0.50579
X127.76939 Y274.52696 Z-0.54582
X127.9927 Y274.48603 Z-0.58585
X128.21931 Y274.47233 Z-0.62588
X128.44592 Y274.48603 Z-0.66591
X128.66922 Y274.52696 Z-0.70594
X128.88596 Y274.5945 Z-0.74597
X129.09299 Y274.68767 Z-0.786
X129.28727 Y274.80512 Z-0.82603
X129.46598 Y274.94513 Z-0.86606
X129.62651 Y275.10566 Z-0.90609
X129.76652 Y275.28437 Z-0.94612
X129.88396 Y275.47865 Z-0.98615
X129.97714 Y275.68567 Z-1.02618
X130.04468 Y275.90241 Z-1.06621
X130.0856 Y276.12572 Z-1.10624
X130.09931 Y276.35233 Z-1.14627
X130.0856 Y276.57894 Z-1.1863
X130.04468 Y276.80224 Z-1.22633
X129.97714 Y277.01898 Z-1.26636
X129.88396 Y277.22601 Z-1.30639
X129.76652 Y277.42029 Z-1.34642
X129.62651 Y277.599 Z-1.38646
X129.46598 Y277.75953 Z-1.42649
X129.28727 Y277.89954 Z-1.46651
X129.09299 Y278.01698 Z-1.50655
X128.88596 Y278.11016 Z-1.54658
X128.66922 Y278.1777 Z-1.58661
X128.44592 Y278.21862 Z-1.62664
X128.21931 Y278.23233 Z-1.66667
G03 Y274.47233 I0. J-1.88 F2400.
Y278.23233 I0. J1.88
G0 Z1.295
X127.02161 Y274.90676
G1 Z-1.23 F600.
X127.15135 Y274.80512 Z-1.25906 F1800.
X127.34563 Y274.68767 Z-1.29909
X127.55265 Y274.5945 Z-1.33912
X127.76939 Y274.52696 Z-1.37915
X127.9927 Y274.48603 Z-1.41918
X128.21931 Y274.47233 Z-1.45921
X128.44592 Y274.48603 Z-1.49924
X128.66922 Y274.52696 Z-1.53927
X128.88596 Y274.5945 Z-1.5793
X129.09299 Y274.68767 Z-1.61933
X129.28727 Y274.80512 Z-1.65936
X129.46598 Y274.94513 Z-1.69939
X129.62651 Y275.10566 Z-1.73942
X129.76652 Y275.28437 Z-1.77945
X129.88396 Y275.47865 Z-1.81949
X129.97714 Y275.68567 Z-1.85952
X130.04468 Y275.90241 Z-1.89955
X130.0856 Y276.12572 Z-1.93958
X130.09931 Y276.35233 Z-1.97961
X130.0856 Y276.57894 Z-2.01964
X130.04468 Y276.80224 Z-2.05967
X129.97714 Y277.01898 Z-2.0997
X129.88396 Y277.22601 Z-2.13973
X129.76652 Y277.42029 Z-2.17976
X129.62651 Y277.599 Z-2.21979
X129.46598 Y277.75953 Z-2.25982
X129.28727 Y277.89954 Z-2.29985
X129.09299 Y278.01698 Z-2.33988
X128.88596 Y278.11016 Z-2.37991
X128.66922 Y278.1777 Z-2.41994
X128.44592 Y278.21862 Z-2.45997
X128.21931 Y278.23233 Z-2.5
G03 Y274.47233 I0. J-1.88 F2400.
Y278.23233 I0. J1.88
G0 Z1.295
X151.02671 Y286.13721
G1 Z0.43667 F600.
X151.03885 Y286.21239 Z0.42324 F1800.
X151.05336 Y286.484 Z0.37528
Y292.81627 Z-0.74127
X151.08062 Y293.02333 Z-0.7781
X151.16054 Y293.21627 Z-0.81492
X151.2241 Y293.29911 Z-0.83333
X151.28767 Y293.38196 F2400.
X151.45336 Y293.50909
X151.6463 Y293.58901
X151.85336 Y293.61627
X153.06336
Y325.51627
G02 X151.45336 Y325.62345 I-0.605 J3.05789
G1 X151.28767 Y325.75059
X151.16054 Y325.91627
X151.08062 Y326.10922
X151.05336 Y326.31627
Y332.64861
G03 X148.15643 Y335.1749 I-2.55 J0.
X131.48934 Y327.41527 I8.37325 J-39.76476
X124.21522 Y313.45975 I13.06283 J-15.68234
X124.8398 Y301.81337 I36.29615 J-3.89341
X138.97365 Y287.0737 I22.74169 J7.66068
X148.15596 Y283.95777 I23.34995 J53.7222
X151.05336 Y286.484 I0.3474 J2.52623
G1 Y292.81627
X151.08062 Y293.02333
X151.16054 Y293.21627
X151.2241 Y293.29911
G0 Z1.295
X151.02671 Y286.13721
G1 Z-0.39667 F600.
X151.03885 Y286.21239 Z-0.4101 F1800.
X151.05336 Y286.484 Z-0.45805
Y292.81627 Z-1.57461
X151.08062 Y293.02333 Z-1.61143
X151.16054 Y293.21627 Z-1.64825
X151.2241 Y293.29911 Z-1.66667
X151.28767 Y293.38196 F2400.
X151.45336 Y293.50909
X151.6463 Y293.58901
X151.85336 Y293.61627
X153.06336
Y325.51627
G02 X151.45336 Y325.62345 I-0.605 J3.05789
G1 X151.28767 Y325.75059
X151.16054 Y325.91627
X151.08062 Y326.10922
X151.05336 Y326.31627
Y332.64861
G03 X148.15643 Y335.1749 I-2.55 J0.
X131.48934 Y327.41527 I8.37325 J-39.76476
X124.21522 Y313.45975 I13.06283 J-15.68234
X124.8398 Y301.81337 I36.29615 J-3.89341
X138.97365 Y287.0737 I22.74169 J7.66068
X148.15596 Y283.95777 I23.34995 J53.7222
X151.05336 Y286.484 I0.3474 J2.52623
G1 Y292.81627
X151.08062 Y293.02333
X151.16054 Y293.21627
X151.2241 Y293.29911
G0 Z1.295
X151.02671 Y286.13721
G1 Z-1.23 F600.
X151.03885 Y286.21239 Z-1.24343 F1800.
X151.05336 Y286.484 Z-1.29139
Y292.81627 Z-2.40794
X151.08062 Y293.02333 Z-2.44476
X151.16054 Y293.21627 Z-2.48159
X151.2241 Y293.29911 Z-2.5
X151.28767 Y293.38196 F2400.
X151.45336 Y293.50909
X151.6463 Y293.58901
X151.85336 Y293.61627
X153.06336
Y325.51627
G02 X151.45336 Y325.62345 I-0.605 J3.05789
G1 X151.28767 Y325.75059
X151.16054 Y325.91627
X151.08062 Y326.10922
X151.05336 Y326.31627
Y332.64861
G03 X148.15643 Y335.1749 I-2.55 J0.
X131.48934 Y327.41527 I8.37325 J-39.76476
X124.21522 Y313.45975 I13.06283 J-15.68234
X124.8398 Y301.81337 I36.29615 J-3.89341
X138.97365 Y287.0737 I22.74169 J7.66068
X148.15596 Y283.95777 I23.34995 J53.7222
X151.05336 Y286.484 I0.3474 J2.52623
G1 Y292.81627
X151.08062 Y293.02333
X151.16054 Y293.21627
X151.2241 Y293.29911
G0 Z1.295
X166.40836 Y285.05035
G1 Z0.43667 F600.
X166.45429 Y285.29766 Z0.39231 F1800.
X166.48799 Y285.62694 Z0.33395
X166.49474 Y285.95787 Z0.27559
X166.47449 Y286.28825 Z0.21722
X166.42739 Y286.61588 Z0.15886
X166.35373 Y286.93858 Z0.10049
X166.25402 Y287.25421 Z0.04213
X166.12892 Y287.56065 Z-0.01624
X165.97925 Y287.85588 Z-0.0746
X165.80601 Y288.13793 Z-0.13296
X165.61037 Y288.40492 Z-0.19133
X165.39361 Y288.65507 Z-0.24969
X165.15718 Y288.88672 Z-0.30806
X164.90266 Y289.09833 Z-0.36642
X164.63173 Y289.28849 Z-0.42478
X164.34621 Y289.45594 Z-0.48315
X164.04799 Y289.59955 Z-0.54151
X163.73906 Y289.71838 Z-0.59988
X163.42147 Y289.81163 Z-0.65824
X163.09733 Y289.87869 Z-0.71661
X162.76881 Y289.9191 Z-0.77497
X162.43808 Y289.9326 Z-0.83333
G03 Y281.8176 I0. J-4.05749 F2400.
Y289.9326 I0. J4.05751
G0 Z1.295
X166.40836 Y285.05035
G1 Z-0.39667 F600.
X166.45429 Y285.29766 Z-0.44102 F1800.
X166.48799 Y285.62694 Z-0.49938
X166.49474 Y285.95787 Z-0.55775
X166.47449 Y286.28825 Z-0.61611
X166.42739 Y286.61588 Z-0.67448
X166.35373 Y286.93858 Z-0.73284
X166.25402 Y287.25421 Z-0.79121
X166.12892 Y287.56065 Z-0.84957
X165.97925 Y287.85588 Z-0.90793
X165.80601 Y288.13793 Z-0.9663
X165.61037 Y288.40492 Z-1.02466
X165.39361 Y288.65507 Z-1.08302
X165.15718 Y288.88672 Z-1.14139
X164.90266 Y289.09833 Z-1.19975
X164.63173 Y289.28849 Z-1.25812
X164.34621 Y289.45594 Z-1.31648
X164.04799 Y289.59955 Z-1.37485
X163.73906 Y289.71838 Z-1.43321
X163.42147 Y289.81163 Z-1.49157
X163.09733 Y289.87869 Z-1.54994
X162.76881 Y289.9191 Z-1.6083
X162.43808 Y289.9326 Z-1.66667
G03 Y281.8176 I0. J-4.05749 F2400.
Y289.9326 I0. J4.05751
G0 Z1.295
X166.40836 Y285.05035
G1 Z-1.23 F600.
X166.45429 Y285.29766 Z-1.27435 F1800.
X166.48799 Y285.62694 Z-1.33272
X166.49474 Y285.95787 Z-1.39108
X166.47449 Y286.28825 Z-1.44945
X166.42739 Y286.61588 Z-1.50781
X166.35373 Y286.93858 Z-1.56617
X166.25402 Y287.25421 Z-1.62454
X166.12892 Y287.56065 Z-1.6829
X165.97925 Y287.85588 Z-1.74127
X165.80601 Y288.13793 Z-1.79963
X165.61037 Y288.40492 Z-1.85799
X165.39361 Y288.65507 Z-1.91636
X165.15718 Y288.88672 Z-1.97472
X164.90266 Y289.09833 Z-2.03309
X164.63173 Y289.28849 Z-2.09145
X164.34621 Y289.45594 Z-2.14981
X164.04799 Y289.59955 Z-2.20818
X163.73906 Y289.71838 Z-2.26654
X163.42147 Y289.81163 Z-2.32491
X163.09733 Y289.87869 Z-2.38327
X162.76881 Y289.9191 Z-2.44164
X162.43808 Y289.9326 Z-2.5
G03 Y281.8176 I0. J-4.05749 F2400.
Y289.9326 I0. J4.05751
G0 Z1.295
X179.55611 Y285.05035
G1 Z0.43667 F600.
X179.60203 Y285.29766 Z0.39231 F1800.
X179.63573 Y285.62694 Z0.33395
X179.64248 Y285.95787 Z0.27559
X179.62224 Y286.28825 Z0.21722
X179.57513 Y286.61588 Z0.15886
X179.50148 Y286.93858 Z0.10049
X179.40177 Y287.25421 Z0.04213
X179.27666 Y287.56065 Z-0.01624
X179.12699 Y287.85588 Z-0.0746
X178.95376 Y288.13793 Z-0.13296
X178.75811 Y288.40492 Z-0.19133
X178.54135 Y288.65507 Z-0.24969
X178.30492 Y288.88672 Z-0.30806
X178.0504 Y289.09833 Z-0.36642
X177.77948 Y289.28849 Z-0.42478
X177.49396 Y289.45594 Z-0.48315
X177.19574 Y289.59955 Z-0.54151
X176.8868 Y289.71838 Z-0.59988
X176.56921 Y289.81163 Z-0.65824
X176.24508 Y289.87869 Z-0.71661
X175.91655 Y289.9191 Z-0.77497
X175.58583 Y289.9326 Z-0.83333
G03 Y281.8176 I0. J-4.05749 F2400.
Y289.9326 I0. J4.05751
G0 Z1.295
X179.55611 Y285.05035
G1 Z-0.39667 F600.
X179.60203 Y285.29766 Z-0.44102 F1800.
X179.63573 Y285.62694 Z-0.49938
X179.64248 Y285.95787 Z-0.55775
X179.62224 Y286.28825 Z-0.61611
X179.57513 Y286.61588 Z-0.67448
X179.50148 Y286.93858 Z-0.73284
X179.40177 Y287.25421 Z-0.79121
X179.27666 Y287.56065 Z-0.84957
X179.12699 Y287.85588 Z-0.90793
X178.95376 Y288.13793 Z-0.9663
X178.75811 Y288.40492 Z-1.02466
X178.54135 Y288.65507 Z-1.08302
X178.30492 Y288.88672 Z-1.14139
X178.0504 Y289.09833 Z-1.19975
X177.77948 Y289.28849 Z-1.25812
X177.49396 Y289.45594 Z-1.31648
X177.19574 Y289.59955 Z-1.37485
X176.8868 Y289.71838 Z-1.43321
X176.56921 Y289.81163 Z-1.49157
X176.24508 Y289.87869 Z-1.54994
X175.91655 Y289.9191 Z-1.6083
X175.58583 Y289.9326 Z-1.66667
G03 Y281.8176 I0. J-4.05749 F2400.
Y289.9326 I0. J4.05751
G0 Z1.295
X179.55611 Y285.05035
G1 Z-1.23 F600.
X179.60203 Y285.29766 Z-1.27435 F1800.
X179.63573 Y285.62694 Z-1.33272
X179.64248 Y285.95787 Z-1.39108
X179.62224 Y286.28825 Z-1.44945
X179.57513 Y286.61588 Z-1.50781
X179.50148 Y286.93858 Z-1.56617
X179.40177 Y287.25421 Z-1.62454
X179.27666 Y287.56065 Z-1.6829
X179.12699 Y287.85588 Z-1.74127
X178.95376 Y288.13793 Z-1.79963
X178.75811 Y288.40492 Z-1.85799
X178.54135 Y288.65507 Z-1.91636
X178.30492 Y288.88672 Z-1.97472
X178.0504 Y289.09833 Z-2.03309
X177.77948 Y289.28849 Z-2.09145
X177.49396 Y289.45594 Z-2.14981
X177.19574 Y289.59955 Z-2.20818
X176.8868 Y289.71838 Z-2.26654
X176.56921 Y289.81163 Z-2.32491
X176.24508 Y289.87869 Z-2.38327
X175.91655 Y289.9191 Z-2.44164
X175.58583 Y289.9326 Z-2.5
G03 Y281.8176 I0. J-4.05749 F2400.
Y289.9326 I0. J4.05751
G0 Z1.295
X190.49111 Y302.44028
G1 Z0.43667 F600.
X190.51098 Y302.51296 Z0.42338 F1800.
X190.51132 Y302.51419 Z0.42316
X190.54979 Y302.65812 Z0.39689
X190.58731 Y302.8023 Z0.37062
X190.62388 Y302.94672 Z0.34435
X190.6595 Y303.09138 Z0.31808
X190.69416 Y303.23628 Z0.29181
X190.72787 Y303.38139 Z0.26554
X190.76062 Y303.52673 Z0.23927
X190.79241 Y303.67228 Z0.213
X190.82324 Y303.81804 Z0.18673
X190.85311 Y303.964 Z0.16046
X190.88202 Y304.11015 Z0.13419
X190.90997 Y304.25648 Z0.10792
X190.93694 Y304.403 Z0.08165
X190.96296 Y304.5497 Z0.05538
X190.988 Y304.69656 Z0.02911
X190.98813 Y304.69735 Z0.02897
X191.01423 Y304.85535 Z0.00073
X191.03943 Y305.0135 Z-0.0275
X191.0637 Y305.17179 Z-0.05574
X191.08707 Y305.33021 Z-0.08398
X191.10951 Y305.48877 Z-0.11221
X191.13105 Y305.64746 Z-0.14045
X191.15167 Y305.80626 Z-0.16869
X191.17137 Y305.96519 Z-0.19692
X191.19015 Y306.12422 Z-0.22516
X191.20801 Y306.28336 Z-0.2534
X191.22496 Y306.4426 Z-0.28164
X191.24098 Y306.60194 Z-0.30987
X191.25609 Y306.76136 Z-0.33811
X191.27028 Y306.92087 Z-0.36635
X191.28354 Y307.08046 Z-0.39458
X191.28359 Y307.08105 Z-0.39469
X191.29653 Y307.24639 Z-0.42393
X191.30857 Y307.4118 Z-0.45317
X191.31971 Y307.57727 Z-0.48242
X191.32997 Y307.7428 Z-0.51166
X191.33932 Y307.90838 Z-0.5409
X191.34778 Y308.07401 Z-0.57015
X191.35535 Y308.23968 Z-0.59939
X191.36202 Y308.40539 Z-0.62863
X191.36779 Y308.57114 Z-0.65788
X191.37267 Y308.73691 Z-0.68712
X191.37665 Y308.90271 Z-0.71636
X191.37973 Y309.06853 Z-0.7456
X191.38192 Y309.23436 Z-0.77485
X191.38321 Y309.4002 Z-0.80409
X191.38361 Y309.56604 Z-0.83333
G03 Y309.56657 I-30.67284 J-0.01 F2400.
X191.28359 Y312.05156 I-30.6725 J0.01001
G1 X191.28354 Y312.05215
G03 X190.98813 Y314.43526 I-27.65852 J-2.21869
G1 X190.988 Y314.43605
G03 X190.51132 Y316.61842 I-22.29304 J-3.72608
G1 X190.51098 Y316.61966
G03 X189.87763 Y318.50821 I-15.85571 J-4.26696
G1 X189.87681 Y318.51025
G03 X189.1248 Y320.02052 I-9.73903 J-3.90701
G1 X189.1229 Y320.02369
G03 X188.31091 Y321.08578 I-5.00871 J-2.9878
G1 X188.30816 Y321.08864
G03 X187.52529 Y321.67032 I-2.09437 J-2.00115
X186.8427 Y321.83614 I-0.70648 J-1.42035
X186.16011 Y321.67032 I0.02389 J-1.58617
X185.37724 Y321.08864 I1.3115 J-2.58283
G1 X185.37449 Y321.08578
G03 X184.5625 Y320.02369 I4.19672 J-4.04989
G1 X184.5606 Y320.02052
G03 X183.80859 Y318.51025 I8.98702 J-5.41728
G1 X183.80777 Y318.50821
G03 X183.17442 Y316.61966 I15.22236 J-6.15551
G1 X183.17408 Y316.61842
G03 X182.6974 Y314.43605 I21.81636 J-5.90845
G1 X182.69727 Y314.43526
G03 X182.40186 Y312.05215 I27.36311 J-4.6018
G1 X182.40181 Y312.05156
G03 X182.30179 Y309.56657 I30.57248 J-2.47498
G1 Y309.56604
G03 X182.40181 Y307.08105 I30.6725 J-0.01001
G1 X182.40186 Y307.08046
G03 X182.69727 Y304.69735 I27.65852 J2.21869
G1 X182.6974 Y304.69656
G03 X183.17408 Y302.51419 I22.29304 J3.72608
G1 X183.17442 Y302.51296
G03 X183.80777 Y300.6244 I15.85571 J4.26695
G1 X183.80859 Y300.62236
G03 X184.5606 Y299.11209 I9.73903 J3.90701
G1 X184.5625 Y299.10893
G03 X185.37449 Y298.04683 I5.00871 J2.98779
G1 X185.37724 Y298.04397
G03 X186.16011 Y297.46229 I2.09437 J2.00115
X186.8427 Y297.29647 I0.70648 J1.42035
X187.52529 Y297.46229 I-0.02389 J1.58617
X188.30816 Y298.04397 I-1.3115 J2.58283
G1 X188.31091 Y298.04683
G03 X189.1229 Y299.10893 I-4.19672 J4.04989
G1 X189.1248 Y299.11209
G03 X189.87681 Y300.62236 I-8.98702 J5.41728
G1 X189.87763 Y300.6244
G03 X190.51098 Y302.51296 I-15.22236 J6.15551
G1 X190.51132 Y302.51419
G03 X190.988 Y304.69656 I-21.81636 J5.90845
G1 X190.98813 Y304.69735
G03 X191.28354 Y307.08046 I-27.36311 J4.6018
G1 X191.28359 Y307.08105
G03 X191.38361 Y309.56604 I-30.57258 J2.47499
G0 Z1.295
X190.49111 Y302.44028
G1 Z-0.39667 F600.
X190.51098 Y302.51296 Z-0.40995 F1800.
X190.51132 Y302.51419 Z-0.41018
X190.54979 Y302.65812 Z-0.43645
X190.58731 Y302.8023 Z-0.46272
X190.62388 Y302.94672 Z-0.48899
X190.6595 Y303.09138 Z-0.51526
X190.69416 Y303.23628 Z-0.54153
X190.72787 Y303.38139 Z-0.5678
X190.76062 Y303.52673 Z-0.59406
X190.79241 Y303.67228 Z-0.62033
X190.82324 Y303.81804 Z-0.6466
X190.85311 Y303.964 Z-0.67287
X190.88202 Y304.11015 Z-0.69914
X190.90997 Y304.25648 Z-0.72541
X190.93694 Y304.403 Z-0.75168
X190.96296 Y304.5497 Z-0.77795
X190.988 Y304.69656 Z-0.80422
X190.98813 Y304.69735 Z-0.80436
X191.01423 Y304.85535 Z-0.8326
X191.03943 Y305.0135 Z-0.86084
X191.0637 Y305.17179 Z-0.88907
X191.08707 Y305.33021 Z-0.91731
X191.10951 Y305.48877 Z-0.94555
X191.13105 Y305.64746 Z-0.97378
X191.15167 Y305.80626 Z-1.00202
X191.17137 Y305.96519 Z-1.03026
X191.19015 Y306.12422 Z-1.05849
X191.20801 Y306.28336 Z-1.08673
X191.22496 Y306.4426 Z-1.11497
X191.24098 Y306.60194 Z-1.14321
X191.25609 Y306.76136 Z-1.17144
X191.27028 Y306.92087 Z-1.19968
X191.28354 Y307.08046 Z-1.22792
X191.28359 Y307.08105 Z-1.22802
X191.29653 Y307.24639 Z-1.25726
X191.30857 Y307.4118 Z-1.28651
X191.31971 Y307.57727 Z-1.31575
X191.32997 Y307.7428 Z-1.34499
X191.33932 Y307.90838 Z-1.37424
X191.34778 Y308.07401 Z-1.40348
X191.35535 Y308.23968 Z-1.43272
X191.36202 Y308.40539 Z-1.46197
X191.36779 Y308.57114 Z-1.49121
X191.37267 Y308.73691 Z-1.52045
X191.37665 Y308.90271 Z-1.54969
X191.37973 Y309.06853 Z-1.57894
X191.38192 Y309.23436 Z-1.60818
X191.38321 Y309.4002 Z-1.63742
X191.38361 Y309.56604 Z-1.66667
G03 Y309.56657 I-30.67284 J-0.01 F2400.
X191.28359 Y312.05156 I-30.6725 J0.01001
G1 X191.28354 Y312.05215
G03 X190.98813 Y314.43526 I-27.65852 J-2.21869
G1 X190.988 Y314.43605
G03 X190.51132 Y316.61842 I-22.29304 J-3.72608
G1 X190.51098 Y316.61966
G03 X189.87763 Y318.50821 I-15.85571 J-4.26696
G1 X189.87681 Y318.51025
G03 X189.1248 Y320.02052 I-9.73903 J-3.90701
G1 X189.1229 Y320.02369
G03 X188.31091 Y321.08578 I-5.00871 J-2.9878
G1 X188.30816 Y321.08864
G03 X187.52529 Y321.67032 I-2.09437 J-2.00115
X186.8427 Y321.83614 I-0.70648 J-1.42035
X186.16011 Y321.67032 I0.02389 J-1.58617
X185.37724 Y321.08864 I1.3115 J-2.58283
G1 X185.37449 Y321.08578
G03 X184.5625 Y320.02369 I4.19672 J-4.04989
G1 X184.5606 Y320.02052
G03 X183.80859 Y318.51025 I8.98702 J-5.41728
G1 X183.80777 Y318.50821
G03 X183.17442 Y316.61966 I15.22236 J-6.15551
G1 X183.17408 Y316.61842
G03 X182.6974 Y314.43605 I21.81636 J-5.90845
G1 X182.69727 Y314.43526
G03 X182.40186 Y312.05215 I27.36311 J-4.6018
G1 X182.40181 Y312.05156
G03 X182.30179 Y309.56657 I30.57248 J-2.47498
G1 Y309.56604
G03 X182.40181 Y307.08105 I30.6725 J-0.01001
G1 X182.40186 Y307.08046
G03 X182.69727 Y304.69735 I27.65852 J2.21869
G1 X182.6974 Y304.69656
G03 X183.17408 Y302.51419 I22.29304 J3.72608
G1 X183.17442 Y302.51296
G03 X183.80777 Y300.6244 I15.85571 J4.26695
G1 X183.80859 Y300.62236
G03 X184.5606 Y299.11209 I9.73903 J3.90701
G1 X184.5625 Y299.10893
G03 X185.37449 Y298.04683 I5.00871 J2.98779
G1 X185.37724 Y298.04397
G03 X186.16011 Y297.46229 I2.09437 J2.00115
X186.8427 Y297.29647 I0.70648 J1.42035
X187.52529 Y297.46229 I-0.02389 J1.58617
X188.30816 Y298.04397 I-1.3115 J2.58283
G1 X188.31091 Y298.04683
G03 X189.1229 Y299.10893 I-4.19672 J4.04989
G1 X189.1248 Y299.11209
G03 X189.87681 Y300.62236 I-8.98702 J5.41728
G1 X189.87763 Y300.6244
G03 X190.51098 Y302.51296 I-15.22236 J6.15551
G1 X190.51132 Y302.51419
G03 X190.988 Y304.69656 I-21.81636 J5.90845
G1 X190.98813 Y304.69735
G03 X191.28354 Y307.08046 I-27.36311 J4.6018
G1 X191.28359 Y307.08105
G03 X191.38361 Y309.56604 I-30.57258 J2.47499
G0 Z1.295
X190.49111 Y302.44028
G1 Z-1.23 F600.
X190.51098 Y302.51296 Z-1.24329 F1800.
X190.51132 Y302.51419 Z-1.24351
X190.54979 Y302.65812 Z-1.26978
X190.58731 Y302.8023 Z-1.29605
X190.62388 Y302.94672 Z-1.32232
X190.6595 Y303.09138 Z-1.34859
X190.69416 Y303.23628 Z-1.37486
X190.72787 Y303.38139 Z-1.40113
X190.76062 Y303.52673 Z-1.4274
X190.79241 Y303.67228 Z-1.45367
X190.82324 Y303.81804 Z-1.47994
X190.85311 Y303.964 Z-1.50621
X190.88202 Y304.11015 Z-1.53248
X190.90997 Y304.25648 Z-1.55875
X190.93694 Y304.403 Z-1.58502
X190.96296 Y304.5497 Z-1.61128
X190.988 Y304.69656 Z-1.63755
X190.98813 Y304.69735 Z-1.6377
X191.01423 Y304.85535 Z-1.66593
X191.03943 Y305.0135 Z-1.69417
X191.0637 Y305.17179 Z-1.72241
X191.08707 Y305.33021 Z-1.75064
X191.10951 Y305.48877 Z-1.77888
X191.13105 Y305.64746 Z-1.80712
X191.15167 Y305.80626 Z-1.83535
X191.17137 Y305.96519 Z-1.86359
X191.19015 Y306.12422 Z-1.89183
X191.20801 Y306.28336 Z-1.92006
X191.22496 Y306.4426 Z-1.9483
X191.24098 Y306.60194 Z-1.97654
X191.25609 Y306.76136 Z-2.00478
X191.27028 Y306.92087 Z-2.03301
X191.28354 Y307.08046 Z-2.06125
X191.28359 Y307.08105 Z-2.06135
X191.29653 Y307.24639 Z-2.0906
X191.30857 Y307.4118 Z-2.11984
X191.31971 Y307.57727 Z-2.14908
X191.32997 Y307.7428 Z-2.17833
X191.33932 Y307.90838 Z-2.20757
X191.34778 Y308.07401 Z-2.23681
X191.35535 Y308.23968 Z-2.26606
X191.36202 Y308.40539 Z-2.2953
X191.36779 Y308.57114 Z-2.32454
X191.37267 Y308.73691 Z-2.35379
X191.37665 Y308.90271 Z-2.38303
X191.37973 Y309.06853 Z-2.41227
X191.38192 Y309.23436 Z-2.44151
X191.38321 Y309.4002 Z-2.47076
X191.38361 Y309.56604 Z-2.5
G03 Y309.56657 I-30.67284 J-0.01 F2400.
X191.28359 Y312.05156 I-30.6725 J0.01001
G1 X191.28354 Y312.05215
G03 X190.98813 Y314.43526 I-27.65852 J-2.21869
G1 X190.988 Y314.43605
G03 X190.51132 Y316.61842 I-22.29304 J-3.72608
G1 X190.51098 Y316.61966
G03 X189.87763 Y318.50821 I-15.85571 J-4.26696
G1 X189.87681 Y318.51025
G03 X189.1248 Y320.02052 I-9.73903 J-3.90701
G1 X189.1229 Y320.02369
G03 X188.31091 Y321.08578 I-5.00871 J-2.9878
G1 X188.30816 Y321.08864
G03 X187.52529 Y321.67032 I-2.09437 J-2.00115
X186.8427 Y321.83614 I-0.70648 J-1.42035
X186.16011 Y321.67032 I0.02389 J-1.58617
X185.37724 Y321.08864 I1.3115 J-2.58283
G1 X185.37449 Y321.08578
G03 X184.5625 Y320.02369 I4.19672 J-4.04989
G1 X184.5606 Y320.02052
G03 X183.80859 Y318.51025 I8.98702 J-5.41728
G1 X183.80777 Y318.50821
G03 X183.17442 Y316.61966 I15.22236 J-6.15551
G1 X183.17408 Y316.61842
G03 X182.6974 Y314.43605 I21.81636 J-5.90845
G1 X182.69727 Y314.43526
G03 X182.40186 Y312.05215 I27.36311 J-4.6018
G1 X182.40181 Y312.05156
G03 X182.30179 Y309.56657 I30.57248 J-2.47498
G1 Y309.56604
G03 X182.40181 Y307.08105 I30.6725 J-0.01001
G1 X182.40186 Y307.08046
G03 X182.69727 Y304.69735 I27.65852 J2.21869
G1 X182.6974 Y304.69656
G03 X183.17408 Y302.51419 I22.29304 J3.72608
G1 X183.17442 Y302.51296
G03 X183.80777 Y300.6244 I15.85571 J4.26695
G1 X183.80859 Y300.62236
G03 X184.5606 Y299.11209 I9.73903 J3.90701
G1 X184.5625 Y299.10893
G03 X185.37449 Y298.04683 I5.00871 J2.98779
G1 X185.37724 Y298.04397
G03 X186.16011 Y297.46229 I2.09437 J2.00115
X186.8427 Y297.29647 I0.70648 J1.42035
X187.52529 Y297.46229 I-0.02389 J1.58617
X188.30816 Y298.04397 I-1.3115 J2.58283
G1 X188.31091 Y298.04683
G03 X189.1229 Y299.10893 I-4.19672 J4.04989
G1 X189.1248 Y299.11209
G03 X189.87681 Y300.62236 I-8.98702 J5.41728
G1 X189.87763 Y300.6244
G03 X190.51098 Y302.51296 I-15.22236 J6.15551
G1 X190.51132 Y302.51419
G03 X190.988 Y304.69656 I-21.81636 J5.90845
G1 X190.98813 Y304.69735
G03 X191.28354 Y307.08046 I-27.36311 J4.6018
G1 X191.28359 Y307.08105
G03 X191.38361 Y309.56604 I-30.57258 J2.47499
G0 Z1.295
X179.55611 Y332.43275
G1 Z0.43667 F600.
X179.60203 Y332.68006 Z0.39231 F1800.
X179.63573 Y333.00934 Z0.33395
X179.64248 Y333.34027 Z0.27559
X179.62224 Y333.67065 Z0.21722
X179.57513 Y333.99828 Z0.15886
X179.50148 Y334.32098 Z0.10049
X179.40177 Y334.63661 Z0.04213
X179.27666 Y334.94305 Z-0.01624
X179.12699 Y335.23828 Z-0.0746
X178.95376 Y335.52033 Z-0.13296
X178.75811 Y335.78732 Z-0.19133
X178.54135 Y336.03747 Z-0.24969
X178.30492 Y336.26912 Z-0.30806
X178.0504 Y336.48073 Z-0.36642
X177.77948 Y336.67089 Z-0.42478
X177.49396 Y336.83834 Z-0.48315
X177.19574 Y336.98195 Z-0.54151
X176.8868 Y337.10078 Z-0.59988
X176.56921 Y337.19404 Z-0.65824
X176.24508 Y337.26109 Z-0.71661
X175.91655 Y337.3015 Z-0.77497
X175.58583 Y337.31501 Z-0.83333
G03 Y329.20001 I0. J-4.0575 F2400.
Y337.31501 I0. J4.0575
G0 Z1.295
X179.55611 Y332.43275
G1 Z-0.39667 F600.
X179.60203 Y332.68006 Z-0.44102 F1800.
X179.63573 Y333.00934 Z-0.49938
X179.64248 Y333.34027 Z-0.55775
X179.62224 Y333.67065 Z-0.61611
X179.57513 Y333.99828 Z-0.67448
X179.50148 Y334.32098 Z-0.73284
X179.40177 Y334.63661 Z-0.79121
X179.27666 Y334.94305 Z-0.84957
X179.12699 Y335.23828 Z-0.90793
X178.95376 Y335.52033 Z-0.9663
X178.75811 Y335.78732 Z-1.02466
X178.54135 Y336.03747 Z-1.08302
X178.30492 Y336.26912 Z-1.14139
X178.0504 Y336.48073 Z-1.19975
X177.77948 Y336.67089 Z-1.25812
X177.49396 Y336.83834 Z-1.31648
X177.19574 Y336.98195 Z-1.37485
X176.8868 Y337.10078 Z-1.43321
X176.56921 Y337.19404 Z-1.49157
X176.24508 Y337.26109 Z-1.54994
X175.91655 Y337.3015 Z-1.6083
X175.58583 Y337.31501 Z-1.66667
G03 Y329.20001 I0. J-4.0575 F2400.
Y337.31501 I0. J4.0575
G0 Z1.295
X179.55611 Y332.43275
G1 Z-1.23 F600.
X179.60203 Y332.68006 Z-1.27435 F1800.
X179.63573 Y333.00934 Z-1.33272
X179.64248 Y333.34027 Z-1.39108
X179.62224 Y333.67065 Z-1.44945
X179.57513 Y333.99828 Z-1.50781
X179.50148 Y334.32098 Z-1.56617
X179.40177 Y334.63661 Z-1.62454
X179.27666 Y334.94305 Z-1.6829
X179.12699 Y335.23828 Z-1.74127
X178.95376 Y335.52033 Z-1.79963
X178.75811 Y335.78732 Z-1.85799
X178.54135 Y336.03747 Z-1.91636
X178.30492 Y336.26912 Z-1.97472
X178.0504 Y336.48073 Z-2.03309
X177.77948 Y336.67089 Z-2.09145
X177.49396 Y336.83834 Z-2.14981
X177.19574 Y336.98195 Z-2.20818
X176.8868 Y337.10078 Z-2.26654
X176.56921 Y337.19404 Z-2.32491
X176.24508 Y337.26109 Z-2.38327
X175.91655 Y337.3015 Z-2.44164
X175.58583 Y337.31501 Z-2.5
G03 Y329.20001 I0. J-4.0575 F2400.
Y337.31501 I0. J4.0575
G0 Z1.295
X166.40836 Y332.43275
G1 Z0.43667 F600.
X166.45429 Y332.68006 Z0.39231 F1800.
X166.48799 Y333.00934 Z0.33395
X166.49474 Y333.34027 Z0.27559
X166.47449 Y333.67065 Z0.21722
X166.42739 Y333.99828 Z0.15886
X166.35373 Y334.32098 Z0.10049
X166.25402 Y334.63661 Z0.04213
X166.12892 Y334.94305 Z-0.01624
X165.97925 Y335.23828 Z-0.0746
X165.80601 Y335.52033 Z-0.13296
X165.61037 Y335.78732 Z-0.19133
X165.39361 Y336.03747 Z-0.24969
X165.15718 Y336.26912 Z-0.30806
X164.90266 Y336.48073 Z-0.36642
X164.63173 Y336.67089 Z-0.42478
X164.34621 Y336.83834 Z-0.48315
X164.04799 Y336.98195 Z-0.54151
X163.73906 Y337.10078 Z-0.59988
X163.42147 Y337.19404 Z-0.65824
X163.09733 Y337.26109 Z-0.71661
X162.76881 Y337.3015 Z-0.77497
X162.43808 Y337.31501 Z-0.83333
G03 Y329.20001 I0. J-4.0575 F2400.
Y337.31501 I0. J4.0575
G0 Z1.295
X166.40836 Y332.43275
G1 Z-0.39667 F600.
X166.45429 Y332.68006 Z-0.44102 F1800.
X166.48799 Y333.00934 Z-0.49938
X166.49474 Y333.34027 Z-0.55775
X166.47449 Y333.67065 Z-0.61611
X166.42739 Y333.99828 Z-0.67448
X166.35373 Y334.32098 Z-0.73284
X166.25402 Y334.63661 Z-0.79121
X166.12892 Y334.94305 Z-0.84957
X165.97925 Y335.23828 Z-0.90793
X165.80601 Y335.52033 Z-0.9663
X165.61037 Y335.78732 Z-1.02466
X165.39361 Y336.03747 Z-1.08302
X165.15718 Y336.26912 Z-1.14139
X164.90266 Y336.48073 Z-1.19975
X164.63173 Y336.67089 Z-1.25812
X164.34621 Y336.83834 Z-1.31648
X164.04799 Y336.98195 Z-1.37485
X163.73906 Y337.10078 Z-1.43321
X163.42147 Y337.19404 Z-1.49157
X163.09733 Y337.26109 Z-1.54994
X162.76881 Y337.3015 Z-1.6083
X162.43808 Y337.31501 Z-1.66667
G03 Y329.20001 I0. J-4.0575 F2400.
Y337.31501 I0. J4.0575
G0 Z1.295
X166.40836 Y332.43275
G1 Z-1.23 F600.
X166.45429 Y332.68006 Z-1.27435 F1800.
X166.48799 Y333.00934 Z-1.33272
X166.49474 Y333.34027 Z-1.39108
X166.47449 Y333.67065 Z-1.44945
X166.42739 Y333.99828 Z-1.50781
X166.35373 Y334.32098 Z-1.56617
X166.25402 Y334.63661 Z-1.62454
X166.12892 Y334.94305 Z-1.6829
X165.97925 Y335.23828 Z-1.74127
X165.80601 Y335.52033 Z-1.79963
X165.61037 Y335.78732 Z-1.85799
X165.39361 Y336.03747 Z-1.91636
X165.15718 Y336.26912 Z-1.97472
X164.90266 Y336.48073 Z-2.03309
X164.63173 Y336.67089 Z-2.09145
X164.34621 Y336.83834 Z-2.14981
X164.04799 Y336.98195 Z-2.20818
X163.73906 Y337.10078 Z-2.26654
X163.42147 Y337.19404 Z-2.32491
X163.09733 Y337.26109 Z-2.38327
X162.76881 Y337.3015 Z-2.44164
X162.43808 Y337.31501 Z-2.5
G03 Y329.20001 I0. J-4.0575 F2400.
Y337.31501 I0. J4.0575
G0 Z1.295
X169.59803 Y324.41751
G1 Z0.43667 F600.
X163.24336 Z-0.68383 F1800.
X163.18691 Y324.41455 Z-0.6938
X163.13108 Y324.40571 Z-0.70377
X163.07648 Y324.39107 Z-0.71373
X163.02372 Y324.37082 Z-0.7237
X162.97335 Y324.34516 Z-0.73367
X162.92595 Y324.31437 Z-0.74363
X162.88202 Y324.2788 Z-0.7536
X162.84205 Y324.23883 Z-0.76357
X162.80648 Y324.1949 Z-0.77353
X162.7757 Y324.1475 Z-0.7835
X162.75004 Y324.09713 Z-0.79347
X162.72978 Y324.04436 Z-0.80343
X162.71516 Y323.98977 Z-0.8134
X162.70631 Y323.93394 Z-0.82337
X162.70336 Y323.87749 Z-0.83333
G03 Y323.87747 I0.53998 J0.00002 F2400.
G1 Y295.2551
G03 X163.24336 Y294.7151 I0.54 J0.
G1 X176.3113
G03 X176.8513 Y295.2551 I0. J0.54
G1 Y323.87751
G03 X176.3113 Y324.41751 I-0.54 J0.
G1 X163.24336
G03 X162.70336 Y323.87749 I0. J-0.54
G0 Z1.295
X169.59803 Y324.41751
G1 Z-0.39667 F600.
X163.24336 Z-1.51717 F1800.
X163.18691 Y324.41455 Z-1.52713
X163.13108 Y324.40571 Z-1.5371
X163.07648 Y324.39107 Z-1.54707
X163.02372 Y324.37082 Z-1.55703
X162.97335 Y324.34516 Z-1.567
X162.92595 Y324.31437 Z-1.57697
X162.88202 Y324.2788 Z-1.58693
X162.84205 Y324.23883 Z-1.5969
X162.80648 Y324.1949 Z-1.60687
X162.7757 Y324.1475 Z-1.61683
X162.75004 Y324.09713 Z-1.6268
X162.72978 Y324.04436 Z-1.63677
X162.71516 Y323.98977 Z-1.64673
X162.70631 Y323.93394 Z-1.6567
X162.70336 Y323.87749 Z-1.66667
G03 Y323.87747 I0.53998 J0.00002 F2400.
G1 Y295.2551
G03 X163.24336 Y294.7151 I0.54 J0.
G1 X176.3113
G03 X176.8513 Y295.2551 I0. J0.54
G1 Y323.87751
G03 X176.3113 Y324.41751 I-0.54 J0.
G1 X163.24336
G03 X162.70336 Y323.87749 I0. J-0.54
G0 Z1.295
X169.59803 Y324.41751
G1 Z-1.23 F600.
X163.24336 Z-2.3505 F1800.
X163.18691 Y324.41455 Z-2.36047
X163.13108 Y324.40571 Z-2.37043
X163.07648 Y324.39107 Z-2.3804
X163.02372 Y324.37082 Z-2.39037
X162.97335 Y324.34516 Z-2.40033
X162.92595 Y324.31437 Z-2.4103
X162.88202 Y324.2788 Z-2.42027
X162.84205 Y324.23883 Z-2.43023
X162.80648 Y324.1949 Z-2.4402
X162.7757 Y324.1475 Z-2.45017
X162.75004 Y324.09713 Z-2.46013
X162.72978 Y324.04436 Z-2.4701
X162.71516 Y323.98977 Z-2.48007
X162.70631 Y323.93394 Z-2.49003
X162.70336 Y323.87749 Z-2.5
G03 Y323.87747 I0.53998 J0.00002 F2400.
G1 Y295.2551
G03 X163.24336 Y294.7151 I0.54 J0.
G1 X176.3113
G03 X176.8513 Y295.2551 I0. J0.54
G1 Y323.87751
G03 X176.3113 Y324.41751 I-0.54 J0.
G1 X163.24336
G03 X162.70336 Y323.87749 I0. J-0.54
G0 Z1.295
X117.27053 Y349.21477
G1 Z0.43667 F600.
X117.22234 Y349.26296 Z0.42465 F1800.
X117.11995 Y349.32729 Z0.40333
X117.00581 Y349.36723 Z0.38201
X116.88565 Y349.38077 Z0.36068
X116.76549 Y349.36723 Z0.33936
X116.65136 Y349.32729 Z0.31804
X116.54897 Y349.26296 Z0.29672
X116.46346 Y349.17745 Z0.2754
X116.39913 Y349.07506 Z0.25408
X116.35919 Y348.96093 Z0.23275
X116.34565 Y348.84077 Z0.21143
X116.35919 Y348.72061 Z0.19011
X116.39913 Y348.60647 Z0.16879
X116.46346 Y348.50408 Z0.14747
X116.54897 Y348.41858 Z0.12614
X116.65136 Y348.35424 Z0.10482
X116.76549 Y348.31431 Z0.0835
X116.88565 Y348.30077 Z0.06218
X117.00581 Y348.31431 Z0.04086
