%
G17 G21 G40 G90 G64 P0.1
(2 1/2 Axis Profiling - Inside-1)
(1/16in 1.6mm 1 Flute Carbide Router)
T31 M06
S24000 M3
G0 Z1.295
X187.91046 Y155.97041
G1 Z0.43667 F600.
X187.95478 Y156.10682 Z0.41138 F1800.
X187.97584 Y156.26227 Z0.38372
X187.9688 Y156.41898 Z0.35605
X187.9339 Y156.57191 Z0.32839
X187.87224 Y156.71616 Z0.30073
X187.78582 Y156.84708 Z0.27307
X187.67742 Y156.96046 Z0.24541
X187.55051 Y157.05267 Z0.21775
X187.40918 Y157.12073 Z0.19009
X187.25796 Y157.16246 Z0.16243
X187.10172 Y157.17652 Z0.13477
X186.94548 Y157.16246 Z0.10711
X186.79427 Y157.12073 Z0.07945
X186.65294 Y157.05267 Z0.05179
X186.52603 Y156.96046 Z0.02413
X186.41762 Y156.84708 Z-0.00353
X186.3312 Y156.71616 Z-0.03119
X186.26955 Y156.57191 Z-0.05885
X186.23464 Y156.41898 Z-0.08651
X186.2276 Y156.26227 Z-0.11417
X186.24866 Y156.10682 Z-0.14183
X186.29714 Y155.95763 Z-0.16949
X186.37147 Y155.81949 Z-0.19715
X186.46928 Y155.69684 Z-0.22481
X186.58741 Y155.59363 Z-0.25247
X186.72207 Y155.51318 Z-0.28013
X186.86894 Y155.45806 Z-0.30779
X187.02329 Y155.43005 Z-0.33545
X187.18016 Z-0.36311
X187.33451 Y155.45806 Z-0.39077
X187.48137 Y155.51318 Z-0.41843
X187.61603 Y155.59363 Z-0.44609
X187.73417 Y155.69684 Z-0.47375
X187.83197 Y155.81949 Z-0.50141
X187.90631 Y155.95763 Z-0.52907
X187.95478 Y156.10682 Z-0.55673
X187.97584 Y156.26227 Z-0.58439
X187.9688 Y156.41898 Z-0.61205
X187.9339 Y156.57191 Z-0.63971
X187.87224 Y156.71616 Z-0.66737
X187.78582 Y156.84708 Z-0.69503
X187.67742 Y156.96046 Z-0.72269
X187.55051 Y157.05267 Z-0.75035
X187.40918 Y157.12073 Z-0.77801
X187.25796 Y157.16246 Z-0.80567
X187.10172 Y157.17652 Z-0.83333
G17
G03 Y155.42652 I0. J-0.875 F2400.
Y157.17652 I0. J0.875
G0 Z1.295
X187.91046 Y155.97041
G1 Z-0.39667 F600.
X187.95478 Y156.10682 Z-0.42196 F1800.
X187.97584 Y156.26227 Z-0.44962
X187.9688 Y156.41898 Z-0.47728
X187.9339 Y156.57191 Z-0.50494
X187.87224 Y156.71616 Z-0.5326
X187.78582 Y156.84708 Z-0.56026
X187.67742 Y156.96046 Z-0.58792
X187.55051 Y157.05267 Z-0.61558
X187.40918 Y157.12073 Z-0.64324
X187.25796 Y157.16246 Z-0.6709
X187.10172 Y157.17652 Z-0.69856
X186.94548 Y157.16246 Z-0.72622
X186.79427 Y157.12073 Z-0.75388
X186.65294 Y157.05267 Z-0.78154
X186.52603 Y156.96046 Z-0.8092
X186.41762 Y156.84708 Z-0.83686
X186.3312 Y156.71616 Z-0.86452
X186.26955 Y156.57191 Z-0.89218
X186.23464 Y156.41898 Z-0.91984
X186.2276 Y156.26227 Z-0.9475
X186.24866 Y156.10682 Z-0.97516
X186.29714 Y155.95763 Z-1.00282
X186.37147 Y155.81949 Z-1.03048
X186.46928 Y155.69684 Z-1.05814
X186.58741 Y155.59363 Z-1.0858
X186.72207 Y155.51318 Z-1.11346
X186.86894 Y155.45806 Z-1.14112
X187.02329 Y155.43005 Z-1.16878
X187.18016 Z-1.19644
X187.33451 Y155.45806 Z-1.2241
X187.48137 Y155.51318 Z-1.25176
X187.61603 Y155.59363 Z-1.27942
X187.73417 Y155.69684 Z-1.30708
X187.83197 Y155.81949 Z-1.33474
X187.90631 Y155.95763 Z-1.3624
X187.95478 Y156.10682 Z-1.39007
X187.97584 Y156.26227 Z-1.41773
X187.9688 Y156.41898 Z-1.44539
X187.9339 Y156.57191 Z-1.47305
X187.87224 Y156.71616 Z-1.50071
X187.78582 Y156.84708 Z-1.52837
X187.67742 Y156.96046 Z-1.55603
X187.55051 Y157.05267 Z-1.58369
X187.40918 Y157.12073 Z-1.61135
X187.25796 Y157.16246 Z-1.63901
X187.10172 Y157.17652 Z-1.66667
G03 Y155.42652 I0. J-0.875 F2400.
Y157.17652 I0. J0.875
G0 Z1.295
X187.91046 Y155.97041
G1 Z-1.23 F600.
X187.95478 Y156.10682 Z-1.25529 F1800.
X187.97584 Y156.26227 Z-1.28295
X187.9688 Y156.41898 Z-1.31061
X187.9339 Y156.57191 Z-1.33827
X187.87224 Y156.71616 Z-1.36593
X187.78582 Y156.84708 Z-1.39359
X187.67742 Y156.96046 Z-1.42125
X187.55051 Y157.05267 Z-1.44891
X187.40918 Y157.12073 Z-1.47657
X187.25796 Y157.16246 Z-1.50423
X187.10172 Y157.17652 Z-1.53189
X186.94548 Y157.16246 Z-1.55955
X186.79427 Y157.12073 Z-1.58721
X186.65294 Y157.05267 Z-1.61487
X186.52603 Y156.96046 Z-1.64253
X186.41762 Y156.84708 Z-1.67019
X186.3312 Y156.71616 Z-1.69785
X186.26955 Y156.57191 Z-1.72551
X186.23464 Y156.41898 Z-1.75318
X186.2276 Y156.26227 Z-1.78084
X186.24866 Y156.10682 Z-1.80849
X186.29714 Y155.95763 Z-1.83616
X186.37147 Y155.81949 Z-1.86381
X186.46928 Y155.69684 Z-1.89148
X186.58741 Y155.59363 Z-1.91914
X186.72207 Y155.51318 Z-1.9468
X186.86894 Y155.45806 Z-1.97446
X187.02329 Y155.43005 Z-2.00212
X187.18016 Z-2.02978
X187.33451 Y155.45806 Z-2.05744
X187.48137 Y155.51318 Z-2.0851
X187.61603 Y155.59363 Z-2.11276
X187.73417 Y155.69684 Z-2.14042
X187.83197 Y155.81949 Z-2.16808
X187.90631 Y155.95763 Z-2.19574
X187.95478 Y156.10682 Z-2.2234
X187.97584 Y156.26227 Z-2.25106
X187.9688 Y156.41898 Z-2.27872
X187.9339 Y156.57191 Z-2.30638
X187.87224 Y156.71616 Z-2.33404
X187.78582 Y156.84708 Z-2.3617
X187.67742 Y156.96046 Z-2.38936
X187.55051 Y157.05267 Z-2.41702
X187.40918 Y157.12073 Z-2.44468
X187.25796 Y157.16246 Z-2.47234
X187.10172 Y157.17652 Z-2.5
G03 Y155.42652 I0. J-0.875 F2400.
Y157.17652 I0. J0.875
G0 Z1.295
M30
%
