%
G17 G21 G40 G90 G64 P0.1
(2 1/2 Axis Profiling)
(1/4in 6.35mm 2 Flute Carbide Router)
T30 M06
S18547 M3
g0 Z3.175
X-3.175 Y91.12781
G1 Z-1.23 F927.2
Y98.33034 Z-2.5 F2781.7
Y123.587 F3709.
G17
G02 X-2.24506 Y125.83206 I3.175 J0.
G1 X5.75494 Y133.83206
G02 X8. Y134.762 I2.24506 J-2.24506
G1 X27.
G02 X29.24506 Y133.83206 I0. J-3.175
G1 X37.24506 Y125.83206
G02 X38.175 Y123.587 I-2.24506 J-2.24506
G1 Y0.
G02 X35. Y-3.175 I-3.175 J0.
G1 X0.
G02 X-3.175 Y0. I0. J3.175
G1 Y98.33034
G0 Z3.175
Y91.12781
G1 Z-3.73 F927.2
Y98.33034 Z-5. F2781.7
Y123.587 F3709.
G02 X-2.24506 Y125.83206 I3.175 J0.
G1 X5.75494 Y133.83206
G02 X8. Y134.762 I2.24506 J-2.24506
G1 X27.
G02 X29.24506 Y133.83206 I0. J-3.175
G1 X37.24506 Y125.83206
G02 X38.175 Y123.587 I-2.24506 J-2.24506
G1 Y0.
G02 X35. Y-3.175 I-3.175 J0.
G1 X0.
G02 X-3.175 Y0. I0. J3.175
G1 Y98.33034
G0 Z3.175
Y91.12781
G1 Z-6.23 F927.2
Y98.33034 Z-7.5 F2781.7
Y123.587 F3709.
G02 X-2.24506 Y125.83206 I3.175 J0.
G1 X5.75494 Y133.83206
G02 X8. Y134.762 I2.24506 J-2.24506
G1 X27.
G02 X29.24506 Y133.83206 I0. J-3.175
G1 X37.24506 Y125.83206
G02 X38.175 Y123.587 I-2.24506 J-2.24506
G1 Y0.
G02 X35. Y-3.175 I-3.175 J0.
G1 X0.
G02 X-3.175 Y0. I0. J3.175
G1 Y98.33034
G0 Z3.175
Y91.12781
G1 Z-8.73 F927.2
Y98.33034 Z-10. F2781.7
Y123.587 F3709.
G02 X-2.24506 Y125.83206 I3.175 J0.
G1 X5.75494 Y133.83206
G02 X8. Y134.762 I2.24506 J-2.24506
G1 X27.
G02 X29.24506 Y133.83206 I0. J-3.175
G1 X37.24506 Y125.83206
G02 X38.175 Y123.587 I-2.24506 J-2.24506
G1 Y0.
G02 X35. Y-3.175 I-3.175 J0.
G1 X0.
G02 X-3.175 Y0. I0. J3.175
G1 Y98.33034
G0 Z3.175
Y91.12781
G1 Z-11.23 F927.2
Y98.33034 Z-12.5 F2781.7
Y123.587 F3709.
G02 X-2.24506 Y125.83206 I3.175 J0.
G1 X5.75494 Y133.83206
G02 X8. Y134.762 I2.24506 J-2.24506
G1 X27.
G02 X29.24506 Y133.83206 I0. J-3.175
G1 X37.24506 Y125.83206
G02 X38.175 Y123.587 I-2.24506 J-2.24506
G1 Y0.
G02 X35. Y-3.175 I-3.175 J0.
G1 X0.
G02 X-3.175 Y0. I0. J3.175
G1 Y98.33034
G0 Z3.175
X46.825 Y65.32209
G1 Z-1.23 F927.2
Y72.52462 Z-2.5 F2781.7
Y100. F3709.
G02 X50. Y103.175 I3.175 J0.
G1 X85.
G02 X88.175 Y100. I0. J-3.175
G1 Y0.
G02 X85. Y-3.175 I-3.175 J0.
G1 X50.
G02 X46.825 Y0. I0. J3.175
G1 Y72.52462
G0 Z3.175
Y65.32209
G1 Z-3.73 F927.2
Y72.52462 Z-5. F2781.7
Y100. F3709.
G02 X50. Y103.175 I3.175 J0.
G1 X85.
G02 X88.175 Y100. I0. J-3.175
G1 Y0.
G02 X85. Y-3.175 I-3.175 J0.
G1 X50.
G02 X46.825 Y0. I0. J3.175
G1 Y72.52462
G0 Z3.175
Y65.32209
G1 Z-6.23 F927.2
Y72.52462 Z-7.5 F2781.7
Y100. F3709.
G02 X50. Y103.175 I3.175 J0.
G1 X85.
G02 X88.175 Y100. I0. J-3.175
G1 Y0.
G02 X85. Y-3.175 I-3.175 J0.
G1 X50.
G02 X46.825 Y0. I0. J3.175
G1 Y72.52462
G0 Z3.175
Y65.32209
G1 Z-8.73 F927.2
Y72.52462 Z-10. F2781.7
Y100. F3709.
G02 X50. Y103.175 I3.175 J0.
G1 X85.
G02 X88.175 Y100. I0. J-3.175
G1 Y0.
G02 X85. Y-3.175 I-3.175 J0.
G1 X50.
G02 X46.825 Y0. I0. J3.175
G1 Y72.52462
G0 Z3.175
Y65.32209
G1 Z-11.23 F927.2
Y72.52462 Z-12.5 F2781.7
Y100. F3709.
G02 X50. Y103.175 I3.175 J0.
G1 X85.
G02 X88.175 Y100. I0. J-3.175
G1 Y0.
G02 X85. Y-3.175 I-3.175 J0.
G1 X50.
G02 X46.825 Y0. I0. J3.175
G1 Y72.52462
G0 Z3.175
X96.825 Y64.52807
G1 Z-1.23 F927.2
Y71.7306 Z-2.5 F2781.7
Y100. F3709.
G02 X100. Y103.175 I3.175 J0.
G1 X135.
G02 X138.175 Y100. I0. J-3.175
G1 Y0.
G02 X135. Y-3.175 I-3.175 J0.
G1 X100.
G02 X96.825 Y0. I0. J3.175
G1 Y71.7306
G0 Z3.175
Y64.52807
G1 Z-3.73 F927.2
Y71.7306 Z-5. F2781.7
Y100. F3709.
G02 X100. Y103.175 I3.175 J0.
G1 X135.
G02 X138.175 Y100. I0. J-3.175
G1 Y0.
G02 X135. Y-3.175 I-3.175 J0.
G1 X100.
G02 X96.825 Y0. I0. J3.175
G1 Y71.7306
G0 Z3.175
Y64.52807
G1 Z-6.23 F927.2
Y71.7306 Z-7.5 F2781.7
Y100. F3709.
G02 X100. Y103.175 I3.175 J0.
G1 X135.
G02 X138.175 Y100. I0. J-3.175
G1 Y0.
G02 X135. Y-3.175 I-3.175 J0.
G1 X100.
G02 X96.825 Y0. I0. J3.175
G1 Y71.7306
G0 Z3.175
Y64.52807
G1 Z-8.73 F927.2
Y71.7306 Z-10. F2781.7
Y100. F3709.
G02 X100. Y103.175 I3.175 J0.
G1 X135.
G02 X138.175 Y100. I0. J-3.175
G1 Y0.
G02 X135. Y-3.175 I-3.175 J0.
G1 X100.
G02 X96.825 Y0. I0. J3.175
G1 Y71.7306
G0 Z3.175
Y64.52807
G1 Z-11.23 F927.2
Y71.7306 Z-12.5 F2781.7
Y100. F3709.
G02 X100. Y103.175 I3.175 J0.
G1 X135.
G02 X138.175 Y100. I0. J-3.175
G1 Y0.
G02 X135. Y-3.175 I-3.175 J0.
G1 X100.
G02 X96.825 Y0. I0. J3.175
G1 Y71.7306
G0 Z3.175
X146.825 Y65.32209
G1 Z-1.23 F927.2
Y72.52462 Z-2.5 F2781.7
Y100. F3709.
G02 X150. Y103.175 I3.175 J0.
G1 X185.
G02 X188.175 Y100. I0. J-3.175
G1 Y0.
G02 X185. Y-3.175 I-3.175 J0.
G1 X150.
G02 X146.825 Y0. I0. J3.175
G1 Y72.52462
G0 Z3.175
Y65.32209
G1 Z-3.73 F927.2
Y72.52462 Z-5. F2781.7
Y100. F3709.
G02 X150. Y103.175 I3.175 J0.
G1 X185.
G02 X188.175 Y100. I0. J-3.175
G1 Y0.
G02 X185. Y-3.175 I-3.175 J0.
G1 X150.
G02 X146.825 Y0. I0. J3.175
G1 Y72.52462
G0 Z3.175
Y65.32209
G1 Z-6.23 F927.2
Y72.52462 Z-7.5 F2781.7
Y100. F3709.
G02 X150. Y103.175 I3.175 J0.
G1 X185.
G02 X188.175 Y100. I0. J-3.175
G1 Y0.
G02 X185. Y-3.175 I-3.175 J0.
G1 X150.
G02 X146.825 Y0. I0. J3.175
G1 Y72.52462
G0 Z3.175
Y65.32209
G1 Z-8.73 F927.2
Y72.52462 Z-10. F2781.7
Y100. F3709.
G02 X150. Y103.175 I3.175 J0.
G1 X185.
G02 X188.175 Y100. I0. J-3.175
G1 Y0.
G02 X185. Y-3.175 I-3.175 J0.
G1 X150.
G02 X146.825 Y0. I0. J3.175
G1 Y72.52462
G0 Z3.175
Y65.32209
G1 Z-11.23 F927.2
Y72.52462 Z-12.5 F2781.7
Y100. F3709.
G02 X150. Y103.175 I3.175 J0.
G1 X185.
G02 X188.175 Y100. I0. J-3.175
G1 Y0.
G02 X185. Y-3.175 I-3.175 J0.
G1 X150.
G02 X146.825 Y0. I0. J3.175
G1 Y72.52462
G0 Z3.175
X196.825 Y67.70416
G1 Z-1.23 F927.2
Y74.90669 Z-2.5 F2781.7
Y100. F3709.
G02 X200. Y103.175 I3.175 J0.
G1 X235.
G02 X238.175 Y100. I0. J-3.175
G1 Y0.
G02 X235. Y-3.175 I-3.175 J0.
G1 X200.
G02 X196.825 Y0. I0. J3.175
G1 Y74.90669
G0 Z3.175
Y67.70416
G1 Z-3.73 F927.2
Y74.90669 Z-5. F2781.7
Y100. F3709.
G02 X200. Y103.175 I3.175 J0.
G1 X235.
G02 X238.175 Y100. I0. J-3.175
G1 Y0.
G02 X235. Y-3.175 I-3.175 J0.
G1 X200.
G02 X196.825 Y0. I0. J3.175
G1 Y74.90669
G0 Z3.175
Y67.70416
G1 Z-6.23 F927.2
Y74.90669 Z-7.5 F2781.7
Y100. F3709.
G02 X200. Y103.175 I3.175 J0.
G1 X235.
G02 X238.175 Y100. I0. J-3.175
G1 Y0.
G02 X235. Y-3.175 I-3.175 J0.
G1 X200.
G02 X196.825 Y0. I0. J3.175
G1 Y74.90669
G0 Z3.175
Y67.70416
G1 Z-8.73 F927.2
Y74.90669 Z-10. F2781.7
Y100. F3709.
G02 X200. Y103.175 I3.175 J0.
G1 X235.
G02 X238.175 Y100. I0. J-3.175
G1 Y0.
G02 X235. Y-3.175 I-3.175 J0.
G1 X200.
G02 X196.825 Y0. I0. J3.175
G1 Y74.90669
G0 Z3.175
Y67.70416
G1 Z-11.23 F927.2
Y74.90669 Z-12.5 F2781.7
Y100. F3709.
G02 X200. Y103.175 I3.175 J0.
G1 X235.
G02 X238.175 Y100. I0. J-3.175
G1 Y0.
G02 X235. Y-3.175 I-3.175 J0.
G1 X200.
G02 X196.825 Y0. I0. J3.175
G1 Y74.90669
G0 Z3.175
X227.99658 Y213.0102
G1 Z-1.23 F927.2
Y220.21273 Z-2.5 F2781.7
Y246.62262 F3709.
G02 X231.17158 Y249.79762 I3.175 J0.
G1 X266.17158
G02 X269.34658 Y246.62262 I0. J-3.175
G1 Y148.62262
G02 X266.17158 Y145.44762 I-3.175 J0.
G1 X231.17158
G02 X227.99658 Y148.62262 I0. J3.175
G1 Y220.21273
G0 Z3.175
Y213.0102
G1 Z-3.73 F927.2
Y220.21273 Z-5. F2781.7
Y246.62262 F3709.
G02 X231.17158 Y249.79762 I3.175 J0.
G1 X266.17158
G02 X269.34658 Y246.62262 I0. J-3.175
G1 Y148.62262
G02 X266.17158 Y145.44762 I-3.175 J0.
G1 X231.17158
G02 X227.99658 Y148.62262 I0. J3.175
G1 Y220.21273
G0 Z3.175
Y213.0102
G1 Z-6.23 F927.2
Y220.21273 Z-7.5 F2781.7
Y246.62262 F3709.
G02 X231.17158 Y249.79762 I3.175 J0.
G1 X266.17158
G02 X269.34658 Y246.62262 I0. J-3.175
G1 Y148.62262
G02 X266.17158 Y145.44762 I-3.175 J0.
G1 X231.17158
G02 X227.99658 Y148.62262 I0. J3.175
G1 Y220.21273
G0 Z3.175
Y213.0102
G1 Z-8.73 F927.2
Y220.21273 Z-10. F2781.7
Y246.62262 F3709.
G02 X231.17158 Y249.79762 I3.175 J0.
G1 X266.17158
G02 X269.34658 Y246.62262 I0. J-3.175
G1 Y148.62262
G02 X266.17158 Y145.44762 I-3.175 J0.
G1 X231.17158
G02 X227.99658 Y148.62262 I0. J3.175
G1 Y220.21273
G0 Z3.175
Y213.0102
G1 Z-11.23 F927.2
Y220.21273 Z-12.5 F2781.7
Y246.62262 F3709.
G02 X231.17158 Y249.79762 I3.175 J0.
G1 X266.17158
G02 X269.34658 Y246.62262 I0. J-3.175
G1 Y148.62262
G02 X266.17158 Y145.44762 I-3.175 J0.
G1 X231.17158
G02 X227.99658 Y148.62262 I0. J3.175
G1 Y220.21273
G0 Z3.175
X177.99658 Y215.39227
G1 Z-1.23 F927.2
Y222.59479 Z-2.5 F2781.7
Y246.62262 F3709.
G02 X181.17158 Y249.79762 I3.175 J0.
G1 X216.17158
G02 X219.34658 Y246.62262 I0. J-3.175
G1 Y148.62262
G02 X216.17158 Y145.44762 I-3.175 J0.
G1 X181.17158
G02 X177.99658 Y148.62262 I0. J3.175
G1 Y222.59479
G0 Z3.175
Y215.39227
G1 Z-3.73 F927.2
Y222.59479 Z-5. F2781.7
Y246.62262 F3709.
G02 X181.17158 Y249.79762 I3.175 J0.
G1 X216.17158
G02 X219.34658 Y246.62262 I0. J-3.175
G1 Y148.62262
G02 X216.17158 Y145.44762 I-3.175 J0.
G1 X181.17158
G02 X177.99658 Y148.62262 I0. J3.175
G1 Y222.59479
G0 Z3.175
Y215.39227
G1 Z-6.23 F927.2
Y222.59479 Z-7.5 F2781.7
Y246.62262 F3709.
G02 X181.17158 Y249.79762 I3.175 J0.
G1 X216.17158
G02 X219.34658 Y246.62262 I0. J-3.175
G1 Y148.62262
G02 X216.17158 Y145.44762 I-3.175 J0.
G1 X181.17158
G02 X177.99658 Y148.62262 I0. J3.175
G1 Y222.59479
G0 Z3.175
Y215.39227
G1 Z-8.73 F927.2
Y222.59479 Z-10. F2781.7
Y246.62262 F3709.
G02 X181.17158 Y249.79762 I3.175 J0.
G1 X216.17158
G02 X219.34658 Y246.62262 I0. J-3.175
G1 Y148.62262
G02 X216.17158 Y145.44762 I-3.175 J0.
G1 X181.17158
G02 X177.99658 Y148.62262 I0. J3.175
G1 Y222.59479
G0 Z3.175
Y215.39227
G1 Z-11.23 F927.2
Y222.59479 Z-12.5 F2781.7
Y246.62262 F3709.
G02 X181.17158 Y249.79762 I3.175 J0.
G1 X216.17158
G02 X219.34658 Y246.62262 I0. J-3.175
G1 Y148.62262
G02 X216.17158 Y145.44762 I-3.175 J0.
G1 X181.17158
G02 X177.99658 Y148.62262 I0. J3.175
G1 Y222.59479
G0 Z3.175
X125.55912 Y218.56835
G1 Z-1.23 F927.2
Y225.77088 Z-2.5 F2781.7
Y248.11816 F3709.
G02 X128.73412 Y251.29316 I3.175 J0.
G1 X142.98412
G02 X146.15912 Y248.11816 I0. J-3.175
G1 Y181.29316
X146.30912
Y248.11816
G02 X149.48412 Y251.29316 I3.175 J0.
G1 X163.73412
G02 X166.90912 Y248.11816 I0. J-3.175
G1 Y148.11816
G02 X163.73412 Y144.94316 I-3.175 J0.
G1 X128.73412
G02 X125.55912 Y148.11816 I0. J3.175
G1 Y225.77088
G0 Z3.175
Y218.56835
G1 Z-3.73 F927.2
Y225.77088 Z-5. F2781.7
Y248.11816 F3709.
G02 X128.73412 Y251.29316 I3.175 J0.
G1 X142.98412
G02 X146.15912 Y248.11816 I0. J-3.175
G1 Y181.29316
X146.30912
Y248.11816
G02 X149.48412 Y251.29316 I3.175 J0.
G1 X163.73412
G02 X166.90912 Y248.11816 I0. J-3.175
G1 Y148.11816
G02 X163.73412 Y144.94316 I-3.175 J0.
G1 X128.73412
G02 X125.55912 Y148.11816 I0. J3.175
G1 Y225.77088
G0 Z3.175
Y218.56835
G1 Z-6.23 F927.2
Y225.77088 Z-7.5 F2781.7
Y248.11816 F3709.
G02 X128.73412 Y251.29316 I3.175 J0.
G1 X142.98412
G02 X146.15912 Y248.11816 I0. J-3.175
G1 Y181.29316
X146.30912
Y248.11816
G02 X149.48412 Y251.29316 I3.175 J0.
G1 X163.73412
G02 X166.90912 Y248.11816 I0. J-3.175
G1 Y148.11816
G02 X163.73412 Y144.94316 I-3.175 J0.
G1 X128.73412
G02 X125.55912 Y148.11816 I0. J3.175
G1 Y225.77088
G0 Z3.175
Y218.56835
G1 Z-8.73 F927.2
Y225.77088 Z-10. F2781.7
Y248.11816 F3709.
G02 X128.73412 Y251.29316 I3.175 J0.
G1 X142.98412
G02 X146.15912 Y248.11816 I0. J-3.175
G1 Y181.29316
X146.30912
Y248.11816
G02 X149.48412 Y251.29316 I3.175 J0.
G1 X163.73412
G02 X166.90912 Y248.11816 I0. J-3.175
G1 Y148.11816
G02 X163.73412 Y144.94316 I-3.175 J0.
G1 X128.73412
G02 X125.55912 Y148.11816 I0. J3.175
G1 Y225.77088
G0 Z3.175
Y218.56835
G1 Z-11.23 F927.2
Y225.77088 Z-12.5 F2781.7
Y248.11816 F3709.
G02 X128.73412 Y251.29316 I3.175 J0.
G1 X142.98412
G02 X146.15912 Y248.11816 I0. J-3.175
G1 Y181.29316
X146.30912
Y248.11816
G02 X149.48412 Y251.29316 I3.175 J0.
G1 X163.73412
G02 X166.90912 Y248.11816 I0. J-3.175
G1 Y148.11816
G02 X163.73412 Y144.94316 I-3.175 J0.
G1 X128.73412
G02 X125.55912 Y148.11816 I0. J3.175
G1 Y225.77088
G0 Z3.175
X75.55912 Y218.56835
G1 Z-1.23 F927.2
Y225.77088 Z-2.5 F2781.7
Y248.11816 F3709.
G02 X78.73412 Y251.29316 I3.175 J0.
G1 X92.98412
G02 X96.15912 Y248.11816 I0. J-3.175
G1 Y181.29316
X96.30912
Y248.11816
G02 X99.48412 Y251.29316 I3.175 J0.
G1 X113.73412
G02 X116.90912 Y248.11816 I0. J-3.175
G1 Y148.11816
G02 X113.73412 Y144.94316 I-3.175 J0.
G1 X78.73412
G02 X75.55912 Y148.11816 I0. J3.175
G1 Y225.77088
G0 Z3.175
Y218.56835
G1 Z-3.73 F927.2
Y225.77088 Z-5. F2781.7
Y248.11816 F3709.
G02 X78.73412 Y251.29316 I3.175 J0.
G1 X92.98412
G02 X96.15912 Y248.11816 I0. J-3.175
G1 Y181.29316
X96.30912
Y248.11816
G02 X99.48412 Y251.29316 I3.175 J0.
G1 X113.73412
G02 X116.90912 Y248.11816 I0. J-3.175
G1 Y148.11816
G02 X113.73412 Y144.94316 I-3.175 J0.
G1 X78.73412
G02 X75.55912 Y148.11816 I0. J3.175
G1 Y225.77088
G0 Z3.175
Y218.56835
G1 Z-6.23 F927.2
Y225.77088 Z-7.5 F2781.7
Y248.11816 F3709.
G02 X78.73412 Y251.29316 I3.175 J0.
G1 X92.98412
G02 X96.15912 Y248.11816 I0. J-3.175
G1 Y181.29316
X96.30912
Y248.11816
G02 X99.48412 Y251.29316 I3.175 J0.
G1 X113.73412
G02 X116.90912 Y248.11816 I0. J-3.175
G1 Y148.11816
G02 X113.73412 Y144.94316 I-3.175 J0.
G1 X78.73412
G02 X75.55912 Y148.11816 I0. J3.175
G1 Y225.77088
G0 Z3.175
Y218.56835
G1 Z-8.73 F927.2
Y225.77088 Z-10. F2781.7
Y248.11816 F3709.
G02 X78.73412 Y251.29316 I3.175 J0.
G1 X92.98412
G02 X96.15912 Y248.11816 I0. J-3.175
G1 Y181.29316
X96.30912
Y248.11816
G02 X99.48412 Y251.29316 I3.175 J0.
G1 X113.73412
G02 X116.90912 Y248.11816 I0. J-3.175
G1 Y148.11816
G02 X113.73412 Y144.94316 I-3.175 J0.
G1 X78.73412
G02 X75.55912 Y148.11816 I0. J3.175
G1 Y225.77088
G0 Z3.175
Y218.56835
G1 Z-11.23 F927.2
Y225.77088 Z-12.5 F2781.7
Y248.11816 F3709.
G02 X78.73412 Y251.29316 I3.175 J0.
G1 X92.98412
G02 X96.15912 Y248.11816 I0. J-3.175
G1 Y181.29316
X96.30912
Y248.11816
G02 X99.48412 Y251.29316 I3.175 J0.
G1 X113.73412
G02 X116.90912 Y248.11816 I0. J-3.175
G1 Y148.11816
G02 X113.73412 Y144.94316 I-3.175 J0.
G1 X78.73412
G02 X75.55912 Y148.11816 I0. J3.175
G1 Y225.77088
G0 Z3.175
X34.47644 Y216.5833
G1 Z-1.23 F927.2
Y223.78583 Z-2.5 F2781.7
Y248.26985 F3709.
G02 X37.65144 Y251.44485 I3.175 J0.
G1 X59.65144
G02 X62.82644 Y248.26985 I0. J-3.175
G1 Y148.26985
G02 X59.65144 Y145.09485 I-3.175 J0.
G1 X37.65144
G02 X34.47644 Y148.26985 I0. J3.175
G1 Y223.78583
G0 Z3.175
Y216.5833
G1 Z-3.73 F927.2
Y223.78583 Z-5. F2781.7
Y248.26985 F3709.
G02 X37.65144 Y251.44485 I3.175 J0.
G1 X59.65144
G02 X62.82644 Y248.26985 I0. J-3.175
G1 Y148.26985
G02 X59.65144 Y145.09485 I-3.175 J0.
G1 X37.65144
G02 X34.47644 Y148.26985 I0. J3.175
G1 Y223.78583
G0 Z3.175
Y216.5833
G1 Z-6.23 F927.2
Y223.78583 Z-7.5 F2781.7
Y248.26985 F3709.
G02 X37.65144 Y251.44485 I3.175 J0.
G1 X59.65144
G02 X62.82644 Y248.26985 I0. J-3.175
G1 Y148.26985
G02 X59.65144 Y145.09485 I-3.175 J0.
G1 X37.65144
G02 X34.47644 Y148.26985 I0. J3.175
G1 Y223.78583
G0 Z3.175
Y216.5833
G1 Z-8.73 F927.2
Y223.78583 Z-10. F2781.7
Y248.26985 F3709.
G02 X37.65144 Y251.44485 I3.175 J0.
G1 X59.65144
G02 X62.82644 Y248.26985 I0. J-3.175
G1 Y148.26985
G02 X59.65144 Y145.09485 I-3.175 J0.
G1 X37.65144
G02 X34.47644 Y148.26985 I0. J3.175
G1 Y223.78583
G0 Z3.175
Y216.5833
G1 Z-11.23 F927.2
Y223.78583 Z-12.5 F2781.7
Y248.26985 F3709.
G02 X37.65144 Y251.44485 I3.175 J0.
G1 X59.65144
G02 X62.82644 Y248.26985 I0. J-3.175
G1 Y148.26985
G02 X59.65144 Y145.09485 I-3.175 J0.
G1 X37.65144
G02 X34.47644 Y148.26985 I0. J3.175
G1 Y223.78583
G0 Z3.175
X-2.52356 Y216.5833
G1 Z-1.23 F927.2
Y223.78583 Z-2.5 F2781.7
Y248.26985 F3709.
G02 X0.65144 Y251.44485 I3.175 J0.
G1 X22.65144
G02 X25.82644 Y248.26985 I0. J-3.175
G1 Y148.26985
G02 X22.65144 Y145.09485 I-3.175 J0.
G1 X0.65144
G02 X-2.52356 Y148.26985 I0. J3.175
G1 Y223.78583
G0 Z3.175
Y216.5833
G1 Z-3.73 F927.2
Y223.78583 Z-5. F2781.7
Y248.26985 F3709.
G02 X0.65144 Y251.44485 I3.175 J0.
G1 X22.65144
G02 X25.82644 Y248.26985 I0. J-3.175
G1 Y148.26985
G02 X22.65144 Y145.09485 I-3.175 J0.
G1 X0.65144
G02 X-2.52356 Y148.26985 I0. J3.175
G1 Y223.78583
G0 Z3.175
Y216.5833
G1 Z-6.23 F927.2
Y223.78583 Z-7.5 F2781.7
Y248.26985 F3709.
G02 X0.65144 Y251.44485 I3.175 J0.
G1 X22.65144
G02 X25.82644 Y248.26985 I0. J-3.175
G1 Y148.26985
G02 X22.65144 Y145.09485 I-3.175 J0.
G1 X0.65144
G02 X-2.52356 Y148.26985 I0. J3.175
G1 Y223.78583
G0 Z3.175
Y216.5833
G1 Z-8.73 F927.2
Y223.78583 Z-10. F2781.7
Y248.26985 F3709.
G02 X0.65144 Y251.44485 I3.175 J0.
G1 X22.65144
G02 X25.82644 Y248.26985 I0. J-3.175
G1 Y148.26985
G02 X22.65144 Y145.09485 I-3.175 J0.
G1 X0.65144
G02 X-2.52356 Y148.26985 I0. J3.175
G1 Y223.78583
G0 Z3.175
Y216.5833
G1 Z-11.23 F927.2
Y223.78583 Z-12.5 F2781.7
Y248.26985 F3709.
G02 X0.65144 Y251.44485 I3.175 J0.
G1 X22.65144
G02 X25.82644 Y248.26985 I0. J-3.175
G1 Y148.26985
G02 X22.65144 Y145.09485 I-3.175 J0.
G1 X0.65144
G02 X-2.52356 Y148.26985 I0. J3.175
G1 Y223.78583
G0 Z3.175
M30
%
