%
G17 G21 G40 G90 G64 P0.1
(2 1/2 Axis Pocketing - Rough)
(1/4in 6.35mm 2 Flute Carbide Router)
T30 M06
S18547 M3
G0 Z3.175
X-42.78723 Y102.56273
G1 Z-1.63333 F927.2
Z-2.23333 F2781.7
X-46.19 Z-2.83333
X-3.81 F3709.
Y104.15023
X-46.19
Y105.73773
X-3.81
Y106.94272
X-46.19
X-45.12934 Z-1.77267 F5000.
Z-1.17267
G0 Z3.175
X-42.78723 Y102.56273
G1 Z-4.46667 F927.2
Z-5.06667 F2781.7
X-46.19 Z-5.66667
X-3.81 F3709.
Y104.15023
X-46.19
Y105.73773
X-3.81
Y106.94272
X-46.19
X-45.12934 Z-4.60601 F5000.
Z-4.00601
G0 Z3.175
X-42.78723 Y102.56273
G1 Z-7.3 F927.2
Z-7.9 F2781.7
X-46.19 Z-8.5
X-3.81 F3709.
Y104.15023
X-46.19
Y105.73773
X-3.81
Y106.94272
X-46.19
X-45.12934 Z-7.43934 F5000.
Z-6.83934
G0 Z3.175
X-42.78723 Y183.88076
G1 Z-1.63333 F927.2
Z-2.23333 F2781.7
X-46.19 Z-2.83333
X-3.81 F3709.
Y185.46826
X-46.19
Y187.05576
X-3.81
Y188.26076
X-46.19
X-45.12934 Z-1.77267 F5000.
Z-1.17267
G0 Z3.175
X-42.78723 Y183.88076
G1 Z-4.46667 F927.2
Z-5.06667 F2781.7
X-46.19 Z-5.66667
X-3.81 F3709.
Y185.46826
X-46.19
Y187.05576
X-3.81
Y188.26076
X-46.19
X-45.12934 Z-4.60601 F5000.
Z-4.00601
G0 Z3.175
X-42.78723 Y183.88076
G1 Z-7.3 F927.2
Z-7.9 F2781.7
X-46.19 Z-8.5
X-3.81 F3709.
Y185.46826
X-46.19
Y187.05576
X-3.81
Y188.26076
X-46.19
X-45.12934 Z-7.43934 F5000.
Z-6.83934
G0 Z3.175
(2 1/2 Axis Pocketing - Finish)
(1/4in 6.35mm 2 Flute Carbide Router)
X-41.83473 Y105.99022
G1 Z-7.8 F927.2
Z-8.4 F2781.7
X-45.2375 Z-9.
Y103.51522 F3709.
X-4.7625
Y105.99022
X-45.2375
X-46.825
Y101.92772
X-3.175
Y107.57772
X-46.825
Y105.99022
X-45.76434 Z-7.93934 F5000.
Z-7.33934
G0 Z3.175
X-41.83473 Y187.30826
G1 Z-7.8 F927.2
Z-8.4 F2781.7
X-45.2375 Z-9.
Y184.83326 F3709.
X-4.7625
Y187.30826
X-45.2375
X-46.825
Y183.24576
X-3.175
Y188.89576
X-46.825
Y187.30826
X-45.76434 Z-7.93934 F5000.
Z-7.33934
G0 Z3.175
M30
%
