%
G17 G21 G40 G90 G64 P0.1
(Hole Pocketing)
(1/4in 6.35mm 2 Flute Carbide Router)
T30 M06
S18547 M3
G0 Z3.175
X70.24059 Y447.50804
G1 Z1. F927.2
G17
G3 X70.25 Y447.56444 Z-1.25 I-0.24059 J0.0564 P9. F3709.
G1 X70.22855 Y447.73049
X70.09734 Y447.86402
X69.89957 Y447.87353
G03 X70.10043 Y447.25535 I0.10043 J-0.30909
X69.89957 Y447.87353 I-0.10043 J0.30909
G1 X70.25 Y447.56444
X70.24412 Y447.52919
G3 X70.25 Y447.56444 Z-2.5 I-0.24412 J0.03525 P5.
G1 X70.22855 Y447.73049
X70.09734 Y447.86402
X69.89957 Y447.87353
G03 X70.10043 Y447.25535 I0.10043 J-0.30909
X69.89957 Y447.87353 I-0.10043 J0.30909
G1 X70.25 Y447.56444
X70.24412 Y447.52919
G3 X70.25 Y447.56444 Z-3.75 I-0.24412 J0.03525 P5.
G1 X70.22855 Y447.73049
X70.09734 Y447.86402
X69.89957 Y447.87353
G03 X70.10043 Y447.25535 I0.10043 J-0.30909
X69.89957 Y447.87353 I-0.10043 J0.30909
G1 X70.25 Y447.56444
X70.24412 Y447.52919
G3 X70.25 Y447.56444 Z-5. I-0.24412 J0.03525 P5.
G1 X70.22855 Y447.73049
X70.09734 Y447.86402
X69.89957 Y447.87353
G03 X70.10043 Y447.25535 I0.10043 J-0.30909
X69.89957 Y447.87353 I-0.10043 J0.30909
G1 X70.25 Y447.56444
X70.
G0 Z3.175
(2 1/2 Axis Pocketing - Rough)
(1/4in 6.35mm 2 Flute Carbide Router)
X27.21277 Y13.81
G1 Z-1.63333 F927.2
Z-2.23333 F2781.7
X23.81 Z-2.83333
X66.19 F3709.
Y15.3975
X23.81
Y16.985
X66.19
Y18.19
X23.81
X24.87066 Z-1.77267 F5000.
Z-1.17267
G0 Z3.175
X27.21277 Y13.81
G1 Z-4.46667 F927.2
Z-5.06667 F2781.7
X23.81 Z-5.66667
X66.19 F3709.
Y15.3975
X23.81
Y16.985
X66.19
Y18.19
X23.81
X24.87066 Z-4.60601 F5000.
Z-4.00601
G0 Z3.175
X27.21277 Y13.81
G1 Z-7.3 F927.2
Z-7.9 F2781.7
X23.81 Z-8.5
X66.19 F3709.
Y15.3975
X23.81
Y16.985
X66.19
Y18.19
X23.81
X24.87066 Z-7.43934 F5000.
Z-6.83934
G0 Z3.175
X27.21277 Y63.39
G1 Z-1.63333 F927.2
Z-2.23333 F2781.7
X23.81 Z-2.83333
X66.19 F3709.
Y64.9775
X23.81
Y66.565
X66.19
Y67.77
X23.81
X24.87066 Z-1.77267 F5000.
Z-1.17267
G0 Z3.175
X27.21277 Y63.39
G1 Z-4.46667 F927.2
Z-5.06667 F2781.7
X23.81 Z-5.66667
X66.19 F3709.
Y64.9775
X23.81
Y66.565
X66.19
Y67.77
X23.81
X24.87066 Z-4.60601 F5000.
Z-4.00601
G0 Z3.175
X27.21277 Y63.39
G1 Z-7.3 F927.2
Z-7.9 F2781.7
X23.81 Z-8.5
X66.19 F3709.
Y64.9775
X23.81
Y66.565
X66.19
Y67.77
X23.81
X24.87066 Z-7.43934 F5000.
Z-6.83934
G0 Z3.175
X27.21277 Y118.94118
G1 Z-1.63333 F927.2
Z-2.23333 F2781.7
X23.81 Z-2.83333
X66.19 F3709.
Y120.52868
X23.81
Y122.11618
X66.19
Y123.32117
X23.81
X24.87066 Z-1.77267 F5000.
Z-1.17267
G0 Z3.175
X27.21277 Y118.94118
G1 Z-4.46667 F927.2
Z-5.06667 F2781.7
X23.81 Z-5.66667
X66.19 F3709.
Y120.52868
X23.81
Y122.11618
X66.19
Y123.32117
X23.81
X24.87066 Z-4.60601 F5000.
Z-4.00601
G0 Z3.175
X27.21277 Y118.94118
G1 Z-7.3 F927.2
Z-7.9 F2781.7
X23.81 Z-8.5
X66.19 F3709.
Y120.52868
X23.81
Y122.11618
X66.19
Y123.32117
X23.81
X24.87066 Z-7.43934 F5000.
Z-6.83934
G0 Z3.175
X27.21277 Y168.63173
G1 Z-1.63333 F927.2
Z-2.23333 F2781.7
X23.81 Z-2.83333
X66.19 F3709.
Y170.21923
X23.81
Y171.80673
X66.19
Y173.01172
X23.81
X24.87066 Z-1.77267 F5000.
Z-1.17267
G0 Z3.175
X27.21277 Y168.63173
G1 Z-4.46667 F927.2
Z-5.06667 F2781.7
X23.81 Z-5.66667
X66.19 F3709.
Y170.21923
X23.81
Y171.80673
X66.19
Y173.01172
X23.81
X24.87066 Z-4.60601 F5000.
Z-4.00601
G0 Z3.175
X27.21277 Y168.63173
G1 Z-7.3 F927.2
Z-7.9 F2781.7
X23.81 Z-8.5
X66.19 F3709.
Y170.21923
X23.81
Y171.80673
X66.19
Y173.01172
X23.81
X24.87066 Z-7.43934 F5000.
Z-6.83934
G0 Z3.175
X27.21277 Y236.59599
G1 Z-1.63333 F927.2
Z-2.23333 F2781.7
X23.81 Z-2.83333
X66.19 F3709.
Y238.18349
X23.81
Y239.77099
X66.19
Y240.97599
X23.81
X24.87066 Z-1.77267 F5000.
Z-1.17267
G0 Z3.175
X27.21277 Y236.59599
G1 Z-4.46667 F927.2
Z-5.06667 F2781.7
X23.81 Z-5.66667
X66.19 F3709.
Y238.18349
X23.81
Y239.77099
X66.19
Y240.97599
X23.81
X24.87066 Z-4.60601 F5000.
Z-4.00601
G0 Z3.175
X27.21277 Y236.59599
G1 Z-7.3 F927.2
Z-7.9 F2781.7
X23.81 Z-8.5
X66.19 F3709.
Y238.18349
X23.81
Y239.77099
X66.19
Y240.97599
X23.81
X24.87066 Z-7.43934 F5000.
Z-6.83934
G0 Z3.175
X27.21277 Y307.51174
G1 Z-1.63333 F927.2
Z-2.23333 F2781.7
X23.81 Z-2.83333
X66.19 F3709.
Y309.09924
X23.81
Y310.68674
X66.19
Y311.89173
X23.81
X24.87066 Z-1.77267 F5000.
Z-1.17267
G0 Z3.175
X27.21277 Y307.51174
G1 Z-4.46667 F927.2
Z-5.06667 F2781.7
X23.81 Z-5.66667
X66.19 F3709.
Y309.09924
X23.81
Y310.68674
X66.19
Y311.89173
X23.81
X24.87066 Z-4.60601 F5000.
Z-4.00601
G0 Z3.175
X27.21277 Y307.51174
G1 Z-7.3 F927.2
Z-7.9 F2781.7
X23.81 Z-8.5
X66.19 F3709.
Y309.09924
X23.81
Y310.68674
X66.19
Y311.89173
X23.81
X24.87066 Z-7.43934 F5000.
Z-6.83934
G0 Z3.175
X27.21277 Y352.14918
G1 Z-1.63333 F927.2
Z-2.23333 F2781.7
X23.81 Z-2.83333
X66.19 F3709.
Y353.73668
X23.81
Y355.32418
X66.19
Y356.52918
X23.81
X24.87066 Z-1.77267 F5000.
Z-1.17267
G0 Z3.175
X27.21277 Y352.14918
G1 Z-4.46667 F927.2
Z-5.06667 F2781.7
X23.81 Z-5.66667
X66.19 F3709.
Y353.73668
X23.81
Y355.32418
X66.19
Y356.52918
X23.81
X24.87066 Z-4.60601 F5000.
Z-4.00601
G0 Z3.175
X27.21277 Y352.14918
G1 Z-7.3 F927.2
Z-7.9 F2781.7
X23.81 Z-8.5
X66.19 F3709.
Y353.73668
X23.81
Y355.32418
X66.19
Y356.52918
X23.81
X24.87066 Z-7.43934 F5000.
Z-6.83934
G0 Z3.175
X27.21277 Y392.62157
G1 Z-1.63333 F927.2
Z-2.23333 F2781.7
X23.81 Z-2.83333
X66.19 F3709.
Y394.20907
X23.81
Y395.79657
X66.19
Y397.00157
X23.81
X24.87066 Z-1.77267 F5000.
Z-1.17267
G0 Z3.175
X27.21277 Y392.62157
G1 Z-4.46667 F927.2
Z-5.06667 F2781.7
X23.81 Z-5.66667
X66.19 F3709.
Y394.20907
X23.81
Y395.79657
X66.19
Y397.00157
X23.81
X24.87066 Z-4.60601 F5000.
Z-4.00601
G0 Z3.175
X27.21277 Y392.62157
G1 Z-7.3 F927.2
Z-7.9 F2781.7
X23.81 Z-8.5
X66.19 F3709.
Y394.20907
X23.81
Y395.79657
X66.19
Y397.00157
X23.81
X24.87066 Z-7.43934 F5000.
Z-6.83934
G0 Z3.175
X27.21277 Y471.37444
G1 Z-1.63333 F927.2
Z-2.23333 F2781.7
X23.81 Z-2.83333
X66.19 F3709.
Y472.96194
X23.81
Y474.54944
X66.19
Y475.75444
X23.81
X24.87066 Z-1.77267 F5000.
Z-1.17267
G0 Z3.175
X27.21277 Y471.37444
G1 Z-4.46667 F927.2
Z-5.06667 F2781.7
X23.81 Z-5.66667
X66.19 F3709.
Y472.96194
X23.81
Y474.54944
X66.19
Y475.75444
X23.81
X24.87066 Z-4.60601 F5000.
Z-4.00601
G0 Z3.175
X27.21277 Y471.37444
G1 Z-7.3 F927.2
Z-7.9 F2781.7
X23.81 Z-8.5
X66.19 F3709.
Y472.96194
X23.81
Y474.54944
X66.19
Y475.75444
X23.81
X24.87066 Z-7.43934 F5000.
Z-6.83934
G0 Z3.175
(2 1/2 Axis Pocketing - Finish)
(1/4in 6.35mm 2 Flute Carbide Router)
X28.16527 Y17.2375
G1 Z-7.8 F927.2
Z-8.4 F2781.7
X24.7625 Z-9.
Y14.7625 F3709.
X65.2375
Y17.2375
X24.7625
X23.175
Y13.175
X66.825
Y18.825
X23.175
Y17.2375
X24.23566 Z-7.93934 F5000.
Z-7.33934
G0 Z3.175
X28.16527 Y66.8175
G1 Z-7.8 F927.2
Z-8.4 F2781.7
X24.7625 Z-9.
Y64.3425 F3709.
X65.2375
Y66.8175
X24.7625
X23.175
Y62.755
X66.825
Y68.405
X23.175
Y66.8175
X24.23566 Z-7.93934 F5000.
Z-7.33934
G0 Z3.175
X28.16527 Y122.36867
G1 Z-7.8 F927.2
Z-8.4 F2781.7
X24.7625 Z-9.
Y119.89367 F3709.
X65.2375
Y122.36867
X24.7625
X23.175
Y118.30617
X66.825
Y123.95617
X23.175
Y122.36867
X24.23566 Z-7.93934 F5000.
Z-7.33934
G0 Z3.175
X28.16527 Y172.05922
G1 Z-7.8 F927.2
Z-8.4 F2781.7
X24.7625 Z-9.
Y169.58422 F3709.
X65.2375
Y172.05922
X24.7625
X23.175
Y167.99672
X66.825
Y173.64672
X23.175
Y172.05922
X24.23566 Z-7.93934 F5000.
Z-7.33934
G0 Z3.175
X28.16527 Y240.02349
G1 Z-7.8 F927.2
Z-8.4 F2781.7
X24.7625 Z-9.
Y237.54849 F3709.
X65.2375
Y240.02349
X24.7625
X23.175
Y235.96099
X66.825
Y241.61099
X23.175
Y240.02349
X24.23566 Z-7.93934 F5000.
Z-7.33934
G0 Z3.175
X25.69027 Y310.93924
G1 Z-7.8 F927.2
Z-8.4 F2781.7
X24.7625 Z-8.56359
Y308.46424 Z-9.
X65.2375 F3709.
Y310.93924
X24.7625
Y308.46424
Y306.87674
X66.825
Y312.52674
X23.175
Y306.87674
X24.7625
Y307.9374 Z-7.93934 F5000.
Z-7.33934
G0 Z3.175
X25.69027 Y355.57668
G1 Z-7.8 F927.2
Z-8.4 F2781.7
X24.7625 Z-8.56359
Y353.10168 Z-9.
X65.2375 F3709.
Y355.57668
X24.7625
Y353.10168
Y351.51418
X66.825
Y357.16418
X23.175
Y351.51418
X24.7625
Y352.57484 Z-7.93934 F5000.
Z-7.33934
G0 Z3.175
X25.69027 Y396.04907
G1 Z-7.8 F927.2
Z-8.4 F2781.7
X24.7625 Z-8.56359
Y393.57407 Z-9.
X65.2375 F3709.
Y396.04907
X24.7625
Y393.57407
Y391.98657
X66.825
Y397.63657
X23.175
Y391.98657
X24.7625
Y393.04723 Z-7.93934 F5000.
Z-7.33934
G0 Z3.175
X25.69027 Y474.80194
G1 Z-7.8 F927.2
Z-8.4 F2781.7
X24.7625 Z-8.56359
Y472.32694 Z-9.
X65.2375 F3709.
Y474.80194
X24.7625
Y472.32694
Y470.73944
X66.825
Y476.38944
X23.175
Y470.73944
X24.7625
Y471.8001 Z-7.93934 F5000.
Z-7.33934
G0 Z3.175
M30
%
