%
G17 G21 G40 G90 G64 P0.1
(2 1/2 Axis Facing)
(SlotDrill 1/8in 3.175mm Carbide Aluminium Cut)
T6 M06
S24000 M3
G0 Z1.5875
X12.79556 Y-8.46748
G1 Z0. F229.
X11.69289 Y-2.21395 F687.
X12.31825 Y-2.10369
X13.68133 F916.
G17
G03 X14.47502 Y-1.30994 I-0.00006 J0.79375
G1 X11.52456
Y-0.79375
X-3.
X-3.05191 Y-0.79205
X-3.10361 Y-0.78696
X-3.15485 Y-0.7785
X-3.20544 Y-0.7667
X-3.25514 Y-0.75163
X-3.30376 Y-0.73333
X-3.35107 Y-0.71189
X-3.39688 Y-0.68741
X-3.44098 Y-0.65998
X-3.4832 Y-0.62972
X-3.52336 Y-0.59677
X-3.56127 Y-0.56127
X-3.59677 Y-0.52336
X-3.60266 Y-0.51619
X29.10266
X29.12972 Y-0.4832
X29.15998 Y-0.44098
X29.18741 Y-0.39688
X29.21189 Y-0.35107
X29.23333 Y-0.30376
X29.25163 Y-0.25514
X29.2667 Y-0.20544
X29.2785 Y-0.15485
X29.28696 Y-0.10361
X29.29205 Y-0.05191
X29.29375 Y0.
Y0.27756
X-3.79375
Y1.07131
X29.29375
Y1.86506
X-3.79375
Y2.65881
X29.29375
Y3.45256
X-3.79375
Y4.24631
X29.29375
Y5.04006
X-3.79375
Y5.83381
X29.29375
Y6.62756
X-3.79375
Y7.42131
X29.29375
Y8.21506
X-3.79375
Y9.00881
X29.29375
Y9.80256
X-3.79375
Y10.59631
X29.29375
Y11.39006
X-3.79375
Y12.18381
X29.29375
Y12.97756
X-3.79375
Y13.77131
X29.29375
Y14.56506
X-3.79375
Y15.35881
X29.29375
Y16.15256
X-3.79375
Y16.94631
X29.29375
Y17.74006
X-3.79375
Y18.53381
X29.29375
Y19.32756
X-3.79375
Y20.12131
X29.29375
Y20.91506
X-3.79375
Y21.70881
X29.29375
Y22.50256
X-3.79375
Y23.29631
X29.29375
Y24.09006
X-3.79375
Y24.88381
X29.29375
Y25.67756
X-3.79375
Y26.47131
X29.29375
Y27.26506
X-3.79375
Y28.05881
X29.29375
Y28.85256
X-3.79375
Y29.64631
X29.29375
Y30.
X29.29205 Y30.05191
X29.28696 Y30.10361
X29.2785 Y30.15485
X29.2667 Y30.20544
X29.25163 Y30.25514
X29.23333 Y30.30375
X29.21189 Y30.35107
X29.18741 Y30.39687
X29.16055 Y30.44006
X-3.66055
X-3.65998 Y30.44098
X-3.62972 Y30.4832
X-3.59677 Y30.52336
X-3.56127 Y30.56127
X-3.52336 Y30.59677
X-3.4832 Y30.62972
X-3.44098 Y30.65998
X-3.39688 Y30.68741
X-3.35107 Y30.71189
X-3.30376 Y30.73333
X-3.25514 Y30.75163
X-3.20544 Y30.7667
X-3.15485 Y30.7785
X-3.10361 Y30.78696
X-3.05191 Y30.79205
X-3. Y30.79375
X-0.79375
Y31.23381
X26.19375
Y32.02756
X-0.79375
Y32.82131
X26.19375
Y33.61506
X-0.79375
Y34.40881
X26.19375
Y35.20256
X-0.79375
Y35.99631
X26.19375
Y36.79006
X-0.79375
Y37.58381
X26.19375
Y38.37756
X-0.79375
Y39.17131
X26.19375
Y39.96506
X-0.79375
Y40.75881
X26.19375
Y41.55256
X-0.79375
Y42.34631
X26.19375
Y43.14006
X-0.79375
Y43.93381
X26.19375
Y44.72756
X-0.79375
Y45.52131
X26.19375
Y46.31506
X-0.79375
Y47.10881
X26.19375
Y47.90256
X-0.79375
Y48.69631
X26.19375
Y49.49006
X-0.79375
Y50.28381
X26.19375
Y51.07756
X-0.79375
Y51.87131
X26.19375
Y52.66506
X-0.79375
Y53.45881
X26.19375
Y54.25256
X-0.79375
Y55.04631
X26.19375
Y55.84006
X-0.79375
Y56.63381
X26.19375
Y57.42756
X-0.79375
Y58.22131
X26.19375
Y59.01506
X-0.79375
Y59.80881
X26.19375
Y60.60256
X-0.79375
Y61.39631
X26.19375
Y62.19006
X-0.79375
Y62.98381
X26.19375
Y63.77756
X-0.79375
Y64.57131
X26.19375
Y65.36506
X-0.79375
Y66.15881
X26.19375
Y66.95256
X-0.79375
Y67.74631
X26.19375
Y68.54006
X-0.79375
Y69.33381
X26.19375
Y70.12756
X-0.79375
Y70.92131
X26.19375
Y71.71506
X-0.79375
Y72.50881
X26.19375
Y73.30256
X-0.79375
Y74.09631
X26.19375
Y74.89006
X-0.79375
Y75.68381
X26.19375
Y76.47756
X-0.79375
Y77.27131
X26.19375
Y78.06506
X-0.79375
Y78.85881
X26.19375
Y79.65256
X-0.79375
Y80.44631
X26.19375
Y81.24006
X-0.79375
Y82.03381
X26.19375
Y82.82756
X-0.79375
Y83.62131
X26.19375
Y84.41506
X-0.79375
Y85.20881
X26.19375
Y86.00256
X-0.79375
Y86.79631
X26.19375
Y87.59006
X-0.79375
Y88.38381
X26.19375
Y89.17756
X-0.79375
Y89.97131
X26.19375
Y90.76506
X-0.79375
Y91.55881
X26.19375
Y92.35256
X-0.79375
Y93.14631
X26.19375
Y93.94006
X-0.79375
Y94.73381
X26.19375
Y95.52756
X-0.79375
Y96.32131
X26.19375
Y97.11506
X-0.79375
Y97.90881
X26.19375
Y98.70256
X-0.79375
Y99.49631
X26.19375
Y100.29006
X-0.79375
Y101.08381
X26.19375
Y101.87756
X-0.79375
Y102.67131
X26.19375
Y103.46506
X-0.79375
Y104.25881
X26.19375
Y105.05256
X-0.79375
Y105.84631
X26.19375
Y106.64006
X-0.79375
Y107.43381
X26.19375
Y108.22756
X-0.79375
Y109.02131
X26.19375
Y109.81506
X-0.79375
Y110.60881
X26.19375
Y111.40256
X-0.79375
Y112.19631
X26.19375
Y112.99006
X-0.79375
Y113.78381
X26.19375
Y114.57756
X-0.79375
Y115.37131
X26.19375
Y116.16506
X-0.79375
Y116.95881
X26.19375
Y117.75256
X-0.79375
Y118.54631
X26.19375
Y119.34006
X-0.79375
Y120.13381
X26.19375
Y120.92756
X-0.79375
Y121.72131
X26.19375
Y122.51506
X-0.79375
Y123.30881
X26.19375
Y124.10256
X-0.79375
Y124.89631
X26.19375
Y125.69006
X-0.79375
Y126.48381
X26.19375
Y127.27756
X-0.79375
Y128.07131
X26.19375
Y128.86506
X-0.79375
Y129.65881
X26.19375
Y130.45256
X-0.79375
Y131.24631
X26.19375
Y132.04006
X-0.79375
Y132.83381
X26.19375
Y133.62756
X-0.79375
Y134.42131
X26.19375
Y135.21506
X-0.79375
Y136.00881
X26.19375
Y136.80256
X-0.79375
Y137.59631
X26.19375
Y138.39006
X-0.79375
Y139.18381
X26.19375
Y139.97756
X-0.79375
Y140.77131
X26.19375
Y141.56506
X-0.79375
Y142.35881
X26.19375
Y143.15256
X-0.79375
Y143.94631
X26.19375
Y144.74006
X-0.79375
Y145.53381
X26.19375
Y146.32756
X-0.79375
Y147.12131
X26.19375
Y147.91506
X-0.79375
Y148.70881
X26.19375
Y149.50256
X-0.79375
Y150.29631
X26.19375
Y151.09006
X-0.79375
Y151.88381
X26.19375
Y152.67756
X-0.79375
Y153.47131
X26.19375
Y154.26506
X-0.79375
Y155.05881
X26.19375
Y155.85256
X-0.79375
Y156.64631
X26.19375
Y157.44006
X-0.79375
Y158.23381
X26.19375
Y159.02756
X-0.79375
Y159.82131
X26.19375
Y160.61506
X-0.79375
Y161.40881
X26.19375
Y162.20256
X-0.79375
Y162.99631
X26.19375
Y163.79006
X-0.79375
Y164.58381
X26.19375
Y165.37756
X-0.79375
Y166.17131
X26.19375
Y166.96506
X-0.79375
Y167.75881
X26.19375
Y168.55256
X-0.79375
Y169.34631
X26.19375
Y170.14006
X-0.79375
Y170.93381
X26.19375
Y171.72756
X-0.79375
Y172.52131
X26.19375
Y173.31506
X-0.79375
Y174.10881
X26.19375
Y174.90256
X-0.79375
Y175.69631
X26.19375
Y176.49006
X-0.79375
Y177.28381
X26.19375
Y178.07756
X-0.79375
Y178.87131
X26.19375
Y179.66506
X-0.79375
Y180.45881
X26.19375
Y181.25256
X-0.79375
Y182.04631
X26.19375
Y182.84006
X-0.79375
Y183.63381
X26.19375
Y184.42756
X-0.79375
Y185.22131
X26.19375
Y186.01506
X-0.79375
Y186.80881
X26.19375
Y187.60256
X-0.79375
Y188.39631
X26.19375
Y189.19006
X-0.79375
Y189.98381
X26.19375
Y190.77756
X-0.79375
Y191.57131
X26.19375
Y192.36506
X-0.79375
Y193.15881
X26.19375
Y193.95256
X-0.79375
Y194.74631
X26.19375
Y195.54006
X-0.79375
Y196.33381
X26.19375
Y197.12756
X-0.79375
Y197.92131
X26.19375
Y198.71506
X-0.79375
Y199.50881
X26.19375
Y200.30256
X-0.79375
Y201.09631
X26.19375
Y201.89006
X-0.79375
Y202.68381
X26.19375
Y203.47756
X-0.79375
Y204.27131
X26.19375
Y205.06506
X-0.79375
Y205.85881
X26.19375
Y206.65256
X-0.79375
Y207.44631
X26.19375
Y208.24006
X-0.79375
Y209.03381
X26.19375
Y209.82756
X-0.79375
Y210.62131
X26.19375
Y211.41506
X-0.79375
Y212.20881
X26.19375
Y213.00256
X-0.79375
Y213.79631
X26.19375
Y214.59006
X-0.79375
Y215.38381
X26.19375
Y216.17756
X-0.79375
Y216.97131
X26.19375
G03 X25.61084 Y217.76506 I-0.79418 J0.02769
G1 X-0.21084
X-0.20544 Y217.7667
X-0.15485 Y217.7785
X-0.10361 Y217.78696
X-0.05191 Y217.79205
X-0.00003 Y217.79375
X25.40003
X31.65356 Y218.89641 F1374.
X30.55089 Y225.14994
G0 Z1.5875
M30
%
