%
G17 G21 G40 G90 G64 P0.1
(Hole Pocketing)
(SlotDrill 1/8in 3.175mm Carbide Aluminium Cut)
T6 M06
S24000 M3
G0 Z1.5875
X12.56249 Y45.99976
G1 Z0.635 F229.
X12.5625 Y46. Z0.63488 F916.
X12.56204 Y46.00753 Z0.63118
X12.56068 Y46.01496 Z0.62747
X12.55844 Y46.02216 Z0.62377
X12.55534 Y46.02905 Z0.62006
X12.55144 Y46.0355 Z0.61636
X12.54678 Y46.04145 Z0.61265
X12.54144 Y46.04678 Z0.60895
X12.5355 Y46.05144 Z0.60525
X12.52904 Y46.05534 Z0.60154
X12.52216 Y46.05844 Z0.59784
X12.51496 Y46.06068 Z0.59413
X12.50753 Y46.06204 Z0.59043
X12.5 Y46.0625 Z0.58672
X12.49247 Y46.06204 Z0.58302
X12.48504 Y46.06068 Z0.57931
X12.47784 Y46.05844 Z0.57561
X12.47096 Y46.05534 Z0.5719
X12.4645 Y46.05144 Z0.5682
X12.45855 Y46.04678 Z0.5645
X12.45322 Y46.04145 Z0.56079
X12.44856 Y46.0355 Z0.55709
X12.44466 Y46.02905 Z0.55338
X12.44156 Y46.02216 Z0.54968
X12.43932 Y46.01496 Z0.54597
X12.43796 Y46.00753 Z0.54227
X12.4375 Y46. Z0.53856
X12.43796 Y45.99247 Z0.53486
X12.43932 Y45.98504 Z0.53116
X12.44156 Y45.97784 Z0.52745
X12.44466 Y45.97095 Z0.52375
X12.44856 Y45.9645 Z0.52004
X12.45322 Y45.95855 Z0.51634
X12.45855 Y45.95322 Z0.51263
X12.4645 Y45.94856 Z0.50893
X12.47096 Y45.94466 Z0.50522
X12.47784 Y45.94156 Z0.50152
X12.48504 Y45.93932 Z0.49781
X12.49247 Y45.93796 Z0.49411
X12.5 Y45.9375 Z0.4904
X12.50753 Y45.93796 Z0.4867
X12.51496 Y45.93932 Z0.48299
X12.52216 Y45.94156 Z0.47929
X12.52904 Y45.94466 Z0.47559
X12.5355 Y45.94856 Z0.47188
X12.54144 Y45.95322 Z0.46818
X12.54678 Y45.95855 Z0.46447
X12.55144 Y45.9645 Z0.46077
X12.55534 Y45.97095 Z0.45706
X12.55844 Y45.97784 Z0.45336
X12.56068 Y45.98504 Z0.44965
X12.56204 Y45.99247 Z0.44595
X12.56249 Y45.99976 Z0.44224
X12.5625 Y46. Z0.44213
X12.56204 Y46.00753 Z0.43842
X12.56068 Y46.01496 Z0.43472
X12.55844 Y46.02216 Z0.43101
X12.55534 Y46.02905 Z0.42731
X12.55144 Y46.0355 Z0.4236
X12.54678 Y46.04145 Z0.4199
X12.54144 Y46.04678 Z0.4162
X12.5355 Y46.05144 Z0.41249
X12.52904 Y46.05534 Z0.40879
X12.52216 Y46.05844 Z0.40508
X12.51496 Y46.06068 Z0.40138
X12.50753 Y46.06204 Z0.39767
X12.5 Y46.0625 Z0.39397
X12.49247 Y46.06204 Z0.39026
X12.48504 Y46.06068 Z0.38656
X12.47784 Y46.05844 Z0.38285
X12.47096 Y46.05534 Z0.37915
X12.4645 Y46.05144 Z0.37544
X12.45855 Y46.04678 Z0.37174
X12.45322 Y46.04145 Z0.36804
X12.44856 Y46.0355 Z0.36433
X12.44466 Y46.02905 Z0.36063
X12.44156 Y46.02216 Z0.35692
X12.43932 Y46.01496 Z0.35322
X12.43796 Y46.00753 Z0.34951
X12.4375 Y46. Z0.34581
X12.43796 Y45.99247 Z0.3421
X12.43932 Y45.98504 Z0.3384
X12.44156 Y45.97784 Z0.3347
X12.44466 Y45.97095 Z0.33099
X12.44856 Y45.9645 Z0.32729
X12.45322 Y45.95855 Z0.32358
X12.45855 Y45.95322 Z0.31988
X12.4645 Y45.94856 Z0.31617
X12.47096 Y45.94466 Z0.31247
X12.47784 Y45.94156 Z0.30876
X12.48504 Y45.93932 Z0.30506
X12.49247 Y45.93796 Z0.30135
X12.5 Y45.9375 Z0.29765
X12.50753 Y45.93796 Z0.29394
X12.51496 Y45.93932 Z0.29024
X12.52216 Y45.94156 Z0.28654
X12.52904 Y45.94466 Z0.28283
X12.5355 Y45.94856 Z0.27913
X12.54144 Y45.95322 Z0.27542
X12.54678 Y45.95855 Z0.27172
X12.55144 Y45.9645 Z0.26801
X12.55534 Y45.97095 Z0.26431
X12.55844 Y45.97784 Z0.2606
X12.56068 Y45.98504 Z0.2569
X12.56204 Y45.99247 Z0.25319
X12.56249 Y45.99976 Z0.24949
X12.5625 Y46. Z0.24937
X12.56204 Y46.00753 Z0.24567
X12.56068 Y46.01496 Z0.24196
X12.55844 Y46.02216 Z0.23826
X12.55534 Y46.02905 Z0.23455
X12.55144 Y46.0355 Z0.23085
X12.54678 Y46.04145 Z0.22715
X12.54144 Y46.04678 Z0.22344
X12.5355 Y46.05144 Z0.21974
X12.52904 Y46.05534 Z0.21603
X12.52216 Y46.05844 Z0.21233
X12.51496 Y46.06068 Z0.20862
X12.50753 Y46.06204 Z0.20492
X12.5 Y46.0625 Z0.20121
X12.49247 Y46.06204 Z0.19751
X12.48504 Y46.06068 Z0.1938
X12.47784 Y46.05844 Z0.1901
X12.47096 Y46.05534 Z0.18639
X12.4645 Y46.05144 Z0.18269
X12.45855 Y46.04678 Z0.17899
X12.45322 Y46.04145 Z0.17528
X12.44856 Y46.0355 Z0.17158
X12.44466 Y46.02905 Z0.16787
X12.44156 Y46.02216 Z0.16417
X12.43932 Y46.01496 Z0.16046
X12.43796 Y46.00753 Z0.15676
X12.4375 Y46. Z0.15305
X12.43796 Y45.99247 Z0.14935
X12.43932 Y45.98504 Z0.14564
X12.44156 Y45.97784 Z0.14194
X12.44466 Y45.97095 Z0.13823
X12.44856 Y45.9645 Z0.13453
X12.45322 Y45.95855 Z0.13083
X12.45855 Y45.95322 Z0.12712
X12.4645 Y45.94856 Z0.12342
X12.47096 Y45.94466 Z0.11971
X12.47784 Y45.94156 Z0.11601
X12.48504 Y45.93932 Z0.1123
X12.49247 Y45.93796 Z0.1086
X12.5 Y45.9375 Z0.10489
X12.50753 Y45.93796 Z0.10119
X12.51496 Y45.93932 Z0.09748
X12.52216 Y45.94156 Z0.09378
X12.52904 Y45.94466 Z0.09008
X12.5355 Y45.94856 Z0.08637
X12.54144 Y45.95322 Z0.08267
X12.54678 Y45.95855 Z0.07896
X12.55144 Y45.9645 Z0.07526
X12.55534 Y45.97095 Z0.07155
X12.55844 Y45.97784 Z0.06785
X12.56068 Y45.98504 Z0.06414
X12.56204 Y45.99247 Z0.06044
X12.56249 Y45.99976 Z0.05673
X12.5625 Y46. Z0.05662
X12.56204 Y46.00753 Z0.05291
X12.56068 Y46.01496 Z0.04921
X12.55844 Y46.02216 Z0.0455
X12.55534 Y46.02905 Z0.0418
X12.55144 Y46.0355 Z0.03809
X12.54678 Y46.04145 Z0.03439
X12.54144 Y46.04678 Z0.03068
X12.5355 Y46.05144 Z0.02698
X12.52904 Y46.05534 Z0.02328
X12.52216 Y46.05844 Z0.01957
X12.51496 Y46.06068 Z0.01587
X12.50753 Y46.06204 Z0.01216
X12.5 Y46.0625 Z0.00846
X12.49247 Y46.06204 Z0.00475
X12.48504 Y46.06068 Z0.00105
X12.47784 Y46.05844 Z-0.00266
X12.47096 Y46.05534 Z-0.00636
X12.4645 Y46.05144 Z-0.01006
X12.45855 Y46.04678 Z-0.01377
X12.45322 Y46.04145 Z-0.01747
X12.44856 Y46.0355 Z-0.02118
X12.44466 Y46.02905 Z-0.02488
X12.44156 Y46.02216 Z-0.02859
X12.43932 Y46.01496 Z-0.03229
X12.43796 Y46.00753 Z-0.036
X12.4375 Y46. Z-0.0397
X12.43796 Y45.99247 Z-0.04341
X12.43932 Y45.98504 Z-0.04711
X12.44156 Y45.97784 Z-0.05082
X12.44466 Y45.97095 Z-0.05452
X12.44856 Y45.9645 Z-0.05822
X12.45322 Y45.95855 Z-0.06193
X12.45855 Y45.95322 Z-0.06563
X12.4645 Y45.94856 Z-0.06934
X12.47096 Y45.94466 Z-0.07304
X12.47784 Y45.94156 Z-0.07675
X12.48504 Y45.93932 Z-0.08045
X12.49247 Y45.93796 Z-0.08416
X12.5 Y45.9375 Z-0.08786
X12.50753 Y45.93796 Z-0.09157
X12.51496 Y45.93932 Z-0.09527
X12.52216 Y45.94156 Z-0.09898
X12.52904 Y45.94466 Z-0.10268
X12.5355 Y45.94856 Z-0.10638
X12.54144 Y45.95322 Z-0.11009
X12.54678 Y45.95855 Z-0.11379
X12.55144 Y45.9645 Z-0.1175
X12.55534 Y45.97095 Z-0.1212
X12.55844 Y45.97784 Z-0.12491
X12.56068 Y45.98504 Z-0.12861
X12.56204 Y45.99247 Z-0.13232
X12.56249 Y45.99976 Z-0.13602
X12.5625 Y46. Z-0.13614
X12.56204 Y46.00753 Z-0.13984
X12.56068 Y46.01496 Z-0.14355
X12.55844 Y46.02216 Z-0.14725
X12.55534 Y46.02905 Z-0.15096
X12.55144 Y46.0355 Z-0.15466
X12.54678 Y46.04145 Z-0.15837
X12.54144 Y46.04678 Z-0.16207
X12.5355 Y46.05144 Z-0.16577
X12.52904 Y46.05534 Z-0.16948
X12.52216 Y46.05844 Z-0.17318
X12.51496 Y46.06068 Z-0.17689
X12.50753 Y46.06204 Z-0.18059
X12.5 Y46.0625 Z-0.1843
X12.49247 Y46.06204 Z-0.188
X12.48504 Y46.06068 Z-0.19171
X12.47784 Y46.05844 Z-0.19541
X12.47096 Y46.05534 Z-0.19911
X12.4645 Y46.05144 Z-0.20282
X12.45855 Y46.04678 Z-0.20653
X12.45322 Y46.04145 Z-0.21023
X12.44856 Y46.0355 Z-0.21393
X12.44466 Y46.02905 Z-0.21764
X12.44156 Y46.02216 Z-0.22134
X12.43932 Y46.01496 Z-0.22505
X12.43796 Y46.00753 Z-0.22875
X12.4375 Y46. Z-0.23246
X12.43796 Y45.99247 Z-0.23616
X12.43932 Y45.98504 Z-0.23987
X12.44156 Y45.97784 Z-0.24357
X12.44466 Y45.97095 Z-0.24728
X12.44856 Y45.9645 Z-0.25098
X12.45322 Y45.95855 Z-0.25468
X12.45855 Y45.95322 Z-0.25839
X12.4645 Y45.94856 Z-0.26209
X12.47096 Y45.94466 Z-0.2658
X12.47784 Y45.94156 Z-0.2695
X12.48504 Y45.93932 Z-0.27321
X12.49247 Y45.93796 Z-0.27691
X12.5 Y45.9375 Z-0.28062
X12.50753 Y45.93796 Z-0.28432
X12.51496 Y45.93932 Z-0.28803
X12.52216 Y45.94156 Z-0.29173
X12.52904 Y45.94466 Z-0.29543
X12.5355 Y45.94856 Z-0.29914
X12.54144 Y45.95322 Z-0.30284
X12.54678 Y45.95855 Z-0.30655
X12.55144 Y45.9645 Z-0.31025
X12.55534 Y45.97095 Z-0.31396
X12.55844 Y45.97784 Z-0.31766
X12.56068 Y45.98504 Z-0.32137
X12.56204 Y45.99247 Z-0.32507
X12.56249 Y45.99976 Z-0.32878
X12.5625 Y46. Z-0.32889
X12.56204 Y46.00753 Z-0.3326
X12.56068 Y46.01496 Z-0.3363
X12.55844 Y46.02216 Z-0.34001
X12.55534 Y46.02905 Z-0.34371
X12.55144 Y46.0355 Z-0.34742
X12.54678 Y46.04145 Z-0.35112
X12.54144 Y46.04678 Z-0.35483
X12.5355 Y46.05144 Z-0.35853
X12.52904 Y46.05534 Z-0.36223
X12.52216 Y46.05844 Z-0.36594
X12.51496 Y46.06068 Z-0.36964
X12.50753 Y46.06204 Z-0.37335
X12.5 Y46.0625 Z-0.37705
X12.49247 Y46.06204 Z-0.38076
X12.48504 Y46.06068 Z-0.38446
X12.47784 Y46.05844 Z-0.38817
X12.47096 Y46.05534 Z-0.39187
X12.4645 Y46.05144 Z-0.39558
X12.45855 Y46.04678 Z-0.39928
X12.45322 Y46.04145 Z-0.40298
X12.44856 Y46.0355 Z-0.40669
X12.44466 Y46.02905 Z-0.41039
X12.44156 Y46.02216 Z-0.4141
X12.43932 Y46.01496 Z-0.4178
X12.43796 Y46.00753 Z-0.42151
X12.4375 Y46. Z-0.42521
X12.43796 Y45.99247 Z-0.42892
X12.43932 Y45.98504 Z-0.43262
X12.44156 Y45.97784 Z-0.43633
X12.44466 Y45.97095 Z-0.44003
X12.44856 Y45.9645 Z-0.44374
X12.45322 Y45.95855 Z-0.44744
X12.45855 Y45.95322 Z-0.45114
X12.4645 Y45.94856 Z-0.45485
X12.47096 Y45.94466 Z-0.45855
X12.47784 Y45.94156 Z-0.46226
X12.48504 Y45.93932 Z-0.46596
X12.49247 Y45.93796 Z-0.46967
X12.5 Y45.9375 Z-0.47337
X12.50753 Y45.93796 Z-0.47708
X12.51496 Y45.93932 Z-0.48078
X12.52216 Y45.94156 Z-0.48449
X12.52904 Y45.94466 Z-0.48819
X12.5355 Y45.94856 Z-0.49189
X12.54144 Y45.95322 Z-0.4956
X12.54678 Y45.95855 Z-0.4993
X12.55144 Y45.9645 Z-0.50301
X12.55534 Y45.97095 Z-0.50671
X12.55844 Y45.97784 Z-0.51042
X12.56068 Y45.98504 Z-0.51412
X12.56204 Y45.99247 Z-0.51783
X12.56249 Y45.99976 Z-0.52153
X12.5625 Y46. Z-0.52165
X12.56204 Y46.00753 Z-0.52535
X12.56068 Y46.01496 Z-0.52906
X12.55844 Y46.02216 Z-0.53276
X12.55534 Y46.02905 Z-0.53647
X12.55144 Y46.0355 Z-0.54017
X12.54678 Y46.04145 Z-0.54388
X12.54144 Y46.04678 Z-0.54758
X12.5355 Y46.05144 Z-0.55128
X12.52904 Y46.05534 Z-0.55499
X12.52216 Y46.05844 Z-0.55869
X12.51496 Y46.06068 Z-0.5624
X12.50753 Y46.06204 Z-0.5661
X12.5 Y46.0625 Z-0.56981
X12.49247 Y46.06204 Z-0.57351
X12.48504 Y46.06068 Z-0.57722
X12.47784 Y46.05844 Z-0.58092
X12.47096 Y46.05534 Z-0.58463
X12.4645 Y46.05144 Z-0.58833
X12.45855 Y46.04678 Z-0.59203
X12.45322 Y46.04145 Z-0.59574
X12.44856 Y46.0355 Z-0.59944
X12.44466 Y46.02905 Z-0.60315
X12.44156 Y46.02216 Z-0.60685
X12.43932 Y46.01496 Z-0.61056
X12.43796 Y46.00753 Z-0.61426
X12.4375 Y46. Z-0.61797
X12.43796 Y45.99247 Z-0.62167
X12.43932 Y45.98504 Z-0.62538
X12.44156 Y45.97784 Z-0.62908
X12.44466 Y45.97095 Z-0.63279
X12.44856 Y45.9645 Z-0.63649
X12.45322 Y45.95855 Z-0.64019
X12.45855 Y45.95322 Z-0.6439
X12.4645 Y45.94856 Z-0.6476
X12.47096 Y45.94466 Z-0.65131
X12.47784 Y45.94156 Z-0.65501
X12.48504 Y45.93932 Z-0.65872
X12.49247 Y45.93796 Z-0.66242
X12.5 Y45.9375 Z-0.66613
X12.50753 Y45.93796 Z-0.66983
X12.51496 Y45.93932 Z-0.67354
X12.52216 Y45.94156 Z-0.67724
X12.52904 Y45.94466 Z-0.68094
X12.5355 Y45.94856 Z-0.68465
X12.54144 Y45.95322 Z-0.68835
X12.54678 Y45.95855 Z-0.69206
X12.55144 Y45.9645 Z-0.69576
X12.55534 Y45.97095 Z-0.69947
X12.55844 Y45.97784 Z-0.70317
X12.56068 Y45.98504 Z-0.70688
X12.56204 Y45.99247 Z-0.71058
X12.56249 Y45.99976 Z-0.71429
X12.56059 Y46.01531
G17
G03 X12.43941 Y45.98469 I-0.06059 J-0.01531
X12.56059 Y46.01531 I0.06059 J0.01531
G1 X12.56249 Y45.99976
X12.5625 Y46. Z-0.71439
X12.56204 Y46.00753 Z-0.71783
X12.56068 Y46.01496 Z-0.72126
X12.55844 Y46.02216 Z-0.72469
X12.55534 Y46.02905 Z-0.72812
X12.55144 Y46.0355 Z-0.73155
X12.54678 Y46.04145 Z-0.73499
X12.54144 Y46.04678 Z-0.73842
X12.5355 Y46.05144 Z-0.74185
X12.52904 Y46.05534 Z-0.74528
X12.52216 Y46.05844 Z-0.74871
X12.51496 Y46.06068 Z-0.75215
X12.50753 Y46.06204 Z-0.75558
X12.5 Y46.0625 Z-0.75901
X12.49247 Y46.06204 Z-0.76244
X12.48504 Y46.06068 Z-0.76587
X12.47784 Y46.05844 Z-0.76931
X12.47096 Y46.05534 Z-0.77274
X12.4645 Y46.05144 Z-0.77617
X12.45855 Y46.04678 Z-0.7796
X12.45322 Y46.04145 Z-0.78303
X12.44856 Y46.0355 Z-0.78647
X12.44466 Y46.02905 Z-0.7899
X12.44156 Y46.02216 Z-0.79333
X12.43932 Y46.01496 Z-0.79676
X12.43796 Y46.00753 Z-0.80019
X12.4375 Y46. Z-0.80363
X12.43796 Y45.99247 Z-0.80706
X12.43932 Y45.98504 Z-0.81049
X12.44156 Y45.97784 Z-0.81392
X12.44466 Y45.97095 Z-0.81735
X12.44856 Y45.9645 Z-0.82079
X12.45322 Y45.95855 Z-0.82422
X12.45855 Y45.95322 Z-0.82765
X12.4645 Y45.94856 Z-0.83108
X12.47096 Y45.94466 Z-0.83451
X12.47784 Y45.94156 Z-0.83795
X12.48504 Y45.93932 Z-0.84138
X12.49247 Y45.93796 Z-0.84481
X12.5 Y45.9375 Z-0.84824
X12.50753 Y45.93796 Z-0.85167
X12.51496 Y45.93932 Z-0.85511
X12.52216 Y45.94156 Z-0.85854
X12.52904 Y45.94466 Z-0.86197
X12.5355 Y45.94856 Z-0.8654
X12.54144 Y45.95322 Z-0.86883
X12.54678 Y45.95855 Z-0.87227
X12.55144 Y45.9645 Z-0.8757
X12.55534 Y45.97095 Z-0.87913
X12.55844 Y45.97784 Z-0.88256
X12.56068 Y45.98504 Z-0.88599
X12.56204 Y45.99247 Z-0.88943
X12.56249 Y45.99976 Z-0.89286
X12.5625 Y46. Z-0.89297
X12.56204 Y46.00753 Z-0.8964
X12.56068 Y46.01496 Z-0.89983
X12.55844 Y46.02216 Z-0.90326
X12.55534 Y46.02905 Z-0.90669
X12.55144 Y46.0355 Z-0.91013
X12.54678 Y46.04145 Z-0.91356
X12.54144 Y46.04678 Z-0.91699
X12.5355 Y46.05144 Z-0.92042
X12.52904 Y46.05534 Z-0.92385
X12.52216 Y46.05844 Z-0.92729
X12.51496 Y46.06068 Z-0.93072
X12.50753 Y46.06204 Z-0.93415
X12.5 Y46.0625 Z-0.93758
X12.49247 Y46.06204 Z-0.94101
X12.48504 Y46.06068 Z-0.94445
X12.47784 Y46.05844 Z-0.94788
X12.47096 Y46.05534 Z-0.95131
X12.4645 Y46.05144 Z-0.95474
X12.45855 Y46.04678 Z-0.95817
X12.45322 Y46.04145 Z-0.96161
X12.44856 Y46.0355 Z-0.96504
X12.44466 Y46.02905 Z-0.96847
X12.44156 Y46.02216 Z-0.9719
X12.43932 Y46.01496 Z-0.97533
X12.43796 Y46.00753 Z-0.97876
X12.4375 Y46. Z-0.9822
X12.43796 Y45.99247 Z-0.98563
X12.43932 Y45.98504 Z-0.98906
X12.44156 Y45.97784 Z-0.99249
X12.44466 Y45.97095 Z-0.99592
X12.44856 Y45.9645 Z-0.99936
X12.45322 Y45.95855 Z-1.00279
X12.45855 Y45.95322 Z-1.00622
X12.4645 Y45.94856 Z-1.00965
X12.47096 Y45.94466 Z-1.01309
X12.47784 Y45.94156 Z-1.01652
X12.48504 Y45.93932 Z-1.01995
X12.49247 Y45.93796 Z-1.02338
X12.5 Y45.9375 Z-1.02681
X12.50753 Y45.93796 Z-1.03025
X12.51496 Y45.93932 Z-1.03368
X12.52216 Y45.94156 Z-1.03711
X12.52904 Y45.94466 Z-1.04054
X12.5355 Y45.94856 Z-1.04397
X12.54144 Y45.95322 Z-1.0474
X12.54678 Y45.95855 Z-1.05084
X12.55144 Y45.9645 Z-1.05427
X12.55534 Y45.97095 Z-1.0577
X12.55844 Y45.97784 Z-1.06113
X12.56068 Y45.98504 Z-1.06457
X12.56204 Y45.99247 Z-1.068
X12.56249 Y45.99976 Z-1.07143
X12.5625 Y46. Z-1.07154
X12.56204 Y46.00753 Z-1.07497
X12.56068 Y46.01496 Z-1.0784
X12.55844 Y46.02216 Z-1.08183
X12.55534 Y46.02905 Z-1.08526
X12.55144 Y46.0355 Z-1.0887
X12.54678 Y46.04145 Z-1.09213
X12.54144 Y46.04678 Z-1.09556
X12.5355 Y46.05144 Z-1.09899
X12.52904 Y46.05534 Z-1.10243
X12.52216 Y46.05844 Z-1.10586
X12.51496 Y46.06068 Z-1.10929
X12.50753 Y46.06204 Z-1.11272
X12.5 Y46.0625 Z-1.11615
X12.49247 Y46.06204 Z-1.11959
X12.48504 Y46.06068 Z-1.12302
X12.47784 Y46.05844 Z-1.12645
X12.47096 Y46.05534 Z-1.12988
X12.4645 Y46.05144 Z-1.13331
X12.45855 Y46.04678 Z-1.13674
X12.45322 Y46.04145 Z-1.14018
X12.44856 Y46.0355 Z-1.14361
X12.44466 Y46.02905 Z-1.14704
X12.44156 Y46.02216 Z-1.15047
X12.43932 Y46.01496 Z-1.15391
X12.43796 Y46.00753 Z-1.15734
X12.4375 Y46. Z-1.16077
X12.43796 Y45.99247 Z-1.1642
X12.43932 Y45.98504 Z-1.16763
X12.44156 Y45.97784 Z-1.17107
X12.44466 Y45.97095 Z-1.1745
X12.44856 Y45.9645 Z-1.17793
X12.45322 Y45.95855 Z-1.18136
X12.45855 Y45.95322 Z-1.18479
X12.4645 Y45.94856 Z-1.18822
X12.47096 Y45.94466 Z-1.19166
X12.47784 Y45.94156 Z-1.19509
X12.48504 Y45.93932 Z-1.19852
X12.49247 Y45.93796 Z-1.20195
X12.5 Y45.9375 Z-1.20538
X12.50753 Y45.93796 Z-1.20882
X12.51496 Y45.93932 Z-1.21225
X12.52216 Y45.94156 Z-1.21568
X12.52904 Y45.94466 Z-1.21911
X12.5355 Y45.94856 Z-1.22254
X12.54144 Y45.95322 Z-1.22598
X12.54678 Y45.95855 Z-1.22941
X12.55144 Y45.9645 Z-1.23284
X12.55534 Y45.97095 Z-1.23627
X12.55844 Y45.97784 Z-1.2397
X12.56068 Y45.98504 Z-1.24314
X12.56204 Y45.99247 Z-1.24657
X12.56249 Y45.99976 Z-1.25
X12.5625 Y46. Z-1.25011
X12.56204 Y46.00753 Z-1.25354
X12.56068 Y46.01496 Z-1.25697
X12.55844 Y46.02216 Z-1.26041
X12.55534 Y46.02905 Z-1.26384
X12.55144 Y46.0355 Z-1.26727
X12.54678 Y46.04145 Z-1.2707
X12.54144 Y46.04678 Z-1.27413
X12.5355 Y46.05144 Z-1.27756
X12.52904 Y46.05534 Z-1.281
X12.52216 Y46.05844 Z-1.28443
X12.51496 Y46.06068 Z-1.28786
X12.50753 Y46.06204 Z-1.29129
X12.5 Y46.0625 Z-1.29472
X12.49247 Y46.06204 Z-1.29816
X12.48504 Y46.06068 Z-1.30159
X12.47784 Y46.05844 Z-1.30502
X12.47096 Y46.05534 Z-1.30845
X12.4645 Y46.05144 Z-1.31188
X12.45855 Y46.04678 Z-1.31532
X12.45322 Y46.04145 Z-1.31875
X12.44856 Y46.0355 Z-1.32218
X12.44466 Y46.02905 Z-1.32561
X12.44156 Y46.02216 Z-1.32904
X12.43932 Y46.01496 Z-1.33248
X12.43796 Y46.00753 Z-1.33591
X12.4375 Y46. Z-1.33934
X12.43796 Y45.99247 Z-1.34277
X12.43932 Y45.98504 Z-1.3462
X12.44156 Y45.97784 Z-1.34964
X12.44466 Y45.97095 Z-1.35307
X12.44856 Y45.9645 Z-1.3565
X12.45322 Y45.95855 Z-1.35993
X12.45855 Y45.95322 Z-1.36336
X12.4645 Y45.94856 Z-1.3668
X12.47096 Y45.94466 Z-1.37023
X12.47784 Y45.94156 Z-1.37366
X12.48504 Y45.93932 Z-1.37709
X12.49247 Y45.93796 Z-1.38052
X12.5 Y45.9375 Z-1.38396
X12.50753 Y45.93796 Z-1.38739
X12.51496 Y45.93932 Z-1.39082
X12.52216 Y45.94156 Z-1.39425
X12.52904 Y45.94466 Z-1.39768
X12.5355 Y45.94856 Z-1.40112
X12.54144 Y45.95322 Z-1.40455
X12.54678 Y45.95855 Z-1.40798
X12.55144 Y45.9645 Z-1.41141
X12.55534 Y45.97095 Z-1.41484
X12.55844 Y45.97784 Z-1.41827
X12.56068 Y45.98504 Z-1.42171
X12.56204 Y45.99247 Z-1.42514
X12.56249 Y45.99976 Z-1.42857
X12.56059 Y46.01531
G03 X12.43941 Y45.98469 I-0.06059 J-0.01531
X12.56059 Y46.01531 I0.06059 J0.01531
G1 X12.56249 Y45.99976
X12.5625 Y46. Z-1.42868
X12.56204 Y46.00753 Z-1.43211
X12.56068 Y46.01496 Z-1.43554
X12.55844 Y46.02216 Z-1.43898
X12.55534 Y46.02905 Z-1.44241
X12.55144 Y46.0355 Z-1.44584
X12.54678 Y46.04145 Z-1.44927
X12.54144 Y46.04678 Z-1.4527
X12.5355 Y46.05144 Z-1.45614
X12.52904 Y46.05534 Z-1.45957
X12.52216 Y46.05844 Z-1.463
X12.51496 Y46.06068 Z-1.46643
X12.50753 Y46.06204 Z-1.46986
X12.5 Y46.0625 Z-1.4733
X12.49247 Y46.06204 Z-1.47673
X12.48504 Y46.06068 Z-1.48016
X12.47784 Y46.05844 Z-1.48359
X12.47096 Y46.05534 Z-1.48702
X12.4645 Y46.05144 Z-1.49046
X12.45855 Y46.04678 Z-1.49389
X12.45322 Y46.04145 Z-1.49732
X12.44856 Y46.0355 Z-1.50075
X12.44466 Y46.02905 Z-1.50418
X12.44156 Y46.02216 Z-1.50762
X12.43932 Y46.01496 Z-1.51105
X12.43796 Y46.00753 Z-1.51448
X12.4375 Y46. Z-1.51791
X12.43796 Y45.99247 Z-1.52134
X12.43932 Y45.98504 Z-1.52477
X12.44156 Y45.97784 Z-1.52821
X12.44466 Y45.97095 Z-1.53164
X12.44856 Y45.9645 Z-1.53507
X12.45322 Y45.95855 Z-1.5385
X12.45855 Y45.95322 Z-1.54194
X12.4645 Y45.94856 Z-1.54537
X12.47096 Y45.94466 Z-1.5488
X12.47784 Y45.94156 Z-1.55223
X12.48504 Y45.93932 Z-1.55566
X12.49247 Y45.93796 Z-1.55909
X12.5 Y45.9375 Z-1.56253
X12.50753 Y45.93796 Z-1.56596
X12.51496 Y45.93932 Z-1.56939
X12.52216 Y45.94156 Z-1.57282
X12.52904 Y45.94466 Z-1.57626
X12.5355 Y45.94856 Z-1.57969
X12.54144 Y45.95322 Z-1.58312
X12.54678 Y45.95855 Z-1.58655
X12.55144 Y45.9645 Z-1.58998
X12.55534 Y45.97095 Z-1.59342
X12.55844 Y45.97784 Z-1.59685
X12.56068 Y45.98504 Z-1.60028
X12.56204 Y45.99247 Z-1.60371
X12.56249 Y45.99976 Z-1.60714
X12.5625 Y46. Z-1.60725
X12.56204 Y46.00753 Z-1.61068
X12.56068 Y46.01496 Z-1.61411
X12.55844 Y46.02216 Z-1.61755
X12.55534 Y46.02905 Z-1.62098
X12.55144 Y46.0355 Z-1.62441
X12.54678 Y46.04145 Z-1.62784
X12.54144 Y46.04678 Z-1.63128
X12.5355 Y46.05144 Z-1.63471
X12.52904 Y46.05534 Z-1.63814
X12.52216 Y46.05844 Z-1.64157
X12.51496 Y46.06068 Z-1.645
X12.50753 Y46.06204 Z-1.64844
X12.5 Y46.0625 Z-1.65187
X12.49247 Y46.06204 Z-1.6553
X12.48504 Y46.06068 Z-1.65873
X12.47784 Y46.05844 Z-1.66216
X12.47096 Y46.05534 Z-1.6656
X12.4645 Y46.05144 Z-1.66903
X12.45855 Y46.04678 Z-1.67246
X12.45322 Y46.04145 Z-1.67589
X12.44856 Y46.0355 Z-1.67932
X12.44466 Y46.02905 Z-1.68276
X12.44156 Y46.02216 Z-1.68619
X12.43932 Y46.01496 Z-1.68962
X12.43796 Y46.00753 Z-1.69305
X12.4375 Y46. Z-1.69648
X12.43796 Y45.99247 Z-1.69992
X12.43932 Y45.98504 Z-1.70335
X12.44156 Y45.97784 Z-1.70678
X12.44466 Y45.97095 Z-1.71021
X12.44856 Y45.9645 Z-1.71364
X12.45322 Y45.95855 Z-1.71708
X12.45855 Y45.95322 Z-1.72051
X12.4645 Y45.94856 Z-1.72394
X12.47096 Y45.94466 Z-1.72737
X12.47784 Y45.94156 Z-1.7308
X12.48504 Y45.93932 Z-1.73424
X12.49247 Y45.93796 Z-1.73767
X12.5 Y45.9375 Z-1.7411
X12.50753 Y45.93796 Z-1.74453
X12.51496 Y45.93932 Z-1.74796
X12.52216 Y45.94156 Z-1.7514
X12.52904 Y45.94466 Z-1.75483
X12.5355 Y45.94856 Z-1.75826
X12.54144 Y45.95322 Z-1.76169
X12.54678 Y45.95855 Z-1.76512
X12.55144 Y45.9645 Z-1.76855
X12.55534 Y45.97095 Z-1.77199
X12.55844 Y45.97784 Z-1.77542
X12.56068 Y45.98504 Z-1.77885
X12.56204 Y45.99247 Z-1.78228
X12.56249 Y45.99976 Z-1.78571
X12.5625 Y46. Z-1.78582
X12.56204 Y46.00753 Z-1.78926
X12.56068 Y46.01496 Z-1.79269
X12.55844 Y46.02216 Z-1.79612
X12.55534 Y46.02905 Z-1.79955
X12.55144 Y46.0355 Z-1.80298
X12.54678 Y46.04145 Z-1.80642
X12.54144 Y46.04678 Z-1.80985
X12.5355 Y46.05144 Z-1.81328
X12.52904 Y46.05534 Z-1.81671
X12.52216 Y46.05844 Z-1.82014
X12.51496 Y46.06068 Z-1.82358
X12.50753 Y46.06204 Z-1.82701
X12.5 Y46.0625 Z-1.83044
X12.49247 Y46.06204 Z-1.83387
X12.48504 Y46.06068 Z-1.8373
X12.47784 Y46.05844 Z-1.84074
X12.47096 Y46.05534 Z-1.84417
X12.4645 Y46.05144 Z-1.8476
X12.45855 Y46.04678 Z-1.85103
X12.45322 Y46.04145 Z-1.85446
X12.44856 Y46.0355 Z-1.85789
X12.44466 Y46.02905 Z-1.86133
X12.44156 Y46.02216 Z-1.86476
X12.43932 Y46.01496 Z-1.86819
X12.43796 Y46.00753 Z-1.87162
X12.4375 Y46. Z-1.87505
X12.43796 Y45.99247 Z-1.87849
X12.43932 Y45.98504 Z-1.88192
X12.44156 Y45.97784 Z-1.88535
X12.44466 Y45.97095 Z-1.88878
X12.44856 Y45.9645 Z-1.89221
X12.45322 Y45.95855 Z-1.89565
X12.45855 Y45.95322 Z-1.89908
X12.4645 Y45.94856 Z-1.90251
X12.47096 Y45.94466 Z-1.90594
X12.47784 Y45.94156 Z-1.90937
X12.48504 Y45.93932 Z-1.91281
X12.49247 Y45.93796 Z-1.91624
X12.5 Y45.9375 Z-1.91967
X12.50753 Y45.93796 Z-1.9231
X12.51496 Y45.93932 Z-1.92653
X12.52216 Y45.94156 Z-1.92997
X12.52904 Y45.94466 Z-1.9334
X12.5355 Y45.94856 Z-1.93683
X12.54144 Y45.95322 Z-1.94026
X12.54678 Y45.95855 Z-1.94369
X12.55144 Y45.9645 Z-1.94713
X12.55534 Y45.97095 Z-1.95056
X12.55844 Y45.97784 Z-1.95399
X12.56068 Y45.98504 Z-1.95742
X12.56204 Y45.99247 Z-1.96085
X12.56249 Y45.99976 Z-1.96429
X12.5625 Y46. Z-1.96439
X12.56204 Y46.00753 Z-1.96783
X12.56068 Y46.01496 Z-1.97126
X12.55844 Y46.02216 Z-1.97469
X12.55534 Y46.02905 Z-1.97812
X12.55144 Y46.0355 Z-1.98155
X12.54678 Y46.04145 Z-1.98499
X12.54144 Y46.04678 Z-1.98842
X12.5355 Y46.05144 Z-1.99185
X12.52904 Y46.05534 Z-1.99528
X12.52216 Y46.05844 Z-1.99871
X12.51496 Y46.06068 Z-2.00215
X12.50753 Y46.06204 Z-2.00558
X12.5 Y46.0625 Z-2.00901
X12.49247 Y46.06204 Z-2.01244
X12.48504 Y46.06068 Z-2.01587
X12.47784 Y46.05844 Z-2.01931
X12.47096 Y46.05534 Z-2.02274
X12.4645 Y46.05144 Z-2.02617
X12.45855 Y46.04678 Z-2.0296
X12.45322 Y46.04145 Z-2.03303
X12.44856 Y46.0355 Z-2.03647
X12.44466 Y46.02905 Z-2.0399
X12.44156 Y46.02216 Z-2.04333
X12.43932 Y46.01496 Z-2.04676
X12.43796 Y46.00753 Z-2.05019
X12.4375 Y46. Z-2.05363
X12.43796 Y45.99247 Z-2.05706
X12.43932 Y45.98504 Z-2.06049
X12.44156 Y45.97784 Z-2.06392
X12.44466 Y45.97095 Z-2.06735
X12.44856 Y45.9645 Z-2.07079
X12.45322 Y45.95855 Z-2.07422
X12.45855 Y45.95322 Z-2.07765
X12.4645 Y45.94856 Z-2.08108
X12.47096 Y45.94466 Z-2.08451
X12.47784 Y45.94156 Z-2.08795
X12.48504 Y45.93932 Z-2.09138
X12.49247 Y45.93796 Z-2.09481
X12.5 Y45.9375 Z-2.09824
X12.50753 Y45.93796 Z-2.10167
X12.51496 Y45.93932 Z-2.10511
X12.52216 Y45.94156 Z-2.10854
X12.52904 Y45.94466 Z-2.11197
X12.5355 Y45.94856 Z-2.1154
X12.54144 Y45.95322 Z-2.11883
X12.54678 Y45.95855 Z-2.12227
X12.55144 Y45.9645 Z-2.1257
X12.55534 Y45.97095 Z-2.12913
X12.55844 Y45.97784 Z-2.13256
X12.56068 Y45.98504 Z-2.13599
X12.56204 Y45.99247 Z-2.13943
X12.56249 Y45.99976 Z-2.14286
X12.56059 Y46.01531
G03 X12.43941 Y45.98469 I-0.06059 J-0.01531
X12.56059 Y46.01531 I0.06059 J0.01531
G1 X12.56249 Y45.99976
X12.5625 Y46. Z-2.14297
X12.56204 Y46.00753 Z-2.1464
X12.56068 Y46.01496 Z-2.14983
X12.55844 Y46.02216 Z-2.15326
X12.55534 Y46.02905 Z-2.15669
X12.55144 Y46.0355 Z-2.16013
X12.54678 Y46.04145 Z-2.16356
X12.54144 Y46.04678 Z-2.16699
X12.5355 Y46.05144 Z-2.17042
X12.52904 Y46.05534 Z-2.17385
X12.52216 Y46.05844 Z-2.17729
X12.51496 Y46.06068 Z-2.18072
X12.50753 Y46.06204 Z-2.18415
X12.5 Y46.0625 Z-2.18758
X12.49247 Y46.06204 Z-2.19101
X12.48504 Y46.06068 Z-2.19445
X12.47784 Y46.05844 Z-2.19788
X12.47096 Y46.05534 Z-2.20131
X12.4645 Y46.05144 Z-2.20474
X12.45855 Y46.04678 Z-2.20817
X12.45322 Y46.04145 Z-2.21161
X12.44856 Y46.0355 Z-2.21504
X12.44466 Y46.02905 Z-2.21847
X12.44156 Y46.02216 Z-2.2219
X12.43932 Y46.01496 Z-2.22533
X12.43796 Y46.00753 Z-2.22876
X12.4375 Y46. Z-2.2322
X12.43796 Y45.99247 Z-2.23563
X12.43932 Y45.98504 Z-2.23906
X12.44156 Y45.97784 Z-2.24249
X12.44466 Y45.97095 Z-2.24593
X12.44856 Y45.9645 Z-2.24936
X12.45322 Y45.95855 Z-2.25279
X12.45855 Y45.95322 Z-2.25622
X12.4645 Y45.94856 Z-2.25965
X12.47096 Y45.94466 Z-2.26309
X12.47784 Y45.94156 Z-2.26652
X12.48504 Y45.93932 Z-2.26995
X12.49247 Y45.93796 Z-2.27338
X12.5 Y45.9375 Z-2.27681
X12.50753 Y45.93796 Z-2.28024
X12.51496 Y45.93932 Z-2.28368
X12.52216 Y45.94156 Z-2.28711
X12.52904 Y45.94466 Z-2.29054
X12.5355 Y45.94856 Z-2.29397
X12.54144 Y45.95322 Z-2.2974
X12.54678 Y45.95855 Z-2.30084
X12.55144 Y45.9645 Z-2.30427
X12.55534 Y45.97095 Z-2.3077
X12.55844 Y45.97784 Z-2.31113
X12.56068 Y45.98504 Z-2.31457
X12.56204 Y45.99247 Z-2.318
X12.56249 Y45.99976 Z-2.32143
X12.5625 Y46. Z-2.32154
X12.56204 Y46.00753 Z-2.32497
X12.56068 Y46.01496 Z-2.3284
X12.55844 Y46.02216 Z-2.33183
X12.55534 Y46.02905 Z-2.33526
X12.55144 Y46.0355 Z-2.3387
X12.54678 Y46.04145 Z-2.34213
X12.54144 Y46.04678 Z-2.34556
X12.5355 Y46.05144 Z-2.34899
X12.52904 Y46.05534 Z-2.35243
X12.52216 Y46.05844 Z-2.35586
X12.51496 Y46.06068 Z-2.35929
X12.50753 Y46.06204 Z-2.36272
X12.5 Y46.0625 Z-2.36615
X12.49247 Y46.06204 Z-2.36959
X12.48504 Y46.06068 Z-2.37302
X12.47784 Y46.05844 Z-2.37645
X12.47096 Y46.05534 Z-2.37988
X12.4645 Y46.05144 Z-2.38331
X12.45855 Y46.04678 Z-2.38674
X12.45322 Y46.04145 Z-2.39018
X12.44856 Y46.0355 Z-2.39361
X12.44466 Y46.02905 Z-2.39704
X12.44156 Y46.02216 Z-2.40047
X12.43932 Y46.01496 Z-2.40391
X12.43796 Y46.00753 Z-2.40734
X12.4375 Y46. Z-2.41077
X12.43796 Y45.99247 Z-2.4142
X12.43932 Y45.98504 Z-2.41763
X12.44156 Y45.97784 Z-2.42107
X12.44466 Y45.97095 Z-2.4245
X12.44856 Y45.9645 Z-2.42793
X12.45322 Y45.95855 Z-2.43136
X12.45855 Y45.95322 Z-2.43479
X12.4645 Y45.94856 Z-2.43822
X12.47096 Y45.94466 Z-2.44166
X12.47784 Y45.94156 Z-2.44509
X12.48504 Y45.93932 Z-2.44852
X12.49247 Y45.93796 Z-2.45195
X12.5 Y45.9375 Z-2.45538
X12.50753 Y45.93796 Z-2.45882
X12.51496 Y45.93932 Z-2.46225
X12.52216 Y45.94156 Z-2.46568
X12.52904 Y45.94466 Z-2.46911
X12.5355 Y45.94856 Z-2.47254
X12.54144 Y45.95322 Z-2.47598
X12.54678 Y45.95855 Z-2.47941
X12.55144 Y45.9645 Z-2.48284
X12.55534 Y45.97095 Z-2.48627
X12.55844 Y45.97784 Z-2.4897
X12.56068 Y45.98504 Z-2.49314
X12.56204 Y45.99247 Z-2.49657
X12.56249 Y45.99976 Z-2.5
X12.5625 Y46. Z-2.50011
X12.56204 Y46.00753 Z-2.50354
X12.56068 Y46.01496 Z-2.50697
X12.55844 Y46.02216 Z-2.51041
X12.55534 Y46.02905 Z-2.51384
X12.55144 Y46.0355 Z-2.51727
X12.54678 Y46.04145 Z-2.5207
X12.54144 Y46.04678 Z-2.52413
X12.5355 Y46.05144 Z-2.52756
X12.52904 Y46.05534 Z-2.531
X12.52216 Y46.05844 Z-2.53443
X12.51496 Y46.06068 Z-2.53786
X12.50753 Y46.06204 Z-2.54129
X12.5 Y46.0625 Z-2.54472
X12.49247 Y46.06204 Z-2.54816
X12.48504 Y46.06068 Z-2.55159
X12.47784 Y46.05844 Z-2.55502
X12.47096 Y46.05534 Z-2.55845
X12.4645 Y46.05144 Z-2.56188
X12.45855 Y46.04678 Z-2.56532
X12.45322 Y46.04145 Z-2.56875
X12.44856 Y46.0355 Z-2.57218
X12.44466 Y46.02905 Z-2.57561
X12.44156 Y46.02216 Z-2.57904
X12.43932 Y46.01496 Z-2.58248
X12.43796 Y46.00753 Z-2.58591
X12.4375 Y46. Z-2.58934
X12.43796 Y45.99247 Z-2.59277
X12.43932 Y45.98504 Z-2.5962
X12.44156 Y45.97784 Z-2.59964
X12.44466 Y45.97095 Z-2.60307
X12.44856 Y45.9645 Z-2.6065
X12.45322 Y45.95855 Z-2.60993
X12.45855 Y45.95322 Z-2.61336
X12.4645 Y45.94856 Z-2.6168
X12.47096 Y45.94466 Z-2.62023
X12.47784 Y45.94156 Z-2.62366
X12.48504 Y45.93932 Z-2.62709
X12.49247 Y45.93796 Z-2.63052
X12.5 Y45.9375 Z-2.63396
X12.50753 Y45.93796 Z-2.63739
X12.51496 Y45.93932 Z-2.64082
X12.52216 Y45.94156 Z-2.64425
X12.52904 Y45.94466 Z-2.64768
X12.5355 Y45.94856 Z-2.65112
X12.54144 Y45.95322 Z-2.65455
X12.54678 Y45.95855 Z-2.65798
X12.55144 Y45.9645 Z-2.66141
X12.55534 Y45.97095 Z-2.66484
X12.55844 Y45.97784 Z-2.66827
X12.56068 Y45.98504 Z-2.67171
X12.56204 Y45.99247 Z-2.67514
X12.56249 Y45.99976 Z-2.67857
X12.5625 Y46. Z-2.67868
X12.56204 Y46.00753 Z-2.68211
X12.56068 Y46.01496 Z-2.68554
X12.55844 Y46.02216 Z-2.68898
X12.55534 Y46.02905 Z-2.69241
X12.55144 Y46.0355 Z-2.69584
X12.54678 Y46.04145 Z-2.69927
X12.54144 Y46.04678 Z-2.7027
X12.5355 Y46.05144 Z-2.70614
X12.52904 Y46.05534 Z-2.70957
X12.52216 Y46.05844 Z-2.713
X12.51496 Y46.06068 Z-2.71643
X12.50753 Y46.06204 Z-2.71986
X12.5 Y46.0625 Z-2.7233
X12.49247 Y46.06204 Z-2.72673
X12.48504 Y46.06068 Z-2.73016
X12.47784 Y46.05844 Z-2.73359
X12.47096 Y46.05534 Z-2.73702
X12.4645 Y46.05144 Z-2.74046
X12.45855 Y46.04678 Z-2.74389
X12.45322 Y46.04145 Z-2.74732
X12.44856 Y46.0355 Z-2.75075
X12.44466 Y46.02905 Z-2.75418
X12.44156 Y46.02216 Z-2.75762
X12.43932 Y46.01496 Z-2.76105
X12.43796 Y46.00753 Z-2.76448
X12.4375 Y46. Z-2.76791
X12.43796 Y45.99247 Z-2.77134
X12.43932 Y45.98504 Z-2.77478
X12.44156 Y45.97784 Z-2.77821
X12.44466 Y45.97095 Z-2.78164
X12.44856 Y45.9645 Z-2.78507
X12.45322 Y45.95855 Z-2.7885
X12.45855 Y45.95322 Z-2.79194
X12.4645 Y45.94856 Z-2.79537
X12.47096 Y45.94466 Z-2.7988
X12.47784 Y45.94156 Z-2.80223
X12.48504 Y45.93932 Z-2.80566
X12.49247 Y45.93796 Z-2.8091
X12.5 Y45.9375 Z-2.81253
X12.50753 Y45.93796 Z-2.81596
X12.51496 Y45.93932 Z-2.81939
X12.52216 Y45.94156 Z-2.82282
X12.52904 Y45.94466 Z-2.82626
X12.5355 Y45.94856 Z-2.82969
X12.54144 Y45.95322 Z-2.83312
X12.54678 Y45.95855 Z-2.83655
X12.55144 Y45.9645 Z-2.83998
X12.55534 Y45.97095 Z-2.84342
X12.55844 Y45.97784 Z-2.84685
X12.56068 Y45.98504 Z-2.85028
X12.56204 Y45.99247 Z-2.85371
X12.56249 Y45.99976 Z-2.85714
X12.56059 Y46.01531
G03 X12.43941 Y45.98469 I-0.06059 J-0.01531
X12.56059 Y46.01531 I0.06059 J0.01531
G1 X12.56249 Y45.99976
X12.5625 Y46. Z-2.85725
X12.56204 Y46.00753 Z-2.86068
X12.56068 Y46.01496 Z-2.86412
X12.55844 Y46.02216 Z-2.86755
X12.55534 Y46.02905 Z-2.87098
X12.55144 Y46.0355 Z-2.87441
X12.54678 Y46.04145 Z-2.87784
X12.54144 Y46.04678 Z-2.88128
X12.5355 Y46.05144 Z-2.88471
X12.52904 Y46.05534 Z-2.88814
X12.52216 Y46.05844 Z-2.89157
X12.51496 Y46.06068 Z-2.895
X12.50753 Y46.06204 Z-2.89844
X12.5 Y46.0625 Z-2.90187
X12.49247 Y46.06204 Z-2.9053
X12.48504 Y46.06068 Z-2.90873
X12.47784 Y46.05844 Z-2.91216
X12.47096 Y46.05534 Z-2.9156
X12.4645 Y46.05144 Z-2.91903
X12.45855 Y46.04678 Z-2.92246
X12.45322 Y46.04145 Z-2.92589
X12.44856 Y46.0355 Z-2.92932
X12.44466 Y46.02905 Z-2.93275
X12.44156 Y46.02216 Z-2.93619
X12.43932 Y46.01496 Z-2.93962
X12.43796 Y46.00753 Z-2.94305
X12.4375 Y46. Z-2.94648
X12.43796 Y45.99247 Z-2.94992
X12.43932 Y45.98504 Z-2.95335
X12.44156 Y45.97784 Z-2.95678
X12.44466 Y45.97095 Z-2.96021
X12.44856 Y45.9645 Z-2.96364
X12.45322 Y45.95855 Z-2.96708
X12.45855 Y45.95322 Z-2.97051
X12.4645 Y45.94856 Z-2.97394
X12.47096 Y45.94466 Z-2.97737
X12.47784 Y45.94156 Z-2.9808
X12.48504 Y45.93932 Z-2.98424
X12.49247 Y45.93796 Z-2.98767
X12.5 Y45.9375 Z-2.9911
X12.50753 Y45.93796 Z-2.99453
X12.51496 Y45.93932 Z-2.99796
X12.52216 Y45.94156 Z-3.0014
X12.52904 Y45.94466 Z-3.00483
X12.5355 Y45.94856 Z-3.00826
X12.54144 Y45.95322 Z-3.01169
X12.54678 Y45.95855 Z-3.01512
X12.55144 Y45.9645 Z-3.01855
X12.55534 Y45.97095 Z-3.02199
X12.55844 Y45.97784 Z-3.02542
X12.56068 Y45.98504 Z-3.02885
X12.56204 Y45.99247 Z-3.03228
X12.56249 Y45.99976 Z-3.03571
X12.5625 Y46. Z-3.03582
X12.56204 Y46.00753 Z-3.03926
X12.56068 Y46.01496 Z-3.04269
X12.55844 Y46.02216 Z-3.04612
X12.55534 Y46.02905 Z-3.04955
X12.55144 Y46.0355 Z-3.05298
X12.54678 Y46.04145 Z-3.05641
X12.54144 Y46.04678 Z-3.05985
X12.5355 Y46.05144 Z-3.06328
X12.52904 Y46.05534 Z-3.06671
X12.52216 Y46.05844 Z-3.07014
X12.51496 Y46.06068 Z-3.07358
X12.50753 Y46.06204 Z-3.07701
X12.5 Y46.0625 Z-3.08044
X12.49247 Y46.06204 Z-3.08387
X12.48504 Y46.06068 Z-3.0873
X12.47784 Y46.05844 Z-3.09074
X12.47096 Y46.05534 Z-3.09417
X12.4645 Y46.05144 Z-3.0976
X12.45855 Y46.04678 Z-3.10103
X12.45322 Y46.04145 Z-3.10446
X12.44856 Y46.0355 Z-3.10789
X12.44466 Y46.02905 Z-3.11133
X12.44156 Y46.02216 Z-3.11476
X12.43932 Y46.01496 Z-3.11819
X12.43796 Y46.00753 Z-3.12162
X12.4375 Y46. Z-3.12505
X12.43796 Y45.99247 Z-3.12849
X12.43932 Y45.98504 Z-3.13192
X12.44156 Y45.97784 Z-3.13535
X12.44466 Y45.97095 Z-3.13878
X12.44856 Y45.9645 Z-3.14221
X12.45322 Y45.95855 Z-3.14565
X12.45855 Y45.95322 Z-3.14908
X12.4645 Y45.94856 Z-3.15251
X12.47096 Y45.94466 Z-3.15594
X12.47784 Y45.94156 Z-3.15937
X12.48504 Y45.93932 Z-3.16281
X12.49247 Y45.93796 Z-3.16624
X12.5 Y45.9375 Z-3.16967
X12.50753 Y45.93796 Z-3.1731
X12.51496 Y45.93932 Z-3.17653
X12.52216 Y45.94156 Z-3.17997
X12.52904 Y45.94466 Z-3.1834
X12.5355 Y45.94856 Z-3.18683
X12.54144 Y45.95322 Z-3.19026
X12.54678 Y45.95855 Z-3.19369
X12.55144 Y45.9645 Z-3.19713
X12.55534 Y45.97095 Z-3.20056
X12.55844 Y45.97784 Z-3.20399
X12.56068 Y45.98504 Z-3.20742
X12.56204 Y45.99247 Z-3.21085
X12.56249 Y45.99976 Z-3.21429
X12.5625 Y46. Z-3.21439
X12.56204 Y46.00753 Z-3.21783
X12.56068 Y46.01496 Z-3.22126
X12.55844 Y46.02216 Z-3.22469
X12.55534 Y46.02905 Z-3.22812
X12.55144 Y46.0355 Z-3.23155
X12.54678 Y46.04145 Z-3.23499
X12.54144 Y46.04678 Z-3.23842
X12.5355 Y46.05144 Z-3.24185
X12.52904 Y46.05534 Z-3.24528
X12.52216 Y46.05844 Z-3.24871
X12.51496 Y46.06068 Z-3.25215
X12.50753 Y46.06204 Z-3.25558
X12.5 Y46.0625 Z-3.25901
X12.49247 Y46.06204 Z-3.26244
X12.48504 Y46.06068 Z-3.26587
X12.47784 Y46.05844 Z-3.26931
X12.47096 Y46.05534 Z-3.27274
X12.4645 Y46.05144 Z-3.27617
X12.45855 Y46.04678 Z-3.2796
X12.45322 Y46.04145 Z-3.28303
X12.44856 Y46.0355 Z-3.28647
X12.44466 Y46.02905 Z-3.2899
X12.44156 Y46.02216 Z-3.29333
X12.43932 Y46.01496 Z-3.29676
X12.43796 Y46.00753 Z-3.30019
X12.4375 Y46. Z-3.30363
X12.43796 Y45.99247 Z-3.30706
X12.43932 Y45.98504 Z-3.31049
X12.44156 Y45.97784 Z-3.31392
X12.44466 Y45.97095 Z-3.31735
X12.44856 Y45.9645 Z-3.32079
X12.45322 Y45.95855 Z-3.32422
X12.45855 Y45.95322 Z-3.32765
X12.4645 Y45.94856 Z-3.33108
X12.47096 Y45.94466 Z-3.33451
X12.47784 Y45.94156 Z-3.33795
X12.48504 Y45.93932 Z-3.34138
X12.49247 Y45.93796 Z-3.34481
X12.5 Y45.9375 Z-3.34824
X12.50753 Y45.93796 Z-3.35167
X12.51496 Y45.93932 Z-3.35511
X12.52216 Y45.94156 Z-3.35854
X12.52904 Y45.94466 Z-3.36197
X12.5355 Y45.94856 Z-3.3654
X12.54144 Y45.95322 Z-3.36883
X12.54678 Y45.95855 Z-3.37227
X12.55144 Y45.9645 Z-3.3757
X12.55534 Y45.97095 Z-3.37913
X12.55844 Y45.97784 Z-3.38256
X12.56068 Y45.98504 Z-3.38599
X12.56204 Y45.99247 Z-3.38943
X12.56249 Y45.99976 Z-3.39286
X12.5625 Y46. Z-3.39297
X12.56204 Y46.00753 Z-3.3964
X12.56068 Y46.01496 Z-3.39983
X12.55844 Y46.02216 Z-3.40326
X12.55534 Y46.02905 Z-3.40669
X12.55144 Y46.0355 Z-3.41013
X12.54678 Y46.04145 Z-3.41356
X12.54144 Y46.04678 Z-3.41699
X12.5355 Y46.05144 Z-3.42042
X12.52904 Y46.05534 Z-3.42385
X12.52216 Y46.05844 Z-3.42729
X12.51496 Y46.06068 Z-3.43072
X12.50753 Y46.06204 Z-3.43415
X12.5 Y46.0625 Z-3.43758
X12.49247 Y46.06204 Z-3.44101
X12.48504 Y46.06068 Z-3.44445
X12.47784 Y46.05844 Z-3.44788
X12.47096 Y46.05534 Z-3.45131
X12.4645 Y46.05144 Z-3.45474
X12.45855 Y46.04678 Z-3.45817
X12.45322 Y46.04145 Z-3.46161
X12.44856 Y46.0355 Z-3.46504
X12.44466 Y46.02905 Z-3.46847
X12.44156 Y46.02216 Z-3.4719
X12.43932 Y46.01496 Z-3.47533
X12.43796 Y46.00753 Z-3.47876
X12.4375 Y46. Z-3.4822
X12.43796 Y45.99247 Z-3.48563
X12.43932 Y45.98504 Z-3.48906
X12.44156 Y45.97784 Z-3.49249
X12.44466 Y45.97095 Z-3.49593
X12.44856 Y45.9645 Z-3.49936
X12.45322 Y45.95855 Z-3.50279
X12.45855 Y45.95322 Z-3.50622
X12.4645 Y45.94856 Z-3.50965
X12.47096 Y45.94466 Z-3.51309
X12.47784 Y45.94156 Z-3.51652
X12.48504 Y45.93932 Z-3.51995
X12.49247 Y45.93796 Z-3.52338
X12.5 Y45.9375 Z-3.52681
X12.50753 Y45.93796 Z-3.53025
X12.51496 Y45.93932 Z-3.53368
X12.52216 Y45.94156 Z-3.53711
X12.52904 Y45.94466 Z-3.54054
X12.5355 Y45.94856 Z-3.54397
X12.54144 Y45.95322 Z-3.5474
X12.54678 Y45.95855 Z-3.55084
X12.55144 Y45.9645 Z-3.55427
X12.55534 Y45.97095 Z-3.5577
X12.55844 Y45.97784 Z-3.56113
X12.56068 Y45.98504 Z-3.56457
X12.56204 Y45.99247 Z-3.568
X12.56249 Y45.99976 Z-3.57143
X12.56059 Y46.01531
G03 X12.43941 Y45.98469 I-0.06059 J-0.01531
X12.56059 Y46.01531 I0.06059 J0.01531
G1 X12.56249 Y45.99976
X12.5625 Y46. Z-3.57154
X12.56204 Y46.00753 Z-3.57497
X12.56068 Y46.01496 Z-3.5784
X12.55844 Y46.02216 Z-3.58183
X12.55534 Y46.02905 Z-3.58527
X12.55144 Y46.0355 Z-3.5887
X12.54678 Y46.04145 Z-3.59213
X12.54144 Y46.04678 Z-3.59556
X12.5355 Y46.05144 Z-3.59899
X12.52904 Y46.05534 Z-3.60243
X12.52216 Y46.05844 Z-3.60586
X12.51496 Y46.06068 Z-3.60929
X12.50753 Y46.06204 Z-3.61272
X12.5 Y46.0625 Z-3.61615
X12.49247 Y46.06204 Z-3.61959
X12.48504 Y46.06068 Z-3.62302
X12.47784 Y46.05844 Z-3.62645
X12.47096 Y46.05534 Z-3.62988
X12.4645 Y46.05144 Z-3.63331
X12.45855 Y46.04678 Z-3.63675
X12.45322 Y46.04145 Z-3.64018
X12.44856 Y46.0355 Z-3.64361
X12.44466 Y46.02905 Z-3.64704
X12.44156 Y46.02216 Z-3.65047
X12.43932 Y46.01496 Z-3.65391
X12.43796 Y46.00753 Z-3.65734
X12.4375 Y46. Z-3.66077
X12.43796 Y45.99247 Z-3.6642
X12.43932 Y45.98504 Z-3.66763
X12.44156 Y45.97784 Z-3.67106
X12.44466 Y45.97095 Z-3.6745
X12.44856 Y45.9645 Z-3.67793
X12.45322 Y45.95855 Z-3.68136
X12.45855 Y45.95322 Z-3.68479
X12.4645 Y45.94856 Z-3.68822
X12.47096 Y45.94466 Z-3.69166
X12.47784 Y45.94156 Z-3.69509
X12.48504 Y45.93932 Z-3.69852
X12.49247 Y45.93796 Z-3.70195
X12.5 Y45.9375 Z-3.70538
X12.50753 Y45.93796 Z-3.70882
X12.51496 Y45.93932 Z-3.71225
X12.52216 Y45.94156 Z-3.71568
X12.52904 Y45.94466 Z-3.71911
X12.5355 Y45.94856 Z-3.72254
X12.54144 Y45.95322 Z-3.72598
X12.54678 Y45.95855 Z-3.72941
X12.55144 Y45.9645 Z-3.73284
X12.55534 Y45.97095 Z-3.73627
X12.55844 Y45.97784 Z-3.7397
X12.56068 Y45.98504 Z-3.74314
X12.56204 Y45.99247 Z-3.74657
X12.56249 Y45.99976 Z-3.75
X12.5625 Y46. Z-3.75011
X12.56204 Y46.00753 Z-3.75354
X12.56068 Y46.01496 Z-3.75697
X12.55844 Y46.02216 Z-3.76041
X12.55534 Y46.02905 Z-3.76384
X12.55144 Y46.0355 Z-3.76727
X12.54678 Y46.04145 Z-3.7707
X12.54144 Y46.04678 Z-3.77413
X12.5355 Y46.05144 Z-3.77756
X12.52904 Y46.05534 Z-3.781
X12.52216 Y46.05844 Z-3.78443
X12.51496 Y46.06068 Z-3.78786
X12.50753 Y46.06204 Z-3.79129
X12.5 Y46.0625 Z-3.79472
X12.49247 Y46.06204 Z-3.79816
X12.48504 Y46.06068 Z-3.80159
X12.47784 Y46.05844 Z-3.80502
X12.47096 Y46.05534 Z-3.80845
X12.4645 Y46.05144 Z-3.81188
X12.45855 Y46.04678 Z-3.81532
X12.45322 Y46.04145 Z-3.81875
X12.44856 Y46.0355 Z-3.82218
X12.44466 Y46.02905 Z-3.82561
X12.44156 Y46.02216 Z-3.82904
X12.43932 Y46.01496 Z-3.83248
X12.43796 Y46.00753 Z-3.83591
X12.4375 Y46. Z-3.83934
X12.43796 Y45.99247 Z-3.84277
X12.43932 Y45.98504 Z-3.8462
X12.44156 Y45.97784 Z-3.84964
X12.44466 Y45.97095 Z-3.85307
X12.44856 Y45.9645 Z-3.8565
X12.45322 Y45.95855 Z-3.85993
X12.45855 Y45.95322 Z-3.86336
X12.4645 Y45.94856 Z-3.8668
X12.47096 Y45.94466 Z-3.87023
X12.47784 Y45.94156 Z-3.87366
X12.48504 Y45.93932 Z-3.87709
X12.49247 Y45.93796 Z-3.88052
X12.5 Y45.9375 Z-3.88396
X12.50753 Y45.93796 Z-3.88739
X12.51496 Y45.93932 Z-3.89082
X12.52216 Y45.94156 Z-3.89425
X12.52904 Y45.94466 Z-3.89768
X12.5355 Y45.94856 Z-3.90112
X12.54144 Y45.95322 Z-3.90455
X12.54678 Y45.95855 Z-3.90798
X12.55144 Y45.9645 Z-3.91141
X12.55534 Y45.97095 Z-3.91484
X12.55844 Y45.97784 Z-3.91828
X12.56068 Y45.98504 Z-3.92171
X12.56204 Y45.99247 Z-3.92514
X12.56249 Y45.99976 Z-3.92857
X12.5625 Y46. Z-3.92868
X12.56204 Y46.00753 Z-3.93211
X12.56068 Y46.01496 Z-3.93554
X12.55844 Y46.02216 Z-3.93898
X12.55534 Y46.02905 Z-3.94241
X12.55144 Y46.0355 Z-3.94584
X12.54678 Y46.04145 Z-3.94927
X12.54144 Y46.04678 Z-3.9527
X12.5355 Y46.05144 Z-3.95614
X12.52904 Y46.05534 Z-3.95957
X12.52216 Y46.05844 Z-3.963
X12.51496 Y46.06068 Z-3.96643
X12.50753 Y46.06204 Z-3.96986
X12.5 Y46.0625 Z-3.9733
X12.49247 Y46.06204 Z-3.97673
X12.48504 Y46.06068 Z-3.98016
X12.47784 Y46.05844 Z-3.98359
X12.47096 Y46.05534 Z-3.98702
X12.4645 Y46.05144 Z-3.99046
X12.45855 Y46.04678 Z-3.99389
X12.45322 Y46.04145 Z-3.99732
X12.44856 Y46.0355 Z-4.00075
X12.44466 Y46.02905 Z-4.00418
X12.44156 Y46.02216 Z-4.00762
X12.43932 Y46.01496 Z-4.01105
X12.43796 Y46.00753 Z-4.01448
X12.4375 Y46. Z-4.01791
X12.43796 Y45.99247 Z-4.02134
X12.43932 Y45.98504 Z-4.02478
X12.44156 Y45.97784 Z-4.02821
X12.44466 Y45.97095 Z-4.03164
X12.44856 Y45.9645 Z-4.03507
X12.45322 Y45.95855 Z-4.0385
X12.45855 Y45.95322 Z-4.04193
X12.4645 Y45.94856 Z-4.04537
X12.47096 Y45.94466 Z-4.0488
X12.47784 Y45.94156 Z-4.05223
X12.48504 Y45.93932 Z-4.05566
X12.49247 Y45.93796 Z-4.0591
X12.5 Y45.9375 Z-4.06253
X12.50753 Y45.93796 Z-4.06596
X12.51496 Y45.93932 Z-4.06939
X12.52216 Y45.94156 Z-4.07282
X12.52904 Y45.94466 Z-4.07626
X12.5355 Y45.94856 Z-4.07969
X12.54144 Y45.95322 Z-4.08312
X12.54678 Y45.95855 Z-4.08655
X12.55144 Y45.9645 Z-4.08998
X12.55534 Y45.97095 Z-4.09342
X12.55844 Y45.97784 Z-4.09685
X12.56068 Y45.98504 Z-4.10028
X12.56204 Y45.99247 Z-4.10371
X12.56249 Y45.99976 Z-4.10714
X12.5625 Y46. Z-4.10725
X12.56204 Y46.00753 Z-4.11068
X12.56068 Y46.01496 Z-4.11411
X12.55844 Y46.02216 Z-4.11755
X12.55534 Y46.02905 Z-4.12098
X12.55144 Y46.0355 Z-4.12441
X12.54678 Y46.04145 Z-4.12784
X12.54144 Y46.04678 Z-4.13128
X12.5355 Y46.05144 Z-4.13471
X12.52904 Y46.05534 Z-4.13814
X12.52216 Y46.05844 Z-4.14157
X12.51496 Y46.06068 Z-4.145
X12.50753 Y46.06204 Z-4.14844
X12.5 Y46.0625 Z-4.15187
X12.49247 Y46.06204 Z-4.1553
X12.48504 Y46.06068 Z-4.15873
X12.47784 Y46.05844 Z-4.16216
X12.47096 Y46.05534 Z-4.1656
X12.4645 Y46.05144 Z-4.16903
X12.45855 Y46.04678 Z-4.17246
X12.45322 Y46.04145 Z-4.17589
X12.44856 Y46.0355 Z-4.17932
X12.44466 Y46.02905 Z-4.18276
X12.44156 Y46.02216 Z-4.18619
X12.43932 Y46.01496 Z-4.18962
X12.43796 Y46.00753 Z-4.19305
X12.4375 Y46. Z-4.19648
X12.43796 Y45.99247 Z-4.19992
X12.43932 Y45.98504 Z-4.20335
X12.44156 Y45.97784 Z-4.20678
X12.44466 Y45.97095 Z-4.21021
X12.44856 Y45.9645 Z-4.21364
X12.45322 Y45.95855 Z-4.21708
X12.45855 Y45.95322 Z-4.22051
X12.4645 Y45.94856 Z-4.22394
X12.47096 Y45.94466 Z-4.22737
X12.47784 Y45.94156 Z-4.2308
X12.48504 Y45.93932 Z-4.23424
X12.49247 Y45.93796 Z-4.23767
X12.5 Y45.9375 Z-4.2411
X12.50753 Y45.93796 Z-4.24453
X12.51496 Y45.93932 Z-4.24796
X12.52216 Y45.94156 Z-4.2514
X12.52904 Y45.94466 Z-4.25483
X12.5355 Y45.94856 Z-4.25826
X12.54144 Y45.95322 Z-4.26169
X12.54678 Y45.95855 Z-4.26512
X12.55144 Y45.9645 Z-4.26855
X12.55534 Y45.97095 Z-4.27199
X12.55844 Y45.97784 Z-4.27542
X12.56068 Y45.98504 Z-4.27885
X12.56204 Y45.99247 Z-4.28228
X12.56249 Y45.99976 Z-4.28571
X12.56059 Y46.01531
G03 X12.43941 Y45.98469 I-0.06059 J-0.01531
X12.56059 Y46.01531 I0.06059 J0.01531
G1 X12.56249 Y45.99976
X12.5625 Y46. Z-4.28582
X12.56204 Y46.00753 Z-4.28926
X12.56068 Y46.01496 Z-4.29269
X12.55844 Y46.02216 Z-4.29612
X12.55534 Y46.02905 Z-4.29955
X12.55144 Y46.0355 Z-4.30298
X12.54678 Y46.04145 Z-4.30642
X12.54144 Y46.04678 Z-4.30985
X12.5355 Y46.05144 Z-4.31328
X12.52904 Y46.05534 Z-4.31671
X12.52216 Y46.05844 Z-4.32014
X12.51496 Y46.06068 Z-4.32358
X12.50753 Y46.06204 Z-4.32701
X12.5 Y46.0625 Z-4.33044
X12.49247 Y46.06204 Z-4.33387
X12.48504 Y46.06068 Z-4.3373
X12.47784 Y46.05844 Z-4.34074
X12.47096 Y46.05534 Z-4.34417
X12.4645 Y46.05144 Z-4.3476
X12.45855 Y46.04678 Z-4.35103
X12.45322 Y46.04145 Z-4.35446
X12.44856 Y46.0355 Z-4.35789
X12.44466 Y46.02905 Z-4.36133
X12.44156 Y46.02216 Z-4.36476
X12.43932 Y46.01496 Z-4.36819
X12.43796 Y46.00753 Z-4.37162
X12.4375 Y46. Z-4.37505
X12.43796 Y45.99247 Z-4.37849
X12.43932 Y45.98504 Z-4.38192
X12.44156 Y45.97784 Z-4.38535
X12.44466 Y45.97095 Z-4.38878
X12.44856 Y45.9645 Z-4.39221
X12.45322 Y45.95855 Z-4.39565
X12.45855 Y45.95322 Z-4.39908
X12.4645 Y45.94856 Z-4.40251
X12.47096 Y45.94466 Z-4.40594
X12.47784 Y45.94156 Z-4.40937
X12.48504 Y45.93932 Z-4.41281
X12.49247 Y45.93796 Z-4.41624
X12.5 Y45.9375 Z-4.41967
X12.50753 Y45.93796 Z-4.4231
X12.51496 Y45.93932 Z-4.42653
X12.52216 Y45.94156 Z-4.42997
X12.52904 Y45.94466 Z-4.4334
X12.5355 Y45.94856 Z-4.43683
X12.54144 Y45.95322 Z-4.44026
X12.54678 Y45.95855 Z-4.44369
X12.55144 Y45.9645 Z-4.44713
X12.55534 Y45.97095 Z-4.45056
X12.55844 Y45.97784 Z-4.45399
X12.56068 Y45.98504 Z-4.45742
X12.56204 Y45.99247 Z-4.46085
X12.56249 Y45.99976 Z-4.46429
X12.5625 Y46. Z-4.46439
X12.56204 Y46.00753 Z-4.46783
X12.56068 Y46.01496 Z-4.47126
X12.55844 Y46.02216 Z-4.47469
X12.55534 Y46.02905 Z-4.47812
X12.55144 Y46.0355 Z-4.48155
X12.54678 Y46.04145 Z-4.48499
X12.54144 Y46.04678 Z-4.48842
X12.5355 Y46.05144 Z-4.49185
X12.52904 Y46.05534 Z-4.49528
X12.52216 Y46.05844 Z-4.49871
X12.51496 Y46.06068 Z-4.50215
X12.50753 Y46.06204 Z-4.50558
X12.5 Y46.0625 Z-4.50901
X12.49247 Y46.06204 Z-4.51244
X12.48504 Y46.06068 Z-4.51587
X12.47784 Y46.05844 Z-4.51931
X12.47096 Y46.05534 Z-4.52274
X12.4645 Y46.05144 Z-4.52617
X12.45855 Y46.04678 Z-4.5296
X12.45322 Y46.04145 Z-4.53303
X12.44856 Y46.0355 Z-4.53647
X12.44466 Y46.02905 Z-4.5399
X12.44156 Y46.02216 Z-4.54333
X12.43932 Y46.01496 Z-4.54676
X12.43796 Y46.00753 Z-4.55019
X12.4375 Y46. Z-4.55363
X12.43796 Y45.99247 Z-4.55706
X12.43932 Y45.98504 Z-4.56049
X12.44156 Y45.97784 Z-4.56392
X12.44466 Y45.97095 Z-4.56735
X12.44856 Y45.9645 Z-4.57079
X12.45322 Y45.95855 Z-4.57422
X12.45855 Y45.95322 Z-4.57765
X12.4645 Y45.94856 Z-4.58108
X12.47096 Y45.94466 Z-4.58451
X12.47784 Y45.94156 Z-4.58795
X12.48504 Y45.93932 Z-4.59138
X12.49247 Y45.93796 Z-4.59481
X12.5 Y45.9375 Z-4.59824
X12.50753 Y45.93796 Z-4.60167
X12.51496 Y45.93932 Z-4.60511
X12.52216 Y45.94156 Z-4.60854
X12.52904 Y45.94466 Z-4.61197
X12.5355 Y45.94856 Z-4.6154
X12.54144 Y45.95322 Z-4.61883
X12.54678 Y45.95855 Z-4.62226
X12.55144 Y45.9645 Z-4.6257
X12.55534 Y45.97095 Z-4.62913
X12.55844 Y45.97784 Z-4.63256
X12.56068 Y45.98504 Z-4.63599
X12.56204 Y45.99247 Z-4.63943
X12.56249 Y45.99976 Z-4.64286
X12.5625 Y46. Z-4.64297
X12.56204 Y46.00753 Z-4.6464
X12.56068 Y46.01496 Z-4.64983
X12.55844 Y46.02216 Z-4.65326
X12.55534 Y46.02905 Z-4.65669
X12.55144 Y46.0355 Z-4.66013
X12.54678 Y46.04145 Z-4.66356
X12.54144 Y46.04678 Z-4.66699
X12.5355 Y46.05144 Z-4.67042
X12.52904 Y46.05534 Z-4.67385
X12.52216 Y46.05844 Z-4.67729
X12.51496 Y46.06068 Z-4.68072
X12.50753 Y46.06204 Z-4.68415
X12.5 Y46.0625 Z-4.68758
X12.49247 Y46.06204 Z-4.69101
X12.48504 Y46.06068 Z-4.69445
X12.47784 Y46.05844 Z-4.69788
X12.47096 Y46.05534 Z-4.70131
X12.4645 Y46.05144 Z-4.70474
X12.45855 Y46.04678 Z-4.70817
X12.45322 Y46.04145 Z-4.7116
X12.44856 Y46.0355 Z-4.71504
X12.44466 Y46.02905 Z-4.71847
X12.44156 Y46.02216 Z-4.7219
X12.43932 Y46.01496 Z-4.72533
X12.43796 Y46.00753 Z-4.72876
X12.4375 Y46. Z-4.7322
X12.43796 Y45.99247 Z-4.73563
X12.43932 Y45.98504 Z-4.73906
X12.44156 Y45.97784 Z-4.74249
X12.44466 Y45.97095 Z-4.74592
X12.44856 Y45.9645 Z-4.74936
X12.45322 Y45.95855 Z-4.75279
X12.45855 Y45.95322 Z-4.75622
X12.4645 Y45.94856 Z-4.75965
X12.47096 Y45.94466 Z-4.76309
X12.47784 Y45.94156 Z-4.76652
X12.48504 Y45.93932 Z-4.76995
X12.49247 Y45.93796 Z-4.77338
X12.5 Y45.9375 Z-4.77681
X12.50753 Y45.93796 Z-4.78025
X12.51496 Y45.93932 Z-4.78368
X12.52216 Y45.94156 Z-4.78711
X12.52904 Y45.94466 Z-4.79054
X12.5355 Y45.94856 Z-4.79397
X12.54144 Y45.95322 Z-4.79741
X12.54678 Y45.95855 Z-4.80084
X12.55144 Y45.9645 Z-4.80427
X12.55534 Y45.97095 Z-4.8077
X12.55844 Y45.97784 Z-4.81113
X12.56068 Y45.98504 Z-4.81457
X12.56204 Y45.99247 Z-4.818
X12.56249 Y45.99976 Z-4.82143
X12.5625 Y46. Z-4.82154
X12.56204 Y46.00753 Z-4.82497
X12.56068 Y46.01496 Z-4.8284
X12.55844 Y46.02216 Z-4.83183
X12.55534 Y46.02905 Z-4.83526
X12.55144 Y46.0355 Z-4.8387
X12.54678 Y46.04145 Z-4.84213
X12.54144 Y46.04678 Z-4.84556
X12.5355 Y46.05144 Z-4.84899
X12.52904 Y46.05534 Z-4.85243
X12.52216 Y46.05844 Z-4.85586
X12.51496 Y46.06068 Z-4.85929
X12.50753 Y46.06204 Z-4.86272
X12.5 Y46.0625 Z-4.86615
X12.49247 Y46.06204 Z-4.86959
X12.48504 Y46.06068 Z-4.87302
X12.47784 Y46.05844 Z-4.87645
X12.47096 Y46.05534 Z-4.87988
X12.4645 Y46.05144 Z-4.88331
X12.45855 Y46.04678 Z-4.88675
X12.45322 Y46.04145 Z-4.89018
X12.44856 Y46.0355 Z-4.89361
X12.44466 Y46.02905 Z-4.89704
X12.44156 Y46.02216 Z-4.90047
X12.43932 Y46.01496 Z-4.90391
X12.43796 Y46.00753 Z-4.90734
X12.4375 Y46. Z-4.91077
X12.43796 Y45.99247 Z-4.9142
X12.43932 Y45.98504 Z-4.91763
X12.44156 Y45.97784 Z-4.92106
X12.44466 Y45.97095 Z-4.9245
X12.44856 Y45.9645 Z-4.92793
X12.45322 Y45.95855 Z-4.93136
X12.45855 Y45.95322 Z-4.93479
X12.4645 Y45.94856 Z-4.93822
X12.47096 Y45.94466 Z-4.94166
X12.47784 Y45.94156 Z-4.94509
X12.48504 Y45.93932 Z-4.94852
X12.49247 Y45.93796 Z-4.95195
X12.5 Y45.9375 Z-4.95538
X12.50753 Y45.93796 Z-4.95882
X12.51496 Y45.93932 Z-4.96225
X12.52216 Y45.94156 Z-4.96568
X12.52904 Y45.94466 Z-4.96911
X12.5355 Y45.94856 Z-4.97254
X12.54144 Y45.95322 Z-4.97598
X12.54678 Y45.95855 Z-4.97941
X12.55144 Y45.9645 Z-4.98284
X12.55534 Y45.97095 Z-4.98627
X12.55844 Y45.97784 Z-4.9897
X12.56068 Y45.98504 Z-4.99314
X12.56204 Y45.99247 Z-4.99657
X12.56249 Y45.99976 Z-5.
X12.56059 Y46.01531
G03 X12.43941 Y45.98469 I-0.06059 J-0.01531
X12.56059 Y46.01531 I0.06059 J0.01531
G1 X12.56249 Y45.99976
X12.5 Y46.
G0 Z1.5875
X12.56249 Y170.99976
G1 Z0.635 F229.
X12.5625 Y171. Z0.63488 F916.
X12.56204 Y171.00753 Z0.63118
X12.56068 Y171.01496 Z0.62747
X12.55844 Y171.02216 Z0.62377
X12.55534 Y171.02904 Z0.62006
X12.55144 Y171.0355 Z0.61636
X12.54678 Y171.04144 Z0.61265
X12.54144 Y171.04678 Z0.60895
X12.5355 Y171.05144 Z0.60525
X12.52904 Y171.05534 Z0.60154
X12.52216 Y171.05844 Z0.59784
X12.51496 Y171.06068 Z0.59413
X12.50753 Y171.06204 Z0.59043
X12.5 Y171.0625 Z0.58672
X12.49247 Y171.06204 Z0.58302
X12.48504 Y171.06068 Z0.57931
X12.47784 Y171.05844 Z0.57561
X12.47096 Y171.05534 Z0.5719
X12.4645 Y171.05144 Z0.5682
X12.45855 Y171.04678 Z0.5645
X12.45322 Y171.04144 Z0.56079
X12.44856 Y171.0355 Z0.55709
X12.44466 Y171.02904 Z0.55338
X12.44156 Y171.02216 Z0.54968
X12.43932 Y171.01496 Z0.54597
X12.43796 Y171.00753 Z0.54227
X12.4375 Y171. Z0.53856
X12.43796 Y170.99247 Z0.53486
X12.43932 Y170.98504 Z0.53116
X12.44156 Y170.97784 Z0.52745
X12.44466 Y170.97095 Z0.52375
X12.44856 Y170.9645 Z0.52004
X12.45322 Y170.95855 Z0.51634
X12.45855 Y170.95322 Z0.51263
X12.4645 Y170.94856 Z0.50893
X12.47096 Y170.94466 Z0.50522
X12.47784 Y170.94156 Z0.50152
X12.48504 Y170.93932 Z0.49781
X12.49247 Y170.93796 Z0.49411
X12.5 Y170.9375 Z0.4904
X12.50753 Y170.93796 Z0.4867
X12.51496 Y170.93932 Z0.48299
X12.52216 Y170.94156 Z0.47929
X12.52904 Y170.94466 Z0.47559
X12.5355 Y170.94856 Z0.47188
X12.54144 Y170.95322 Z0.46818
X12.54678 Y170.95855 Z0.46447
X12.55144 Y170.9645 Z0.46077
X12.55534 Y170.97095 Z0.45706
X12.55844 Y170.97784 Z0.45336
X12.56068 Y170.98504 Z0.44965
X12.56204 Y170.99247 Z0.44595
X12.56249 Y170.99976 Z0.44224
X12.5625 Y171. Z0.44213
X12.56204 Y171.00753 Z0.43842
X12.56068 Y171.01496 Z0.43472
X12.55844 Y171.02216 Z0.43101
X12.55534 Y171.02904 Z0.42731
X12.55144 Y171.0355 Z0.4236
X12.54678 Y171.04144 Z0.4199
X12.54144 Y171.04678 Z0.4162
X12.5355 Y171.05144 Z0.41249
X12.52904 Y171.05534 Z0.40879
X12.52216 Y171.05844 Z0.40508
X12.51496 Y171.06068 Z0.40138
X12.50753 Y171.06204 Z0.39767
X12.5 Y171.0625 Z0.39397
X12.49247 Y171.06204 Z0.39026
X12.48504 Y171.06068 Z0.38656
X12.47784 Y171.05844 Z0.38285
X12.47096 Y171.05534 Z0.37915
X12.4645 Y171.05144 Z0.37544
X12.45855 Y171.04678 Z0.37174
X12.45322 Y171.04144 Z0.36804
X12.44856 Y171.0355 Z0.36433
X12.44466 Y171.02904 Z0.36063
X12.44156 Y171.02216 Z0.35692
X12.43932 Y171.01496 Z0.35322
X12.43796 Y171.00753 Z0.34951
X12.4375 Y171. Z0.34581
X12.43796 Y170.99247 Z0.3421
X12.43932 Y170.98504 Z0.3384
X12.44156 Y170.97784 Z0.3347
X12.44466 Y170.97095 Z0.33099
X12.44856 Y170.9645 Z0.32729
X12.45322 Y170.95855 Z0.32358
X12.45855 Y170.95322 Z0.31988
X12.4645 Y170.94856 Z0.31617
X12.47096 Y170.94466 Z0.31247
X12.47784 Y170.94156 Z0.30876
X12.48504 Y170.93932 Z0.30506
X12.49247 Y170.93796 Z0.30135
X12.5 Y170.9375 Z0.29765
X12.50753 Y170.93796 Z0.29394
X12.51496 Y170.93932 Z0.29024
X12.52216 Y170.94156 Z0.28654
X12.52904 Y170.94466 Z0.28283
X12.5355 Y170.94856 Z0.27913
X12.54144 Y170.95322 Z0.27542
X12.54678 Y170.95855 Z0.27172
X12.55144 Y170.9645 Z0.26801
X12.55534 Y170.97095 Z0.26431
X12.55844 Y170.97784 Z0.2606
X12.56068 Y170.98504 Z0.2569
X12.56204 Y170.99247 Z0.25319
X12.56249 Y170.99976 Z0.24949
X12.5625 Y171. Z0.24937
X12.56204 Y171.00753 Z0.24567
X12.56068 Y171.01496 Z0.24196
X12.55844 Y171.02216 Z0.23826
X12.55534 Y171.02904 Z0.23455
X12.55144 Y171.0355 Z0.23085
X12.54678 Y171.04144 Z0.22715
X12.54144 Y171.04678 Z0.22344
X12.5355 Y171.05144 Z0.21974
X12.52904 Y171.05534 Z0.21603
X12.52216 Y171.05844 Z0.21233
X12.51496 Y171.06068 Z0.20862
X12.50753 Y171.06204 Z0.20492
X12.5 Y171.0625 Z0.20121
X12.49247 Y171.06204 Z0.19751
X12.48504 Y171.06068 Z0.1938
X12.47784 Y171.05844 Z0.1901
X12.47096 Y171.05534 Z0.18639
X12.4645 Y171.05144 Z0.18269
X12.45855 Y171.04678 Z0.17899
X12.45322 Y171.04144 Z0.17528
X12.44856 Y171.0355 Z0.17158
X12.44466 Y171.02904 Z0.16787
X12.44156 Y171.02216 Z0.16417
X12.43932 Y171.01496 Z0.16046
X12.43796 Y171.00753 Z0.15676
X12.4375 Y171. Z0.15305
X12.43796 Y170.99247 Z0.14935
X12.43932 Y170.98504 Z0.14564
X12.44156 Y170.97784 Z0.14194
X12.44466 Y170.97095 Z0.13823
X12.44856 Y170.9645 Z0.13453
X12.45322 Y170.95855 Z0.13083
X12.45855 Y170.95322 Z0.12712
X12.4645 Y170.94856 Z0.12342
X12.47096 Y170.94466 Z0.11971
X12.47784 Y170.94156 Z0.11601
X12.48504 Y170.93932 Z0.1123
X12.49247 Y170.93796 Z0.1086
X12.5 Y170.9375 Z0.10489
X12.50753 Y170.93796 Z0.10119
X12.51496 Y170.93932 Z0.09748
X12.52216 Y170.94156 Z0.09378
X12.52904 Y170.94466 Z0.09008
X12.5355 Y170.94856 Z0.08637
X12.54144 Y170.95322 Z0.08267
X12.54678 Y170.95855 Z0.07896
X12.55144 Y170.9645 Z0.07526
X12.55534 Y170.97095 Z0.07155
X12.55844 Y170.97784 Z0.06785
X12.56068 Y170.98504 Z0.06414
X12.56204 Y170.99247 Z0.06044
X12.56249 Y170.99976 Z0.05673
X12.5625 Y171. Z0.05662
X12.56204 Y171.00753 Z0.05291
X12.56068 Y171.01496 Z0.04921
X12.55844 Y171.02216 Z0.0455
X12.55534 Y171.02904 Z0.0418
X12.55144 Y171.0355 Z0.03809
X12.54678 Y171.04144 Z0.03439
X12.54144 Y171.04678 Z0.03068
X12.5355 Y171.05144 Z0.02698
X12.52904 Y171.05534 Z0.02328
X12.52216 Y171.05844 Z0.01957
X12.51496 Y171.06068 Z0.01587
X12.50753 Y171.06204 Z0.01216
X12.5 Y171.0625 Z0.00846
X12.49247 Y171.06204 Z0.00475
X12.48504 Y171.06068 Z0.00105
X12.47784 Y171.05844 Z-0.00266
X12.47096 Y171.05534 Z-0.00636
X12.4645 Y171.05144 Z-0.01006
X12.45855 Y171.04678 Z-0.01377
X12.45322 Y171.04144 Z-0.01747
X12.44856 Y171.0355 Z-0.02118
X12.44466 Y171.02904 Z-0.02488
X12.44156 Y171.02216 Z-0.02859
X12.43932 Y171.01496 Z-0.03229
X12.43796 Y171.00753 Z-0.036
X12.4375 Y171. Z-0.0397
X12.43796 Y170.99247 Z-0.04341
X12.43932 Y170.98504 Z-0.04711
X12.44156 Y170.97784 Z-0.05082
X12.44466 Y170.97095 Z-0.05452
X12.44856 Y170.9645 Z-0.05822
X12.45322 Y170.95855 Z-0.06193
X12.45855 Y170.95322 Z-0.06563
X12.4645 Y170.94856 Z-0.06934
X12.47096 Y170.94466 Z-0.07304
X12.47784 Y170.94156 Z-0.07675
X12.48504 Y170.93932 Z-0.08045
X12.49247 Y170.93796 Z-0.08416
X12.5 Y170.9375 Z-0.08786
X12.50753 Y170.93796 Z-0.09157
X12.51496 Y170.93932 Z-0.09527
X12.52216 Y170.94156 Z-0.09898
X12.52904 Y170.94466 Z-0.10268
X12.5355 Y170.94856 Z-0.10638
X12.54144 Y170.95322 Z-0.11009
X12.54678 Y170.95855 Z-0.11379
X12.55144 Y170.9645 Z-0.1175
X12.55534 Y170.97095 Z-0.1212
X12.55844 Y170.97784 Z-0.12491
X12.56068 Y170.98504 Z-0.12861
X12.56204 Y170.99247 Z-0.13232
X12.56249 Y170.99976 Z-0.13602
X12.5625 Y171. Z-0.13614
X12.56204 Y171.00753 Z-0.13984
X12.56068 Y171.01496 Z-0.14355
X12.55844 Y171.02216 Z-0.14725
X12.55534 Y171.02904 Z-0.15096
X12.55144 Y171.0355 Z-0.15466
X12.54678 Y171.04144 Z-0.15837
X12.54144 Y171.04678 Z-0.16207
X12.5355 Y171.05144 Z-0.16577
X12.52904 Y171.05534 Z-0.16948
X12.52216 Y171.05844 Z-0.17318
X12.51496 Y171.06068 Z-0.17689
X12.50753 Y171.06204 Z-0.18059
X12.5 Y171.0625 Z-0.1843
X12.49247 Y171.06204 Z-0.188
X12.48504 Y171.06068 Z-0.19171
X12.47784 Y171.05844 Z-0.19541
X12.47096 Y171.05534 Z-0.19911
X12.4645 Y171.05144 Z-0.20282
X12.45855 Y171.04678 Z-0.20653
X12.45322 Y171.04144 Z-0.21023
X12.44856 Y171.0355 Z-0.21393
X12.44466 Y171.02904 Z-0.21764
X12.44156 Y171.02216 Z-0.22134
X12.43932 Y171.01496 Z-0.22505
X12.43796 Y171.00753 Z-0.22875
X12.4375 Y171. Z-0.23246
X12.43796 Y170.99247 Z-0.23616
X12.43932 Y170.98504 Z-0.23987
X12.44156 Y170.97784 Z-0.24357
X12.44466 Y170.97095 Z-0.24728
X12.44856 Y170.9645 Z-0.25098
X12.45322 Y170.95855 Z-0.25468
X12.45855 Y170.95322 Z-0.25839
X12.4645 Y170.94856 Z-0.26209
X12.47096 Y170.94466 Z-0.2658
X12.47784 Y170.94156 Z-0.2695
X12.48504 Y170.93932 Z-0.27321
X12.49247 Y170.93796 Z-0.27691
X12.5 Y170.9375 Z-0.28062
X12.50753 Y170.93796 Z-0.28432
X12.51496 Y170.93932 Z-0.28803
X12.52216 Y170.94156 Z-0.29173
X12.52904 Y170.94466 Z-0.29543
X12.5355 Y170.94856 Z-0.29914
X12.54144 Y170.95322 Z-0.30284
X12.54678 Y170.95855 Z-0.30655
X12.55144 Y170.9645 Z-0.31025
X12.55534 Y170.97095 Z-0.31396
X12.55844 Y170.97784 Z-0.31766
X12.56068 Y170.98504 Z-0.32137
X12.56204 Y170.99247 Z-0.32507
X12.56249 Y170.99976 Z-0.32878
X12.5625 Y171. Z-0.32889
X12.56204 Y171.00753 Z-0.3326
X12.56068 Y171.01496 Z-0.3363
X12.55844 Y171.02216 Z-0.34001
X12.55534 Y171.02904 Z-0.34371
X12.55144 Y171.0355 Z-0.34742
X12.54678 Y171.04144 Z-0.35112
X12.54144 Y171.04678 Z-0.35483
X12.5355 Y171.05144 Z-0.35853
X12.52904 Y171.05534 Z-0.36223
X12.52216 Y171.05844 Z-0.36594
X12.51496 Y171.06068 Z-0.36964
X12.50753 Y171.06204 Z-0.37335
X12.5 Y171.0625 Z-0.37705
X12.49247 Y171.06204 Z-0.38076
X12.48504 Y171.06068 Z-0.38446
X12.47784 Y171.05844 Z-0.38817
X12.47096 Y171.05534 Z-0.39187
X12.4645 Y171.05144 Z-0.39558
X12.45855 Y171.04678 Z-0.39928
X12.45322 Y171.04144 Z-0.40298
X12.44856 Y171.0355 Z-0.40669
X12.44466 Y171.02904 Z-0.41039
X12.44156 Y171.02216 Z-0.4141
X12.43932 Y171.01496 Z-0.4178
X12.43796 Y171.00753 Z-0.42151
X12.4375 Y171. Z-0.42521
X12.43796 Y170.99247 Z-0.42892
X12.43932 Y170.98504 Z-0.43262
X12.44156 Y170.97784 Z-0.43633
X12.44466 Y170.97095 Z-0.44003
X12.44856 Y170.9645 Z-0.44374
X12.45322 Y170.95855 Z-0.44744
X12.45855 Y170.95322 Z-0.45114
X12.4645 Y170.94856 Z-0.45485
X12.47096 Y170.94466 Z-0.45855
X12.47784 Y170.94156 Z-0.46226
X12.48504 Y170.93932 Z-0.46596
X12.49247 Y170.93796 Z-0.46967
X12.5 Y170.9375 Z-0.47337
X12.50753 Y170.93796 Z-0.47708
X12.51496 Y170.93932 Z-0.48078
X12.52216 Y170.94156 Z-0.48449
X12.52904 Y170.94466 Z-0.48819
X12.5355 Y170.94856 Z-0.49189
X12.54144 Y170.95322 Z-0.4956
X12.54678 Y170.95855 Z-0.4993
X12.55144 Y170.9645 Z-0.50301
X12.55534 Y170.97095 Z-0.50671
X12.55844 Y170.97784 Z-0.51042
X12.56068 Y170.98504 Z-0.51412
X12.56204 Y170.99247 Z-0.51783
X12.56249 Y170.99976 Z-0.52153
X12.5625 Y171. Z-0.52165
X12.56204 Y171.00753 Z-0.52535
X12.56068 Y171.01496 Z-0.52906
X12.55844 Y171.02216 Z-0.53276
X12.55534 Y171.02904 Z-0.53647
X12.55144 Y171.0355 Z-0.54017
X12.54678 Y171.04144 Z-0.54388
X12.54144 Y171.04678 Z-0.54758
X12.5355 Y171.05144 Z-0.55128
X12.52904 Y171.05534 Z-0.55499
X12.52216 Y171.05844 Z-0.55869
X12.51496 Y171.06068 Z-0.5624
X12.50753 Y171.06204 Z-0.5661
X12.5 Y171.0625 Z-0.56981
X12.49247 Y171.06204 Z-0.57351
X12.48504 Y171.06068 Z-0.57722
X12.47784 Y171.05844 Z-0.58092
X12.47096 Y171.05534 Z-0.58463
X12.4645 Y171.05144 Z-0.58833
X12.45855 Y171.04678 Z-0.59203
X12.45322 Y171.04144 Z-0.59574
X12.44856 Y171.0355 Z-0.59944
X12.44466 Y171.02904 Z-0.60315
X12.44156 Y171.02216 Z-0.60685
X12.43932 Y171.01496 Z-0.61056
X12.43796 Y171.00753 Z-0.61426
X12.4375 Y171. Z-0.61797
X12.43796 Y170.99247 Z-0.62167
X12.43932 Y170.98504 Z-0.62538
X12.44156 Y170.97784 Z-0.62908
X12.44466 Y170.97095 Z-0.63279
X12.44856 Y170.9645 Z-0.63649
X12.45322 Y170.95855 Z-0.64019
X12.45855 Y170.95322 Z-0.6439
X12.4645 Y170.94856 Z-0.6476
X12.47096 Y170.94466 Z-0.65131
X12.47784 Y170.94156 Z-0.65501
X12.48504 Y170.93932 Z-0.65872
X12.49247 Y170.93796 Z-0.66242
X12.5 Y170.9375 Z-0.66613
X12.50753 Y170.93796 Z-0.66983
X12.51496 Y170.93932 Z-0.67354
X12.52216 Y170.94156 Z-0.67724
X12.52904 Y170.94466 Z-0.68094
X12.5355 Y170.94856 Z-0.68465
X12.54144 Y170.95322 Z-0.68835
X12.54678 Y170.95855 Z-0.69206
X12.55144 Y170.9645 Z-0.69576
X12.55534 Y170.97095 Z-0.69947
X12.55844 Y170.97784 Z-0.70317
X12.56068 Y170.98504 Z-0.70688
X12.56204 Y170.99247 Z-0.71058
X12.56249 Y170.99976 Z-0.71429
X12.56059 Y171.01531
G03 X12.43941 Y170.98469 I-0.06059 J-0.01531
X12.56059 Y171.01531 I0.06059 J0.01531
G1 X12.56249 Y170.99976
X12.5625 Y171. Z-0.71439
X12.56204 Y171.00753 Z-0.71783
X12.56068 Y171.01496 Z-0.72126
X12.55844 Y171.02216 Z-0.72469
X12.55534 Y171.02904 Z-0.72812
X12.55144 Y171.0355 Z-0.73155
X12.54678 Y171.04144 Z-0.73499
X12.54144 Y171.04678 Z-0.73842
X12.5355 Y171.05144 Z-0.74185
X12.52904 Y171.05534 Z-0.74528
X12.52216 Y171.05844 Z-0.74871
X12.51496 Y171.06068 Z-0.75215
X12.50753 Y171.06204 Z-0.75558
X12.5 Y171.0625 Z-0.75901
X12.49247 Y171.06204 Z-0.76244
X12.48504 Y171.06068 Z-0.76587
X12.47784 Y171.05844 Z-0.76931
X12.47096 Y171.05534 Z-0.77274
X12.4645 Y171.05144 Z-0.77617
X12.45855 Y171.04678 Z-0.7796
X12.45322 Y171.04144 Z-0.78303
X12.44856 Y171.0355 Z-0.78647
X12.44466 Y171.02904 Z-0.7899
X12.44156 Y171.02216 Z-0.79333
X12.43932 Y171.01496 Z-0.79676
X12.43796 Y171.00753 Z-0.80019
X12.4375 Y171. Z-0.80363
X12.43796 Y170.99247 Z-0.80706
X12.43932 Y170.98504 Z-0.81049
X12.44156 Y170.97784 Z-0.81392
X12.44466 Y170.97095 Z-0.81735
X12.44856 Y170.9645 Z-0.82079
X12.45322 Y170.95855 Z-0.82422
X12.45855 Y170.95322 Z-0.82765
X12.4645 Y170.94856 Z-0.83108
X12.47096 Y170.94466 Z-0.83451
X12.47784 Y170.94156 Z-0.83795
X12.48504 Y170.93932 Z-0.84138
X12.49247 Y170.93796 Z-0.84481
X12.5 Y170.9375 Z-0.84824
X12.50753 Y170.93796 Z-0.85167
X12.51496 Y170.93932 Z-0.85511
X12.52216 Y170.94156 Z-0.85854
X12.52904 Y170.94466 Z-0.86197
X12.5355 Y170.94856 Z-0.8654
X12.54144 Y170.95322 Z-0.86883
X12.54678 Y170.95855 Z-0.87227
X12.55144 Y170.9645 Z-0.8757
X12.55534 Y170.97095 Z-0.87913
X12.55844 Y170.97784 Z-0.88256
X12.56068 Y170.98504 Z-0.88599
X12.56204 Y170.99247 Z-0.88943
X12.56249 Y170.99976 Z-0.89286
X12.5625 Y171. Z-0.89297
X12.56204 Y171.00753 Z-0.8964
X12.56068 Y171.01496 Z-0.89983
X12.55844 Y171.02216 Z-0.90326
X12.55534 Y171.02904 Z-0.90669
X12.55144 Y171.0355 Z-0.91013
X12.54678 Y171.04144 Z-0.91356
X12.54144 Y171.04678 Z-0.91699
X12.5355 Y171.05144 Z-0.92042
X12.52904 Y171.05534 Z-0.92385
X12.52216 Y171.05844 Z-0.92729
X12.51496 Y171.06068 Z-0.93072
X12.50753 Y171.06204 Z-0.93415
X12.5 Y171.0625 Z-0.93758
X12.49247 Y171.06204 Z-0.94101
X12.48504 Y171.06068 Z-0.94445
X12.47784 Y171.05844 Z-0.94788
X12.47096 Y171.05534 Z-0.95131
X12.4645 Y171.05144 Z-0.95474
X12.45855 Y171.04678 Z-0.95817
X12.45322 Y171.04144 Z-0.96161
X12.44856 Y171.0355 Z-0.96504
X12.44466 Y171.02904 Z-0.96847
X12.44156 Y171.02216 Z-0.9719
X12.43932 Y171.01496 Z-0.97533
X12.43796 Y171.00753 Z-0.97876
X12.4375 Y171. Z-0.9822
X12.43796 Y170.99247 Z-0.98563
X12.43932 Y170.98504 Z-0.98906
X12.44156 Y170.97784 Z-0.99249
X12.44466 Y170.97095 Z-0.99592
X12.44856 Y170.9645 Z-0.99936
X12.45322 Y170.95855 Z-1.00279
X12.45855 Y170.95322 Z-1.00622
X12.4645 Y170.94856 Z-1.00965
X12.47096 Y170.94466 Z-1.01309
X12.47784 Y170.94156 Z-1.01652
X12.48504 Y170.93932 Z-1.01995
X12.49247 Y170.93796 Z-1.02338
X12.5 Y170.9375 Z-1.02681
X12.50753 Y170.93796 Z-1.03025
X12.51496 Y170.93932 Z-1.03368
X12.52216 Y170.94156 Z-1.03711
X12.52904 Y170.94466 Z-1.04054
X12.5355 Y170.94856 Z-1.04397
X12.54144 Y170.95322 Z-1.0474
X12.54678 Y170.95855 Z-1.05084
X12.55144 Y170.9645 Z-1.05427
X12.55534 Y170.97095 Z-1.0577
X12.55844 Y170.97784 Z-1.06113
X12.56068 Y170.98504 Z-1.06457
X12.56204 Y170.99247 Z-1.068
X12.56249 Y170.99976 Z-1.07143
X12.5625 Y171. Z-1.07154
X12.56204 Y171.00753 Z-1.07497
X12.56068 Y171.01496 Z-1.0784
X12.55844 Y171.02216 Z-1.08183
X12.55534 Y171.02904 Z-1.08526
X12.55144 Y171.0355 Z-1.0887
X12.54678 Y171.04144 Z-1.09213
X12.54144 Y171.04678 Z-1.09556
X12.5355 Y171.05144 Z-1.09899
X12.52904 Y171.05534 Z-1.10243
X12.52216 Y171.05844 Z-1.10586
X12.51496 Y171.06068 Z-1.10929
X12.50753 Y171.06204 Z-1.11272
X12.5 Y171.0625 Z-1.11615
X12.49247 Y171.06204 Z-1.11959
X12.48504 Y171.06068 Z-1.12302
X12.47784 Y171.05844 Z-1.12645
X12.47096 Y171.05534 Z-1.12988
X12.4645 Y171.05144 Z-1.13331
X12.45855 Y171.04678 Z-1.13674
X12.45322 Y171.04144 Z-1.14018
X12.44856 Y171.0355 Z-1.14361
X12.44466 Y171.02904 Z-1.14704
X12.44156 Y171.02216 Z-1.15047
X12.43932 Y171.01496 Z-1.15391
X12.43796 Y171.00753 Z-1.15734
X12.4375 Y171. Z-1.16077
X12.43796 Y170.99247 Z-1.1642
X12.43932 Y170.98504 Z-1.16763
X12.44156 Y170.97784 Z-1.17107
X12.44466 Y170.97095 Z-1.1745
X12.44856 Y170.9645 Z-1.17793
X12.45322 Y170.95855 Z-1.18136
X12.45855 Y170.95322 Z-1.18479
X12.4645 Y170.94856 Z-1.18822
X12.47096 Y170.94466 Z-1.19166
X12.47784 Y170.94156 Z-1.19509
X12.48504 Y170.93932 Z-1.19852
X12.49247 Y170.93796 Z-1.20195
X12.5 Y170.9375 Z-1.20538
X12.50753 Y170.93796 Z-1.20882
X12.51496 Y170.93932 Z-1.21225
X12.52216 Y170.94156 Z-1.21568
X12.52904 Y170.94466 Z-1.21911
X12.5355 Y170.94856 Z-1.22254
X12.54144 Y170.95322 Z-1.22598
X12.54678 Y170.95855 Z-1.22941
X12.55144 Y170.9645 Z-1.23284
X12.55534 Y170.97095 Z-1.23627
X12.55844 Y170.97784 Z-1.2397
X12.56068 Y170.98504 Z-1.24314
X12.56204 Y170.99247 Z-1.24657
X12.56249 Y170.99976 Z-1.25
X12.5625 Y171. Z-1.25011
X12.56204 Y171.00753 Z-1.25354
X12.56068 Y171.01496 Z-1.25697
X12.55844 Y171.02216 Z-1.26041
X12.55534 Y171.02904 Z-1.26384
X12.55144 Y171.0355 Z-1.26727
X12.54678 Y171.04144 Z-1.2707
X12.54144 Y171.04678 Z-1.27413
X12.5355 Y171.05144 Z-1.27756
X12.52904 Y171.05534 Z-1.281
X12.52216 Y171.05844 Z-1.28443
X12.51496 Y171.06068 Z-1.28786
X12.50753 Y171.06204 Z-1.29129
X12.5 Y171.0625 Z-1.29472
X12.49247 Y171.06204 Z-1.29816
X12.48504 Y171.06068 Z-1.30159
X12.47784 Y171.05844 Z-1.30502
X12.47096 Y171.05534 Z-1.30845
X12.4645 Y171.05144 Z-1.31188
X12.45855 Y171.04678 Z-1.31532
X12.45322 Y171.04144 Z-1.31875
X12.44856 Y171.0355 Z-1.32218
X12.44466 Y171.02904 Z-1.32561
X12.44156 Y171.02216 Z-1.32904
X12.43932 Y171.01496 Z-1.33248
X12.43796 Y171.00753 Z-1.33591
X12.4375 Y171. Z-1.33934
X12.43796 Y170.99247 Z-1.34277
X12.43932 Y170.98504 Z-1.3462
X12.44156 Y170.97784 Z-1.34964
X12.44466 Y170.97095 Z-1.35307
X12.44856 Y170.9645 Z-1.3565
X12.45322 Y170.95855 Z-1.35993
X12.45855 Y170.95322 Z-1.36336
X12.4645 Y170.94856 Z-1.3668
X12.47096 Y170.94466 Z-1.37023
X12.47784 Y170.94156 Z-1.37366
X12.48504 Y170.93932 Z-1.37709
X12.49247 Y170.93796 Z-1.38052
X12.5 Y170.9375 Z-1.38396
X12.50753 Y170.93796 Z-1.38739
X12.51496 Y170.93932 Z-1.39082
X12.52216 Y170.94156 Z-1.39425
X12.52904 Y170.94466 Z-1.39768
X12.5355 Y170.94856 Z-1.40112
X12.54144 Y170.95322 Z-1.40455
X12.54678 Y170.95855 Z-1.40798
X12.55144 Y170.9645 Z-1.41141
X12.55534 Y170.97095 Z-1.41484
X12.55844 Y170.97784 Z-1.41827
X12.56068 Y170.98504 Z-1.42171
X12.56204 Y170.99247 Z-1.42514
X12.56249 Y170.99976 Z-1.42857
X12.56059 Y171.01531
G03 X12.43941 Y170.98469 I-0.06059 J-0.01531
X12.56059 Y171.01531 I0.06059 J0.01531
G1 X12.56249 Y170.99976
X12.5625 Y171. Z-1.42868
X12.56204 Y171.00753 Z-1.43211
X12.56068 Y171.01496 Z-1.43554
X12.55844 Y171.02216 Z-1.43898
X12.55534 Y171.02904 Z-1.44241
X12.55144 Y171.0355 Z-1.44584
X12.54678 Y171.04144 Z-1.44927
X12.54144 Y171.04678 Z-1.4527
X12.5355 Y171.05144 Z-1.45614
X12.52904 Y171.05534 Z-1.45957
X12.52216 Y171.05844 Z-1.463
X12.51496 Y171.06068 Z-1.46643
X12.50753 Y171.06204 Z-1.46986
X12.5 Y171.0625 Z-1.4733
X12.49247 Y171.06204 Z-1.47673
X12.48504 Y171.06068 Z-1.48016
X12.47784 Y171.05844 Z-1.48359
X12.47096 Y171.05534 Z-1.48702
X12.4645 Y171.05144 Z-1.49046
X12.45855 Y171.04678 Z-1.49389
X12.45322 Y171.04144 Z-1.49732
X12.44856 Y171.0355 Z-1.50075
X12.44466 Y171.02904 Z-1.50418
X12.44156 Y171.02216 Z-1.50762
X12.43932 Y171.01496 Z-1.51105
X12.43796 Y171.00753 Z-1.51448
X12.4375 Y171. Z-1.51791
X12.43796 Y170.99247 Z-1.52134
X12.43932 Y170.98504 Z-1.52477
X12.44156 Y170.97784 Z-1.52821
X12.44466 Y170.97095 Z-1.53164
X12.44856 Y170.9645 Z-1.53507
X12.45322 Y170.95855 Z-1.5385
X12.45855 Y170.95322 Z-1.54194
X12.4645 Y170.94856 Z-1.54537
X12.47096 Y170.94466 Z-1.5488
X12.47784 Y170.94156 Z-1.55223
X12.48504 Y170.93932 Z-1.55566
X12.49247 Y170.93796 Z-1.55909
X12.5 Y170.9375 Z-1.56253
X12.50753 Y170.93796 Z-1.56596
X12.51496 Y170.93932 Z-1.56939
X12.52216 Y170.94156 Z-1.57282
X12.52904 Y170.94466 Z-1.57626
X12.5355 Y170.94856 Z-1.57969
X12.54144 Y170.95322 Z-1.58312
X12.54678 Y170.95855 Z-1.58655
X12.55144 Y170.9645 Z-1.58998
X12.55534 Y170.97095 Z-1.59342
X12.55844 Y170.97784 Z-1.59685
X12.56068 Y170.98504 Z-1.60028
X12.56204 Y170.99247 Z-1.60371
X12.56249 Y170.99976 Z-1.60714
X12.5625 Y171. Z-1.60725
X12.56204 Y171.00753 Z-1.61068
X12.56068 Y171.01496 Z-1.61411
X12.55844 Y171.02216 Z-1.61755
X12.55534 Y171.02904 Z-1.62098
X12.55144 Y171.0355 Z-1.62441
X12.54678 Y171.04144 Z-1.62784
X12.54144 Y171.04678 Z-1.63128
X12.5355 Y171.05144 Z-1.63471
X12.52904 Y171.05534 Z-1.63814
X12.52216 Y171.05844 Z-1.64157
X12.51496 Y171.06068 Z-1.645
X12.50753 Y171.06204 Z-1.64844
X12.5 Y171.0625 Z-1.65187
X12.49247 Y171.06204 Z-1.6553
X12.48504 Y171.06068 Z-1.65873
X12.47784 Y171.05844 Z-1.66216
X12.47096 Y171.05534 Z-1.6656
X12.4645 Y171.05144 Z-1.66903
X12.45855 Y171.04678 Z-1.67246
X12.45322 Y171.04144 Z-1.67589
X12.44856 Y171.0355 Z-1.67932
X12.44466 Y171.02904 Z-1.68276
X12.44156 Y171.02216 Z-1.68619
X12.43932 Y171.01496 Z-1.68962
X12.43796 Y171.00753 Z-1.69305
X12.4375 Y171. Z-1.69648
X12.43796 Y170.99247 Z-1.69992
X12.43932 Y170.98504 Z-1.70335
X12.44156 Y170.97784 Z-1.70678
X12.44466 Y170.97095 Z-1.71021
X12.44856 Y170.9645 Z-1.71364
X12.45322 Y170.95855 Z-1.71708
X12.45855 Y170.95322 Z-1.72051
X12.4645 Y170.94856 Z-1.72394
X12.47096 Y170.94466 Z-1.72737
X12.47784 Y170.94156 Z-1.7308
X12.48504 Y170.93932 Z-1.73424
X12.49247 Y170.93796 Z-1.73767
X12.5 Y170.9375 Z-1.7411
X12.50753 Y170.93796 Z-1.74453
X12.51496 Y170.93932 Z-1.74796
X12.52216 Y170.94156 Z-1.7514
X12.52904 Y170.94466 Z-1.75483
X12.5355 Y170.94856 Z-1.75826
X12.54144 Y170.95322 Z-1.76169
X12.54678 Y170.95855 Z-1.76512
X12.55144 Y170.9645 Z-1.76855
X12.55534 Y170.97095 Z-1.77199
X12.55844 Y170.97784 Z-1.77542
X12.56068 Y170.98504 Z-1.77885
X12.56204 Y170.99247 Z-1.78228
X12.56249 Y170.99976 Z-1.78571
X12.5625 Y171. Z-1.78582
X12.56204 Y171.00753 Z-1.78926
X12.56068 Y171.01496 Z-1.79269
X12.55844 Y171.02216 Z-1.79612
X12.55534 Y171.02904 Z-1.79955
X12.55144 Y171.0355 Z-1.80298
X12.54678 Y171.04144 Z-1.80642
X12.54144 Y171.04678 Z-1.80985
X12.5355 Y171.05144 Z-1.81328
X12.52904 Y171.05534 Z-1.81671
X12.52216 Y171.05844 Z-1.82014
X12.51496 Y171.06068 Z-1.82358
X12.50753 Y171.06204 Z-1.82701
X12.5 Y171.0625 Z-1.83044
X12.49247 Y171.06204 Z-1.83387
X12.48504 Y171.06068 Z-1.8373
X12.47784 Y171.05844 Z-1.84074
X12.47096 Y171.05534 Z-1.84417
X12.4645 Y171.05144 Z-1.8476
X12.45855 Y171.04678 Z-1.85103
X12.45322 Y171.04144 Z-1.85446
X12.44856 Y171.0355 Z-1.85789
X12.44466 Y171.02904 Z-1.86133
X12.44156 Y171.02216 Z-1.86476
X12.43932 Y171.01496 Z-1.86819
X12.43796 Y171.00753 Z-1.87162
X12.4375 Y171. Z-1.87505
X12.43796 Y170.99247 Z-1.87849
X12.43932 Y170.98504 Z-1.88192
X12.44156 Y170.97784 Z-1.88535
X12.44466 Y170.97095 Z-1.88878
X12.44856 Y170.9645 Z-1.89221
X12.45322 Y170.95855 Z-1.89565
X12.45855 Y170.95322 Z-1.89908
X12.4645 Y170.94856 Z-1.90251
X12.47096 Y170.94466 Z-1.90594
X12.47784 Y170.94156 Z-1.90937
X12.48504 Y170.93932 Z-1.91281
X12.49247 Y170.93796 Z-1.91624
X12.5 Y170.9375 Z-1.91967
X12.50753 Y170.93796 Z-1.9231
X12.51496 Y170.93932 Z-1.92653
X12.52216 Y170.94156 Z-1.92997
X12.52904 Y170.94466 Z-1.9334
X12.5355 Y170.94856 Z-1.93683
X12.54144 Y170.95322 Z-1.94026
X12.54678 Y170.95855 Z-1.94369
X12.55144 Y170.9645 Z-1.94713
X12.55534 Y170.97095 Z-1.95056
X12.55844 Y170.97784 Z-1.95399
X12.56068 Y170.98504 Z-1.95742
X12.56204 Y170.99247 Z-1.96085
X12.56249 Y170.99976 Z-1.96429
X12.5625 Y171. Z-1.96439
X12.56204 Y171.00753 Z-1.96783
X12.56068 Y171.01496 Z-1.97126
X12.55844 Y171.02216 Z-1.97469
X12.55534 Y171.02904 Z-1.97812
X12.55144 Y171.0355 Z-1.98155
X12.54678 Y171.04144 Z-1.98499
X12.54144 Y171.04678 Z-1.98842
X12.5355 Y171.05144 Z-1.99185
X12.52904 Y171.05534 Z-1.99528
X12.52216 Y171.05844 Z-1.99871
X12.51496 Y171.06068 Z-2.00215
X12.50753 Y171.06204 Z-2.00558
X12.5 Y171.0625 Z-2.00901
X12.49247 Y171.06204 Z-2.01244
X12.48504 Y171.06068 Z-2.01587
X12.47784 Y171.05844 Z-2.01931
X12.47096 Y171.05534 Z-2.02274
X12.4645 Y171.05144 Z-2.02617
X12.45855 Y171.04678 Z-2.0296
X12.45322 Y171.04144 Z-2.03303
X12.44856 Y171.0355 Z-2.03647
X12.44466 Y171.02904 Z-2.0399
X12.44156 Y171.02216 Z-2.04333
X12.43932 Y171.01496 Z-2.04676
X12.43796 Y171.00753 Z-2.05019
X12.4375 Y171. Z-2.05363
X12.43796 Y170.99247 Z-2.05706
X12.43932 Y170.98504 Z-2.06049
X12.44156 Y170.97784 Z-2.06392
X12.44466 Y170.97095 Z-2.06735
X12.44856 Y170.9645 Z-2.07079
X12.45322 Y170.95855 Z-2.07422
X12.45855 Y170.95322 Z-2.07765
X12.4645 Y170.94856 Z-2.08108
X12.47096 Y170.94466 Z-2.08451
X12.47784 Y170.94156 Z-2.08795
X12.48504 Y170.93932 Z-2.09138
X12.49247 Y170.93796 Z-2.09481
X12.5 Y170.9375 Z-2.09824
X12.50753 Y170.93796 Z-2.10167
X12.51496 Y170.93932 Z-2.10511
X12.52216 Y170.94156 Z-2.10854
X12.52904 Y170.94466 Z-2.11197
X12.5355 Y170.94856 Z-2.1154
X12.54144 Y170.95322 Z-2.11883
X12.54678 Y170.95855 Z-2.12227
X12.55144 Y170.9645 Z-2.1257
X12.55534 Y170.97095 Z-2.12913
X12.55844 Y170.97784 Z-2.13256
X12.56068 Y170.98504 Z-2.13599
X12.56204 Y170.99247 Z-2.13943
X12.56249 Y170.99976 Z-2.14286
X12.56059 Y171.01531
G03 X12.43941 Y170.98469 I-0.06059 J-0.01531
X12.56059 Y171.01531 I0.06059 J0.01531
G1 X12.56249 Y170.99976
X12.5625 Y171. Z-2.14297
X12.56204 Y171.00753 Z-2.1464
X12.56068 Y171.01496 Z-2.14983
X12.55844 Y171.02216 Z-2.15326
X12.55534 Y171.02904 Z-2.15669
X12.55144 Y171.0355 Z-2.16013
X12.54678 Y171.04144 Z-2.16356
X12.54144 Y171.04678 Z-2.16699
X12.5355 Y171.05144 Z-2.17042
X12.52904 Y171.05534 Z-2.17385
X12.52216 Y171.05844 Z-2.17729
X12.51496 Y171.06068 Z-2.18072
X12.50753 Y171.06204 Z-2.18415
X12.5 Y171.0625 Z-2.18758
X12.49247 Y171.06204 Z-2.19101
X12.48504 Y171.06068 Z-2.19445
X12.47784 Y171.05844 Z-2.19788
X12.47096 Y171.05534 Z-2.20131
X12.4645 Y171.05144 Z-2.20474
X12.45855 Y171.04678 Z-2.20817
X12.45322 Y171.04144 Z-2.21161
X12.44856 Y171.0355 Z-2.21504
X12.44466 Y171.02904 Z-2.21847
X12.44156 Y171.02216 Z-2.2219
X12.43932 Y171.01496 Z-2.22533
X12.43796 Y171.00753 Z-2.22876
X12.4375 Y171. Z-2.2322
X12.43796 Y170.99247 Z-2.23563
X12.43932 Y170.98504 Z-2.23906
X12.44156 Y170.97784 Z-2.24249
X12.44466 Y170.97095 Z-2.24593
X12.44856 Y170.9645 Z-2.24936
X12.45322 Y170.95855 Z-2.25279
X12.45855 Y170.95322 Z-2.25622
X12.4645 Y170.94856 Z-2.25965
X12.47096 Y170.94466 Z-2.26309
X12.47784 Y170.94156 Z-2.26652
X12.48504 Y170.93932 Z-2.26995
X12.49247 Y170.93796 Z-2.27338
X12.5 Y170.9375 Z-2.27681
X12.50753 Y170.93796 Z-2.28024
X12.51496 Y170.93932 Z-2.28368
X12.52216 Y170.94156 Z-2.28711
X12.52904 Y170.94466 Z-2.29054
X12.5355 Y170.94856 Z-2.29397
X12.54144 Y170.95322 Z-2.2974
X12.54678 Y170.95855 Z-2.30084
X12.55144 Y170.9645 Z-2.30427
X12.55534 Y170.97095 Z-2.3077
X12.55844 Y170.97784 Z-2.31113
X12.56068 Y170.98504 Z-2.31457
X12.56204 Y170.99247 Z-2.318
X12.56249 Y170.99976 Z-2.32143
X12.5625 Y171. Z-2.32154
X12.56204 Y171.00753 Z-2.32497
X12.56068 Y171.01496 Z-2.3284
X12.55844 Y171.02216 Z-2.33183
X12.55534 Y171.02904 Z-2.33526
X12.55144 Y171.0355 Z-2.3387
X12.54678 Y171.04144 Z-2.34213
X12.54144 Y171.04678 Z-2.34556
X12.5355 Y171.05144 Z-2.34899
X12.52904 Y171.05534 Z-2.35243
X12.52216 Y171.05844 Z-2.35586
X12.51496 Y171.06068 Z-2.35929
X12.50753 Y171.06204 Z-2.36272
X12.5 Y171.0625 Z-2.36615
X12.49247 Y171.06204 Z-2.36959
X12.48504 Y171.06068 Z-2.37302
X12.47784 Y171.05844 Z-2.37645
X12.47096 Y171.05534 Z-2.37988
X12.4645 Y171.05144 Z-2.38331
X12.45855 Y171.04678 Z-2.38674
X12.45322 Y171.04144 Z-2.39018
X12.44856 Y171.0355 Z-2.39361
X12.44466 Y171.02904 Z-2.39704
X12.44156 Y171.02216 Z-2.40047
X12.43932 Y171.01496 Z-2.40391
X12.43796 Y171.00753 Z-2.40734
X12.4375 Y171. Z-2.41077
X12.43796 Y170.99247 Z-2.4142
X12.43932 Y170.98504 Z-2.41763
X12.44156 Y170.97784 Z-2.42107
X12.44466 Y170.97095 Z-2.4245
X12.44856 Y170.9645 Z-2.42793
X12.45322 Y170.95855 Z-2.43136
X12.45855 Y170.95322 Z-2.43479
X12.4645 Y170.94856 Z-2.43822
X12.47096 Y170.94466 Z-2.44166
X12.47784 Y170.94156 Z-2.44509
X12.48504 Y170.93932 Z-2.44852
X12.49247 Y170.93796 Z-2.45195
X12.5 Y170.9375 Z-2.45538
X12.50753 Y170.93796 Z-2.45882
X12.51496 Y170.93932 Z-2.46225
X12.52216 Y170.94156 Z-2.46568
X12.52904 Y170.94466 Z-2.46911
X12.5355 Y170.94856 Z-2.47254
X12.54144 Y170.95322 Z-2.47598
X12.54678 Y170.95855 Z-2.47941
X12.55144 Y170.9645 Z-2.48284
X12.55534 Y170.97095 Z-2.48627
X12.55844 Y170.97784 Z-2.4897
X12.56068 Y170.98504 Z-2.49314
X12.56204 Y170.99247 Z-2.49657
X12.56249 Y170.99976 Z-2.5
X12.5625 Y171. Z-2.50011
X12.56204 Y171.00753 Z-2.50354
X12.56068 Y171.01496 Z-2.50697
X12.55844 Y171.02216 Z-2.51041
X12.55534 Y171.02904 Z-2.51384
X12.55144 Y171.0355 Z-2.51727
X12.54678 Y171.04144 Z-2.5207
X12.54144 Y171.04678 Z-2.52413
X12.5355 Y171.05144 Z-2.52756
X12.52904 Y171.05534 Z-2.531
X12.52216 Y171.05844 Z-2.53443
X12.51496 Y171.06068 Z-2.53786
X12.50753 Y171.06204 Z-2.54129
X12.5 Y171.0625 Z-2.54472
X12.49247 Y171.06204 Z-2.54816
X12.48504 Y171.06068 Z-2.55159
X12.47784 Y171.05844 Z-2.55502
X12.47096 Y171.05534 Z-2.55845
X12.4645 Y171.05144 Z-2.56188
X12.45855 Y171.04678 Z-2.56532
X12.45322 Y171.04144 Z-2.56875
X12.44856 Y171.0355 Z-2.57218
X12.44466 Y171.02904 Z-2.57561
X12.44156 Y171.02216 Z-2.57904
X12.43932 Y171.01496 Z-2.58248
X12.43796 Y171.00753 Z-2.58591
X12.4375 Y171. Z-2.58934
X12.43796 Y170.99247 Z-2.59277
X12.43932 Y170.98504 Z-2.5962
X12.44156 Y170.97784 Z-2.59964
X12.44466 Y170.97095 Z-2.60307
X12.44856 Y170.9645 Z-2.6065
X12.45322 Y170.95855 Z-2.60993
X12.45855 Y170.95322 Z-2.61336
X12.4645 Y170.94856 Z-2.6168
X12.47096 Y170.94466 Z-2.62023
X12.47784 Y170.94156 Z-2.62366
X12.48504 Y170.93932 Z-2.62709
X12.49247 Y170.93796 Z-2.63052
X12.5 Y170.9375 Z-2.63396
X12.50753 Y170.93796 Z-2.63739
X12.51496 Y170.93932 Z-2.64082
X12.52216 Y170.94156 Z-2.64425
X12.52904 Y170.94466 Z-2.64768
X12.5355 Y170.94856 Z-2.65112
X12.54144 Y170.95322 Z-2.65455
X12.54678 Y170.95855 Z-2.65798
X12.55144 Y170.9645 Z-2.66141
X12.55534 Y170.97095 Z-2.66484
X12.55844 Y170.97784 Z-2.66827
X12.56068 Y170.98504 Z-2.67171
X12.56204 Y170.99247 Z-2.67514
X12.56249 Y170.99976 Z-2.67857
X12.5625 Y171. Z-2.67868
X12.56204 Y171.00753 Z-2.68211
X12.56068 Y171.01496 Z-2.68554
X12.55844 Y171.02216 Z-2.68898
X12.55534 Y171.02904 Z-2.69241
X12.55144 Y171.0355 Z-2.69584
X12.54678 Y171.04144 Z-2.69927
X12.54144 Y171.04678 Z-2.7027
X12.5355 Y171.05144 Z-2.70614
X12.52904 Y171.05534 Z-2.70957
X12.52216 Y171.05844 Z-2.713
X12.51496 Y171.06068 Z-2.71643
X12.50753 Y171.06204 Z-2.71986
X12.5 Y171.0625 Z-2.7233
X12.49247 Y171.06204 Z-2.72673
X12.48504 Y171.06068 Z-2.73016
X12.47784 Y171.05844 Z-2.73359
X12.47096 Y171.05534 Z-2.73702
X12.4645 Y171.05144 Z-2.74046
X12.45855 Y171.04678 Z-2.74389
X12.45322 Y171.04144 Z-2.74732
X12.44856 Y171.0355 Z-2.75075
X12.44466 Y171.02904 Z-2.75418
X12.44156 Y171.02216 Z-2.75762
X12.43932 Y171.01496 Z-2.76105
X12.43796 Y171.00753 Z-2.76448
X12.4375 Y171. Z-2.76791
X12.43796 Y170.99247 Z-2.77134
X12.43932 Y170.98504 Z-2.77478
X12.44156 Y170.97784 Z-2.77821
X12.44466 Y170.97095 Z-2.78164
X12.44856 Y170.9645 Z-2.78507
X12.45322 Y170.95855 Z-2.7885
X12.45855 Y170.95322 Z-2.79194
X12.4645 Y170.94856 Z-2.79537
X12.47096 Y170.94466 Z-2.7988
X12.47784 Y170.94156 Z-2.80223
X12.48504 Y170.93932 Z-2.80566
X12.49247 Y170.93796 Z-2.8091
X12.5 Y170.9375 Z-2.81253
X12.50753 Y170.93796 Z-2.81596
X12.51496 Y170.93932 Z-2.81939
X12.52216 Y170.94156 Z-2.82282
X12.52904 Y170.94466 Z-2.82626
X12.5355 Y170.94856 Z-2.82969
X12.54144 Y170.95322 Z-2.83312
X12.54678 Y170.95855 Z-2.83655
X12.55144 Y170.9645 Z-2.83998
X12.55534 Y170.97095 Z-2.84342
X12.55844 Y170.97784 Z-2.84685
X12.56068 Y170.98504 Z-2.85028
X12.56204 Y170.99247 Z-2.85371
X12.56249 Y170.99976 Z-2.85714
X12.56059 Y171.01531
G03 X12.43941 Y170.98469 I-0.06059 J-0.01531
X12.56059 Y171.01531 I0.06059 J0.01531
G1 X12.56249 Y170.99976
X12.5625 Y171. Z-2.85725
X12.56204 Y171.00753 Z-2.86068
X12.56068 Y171.01496 Z-2.86412
X12.55844 Y171.02216 Z-2.86755
X12.55534 Y171.02904 Z-2.87098
X12.55144 Y171.0355 Z-2.87441
X12.54678 Y171.04144 Z-2.87784
X12.54144 Y171.04678 Z-2.88128
X12.5355 Y171.05144 Z-2.88471
X12.52904 Y171.05534 Z-2.88814
X12.52216 Y171.05844 Z-2.89157
X12.51496 Y171.06068 Z-2.895
X12.50753 Y171.06204 Z-2.89844
X12.5 Y171.0625 Z-2.90187
X12.49247 Y171.06204 Z-2.9053
X12.48504 Y171.06068 Z-2.90873
X12.47784 Y171.05844 Z-2.91216
X12.47096 Y171.05534 Z-2.9156
X12.4645 Y171.05144 Z-2.91903
X12.45855 Y171.04678 Z-2.92246
X12.45322 Y171.04144 Z-2.92589
X12.44856 Y171.0355 Z-2.92932
X12.44466 Y171.02904 Z-2.93275
X12.44156 Y171.02216 Z-2.93619
X12.43932 Y171.01496 Z-2.93962
X12.43796 Y171.00753 Z-2.94305
X12.4375 Y171. Z-2.94648
X12.43796 Y170.99247 Z-2.94992
X12.43932 Y170.98504 Z-2.95335
X12.44156 Y170.97784 Z-2.95678
X12.44466 Y170.97095 Z-2.96021
X12.44856 Y170.9645 Z-2.96364
X12.45322 Y170.95855 Z-2.96708
X12.45855 Y170.95322 Z-2.97051
X12.4645 Y170.94856 Z-2.97394
X12.47096 Y170.94466 Z-2.97737
X12.47784 Y170.94156 Z-2.9808
X12.48504 Y170.93932 Z-2.98424
X12.49247 Y170.93796 Z-2.98767
X12.5 Y170.9375 Z-2.9911
X12.50753 Y170.93796 Z-2.99453
X12.51496 Y170.93932 Z-2.99796
X12.52216 Y170.94156 Z-3.0014
X12.52904 Y170.94466 Z-3.00483
X12.5355 Y170.94856 Z-3.00826
X12.54144 Y170.95322 Z-3.01169
X12.54678 Y170.95855 Z-3.01512
X12.55144 Y170.9645 Z-3.01855
X12.55534 Y170.97095 Z-3.02199
X12.55844 Y170.97784 Z-3.02542
X12.56068 Y170.98504 Z-3.02885
X12.56204 Y170.99247 Z-3.03228
X12.56249 Y170.99976 Z-3.03571
X12.5625 Y171. Z-3.03582
X12.56204 Y171.00753 Z-3.03926
X12.56068 Y171.01496 Z-3.04269
X12.55844 Y171.02216 Z-3.04612
X12.55534 Y171.02904 Z-3.04955
X12.55144 Y171.0355 Z-3.05298
X12.54678 Y171.04144 Z-3.05641
X12.54144 Y171.04678 Z-3.05985
X12.5355 Y171.05144 Z-3.06328
X12.52904 Y171.05534 Z-3.06671
X12.52216 Y171.05844 Z-3.07014
X12.51496 Y171.06068 Z-3.07358
X12.50753 Y171.06204 Z-3.07701
X12.5 Y171.0625 Z-3.08044
X12.49247 Y171.06204 Z-3.08387
X12.48504 Y171.06068 Z-3.0873
X12.47784 Y171.05844 Z-3.09074
X12.47096 Y171.05534 Z-3.09417
X12.4645 Y171.05144 Z-3.0976
X12.45855 Y171.04678 Z-3.10103
X12.45322 Y171.04144 Z-3.10446
X12.44856 Y171.0355 Z-3.10789
X12.44466 Y171.02904 Z-3.11133
X12.44156 Y171.02216 Z-3.11476
X12.43932 Y171.01496 Z-3.11819
X12.43796 Y171.00753 Z-3.12162
X12.4375 Y171. Z-3.12505
X12.43796 Y170.99247 Z-3.12849
X12.43932 Y170.98504 Z-3.13192
X12.44156 Y170.97784 Z-3.13535
X12.44466 Y170.97095 Z-3.13878
X12.44856 Y170.9645 Z-3.14221
X12.45322 Y170.95855 Z-3.14565
X12.45855 Y170.95322 Z-3.14908
X12.4645 Y170.94856 Z-3.15251
X12.47096 Y170.94466 Z-3.15594
X12.47784 Y170.94156 Z-3.15937
X12.48504 Y170.93932 Z-3.16281
X12.49247 Y170.93796 Z-3.16624
X12.5 Y170.9375 Z-3.16967
X12.50753 Y170.93796 Z-3.1731
X12.51496 Y170.93932 Z-3.17653
X12.52216 Y170.94156 Z-3.17997
X12.52904 Y170.94466 Z-3.1834
X12.5355 Y170.94856 Z-3.18683
X12.54144 Y170.95322 Z-3.19026
X12.54678 Y170.95855 Z-3.19369
X12.55144 Y170.9645 Z-3.19713
X12.55534 Y170.97095 Z-3.20056
X12.55844 Y170.97784 Z-3.20399
X12.56068 Y170.98504 Z-3.20742
X12.56204 Y170.99247 Z-3.21085
X12.56249 Y170.99976 Z-3.21429
X12.5625 Y171. Z-3.21439
X12.56204 Y171.00753 Z-3.21783
X12.56068 Y171.01496 Z-3.22126
X12.55844 Y171.02216 Z-3.22469
X12.55534 Y171.02904 Z-3.22812
X12.55144 Y171.0355 Z-3.23155
X12.54678 Y171.04144 Z-3.23499
X12.54144 Y171.04678 Z-3.23842
X12.5355 Y171.05144 Z-3.24185
X12.52904 Y171.05534 Z-3.24528
X12.52216 Y171.05844 Z-3.24871
X12.51496 Y171.06068 Z-3.25215
X12.50753 Y171.06204 Z-3.25558
X12.5 Y171.0625 Z-3.25901
X12.49247 Y171.06204 Z-3.26244
X12.48504 Y171.06068 Z-3.26587
X12.47784 Y171.05844 Z-3.26931
X12.47096 Y171.05534 Z-3.27274
X12.4645 Y171.05144 Z-3.27617
X12.45855 Y171.04678 Z-3.2796
X12.45322 Y171.04144 Z-3.28303
X12.44856 Y171.0355 Z-3.28647
X12.44466 Y171.02904 Z-3.2899
X12.44156 Y171.02216 Z-3.29333
X12.43932 Y171.01496 Z-3.29676
X12.43796 Y171.00753 Z-3.30019
X12.4375 Y171. Z-3.30363
X12.43796 Y170.99247 Z-3.30706
X12.43932 Y170.98504 Z-3.31049
X12.44156 Y170.97784 Z-3.31392
X12.44466 Y170.97095 Z-3.31735
X12.44856 Y170.9645 Z-3.32079
X12.45322 Y170.95855 Z-3.32422
X12.45855 Y170.95322 Z-3.32765
X12.4645 Y170.94856 Z-3.33108
X12.47096 Y170.94466 Z-3.33451
X12.47784 Y170.94156 Z-3.33795
X12.48504 Y170.93932 Z-3.34138
X12.49247 Y170.93796 Z-3.34481
X12.5 Y170.9375 Z-3.34824
X12.50753 Y170.93796 Z-3.35167
X12.51496 Y170.93932 Z-3.35511
X12.52216 Y170.94156 Z-3.35854
X12.52904 Y170.94466 Z-3.36197
X12.5355 Y170.94856 Z-3.3654
X12.54144 Y170.95322 Z-3.36883
X12.54678 Y170.95855 Z-3.37227
X12.55144 Y170.9645 Z-3.3757
X12.55534 Y170.97095 Z-3.37913
X12.55844 Y170.97784 Z-3.38256
X12.56068 Y170.98504 Z-3.38599
X12.56204 Y170.99247 Z-3.38943
X12.56249 Y170.99976 Z-3.39286
X12.5625 Y171. Z-3.39297
X12.56204 Y171.00753 Z-3.3964
X12.56068 Y171.01496 Z-3.39983
X12.55844 Y171.02216 Z-3.40326
X12.55534 Y171.02904 Z-3.40669
X12.55144 Y171.0355 Z-3.41013
X12.54678 Y171.04144 Z-3.41356
X12.54144 Y171.04678 Z-3.41699
X12.5355 Y171.05144 Z-3.42042
X12.52904 Y171.05534 Z-3.42385
X12.52216 Y171.05844 Z-3.42729
X12.51496 Y171.06068 Z-3.43072
X12.50753 Y171.06204 Z-3.43415
X12.5 Y171.0625 Z-3.43758
X12.49247 Y171.06204 Z-3.44101
X12.48504 Y171.06068 Z-3.44445
X12.47784 Y171.05844 Z-3.44788
X12.47096 Y171.05534 Z-3.45131
X12.4645 Y171.05144 Z-3.45474
X12.45855 Y171.04678 Z-3.45817
X12.45322 Y171.04144 Z-3.46161
X12.44856 Y171.0355 Z-3.46504
X12.44466 Y171.02904 Z-3.46847
X12.44156 Y171.02216 Z-3.4719
X12.43932 Y171.01496 Z-3.47533
X12.43796 Y171.00753 Z-3.47876
X12.4375 Y171. Z-3.4822
X12.43796 Y170.99247 Z-3.48563
X12.43932 Y170.98504 Z-3.48906
X12.44156 Y170.97784 Z-3.49249
X12.44466 Y170.97095 Z-3.49593
X12.44856 Y170.9645 Z-3.49936
X12.45322 Y170.95855 Z-3.50279
X12.45855 Y170.95322 Z-3.50622
X12.4645 Y170.94856 Z-3.50965
X12.47096 Y170.94466 Z-3.51309
X12.47784 Y170.94156 Z-3.51652
X12.48504 Y170.93932 Z-3.51995
X12.49247 Y170.93796 Z-3.52338
X12.5 Y170.9375 Z-3.52681
X12.50753 Y170.93796 Z-3.53025
X12.51496 Y170.93932 Z-3.53368
X12.52216 Y170.94156 Z-3.53711
X12.52904 Y170.94466 Z-3.54054
X12.5355 Y170.94856 Z-3.54397
X12.54144 Y170.95322 Z-3.5474
X12.54678 Y170.95855 Z-3.55084
X12.55144 Y170.9645 Z-3.55427
X12.55534 Y170.97095 Z-3.5577
X12.55844 Y170.97784 Z-3.56113
X12.56068 Y170.98504 Z-3.56457
X12.56204 Y170.99247 Z-3.568
X12.56249 Y170.99976 Z-3.57143
X12.56059 Y171.01531
G03 X12.43941 Y170.98469 I-0.06059 J-0.01531
X12.56059 Y171.01531 I0.06059 J0.01531
G1 X12.56249 Y170.99976
X12.5625 Y171. Z-3.57154
X12.56204 Y171.00753 Z-3.57497
X12.56068 Y171.01496 Z-3.5784
X12.55844 Y171.02216 Z-3.58183
X12.55534 Y171.02904 Z-3.58527
X12.55144 Y171.0355 Z-3.5887
X12.54678 Y171.04144 Z-3.59213
X12.54144 Y171.04678 Z-3.59556
X12.5355 Y171.05144 Z-3.59899
X12.52904 Y171.05534 Z-3.60243
X12.52216 Y171.05844 Z-3.60586
X12.51496 Y171.06068 Z-3.60929
X12.50753 Y171.06204 Z-3.61272
X12.5 Y171.0625 Z-3.61615
X12.49247 Y171.06204 Z-3.61959
X12.48504 Y171.06068 Z-3.62302
X12.47784 Y171.05844 Z-3.62645
X12.47096 Y171.05534 Z-3.62988
X12.4645 Y171.05144 Z-3.63331
X12.45855 Y171.04678 Z-3.63675
X12.45322 Y171.04144 Z-3.64018
X12.44856 Y171.0355 Z-3.64361
X12.44466 Y171.02904 Z-3.64704
X12.44156 Y171.02216 Z-3.65047
X12.43932 Y171.01496 Z-3.65391
X12.43796 Y171.00753 Z-3.65734
X12.4375 Y171. Z-3.66077
X12.43796 Y170.99247 Z-3.6642
X12.43932 Y170.98504 Z-3.66763
X12.44156 Y170.97784 Z-3.67106
X12.44466 Y170.97095 Z-3.6745
X12.44856 Y170.9645 Z-3.67793
X12.45322 Y170.95855 Z-3.68136
X12.45855 Y170.95322 Z-3.68479
X12.4645 Y170.94856 Z-3.68822
X12.47096 Y170.94466 Z-3.69166
X12.47784 Y170.94156 Z-3.69509
X12.48504 Y170.93932 Z-3.69852
X12.49247 Y170.93796 Z-3.70195
X12.5 Y170.9375 Z-3.70538
X12.50753 Y170.93796 Z-3.70882
X12.51496 Y170.93932 Z-3.71225
X12.52216 Y170.94156 Z-3.71568
X12.52904 Y170.94466 Z-3.71911
X12.5355 Y170.94856 Z-3.72254
X12.54144 Y170.95322 Z-3.72598
X12.54678 Y170.95855 Z-3.72941
X12.55144 Y170.9645 Z-3.73284
X12.55534 Y170.97095 Z-3.73627
X12.55844 Y170.97784 Z-3.7397
X12.56068 Y170.98504 Z-3.74314
X12.56204 Y170.99247 Z-3.74657
X12.56249 Y170.99976 Z-3.75
X12.5625 Y171. Z-3.75011
X12.56204 Y171.00753 Z-3.75354
X12.56068 Y171.01496 Z-3.75697
X12.55844 Y171.02216 Z-3.76041
X12.55534 Y171.02904 Z-3.76384
X12.55144 Y171.0355 Z-3.76727
X12.54678 Y171.04144 Z-3.7707
X12.54144 Y171.04678 Z-3.77413
X12.5355 Y171.05144 Z-3.77756
X12.52904 Y171.05534 Z-3.781
X12.52216 Y171.05844 Z-3.78443
X12.51496 Y171.06068 Z-3.78786
X12.50753 Y171.06204 Z-3.79129
X12.5 Y171.0625 Z-3.79472
X12.49247 Y171.06204 Z-3.79816
X12.48504 Y171.06068 Z-3.80159
X12.47784 Y171.05844 Z-3.80502
X12.47096 Y171.05534 Z-3.80845
X12.4645 Y171.05144 Z-3.81188
X12.45855 Y171.04678 Z-3.81532
X12.45322 Y171.04144 Z-3.81875
X12.44856 Y171.0355 Z-3.82218
X12.44466 Y171.02904 Z-3.82561
X12.44156 Y171.02216 Z-3.82904
X12.43932 Y171.01496 Z-3.83248
X12.43796 Y171.00753 Z-3.83591
X12.4375 Y171. Z-3.83934
X12.43796 Y170.99247 Z-3.84277
X12.43932 Y170.98504 Z-3.8462
X12.44156 Y170.97784 Z-3.84964
X12.44466 Y170.97095 Z-3.85307
X12.44856 Y170.9645 Z-3.8565
X12.45322 Y170.95855 Z-3.85993
X12.45855 Y170.95322 Z-3.86336
X12.4645 Y170.94856 Z-3.8668
X12.47096 Y170.94466 Z-3.87023
X12.47784 Y170.94156 Z-3.87366
X12.48504 Y170.93932 Z-3.87709
X12.49247 Y170.93796 Z-3.88052
X12.5 Y170.9375 Z-3.88396
X12.50753 Y170.93796 Z-3.88739
X12.51496 Y170.93932 Z-3.89082
X12.52216 Y170.94156 Z-3.89425
X12.52904 Y170.94466 Z-3.89768
X12.5355 Y170.94856 Z-3.90112
X12.54144 Y170.95322 Z-3.90455
X12.54678 Y170.95855 Z-3.90798
X12.55144 Y170.9645 Z-3.91141
X12.55534 Y170.97095 Z-3.91484
X12.55844 Y170.97784 Z-3.91828
X12.56068 Y170.98504 Z-3.92171
X12.56204 Y170.99247 Z-3.92514
X12.56249 Y170.99976 Z-3.92857
X12.5625 Y171. Z-3.92868
X12.56204 Y171.00753 Z-3.93211
X12.56068 Y171.01496 Z-3.93554
X12.55844 Y171.02216 Z-3.93898
X12.55534 Y171.02904 Z-3.94241
X12.55144 Y171.0355 Z-3.94584
X12.54678 Y171.04144 Z-3.94927
X12.54144 Y171.04678 Z-3.9527
X12.5355 Y171.05144 Z-3.95614
X12.52904 Y171.05534 Z-3.95957
X12.52216 Y171.05844 Z-3.963
X12.51496 Y171.06068 Z-3.96643
X12.50753 Y171.06204 Z-3.96986
X12.5 Y171.0625 Z-3.9733
X12.49247 Y171.06204 Z-3.97673
X12.48504 Y171.06068 Z-3.98016
X12.47784 Y171.05844 Z-3.98359
X12.47096 Y171.05534 Z-3.98702
X12.4645 Y171.05144 Z-3.99046
X12.45855 Y171.04678 Z-3.99389
X12.45322 Y171.04144 Z-3.99732
X12.44856 Y171.0355 Z-4.00075
X12.44466 Y171.02904 Z-4.00418
X12.44156 Y171.02216 Z-4.00762
X12.43932 Y171.01496 Z-4.01105
X12.43796 Y171.00753 Z-4.01448
X12.4375 Y171. Z-4.01791
X12.43796 Y170.99247 Z-4.02134
X12.43932 Y170.98504 Z-4.02478
X12.44156 Y170.97784 Z-4.02821
X12.44466 Y170.97095 Z-4.03164
X12.44856 Y170.9645 Z-4.03507
X12.45322 Y170.95855 Z-4.0385
X12.45855 Y170.95322 Z-4.04193
X12.4645 Y170.94856 Z-4.04537
X12.47096 Y170.94466 Z-4.0488
X12.47784 Y170.94156 Z-4.05223
X12.48504 Y170.93932 Z-4.05566
X12.49247 Y170.93796 Z-4.0591
X12.5 Y170.9375 Z-4.06253
X12.50753 Y170.93796 Z-4.06596
X12.51496 Y170.93932 Z-4.06939
X12.52216 Y170.94156 Z-4.07282
X12.52904 Y170.94466 Z-4.07626
X12.5355 Y170.94856 Z-4.07969
X12.54144 Y170.95322 Z-4.08312
X12.54678 Y170.95855 Z-4.08655
X12.55144 Y170.9645 Z-4.08998
X12.55534 Y170.97095 Z-4.09342
X12.55844 Y170.97784 Z-4.09685
X12.56068 Y170.98504 Z-4.10028
X12.56204 Y170.99247 Z-4.10371
X12.56249 Y170.99976 Z-4.10714
X12.5625 Y171. Z-4.10725
X12.56204 Y171.00753 Z-4.11068
X12.56068 Y171.01496 Z-4.11411
X12.55844 Y171.02216 Z-4.11755
X12.55534 Y171.02904 Z-4.12098
X12.55144 Y171.0355 Z-4.12441
X12.54678 Y171.04144 Z-4.12784
X12.54144 Y171.04678 Z-4.13128
X12.5355 Y171.05144 Z-4.13471
X12.52904 Y171.05534 Z-4.13814
X12.52216 Y171.05844 Z-4.14157
X12.51496 Y171.06068 Z-4.145
X12.50753 Y171.06204 Z-4.14844
X12.5 Y171.0625 Z-4.15187
X12.49247 Y171.06204 Z-4.1553
X12.48504 Y171.06068 Z-4.15873
X12.47784 Y171.05844 Z-4.16216
X12.47096 Y171.05534 Z-4.1656
X12.4645 Y171.05144 Z-4.16903
X12.45855 Y171.04678 Z-4.17246
X12.45322 Y171.04144 Z-4.17589
X12.44856 Y171.0355 Z-4.17932
X12.44466 Y171.02904 Z-4.18276
X12.44156 Y171.02216 Z-4.18619
X12.43932 Y171.01496 Z-4.18962
X12.43796 Y171.00753 Z-4.19305
X12.4375 Y171. Z-4.19648
X12.43796 Y170.99247 Z-4.19992
X12.43932 Y170.98504 Z-4.20335
X12.44156 Y170.97784 Z-4.20678
X12.44466 Y170.97095 Z-4.21021
X12.44856 Y170.9645 Z-4.21364
X12.45322 Y170.95855 Z-4.21708
X12.45855 Y170.95322 Z-4.22051
X12.4645 Y170.94856 Z-4.22394
X12.47096 Y170.94466 Z-4.22737
X12.47784 Y170.94156 Z-4.2308
X12.48504 Y170.93932 Z-4.23424
X12.49247 Y170.93796 Z-4.23767
X12.5 Y170.9375 Z-4.2411
X12.50753 Y170.93796 Z-4.24453
X12.51496 Y170.93932 Z-4.24796
X12.52216 Y170.94156 Z-4.2514
X12.52904 Y170.94466 Z-4.25483
X12.5355 Y170.94856 Z-4.25826
X12.54144 Y170.95322 Z-4.26169
X12.54678 Y170.95855 Z-4.26512
X12.55144 Y170.9645 Z-4.26855
X12.55534 Y170.97095 Z-4.27199
X12.55844 Y170.97784 Z-4.27542
X12.56068 Y170.98504 Z-4.27885
X12.56204 Y170.99247 Z-4.28228
X12.56249 Y170.99976 Z-4.28571
X12.56059 Y171.01531
G03 X12.43941 Y170.98469 I-0.06059 J-0.01531
X12.56059 Y171.01531 I0.06059 J0.01531
G1 X12.56249 Y170.99976
X12.5625 Y171. Z-4.28582
X12.56204 Y171.00753 Z-4.28926
X12.56068 Y171.01496 Z-4.29269
X12.55844 Y171.02216 Z-4.29612
X12.55534 Y171.02904 Z-4.29955
X12.55144 Y171.0355 Z-4.30298
X12.54678 Y171.04144 Z-4.30642
X12.54144 Y171.04678 Z-4.30985
X12.5355 Y171.05144 Z-4.31328
X12.52904 Y171.05534 Z-4.31671
X12.52216 Y171.05844 Z-4.32014
X12.51496 Y171.06068 Z-4.32358
X12.50753 Y171.06204 Z-4.32701
X12.5 Y171.0625 Z-4.33044
X12.49247 Y171.06204 Z-4.33387
X12.48504 Y171.06068 Z-4.3373
X12.47784 Y171.05844 Z-4.34074
X12.47096 Y171.05534 Z-4.34417
X12.4645 Y171.05144 Z-4.3476
X12.45855 Y171.04678 Z-4.35103
X12.45322 Y171.04144 Z-4.35446
X12.44856 Y171.0355 Z-4.35789
X12.44466 Y171.02904 Z-4.36133
X12.44156 Y171.02216 Z-4.36476
X12.43932 Y171.01496 Z-4.36819
X12.43796 Y171.00753 Z-4.37162
X12.4375 Y171. Z-4.37505
X12.43796 Y170.99247 Z-4.37849
X12.43932 Y170.98504 Z-4.38192
X12.44156 Y170.97784 Z-4.38535
X12.44466 Y170.97095 Z-4.38878
X12.44856 Y170.9645 Z-4.39221
X12.45322 Y170.95855 Z-4.39565
X12.45855 Y170.95322 Z-4.39908
X12.4645 Y170.94856 Z-4.40251
X12.47096 Y170.94466 Z-4.40594
X12.47784 Y170.94156 Z-4.40937
X12.48504 Y170.93932 Z-4.41281
X12.49247 Y170.93796 Z-4.41624
X12.5 Y170.9375 Z-4.41967
X12.50753 Y170.93796 Z-4.4231
X12.51496 Y170.93932 Z-4.42653
X12.52216 Y170.94156 Z-4.42997
X12.52904 Y170.94466 Z-4.4334
X12.5355 Y170.94856 Z-4.43683
X12.54144 Y170.95322 Z-4.44026
X12.54678 Y170.95855 Z-4.44369
X12.55144 Y170.9645 Z-4.44713
X12.55534 Y170.97095 Z-4.45056
X12.55844 Y170.97784 Z-4.45399
X12.56068 Y170.98504 Z-4.45742
X12.56204 Y170.99247 Z-4.46085
X12.56249 Y170.99976 Z-4.46429
X12.5625 Y171. Z-4.46439
X12.56204 Y171.00753 Z-4.46783
X12.56068 Y171.01496 Z-4.47126
X12.55844 Y171.02216 Z-4.47469
X12.55534 Y171.02904 Z-4.47812
X12.55144 Y171.0355 Z-4.48155
X12.54678 Y171.04144 Z-4.48499
X12.54144 Y171.04678 Z-4.48842
X12.5355 Y171.05144 Z-4.49185
X12.52904 Y171.05534 Z-4.49528
X12.52216 Y171.05844 Z-4.49871
X12.51496 Y171.06068 Z-4.50215
X12.50753 Y171.06204 Z-4.50558
X12.5 Y171.0625 Z-4.50901
X12.49247 Y171.06204 Z-4.51244
X12.48504 Y171.06068 Z-4.51587
X12.47784 Y171.05844 Z-4.51931
X12.47096 Y171.05534 Z-4.52274
X12.4645 Y171.05144 Z-4.52617
X12.45855 Y171.04678 Z-4.5296
X12.45322 Y171.04144 Z-4.53303
X12.44856 Y171.0355 Z-4.53647
X12.44466 Y171.02904 Z-4.5399
X12.44156 Y171.02216 Z-4.54333
X12.43932 Y171.01496 Z-4.54676
X12.43796 Y171.00753 Z-4.55019
X12.4375 Y171. Z-4.55363
X12.43796 Y170.99247 Z-4.55706
X12.43932 Y170.98504 Z-4.56049
X12.44156 Y170.97784 Z-4.56392
X12.44466 Y170.97095 Z-4.56735
X12.44856 Y170.9645 Z-4.57079
X12.45322 Y170.95855 Z-4.57422
X12.45855 Y170.95322 Z-4.57765
X12.4645 Y170.94856 Z-4.58108
X12.47096 Y170.94466 Z-4.58451
X12.47784 Y170.94156 Z-4.58795
X12.48504 Y170.93932 Z-4.59138
X12.49247 Y170.93796 Z-4.59481
X12.5 Y170.9375 Z-4.59824
X12.50753 Y170.93796 Z-4.60167
X12.51496 Y170.93932 Z-4.60511
X12.52216 Y170.94156 Z-4.60854
X12.52904 Y170.94466 Z-4.61197
X12.5355 Y170.94856 Z-4.6154
X12.54144 Y170.95322 Z-4.61883
X12.54678 Y170.95855 Z-4.62226
X12.55144 Y170.9645 Z-4.6257
X12.55534 Y170.97095 Z-4.62913
X12.55844 Y170.97784 Z-4.63256
X12.56068 Y170.98504 Z-4.63599
X12.56204 Y170.99247 Z-4.63943
X12.56249 Y170.99976 Z-4.64286
X12.5625 Y171. Z-4.64297
X12.56204 Y171.00753 Z-4.6464
X12.56068 Y171.01496 Z-4.64983
X12.55844 Y171.02216 Z-4.65326
X12.55534 Y171.02904 Z-4.65669
X12.55144 Y171.0355 Z-4.66013
X12.54678 Y171.04144 Z-4.66356
X12.54144 Y171.04678 Z-4.66699
X12.5355 Y171.05144 Z-4.67042
X12.52904 Y171.05534 Z-4.67385
X12.52216 Y171.05844 Z-4.67729
X12.51496 Y171.06068 Z-4.68072
X12.50753 Y171.06204 Z-4.68415
X12.5 Y171.0625 Z-4.68758
