%
G17 G21 G40 G90 G64 P0.1
(2 1/2 Axis Facing)
(SlotDrill 1/8in 3.175mm Carbide Aluminium Cut)
T6 M06
S24000 M3
G0 Z1.5875
X108.6686 Y-2.79375
G1 Z0. F175.
X105.4997 F700.
X0.
G17
G02 X-0.12417 Y-2.78398 I0. J0.79375
X-0.82347 Y-2.66882 I0.74905 J6.72932
X-0.97839 Y-2.60935 I0.20544 J0.76671
X-1.60788 Y-2.28373 I2.79186 J6.16849
X-1.73684 Y-2.1793 I0.43231 J0.6657
X-2.23489 Y-1.67509 I4.56139 J5.00385
X-2.32527 Y-1.53593 I0.61686 J0.49952
X-2.64314 Y-0.90249 I5.88441 J3.3494
X-2.68609 Y-0.7422 I0.74103 J0.28446
X-2.7913 Y-0.06228 I8.60004 J1.67888
G1 X-2.79314 Y-0.03116
X-2.79375 Y0.
Y217.
G02 X-2.78398 Y217.12417 I0.79375 J0.
X-2.66882 Y217.82347 I6.72932 J-0.74905
X-2.60935 Y217.97839 I0.76671 J-0.20544
X-2.28373 Y218.60788 I6.16849 J-2.79186
X-2.1793 Y218.73684 I0.6657 J-0.43231
X-1.67509 Y219.23489 I5.00385 J-4.56139
X-1.53593 Y219.32527 I0.49952 J-0.61686
X-0.90249 Y219.64314 I3.3494 J-5.88441
X-0.7422 Y219.68609 I0.28446 J-0.74103
X-0.06228 Y219.7913 I1.67888 J-8.60004
G1 X-0.03116 Y219.79314
X0. Y219.79375
X217.
G02 X217.12417 Y219.78398 I0. J-0.79375
X217.82347 Y219.66882 I-0.74905 J-6.72932
X217.97839 Y219.60935 I-0.20544 J-0.76671
X218.60788 Y219.28373 I-2.79186 J-6.16849
X218.73684 Y219.1793 I-0.43231 J-0.6657
X219.23489 Y218.67509 I-4.56139 J-5.00385
X219.32527 Y218.53592 I-0.61686 J-0.49952
X219.64314 Y217.90249 I-5.88441 J-3.34939
X219.68609 Y217.7422 I-0.74103 J-0.28446
X219.7913 Y217.06228 I-8.60004 J-1.67888
G1 X219.79314 Y217.03116
X219.79375 Y217.
Y0.
G02 X219.78398 Y-0.12417 I-0.79375 J0.
X219.66882 Y-0.82347 I-6.72932 J0.74905
X219.60935 Y-0.97839 I-0.76671 J0.20544
X219.28373 Y-1.60788 I-6.16849 J2.79186
X219.1793 Y-1.73684 I-0.6657 J0.43231
X218.67509 Y-2.23489 I-5.00385 J4.56139
X218.53592 Y-2.32527 I-0.49952 J0.61686
X217.90249 Y-2.64314 I-3.34939 J5.88441
X217.7422 Y-2.68609 I-0.28446 J0.74103
X217.06228 Y-2.7913 I-1.67888 J8.60004
G1 X217.03116 Y-2.79314
X217. Y-2.79375
X108.6686
Y-1.99985
X0.00001
X-0.60777 Y-1.90374
X-0.61795 Y-1.90185
G02 X-1.17541 Y-1.61781 I5.05503 J10.61012
X-1.61781 Y-1.17541 I8.08633 J8.52873
X-1.90185 Y-0.61795 I10.32608 J5.61249
G1 X-1.90374 Y-0.60777
X-1.99985 Y0.00001
Y216.99999
X-1.90374 Y217.60777
X-1.90185 Y217.61795
G02 X-1.61781 Y218.17541 I10.61012 J-5.05503
X-1.17541 Y218.61781 I8.52873 J-8.08633
X-0.61795 Y218.90185 I5.61249 J-10.32608
G1 X-0.60777 Y218.90374
X0.00001 Y218.99985
X216.99999
X217.60777 Y218.90374
X217.61795 Y218.90185
G02 X218.17541 Y218.61781 I-5.05503 J-10.61012
X218.61781 Y218.17541 I-8.08633 J-8.52873
X218.90185 Y217.61795 I-10.32608 J-5.61249
G1 X218.90374 Y217.60777
X218.99985 Y216.99999
Y0.00001
X218.90374 Y-0.60777
X218.90185 Y-0.61795
G02 X218.61781 Y-1.17541 I-10.61012 J5.05503
X218.17541 Y-1.61781 I-8.52873 J8.08633
X217.61795 Y-1.90185 I-5.61249 J10.32608
G1 X217.60777 Y-1.90374
X216.99999 Y-1.99985
X108.6686
Y-1.2061
X0.06238
X-0.36978 Y-1.13776
X-0.7032 Y-0.96787
X-0.96787 Y-0.7032
X-1.13776 Y-0.36978
X-1.2061 Y0.06238
Y216.93762
X-1.13776 Y217.36978
X-0.96787 Y217.7032
X-0.7032 Y217.96787
X-0.36978 Y218.13776
X0.06238 Y218.2061
X216.93762
X217.36978 Y218.13776
X217.7032 Y217.96787
X217.96787 Y217.7032
X218.13776 Y217.36978
X218.2061 Y216.93762
Y0.06238
X218.13776 Y-0.36978
X217.96787 Y-0.7032
X217.7032 Y-0.96787
X217.36978 Y-1.13776
X216.93762 Y-1.2061
X108.6686
Y-0.41235
X0.12475
X-0.12153 Y-0.3734
G02 X-0.3734 Y-0.12153 I0.12131 J0.37318
G1 X-0.41235 Y0.12475
Y216.87525
X-0.3734 Y217.12153
G02 X-0.12153 Y217.3734 I0.37318 J-0.12131
G1 X0.12475 Y217.41235
X216.87525
X217.12153 Y217.3734
G02 X217.3734 Y217.12153 I-0.12131 J-0.37318
G1 X217.41235 Y216.87525
Y0.12475
X217.3734 Y-0.12153
G02 X217.12153 Y-0.3734 I-0.37318 J0.12131
G1 X216.87525 Y-0.41235
X108.6686
Y0.3814
X0.3814
Y216.6186
X216.6186
Y0.3814
X108.6686
Y1.17515
X1.17515
Y215.82485
X215.82485
Y1.17515
X108.6686
Y1.9689
X1.9689
Y215.0311
X215.0311
Y1.9689
X108.6686
Y2.76265
X2.76265
Y214.23735
X214.23735
Y2.76265
X108.6686
Y3.5564
X3.5564
Y213.4436
X213.4436
Y3.5564
X108.6686
Y4.35015
X4.35015
Y212.64985
X212.64985
Y4.35015
X108.6686
Y5.1439
X5.1439
Y211.8561
X211.8561
Y5.1439
X108.6686
Y5.93765
X5.93765
Y211.06235
X211.06235
Y5.93765
X108.6686
Y6.7314
X6.7314
Y210.2686
X210.2686
Y6.7314
X108.6686
Y7.52515
X7.52515
Y209.47485
X209.47485
Y7.52515
X108.6686
Y8.3189
X8.3189
Y208.6811
X208.6811
Y8.3189
X108.6686
Y9.11265
X9.11265
Y207.88735
X207.88735
Y9.11265
X108.6686
Y9.9064
X9.9064
Y207.0936
X207.0936
Y9.9064
X108.6686
Y10.70015
X10.70015
Y206.29985
X206.29985
Y10.70015
X108.6686
Y11.4939
X11.4939
Y205.5061
X205.5061
Y11.4939
X108.6686
Y12.28765
X12.28765
Y204.71235
X204.71235
Y12.28765
X108.6686
Y13.0814
X13.0814
Y203.9186
X203.9186
Y13.0814
X108.6686
Y13.87515
X13.87515
Y203.12485
X203.12485
Y13.87515
X108.6686
Y14.6689
X14.6689
Y202.3311
X202.3311
Y14.6689
X108.6686
Y15.46265
X15.46265
Y201.53735
X201.53735
Y15.46265
X108.6686
Y16.2564
X16.2564
Y200.7436
X200.7436
Y16.2564
X108.6686
Y17.05015
X17.05015
Y199.94985
X199.94985
Y17.05015
X108.6686
Y17.8439
X17.8439
Y199.1561
X199.1561
Y17.8439
X108.6686
Y18.63765
X18.63765
Y198.36235
X198.36235
Y18.63765
X108.6686
Y19.4314
X19.4314
Y197.5686
X197.5686
Y19.4314
X108.6686
Y20.22515
X20.22515
Y196.77485
X196.77485
Y20.22515
X108.6686
Y21.0189
X21.0189
Y195.9811
X195.9811
Y21.0189
X108.6686
Y21.81265
X21.81265
Y195.18735
X195.18735
Y21.81265
X108.6686
Y22.6064
X22.6064
Y194.3936
X194.3936
Y22.6064
X108.6686
Y23.40015
X23.40015
Y193.59985
X193.59985
Y23.40015
X108.6686
Y24.1939
X24.1939
Y192.8061
X192.8061
Y24.1939
X108.6686
Y24.98765
X24.98765
Y192.01235
X192.01235
Y24.98765
X108.6686
Y25.7814
X25.7814
Y191.2186
X191.2186
Y25.7814
X108.6686
Y26.57515
X26.57515
Y190.42485
X190.42485
Y26.57515
X108.6686
Y27.3689
X27.3689
Y189.6311
X189.6311
Y27.3689
X108.6686
Y28.16265
X28.16265
Y188.83735
X188.83735
Y28.16265
X108.6686
Y28.9564
X28.9564
Y188.0436
X188.0436
Y28.9564
X108.6686
Y29.75015
X29.75015
Y187.24985
X187.24985
Y29.75015
X108.6686
Y30.5439
X30.5439
Y186.4561
X186.4561
Y30.5439
X108.6686
Y31.33765
X31.33765
Y185.66235
X185.66235
Y31.33765
X108.6686
Y32.1314
X32.1314
Y184.8686
X184.8686
Y32.1314
X108.6686
Y32.92515
X32.92515
Y184.07485
X184.07485
Y32.92515
X108.6686
Y33.7189
X33.7189
Y183.2811
X183.2811
Y33.7189
X108.6686
Y34.51265
X34.51265
Y182.48735
X182.48735
Y34.51265
X108.6686
Y35.3064
X35.3064
Y181.6936
X181.6936
Y35.3064
X108.6686
Y36.10015
X36.10015
Y180.89985
X180.89985
Y36.10015
X108.6686
Y36.8939
X36.8939
Y180.1061
X180.1061
Y36.8939
X108.6686
Y37.68765
X37.68765
Y179.31235
X179.31235
Y37.68765
X108.6686
Y38.4814
X38.4814
Y178.5186
X178.5186
Y38.4814
X108.6686
Y39.27515
X39.27515
Y177.72485
X177.72485
Y39.27515
X108.6686
Y40.0689
X40.0689
Y176.9311
X176.9311
Y40.0689
X108.6686
Y40.86265
X40.86265
Y176.13735
X176.13735
Y40.86265
X108.6686
Y41.6564
X41.6564
Y175.3436
X175.3436
Y41.6564
X108.6686
Y42.45015
X42.45015
Y174.54985
X174.54985
Y42.45015
X108.6686
Y43.2439
X43.2439
Y173.7561
X173.7561
Y43.2439
X108.6686
Y44.03765
X44.03765
Y172.96235
X172.96235
Y44.03765
X108.6686
Y44.8314
X44.8314
Y172.1686
X172.1686
Y44.8314
X108.6686
Y45.62515
X45.62515
Y171.37485
X171.37485
Y45.62515
X108.6686
Y46.4189
X46.4189
Y170.5811
X170.5811
Y46.4189
X108.6686
Y47.21265
X47.21265
Y169.78735
X169.78735
Y47.21265
X108.6686
Y48.0064
X48.0064
Y168.9936
X168.9936
Y48.0064
X108.6686
Y48.80015
X48.80015
Y168.19985
X168.19985
Y48.80015
X108.6686
Y49.5939
X49.5939
Y167.4061
X167.4061
Y49.5939
X108.6686
Y50.38765
X50.38765
Y166.61235
X166.61235
Y50.38765
X108.6686
Y51.1814
X51.1814
Y165.8186
X165.8186
Y51.1814
X108.6686
Y51.97515
X51.97515
Y165.02485
X165.02485
Y51.97515
X108.6686
Y52.7689
X52.7689
Y164.2311
X164.2311
Y52.7689
X108.6686
Y53.56265
X53.56265
Y163.43735
X163.43735
Y53.56265
X108.6686
Y54.3564
X54.3564
Y162.6436
X162.6436
Y54.3564
X108.6686
Y55.15015
X55.15015
Y161.84985
X161.84985
Y55.15015
X108.6686
Y55.9439
X55.9439
Y161.0561
X161.0561
Y55.9439
X108.6686
Y56.73765
X56.73765
Y160.26235
X160.26235
Y56.73765
X108.6686
Y57.5314
X57.5314
Y159.4686
X159.4686
Y57.5314
X108.6686
Y58.32515
X58.32515
Y158.67485
X158.67485
Y58.32515
X108.6686
Y59.1189
X59.1189
Y157.8811
X157.8811
Y59.1189
X108.6686
Y59.91265
X59.91265
Y157.08735
X157.08735
Y59.91265
X108.6686
Y60.7064
X60.7064
Y156.2936
X156.2936
Y60.7064
X108.6686
Y61.50015
X61.50015
Y155.49985
X155.49985
Y61.50015
X108.6686
Y62.2939
X62.2939
Y154.7061
X154.7061
Y62.2939
X108.6686
Y63.08765
X63.08765
Y153.91235
X153.91235
Y63.08765
X108.6686
Y63.8814
X63.8814
Y153.1186
X153.1186
Y63.8814
X108.6686
Y64.67515
X64.67515
Y152.32485
X152.32485
Y64.67515
X108.6686
Y65.4689
X65.4689
Y151.5311
X151.5311
Y65.4689
X108.6686
Y66.26265
X66.26265
Y150.73735
X150.73735
Y66.26265
X108.6686
Y67.0564
X67.0564
Y149.9436
X149.9436
Y67.0564
X108.6686
Y67.85015
X67.85015
Y149.14985
X149.14985
Y67.85015
X108.6686
Y68.6439
X68.6439
Y148.3561
X148.3561
Y68.6439
X108.6686
Y69.43765
X69.43765
Y147.56235
X147.56235
Y69.43765
X108.6686
Y70.2314
X70.2314
Y146.7686
X146.7686
Y70.2314
X108.6686
Y71.02515
X71.02515
Y145.97485
X145.97485
Y71.02515
X108.6686
Y71.8189
X71.8189
Y145.1811
X145.1811
Y71.8189
X108.6686
Y72.61265
X72.61265
Y144.38735
X144.38735
Y72.61265
X108.6686
Y73.4064
X73.4064
Y143.5936
X143.5936
Y73.4064
X108.6686
Y74.20015
X74.20015
Y142.79985
X142.79985
Y74.20015
X108.6686
Y74.9939
X74.9939
Y142.0061
X142.0061
Y74.9939
X108.6686
Y75.78765
X75.78765
Y141.21235
X141.21235
Y75.78765
X108.6686
Y76.5814
X76.5814
Y140.4186
X140.4186
Y76.5814
X108.6686
Y77.37515
X77.37515
Y139.62485
X139.62485
Y77.37515
X108.6686
Y78.1689
X78.1689
Y138.8311
X138.8311
Y78.1689
X108.6686
Y78.96265
X78.96265
Y138.03735
X138.03735
Y78.96265
X108.6686
Y79.7564
X79.7564
Y137.2436
X137.2436
Y79.7564
X108.6686
Y80.55015
X80.55015
Y136.44985
X136.44985
Y80.55015
X108.6686
Y81.3439
X81.3439
Y135.6561
X135.6561
Y81.3439
X108.6686
Y82.13765
X82.13765
Y134.86235
X134.86235
Y82.13765
X108.6686
Y82.9314
X82.9314
Y134.0686
X134.0686
Y82.9314
X108.6686
Y83.72515
X83.72515
Y133.27485
X133.27485
Y83.72515
X108.6686
Y84.5189
X84.5189
Y132.4811
X132.4811
Y84.5189
X108.6686
Y85.31265
X85.31265
Y131.68735
X131.68735
Y85.31265
X108.6686
Y86.1064
X86.1064
Y130.8936
X130.8936
Y86.1064
X108.6686
Y86.90015
X86.90015
Y130.09985
X130.09985
Y86.90015
X108.6686
Y87.6939
X87.6939
Y129.3061
X129.3061
Y87.6939
X108.6686
Y88.48765
X88.48765
Y128.51235
X128.51235
Y88.48765
X108.6686
Y89.2814
X89.2814
Y127.7186
X127.7186
Y89.2814
X108.6686
Y90.07515
X90.07515
Y126.92485
X126.92485
Y90.07515
X108.6686
Y90.8689
X90.8689
Y126.1311
X126.1311
Y90.8689
X108.6686
Y91.66265
X91.66265
Y125.33735
X125.33735
Y91.66265
X108.6686
Y92.4564
X92.4564
Y124.5436
X124.5436
Y92.4564
X108.6686
Y93.25015
X93.25015
Y123.74985
X123.74985
Y93.25015
X108.6686
Y94.0439
X94.0439
Y122.9561
X122.9561
Y94.0439
X108.6686
Y94.83765
X94.83765
Y122.16235
X122.16235
Y94.83765
X108.6686
Y95.6314
X95.6314
Y121.3686
X121.3686
Y95.6314
X108.6686
Y96.42515
X96.42515
Y120.57485
X120.57485
Y96.42515
X108.6686
Y97.2189
X97.2189
Y119.7811
X119.7811
Y97.2189
X108.6686
Y98.01265
X98.01265
Y118.98735
X118.98735
Y98.01265
X108.6686
Y98.8064
X98.8064
Y118.1936
X118.1936
Y98.8064
X108.6686
Y99.60015
X99.60015
Y117.39985
X117.39985
Y99.60015
X108.6686
Y100.3939
X100.3939
Y116.6061
X116.6061
Y100.3939
X108.6686
Y101.18765
X101.18765
Y115.81235
X115.81235
Y101.18765
X108.6686
Y101.9814
X101.9814
Y115.0186
X115.0186
Y101.9814
X108.6686
Y102.77515
X102.77515
Y114.22485
X114.22485
Y102.77515
X108.6686
Y103.5689
X103.5689
Y113.4311
X113.4311
Y103.5689
X108.6686
Y104.36265
X104.36265
Y112.63735
X112.63735
Y104.36265
X108.6686
Y105.1564
X105.1564
Y111.8436
X111.8436
Y105.1564
X108.6686
Y105.95015
X105.95015
Y111.04985
X111.04985
Y105.95015
X108.6686
Y106.7439
X106.7439
Y110.2561
X110.2561
Y106.7439
X108.6686
Y107.53765
X107.53765
Y109.46235
X109.46235
Y107.53765
X108.6686
Y108.3314
X108.3314
Y108.6686
X108.6686
Y108.3314
G0 Z1.5875
M30
%
