%
G17 G21 G40 G90 G64 P0.1
(2 1/2 Axis Profiling)
(SlotDrill 1mm Carbide)
T34 M06
S18547 M3
G0 Z6.5
X-7.39369 Y-5.22549
G1 Z6.05 F927.2
X-8.92659 Y-5.96369 Z5.75 F2781.7
X-12.86371 Y-7.85971 F3709.
G17
G02 X-13.86485 Y-7.5094 I-0.32303 J0.68253
X-14.58185 Y-5.73764 I2.38662 J1.99679
G1 X-14.56788 Y-5.66068
X-14.51621 Y-5.51303
X-14.47915 Y-5.44415
X-14.38438 Y-5.31968
X-14.32785 Y-5.26563
X-14.19926 Y-5.17654
X-14.16536 Y-5.1568
X-6.57193 Y-1.5
X-15.
G02 X-15.75 Y-0.75 I0.0051 J0.7551
X-15.62726 Y1.15739 I3.01664 J0.76352
G1 X-15.58129 Y1.22067
X-15.47067 Y1.33128
X-15.40739 Y1.37726
X-15.26801 Y1.44828
X-15.19362 Y1.47245
X-15.03911 Y1.49692
X-15. Y1.5
X-6.57193
X-14.16536 Y5.1568
G02 X-14.51567 Y6.15794 I0.33222 J0.67811
X-13.5775 Y7.82319 I3.04918 J-0.62096
G1 X-13.50862 Y7.86025
X-13.36097 Y7.91192
X-13.28401 Y7.92588
X-13.12761 Y7.9294
X-13.0501 Y7.9189
X-12.90028 Y7.8739
X-12.86371 Y7.85971
X-5.27028 Y4.20291
X-8.32418 Y8.03238
G02 X-7.73781 Y9.25 I0.59104 J0.46537
X-5.56339 Y9.20303 I0.97015 J-5.44258
G1 X-5.42911 Y9.13836
X-5.36754 Y9.09638
X-5.25828 Y8.99501
X-5.23286 Y8.96762
X-2.92478 Y6.07338
G02 X-3.45458 Y8.5559 I7.35298 J2.86699
X-2.70936 Y9.25 I0.74996 J-0.0581
X-0.88471 Y9.19075 I0.78114 J-4.06947
G1 X-0.73811 Y9.10972
X-0.67263 Y9.0575
X-0.56101 Y8.9326
X-0.51645 Y8.86169
X-0.45235 Y8.70693
X-0.43959 Y8.66689
X0. Y6.74094
G02 X0.56101 Y8.9326 I5.12203 J-0.14348
G1 X0.67263 Y9.0575
X0.73811 Y9.10972
X0.88471 Y9.19075
X0.96377 Y9.21841
X1.1289 Y9.24647
X1.17078 Y9.25
G02 X3.01327 Y9.18273 I0.78184 J-3.85187
X3.44055 Y8.33311 I-0.30853 J-0.68742
G1 X2.92478 Y6.07338
X5.23286 Y8.96762
X5.25828 Y8.99501
X5.36753 Y9.09638
X5.42911 Y9.13836
X5.56339 Y9.20303
X5.6346 Y9.22499
X5.78198 Y9.24721
X5.81924 Y9.25
G02 X7.96696 Y9.21108 I0.95928 J-6.34176
X8.32418 Y8.03238 I-0.23154 J-0.71365
G1 X5.27028 Y4.20291
X9.67459 Y6.32391
G02 X10.75 Y5.64818 I0.32271 J-0.68003
X10.65156 Y3.61518 I-3.59682 J-0.84472
G1 X10.61437 Y3.556
X10.52418 Y3.4492
X10.47207 Y3.40262
X10.35583 Y3.32496
X10.32541 Y3.30758
X6.57193 Y1.5
X10.
G02 X10.75 Y0.75 I-0.0051 J-0.7551
X10.62726 Y-1.15739 I-3.01664 J-0.76353
G1 X10.58128 Y-1.22067
X10.47067 Y-1.33129
X10.40739 Y-1.37726
X10.26801 Y-1.44828
X10.19362 Y-1.47245
X10.03911 Y-1.49692
X10. Y-1.5
X6.57193
G02 X8.12707 Y-2.36977 I-0.66147 J-3.00788
G1 X8.16435 Y-2.43321
X8.21941 Y-2.56967
X8.23661 Y-2.64121
X8.24956 Y-2.78779
X8.24518 Y-2.86124
X8.21491 Y-3.00524
X8.20468 Y-3.04069
G02 X7.49284 Y-4.51884 I-8.20468 J3.04069
X6.52518 Y-4.80724 I-0.64429 J0.3942
G1 X5.27028 Y-4.20291
G02 X6.29404 Y-5.66129 I-1.90103 J-2.42301
G1 X6.30009 Y-5.73462
X6.2905 Y-5.88146
X6.27495 Y-5.95338
X6.22302 Y-6.09106
X6.18721 Y-6.15534
X6.09745 Y-6.27195
X6.07285 Y-6.29944
G02 X4.79016 Y-7.32235 I-6.07285 J6.29944
X3.7932 Y-7.16234 I-0.40945 J0.6347
G1 X2.77005 Y-5.87934
G02 X1.51859 Y-3.15339 I-0.60063 J1.3745
G03 X-1.51859 I-1.51859 J3.15339
G02 X-2.46806 Y-5.97481 I-0.65083 J-1.35145
G1 X-2.506 Y-5.96393
X-2.76124 Y-5.8683
G02 X-3.98658 Y-7.33138 I-4.31118 J2.36598
G1 X-4.1188 Y-7.39599
X-4.18894 Y-7.41821
X-4.33423 Y-7.44153
X-4.4078 Y-7.44237
X-4.5536 Y-7.42239
X-4.62423 Y-7.40178
X-4.75789 Y-7.34022
X-4.79016 Y-7.32235
G02 X-6.07285 Y-6.29944 I4.79016 J7.32235
X-6.1387 Y-5.29187 I0.52768 J0.54042
G1 X-5.27028 Y-4.20291
X-8.92659 Y-5.96369
X-9.03506 Y-5.73845
X-12.97218 Y-7.63447
X-13.122 Y-7.67946
X-13.2784 Y-7.67595
X-13.42606 Y-7.62428
X-13.55052 Y-7.52951
X-13.63961 Y-7.40093
G02 X-14.33191 Y-5.74325 I2.20475 J1.89419
G1 X-14.28024 Y-5.5956
X-14.18548 Y-5.47113
X-14.05689 Y-5.38204
X-6.0963 Y-1.54843
X-6.06944 Y-1.49145
X-6.11549 Y-1.28968
X-6.16441 Y-1.25
X-15.
X-15.15451 Y-1.22553
X-15.29389 Y-1.15451
X-15.40451 Y-1.04389
X-15.47553 Y-0.90451
X-15.5 Y-0.75
G02 X-15.40451 Y1.04389 I2.80826 J0.75
G1 X-15.29389 Y1.15451
X-15.15451 Y1.22553
X-15. Y1.25
X-6.16441
X-6.11549 Y1.28968
X-6.06944 Y1.49145
X-6.0963 Y1.54843
X-14.05689 Y5.38204
X-14.18548 Y5.47113
X-14.28024 Y5.5956
X-14.33191 Y5.74325
X-14.33542 Y5.89965
X-14.29043 Y6.04947
G02 X-13.42606 Y7.62428 I2.85557 J-0.54273
G1 X-13.2784 Y7.67595
X-13.122 Y7.67946
X-12.97218 Y7.63447
X-5.01159 Y3.80085
X-4.95029 Y3.81538
X-4.82126 Y3.97718
X-4.82074 Y4.04017
X-8.12873 Y8.18825
X-8.23641 Y8.53736
X-8.0779 Y8.86653
X-7.73781 Y9.
X-5.81924
X-5.67186 Y8.97779
X-5.53758 Y8.91312
X-5.42832 Y8.81175
X-2.86616 Y5.59889
X-2.80463 Y5.58539
X-2.61817 Y5.67518
X-2.59037 Y5.73171
X-3.19682 Y8.38874
X-3.20483 Y8.56712
X-3.14966 Y8.73693
X-3.03833 Y8.87654
X-2.88505 Y8.96812
X-2.70936 Y9.
X-1.17078
X-1.00564 Y8.97194
X-0.85904 Y8.89092
X-0.74742 Y8.76602
X-0.68332 Y8.61126
X-0.15305 Y6.28801
X-0.10348 Y6.24914
X0.10348
X0.15305 Y6.28801
X0.68332 Y8.61126
X0.74742 Y8.76602
X0.85904 Y8.89092
X1.00564 Y8.97194
X1.17078 Y9.
X2.70936
X2.88504 Y8.96812
X3.03833 Y8.87654
X3.14965 Y8.73693
X3.20483 Y8.56712
X3.19682 Y8.38874
X2.59037 Y5.73171
X2.61817 Y5.67518
X2.80463 Y5.58539
X2.86616 Y5.59889
X5.42832 Y8.81175
X5.53758 Y8.91312
X5.67186 Y8.97779
X5.81924 Y9.
X7.73781
X8.0779 Y8.86653
X8.23641 Y8.53736
X8.12873 Y8.18825
X4.82074 Y4.04017
X4.82126 Y3.97718
X4.95029 Y3.81538
X5.01159 Y3.80085
X9.78306 Y6.09867
X10.11126 Y6.13565
X10.39092 Y5.95993
X10.5 Y5.64818
Y3.98331
X10.48046 Y3.84489
X10.42336 Y3.71729
X10.33317 Y3.61049
X10.21694 Y3.53282
X6.0963 Y1.54843
X6.06944 Y1.49145
X6.11549 Y1.28968
X6.16441 Y1.25
X10.
X10.15451 Y1.22553
X10.29389 Y1.15451
X10.40451 Y1.04389
X10.47553 Y0.90451
X10.5 Y0.75
G02 X10.40451 Y-1.04389 I-2.80826 J-0.75
G1 X10.29389 Y-1.15451
X10.15451 Y-1.22553
X10. Y-1.25
X6.16441
X6.11549 Y-1.28968
X6.06944 Y-1.49145
X6.0963 Y-1.54843
X7.71836 Y-2.32957
X7.8401 Y-2.41223
X7.93251 Y-2.52676
X7.98758 Y-2.66322
X8.00053 Y-2.8098
X7.97026 Y-2.95381
G02 X7.27876 Y-4.38973 I-7.97026 J2.95381
G1 X7.18504 Y-4.50319
X7.06236 Y-4.58445
X6.92134 Y-4.62648
X6.77418 Y-4.62564
X6.63365 Y-4.58199
X5.01159 Y-3.80085
X4.95029 Y-3.81538
X4.82126 Y-3.97718
X4.82074 Y-4.04017
X5.94324 Y-5.44774
X6.01706 Y-5.57504
X6.05063 Y-5.71832
X6.04103 Y-5.86516
X5.9891 Y-6.00285
X5.89934 Y-6.11946
G02 X4.6533 Y-7.11314 I-5.89934 J6.11946
G1 X4.51964 Y-7.1747
X4.37385 Y-7.19469
X4.22856 Y-7.17137
X4.09634 Y-7.10676
X3.98866 Y-7.00647
X2.86616 Y-5.5989
X2.81834 Y-5.58084
X2.73218 Y-5.62065
X2.71177 Y-5.63106
G02 X1.62706 Y-3.37863 I-0.54235 J1.12622
G03 X-1.62706 I-1.62706 J3.37863
G02 X-2.41829 Y-5.72982 I-0.54236 J-1.12621
G1 X-2.42743 Y-5.72787
X-2.80952 Y-5.58325
X-2.83007 Y-5.58016
X-2.85011 Y-5.58569
X-2.86616 Y-5.5989
X-3.98866 Y-7.00647
X-4.09634 Y-7.10676
X-4.22856 Y-7.17137
X-4.37385 Y-7.19469
X-4.51964 Y-7.1747
X-4.6533 Y-7.11314
G02 X-5.89934 Y-6.11946 I4.6533 J7.11314
G1 X-5.9891 Y-6.00285
X-6.04103 Y-5.86516
X-6.05063 Y-5.71832
X-6.01706 Y-5.57504
X-5.94324 Y-5.44774
X-4.82074 Y-4.04017
X-4.82126 Y-3.97718
X-4.95029 Y-3.81538
X-5.01159 Y-3.80085
X-9.03506 Y-5.73845
G0 Z6.5
X-7.39369 Y-5.22549
G1 Z5.8 F927.2
X-8.92659 Y-5.96369 Z5.5 F2781.7
X-12.86371 Y-7.85971 F3709.
G02 X-13.86485 Y-7.5094 I-0.32303 J0.68253
X-14.58185 Y-5.73764 I2.38662 J1.99679
G1 X-14.56788 Y-5.66068
X-14.51621 Y-5.51303
X-14.47915 Y-5.44415
X-14.38438 Y-5.31968
X-14.32785 Y-5.26563
X-14.19926 Y-5.17654
X-14.16536 Y-5.1568
X-6.57193 Y-1.5
X-15.
G02 X-15.75 Y-0.75 I0.0051 J0.7551
X-15.62726 Y1.15739 I3.01664 J0.76352
G1 X-15.58129 Y1.22067
X-15.47067 Y1.33128
X-15.40739 Y1.37726
X-15.26801 Y1.44828
X-15.19362 Y1.47245
X-15.03911 Y1.49692
X-15. Y1.5
X-6.57193
X-14.16536 Y5.1568
G02 X-14.51567 Y6.15794 I0.33222 J0.67811
X-13.5775 Y7.82319 I3.04918 J-0.62096
G1 X-13.50862 Y7.86025
X-13.36097 Y7.91192
X-13.28401 Y7.92588
X-13.12761 Y7.9294
X-13.0501 Y7.9189
X-12.90028 Y7.8739
X-12.86371 Y7.85971
X-5.27028 Y4.20291
X-8.32418 Y8.03238
G02 X-7.73781 Y9.25 I0.59104 J0.46537
X-5.56339 Y9.20303 I0.97015 J-5.44258
G1 X-5.42911 Y9.13836
X-5.36754 Y9.09638
X-5.25828 Y8.99501
X-5.23286 Y8.96762
X-2.92478 Y6.07338
G02 X-3.45458 Y8.5559 I7.35298 J2.86699
X-2.70936 Y9.25 I0.74996 J-0.0581
X-0.88471 Y9.19075 I0.78114 J-4.06947
G1 X-0.73811 Y9.10972
X-0.67263 Y9.0575
X-0.56101 Y8.9326
X-0.51645 Y8.86169
X-0.45235 Y8.70693
X-0.43959 Y8.66689
X0. Y6.74094
G02 X0.56101 Y8.9326 I5.12203 J-0.14348
G1 X0.67263 Y9.0575
X0.73811 Y9.10972
X0.88471 Y9.19075
X0.96377 Y9.21841
X1.1289 Y9.24647
X1.17078 Y9.25
G02 X3.01327 Y9.18273 I0.78184 J-3.85187
X3.44055 Y8.33311 I-0.30853 J-0.68742
G1 X2.92478 Y6.07338
X5.23286 Y8.96762
X5.25828 Y8.99501
X5.36753 Y9.09638
X5.42911 Y9.13836
X5.56339 Y9.20303
X5.6346 Y9.22499
X5.78198 Y9.24721
X5.81924 Y9.25
G02 X7.96696 Y9.21108 I0.95928 J-6.34176
X8.32418 Y8.03238 I-0.23154 J-0.71365
G1 X5.27028 Y4.20291
X9.67459 Y6.32391
G02 X10.75 Y5.64818 I0.32271 J-0.68003
X10.65156 Y3.61518 I-3.59682 J-0.84472
G1 X10.61437 Y3.556
X10.52418 Y3.4492
X10.47207 Y3.40262
X10.35583 Y3.32496
X10.32541 Y3.30758
X6.57193 Y1.5
X10.
G02 X10.75 Y0.75 I-0.0051 J-0.7551
X10.62726 Y-1.15739 I-3.01664 J-0.76353
G1 X10.58128 Y-1.22067
X10.47067 Y-1.33129
X10.40739 Y-1.37726
X10.26801 Y-1.44828
X10.19362 Y-1.47245
X10.03911 Y-1.49692
X10. Y-1.5
X6.57193
G02 X8.12707 Y-2.36977 I-0.66147 J-3.00788
G1 X8.16435 Y-2.43321
X8.21941 Y-2.56967
X8.23661 Y-2.64121
X8.24956 Y-2.78779
X8.24518 Y-2.86124
X8.21491 Y-3.00524
X8.20468 Y-3.04069
G02 X7.49284 Y-4.51884 I-8.20468 J3.04069
X6.52518 Y-4.80724 I-0.64429 J0.3942
G1 X5.27028 Y-4.20291
G02 X6.29404 Y-5.66129 I-1.90103 J-2.42301
G1 X6.30009 Y-5.73462
X6.2905 Y-5.88146
X6.27495 Y-5.95338
X6.22302 Y-6.09106
X6.18721 Y-6.15534
X6.09745 Y-6.27195
X6.07285 Y-6.29944
G02 X4.79016 Y-7.32235 I-6.07285 J6.29944
X3.7932 Y-7.16234 I-0.40945 J0.6347
G1 X2.77005 Y-5.87934
G02 X1.51859 Y-3.15339 I-0.60063 J1.3745
G03 X-1.51859 I-1.51859 J3.15339
G02 X-2.46806 Y-5.97481 I-0.65083 J-1.35145
G1 X-2.506 Y-5.96393
X-2.76124 Y-5.8683
G02 X-3.98658 Y-7.33138 I-4.31118 J2.36598
G1 X-4.1188 Y-7.39599
X-4.18894 Y-7.41821
X-4.33423 Y-7.44153
X-4.4078 Y-7.44237
X-4.5536 Y-7.42239
X-4.62423 Y-7.40178
X-4.75789 Y-7.34022
X-4.79016 Y-7.32235
G02 X-6.07285 Y-6.29944 I4.79016 J7.32235
X-6.1387 Y-5.29187 I0.52768 J0.54042
G1 X-5.27028 Y-4.20291
X-8.92659 Y-5.96369
X-9.03506 Y-5.73845
X-12.97218 Y-7.63447
X-13.122 Y-7.67946
X-13.2784 Y-7.67595
X-13.42606 Y-7.62428
X-13.55052 Y-7.52951
X-13.63961 Y-7.40093
G02 X-14.33191 Y-5.74325 I2.20475 J1.89419
G1 X-14.28024 Y-5.5956
X-14.18548 Y-5.47113
X-14.05689 Y-5.38204
X-6.0963 Y-1.54843
X-6.06944 Y-1.49145
X-6.11549 Y-1.28968
X-6.16441 Y-1.25
X-15.
X-15.15451 Y-1.22553
X-15.29389 Y-1.15451
X-15.40451 Y-1.04389
X-15.47553 Y-0.90451
X-15.5 Y-0.75
G02 X-15.40451 Y1.04389 I2.80826 J0.75
G1 X-15.29389 Y1.15451
X-15.15451 Y1.22553
X-15. Y1.25
X-6.16441
X-6.11549 Y1.28968
X-6.06944 Y1.49145
X-6.0963 Y1.54843
X-14.05689 Y5.38204
X-14.18548 Y5.47113
X-14.28024 Y5.5956
X-14.33191 Y5.74325
X-14.33542 Y5.89965
X-14.29043 Y6.04947
G02 X-13.42606 Y7.62428 I2.85557 J-0.54273
G1 X-13.2784 Y7.67595
X-13.122 Y7.67946
X-12.97218 Y7.63447
X-5.01159 Y3.80085
X-4.95029 Y3.81538
X-4.82126 Y3.97718
X-4.82074 Y4.04017
X-8.12873 Y8.18825
X-8.23641 Y8.53736
X-8.0779 Y8.86653
X-7.73781 Y9.
X-5.81924
X-5.67186 Y8.97779
X-5.53758 Y8.91312
X-5.42832 Y8.81175
X-2.86616 Y5.59889
X-2.80463 Y5.58539
X-2.61817 Y5.67518
X-2.59037 Y5.73171
X-3.19682 Y8.38874
X-3.20483 Y8.56712
X-3.14966 Y8.73693
X-3.03833 Y8.87654
X-2.88505 Y8.96812
X-2.70936 Y9.
X-1.17078
X-1.00564 Y8.97194
X-0.85904 Y8.89092
X-0.74742 Y8.76602
X-0.68332 Y8.61126
X-0.15305 Y6.28801
X-0.10348 Y6.24914
X0.10348
X0.15305 Y6.28801
X0.68332 Y8.61126
X0.74742 Y8.76602
X0.85904 Y8.89092
X1.00564 Y8.97194
X1.17078 Y9.
X2.70936
X2.88504 Y8.96812
X3.03833 Y8.87654
X3.14965 Y8.73693
X3.20483 Y8.56712
X3.19682 Y8.38874
X2.59037 Y5.73171
X2.61817 Y5.67518
X2.80463 Y5.58539
X2.86616 Y5.59889
X5.42832 Y8.81175
X5.53758 Y8.91312
X5.67186 Y8.97779
X5.81924 Y9.
X7.73781
X8.0779 Y8.86653
X8.23641 Y8.53736
X8.12873 Y8.18825
X4.82074 Y4.04017
X4.82126 Y3.97718
X4.95029 Y3.81538
X5.01159 Y3.80085
X9.78306 Y6.09867
X10.11126 Y6.13565
X10.39092 Y5.95993
X10.5 Y5.64818
Y3.98331
X10.48046 Y3.84489
X10.42336 Y3.71729
X10.33317 Y3.61049
X10.21694 Y3.53282
X6.0963 Y1.54843
X6.06944 Y1.49145
X6.11549 Y1.28968
X6.16441 Y1.25
X10.
X10.15451 Y1.22553
X10.29389 Y1.15451
X10.40451 Y1.04389
X10.47553 Y0.90451
X10.5 Y0.75
G02 X10.40451 Y-1.04389 I-2.80826 J-0.75
G1 X10.29389 Y-1.15451
X10.15451 Y-1.22553
X10. Y-1.25
X6.16441
X6.11549 Y-1.28968
X6.06944 Y-1.49145
X6.0963 Y-1.54843
X7.71836 Y-2.32957
X7.8401 Y-2.41223
X7.93251 Y-2.52676
X7.98758 Y-2.66322
X8.00053 Y-2.8098
X7.97026 Y-2.95381
G02 X7.27876 Y-4.38973 I-7.97026 J2.95381
G1 X7.18504 Y-4.50319
X7.06236 Y-4.58445
X6.92134 Y-4.62648
X6.77418 Y-4.62564
X6.63365 Y-4.58199
X5.01159 Y-3.80085
X4.95029 Y-3.81538
X4.82126 Y-3.97718
X4.82074 Y-4.04017
X5.94324 Y-5.44774
X6.01706 Y-5.57504
X6.05063 Y-5.71832
X6.04103 Y-5.86516
X5.9891 Y-6.00285
X5.89934 Y-6.11946
G02 X4.6533 Y-7.11314 I-5.89934 J6.11946
G1 X4.51964 Y-7.1747
X4.37385 Y-7.19469
X4.22856 Y-7.17137
X4.09634 Y-7.10676
X3.98866 Y-7.00647
X2.86616 Y-5.5989
X2.81834 Y-5.58084
X2.73218 Y-5.62065
X2.71177 Y-5.63106
G02 X1.62706 Y-3.37863 I-0.54235 J1.12622
G03 X-1.62706 I-1.62706 J3.37863
G02 X-2.41829 Y-5.72982 I-0.54236 J-1.12621
G1 X-2.42743 Y-5.72787
X-2.80952 Y-5.58325
X-2.83007 Y-5.58016
X-2.85011 Y-5.58569
X-2.86616 Y-5.5989
X-3.98866 Y-7.00647
X-4.09634 Y-7.10676
X-4.22856 Y-7.17137
X-4.37385 Y-7.19469
X-4.51964 Y-7.1747
X-4.6533 Y-7.11314
G02 X-5.89934 Y-6.11946 I4.6533 J7.11314
G1 X-5.9891 Y-6.00285
X-6.04103 Y-5.86516
X-6.05063 Y-5.71832
X-6.01706 Y-5.57504
X-5.94324 Y-5.44774
X-4.82074 Y-4.04017
X-4.82126 Y-3.97718
X-4.95029 Y-3.81538
X-5.01159 Y-3.80085
X-9.03506 Y-5.73845
G0 Z6.5
X-7.39369 Y-5.22549
G1 Z5.55 F927.2
X-8.92659 Y-5.96369 Z5.25 F2781.7
X-12.86371 Y-7.85971 F3709.
G02 X-13.86485 Y-7.5094 I-0.32303 J0.68253
X-14.58185 Y-5.73764 I2.38662 J1.99679
G1 X-14.56788 Y-5.66068
X-14.51621 Y-5.51303
X-14.47915 Y-5.44415
X-14.38438 Y-5.31968
X-14.32785 Y-5.26563
X-14.19926 Y-5.17654
X-14.16536 Y-5.1568
X-6.57193 Y-1.5
X-15.
G02 X-15.75 Y-0.75 I0.0051 J0.7551
X-15.62726 Y1.15739 I3.01664 J0.76352
G1 X-15.58129 Y1.22067
X-15.47067 Y1.33128
X-15.40739 Y1.37726
X-15.26801 Y1.44828
X-15.19362 Y1.47245
X-15.03911 Y1.49692
X-15. Y1.5
X-6.57193
X-14.16536 Y5.1568
G02 X-14.51567 Y6.15794 I0.33222 J0.67811
X-13.5775 Y7.82319 I3.04918 J-0.62096
G1 X-13.50862 Y7.86025
X-13.36097 Y7.91192
X-13.28401 Y7.92588
X-13.12761 Y7.9294
X-13.0501 Y7.9189
X-12.90028 Y7.8739
X-12.86371 Y7.85971
X-5.27028 Y4.20291
X-8.32418 Y8.03238
G02 X-7.73781 Y9.25 I0.59104 J0.46537
X-5.56339 Y9.20303 I0.97015 J-5.44258
G1 X-5.42911 Y9.13836
X-5.36754 Y9.09638
X-5.25828 Y8.99501
X-5.23286 Y8.96762
X-2.92478 Y6.07338
G02 X-3.45458 Y8.5559 I7.35298 J2.86699
X-2.70936 Y9.25 I0.74996 J-0.0581
X-0.88471 Y9.19075 I0.78114 J-4.06947
G1 X-0.73811 Y9.10972
X-0.67263 Y9.0575
X-0.56101 Y8.9326
X-0.51645 Y8.86169
X-0.45235 Y8.70693
X-0.43959 Y8.66689
X0. Y6.74094
G02 X0.56101 Y8.9326 I5.12203 J-0.14348
G1 X0.67263 Y9.0575
X0.73811 Y9.10972
X0.88471 Y9.19075
X0.96377 Y9.21841
X1.1289 Y9.24647
X1.17078 Y9.25
G02 X3.01327 Y9.18273 I0.78184 J-3.85187
X3.44055 Y8.33311 I-0.30853 J-0.68742
G1 X2.92478 Y6.07338
X5.23286 Y8.96762
X5.25828 Y8.99501
X5.36753 Y9.09638
X5.42911 Y9.13836
X5.56339 Y9.20303
X5.6346 Y9.22499
X5.78198 Y9.24721
X5.81924 Y9.25
G02 X7.96696 Y9.21108 I0.95928 J-6.34176
X8.32418 Y8.03238 I-0.23154 J-0.71365
G1 X5.27028 Y4.20291
X9.67459 Y6.32391
G02 X10.75 Y5.64818 I0.32271 J-0.68003
X10.65156 Y3.61518 I-3.59682 J-0.84472
G1 X10.61437 Y3.556
X10.52418 Y3.4492
X10.47207 Y3.40262
X10.35583 Y3.32496
X10.32541 Y3.30758
X6.57193 Y1.5
X10.
G02 X10.75 Y0.75 I-0.0051 J-0.7551
X10.62726 Y-1.15739 I-3.01664 J-0.76353
G1 X10.58128 Y-1.22067
X10.47067 Y-1.33129
X10.40739 Y-1.37726
X10.26801 Y-1.44828
X10.19362 Y-1.47245
X10.03911 Y-1.49692
X10. Y-1.5
X6.57193
G02 X8.12707 Y-2.36977 I-0.66147 J-3.00788
G1 X8.16435 Y-2.43321
X8.21941 Y-2.56967
X8.23661 Y-2.64121
X8.24956 Y-2.78779
X8.24518 Y-2.86124
X8.21491 Y-3.00524
X8.20468 Y-3.04069
G02 X7.49284 Y-4.51884 I-8.20468 J3.04069
X6.52518 Y-4.80724 I-0.64429 J0.3942
G1 X5.27028 Y-4.20291
G02 X6.29404 Y-5.66129 I-1.90103 J-2.42301
G1 X6.30009 Y-5.73462
X6.2905 Y-5.88146
X6.27495 Y-5.95338
X6.22302 Y-6.09106
X6.18721 Y-6.15534
X6.09745 Y-6.27195
X6.07285 Y-6.29944
G02 X4.79016 Y-7.32235 I-6.07285 J6.29944
X3.7932 Y-7.16234 I-0.40945 J0.6347
G1 X2.77005 Y-5.87934
G02 X1.51859 Y-3.15339 I-0.60063 J1.3745
G03 X-1.51859 I-1.51859 J3.15339
G02 X-2.46806 Y-5.97481 I-0.65083 J-1.35145
G1 X-2.506 Y-5.96393
X-2.76124 Y-5.8683
G02 X-3.98658 Y-7.33138 I-4.31118 J2.36598
G1 X-4.1188 Y-7.39599
X-4.18894 Y-7.41821
X-4.33423 Y-7.44153
X-4.4078 Y-7.44237
X-4.5536 Y-7.42239
X-4.62423 Y-7.40178
X-4.75789 Y-7.34022
X-4.79016 Y-7.32235
G02 X-6.07285 Y-6.29944 I4.79016 J7.32235
X-6.1387 Y-5.29187 I0.52768 J0.54042
G1 X-5.27028 Y-4.20291
X-8.92659 Y-5.96369
X-9.03506 Y-5.73845
X-12.97218 Y-7.63447
X-13.122 Y-7.67946
X-13.2784 Y-7.67595
X-13.42606 Y-7.62428
X-13.55052 Y-7.52951
X-13.63961 Y-7.40093
G02 X-14.33191 Y-5.74325 I2.20475 J1.89419
G1 X-14.28024 Y-5.5956
X-14.18548 Y-5.47113
X-14.05689 Y-5.38204
X-6.0963 Y-1.54843
X-6.06944 Y-1.49145
X-6.11549 Y-1.28968
X-6.16441 Y-1.25
X-15.
X-15.15451 Y-1.22553
X-15.29389 Y-1.15451
X-15.40451 Y-1.04389
X-15.47553 Y-0.90451
X-15.5 Y-0.75
G02 X-15.40451 Y1.04389 I2.80826 J0.75
G1 X-15.29389 Y1.15451
X-15.15451 Y1.22553
X-15. Y1.25
X-6.16441
X-6.11549 Y1.28968
X-6.06944 Y1.49145
X-6.0963 Y1.54843
X-14.05689 Y5.38204
X-14.18548 Y5.47113
X-14.28024 Y5.5956
X-14.33191 Y5.74325
X-14.33542 Y5.89965
X-14.29043 Y6.04947
G02 X-13.42606 Y7.62428 I2.85557 J-0.54273
G1 X-13.2784 Y7.67595
X-13.122 Y7.67946
X-12.97218 Y7.63447
X-5.01159 Y3.80085
X-4.95029 Y3.81538
X-4.82126 Y3.97718
X-4.82074 Y4.04017
X-8.12873 Y8.18825
X-8.23641 Y8.53736
X-8.0779 Y8.86653
X-7.73781 Y9.
X-5.81924
X-5.67186 Y8.97779
X-5.53758 Y8.91312
X-5.42832 Y8.81175
X-2.86616 Y5.59889
X-2.80463 Y5.58539
X-2.61817 Y5.67518
X-2.59037 Y5.73171
X-3.19682 Y8.38874
X-3.20483 Y8.56712
X-3.14966 Y8.73693
X-3.03833 Y8.87654
X-2.88505 Y8.96812
X-2.70936 Y9.
X-1.17078
X-1.00564 Y8.97194
X-0.85904 Y8.89092
X-0.74742 Y8.76602
X-0.68332 Y8.61126
X-0.15305 Y6.28801
X-0.10348 Y6.24914
X0.10348
X0.15305 Y6.28801
X0.68332 Y8.61126
X0.74742 Y8.76602
X0.85904 Y8.89092
X1.00564 Y8.97194
X1.17078 Y9.
X2.70936
X2.88504 Y8.96812
X3.03833 Y8.87654
X3.14965 Y8.73693
X3.20483 Y8.56712
X3.19682 Y8.38874
X2.59037 Y5.73171
X2.61817 Y5.67518
X2.80463 Y5.58539
X2.86616 Y5.59889
X5.42832 Y8.81175
X5.53758 Y8.91312
X5.67186 Y8.97779
X5.81924 Y9.
X7.73781
X8.0779 Y8.86653
X8.23641 Y8.53736
X8.12873 Y8.18825
X4.82074 Y4.04017
X4.82126 Y3.97718
X4.95029 Y3.81538
X5.01159 Y3.80085
X9.78306 Y6.09867
X10.11126 Y6.13565
X10.39092 Y5.95993
X10.5 Y5.64818
Y3.98331
X10.48046 Y3.84489
X10.42336 Y3.71729
X10.33317 Y3.61049
X10.21694 Y3.53282
X6.0963 Y1.54843
X6.06944 Y1.49145
X6.11549 Y1.28968
X6.16441 Y1.25
X10.
X10.15451 Y1.22553
X10.29389 Y1.15451
X10.40451 Y1.04389
X10.47553 Y0.90451
X10.5 Y0.75
G02 X10.40451 Y-1.04389 I-2.80826 J-0.75
G1 X10.29389 Y-1.15451
X10.15451 Y-1.22553
X10. Y-1.25
X6.16441
X6.11549 Y-1.28968
X6.06944 Y-1.49145
X6.0963 Y-1.54843
X7.71836 Y-2.32957
X7.8401 Y-2.41223
X7.93251 Y-2.52676
X7.98758 Y-2.66322
X8.00053 Y-2.8098
X7.97026 Y-2.95381
G02 X7.27876 Y-4.38973 I-7.97026 J2.95381
G1 X7.18504 Y-4.50319
X7.06236 Y-4.58445
X6.92134 Y-4.62648
X6.77418 Y-4.62564
X6.63365 Y-4.58199
X5.01159 Y-3.80085
X4.95029 Y-3.81538
X4.82126 Y-3.97718
X4.82074 Y-4.04017
X5.94324 Y-5.44774
X6.01706 Y-5.57504
X6.05063 Y-5.71832
X6.04103 Y-5.86516
X5.9891 Y-6.00285
X5.89934 Y-6.11946
G02 X4.6533 Y-7.11314 I-5.89934 J6.11946
G1 X4.51964 Y-7.1747
X4.37385 Y-7.19469
X4.22856 Y-7.17137
X4.09634 Y-7.10676
X3.98866 Y-7.00647
X2.86616 Y-5.5989
X2.81834 Y-5.58084
X2.73218 Y-5.62065
X2.71177 Y-5.63106
G02 X1.62706 Y-3.37863 I-0.54235 J1.12622
G03 X-1.62706 I-1.62706 J3.37863
G02 X-2.41829 Y-5.72982 I-0.54236 J-1.12621
G1 X-2.42743 Y-5.72787
X-2.80952 Y-5.58325
X-2.83007 Y-5.58016
X-2.85011 Y-5.58569
X-2.86616 Y-5.5989
X-3.98866 Y-7.00647
X-4.09634 Y-7.10676
X-4.22856 Y-7.17137
X-4.37385 Y-7.19469
X-4.51964 Y-7.1747
X-4.6533 Y-7.11314
G02 X-5.89934 Y-6.11946 I4.6533 J7.11314
G1 X-5.9891 Y-6.00285
X-6.04103 Y-5.86516
X-6.05063 Y-5.71832
X-6.01706 Y-5.57504
X-5.94324 Y-5.44774
X-4.82074 Y-4.04017
X-4.82126 Y-3.97718
X-4.95029 Y-3.81538
X-5.01159 Y-3.80085
X-9.03506 Y-5.73845
G0 Z6.5
X-7.39369 Y-5.22549
G1 Z5.3 F927.2
X-8.92659 Y-5.96369 Z5. F2781.7
X-12.86371 Y-7.85971 F3709.
G02 X-13.86485 Y-7.5094 I-0.32303 J0.68253
X-14.58185 Y-5.73764 I2.38662 J1.99679
G1 X-14.56788 Y-5.66068
X-14.51621 Y-5.51303
X-14.47915 Y-5.44415
X-14.38438 Y-5.31968
X-14.32785 Y-5.26563
X-14.19926 Y-5.17654
X-14.16536 Y-5.1568
X-6.57193 Y-1.5
X-15.
G02 X-15.75 Y-0.75 I0.0051 J0.7551
X-15.62726 Y1.15739 I3.01664 J0.76352
G1 X-15.58129 Y1.22067
X-15.47067 Y1.33128
X-15.40739 Y1.37726
X-15.26801 Y1.44828
X-15.19362 Y1.47245
X-15.03911 Y1.49692
X-15. Y1.5
X-6.57193
X-14.16536 Y5.1568
G02 X-14.51567 Y6.15794 I0.33222 J0.67811
X-13.5775 Y7.82319 I3.04918 J-0.62096
G1 X-13.50862 Y7.86025
X-13.36097 Y7.91192
X-13.28401 Y7.92588
X-13.12761 Y7.9294
X-13.0501 Y7.9189
X-12.90028 Y7.8739
X-12.86371 Y7.85971
X-5.27028 Y4.20291
X-8.32418 Y8.03238
G02 X-7.73781 Y9.25 I0.59104 J0.46537
X-5.56339 Y9.20303 I0.97015 J-5.44258
G1 X-5.42911 Y9.13836
X-5.36754 Y9.09638
X-5.25828 Y8.99501
X-5.23286 Y8.96762
X-2.92478 Y6.07338
G02 X-3.45458 Y8.5559 I7.35298 J2.86699
X-2.70936 Y9.25 I0.74996 J-0.0581
X-0.88471 Y9.19075 I0.78114 J-4.06947
G1 X-0.73811 Y9.10972
X-0.67263 Y9.0575
X-0.56101 Y8.9326
X-0.51645 Y8.86169
X-0.45235 Y8.70693
X-0.43959 Y8.66689
X0. Y6.74094
G02 X0.56101 Y8.9326 I5.12203 J-0.14348
G1 X0.67263 Y9.0575
X0.73811 Y9.10972
X0.88471 Y9.19075
X0.96377 Y9.21841
X1.1289 Y9.24647
X1.17078 Y9.25
G02 X3.01327 Y9.18273 I0.78184 J-3.85187
X3.44055 Y8.33311 I-0.30853 J-0.68742
G1 X2.92478 Y6.07338
X5.23286 Y8.96762
X5.25828 Y8.99501
X5.36753 Y9.09638
X5.42911 Y9.13836
X5.56339 Y9.20303
X5.6346 Y9.22499
X5.78198 Y9.24721
X5.81924 Y9.25
G02 X7.96696 Y9.21108 I0.95928 J-6.34176
X8.32418 Y8.03238 I-0.23154 J-0.71365
G1 X5.27028 Y4.20291
X9.67459 Y6.32391
G02 X10.75 Y5.64818 I0.32271 J-0.68003
X10.65156 Y3.61518 I-3.59682 J-0.84472
G1 X10.61437 Y3.556
X10.52418 Y3.4492
X10.47207 Y3.40262
X10.35583 Y3.32496
X10.32541 Y3.30758
X6.57193 Y1.5
X10.
G02 X10.75 Y0.75 I-0.0051 J-0.7551
X10.62726 Y-1.15739 I-3.01664 J-0.76353
G1 X10.58128 Y-1.22067
X10.47067 Y-1.33129
X10.40739 Y-1.37726
X10.26801 Y-1.44828
X10.19362 Y-1.47245
X10.03911 Y-1.49692
X10. Y-1.5
X6.57193
G02 X8.12707 Y-2.36977 I-0.66147 J-3.00788
G1 X8.16435 Y-2.43321
X8.21941 Y-2.56967
X8.23661 Y-2.64121
X8.24956 Y-2.78779
X8.24518 Y-2.86124
X8.21491 Y-3.00524
X8.20468 Y-3.04069
G02 X7.49284 Y-4.51884 I-8.20468 J3.04069
X6.52518 Y-4.80724 I-0.64429 J0.3942
G1 X5.27028 Y-4.20291
G02 X6.29404 Y-5.66129 I-1.90103 J-2.42301
G1 X6.30009 Y-5.73462
X6.2905 Y-5.88146
X6.27495 Y-5.95338
X6.22302 Y-6.09106
X6.18721 Y-6.15534
X6.09745 Y-6.27195
X6.07285 Y-6.29944
G02 X4.79016 Y-7.32235 I-6.07285 J6.29944
X3.7932 Y-7.16234 I-0.40945 J0.6347
G1 X2.77005 Y-5.87934
G02 X1.51859 Y-3.15339 I-0.60063 J1.3745
G03 X-1.51859 I-1.51859 J3.15339
G02 X-2.46806 Y-5.97481 I-0.65083 J-1.35145
G1 X-2.506 Y-5.96393
X-2.76124 Y-5.8683
G02 X-3.98658 Y-7.33138 I-4.31118 J2.36598
G1 X-4.1188 Y-7.39599
X-4.18894 Y-7.41821
X-4.33423 Y-7.44153
X-4.4078 Y-7.44237
X-4.5536 Y-7.42239
X-4.62423 Y-7.40178
X-4.75789 Y-7.34022
X-4.79016 Y-7.32235
G02 X-6.07285 Y-6.29944 I4.79016 J7.32235
X-6.1387 Y-5.29187 I0.52768 J0.54042
G1 X-5.27028 Y-4.20291
X-8.92659 Y-5.96369
X-9.03506 Y-5.73845
X-12.97218 Y-7.63447
X-13.122 Y-7.67946
X-13.2784 Y-7.67595
X-13.42606 Y-7.62428
X-13.55052 Y-7.52951
X-13.63961 Y-7.40093
G02 X-14.33191 Y-5.74325 I2.20475 J1.89419
G1 X-14.28024 Y-5.5956
X-14.18548 Y-5.47113
X-14.05689 Y-5.38204
X-6.0963 Y-1.54843
X-6.06944 Y-1.49145
X-6.11549 Y-1.28968
X-6.16441 Y-1.25
X-15.
X-15.15451 Y-1.22553
X-15.29389 Y-1.15451
X-15.40451 Y-1.04389
X-15.47553 Y-0.90451
X-15.5 Y-0.75
G02 X-15.40451 Y1.04389 I2.80826 J0.75
G1 X-15.29389 Y1.15451
X-15.15451 Y1.22553
X-15. Y1.25
X-6.16441
X-6.11549 Y1.28968
X-6.06944 Y1.49145
X-6.0963 Y1.54843
X-14.05689 Y5.38204
X-14.18548 Y5.47113
X-14.28024 Y5.5956
X-14.33191 Y5.74325
X-14.33542 Y5.89965
X-14.29043 Y6.04947
G02 X-13.42606 Y7.62428 I2.85557 J-0.54273
G1 X-13.2784 Y7.67595
X-13.122 Y7.67946
X-12.97218 Y7.63447
X-5.01159 Y3.80085
X-4.95029 Y3.81538
X-4.82126 Y3.97718
X-4.82074 Y4.04017
X-8.12873 Y8.18825
X-8.23641 Y8.53736
X-8.0779 Y8.86653
X-7.73781 Y9.
X-5.81924
X-5.67186 Y8.97779
X-5.53758 Y8.91312
X-5.42832 Y8.81175
X-2.86616 Y5.59889
X-2.80463 Y5.58539
X-2.61817 Y5.67518
X-2.59037 Y5.73171
X-3.19682 Y8.38874
X-3.20483 Y8.56712
X-3.14966 Y8.73693
X-3.03833 Y8.87654
X-2.88505 Y8.96812
X-2.70936 Y9.
X-1.17078
X-1.00564 Y8.97194
X-0.85904 Y8.89092
X-0.74742 Y8.76602
X-0.68332 Y8.61126
X-0.15305 Y6.28801
X-0.10348 Y6.24914
X0.10348
X0.15305 Y6.28801
X0.68332 Y8.61126
X0.74742 Y8.76602
X0.85904 Y8.89092
X1.00564 Y8.97194
X1.17078 Y9.
X2.70936
X2.88504 Y8.96812
X3.03833 Y8.87654
X3.14965 Y8.73693
X3.20483 Y8.56712
X3.19682 Y8.38874
X2.59037 Y5.73171
X2.61817 Y5.67518
X2.80463 Y5.58539
X2.86616 Y5.59889
X5.42832 Y8.81175
X5.53758 Y8.91312
X5.67186 Y8.97779
X5.81924 Y9.
X7.73781
X8.0779 Y8.86653
X8.23641 Y8.53736
X8.12873 Y8.18825
X4.82074 Y4.04017
X4.82126 Y3.97718
X4.95029 Y3.81538
X5.01159 Y3.80085
X9.78306 Y6.09867
X10.11126 Y6.13565
X10.39092 Y5.95993
X10.5 Y5.64818
Y3.98331
X10.48046 Y3.84489
X10.42336 Y3.71729
X10.33317 Y3.61049
X10.21694 Y3.53282
X6.0963 Y1.54843
X6.06944 Y1.49145
X6.11549 Y1.28968
X6.16441 Y1.25
X10.
X10.15451 Y1.22553
X10.29389 Y1.15451
X10.40451 Y1.04389
X10.47553 Y0.90451
X10.5 Y0.75
G02 X10.40451 Y-1.04389 I-2.80826 J-0.75
G1 X10.29389 Y-1.15451
X10.15451 Y-1.22553
X10. Y-1.25
X6.16441
X6.11549 Y-1.28968
X6.06944 Y-1.49145
X6.0963 Y-1.54843
X7.71836 Y-2.32957
X7.8401 Y-2.41223
X7.93251 Y-2.52676
X7.98758 Y-2.66322
X8.00053 Y-2.8098
X7.97026 Y-2.95381
G02 X7.27876 Y-4.38973 I-7.97026 J2.95381
G1 X7.18504 Y-4.50319
X7.06236 Y-4.58445
X6.92134 Y-4.62648
X6.77418 Y-4.62564
X6.63365 Y-4.58199
X5.01159 Y-3.80085
X4.95029 Y-3.81538
X4.82126 Y-3.97718
X4.82074 Y-4.04017
X5.94324 Y-5.44774
X6.01706 Y-5.57504
X6.05063 Y-5.71832
X6.04103 Y-5.86516
X5.9891 Y-6.00285
X5.89934 Y-6.11946
G02 X4.6533 Y-7.11314 I-5.89934 J6.11946
G1 X4.51964 Y-7.1747
X4.37385 Y-7.19469
X4.22856 Y-7.17137
X4.09634 Y-7.10676
X3.98866 Y-7.00647
X2.86616 Y-5.5989
X2.81834 Y-5.58084
X2.73218 Y-5.62065
X2.71177 Y-5.63106
G02 X1.62706 Y-3.37863 I-0.54235 J1.12622
G03 X-1.62706 I-1.62706 J3.37863
G02 X-2.41829 Y-5.72982 I-0.54236 J-1.12621
G1 X-2.42743 Y-5.72787
X-2.80952 Y-5.58325
X-2.83007 Y-5.58016
X-2.85011 Y-5.58569
X-2.86616 Y-5.5989
X-3.98866 Y-7.00647
X-4.09634 Y-7.10676
X-4.22856 Y-7.17137
X-4.37385 Y-7.19469
X-4.51964 Y-7.1747
X-4.6533 Y-7.11314
G02 X-5.89934 Y-6.11946 I4.6533 J7.11314
G1 X-5.9891 Y-6.00285
X-6.04103 Y-5.86516
X-6.05063 Y-5.71832
X-6.01706 Y-5.57504
X-5.94324 Y-5.44774
X-4.82074 Y-4.04017
X-4.82126 Y-3.97718
X-4.95029 Y-3.81538
X-5.01159 Y-3.80085
X-9.03506 Y-5.73845
G0 Z6.5
X-7.39369 Y-5.22549
G1 Z5.05 F927.2
X-8.92659 Y-5.96369 Z4.75 F2781.7
X-12.86371 Y-7.85971 F3709.
G02 X-13.86485 Y-7.5094 I-0.32303 J0.68253
X-14.58185 Y-5.73764 I2.38662 J1.99679
G1 X-14.56788 Y-5.66068
X-14.51621 Y-5.51303
X-14.47915 Y-5.44415
X-14.38438 Y-5.31968
X-14.32785 Y-5.26563
X-14.19926 Y-5.17654
X-14.16536 Y-5.1568
X-6.57193 Y-1.5
X-15.
G02 X-15.75 Y-0.75 I0.0051 J0.7551
X-15.62726 Y1.15739 I3.01664 J0.76352
G1 X-15.58129 Y1.22067
X-15.47067 Y1.33128
X-15.40739 Y1.37726
X-15.26801 Y1.44828
X-15.19362 Y1.47245
X-15.03911 Y1.49692
X-15. Y1.5
X-6.57193
X-14.16536 Y5.1568
G02 X-14.51567 Y6.15794 I0.33222 J0.67811
X-13.5775 Y7.82319 I3.04918 J-0.62096
G1 X-13.50862 Y7.86025
X-13.36097 Y7.91192
X-13.28401 Y7.92588
X-13.12761 Y7.9294
X-13.0501 Y7.9189
X-12.90028 Y7.8739
X-12.86371 Y7.85971
X-5.27028 Y4.20291
X-8.32418 Y8.03238
G02 X-7.73781 Y9.25 I0.59104 J0.46537
X-5.56339 Y9.20303 I0.97015 J-5.44258
G1 X-5.42911 Y9.13836
X-5.36754 Y9.09638
X-5.25828 Y8.99501
X-5.23286 Y8.96762
X-2.92478 Y6.07338
G02 X-3.45458 Y8.5559 I7.35298 J2.86699
X-2.70936 Y9.25 I0.74996 J-0.0581
X-0.88471 Y9.19075 I0.78114 J-4.06947
G1 X-0.73811 Y9.10972
X-0.67263 Y9.0575
X-0.56101 Y8.9326
X-0.51645 Y8.86169
X-0.45235 Y8.70693
X-0.43959 Y8.66689
X0. Y6.74094
G02 X0.56101 Y8.9326 I5.12203 J-0.14348
G1 X0.67263 Y9.0575
X0.73811 Y9.10972
X0.88471 Y9.19075
X0.96377 Y9.21841
X1.1289 Y9.24647
X1.17078 Y9.25
G02 X3.01327 Y9.18273 I0.78184 J-3.85187
X3.44055 Y8.33311 I-0.30853 J-0.68742
G1 X2.92478 Y6.07338
X5.23286 Y8.96762
X5.25828 Y8.99501
X5.36753 Y9.09638
X5.42911 Y9.13836
X5.56339 Y9.20303
X5.6346 Y9.22499
X5.78198 Y9.24721
X5.81924 Y9.25
G02 X7.96696 Y9.21108 I0.95928 J-6.34176
X8.32418 Y8.03238 I-0.23154 J-0.71365
G1 X5.27028 Y4.20291
X9.67459 Y6.32391
G02 X10.75 Y5.64818 I0.32271 J-0.68003
X10.65156 Y3.61518 I-3.59682 J-0.84472
G1 X10.61437 Y3.556
X10.52418 Y3.4492
X10.47207 Y3.40262
X10.35583 Y3.32496
X10.32541 Y3.30758
X6.57193 Y1.5
X10.
G02 X10.75 Y0.75 I-0.0051 J-0.7551
X10.62726 Y-1.15739 I-3.01664 J-0.76353
G1 X10.58128 Y-1.22067
X10.47067 Y-1.33129
X10.40739 Y-1.37726
X10.26801 Y-1.44828
X10.19362 Y-1.47245
X10.03911 Y-1.49692
X10. Y-1.5
X6.57193
G02 X8.12707 Y-2.36977 I-0.66147 J-3.00788
G1 X8.16435 Y-2.43321
X8.21941 Y-2.56967
X8.23661 Y-2.64121
X8.24956 Y-2.78779
X8.24518 Y-2.86124
X8.21491 Y-3.00524
X8.20468 Y-3.04069
G02 X7.49284 Y-4.51884 I-8.20468 J3.04069
X6.52518 Y-4.80724 I-0.64429 J0.3942
G1 X5.27028 Y-4.20291
G02 X6.29404 Y-5.66129 I-1.90103 J-2.42301
G1 X6.30009 Y-5.73462
X6.2905 Y-5.88146
X6.27495 Y-5.95338
X6.22302 Y-6.09106
X6.18721 Y-6.15534
X6.09745 Y-6.27195
X6.07285 Y-6.29944
G02 X4.79016 Y-7.32235 I-6.07285 J6.29944
X3.7932 Y-7.16234 I-0.40945 J0.6347
G1 X2.77005 Y-5.87934
G02 X1.51859 Y-3.15339 I-0.60063 J1.3745
G03 X-1.51859 I-1.51859 J3.15339
G02 X-2.46806 Y-5.97481 I-0.65083 J-1.35145
G1 X-2.506 Y-5.96393
X-2.76124 Y-5.8683
G02 X-3.98658 Y-7.33138 I-4.31118 J2.36598
G1 X-4.1188 Y-7.39599
X-4.18894 Y-7.41821
X-4.33423 Y-7.44153
X-4.4078 Y-7.44237
X-4.5536 Y-7.42239
X-4.62423 Y-7.40178
X-4.75789 Y-7.34022
X-4.79016 Y-7.32235
G02 X-6.07285 Y-6.29944 I4.79016 J7.32235
X-6.1387 Y-5.29187 I0.52768 J0.54042
G1 X-5.27028 Y-4.20291
X-8.92659 Y-5.96369
X-9.03506 Y-5.73845
X-12.97218 Y-7.63447
X-13.122 Y-7.67946
X-13.2784 Y-7.67595
X-13.42606 Y-7.62428
X-13.55052 Y-7.52951
X-13.63961 Y-7.40093
G02 X-14.33191 Y-5.74325 I2.20475 J1.89419
G1 X-14.28024 Y-5.5956
X-14.18548 Y-5.47113
X-14.05689 Y-5.38204
X-6.0963 Y-1.54843
X-6.06944 Y-1.49145
X-6.11549 Y-1.28968
X-6.16441 Y-1.25
X-15.
X-15.15451 Y-1.22553
X-15.29389 Y-1.15451
X-15.40451 Y-1.04389
X-15.47553 Y-0.90451
X-15.5 Y-0.75
G02 X-15.40451 Y1.04389 I2.80826 J0.75
G1 X-15.29389 Y1.15451
X-15.15451 Y1.22553
X-15. Y1.25
X-6.16441
X-6.11549 Y1.28968
X-6.06944 Y1.49145
X-6.0963 Y1.54843
X-14.05689 Y5.38204
X-14.18548 Y5.47113
X-14.28024 Y5.5956
X-14.33191 Y5.74325
X-14.33542 Y5.89965
X-14.29043 Y6.04947
G02 X-13.42606 Y7.62428 I2.85557 J-0.54273
G1 X-13.2784 Y7.67595
X-13.122 Y7.67946
X-12.97218 Y7.63447
X-5.01159 Y3.80085
X-4.95029 Y3.81538
X-4.82126 Y3.97718
X-4.82074 Y4.04017
X-8.12873 Y8.18825
X-8.23641 Y8.53736
X-8.0779 Y8.86653
X-7.73781 Y9.
X-5.81924
X-5.67186 Y8.97779
X-5.53758 Y8.91312
X-5.42832 Y8.81175
X-2.86616 Y5.59889
X-2.80463 Y5.58539
X-2.61817 Y5.67518
X-2.59037 Y5.73171
X-3.19682 Y8.38874
X-3.20483 Y8.56712
X-3.14966 Y8.73693
X-3.03833 Y8.87654
X-2.88505 Y8.96812
X-2.70936 Y9.
X-1.17078
X-1.00564 Y8.97194
X-0.85904 Y8.89092
X-0.74742 Y8.76602
X-0.68332 Y8.61126
X-0.15305 Y6.28801
X-0.10348 Y6.24914
X0.10348
X0.15305 Y6.28801
X0.68332 Y8.61126
X0.74742 Y8.76602
X0.85904 Y8.89092
X1.00564 Y8.97194
X1.17078 Y9.
X2.70936
X2.88504 Y8.96812
X3.03833 Y8.87654
X3.14965 Y8.73693
X3.20483 Y8.56712
X3.19682 Y8.38874
X2.59037 Y5.73171
X2.61817 Y5.67518
X2.80463 Y5.58539
X2.86616 Y5.59889
X5.42832 Y8.81175
X5.53758 Y8.91312
X5.67186 Y8.97779
X5.81924 Y9.
X7.73781
X8.0779 Y8.86653
X8.23641 Y8.53736
X8.12873 Y8.18825
X4.82074 Y4.04017
X4.82126 Y3.97718
X4.95029 Y3.81538
X5.01159 Y3.80085
X9.78306 Y6.09867
X10.11126 Y6.13565
X10.39092 Y5.95993
X10.5 Y5.64818
Y3.98331
X10.48046 Y3.84489
X10.42336 Y3.71729
X10.33317 Y3.61049
X10.21694 Y3.53282
X6.0963 Y1.54843
X6.06944 Y1.49145
X6.11549 Y1.28968
X6.16441 Y1.25
X10.
X10.15451 Y1.22553
X10.29389 Y1.15451
X10.40451 Y1.04389
X10.47553 Y0.90451
X10.5 Y0.75
G02 X10.40451 Y-1.04389 I-2.80826 J-0.75
G1 X10.29389 Y-1.15451
X10.15451 Y-1.22553
X10. Y-1.25
X6.16441
X6.11549 Y-1.28968
X6.06944 Y-1.49145
X6.0963 Y-1.54843
X7.71836 Y-2.32957
X7.8401 Y-2.41223
X7.93251 Y-2.52676
X7.98758 Y-2.66322
X8.00053 Y-2.8098
X7.97026 Y-2.95381
G02 X7.27876 Y-4.38973 I-7.97026 J2.95381
G1 X7.18504 Y-4.50319
X7.06236 Y-4.58445
X6.92134 Y-4.62648
X6.77418 Y-4.62564
X6.63365 Y-4.58199
X5.01159 Y-3.80085
X4.95029 Y-3.81538
X4.82126 Y-3.97718
X4.82074 Y-4.04017
X5.94324 Y-5.44774
X6.01706 Y-5.57504
X6.05063 Y-5.71832
X6.04103 Y-5.86516
X5.9891 Y-6.00285
X5.89934 Y-6.11946
G02 X4.6533 Y-7.11314 I-5.89934 J6.11946
G1 X4.51964 Y-7.1747
X4.37385 Y-7.19469
X4.22856 Y-7.17137
X4.09634 Y-7.10676
X3.98866 Y-7.00647
X2.86616 Y-5.5989
X2.81834 Y-5.58084
X2.73218 Y-5.62065
X2.71177 Y-5.63106
G02 X1.62706 Y-3.37863 I-0.54235 J1.12622
G03 X-1.62706 I-1.62706 J3.37863
G02 X-2.41829 Y-5.72982 I-0.54236 J-1.12621
G1 X-2.42743 Y-5.72787
X-2.80952 Y-5.58325
X-2.83007 Y-5.58016
X-2.85011 Y-5.58569
X-2.86616 Y-5.5989
X-3.98866 Y-7.00647
X-4.09634 Y-7.10676
X-4.22856 Y-7.17137
X-4.37385 Y-7.19469
X-4.51964 Y-7.1747
X-4.6533 Y-7.11314
G02 X-5.89934 Y-6.11946 I4.6533 J7.11314
G1 X-5.9891 Y-6.00285
X-6.04103 Y-5.86516
X-6.05063 Y-5.71832
X-6.01706 Y-5.57504
X-5.94324 Y-5.44774
X-4.82074 Y-4.04017
X-4.82126 Y-3.97718
X-4.95029 Y-3.81538
X-5.01159 Y-3.80085
X-9.03506 Y-5.73845
G0 Z6.5
X-7.39369 Y-5.22549
G1 Z4.8 F927.2
X-8.92659 Y-5.96369 Z4.5 F2781.7
X-12.86371 Y-7.85971 F3709.
G02 X-13.86485 Y-7.5094 I-0.32303 J0.68253
X-14.58185 Y-5.73764 I2.38662 J1.99679
G1 X-14.56788 Y-5.66068
X-14.51621 Y-5.51303
X-14.47915 Y-5.44415
X-14.38438 Y-5.31968
X-14.32785 Y-5.26563
X-14.19926 Y-5.17654
X-14.16536 Y-5.1568
X-6.57193 Y-1.5
X-15.
G02 X-15.75 Y-0.75 I0.0051 J0.7551
X-15.62726 Y1.15739 I3.01664 J0.76352
G1 X-15.58129 Y1.22067
X-15.47067 Y1.33128
X-15.40739 Y1.37726
X-15.26801 Y1.44828
X-15.19362 Y1.47245
X-15.03911 Y1.49692
X-15. Y1.5
X-6.57193
X-14.16536 Y5.1568
G02 X-14.51567 Y6.15794 I0.33222 J0.67811
X-13.5775 Y7.82319 I3.04918 J-0.62096
G1 X-13.50862 Y7.86025
X-13.36097 Y7.91192
X-13.28401 Y7.92588
X-13.12761 Y7.9294
X-13.0501 Y7.9189
X-12.90028 Y7.8739
X-12.86371 Y7.85971
X-5.27028 Y4.20291
X-8.32418 Y8.03238
G02 X-7.73781 Y9.25 I0.59104 J0.46537
X-5.56339 Y9.20303 I0.97015 J-5.44258
G1 X-5.42911 Y9.13836
X-5.36754 Y9.09638
X-5.25828 Y8.99501
X-5.23286 Y8.96762
X-2.92478 Y6.07338
G02 X-3.45458 Y8.5559 I7.35298 J2.86699
X-2.70936 Y9.25 I0.74996 J-0.0581
X-0.88471 Y9.19075 I0.78114 J-4.06947
G1 X-0.73811 Y9.10972
X-0.67263 Y9.0575
X-0.56101 Y8.9326
X-0.51645 Y8.86169
X-0.45235 Y8.70693
X-0.43959 Y8.66689
X0. Y6.74094
G02 X0.56101 Y8.9326 I5.12203 J-0.14348
G1 X0.67263 Y9.0575
X0.73811 Y9.10972
X0.88471 Y9.19075
X0.96377 Y9.21841
X1.1289 Y9.24647
X1.17078 Y9.25
G02 X3.01327 Y9.18273 I0.78184 J-3.85187
X3.44055 Y8.33311 I-0.30853 J-0.68742
G1 X2.92478 Y6.07338
X5.23286 Y8.96762
X5.25828 Y8.99501
X5.36753 Y9.09638
X5.42911 Y9.13836
X5.56339 Y9.20303
X5.6346 Y9.22499
X5.78198 Y9.24721
X5.81924 Y9.25
G02 X7.96696 Y9.21108 I0.95928 J-6.34176
X8.32418 Y8.03238 I-0.23154 J-0.71365
G1 X5.27028 Y4.20291
X9.67459 Y6.32391
G02 X10.75 Y5.64818 I0.32271 J-0.68003
X10.65156 Y3.61518 I-3.59682 J-0.84472
G1 X10.61437 Y3.556
X10.52418 Y3.4492
X10.47207 Y3.40262
X10.35583 Y3.32496
X10.32541 Y3.30758
X6.57193 Y1.5
X10.
G02 X10.75 Y0.75 I-0.0051 J-0.7551
X10.62726 Y-1.15739 I-3.01664 J-0.76353
G1 X10.58128 Y-1.22067
X10.47067 Y-1.33129
X10.40739 Y-1.37726
X10.26801 Y-1.44828
X10.19362 Y-1.47245
X10.03911 Y-1.49692
X10. Y-1.5
X6.57193
G02 X8.12707 Y-2.36977 I-0.66147 J-3.00788
G1 X8.16435 Y-2.43321
X8.21941 Y-2.56967
X8.23661 Y-2.64121
X8.24956 Y-2.78779
X8.24518 Y-2.86124
X8.21491 Y-3.00524
X8.20468 Y-3.04069
G02 X7.49284 Y-4.51884 I-8.20468 J3.04069
X6.52518 Y-4.80724 I-0.64429 J0.3942
G1 X5.27028 Y-4.20291
G02 X6.29404 Y-5.66129 I-1.90103 J-2.42301
G1 X6.30009 Y-5.73462
X6.2905 Y-5.88146
X6.27495 Y-5.95338
X6.22302 Y-6.09106
X6.18721 Y-6.15534
X6.09745 Y-6.27195
X6.07285 Y-6.29944
G02 X4.79016 Y-7.32235 I-6.07285 J6.29944
X3.7932 Y-7.16234 I-0.40945 J0.6347
G1 X2.77005 Y-5.87934
G02 X1.51859 Y-3.15339 I-0.60063 J1.3745
G03 X-1.51859 I-1.51859 J3.15339
G02 X-2.46806 Y-5.97481 I-0.65083 J-1.35145
G1 X-2.506 Y-5.96393
X-2.76124 Y-5.8683
G02 X-3.98658 Y-7.33138 I-4.31118 J2.36598
G1 X-4.1188 Y-7.39599
X-4.18894 Y-7.41821
X-4.33423 Y-7.44153
X-4.4078 Y-7.44237
X-4.5536 Y-7.42239
X-4.62423 Y-7.40178
X-4.75789 Y-7.34022
X-4.79016 Y-7.32235
G02 X-6.07285 Y-6.29944 I4.79016 J7.32235
X-6.1387 Y-5.29187 I0.52768 J0.54042
G1 X-5.27028 Y-4.20291
X-8.92659 Y-5.96369
X-9.03506 Y-5.73845
X-12.97218 Y-7.63447
X-13.122 Y-7.67946
X-13.2784 Y-7.67595
X-13.42606 Y-7.62428
X-13.55052 Y-7.52951
X-13.63961 Y-7.40093
G02 X-14.33191 Y-5.74325 I2.20475 J1.89419
G1 X-14.28024 Y-5.5956
X-14.18548 Y-5.47113
X-14.05689 Y-5.38204
X-6.0963 Y-1.54843
X-6.06944 Y-1.49145
X-6.11549 Y-1.28968
X-6.16441 Y-1.25
X-15.
X-15.15451 Y-1.22553
X-15.29389 Y-1.15451
X-15.40451 Y-1.04389
X-15.47553 Y-0.90451
X-15.5 Y-0.75
G02 X-15.40451 Y1.04389 I2.80826 J0.75
G1 X-15.29389 Y1.15451
X-15.15451 Y1.22553
X-15. Y1.25
X-6.16441
X-6.11549 Y1.28968
X-6.06944 Y1.49145
X-6.0963 Y1.54843
X-14.05689 Y5.38204
X-14.18548 Y5.47113
X-14.28024 Y5.5956
X-14.33191 Y5.74325
X-14.33542 Y5.89965
X-14.29043 Y6.04947
G02 X-13.42606 Y7.62428 I2.85557 J-0.54273
G1 X-13.2784 Y7.67595
X-13.122 Y7.67946
X-12.97218 Y7.63447
X-5.01159 Y3.80085
X-4.95029 Y3.81538
X-4.82126 Y3.97718
X-4.82074 Y4.04017
X-8.12873 Y8.18825
X-8.23641 Y8.53736
X-8.0779 Y8.86653
X-7.73781 Y9.
X-5.81924
X-5.67186 Y8.97779
X-5.53758 Y8.91312
X-5.42832 Y8.81175
X-2.86616 Y5.59889
X-2.80463 Y5.58539
X-2.61817 Y5.67518
X-2.59037 Y5.73171
X-3.19682 Y8.38874
X-3.20483 Y8.56712
X-3.14966 Y8.73693
X-3.03833 Y8.87654
X-2.88505 Y8.96812
X-2.70936 Y9.
X-1.17078
X-1.00564 Y8.97194
X-0.85904 Y8.89092
X-0.74742 Y8.76602
X-0.68332 Y8.61126
X-0.15305 Y6.28801
X-0.10348 Y6.24914
X0.10348
X0.15305 Y6.28801
X0.68332 Y8.61126
X0.74742 Y8.76602
X0.85904 Y8.89092
X1.00564 Y8.97194
X1.17078 Y9.
X2.70936
X2.88504 Y8.96812
X3.03833 Y8.87654
X3.14965 Y8.73693
X3.20483 Y8.56712
X3.19682 Y8.38874
X2.59037 Y5.73171
X2.61817 Y5.67518
X2.80463 Y5.58539
X2.86616 Y5.59889
X5.42832 Y8.81175
X5.53758 Y8.91312
X5.67186 Y8.97779
X5.81924 Y9.
X7.73781
X8.0779 Y8.86653
X8.23641 Y8.53736
X8.12873 Y8.18825
X4.82074 Y4.04017
X4.82126 Y3.97718
X4.95029 Y3.81538
X5.01159 Y3.80085
X9.78306 Y6.09867
X10.11126 Y6.13565
X10.39092 Y5.95993
X10.5 Y5.64818
Y3.98331
X10.48046 Y3.84489
X10.42336 Y3.71729
X10.33317 Y3.61049
X10.21694 Y3.53282
X6.0963 Y1.54843
X6.06944 Y1.49145
X6.11549 Y1.28968
X6.16441 Y1.25
X10.
X10.15451 Y1.22553
X10.29389 Y1.15451
X10.40451 Y1.04389
X10.47553 Y0.90451
X10.5 Y0.75
G02 X10.40451 Y-1.04389 I-2.80826 J-0.75
G1 X10.29389 Y-1.15451
X10.15451 Y-1.22553
X10. Y-1.25
X6.16441
X6.11549 Y-1.28968
X6.06944 Y-1.49145
X6.0963 Y-1.54843
X7.71836 Y-2.32957
X7.8401 Y-2.41223
X7.93251 Y-2.52676
X7.98758 Y-2.66322
X8.00053 Y-2.8098
X7.97026 Y-2.95381
G02 X7.27876 Y-4.38973 I-7.97026 J2.95381
G1 X7.18504 Y-4.50319
X7.06236 Y-4.58445
X6.92134 Y-4.62648
X6.77418 Y-4.62564
X6.63365 Y-4.58199
X5.01159 Y-3.80085
X4.95029 Y-3.81538
X4.82126 Y-3.97718
X4.82074 Y-4.04017
X5.94324 Y-5.44774
X6.01706 Y-5.57504
X6.05063 Y-5.71832
X6.04103 Y-5.86516
X5.9891 Y-6.00285
X5.89934 Y-6.11946
G02 X4.6533 Y-7.11314 I-5.89934 J6.11946
G1 X4.51964 Y-7.1747
X4.37385 Y-7.19469
X4.22856 Y-7.17137
X4.09634 Y-7.10676
X3.98866 Y-7.00647
X2.86616 Y-5.5989
X2.81834 Y-5.58084
X2.73218 Y-5.62065
X2.71177 Y-5.63106
G02 X1.62706 Y-3.37863 I-0.54235 J1.12622
G03 X-1.62706 I-1.62706 J3.37863
G02 X-2.41829 Y-5.72982 I-0.54236 J-1.12621
G1 X-2.42743 Y-5.72787
X-2.80952 Y-5.58325
X-2.83007 Y-5.58016
X-2.85011 Y-5.58569
X-2.86616 Y-5.5989
X-3.98866 Y-7.00647
X-4.09634 Y-7.10676
X-4.22856 Y-7.17137
X-4.37385 Y-7.19469
X-4.51964 Y-7.1747
X-4.6533 Y-7.11314
G02 X-5.89934 Y-6.11946 I4.6533 J7.11314
G1 X-5.9891 Y-6.00285
X-6.04103 Y-5.86516
X-6.05063 Y-5.71832
X-6.01706 Y-5.57504
X-5.94324 Y-5.44774
X-4.82074 Y-4.04017
X-4.82126 Y-3.97718
X-4.95029 Y-3.81538
X-5.01159 Y-3.80085
X-9.03506 Y-5.73845
G0 Z6.5
X-7.39369 Y-5.22549
G1 Z4.55 F927.2
X-8.92659 Y-5.96369 Z4.25 F2781.7
X-12.86371 Y-7.85971 F3709.
G02 X-13.86485 Y-7.5094 I-0.32303 J0.68253
X-14.58185 Y-5.73764 I2.38662 J1.99679
G1 X-14.56788 Y-5.66068
X-14.51621 Y-5.51303
X-14.47915 Y-5.44415
X-14.38438 Y-5.31968
X-14.32785 Y-5.26563
X-14.19926 Y-5.17654
X-14.16536 Y-5.1568
X-6.57193 Y-1.5
X-15.
G02 X-15.75 Y-0.75 I0.0051 J0.7551
X-15.62726 Y1.15739 I3.01664 J0.76352
G1 X-15.58129 Y1.22067
X-15.47067 Y1.33128
X-15.40739 Y1.37726
X-15.26801 Y1.44828
X-15.19362 Y1.47245
X-15.03911 Y1.49692
X-15. Y1.5
X-6.57193
X-14.16536 Y5.1568
G02 X-14.51567 Y6.15794 I0.33222 J0.67811
X-13.5775 Y7.82319 I3.04918 J-0.62096
G1 X-13.50862 Y7.86025
X-13.36097 Y7.91192
X-13.28401 Y7.92588
X-13.12761 Y7.9294
X-13.0501 Y7.9189
X-12.90028 Y7.8739
X-12.86371 Y7.85971
X-5.27028 Y4.20291
X-8.32418 Y8.03238
G02 X-7.73781 Y9.25 I0.59104 J0.46537
X-5.56339 Y9.20303 I0.97015 J-5.44258
G1 X-5.42911 Y9.13836
X-5.36754 Y9.09638
X-5.25828 Y8.99501
X-5.23286 Y8.96762
X-2.92478 Y6.07338
G02 X-3.45458 Y8.5559 I7.35298 J2.86699
X-2.70936 Y9.25 I0.74996 J-0.0581
X-0.88471 Y9.19075 I0.78114 J-4.06947
G1 X-0.73811 Y9.10972
X-0.67263 Y9.0575
X-0.56101 Y8.9326
X-0.51645 Y8.86169
X-0.45235 Y8.70693
X-0.43959 Y8.66689
X0. Y6.74094
G02 X0.56101 Y8.9326 I5.12203 J-0.14348
G1 X0.67263 Y9.0575
X0.73811 Y9.10972
X0.88471 Y9.19075
X0.96377 Y9.21841
X1.1289 Y9.24647
X1.17078 Y9.25
G02 X3.01327 Y9.18273 I0.78184 J-3.85187
X3.44055 Y8.33311 I-0.30853 J-0.68742
G1 X2.92478 Y6.07338
X5.23286 Y8.96762
X5.25828 Y8.99501
X5.36753 Y9.09638
X5.42911 Y9.13836
X5.56339 Y9.20303
X5.6346 Y9.22499
X5.78198 Y9.24721
X5.81924 Y9.25
G02 X7.96696 Y9.21108 I0.95928 J-6.34176
X8.32418 Y8.03238 I-0.23154 J-0.71365
G1 X5.27028 Y4.20291
X9.67459 Y6.32391
G02 X10.75 Y5.64818 I0.32271 J-0.68003
X10.65156 Y3.61518 I-3.59682 J-0.84472
G1 X10.61437 Y3.556
X10.52418 Y3.4492
X10.47207 Y3.40262
X10.35583 Y3.32496
X10.32541 Y3.30758
X6.57193 Y1.5
X10.
G02 X10.75 Y0.75 I-0.0051 J-0.7551
X10.62726 Y-1.15739 I-3.01664 J-0.76353
G1 X10.58128 Y-1.22067
X10.47067 Y-1.33129
X10.40739 Y-1.37726
X10.26801 Y-1.44828
X10.19362 Y-1.47245
X10.03911 Y-1.49692
X10. Y-1.5
X6.57193
G02 X8.12707 Y-2.36977 I-0.66147 J-3.00788
G1 X8.16435 Y-2.43321
X8.21941 Y-2.56967
X8.23661 Y-2.64121
X8.24956 Y-2.78779
X8.24518 Y-2.86124
X8.21491 Y-3.00524
X8.20468 Y-3.04069
G02 X7.49284 Y-4.51884 I-8.20468 J3.04069
X6.52518 Y-4.80724 I-0.64429 J0.3942
G1 X5.27028 Y-4.20291
G02 X6.29404 Y-5.66129 I-1.90103 J-2.42301
G1 X6.30009 Y-5.73462
X6.2905 Y-5.88146
X6.27495 Y-5.95338
X6.22302 Y-6.09106
X6.18721 Y-6.15534
X6.09745 Y-6.27195
X6.07285 Y-6.29944
G02 X4.79016 Y-7.32235 I-6.07285 J6.29944
X3.7932 Y-7.16234 I-0.40945 J0.6347
G1 X2.77005 Y-5.87934
G02 X1.51859 Y-3.15339 I-0.60063 J1.3745
G03 X-1.51859 I-1.51859 J3.15339
G02 X-2.46806 Y-5.97481 I-0.65083 J-1.35145
G1 X-2.506 Y-5.96393
X-2.76124 Y-5.8683
G02 X-3.98658 Y-7.33138 I-4.31118 J2.36598
G1 X-4.1188 Y-7.39599
X-4.18894 Y-7.41821
X-4.33423 Y-7.44153
X-4.4078 Y-7.44237
X-4.5536 Y-7.42239
X-4.62423 Y-7.40178
X-4.75789 Y-7.34022
X-4.79016 Y-7.32235
G02 X-6.07285 Y-6.29944 I4.79016 J7.32235
X-6.1387 Y-5.29187 I0.52768 J0.54042
G1 X-5.27028 Y-4.20291
X-8.92659 Y-5.96369
X-9.03506 Y-5.73845
X-12.97218 Y-7.63447
X-13.122 Y-7.67946
X-13.2784 Y-7.67595
X-13.42606 Y-7.62428
X-13.55052 Y-7.52951
X-13.63961 Y-7.40093
G02 X-14.33191 Y-5.74325 I2.20475 J1.89419
G1 X-14.28024 Y-5.5956
X-14.18548 Y-5.47113
X-14.05689 Y-5.38204
X-6.0963 Y-1.54843
X-6.06944 Y-1.49145
X-6.11549 Y-1.28968
X-6.16441 Y-1.25
X-15.
X-15.15451 Y-1.22553
X-15.29389 Y-1.15451
X-15.40451 Y-1.04389
X-15.47553 Y-0.90451
X-15.5 Y-0.75
G02 X-15.40451 Y1.04389 I2.80826 J0.75
G1 X-15.29389 Y1.15451
X-15.15451 Y1.22553
X-15. Y1.25
X-6.16441
X-6.11549 Y1.28968
X-6.06944 Y1.49145
X-6.0963 Y1.54843
X-14.05689 Y5.38204
X-14.18548 Y5.47113
X-14.28024 Y5.5956
X-14.33191 Y5.74325
X-14.33542 Y5.89965
X-14.29043 Y6.04947
G02 X-13.42606 Y7.62428 I2.85557 J-0.54273
G1 X-13.2784 Y7.67595
X-13.122 Y7.67946
X-12.97218 Y7.63447
X-5.01159 Y3.80085
X-4.95029 Y3.81538
X-4.82126 Y3.97718
X-4.82074 Y4.04017
X-8.12873 Y8.18825
X-8.23641 Y8.53736
X-8.0779 Y8.86653
X-7.73781 Y9.
X-5.81924
X-5.67186 Y8.97779
X-5.53758 Y8.91312
X-5.42832 Y8.81175
X-2.86616 Y5.59889
X-2.80463 Y5.58539
X-2.61817 Y5.67518
X-2.59037 Y5.73171
X-3.19682 Y8.38874
X-3.20483 Y8.56712
X-3.14966 Y8.73693
X-3.03833 Y8.87654
X-2.88505 Y8.96812
X-2.70936 Y9.
X-1.17078
X-1.00564 Y8.97194
X-0.85904 Y8.89092
X-0.74742 Y8.76602
X-0.68332 Y8.61126
X-0.15305 Y6.28801
X-0.10348 Y6.24914
X0.10348
X0.15305 Y6.28801
X0.68332 Y8.61126
X0.74742 Y8.76602
X0.85904 Y8.89092
X1.00564 Y8.97194
X1.17078 Y9.
X2.70936
X2.88504 Y8.96812
X3.03833 Y8.87654
X3.14965 Y8.73693
X3.20483 Y8.56712
X3.19682 Y8.38874
X2.59037 Y5.73171
X2.61817 Y5.67518
X2.80463 Y5.58539
X2.86616 Y5.59889
X5.42832 Y8.81175
X5.53758 Y8.91312
X5.67186 Y8.97779
X5.81924 Y9.
X7.73781
X8.0779 Y8.86653
X8.23641 Y8.53736
X8.12873 Y8.18825
X4.82074 Y4.04017
X4.82126 Y3.97718
X4.95029 Y3.81538
X5.01159 Y3.80085
X9.78306 Y6.09867
X10.11126 Y6.13565
X10.39092 Y5.95993
X10.5 Y5.64818
Y3.98331
X10.48046 Y3.84489
X10.42336 Y3.71729
X10.33317 Y3.61049
X10.21694 Y3.53282
X6.0963 Y1.54843
X6.06944 Y1.49145
X6.11549 Y1.28968
X6.16441 Y1.25
X10.
X10.15451 Y1.22553
X10.29389 Y1.15451
X10.40451 Y1.04389
X10.47553 Y0.90451
X10.5 Y0.75
G02 X10.40451 Y-1.04389 I-2.80826 J-0.75
G1 X10.29389 Y-1.15451
X10.15451 Y-1.22553
X10. Y-1.25
X6.16441
X6.11549 Y-1.28968
X6.06944 Y-1.49145
X6.0963 Y-1.54843
X7.71836 Y-2.32957
X7.8401 Y-2.41223
X7.93251 Y-2.52676
X7.98758 Y-2.66322
X8.00053 Y-2.8098
X7.97026 Y-2.95381
G02 X7.27876 Y-4.38973 I-7.97026 J2.95381
G1 X7.18504 Y-4.50319
X7.06236 Y-4.58445
X6.92134 Y-4.62648
X6.77418 Y-4.62564
X6.63365 Y-4.58199
X5.01159 Y-3.80085
X4.95029 Y-3.81538
X4.82126 Y-3.97718
X4.82074 Y-4.04017
X5.94324 Y-5.44774
X6.01706 Y-5.57504
X6.05063 Y-5.71832
X6.04103 Y-5.86516
X5.9891 Y-6.00285
X5.89934 Y-6.11946
G02 X4.6533 Y-7.11314 I-5.89934 J6.11946
G1 X4.51964 Y-7.1747
X4.37385 Y-7.19469
X4.22856 Y-7.17137
X4.09634 Y-7.10676
X3.98866 Y-7.00647
X2.86616 Y-5.5989
X2.81834 Y-5.58084
X2.73218 Y-5.62065
X2.71177 Y-5.63106
G02 X1.62706 Y-3.37863 I-0.54235 J1.12622
G03 X-1.62706 I-1.62706 J3.37863
G02 X-2.41829 Y-5.72982 I-0.54236 J-1.12621
G1 X-2.42743 Y-5.72787
X-2.80952 Y-5.58325
X-2.83007 Y-5.58016
X-2.85011 Y-5.58569
X-2.86616 Y-5.5989
X-3.98866 Y-7.00647
X-4.09634 Y-7.10676
X-4.22856 Y-7.17137
X-4.37385 Y-7.19469
X-4.51964 Y-7.1747
X-4.6533 Y-7.11314
G02 X-5.89934 Y-6.11946 I4.6533 J7.11314
G1 X-5.9891 Y-6.00285
X-6.04103 Y-5.86516
X-6.05063 Y-5.71832
X-6.01706 Y-5.57504
X-5.94324 Y-5.44774
X-4.82074 Y-4.04017
X-4.82126 Y-3.97718
X-4.95029 Y-3.81538
X-5.01159 Y-3.80085
X-9.03506 Y-5.73845
G0 Z6.5
X-7.39369 Y-5.22549
G1 Z4.3 F927.2
X-8.92659 Y-5.96369 Z4. F2781.7
X-12.86371 Y-7.85971 F3709.
G02 X-13.86485 Y-7.5094 I-0.32303 J0.68253
X-14.58185 Y-5.73764 I2.38662 J1.99679
G1 X-14.56788 Y-5.66068
X-14.51621 Y-5.51303
X-14.47915 Y-5.44415
X-14.38438 Y-5.31968
X-14.32785 Y-5.26563
X-14.19926 Y-5.17654
X-14.16536 Y-5.1568
X-6.57193 Y-1.5
X-15.
G02 X-15.75 Y-0.75 I0.0051 J0.7551
X-15.62726 Y1.15739 I3.01664 J0.76352
G1 X-15.58129 Y1.22067
X-15.47067 Y1.33128
X-15.40739 Y1.37726
X-15.26801 Y1.44828
X-15.19362 Y1.47245
X-15.03911 Y1.49692
X-15. Y1.5
X-6.57193
X-14.16536 Y5.1568
G02 X-14.51567 Y6.15794 I0.33222 J0.67811
X-13.5775 Y7.82319 I3.04918 J-0.62096
G1 X-13.50862 Y7.86025
X-13.36097 Y7.91192
X-13.28401 Y7.92588
X-13.12761 Y7.9294
X-13.0501 Y7.9189
X-12.90028 Y7.8739
X-12.86371 Y7.85971
X-5.27028 Y4.20291
X-8.32418 Y8.03238
G02 X-7.73781 Y9.25 I0.59104 J0.46537
X-5.56339 Y9.20303 I0.97015 J-5.44258
G1 X-5.42911 Y9.13836
X-5.36754 Y9.09638
X-5.25828 Y8.99501
X-5.23286 Y8.96762
X-2.92478 Y6.07338
G02 X-3.45458 Y8.5559 I7.35298 J2.86699
X-2.70936 Y9.25 I0.74996 J-0.0581
X-0.88471 Y9.19075 I0.78114 J-4.06947
G1 X-0.73811 Y9.10972
X-0.67263 Y9.0575
X-0.56101 Y8.9326
X-0.51645 Y8.86169
X-0.45235 Y8.70693
X-0.43959 Y8.66689
X0. Y6.74094
G02 X0.56101 Y8.9326 I5.12203 J-0.14348
G1 X0.67263 Y9.0575
X0.73811 Y9.10972
X0.88471 Y9.19075
X0.96377 Y9.21841
X1.1289 Y9.24647
X1.17078 Y9.25
G02 X3.01327 Y9.18273 I0.78184 J-3.85187
X3.44055 Y8.33311 I-0.30853 J-0.68742
G1 X2.92478 Y6.07338
X5.23286 Y8.96762
X5.25828 Y8.99501
X5.36753 Y9.09638
X5.42911 Y9.13836
X5.56339 Y9.20303
X5.6346 Y9.22499
X5.78198 Y9.24721
X5.81924 Y9.25
G02 X7.96696 Y9.21108 I0.95928 J-6.34176
X8.32418 Y8.03238 I-0.23154 J-0.71365
G1 X5.27028 Y4.20291
X9.67459 Y6.32391
G02 X10.75 Y5.64818 I0.32271 J-0.68003
X10.65156 Y3.61518 I-3.59682 J-0.84472
G1 X10.61437 Y3.556
X10.52418 Y3.4492
X10.47207 Y3.40262
X10.35583 Y3.32496
X10.32541 Y3.30758
X6.57193 Y1.5
X10.
G02 X10.75 Y0.75 I-0.0051 J-0.7551
X10.62726 Y-1.15739 I-3.01664 J-0.76353
G1 X10.58128 Y-1.22067
X10.47067 Y-1.33129
X10.40739 Y-1.37726
X10.26801 Y-1.44828
X10.19362 Y-1.47245
X10.03911 Y-1.49692
X10. Y-1.5
X6.57193
G02 X8.12707 Y-2.36977 I-0.66147 J-3.00788
G1 X8.16435 Y-2.43321
X8.21941 Y-2.56967
X8.23661 Y-2.64121
X8.24956 Y-2.78779
X8.24518 Y-2.86124
X8.21491 Y-3.00524
X8.20468 Y-3.04069
G02 X7.49284 Y-4.51884 I-8.20468 J3.04069
X6.52518 Y-4.80724 I-0.64429 J0.3942
G1 X5.27028 Y-4.20291
G02 X6.29404 Y-5.66129 I-1.90103 J-2.42301
G1 X6.30009 Y-5.73462
X6.2905 Y-5.88146
X6.27495 Y-5.95338
X6.22302 Y-6.09106
X6.18721 Y-6.15534
X6.09745 Y-6.27195
X6.07285 Y-6.29944
G02 X4.79016 Y-7.32235 I-6.07285 J6.29944
X3.7932 Y-7.16234 I-0.40945 J0.6347
G1 X2.77005 Y-5.87934
G02 X1.51859 Y-3.15339 I-0.60063 J1.3745
G03 X-1.51859 I-1.51859 J3.15339
G02 X-2.46806 Y-5.97481 I-0.65083 J-1.35145
G1 X-2.506 Y-5.96393
X-2.76124 Y-5.8683
G02 X-3.98658 Y-7.33138 I-4.31118 J2.36598
G1 X-4.1188 Y-7.39599
X-4.18894 Y-7.41821
X-4.33423 Y-7.44153
X-4.4078 Y-7.44237
X-4.5536 Y-7.42239
X-4.62423 Y-7.40178
X-4.75789 Y-7.34022
X-4.79016 Y-7.32235
G02 X-6.07285 Y-6.29944 I4.79016 J7.32235
X-6.1387 Y-5.29187 I0.52768 J0.54042
G1 X-5.27028 Y-4.20291
X-8.92659 Y-5.96369
X-9.03506 Y-5.73845
X-12.97218 Y-7.63447
X-13.122 Y-7.67946
X-13.2784 Y-7.67595
X-13.42606 Y-7.62428
X-13.55052 Y-7.52951
X-13.63961 Y-7.40093
G02 X-14.33191 Y-5.74325 I2.20475 J1.89419
G1 X-14.28024 Y-5.5956
X-14.18548 Y-5.47113
X-14.05689 Y-5.38204
X-6.0963 Y-1.54843
X-6.06944 Y-1.49145
X-6.11549 Y-1.28968
X-6.16441 Y-1.25
X-15.
X-15.15451 Y-1.22553
X-15.29389 Y-1.15451
X-15.40451 Y-1.04389
X-15.47553 Y-0.90451
X-15.5 Y-0.75
G02 X-15.40451 Y1.04389 I2.80826 J0.75
G1 X-15.29389 Y1.15451
X-15.15451 Y1.22553
X-15. Y1.25
X-6.16441
X-6.11549 Y1.28968
X-6.06944 Y1.49145
X-6.0963 Y1.54843
X-14.05689 Y5.38204
X-14.18548 Y5.47113
X-14.28024 Y5.5956
X-14.33191 Y5.74325
X-14.33542 Y5.89965
X-14.29043 Y6.04947
G02 X-13.42606 Y7.62428 I2.85557 J-0.54273
G1 X-13.2784 Y7.67595
X-13.122 Y7.67946
X-12.97218 Y7.63447
X-5.01159 Y3.80085
X-4.95029 Y3.81538
X-4.82126 Y3.97718
X-4.82074 Y4.04017
X-8.12873 Y8.18825
X-8.23641 Y8.53736
X-8.0779 Y8.86653
X-7.73781 Y9.
X-5.81924
X-5.67186 Y8.97779
X-5.53758 Y8.91312
X-5.42832 Y8.81175
X-2.86616 Y5.59889
X-2.80463 Y5.58539
X-2.61817 Y5.67518
X-2.59037 Y5.73171
X-3.19682 Y8.38874
X-3.20483 Y8.56712
X-3.14966 Y8.73693
X-3.03833 Y8.87654
X-2.88505 Y8.96812
X-2.70936 Y9.
X-1.17078
X-1.00564 Y8.97194
X-0.85904 Y8.89092
X-0.74742 Y8.76602
X-0.68332 Y8.61126
X-0.15305 Y6.28801
X-0.10348 Y6.24914
X0.10348
X0.15305 Y6.28801
X0.68332 Y8.61126
X0.74742 Y8.76602
X0.85904 Y8.89092
X1.00564 Y8.97194
X1.17078 Y9.
X2.70936
X2.88504 Y8.96812
X3.03833 Y8.87654
X3.14965 Y8.73693
X3.20483 Y8.56712
X3.19682 Y8.38874
X2.59037 Y5.73171
X2.61817 Y5.67518
X2.80463 Y5.58539
X2.86616 Y5.59889
X5.42832 Y8.81175
X5.53758 Y8.91312
X5.67186 Y8.97779
X5.81924 Y9.
X7.73781
X8.0779 Y8.86653
X8.23641 Y8.53736
X8.12873 Y8.18825
X4.82074 Y4.04017
X4.82126 Y3.97718
X4.95029 Y3.81538
X5.01159 Y3.80085
X9.78306 Y6.09867
X10.11126 Y6.13565
X10.39092 Y5.95993
X10.5 Y5.64818
Y3.98331
X10.48046 Y3.84489
X10.42336 Y3.71729
X10.33317 Y3.61049
X10.21694 Y3.53282
X6.0963 Y1.54843
X6.06944 Y1.49145
X6.11549 Y1.28968
X6.16441 Y1.25
X10.
X10.15451 Y1.22553
X10.29389 Y1.15451
X10.40451 Y1.04389
X10.47553 Y0.90451
X10.5 Y0.75
G02 X10.40451 Y-1.04389 I-2.80826 J-0.75
G1 X10.29389 Y-1.15451
X10.15451 Y-1.22553
X10. Y-1.25
X6.16441
X6.11549 Y-1.28968
X6.06944 Y-1.49145
X6.0963 Y-1.54843
X7.71836 Y-2.32957
X7.8401 Y-2.41223
X7.93251 Y-2.52676
X7.98758 Y-2.66322
X8.00053 Y-2.8098
X7.97026 Y-2.95381
G02 X7.27876 Y-4.38973 I-7.97026 J2.95381
G1 X7.18504 Y-4.50319
X7.06236 Y-4.58445
X6.92134 Y-4.62648
X6.77418 Y-4.62564
X6.63365 Y-4.58199
X5.01159 Y-3.80085
X4.95029 Y-3.81538
X4.82126 Y-3.97718
X4.82074 Y-4.04017
X5.94324 Y-5.44774
X6.01706 Y-5.57504
X6.05063 Y-5.71832
X6.04103 Y-5.86516
X5.9891 Y-6.00285
X5.89934 Y-6.11946
G02 X4.6533 Y-7.11314 I-5.89934 J6.11946
G1 X4.51964 Y-7.1747
X4.37385 Y-7.19469
X4.22856 Y-7.17137
X4.09634 Y-7.10676
X3.98866 Y-7.00647
X2.86616 Y-5.5989
X2.81834 Y-5.58084
X2.73218 Y-5.62065
X2.71177 Y-5.63106
G02 X1.62706 Y-3.37863 I-0.54235 J1.12622
G03 X-1.62706 I-1.62706 J3.37863
G02 X-2.41829 Y-5.72982 I-0.54236 J-1.12621
G1 X-2.42743 Y-5.72787
X-2.80952 Y-5.58325
X-2.83007 Y-5.58016
X-2.85011 Y-5.58569
X-2.86616 Y-5.5989
X-3.98866 Y-7.00647
X-4.09634 Y-7.10676
X-4.22856 Y-7.17137
X-4.37385 Y-7.19469
X-4.51964 Y-7.1747
X-4.6533 Y-7.11314
G02 X-5.89934 Y-6.11946 I4.6533 J7.11314
G1 X-5.9891 Y-6.00285
X-6.04103 Y-5.86516
X-6.05063 Y-5.71832
X-6.01706 Y-5.57504
X-5.94324 Y-5.44774
X-4.82074 Y-4.04017
X-4.82126 Y-3.97718
X-4.95029 Y-3.81538
X-5.01159 Y-3.80085
X-9.03506 Y-5.73845
G0 Z6.5
X-7.39369 Y-5.22549
G1 Z4.05 F927.2
X-8.92659 Y-5.96369 Z3.75 F2781.7
X-12.86371 Y-7.85971 F3709.
G02 X-13.86485 Y-7.5094 I-0.32303 J0.68253
X-14.58185 Y-5.73764 I2.38662 J1.99679
G1 X-14.56788 Y-5.66068
X-14.51621 Y-5.51303
X-14.47915 Y-5.44415
X-14.38438 Y-5.31968
X-14.32785 Y-5.26563
X-14.19926 Y-5.17654
X-14.16536 Y-5.1568
X-6.57193 Y-1.5
X-15.
G02 X-15.75 Y-0.75 I0.0051 J0.7551
X-15.62726 Y1.15739 I3.01664 J0.76352
G1 X-15.58129 Y1.22067
X-15.47067 Y1.33128
X-15.40739 Y1.37726
X-15.26801 Y1.44828
X-15.19362 Y1.47245
X-15.03911 Y1.49692
X-15. Y1.5
X-6.57193
X-14.16536 Y5.1568
G02 X-14.51567 Y6.15794 I0.33222 J0.67811
X-13.5775 Y7.82319 I3.04918 J-0.62096
G1 X-13.50862 Y7.86025
X-13.36097 Y7.91192
X-13.28401 Y7.92588
X-13.12761 Y7.9294
X-13.0501 Y7.9189
X-12.90028 Y7.8739
X-12.86371 Y7.85971
X-5.27028 Y4.20291
X-8.32418 Y8.03238
G02 X-7.73781 Y9.25 I0.59104 J0.46537
X-5.56339 Y9.20303 I0.97015 J-5.44258
G1 X-5.42911 Y9.13836
X-5.36754 Y9.09638
X-5.25828 Y8.99501
X-5.23286 Y8.96762
X-2.92478 Y6.07338
G02 X-3.45458 Y8.5559 I7.35298 J2.86699
X-2.70936 Y9.25 I0.74996 J-0.0581
X-0.88471 Y9.19075 I0.78114 J-4.06947
G1 X-0.73811 Y9.10972
X-0.67263 Y9.0575
X-0.56101 Y8.9326
X-0.51645 Y8.86169
X-0.45235 Y8.70693
X-0.43959 Y8.66689
X0. Y6.74094
G02 X0.56101 Y8.9326 I5.12203 J-0.14348
G1 X0.67263 Y9.0575
X0.73811 Y9.10972
X0.88471 Y9.19075
X0.96377 Y9.21841
X1.1289 Y9.24647
X1.17078 Y9.25
G02 X3.01327 Y9.18273 I0.78184 J-3.85187
X3.44055 Y8.33311 I-0.30853 J-0.68742
G1 X2.92478 Y6.07338
X5.23286 Y8.96762
X5.25828 Y8.99501
X5.36753 Y9.09638
X5.42911 Y9.13836
X5.56339 Y9.20303
X5.6346 Y9.22499
X5.78198 Y9.24721
X5.81924 Y9.25
G02 X7.96696 Y9.21108 I0.95928 J-6.34176
X8.32418 Y8.03238 I-0.23154 J-0.71365
G1 X5.27028 Y4.20291
X9.67459 Y6.32391
G02 X10.75 Y5.64818 I0.32271 J-0.68003
X10.65156 Y3.61518 I-3.59682 J-0.84472
G1 X10.61437 Y3.556
X10.52418 Y3.4492
X10.47207 Y3.40262
X10.35583 Y3.32496
X10.32541 Y3.30758
X6.57193 Y1.5
X10.
G02 X10.75 Y0.75 I-0.0051 J-0.7551
X10.62726 Y-1.15739 I-3.01664 J-0.76353
G1 X10.58128 Y-1.22067
X10.47067 Y-1.33129
X10.40739 Y-1.37726
X10.26801 Y-1.44828
X10.19362 Y-1.47245
X10.03911 Y-1.49692
X10. Y-1.5
X6.57193
G02 X8.12707 Y-2.36977 I-0.66147 J-3.00788
G1 X8.16435 Y-2.43321
X8.21941 Y-2.56967
X8.23661 Y-2.64121
X8.24956 Y-2.78779
X8.24518 Y-2.86124
X8.21491 Y-3.00524
X8.20468 Y-3.04069
G02 X7.49284 Y-4.51884 I-8.20468 J3.04069
X6.52518 Y-4.80724 I-0.64429 J0.3942
G1 X5.27028 Y-4.20291
G02 X6.29404 Y-5.66129 I-1.90103 J-2.42301
G1 X6.30009 Y-5.73462
X6.2905 Y-5.88146
X6.27495 Y-5.95338
X6.22302 Y-6.09106
X6.18721 Y-6.15534
X6.09745 Y-6.27195
X6.07285 Y-6.29944
G02 X4.79016 Y-7.32235 I-6.07285 J6.29944
X3.7932 Y-7.16234 I-0.40945 J0.6347
G1 X2.77005 Y-5.87934
G02 X1.51859 Y-3.15339 I-0.60063 J1.3745
G03 X-1.51859 I-1.51859 J3.15339
G02 X-2.46806 Y-5.97481 I-0.65083 J-1.35145
G1 X-2.506 Y-5.96393
X-2.76124 Y-5.8683
G02 X-3.98658 Y-7.33138 I-4.31118 J2.36598
G1 X-4.1188 Y-7.39599
X-4.18894 Y-7.41821
X-4.33423 Y-7.44153
X-4.4078 Y-7.44237
X-4.5536 Y-7.42239
X-4.62423 Y-7.40178
X-4.75789 Y-7.34022
X-4.79016 Y-7.32235
G02 X-6.07285 Y-6.29944 I4.79016 J7.32235
X-6.1387 Y-5.29187 I0.52768 J0.54042
G1 X-5.27028 Y-4.20291
X-8.92659 Y-5.96369
X-9.03506 Y-5.73845
X-12.97218 Y-7.63447
X-13.122 Y-7.67946
X-13.2784 Y-7.67595
X-13.42606 Y-7.62428
X-13.55052 Y-7.52951
X-13.63961 Y-7.40093
G02 X-14.33191 Y-5.74325 I2.20475 J1.89419
G1 X-14.28024 Y-5.5956
X-14.18548 Y-5.47113
X-14.05689 Y-5.38204
X-6.0963 Y-1.54843
X-6.06944 Y-1.49145
X-6.11549 Y-1.28968
X-6.16441 Y-1.25
X-15.
X-15.15451 Y-1.22553
X-15.29389 Y-1.15451
X-15.40451 Y-1.04389
X-15.47553 Y-0.90451
X-15.5 Y-0.75
G02 X-15.40451 Y1.04389 I2.80826 J0.75
G1 X-15.29389 Y1.15451
X-15.15451 Y1.22553
X-15. Y1.25
X-6.16441
X-6.11549 Y1.28968
X-6.06944 Y1.49145
X-6.0963 Y1.54843
X-14.05689 Y5.38204
X-14.18548 Y5.47113
X-14.28024 Y5.5956
X-14.33191 Y5.74325
X-14.33542 Y5.89965
X-14.29043 Y6.04947
G02 X-13.42606 Y7.62428 I2.85557 J-0.54273
G1 X-13.2784 Y7.67595
X-13.122 Y7.67946
X-12.97218 Y7.63447
X-5.01159 Y3.80085
X-4.95029 Y3.81538
X-4.82126 Y3.97718
X-4.82074 Y4.04017
X-8.12873 Y8.18825
X-8.23641 Y8.53736
X-8.0779 Y8.86653
X-7.73781 Y9.
X-5.81924
X-5.67186 Y8.97779
X-5.53758 Y8.91312
X-5.42832 Y8.81175
X-2.86616 Y5.59889
X-2.80463 Y5.58539
X-2.61817 Y5.67518
X-2.59037 Y5.73171
X-3.19682 Y8.38874
X-3.20483 Y8.56712
X-3.14966 Y8.73693
X-3.03833 Y8.87654
X-2.88505 Y8.96812
X-2.70936 Y9.
X-1.17078
X-1.00564 Y8.97194
X-0.85904 Y8.89092
X-0.74742 Y8.76602
X-0.68332 Y8.61126
X-0.15305 Y6.28801
X-0.10348 Y6.24914
X0.10348
X0.15305 Y6.28801
X0.68332 Y8.61126
X0.74742 Y8.76602
X0.85904 Y8.89092
X1.00564 Y8.97194
X1.17078 Y9.
X2.70936
X2.88504 Y8.96812
X3.03833 Y8.87654
X3.14965 Y8.73693
X3.20483 Y8.56712
X3.19682 Y8.38874
X2.59037 Y5.73171
X2.61817 Y5.67518
X2.80463 Y5.58539
X2.86616 Y5.59889
X5.42832 Y8.81175
X5.53758 Y8.91312
X5.67186 Y8.97779
X5.81924 Y9.
X7.73781
X8.0779 Y8.86653
X8.23641 Y8.53736
X8.12873 Y8.18825
X4.82074 Y4.04017
X4.82126 Y3.97718
X4.95029 Y3.81538
X5.01159 Y3.80085
X9.78306 Y6.09867
X10.11126 Y6.13565
X10.39092 Y5.95993
X10.5 Y5.64818
Y3.98331
X10.48046 Y3.84489
X10.42336 Y3.71729
X10.33317 Y3.61049
X10.21694 Y3.53282
X6.0963 Y1.54843
X6.06944 Y1.49145
X6.11549 Y1.28968
X6.16441 Y1.25
X10.
X10.15451 Y1.22553
X10.29389 Y1.15451
X10.40451 Y1.04389
X10.47553 Y0.90451
X10.5 Y0.75
G02 X10.40451 Y-1.04389 I-2.80826 J-0.75
G1 X10.29389 Y-1.15451
X10.15451 Y-1.22553
X10. Y-1.25
X6.16441
X6.11549 Y-1.28968
X6.06944 Y-1.49145
X6.0963 Y-1.54843
X7.71836 Y-2.32957
X7.8401 Y-2.41223
X7.93251 Y-2.52676
X7.98758 Y-2.66322
X8.00053 Y-2.8098
X7.97026 Y-2.95381
G02 X7.27876 Y-4.38973 I-7.97026 J2.95381
G1 X7.18504 Y-4.50319
X7.06236 Y-4.58445
X6.92134 Y-4.62648
X6.77418 Y-4.62564
X6.63365 Y-4.58199
X5.01159 Y-3.80085
X4.95029 Y-3.81538
X4.82126 Y-3.97718
X4.82074 Y-4.04017
X5.94324 Y-5.44774
X6.01706 Y-5.57504
X6.05063 Y-5.71832
X6.04103 Y-5.86516
X5.9891 Y-6.00285
X5.89934 Y-6.11946
G02 X4.6533 Y-7.11314 I-5.89934 J6.11946
G1 X4.51964 Y-7.1747
X4.37385 Y-7.19469
X4.22856 Y-7.17137
X4.09634 Y-7.10676
X3.98866 Y-7.00647
X2.86616 Y-5.5989
X2.81834 Y-5.58084
X2.73218 Y-5.62065
X2.71177 Y-5.63106
G02 X1.62706 Y-3.37863 I-0.54235 J1.12622
G03 X-1.62706 I-1.62706 J3.37863
G02 X-2.41829 Y-5.72982 I-0.54236 J-1.12621
G1 X-2.42743 Y-5.72787
X-2.80952 Y-5.58325
X-2.83007 Y-5.58016
X-2.85011 Y-5.58569
X-2.86616 Y-5.5989
X-3.98866 Y-7.00647
X-4.09634 Y-7.10676
X-4.22856 Y-7.17137
X-4.37385 Y-7.19469
X-4.51964 Y-7.1747
X-4.6533 Y-7.11314
G02 X-5.89934 Y-6.11946 I4.6533 J7.11314
G1 X-5.9891 Y-6.00285
X-6.04103 Y-5.86516
X-6.05063 Y-5.71832
X-6.01706 Y-5.57504
X-5.94324 Y-5.44774
X-4.82074 Y-4.04017
X-4.82126 Y-3.97718
X-4.95029 Y-3.81538
X-5.01159 Y-3.80085
X-9.03506 Y-5.73845
G0 Z6.5
X-7.39369 Y-5.22549
G1 Z3.8 F927.2
X-8.92659 Y-5.96369 Z3.5 F2781.7
X-12.86371 Y-7.85971 F3709.
G02 X-13.86485 Y-7.5094 I-0.32303 J0.68253
X-14.58185 Y-5.73764 I2.38662 J1.99679
G1 X-14.56788 Y-5.66068
X-14.51621 Y-5.51303
X-14.47915 Y-5.44415
X-14.38438 Y-5.31968
X-14.32785 Y-5.26563
X-14.19926 Y-5.17654
X-14.16536 Y-5.1568
X-6.57193 Y-1.5
X-15.
G02 X-15.75 Y-0.75 I0.0051 J0.7551
X-15.62726 Y1.15739 I3.01664 J0.76352
G1 X-15.58129 Y1.22067
X-15.47067 Y1.33128
X-15.40739 Y1.37726
X-15.26801 Y1.44828
X-15.19362 Y1.47245
X-15.03911 Y1.49692
X-15. Y1.5
X-6.57193
X-14.16536 Y5.1568
G02 X-14.51567 Y6.15794 I0.33222 J0.67811
X-13.5775 Y7.82319 I3.04918 J-0.62096
G1 X-13.50862 Y7.86025
X-13.36097 Y7.91192
X-13.28401 Y7.92588
X-13.12761 Y7.9294
X-13.0501 Y7.9189
X-12.90028 Y7.8739
X-12.86371 Y7.85971
X-5.27028 Y4.20291
X-8.32418 Y8.03238
G02 X-7.73781 Y9.25 I0.59104 J0.46537
X-5.56339 Y9.20303 I0.97015 J-5.44258
G1 X-5.42911 Y9.13836
X-5.36754 Y9.09638
X-5.25828 Y8.99501
X-5.23286 Y8.96762
X-2.92478 Y6.07338
G02 X-3.45458 Y8.5559 I7.35298 J2.86699
X-2.70936 Y9.25 I0.74996 J-0.0581
X-0.88471 Y9.19075 I0.78114 J-4.06947
G1 X-0.73811 Y9.10972
X-0.67263 Y9.0575
X-0.56101 Y8.9326
X-0.51645 Y8.86169
X-0.45235 Y8.70693
X-0.43959 Y8.66689
X0. Y6.74094
G02 X0.56101 Y8.9326 I5.12203 J-0.14348
G1 X0.67263 Y9.0575
X0.73811 Y9.10972
X0.88471 Y9.19075
X0.96377 Y9.21841
X1.1289 Y9.24647
X1.17078 Y9.25
G02 X3.01327 Y9.18273 I0.78184 J-3.85187
X3.44055 Y8.33311 I-0.30853 J-0.68742
G1 X2.92478 Y6.07338
X5.23286 Y8.96762
X5.25828 Y8.99501
X5.36753 Y9.09638
X5.42911 Y9.13836
X5.56339 Y9.20303
X5.6346 Y9.22499
X5.78198 Y9.24721
X5.81924 Y9.25
G02 X7.96696 Y9.21108 I0.95928 J-6.34176
X8.32418 Y8.03238 I-0.23154 J-0.71365
G1 X5.27028 Y4.20291
X9.67459 Y6.32391
G02 X10.75 Y5.64818 I0.32271 J-0.68003
X10.65156 Y3.61518 I-3.59682 J-0.84472
G1 X10.61437 Y3.556
X10.52418 Y3.4492
X10.47207 Y3.40262
X10.35583 Y3.32496
X10.32541 Y3.30758
X6.57193 Y1.5
X10.
G02 X10.75 Y0.75 I-0.0051 J-0.7551
X10.62726 Y-1.15739 I-3.01664 J-0.76353
G1 X10.58128 Y-1.22067
X10.47067 Y-1.33129
X10.40739 Y-1.37726
X10.26801 Y-1.44828
X10.19362 Y-1.47245
X10.03911 Y-1.49692
X10. Y-1.5
X6.57193
G02 X8.12707 Y-2.36977 I-0.66147 J-3.00788
G1 X8.16435 Y-2.43321
X8.21941 Y-2.56967
X8.23661 Y-2.64121
X8.24956 Y-2.78779
X8.24518 Y-2.86124
X8.21491 Y-3.00524
X8.20468 Y-3.04069
G02 X7.49284 Y-4.51884 I-8.20468 J3.04069
X6.52518 Y-4.80724 I-0.64429 J0.3942
G1 X5.27028 Y-4.20291
G02 X6.29404 Y-5.66129 I-1.90103 J-2.42301
G1 X6.30009 Y-5.73462
X6.2905 Y-5.88146
X6.27495 Y-5.95338
X6.22302 Y-6.09106
X6.18721 Y-6.15534
X6.09745 Y-6.27195
X6.07285 Y-6.29944
G02 X4.79016 Y-7.32235 I-6.07285 J6.29944
X3.7932 Y-7.16234 I-0.40945 J0.6347
G1 X2.77005 Y-5.87934
G02 X1.51859 Y-3.15339 I-0.60063 J1.3745
G03 X-1.51859 I-1.51859 J3.15339
G02 X-2.46806 Y-5.97481 I-0.65083 J-1.35145
G1 X-2.506 Y-5.96393
X-2.76124 Y-5.8683
G02 X-3.98658 Y-7.33138 I-4.31118 J2.36598
G1 X-4.1188 Y-7.39599
X-4.18894 Y-7.41821
X-4.33423 Y-7.44153
X-4.4078 Y-7.44237
X-4.5536 Y-7.42239
X-4.62423 Y-7.40178
X-4.75789 Y-7.34022
X-4.79016 Y-7.32235
G02 X-6.07285 Y-6.29944 I4.79016 J7.32235
X-6.1387 Y-5.29187 I0.52768 J0.54042
G1 X-5.27028 Y-4.20291
X-8.92659 Y-5.96369
X-9.03506 Y-5.73845
X-12.97218 Y-7.63447
X-13.122 Y-7.67946
X-13.2784 Y-7.67595
X-13.42606 Y-7.62428
X-13.55052 Y-7.52951
X-13.63961 Y-7.40093
G02 X-14.33191 Y-5.74325 I2.20475 J1.89419
G1 X-14.28024 Y-5.5956
X-14.18548 Y-5.47113
X-14.05689 Y-5.38204
X-6.0963 Y-1.54843
X-6.06944 Y-1.49145
X-6.11549 Y-1.28968
X-6.16441 Y-1.25
X-15.
X-15.15451 Y-1.22553
X-15.29389 Y-1.15451
X-15.40451 Y-1.04389
X-15.47553 Y-0.90451
X-15.5 Y-0.75
G02 X-15.40451 Y1.04389 I2.80826 J0.75
G1 X-15.29389 Y1.15451
X-15.15451 Y1.22553
X-15. Y1.25
X-6.16441
X-6.11549 Y1.28968
X-6.06944 Y1.49145
X-6.0963 Y1.54843
X-14.05689 Y5.38204
X-14.18548 Y5.47113
X-14.28024 Y5.5956
X-14.33191 Y5.74325
X-14.33542 Y5.89965
X-14.29043 Y6.04947
G02 X-13.42606 Y7.62428 I2.85557 J-0.54273
G1 X-13.2784 Y7.67595
X-13.122 Y7.67946
X-12.97218 Y7.63447
X-5.01159 Y3.80085
X-4.95029 Y3.81538
X-4.82126 Y3.97718
X-4.82074 Y4.04017
X-8.12873 Y8.18825
X-8.23641 Y8.53736
X-8.0779 Y8.86653
X-7.73781 Y9.
X-5.81924
X-5.67186 Y8.97779
X-5.53758 Y8.91312
X-5.42832 Y8.81175
X-2.86616 Y5.59889
X-2.80463 Y5.58539
X-2.61817 Y5.67518
X-2.59037 Y5.73171
X-3.19682 Y8.38874
X-3.20483 Y8.56712
X-3.14966 Y8.73693
X-3.03833 Y8.87654
X-2.88505 Y8.96812
X-2.70936 Y9.
X-1.17078
X-1.00564 Y8.97194
X-0.85904 Y8.89092
X-0.74742 Y8.76602
X-0.68332 Y8.61126
X-0.15305 Y6.28801
X-0.10348 Y6.24914
X0.10348
X0.15305 Y6.28801
X0.68332 Y8.61126
X0.74742 Y8.76602
X0.85904 Y8.89092
X1.00564 Y8.97194
X1.17078 Y9.
X2.70936
X2.88504 Y8.96812
X3.03833 Y8.87654
X3.14965 Y8.73693
X3.20483 Y8.56712
X3.19682 Y8.38874
X2.59037 Y5.73171
X2.61817 Y5.67518
X2.80463 Y5.58539
X2.86616 Y5.59889
X5.42832 Y8.81175
X5.53758 Y8.91312
X5.67186 Y8.97779
X5.81924 Y9.
X7.73781
X8.0779 Y8.86653
X8.23641 Y8.53736
X8.12873 Y8.18825
X4.82074 Y4.04017
X4.82126 Y3.97718
X4.95029 Y3.81538
X5.01159 Y3.80085
X9.78306 Y6.09867
X10.11126 Y6.13565
X10.39092 Y5.95993
X10.5 Y5.64818
Y3.98331
X10.48046 Y3.84489
X10.42336 Y3.71729
X10.33317 Y3.61049
X10.21694 Y3.53282
X6.0963 Y1.54843
X6.06944 Y1.49145
X6.11549 Y1.28968
X6.16441 Y1.25
X10.
X10.15451 Y1.22553
X10.29389 Y1.15451
X10.40451 Y1.04389
X10.47553 Y0.90451
X10.5 Y0.75
G02 X10.40451 Y-1.04389 I-2.80826 J-0.75
G1 X10.29389 Y-1.15451
X10.15451 Y-1.22553
X10. Y-1.25
X6.16441
X6.11549 Y-1.28968
X6.06944 Y-1.49145
X6.0963 Y-1.54843
X7.71836 Y-2.32957
X7.8401 Y-2.41223
X7.93251 Y-2.52676
X7.98758 Y-2.66322
X8.00053 Y-2.8098
X7.97026 Y-2.95381
G02 X7.27876 Y-4.38973 I-7.97026 J2.95381
G1 X7.18504 Y-4.50319
X7.06236 Y-4.58445
X6.92134 Y-4.62648
X6.77418 Y-4.62564
X6.63365 Y-4.58199
X5.01159 Y-3.80085
X4.95029 Y-3.81538
X4.82126 Y-3.97718
X4.82074 Y-4.04017
X5.94324 Y-5.44774
X6.01706 Y-5.57504
X6.05063 Y-5.71832
X6.04103 Y-5.86516
X5.9891 Y-6.00285
X5.89934 Y-6.11946
G02 X4.6533 Y-7.11314 I-5.89934 J6.11946
G1 X4.51964 Y-7.1747
X4.37385 Y-7.19469
X4.22856 Y-7.17137
X4.09634 Y-7.10676
X3.98866 Y-7.00647
X2.86616 Y-5.5989
X2.81834 Y-5.58084
X2.73218 Y-5.62065
X2.71177 Y-5.63106
G02 X1.62706 Y-3.37863 I-0.54235 J1.12622
G03 X-1.62706 I-1.62706 J3.37863
G02 X-2.41829 Y-5.72982 I-0.54236 J-1.12621
G1 X-2.42743 Y-5.72787
X-2.80952 Y-5.58325
X-2.83007 Y-5.58016
X-2.85011 Y-5.58569
X-2.86616 Y-5.5989
X-3.98866 Y-7.00647
X-4.09634 Y-7.10676
X-4.22856 Y-7.17137
X-4.37385 Y-7.19469
X-4.51964 Y-7.1747
X-4.6533 Y-7.11314
G02 X-5.89934 Y-6.11946 I4.6533 J7.11314
G1 X-5.9891 Y-6.00285
X-6.04103 Y-5.86516
X-6.05063 Y-5.71832
X-6.01706 Y-5.57504
X-5.94324 Y-5.44774
X-4.82074 Y-4.04017
X-4.82126 Y-3.97718
X-4.95029 Y-3.81538
X-5.01159 Y-3.80085
X-9.03506 Y-5.73845
G0 Z6.5
X-7.39369 Y-5.22549
G1 Z3.55 F927.2
X-8.92659 Y-5.96369 Z3.25 F2781.7
X-12.86371 Y-7.85971 F3709.
G02 X-13.86485 Y-7.5094 I-0.32303 J0.68253
X-14.58185 Y-5.73764 I2.38662 J1.99679
G1 X-14.56788 Y-5.66068
X-14.51621 Y-5.51303
X-14.47915 Y-5.44415
X-14.38438 Y-5.31968
X-14.32785 Y-5.26563
X-14.19926 Y-5.17654
X-14.16536 Y-5.1568
X-6.57193 Y-1.5
X-15.
G02 X-15.75 Y-0.75 I0.0051 J0.7551
X-15.62726 Y1.15739 I3.01664 J0.76352
G1 X-15.58129 Y1.22067
X-15.47067 Y1.33128
X-15.40739 Y1.37726
X-15.26801 Y1.44828
X-15.19362 Y1.47245
X-15.03911 Y1.49692
X-15. Y1.5
X-6.57193
X-14.16536 Y5.1568
G02 X-14.51567 Y6.15794 I0.33222 J0.67811
X-13.5775 Y7.82319 I3.04918 J-0.62096
G1 X-13.50862 Y7.86025
X-13.36097 Y7.91192
X-13.28401 Y7.92588
X-13.12761 Y7.9294
X-13.0501 Y7.9189
X-12.90028 Y7.8739
X-12.86371 Y7.85971
X-5.27028 Y4.20291
X-8.32418 Y8.03238
G02 X-7.73781 Y9.25 I0.59104 J0.46537
X-5.56339 Y9.20303 I0.97015 J-5.44258
G1 X-5.42911 Y9.13836
X-5.36754 Y9.09638
X-5.25828 Y8.99501
X-5.23286 Y8.96762
X-2.92478 Y6.07338
G02 X-3.45458 Y8.5559 I7.35298 J2.86699
X-2.70936 Y9.25 I0.74996 J-0.0581
X-0.88471 Y9.19075 I0.78114 J-4.06947
G1 X-0.73811 Y9.10972
X-0.67263 Y9.0575
X-0.56101 Y8.9326
X-0.51645 Y8.86169
X-0.45235 Y8.70693
X-0.43959 Y8.66689
X0. Y6.74094
G02 X0.56101 Y8.9326 I5.12203 J-0.14348
G1 X0.67263 Y9.0575
X0.73811 Y9.10972
X0.88471 Y9.19075
X0.96377 Y9.21841
X1.1289 Y9.24647
X1.17078 Y9.25
G02 X3.01327 Y9.18273 I0.78184 J-3.85187
X3.44055 Y8.33311 I-0.30853 J-0.68742
G1 X2.92478 Y6.07338
X5.23286 Y8.96762
X5.25828 Y8.99501
X5.36753 Y9.09638
X5.42911 Y9.13836
X5.56339 Y9.20303
X5.6346 Y9.22499
X5.78198 Y9.24721
X5.81924 Y9.25
G02 X7.96696 Y9.21108 I0.95928 J-6.34176
X8.32418 Y8.03238 I-0.23154 J-0.71365
G1 X5.27028 Y4.20291
X9.67459 Y6.32391
G02 X10.75 Y5.64818 I0.32271 J-0.68003
X10.65156 Y3.61518 I-3.59682 J-0.84472
G1 X10.61437 Y3.556
X10.52418 Y3.4492
X10.47207 Y3.40262
X10.35583 Y3.32496
X10.32541 Y3.30758
X6.57193 Y1.5
X10.
G02 X10.75 Y0.75 I-0.0051 J-0.7551
X10.62726 Y-1.15739 I-3.01664 J-0.76353
G1 X10.58128 Y-1.22067
X10.47067 Y-1.33129
X10.40739 Y-1.37726
X10.26801 Y-1.44828
X10.19362 Y-1.47245
X10.03911 Y-1.49692
X10. Y-1.5
X6.57193
G02 X8.12707 Y-2.36977 I-0.66147 J-3.00788
G1 X8.16435 Y-2.43321
X8.21941 Y-2.56967
X8.23661 Y-2.64121
X8.24956 Y-2.78779
X8.24518 Y-2.86124
X8.21491 Y-3.00524
X8.20468 Y-3.04069
G02 X7.49284 Y-4.51884 I-8.20468 J3.04069
X6.52518 Y-4.80724 I-0.64429 J0.3942
G1 X5.27028 Y-4.20291
G02 X6.29404 Y-5.66129 I-1.90103 J-2.42301
G1 X6.30009 Y-5.73462
X6.2905 Y-5.88146
X6.27495 Y-5.95338
X6.22302 Y-6.09106
X6.18721 Y-6.15534
X6.09745 Y-6.27195
X6.07285 Y-6.29944
G02 X4.79016 Y-7.32235 I-6.07285 J6.29944
X3.7932 Y-7.16234 I-0.40945 J0.6347
G1 X2.77005 Y-5.87934
G02 X1.51859 Y-3.15339 I-0.60063 J1.3745
G03 X-1.51859 I-1.51859 J3.15339
G02 X-2.46806 Y-5.97481 I-0.65083 J-1.35145
G1 X-2.506 Y-5.96393
X-2.76124 Y-5.8683
G02 X-3.98658 Y-7.33138 I-4.31118 J2.36598
G1 X-4.1188 Y-7.39599
X-4.18894 Y-7.41821
X-4.33423 Y-7.44153
X-4.4078 Y-7.44237
X-4.5536 Y-7.42239
X-4.62423 Y-7.40178
X-4.75789 Y-7.34022
X-4.79016 Y-7.32235
G02 X-6.07285 Y-6.29944 I4.79016 J7.32235
X-6.1387 Y-5.29187 I0.52768 J0.54042
G1 X-5.27028 Y-4.20291
X-8.92659 Y-5.96369
X-9.03506 Y-5.73845
X-12.97218 Y-7.63447
X-13.122 Y-7.67946
X-13.2784 Y-7.67595
X-13.42606 Y-7.62428
X-13.55052 Y-7.52951
X-13.63961 Y-7.40093
G02 X-14.33191 Y-5.74325 I2.20475 J1.89419
G1 X-14.28024 Y-5.5956
X-14.18548 Y-5.47113
X-14.05689 Y-5.38204
X-6.0963 Y-1.54843
X-6.06944 Y-1.49145
X-6.11549 Y-1.28968
X-6.16441 Y-1.25
X-15.
X-15.15451 Y-1.22553
X-15.29389 Y-1.15451
X-15.40451 Y-1.04389
X-15.47553 Y-0.90451
X-15.5 Y-0.75
G02 X-15.40451 Y1.04389 I2.80826 J0.75
G1 X-15.29389 Y1.15451
X-15.15451 Y1.22553
X-15. Y1.25
X-6.16441
X-6.11549 Y1.28968
X-6.06944 Y1.49145
X-6.0963 Y1.54843
X-14.05689 Y5.38204
X-14.18548 Y5.47113
X-14.28024 Y5.5956
X-14.33191 Y5.74325
X-14.33542 Y5.89965
X-14.29043 Y6.04947
G02 X-13.42606 Y7.62428 I2.85557 J-0.54273
G1 X-13.2784 Y7.67595
X-13.122 Y7.67946
X-12.97218 Y7.63447
X-5.01159 Y3.80085
X-4.95029 Y3.81538
X-4.82126 Y3.97718
X-4.82074 Y4.04017
X-8.12873 Y8.18825
X-8.23641 Y8.53736
X-8.0779 Y8.86653
X-7.73781 Y9.
X-5.81924
X-5.67186 Y8.97779
X-5.53758 Y8.91312
X-5.42832 Y8.81175
X-2.86616 Y5.59889
X-2.80463 Y5.58539
X-2.61817 Y5.67518
X-2.59037 Y5.73171
X-3.19682 Y8.38874
X-3.20483 Y8.56712
X-3.14966 Y8.73693
X-3.03833 Y8.87654
X-2.88505 Y8.96812
X-2.70936 Y9.
X-1.17078
X-1.00564 Y8.97194
X-0.85904 Y8.89092
X-0.74742 Y8.76602
X-0.68332 Y8.61126
X-0.15305 Y6.28801
X-0.10348 Y6.24914
X0.10348
X0.15305 Y6.28801
X0.68332 Y8.61126
X0.74742 Y8.76602
X0.85904 Y8.89092
X1.00564 Y8.97194
X1.17078 Y9.
X2.70936
X2.88504 Y8.96812
X3.03833 Y8.87654
X3.14965 Y8.73693
X3.20483 Y8.56712
X3.19682 Y8.38874
X2.59037 Y5.73171
X2.61817 Y5.67518
X2.80463 Y5.58539
X2.86616 Y5.59889
X5.42832 Y8.81175
X5.53758 Y8.91312
X5.67186 Y8.97779
X5.81924 Y9.
X7.73781
X8.0779 Y8.86653
X8.23641 Y8.53736
X8.12873 Y8.18825
X4.82074 Y4.04017
X4.82126 Y3.97718
X4.95029 Y3.81538
X5.01159 Y3.80085
X9.78306 Y6.09867
X10.11126 Y6.13565
X10.39092 Y5.95993
X10.5 Y5.64818
Y3.98331
X10.48046 Y3.84489
X10.42336 Y3.71729
X10.33317 Y3.61049
X10.21694 Y3.53282
X6.0963 Y1.54843
X6.06944 Y1.49145
X6.11549 Y1.28968
X6.16441 Y1.25
X10.
X10.15451 Y1.22553
X10.29389 Y1.15451
X10.40451 Y1.04389
X10.47553 Y0.90451
X10.5 Y0.75
G02 X10.40451 Y-1.04389 I-2.80826 J-0.75
G1 X10.29389 Y-1.15451
X10.15451 Y-1.22553
X10. Y-1.25
X6.16441
X6.11549 Y-1.28968
X6.06944 Y-1.49145
X6.0963 Y-1.54843
X7.71836 Y-2.32957
X7.8401 Y-2.41223
X7.93251 Y-2.52676
X7.98758 Y-2.66322
X8.00053 Y-2.8098
X7.97026 Y-2.95381
G02 X7.27876 Y-4.38973 I-7.97026 J2.95381
G1 X7.18504 Y-4.50319
X7.06236 Y-4.58445
X6.92134 Y-4.62648
X6.77418 Y-4.62564
X6.63365 Y-4.58199
X5.01159 Y-3.80085
X4.95029 Y-3.81538
X4.82126 Y-3.97718
X4.82074 Y-4.04017
X5.94324 Y-5.44774
X6.01706 Y-5.57504
X6.05063 Y-5.71832
X6.04103 Y-5.86516
X5.9891 Y-6.00285
X5.89934 Y-6.11946
G02 X4.6533 Y-7.11314 I-5.89934 J6.11946
G1 X4.51964 Y-7.1747
X4.37385 Y-7.19469
X4.22856 Y-7.17137
X4.09634 Y-7.10676
X3.98866 Y-7.00647
X2.86616 Y-5.5989
X2.81834 Y-5.58084
X2.73218 Y-5.62065
X2.71177 Y-5.63106
G02 X1.62706 Y-3.37863 I-0.54235 J1.12622
G03 X-1.62706 I-1.62706 J3.37863
G02 X-2.41829 Y-5.72982 I-0.54236 J-1.12621
G1 X-2.42743 Y-5.72787
X-2.80952 Y-5.58325
X-2.83007 Y-5.58016
X-2.85011 Y-5.58569
X-2.86616 Y-5.5989
X-3.98866 Y-7.00647
X-4.09634 Y-7.10676
X-4.22856 Y-7.17137
X-4.37385 Y-7.19469
X-4.51964 Y-7.1747
X-4.6533 Y-7.11314
G02 X-5.89934 Y-6.11946 I4.6533 J7.11314
G1 X-5.9891 Y-6.00285
X-6.04103 Y-5.86516
X-6.05063 Y-5.71832
X-6.01706 Y-5.57504
X-5.94324 Y-5.44774
X-4.82074 Y-4.04017
X-4.82126 Y-3.97718
X-4.95029 Y-3.81538
X-5.01159 Y-3.80085
X-9.03506 Y-5.73845
G0 Z6.5
X-7.39369 Y-5.22549
G1 Z3.3 F927.2
X-8.92659 Y-5.96369 Z3. F2781.7
X-12.86371 Y-7.85971 F3709.
G02 X-13.86485 Y-7.5094 I-0.32303 J0.68253
X-14.58185 Y-5.73764 I2.38662 J1.99679
G1 X-14.56788 Y-5.66068
X-14.51621 Y-5.51303
X-14.47915 Y-5.44415
X-14.38438 Y-5.31968
X-14.32785 Y-5.26563
X-14.19926 Y-5.17654
X-14.16536 Y-5.1568
X-6.57193 Y-1.5
X-15.
G02 X-15.75 Y-0.75 I0.0051 J0.7551
X-15.62726 Y1.15739 I3.01664 J0.76352
G1 X-15.58129 Y1.22067
X-15.47067 Y1.33128
X-15.40739 Y1.37726
X-15.26801 Y1.44828
X-15.19362 Y1.47245
X-15.03911 Y1.49692
X-15. Y1.5
X-6.57193
X-14.16536 Y5.1568
G02 X-14.51567 Y6.15794 I0.33222 J0.67811
X-13.5775 Y7.82319 I3.04918 J-0.62096
G1 X-13.50862 Y7.86025
X-13.36097 Y7.91192
X-13.28401 Y7.92588
X-13.12761 Y7.9294
X-13.0501 Y7.9189
X-12.90028 Y7.8739
X-12.86371 Y7.85971
X-5.27028 Y4.20291
X-8.32418 Y8.03238
G02 X-7.73781 Y9.25 I0.59104 J0.46537
X-5.56339 Y9.20303 I0.97015 J-5.44258
G1 X-5.42911 Y9.13836
X-5.36754 Y9.09638
X-5.25828 Y8.99501
X-5.23286 Y8.96762
X-2.92478 Y6.07338
G02 X-3.45458 Y8.5559 I7.35298 J2.86699
X-2.70936 Y9.25 I0.74996 J-0.0581
X-0.88471 Y9.19075 I0.78114 J-4.06947
G1 X-0.73811 Y9.10972
X-0.67263 Y9.0575
X-0.56101 Y8.9326
X-0.51645 Y8.86169
X-0.45235 Y8.70693
X-0.43959 Y8.66689
X0. Y6.74094
G02 X0.56101 Y8.9326 I5.12203 J-0.14348
G1 X0.67263 Y9.0575
X0.73811 Y9.10972
X0.88471 Y9.19075
X0.96377 Y9.21841
X1.1289 Y9.24647
X1.17078 Y9.25
G02 X3.01327 Y9.18273 I0.78184 J-3.85187
X3.44055 Y8.33311 I-0.30853 J-0.68742
G1 X2.92478 Y6.07338
X5.23286 Y8.96762
X5.25828 Y8.99501
X5.36753 Y9.09638
X5.42911 Y9.13836
X5.56339 Y9.20303
X5.6346 Y9.22499
X5.78198 Y9.24721
X5.81924 Y9.25
G02 X7.96696 Y9.21108 I0.95928 J-6.34176
X8.32418 Y8.03238 I-0.23154 J-0.71365
G1 X5.27028 Y4.20291
X9.67459 Y6.32391
G02 X10.75 Y5.64818 I0.32271 J-0.68003
X10.65156 Y3.61518 I-3.59682 J-0.84472
G1 X10.61437 Y3.556
X10.52418 Y3.4492
X10.47207 Y3.40262
X10.35583 Y3.32496
X10.32541 Y3.30758
X6.57193 Y1.5
X10.
G02 X10.75 Y0.75 I-0.0051 J-0.7551
X10.62726 Y-1.15739 I-3.01664 J-0.76353
G1 X10.58128 Y-1.22067
X10.47067 Y-1.33129
X10.40739 Y-1.37726
X10.26801 Y-1.44828
X10.19362 Y-1.47245
X10.03911 Y-1.49692
X10. Y-1.5
X6.57193
G02 X8.12707 Y-2.36977 I-0.66147 J-3.00788
G1 X8.16435 Y-2.43321
X8.21941 Y-2.56967
X8.23661 Y-2.64121
X8.24956 Y-2.78779
X8.24518 Y-2.86124
X8.21491 Y-3.00524
X8.20468 Y-3.04069
G02 X7.49284 Y-4.51884 I-8.20468 J3.04069
X6.52518 Y-4.80724 I-0.64429 J0.3942
G1 X5.27028 Y-4.20291
G02 X6.29404 Y-5.66129 I-1.90103 J-2.42301
G1 X6.30009 Y-5.73462
X6.2905 Y-5.88146
X6.27495 Y-5.95338
X6.22302 Y-6.09106
X6.18721 Y-6.15534
X6.09745 Y-6.27195
X6.07285 Y-6.29944
G02 X4.79016 Y-7.32235 I-6.07285 J6.29944
X3.7932 Y-7.16234 I-0.40945 J0.6347
G1 X2.77005 Y-5.87934
G02 X1.51859 Y-3.15339 I-0.60063 J1.3745
G03 X-1.51859 I-1.51859 J3.15339
G02 X-2.46806 Y-5.97481 I-0.65083 J-1.35145
G1 X-2.506 Y-5.96393
X-2.76124 Y-5.8683
G02 X-3.98658 Y-7.33138 I-4.31118 J2.36598
G1 X-4.1188 Y-7.39599
X-4.18894 Y-7.41821
X-4.33423 Y-7.44153
X-4.4078 Y-7.44237
X-4.5536 Y-7.42239
X-4.62423 Y-7.40178
X-4.75789 Y-7.34022
X-4.79016 Y-7.32235
G02 X-6.07285 Y-6.29944 I4.79016 J7.32235
X-6.1387 Y-5.29187 I0.52768 J0.54042
G1 X-5.27028 Y-4.20291
X-8.92659 Y-5.96369
X-9.03506 Y-5.73845
X-12.97218 Y-7.63447
X-13.122 Y-7.67946
X-13.2784 Y-7.67595
X-13.42606 Y-7.62428
X-13.55052 Y-7.52951
X-13.63961 Y-7.40093
G02 X-14.33191 Y-5.74325 I2.20475 J1.89419
G1 X-14.28024 Y-5.5956
X-14.18548 Y-5.47113
X-14.05689 Y-5.38204
X-6.0963 Y-1.54843
X-6.06944 Y-1.49145
X-6.11549 Y-1.28968
X-6.16441 Y-1.25
X-15.
X-15.15451 Y-1.22553
X-15.29389 Y-1.15451
X-15.40451 Y-1.04389
X-15.47553 Y-0.90451
X-15.5 Y-0.75
G02 X-15.40451 Y1.04389 I2.80826 J0.75
G1 X-15.29389 Y1.15451
X-15.15451 Y1.22553
X-15. Y1.25
X-6.16441
X-6.11549 Y1.28968
X-6.06944 Y1.49145
X-6.0963 Y1.54843
X-14.05689 Y5.38204
X-14.18548 Y5.47113
X-14.28024 Y5.5956
X-14.33191 Y5.74325
X-14.33542 Y5.89965
X-14.29043 Y6.04947
G02 X-13.42606 Y7.62428 I2.85557 J-0.54273
G1 X-13.2784 Y7.67595
X-13.122 Y7.67946
X-12.97218 Y7.63447
X-5.01159 Y3.80085
X-4.95029 Y3.81538
X-4.82126 Y3.97718
X-4.82074 Y4.04017
X-8.12873 Y8.18825
X-8.23641 Y8.53736
X-8.0779 Y8.86653
X-7.73781 Y9.
X-5.81924
X-5.67186 Y8.97779
X-5.53758 Y8.91312
X-5.42832 Y8.81175
X-2.86616 Y5.59889
X-2.80463 Y5.58539
X-2.61817 Y5.67518
X-2.59037 Y5.73171
X-3.19682 Y8.38874
X-3.20483 Y8.56712
X-3.14966 Y8.73693
X-3.03833 Y8.87654
X-2.88505 Y8.96812
X-2.70936 Y9.
X-1.17078
X-1.00564 Y8.97194
X-0.85904 Y8.89092
X-0.74742 Y8.76602
X-0.68332 Y8.61126
X-0.15305 Y6.28801
X-0.10348 Y6.24914
X0.10348
X0.15305 Y6.28801
X0.68332 Y8.61126
X0.74742 Y8.76602
X0.85904 Y8.89092
X1.00564 Y8.97194
X1.17078 Y9.
X2.70936
X2.88504 Y8.96812
X3.03833 Y8.87654
X3.14965 Y8.73693
X3.20483 Y8.56712
X3.19682 Y8.38874
X2.59037 Y5.73171
X2.61817 Y5.67518
X2.80463 Y5.58539
X2.86616 Y5.59889
X5.42832 Y8.81175
X5.53758 Y8.91312
X5.67186 Y8.97779
X5.81924 Y9.
X7.73781
X8.0779 Y8.86653
X8.23641 Y8.53736
X8.12873 Y8.18825
X4.82074 Y4.04017
X4.82126 Y3.97718
X4.95029 Y3.81538
X5.01159 Y3.80085
X9.78306 Y6.09867
X10.11126 Y6.13565
X10.39092 Y5.95993
X10.5 Y5.64818
Y3.98331
X10.48046 Y3.84489
X10.42336 Y3.71729
X10.33317 Y3.61049
X10.21694 Y3.53282
X6.0963 Y1.54843
X6.06944 Y1.49145
X6.11549 Y1.28968
X6.16441 Y1.25
X10.
X10.15451 Y1.22553
X10.29389 Y1.15451
X10.40451 Y1.04389
X10.47553 Y0.90451
X10.5 Y0.75
G02 X10.40451 Y-1.04389 I-2.80826 J-0.75
G1 X10.29389 Y-1.15451
X10.15451 Y-1.22553
X10. Y-1.25
X6.16441
X6.11549 Y-1.28968
X6.06944 Y-1.49145
X6.0963 Y-1.54843
X7.71836 Y-2.32957
X7.8401 Y-2.41223
X7.93251 Y-2.52676
X7.98758 Y-2.66322
X8.00053 Y-2.8098
X7.97026 Y-2.95381
G02 X7.27876 Y-4.38973 I-7.97026 J2.95381
G1 X7.18504 Y-4.50319
X7.06236 Y-4.58445
X6.92134 Y-4.62648
X6.77418 Y-4.62564
X6.63365 Y-4.58199
X5.01159 Y-3.80085
X4.95029 Y-3.81538
X4.82126 Y-3.97718
X4.82074 Y-4.04017
X5.94324 Y-5.44774
X6.01706 Y-5.57504
X6.05063 Y-5.71832
X6.04103 Y-5.86516
X5.9891 Y-6.00285
X5.89934 Y-6.11946
G02 X4.6533 Y-7.11314 I-5.89934 J6.11946
G1 X4.51964 Y-7.1747
X4.37385 Y-7.19469
X4.22856 Y-7.17137
X4.09634 Y-7.10676
X3.98866 Y-7.00647
X2.86616 Y-5.5989
X2.81834 Y-5.58084
X2.73218 Y-5.62065
X2.71177 Y-5.63106
G02 X1.62706 Y-3.37863 I-0.54235 J1.12622
G03 X-1.62706 I-1.62706 J3.37863
G02 X-2.41829 Y-5.72982 I-0.54236 J-1.12621
G1 X-2.42743 Y-5.72787
X-2.80952 Y-5.58325
X-2.83007 Y-5.58016
X-2.85011 Y-5.58569
X-2.86616 Y-5.5989
X-3.98866 Y-7.00647
X-4.09634 Y-7.10676
X-4.22856 Y-7.17137
X-4.37385 Y-7.19469
X-4.51964 Y-7.1747
X-4.6533 Y-7.11314
G02 X-5.89934 Y-6.11946 I4.6533 J7.11314
G1 X-5.9891 Y-6.00285
X-6.04103 Y-5.86516
X-6.05063 Y-5.71832
X-6.01706 Y-5.57504
X-5.94324 Y-5.44774
X-4.82074 Y-4.04017
X-4.82126 Y-3.97718
X-4.95029 Y-3.81538
X-5.01159 Y-3.80085
X-9.03506 Y-5.73845
G0 Z6.5
X-7.39369 Y-5.22549
G1 Z3.05 F927.2
X-8.92659 Y-5.96369 Z2.75 F2781.7
X-12.86371 Y-7.85971 F3709.
G02 X-13.86485 Y-7.5094 I-0.32303 J0.68253
X-14.58185 Y-5.73764 I2.38662 J1.99679
G1 X-14.56788 Y-5.66068
X-14.51621 Y-5.51303
X-14.47915 Y-5.44415
X-14.38438 Y-5.31968
X-14.32785 Y-5.26563
X-14.19926 Y-5.17654
X-14.16536 Y-5.1568
X-6.57193 Y-1.5
X-15.
G02 X-15.75 Y-0.75 I0.0051 J0.7551
X-15.62726 Y1.15739 I3.01664 J0.76352
G1 X-15.58129 Y1.22067
X-15.47067 Y1.33128
X-15.40739 Y1.37726
X-15.26801 Y1.44828
X-15.19362 Y1.47245
X-15.03911 Y1.49692
X-15. Y1.5
X-6.57193
X-14.16536 Y5.1568
G02 X-14.51567 Y6.15794 I0.33222 J0.67811
X-13.5775 Y7.82319 I3.04918 J-0.62096
G1 X-13.50862 Y7.86025
X-13.36097 Y7.91192
X-13.28401 Y7.92588
X-13.12761 Y7.9294
X-13.0501 Y7.9189
X-12.90028 Y7.8739
X-12.86371 Y7.85971
X-5.27028 Y4.20291
X-8.32418 Y8.03238
G02 X-7.73781 Y9.25 I0.59104 J0.46537
X-5.56339 Y9.20303 I0.97015 J-5.44258
G1 X-5.42911 Y9.13836
X-5.36754 Y9.09638
X-5.25828 Y8.99501
X-5.23286 Y8.96762
X-2.92478 Y6.07338
G02 X-3.45458 Y8.5559 I7.35298 J2.86699
X-2.70936 Y9.25 I0.74996 J-0.0581
X-0.88471 Y9.19075 I0.78114 J-4.06947
G1 X-0.73811 Y9.10972
X-0.67263 Y9.0575
X-0.56101 Y8.9326
X-0.51645 Y8.86169
X-0.45235 Y8.70693
X-0.43959 Y8.66689
X0. Y6.74094
G02 X0.56101 Y8.9326 I5.12203 J-0.14348
G1 X0.67263 Y9.0575
X0.73811 Y9.10972
X0.88471 Y9.19075
X0.96377 Y9.21841
X1.1289 Y9.24647
X1.17078 Y9.25
G02 X3.01327 Y9.18273 I0.78184 J-3.85187
X3.44055 Y8.33311 I-0.30853 J-0.68742
G1 X2.92478 Y6.07338
X5.23286 Y8.96762
X5.25828 Y8.99501
X5.36753 Y9.09638
X5.42911 Y9.13836
X5.56339 Y9.20303
X5.6346 Y9.22499
X5.78198 Y9.24721
X5.81924 Y9.25
G02 X7.96696 Y9.21108 I0.95928 J-6.34176
X8.32418 Y8.03238 I-0.23154 J-0.71365
G1 X5.27028 Y4.20291
X9.67459 Y6.32391
G02 X10.75 Y5.64818 I0.32271 J-0.68003
X10.65156 Y3.61518 I-3.59682 J-0.84472
G1 X10.61437 Y3.556
X10.52418 Y3.4492
X10.47207 Y3.40262
X10.35583 Y3.32496
X10.32541 Y3.30758
X6.57193 Y1.5
X10.
G02 X10.75 Y0.75 I-0.0051 J-0.7551
X10.62726 Y-1.15739 I-3.01664 J-0.76353
G1 X10.58128 Y-1.22067
X10.47067 Y-1.33129
X10.40739 Y-1.37726
X10.26801 Y-1.44828
X10.19362 Y-1.47245
X10.03911 Y-1.49692
X10. Y-1.5
X6.57193
G02 X8.12707 Y-2.36977 I-0.66147 J-3.00788
G1 X8.16435 Y-2.43321
X8.21941 Y-2.56967
X8.23661 Y-2.64121
X8.24956 Y-2.78779
X8.24518 Y-2.86124
X8.21491 Y-3.00524
X8.20468 Y-3.04069
G02 X7.49284 Y-4.51884 I-8.20468 J3.04069
X6.52518 Y-4.80724 I-0.64429 J0.3942
G1 X5.27028 Y-4.20291
G02 X6.29404 Y-5.66129 I-1.90103 J-2.42301
G1 X6.30009 Y-5.73462
X6.2905 Y-5.88146
X6.27495 Y-5.95338
X6.22302 Y-6.09106
X6.18721 Y-6.15534
X6.09745 Y-6.27195
X6.07285 Y-6.29944
G02 X4.79016 Y-7.32235 I-6.07285 J6.29944
X3.7932 Y-7.16234 I-0.40945 J0.6347
G1 X2.77005 Y-5.87934
G02 X1.51859 Y-3.15339 I-0.60063 J1.3745
G03 X-1.51859 I-1.51859 J3.15339
G02 X-2.46806 Y-5.97481 I-0.65083 J-1.35145
G1 X-2.506 Y-5.96393
X-2.76124 Y-5.8683
G02 X-3.98658 Y-7.33138 I-4.31118 J2.36598
G1 X-4.1188 Y-7.39599
X-4.18894 Y-7.41821
X-4.33423 Y-7.44153
X-4.4078 Y-7.44237
X-4.5536 Y-7.42239
X-4.62423 Y-7.40178
X-4.75789 Y-7.34022
X-4.79016 Y-7.32235
G02 X-6.07285 Y-6.29944 I4.79016 J7.32235
X-6.1387 Y-5.29187 I0.52768 J0.54042
G1 X-5.27028 Y-4.20291
X-8.92659 Y-5.96369
X-9.03506 Y-5.73845
X-12.97218 Y-7.63447
X-13.122 Y-7.67946
X-13.2784 Y-7.67595
X-13.42606 Y-7.62428
X-13.55052 Y-7.52951
X-13.63961 Y-7.40093
G02 X-14.33191 Y-5.74325 I2.20475 J1.89419
G1 X-14.28024 Y-5.5956
X-14.18548 Y-5.47113
X-14.05689 Y-5.38204
X-6.0963 Y-1.54843
X-6.06944 Y-1.49145
X-6.11549 Y-1.28968
X-6.16441 Y-1.25
X-15.
X-15.15451 Y-1.22553
X-15.29389 Y-1.15451
X-15.40451 Y-1.04389
X-15.47553 Y-0.90451
X-15.5 Y-0.75
G02 X-15.40451 Y1.04389 I2.80826 J0.75
G1 X-15.29389 Y1.15451
X-15.15451 Y1.22553
X-15. Y1.25
X-6.16441
X-6.11549 Y1.28968
X-6.06944 Y1.49145
X-6.0963 Y1.54843
X-14.05689 Y5.38204
X-14.18548 Y5.47113
X-14.28024 Y5.5956
X-14.33191 Y5.74325
X-14.33542 Y5.89965
X-14.29043 Y6.04947
G02 X-13.42606 Y7.62428 I2.85557 J-0.54273
G1 X-13.2784 Y7.67595
X-13.122 Y7.67946
X-12.97218 Y7.63447
X-5.01159 Y3.80085
X-4.95029 Y3.81538
X-4.82126 Y3.97718
X-4.82074 Y4.04017
X-8.12873 Y8.18825
X-8.23641 Y8.53736
X-8.0779 Y8.86653
X-7.73781 Y9.
X-5.81924
X-5.67186 Y8.97779
X-5.53758 Y8.91312
X-5.42832 Y8.81175
X-2.86616 Y5.59889
X-2.80463 Y5.58539
X-2.61817 Y5.67518
X-2.59037 Y5.73171
X-3.19682 Y8.38874
X-3.20483 Y8.56712
X-3.14966 Y8.73693
X-3.03833 Y8.87654
X-2.88505 Y8.96812
X-2.70936 Y9.
X-1.17078
X-1.00564 Y8.97194
X-0.85904 Y8.89092
X-0.74742 Y8.76602
X-0.68332 Y8.61126
X-0.15305 Y6.28801
X-0.10348 Y6.24914
X0.10348
X0.15305 Y6.28801
X0.68332 Y8.61126
X0.74742 Y8.76602
X0.85904 Y8.89092
X1.00564 Y8.97194
X1.17078 Y9.
X2.70936
X2.88504 Y8.96812
X3.03833 Y8.87654
X3.14965 Y8.73693
X3.20483 Y8.56712
X3.19682 Y8.38874
X2.59037 Y5.73171
X2.61817 Y5.67518
X2.80463 Y5.58539
X2.86616 Y5.59889
X5.42832 Y8.81175
X5.53758 Y8.91312
X5.67186 Y8.97779
X5.81924 Y9.
X7.73781
X8.0779 Y8.86653
X8.23641 Y8.53736
X8.12873 Y8.18825
X4.82074 Y4.04017
X4.82126 Y3.97718
X4.95029 Y3.81538
X5.01159 Y3.80085
X9.78306 Y6.09867
X10.11126 Y6.13565
X10.39092 Y5.95993
X10.5 Y5.64818
Y3.98331
X10.48046 Y3.84489
X10.42336 Y3.71729
X10.33317 Y3.61049
X10.21694 Y3.53282
X6.0963 Y1.54843
X6.06944 Y1.49145
X6.11549 Y1.28968
X6.16441 Y1.25
X10.
X10.15451 Y1.22553
X10.29389 Y1.15451
X10.40451 Y1.04389
X10.47553 Y0.90451
X10.5 Y0.75
G02 X10.40451 Y-1.04389 I-2.80826 J-0.75
G1 X10.29389 Y-1.15451
X10.15451 Y-1.22553
X10. Y-1.25
X6.16441
X6.11549 Y-1.28968
X6.06944 Y-1.49145
X6.0963 Y-1.54843
X7.71836 Y-2.32957
X7.8401 Y-2.41223
X7.93251 Y-2.52676
X7.98758 Y-2.66322
X8.00053 Y-2.8098
X7.97026 Y-2.95381
G02 X7.27876 Y-4.38973 I-7.97026 J2.95381
G1 X7.18504 Y-4.50319
X7.06236 Y-4.58445
X6.92134 Y-4.62648
X6.77418 Y-4.62564
X6.63365 Y-4.58199
X5.01159 Y-3.80085
X4.95029 Y-3.81538
X4.82126 Y-3.97718
X4.82074 Y-4.04017
X5.94324 Y-5.44774
X6.01706 Y-5.57504
X6.05063 Y-5.71832
X6.04103 Y-5.86516
X5.9891 Y-6.00285
X5.89934 Y-6.11946
G02 X4.6533 Y-7.11314 I-5.89934 J6.11946
G1 X4.51964 Y-7.1747
X4.37385 Y-7.19469
X4.22856 Y-7.17137
X4.09634 Y-7.10676
X3.98866 Y-7.00647
X2.86616 Y-5.5989
X2.81834 Y-5.58084
X2.73218 Y-5.62065
X2.71177 Y-5.63106
G02 X1.62706 Y-3.37863 I-0.54235 J1.12622
G03 X-1.62706 I-1.62706 J3.37863
G02 X-2.41829 Y-5.72982 I-0.54236 J-1.12621
G1 X-2.42743 Y-5.72787
X-2.80952 Y-5.58325
X-2.83007 Y-5.58016
X-2.85011 Y-5.58569
X-2.86616 Y-5.5989
X-3.98866 Y-7.00647
X-4.09634 Y-7.10676
X-4.22856 Y-7.17137
X-4.37385 Y-7.19469
X-4.51964 Y-7.1747
X-4.6533 Y-7.11314
G02 X-5.89934 Y-6.11946 I4.6533 J7.11314
G1 X-5.9891 Y-6.00285
X-6.04103 Y-5.86516
X-6.05063 Y-5.71832
X-6.01706 Y-5.57504
X-5.94324 Y-5.44774
X-4.82074 Y-4.04017
X-4.82126 Y-3.97718
X-4.95029 Y-3.81538
X-5.01159 Y-3.80085
X-9.03506 Y-5.73845
G0 Z6.5
X-7.39369 Y-5.22549
G1 Z2.8 F927.2
X-8.92659 Y-5.96369 Z2.5 F2781.7
X-12.86371 Y-7.85971 F3709.
G02 X-13.86485 Y-7.5094 I-0.32303 J0.68253
X-14.58185 Y-5.73764 I2.38662 J1.99679
G1 X-14.56788 Y-5.66068
X-14.51621 Y-5.51303
X-14.47915 Y-5.44415
X-14.38438 Y-5.31968
X-14.32785 Y-5.26563
X-14.19926 Y-5.17654
X-14.16536 Y-5.1568
X-6.57193 Y-1.5
X-15.
G02 X-15.75 Y-0.75 I0.0051 J0.7551
X-15.62726 Y1.15739 I3.01664 J0.76352
G1 X-15.58129 Y1.22067
X-15.47067 Y1.33128
X-15.40739 Y1.37726
X-15.26801 Y1.44828
X-15.19362 Y1.47245
X-15.03911 Y1.49692
X-15. Y1.5
X-6.57193
X-14.16536 Y5.1568
G02 X-14.51567 Y6.15794 I0.33222 J0.67811
X-13.5775 Y7.82319 I3.04918 J-0.62096
G1 X-13.50862 Y7.86025
X-13.36097 Y7.91192
X-13.28401 Y7.92588
X-13.12761 Y7.9294
X-13.0501 Y7.9189
X-12.90028 Y7.8739
X-12.86371 Y7.85971
X-5.27028 Y4.20291
X-8.32418 Y8.03238
G02 X-7.73781 Y9.25 I0.59104 J0.46537
X-5.56339 Y9.20303 I0.97015 J-5.44258
G1 X-5.42911 Y9.13836
X-5.36754 Y9.09638
X-5.25828 Y8.99501
X-5.23286 Y8.96762
X-2.92478 Y6.07338
G02 X-3.45458 Y8.5559 I7.35298 J2.86699
X-2.70936 Y9.25 I0.74996 J-0.0581
X-0.88471 Y9.19075 I0.78114 J-4.06947
G1 X-0.73811 Y9.10972
X-0.67263 Y9.0575
X-0.56101 Y8.9326
X-0.51645 Y8.86169
X-0.45235 Y8.70693
X-0.43959 Y8.66689
X0. Y6.74094
G02 X0.56101 Y8.9326 I5.12203 J-0.14348
G1 X0.67263 Y9.0575
X0.73811 Y9.10972
X0.88471 Y9.19075
X0.96377 Y9.21841
X1.1289 Y9.24647
X1.17078 Y9.25
G02 X3.01327 Y9.18273 I0.78184 J-3.85187
X3.44055 Y8.33311 I-0.30853 J-0.68742
G1 X2.92478 Y6.07338
X5.23286 Y8.96762
X5.25828 Y8.99501
X5.36753 Y9.09638
X5.42911 Y9.13836
X5.56339 Y9.20303
X5.6346 Y9.22499
X5.78198 Y9.24721
X5.81924 Y9.25
G02 X7.96696 Y9.21108 I0.95928 J-6.34176
X8.32418 Y8.03238 I-0.23154 J-0.71365
G1 X5.27028 Y4.20291
X9.67459 Y6.32391
G02 X10.75 Y5.64818 I0.32271 J-0.68003
X10.65156 Y3.61518 I-3.59682 J-0.84472
G1 X10.61437 Y3.556
X10.52418 Y3.4492
X10.47207 Y3.40262
X10.35583 Y3.32496
X10.32541 Y3.30758
X6.57193 Y1.5
X10.
G02 X10.75 Y0.75 I-0.0051 J-0.7551
X10.62726 Y-1.15739 I-3.01664 J-0.76353
G1 X10.58128 Y-1.22067
X10.47067 Y-1.33129
X10.40739 Y-1.37726
X10.26801 Y-1.44828
X10.19362 Y-1.47245
X10.03911 Y-1.49692
X10. Y-1.5
X6.57193
G02 X8.12707 Y-2.36977 I-0.66147 J-3.00788
G1 X8.16435 Y-2.43321
X8.21941 Y-2.56967
X8.23661 Y-2.64121
X8.24956 Y-2.78779
X8.24518 Y-2.86124
X8.21491 Y-3.00524
X8.20468 Y-3.04069
G02 X7.49284 Y-4.51884 I-8.20468 J3.04069
X6.52518 Y-4.80724 I-0.64429 J0.3942
G1 X5.27028 Y-4.20291
G02 X6.29404 Y-5.66129 I-1.90103 J-2.42301
G1 X6.30009 Y-5.73462
X6.2905 Y-5.88146
X6.27495 Y-5.95338
X6.22302 Y-6.09106
X6.18721 Y-6.15534
X6.09745 Y-6.27195
X6.07285 Y-6.29944
G02 X4.79016 Y-7.32235 I-6.07285 J6.29944
X3.7932 Y-7.16234 I-0.40945 J0.6347
G1 X2.77005 Y-5.87934
G02 X1.51859 Y-3.15339 I-0.60063 J1.3745
G03 X-1.51859 I-1.51859 J3.15339
G02 X-2.46806 Y-5.97481 I-0.65083 J-1.35145
G1 X-2.506 Y-5.96393
X-2.76124 Y-5.8683
G02 X-3.98658 Y-7.33138 I-4.31118 J2.36598
G1 X-4.1188 Y-7.39599
X-4.18894 Y-7.41821
X-4.33423 Y-7.44153
X-4.4078 Y-7.44237
X-4.5536 Y-7.42239
X-4.62423 Y-7.40178
X-4.75789 Y-7.34022
X-4.79016 Y-7.32235
G02 X-6.07285 Y-6.29944 I4.79016 J7.32235
X-6.1387 Y-5.29187 I0.52768 J0.54042
G1 X-5.27028 Y-4.20291
X-8.92659 Y-5.96369
X-9.03506 Y-5.73845
X-12.97218 Y-7.63447
X-13.122 Y-7.67946
X-13.2784 Y-7.67595
X-13.42606 Y-7.62428
X-13.55052 Y-7.52951
X-13.63961 Y-7.40093
G02 X-14.33191 Y-5.74325 I2.20475 J1.89419
G1 X-14.28024 Y-5.5956
X-14.18548 Y-5.47113
X-14.05689 Y-5.38204
X-6.0963 Y-1.54843
X-6.06944 Y-1.49145
X-6.11549 Y-1.28968
X-6.16441 Y-1.25
X-15.
X-15.15451 Y-1.22553
X-15.29389 Y-1.15451
X-15.40451 Y-1.04389
X-15.47553 Y-0.90451
X-15.5 Y-0.75
G02 X-15.40451 Y1.04389 I2.80826 J0.75
G1 X-15.29389 Y1.15451
X-15.15451 Y1.22553
X-15. Y1.25
X-6.16441
X-6.11549 Y1.28968
X-6.06944 Y1.49145
X-6.0963 Y1.54843
X-14.05689 Y5.38204
X-14.18548 Y5.47113
X-14.28024 Y5.5956
X-14.33191 Y5.74325
X-14.33542 Y5.89965
X-14.29043 Y6.04947
G02 X-13.42606 Y7.62428 I2.85557 J-0.54273
G1 X-13.2784 Y7.67595
X-13.122 Y7.67946
X-12.97218 Y7.63447
X-5.01159 Y3.80085
X-4.95029 Y3.81538
X-4.82126 Y3.97718
X-4.82074 Y4.04017
X-8.12873 Y8.18825
X-8.23641 Y8.53736
X-8.0779 Y8.86653
X-7.73781 Y9.
X-5.81924
X-5.67186 Y8.97779
X-5.53758 Y8.91312
X-5.42832 Y8.81175
X-2.86616 Y5.59889
X-2.80463 Y5.58539
X-2.61817 Y5.67518
X-2.59037 Y5.73171
X-3.19682 Y8.38874
X-3.20483 Y8.56712
X-3.14966 Y8.73693
X-3.03833 Y8.87654
X-2.88505 Y8.96812
X-2.70936 Y9.
X-1.17078
X-1.00564 Y8.97194
X-0.85904 Y8.89092
X-0.74742 Y8.76602
X-0.68332 Y8.61126
X-0.15305 Y6.28801
X-0.10348 Y6.24914
X0.10348
X0.15305 Y6.28801
X0.68332 Y8.61126
X0.74742 Y8.76602
X0.85904 Y8.89092
X1.00564 Y8.97194
X1.17078 Y9.
X2.70936
X2.88504 Y8.96812
X3.03833 Y8.87654
X3.14965 Y8.73693
X3.20483 Y8.56712
X3.19682 Y8.38874
X2.59037 Y5.73171
X2.61817 Y5.67518
X2.80463 Y5.58539
X2.86616 Y5.59889
X5.42832 Y8.81175
X5.53758 Y8.91312
X5.67186 Y8.97779
X5.81924 Y9.
X7.73781
X8.0779 Y8.86653
X8.23641 Y8.53736
X8.12873 Y8.18825
X4.82074 Y4.04017
X4.82126 Y3.97718
X4.95029 Y3.81538
X5.01159 Y3.80085
X9.78306 Y6.09867
X10.11126 Y6.13565
X10.39092 Y5.95993
X10.5 Y5.64818
Y3.98331
X10.48046 Y3.84489
X10.42336 Y3.71729
X10.33317 Y3.61049
X10.21694 Y3.53282
X6.0963 Y1.54843
X6.06944 Y1.49145
X6.11549 Y1.28968
X6.16441 Y1.25
X10.
X10.15451 Y1.22553
X10.29389 Y1.15451
X10.40451 Y1.04389
X10.47553 Y0.90451
X10.5 Y0.75
G02 X10.40451 Y-1.04389 I-2.80826 J-0.75
G1 X10.29389 Y-1.15451
X10.15451 Y-1.22553
X10. Y-1.25
X6.16441
X6.11549 Y-1.28968
X6.06944 Y-1.49145
X6.0963 Y-1.54843
X7.71836 Y-2.32957
X7.8401 Y-2.41223
X7.93251 Y-2.52676
X7.98758 Y-2.66322
X8.00053 Y-2.8098
X7.97026 Y-2.95381
G02 X7.27876 Y-4.38973 I-7.97026 J2.95381
G1 X7.18504 Y-4.50319
X7.06236 Y-4.58445
X6.92134 Y-4.62648
X6.77418 Y-4.62564
X6.63365 Y-4.58199
X5.01159 Y-3.80085
X4.95029 Y-3.81538
X4.82126 Y-3.97718
X4.82074 Y-4.04017
X5.94324 Y-5.44774
X6.01706 Y-5.57504
X6.05063 Y-5.71832
X6.04103 Y-5.86516
X5.9891 Y-6.00285
X5.89934 Y-6.11946
G02 X4.6533 Y-7.11314 I-5.89934 J6.11946
G1 X4.51964 Y-7.1747
X4.37385 Y-7.19469
X4.22856 Y-7.17137
X4.09634 Y-7.10676
X3.98866 Y-7.00647
X2.86616 Y-5.5989
X2.81834 Y-5.58084
X2.73218 Y-5.62065
X2.71177 Y-5.63106
G02 X1.62706 Y-3.37863 I-0.54235 J1.12622
G03 X-1.62706 I-1.62706 J3.37863
G02 X-2.41829 Y-5.72982 I-0.54236 J-1.12621
G1 X-2.42743 Y-5.72787
X-2.80952 Y-5.58325
X-2.83007 Y-5.58016
X-2.85011 Y-5.58569
X-2.86616 Y-5.5989
X-3.98866 Y-7.00647
X-4.09634 Y-7.10676
X-4.22856 Y-7.17137
X-4.37385 Y-7.19469
X-4.51964 Y-7.1747
X-4.6533 Y-7.11314
G02 X-5.89934 Y-6.11946 I4.6533 J7.11314
G1 X-5.9891 Y-6.00285
X-6.04103 Y-5.86516
X-6.05063 Y-5.71832
X-6.01706 Y-5.57504
X-5.94324 Y-5.44774
X-4.82074 Y-4.04017
X-4.82126 Y-3.97718
X-4.95029 Y-3.81538
X-5.01159 Y-3.80085
X-9.03506 Y-5.73845
G0 Z6.5
X-7.39369 Y-5.22549
G1 Z2.55 F927.2
X-8.92659 Y-5.96369 Z2.25 F2781.7
X-12.86371 Y-7.85971 F3709.
G02 X-13.86485 Y-7.5094 I-0.32303 J0.68253
X-14.58185 Y-5.73764 I2.38662 J1.99679
G1 X-14.56788 Y-5.66068
X-14.51621 Y-5.51303
X-14.47915 Y-5.44415
X-14.38438 Y-5.31968
X-14.32785 Y-5.26563
X-14.19926 Y-5.17654
X-14.16536 Y-5.1568
X-6.57193 Y-1.5
X-15.
G02 X-15.75 Y-0.75 I0.0051 J0.7551
X-15.62726 Y1.15739 I3.01664 J0.76352
G1 X-15.58129 Y1.22067
X-15.47067 Y1.33128
X-15.40739 Y1.37726
X-15.26801 Y1.44828
X-15.19362 Y1.47245
X-15.03911 Y1.49692
X-15. Y1.5
X-6.57193
X-14.16536 Y5.1568
G02 X-14.51567 Y6.15794 I0.33222 J0.67811
X-13.5775 Y7.82319 I3.04918 J-0.62096
G1 X-13.50862 Y7.86025
X-13.36097 Y7.91192
X-13.28401 Y7.92588
X-13.12761 Y7.9294
X-13.0501 Y7.9189
X-12.90028 Y7.8739
X-12.86371 Y7.85971
X-5.27028 Y4.20291
X-8.32418 Y8.03238
