%
G17 G21 G40 G90 G64 P0.1
(2 1/2 Axis Profiling)
(SlotDrill 1/8in 3.175mm Carbide Aluminium Cut)
T6 M06
S23559 M3
G0 Z1.5875
X108.90247 Y-1.5875
G1 Z0.1 F150.7
X105.4997 Z-0.5 F452.2
X0. F603.
G17
G02 X-1.5875 Y0. I0. J1.5875
G1 Y217.
G02 X0. Y218.5875 I1.5875 J0.
G1 X217.
G02 X218.5875 Y217. I0. J-1.5875
G1 Y0.
G02 X217. Y-1.5875 I-1.5875 J0.
G1 X105.4997
G0 Z1.5875
X108.90247
G1 Z-0.4 F150.7
X105.4997 Z-1. F452.2
X0. F603.
G02 X-1.5875 Y0. I0. J1.5875
G1 Y217.
G02 X0. Y218.5875 I1.5875 J0.
G1 X217.
G02 X218.5875 Y217. I0. J-1.5875
G1 Y0.
G02 X217. Y-1.5875 I-1.5875 J0.
G1 X105.4997
G0 Z1.5875
X108.90247
G1 Z-0.9 F150.7
X105.4997 Z-1.5 F452.2
X0. F603.
G02 X-1.5875 Y0. I0. J1.5875
G1 Y217.
G02 X0. Y218.5875 I1.5875 J0.
G1 X217.
G02 X218.5875 Y217. I0. J-1.5875
G1 Y0.
G02 X217. Y-1.5875 I-1.5875 J0.
G1 X105.4997
G0 Z1.5875
X108.90247
G1 Z-1.4 F150.7
X105.4997 Z-2. F452.2
X0. F603.
G02 X-1.5875 Y0. I0. J1.5875
G1 Y217.
G02 X0. Y218.5875 I1.5875 J0.
G1 X217.
G02 X218.5875 Y217. I0. J-1.5875
G1 Y0.
G02 X217. Y-1.5875 I-1.5875 J0.
G1 X105.4997
G0 Z1.5875
X108.90247
G1 Z-1.9 F150.7
X105.4997 Z-2.5 F452.2
X0. F603.
G02 X-1.5875 Y0. I0. J1.5875
G1 Y217.
G02 X0. Y218.5875 I1.5875 J0.
G1 X217.
G02 X218.5875 Y217. I0. J-1.5875
G1 Y0.
G02 X217. Y-1.5875 I-1.5875 J0.
G1 X105.4997
G0 Z1.5875
X108.90247
G1 Z-2.4 F150.7
X105.4997 Z-3. F452.2
X0. F603.
G02 X-1.5875 Y0. I0. J1.5875
G1 Y217.
G02 X0. Y218.5875 I1.5875 J0.
G1 X217.
G02 X218.5875 Y217. I0. J-1.5875
G1 Y0.
G02 X217. Y-1.5875 I-1.5875 J0.
G1 X105.4997
G0 Z1.5875
X108.90247
G1 Z-2.9 F150.7
X105.4997 Z-3.5 F452.2
X0. F603.
G02 X-1.5875 Y0. I0. J1.5875
G1 Y217.
G02 X0. Y218.5875 I1.5875 J0.
G1 X217.
G02 X218.5875 Y217. I0. J-1.5875
G1 Y0.
G02 X217. Y-1.5875 I-1.5875 J0.
G1 X105.4997
G0 Z1.5875
X108.90247
G1 Z-3.4 F150.7
X105.4997 Z-4. F452.2
X0. F603.
G02 X-1.5875 Y0. I0. J1.5875
G1 Y217.
G02 X0. Y218.5875 I1.5875 J0.
G1 X217.
G02 X218.5875 Y217. I0. J-1.5875
G1 Y0.
G02 X217. Y-1.5875 I-1.5875 J0.
G1 X105.4997
G0 Z1.5875
X108.90247
G1 Z-3.9 F150.7
X105.4997 Z-4.5 F452.2
X0. F603.
G02 X-1.5875 Y0. I0. J1.5875
G1 Y217.
G02 X0. Y218.5875 I1.5875 J0.
G1 X217.
G02 X218.5875 Y217. I0. J-1.5875
G1 Y0.
G02 X217. Y-1.5875 I-1.5875 J0.
G1 X105.4997
G0 Z1.5875
X108.90247
G1 Z-4.4 F150.7
X105.4997 Z-5. F452.2
X0. F603.
G02 X-1.5875 Y0. I0. J1.5875
G1 Y217.
G02 X0. Y218.5875 I1.5875 J0.
G1 X217.
G02 X218.5875 Y217. I0. J-1.5875
G1 Y0.
G02 X217. Y-1.5875 I-1.5875 J0.
G1 X105.4997
G0 Z1.5875
X108.90247
G1 Z-4.9 F150.7
X105.4997 Z-5.5 F452.2
X0. F603.
G02 X-1.5875 Y0. I0. J1.5875
G1 Y217.
G02 X0. Y218.5875 I1.5875 J0.
G1 X217.
G02 X218.5875 Y217. I0. J-1.5875
G1 Y0.
G02 X217. Y-1.5875 I-1.5875 J0.
G1 X105.4997
G0 Z1.5875
M30
%
