%
G17 G21 G40 G90 G64 P0.1
(2 1/2 Axis Profiling)
(SlotDrill 1/8in 3.175mm Carbide Aluminium Cut)
T6 M06
S23960 M3
G0 Z13.5875
X-5.9125 Y81.4125
G1 Z-1.5 F1235.
Y44.5875 F4940.
X5.9125
Y81.4125
X-5.9125
Z-3.
Y44.5875
X5.9125
Y81.4125
X-5.9125
Z-4.5
Y44.5875
X5.9125
Y81.4125
X-5.9125
Z-6.
Y44.5875
X5.9125
Y81.4125
X-5.9125
Z-7.5
Y44.5875
X5.9125
Y81.4125
X-5.9125
Z-9.
Y44.5875
X5.9125
Y81.4125
X-5.9125
Z-10.5
Y44.5875
X5.9125
Y81.4125
X-5.9125
Z-12.
Y44.5875
X5.9125
Y81.4125
X-5.9125
G0 Z13.5875
X13.49626 Y16.62366
G1 Z-1.5 F1235.
G17
G03 X-13.49626 Y-16.62366 I-13.49626 J-16.62366 F4940.
X13.49626 Y16.62366 I13.49626 J16.62366
G1 Z-3.
G03 X-13.49626 Y-16.62366 I-13.49626 J-16.62366
X13.49626 Y16.62366 I13.49626 J16.62366
G1 Z-4.5
G03 X-13.49626 Y-16.62366 I-13.49626 J-16.62366
X13.49626 Y16.62366 I13.49626 J16.62366
G1 Z-6.
G03 X-13.49626 Y-16.62366 I-13.49626 J-16.62366
X13.49626 Y16.62366 I13.49626 J16.62366
G1 Z-7.5
G03 X-13.49626 Y-16.62366 I-13.49626 J-16.62366
X13.49626 Y16.62366 I13.49626 J16.62366
G1 Z-9.
G03 X-13.49626 Y-16.62366 I-13.49626 J-16.62366
X13.49626 Y16.62366 I13.49626 J16.62366
G1 Z-10.5
G03 X-13.49626 Y-16.62366 I-13.49626 J-16.62366
X13.49626 Y16.62366 I13.49626 J16.62366
G1 Z-12.
G03 X-13.49626 Y-16.62366 I-13.49626 J-16.62366
X13.49626 Y16.62366 I13.49626 J16.62366
G0 Z13.5875
M30
%
