%
G17 G21 G40 G90 G64 P0.1
(2 1/2 Axis Profiling)
(SlotDrill 1/8in 3.175mm Carbide Aluminium Cut)
T6 M06
S18246 M3
G0 Z1.5875
X166.46591 Y11.587
G1 Z0.23333 F912.2
X166.5477 Y11.35325 Z0.18967 F2736.7
X166.5875 Y11. Z0.12699
Y3.66333 Z-1.16667
Y0. F3649.
X166.5477 Y-0.35325
X166.43029 Y-0.68879
X166.24116 Y-0.98979
X165.98979 Y-1.24116
X165.68879 Y-1.43029
X165.35325 Y-1.5477
X165. Y-1.5875
X0.
X-0.35325 Y-1.5477
X-0.68879 Y-1.43029
X-0.98979 Y-1.24116
X-1.24116 Y-0.98979
X-1.43029 Y-0.68879
X-1.5477 Y-0.35325
X-1.5875 Y0.
Y11.
X-1.5477 Y11.35325
X-1.43029 Y11.68879
X-1.24116 Y11.98979
X-0.98979 Y12.24116
X-0.68879 Y12.43029
X-0.35325 Y12.5477
X0. Y12.5875
X165.
X165.35325 Y12.5477
X165.68879 Y12.43029
X165.98979 Y12.24116
X166.24116 Y11.98979
X166.43029 Y11.68879
X166.5477 Y11.35325
X166.5875 Y11.
Y3.66333
G0 Z1.5875
X166.46591 Y11.587
G1 Z-0.93333 F912.2
X166.5477 Y11.35325 Z-0.977 F2736.7
X166.5875 Y11. Z-1.03968
Y3.66333 Z-2.33333
Y0. F3649.
X166.5477 Y-0.35325
X166.43029 Y-0.68879
X166.24116 Y-0.98979
X165.98979 Y-1.24116
X165.68879 Y-1.43029
X165.35325 Y-1.5477
X165. Y-1.5875
X0.
X-0.35325 Y-1.5477
X-0.68879 Y-1.43029
X-0.98979 Y-1.24116
X-1.24116 Y-0.98979
X-1.43029 Y-0.68879
X-1.5477 Y-0.35325
X-1.5875 Y0.
Y11.
X-1.5477 Y11.35325
X-1.43029 Y11.68879
X-1.24116 Y11.98979
X-0.98979 Y12.24116
X-0.68879 Y12.43029
X-0.35325 Y12.5477
X0. Y12.5875
X165.
X165.35325 Y12.5477
X165.68879 Y12.43029
X165.98979 Y12.24116
X166.24116 Y11.98979
X166.43029 Y11.68879
X166.5477 Y11.35325
X166.5875 Y11.
Y3.66333
G0 Z1.5875
X166.46591 Y11.587
G1 Z-2.1 F912.2
X166.5477 Y11.35325 Z-2.14367 F2736.7
X166.5875 Y11. Z-2.20635
Y3.66333 Z-3.5
Y0. F3649.
X166.5477 Y-0.35325
X166.43029 Y-0.68879
X166.24116 Y-0.98979
X165.98979 Y-1.24116
X165.68879 Y-1.43029
X165.35325 Y-1.5477
X165. Y-1.5875
X0.
X-0.35325 Y-1.5477
X-0.68879 Y-1.43029
X-0.98979 Y-1.24116
X-1.24116 Y-0.98979
X-1.43029 Y-0.68879
X-1.5477 Y-0.35325
X-1.5875 Y0.
Y11.
X-1.5477 Y11.35325
X-1.43029 Y11.68879
X-1.24116 Y11.98979
X-0.98979 Y12.24116
X-0.68879 Y12.43029
X-0.35325 Y12.5477
X0. Y12.5875
X165.
X165.35325 Y12.5477
X165.68879 Y12.43029
X165.98979 Y12.24116
X166.24116 Y11.98979
X166.43029 Y11.68879
X166.5477 Y11.35325
X166.5875 Y11.
Y3.66333
G0 Z1.5875
X166.46591 Y11.587
G1 Z-3.26667 F912.2
X166.5477 Y11.35325 Z-3.31033 F2736.7
X166.5875 Y11. Z-3.37301
Y3.66333 Z-4.66667
Y0. F3649.
X166.5477 Y-0.35325
X166.43029 Y-0.68879
X166.24116 Y-0.98979
X165.98979 Y-1.24116
X165.68879 Y-1.43029
X165.35325 Y-1.5477
X165. Y-1.5875
X0.
X-0.35325 Y-1.5477
X-0.68879 Y-1.43029
X-0.98979 Y-1.24116
X-1.24116 Y-0.98979
X-1.43029 Y-0.68879
X-1.5477 Y-0.35325
X-1.5875 Y0.
Y11.
X-1.5477 Y11.35325
X-1.43029 Y11.68879
X-1.24116 Y11.98979
X-0.98979 Y12.24116
X-0.68879 Y12.43029
X-0.35325 Y12.5477
X0. Y12.5875
X165.
X165.35325 Y12.5477
X165.68879 Y12.43029
X165.98979 Y12.24116
X166.24116 Y11.98979
X166.43029 Y11.68879
X166.5477 Y11.35325
X166.5875 Y11.
Y3.66333
G0 Z1.5875
X166.46591 Y11.587
G1 Z-4.43333 F912.2
X166.5477 Y11.35325 Z-4.477 F2736.7
X166.5875 Y11. Z-4.53968
Y3.66333 Z-5.83333
Y0. F3649.
X166.5477 Y-0.35325
X166.43029 Y-0.68879
X166.24116 Y-0.98979
X165.98979 Y-1.24116
X165.68879 Y-1.43029
X165.35325 Y-1.5477
X165. Y-1.5875
X0.
X-0.35325 Y-1.5477
X-0.68879 Y-1.43029
X-0.98979 Y-1.24116
X-1.24116 Y-0.98979
X-1.43029 Y-0.68879
X-1.5477 Y-0.35325
X-1.5875 Y0.
Y11.
X-1.5477 Y11.35325
X-1.43029 Y11.68879
X-1.24116 Y11.98979
X-0.98979 Y12.24116
X-0.68879 Y12.43029
X-0.35325 Y12.5477
X0. Y12.5875
X165.
X165.35325 Y12.5477
X165.68879 Y12.43029
X165.98979 Y12.24116
X166.24116 Y11.98979
X166.43029 Y11.68879
X166.5477 Y11.35325
X166.5875 Y11.
Y3.66333
G0 Z1.5875
X166.46591 Y11.587
G1 Z-5.6 F912.2
X166.5477 Y11.35325 Z-5.64367 F2736.7
X166.5875 Y11. Z-5.70635
Y3.66333 Z-7.
Y0. F3649.
X166.5477 Y-0.35325
X166.43029 Y-0.68879
X166.24116 Y-0.98979
X165.98979 Y-1.24116
X165.68879 Y-1.43029
X165.35325 Y-1.5477
X165. Y-1.5875
X0.
X-0.35325 Y-1.5477
X-0.68879 Y-1.43029
X-0.98979 Y-1.24116
X-1.24116 Y-0.98979
X-1.43029 Y-0.68879
X-1.5477 Y-0.35325
X-1.5875 Y0.
Y11.
X-1.5477 Y11.35325
X-1.43029 Y11.68879
X-1.24116 Y11.98979
X-0.98979 Y12.24116
X-0.68879 Y12.43029
X-0.35325 Y12.5477
X0. Y12.5875
X165.
X165.35325 Y12.5477
X165.68879 Y12.43029
X165.98979 Y12.24116
X166.24116 Y11.98979
X166.43029 Y11.68879
X166.5477 Y11.35325
X166.5875 Y11.
Y3.66333
G0 Z1.5875
X163.21195 Y34.5875
G1 Z0.23333 F912.2
X165. Z-0.08195 F2736.7
X165.35325 Y34.5477 Z-0.14463
X165.68879 Y34.43029 Z-0.20731
X165.98979 Y34.24116 Z-0.26999
X166.24116 Y33.98979 Z-0.33268
X166.43029 Y33.68879 Z-0.39536
X166.5477 Y33.35325 Z-0.45804
X166.5875 Y33. Z-0.52072
Y29.33667 Z-1.16667
Y22. F3649.
X166.5477 Y21.64675
X166.43029 Y21.31121
X166.24116 Y21.01021
X165.98979 Y20.75884
X165.68879 Y20.56971
X165.35325 Y20.4523
X165. Y20.4125
X0.
X-0.35325 Y20.4523
X-0.68879 Y20.56971
X-0.98979 Y20.75884
X-1.24116 Y21.01021
X-1.43029 Y21.31121
X-1.5477 Y21.64675
X-1.5875 Y22.
Y33.
X-1.5477 Y33.35325
X-1.43029 Y33.68879
X-1.24116 Y33.98979
X-0.98979 Y34.24116
X-0.68879 Y34.43029
X-0.35325 Y34.5477
X0. Y34.5875
X165.
X165.35325 Y34.5477
X165.68879 Y34.43029
X165.98979 Y34.24116
X166.24116 Y33.98979
X166.43029 Y33.68879
X166.5477 Y33.35325
X166.5875 Y33.
Y29.33667
G0 Z1.5875
X163.21195 Y34.5875
G1 Z-0.93333 F912.2
X165. Z-1.24862 F2736.7
X165.35325 Y34.5477 Z-1.3113
X165.68879 Y34.43029 Z-1.37398
X165.98979 Y34.24116 Z-1.43666
X166.24116 Y33.98979 Z-1.49934
X166.43029 Y33.68879 Z-1.56203
X166.5477 Y33.35325 Z-1.62471
X166.5875 Y33. Z-1.68739
Y29.33667 Z-2.33333
Y22. F3649.
X166.5477 Y21.64675
X166.43029 Y21.31121
X166.24116 Y21.01021
X165.98979 Y20.75884
X165.68879 Y20.56971
X165.35325 Y20.4523
X165. Y20.4125
X0.
X-0.35325 Y20.4523
X-0.68879 Y20.56971
X-0.98979 Y20.75884
X-1.24116 Y21.01021
X-1.43029 Y21.31121
X-1.5477 Y21.64675
X-1.5875 Y22.
Y33.
X-1.5477 Y33.35325
X-1.43029 Y33.68879
X-1.24116 Y33.98979
X-0.98979 Y34.24116
X-0.68879 Y34.43029
X-0.35325 Y34.5477
X0. Y34.5875
X165.
X165.35325 Y34.5477
X165.68879 Y34.43029
X165.98979 Y34.24116
X166.24116 Y33.98979
X166.43029 Y33.68879
X166.5477 Y33.35325
X166.5875 Y33.
Y29.33667
G0 Z1.5875
X163.21195 Y34.5875
G1 Z-2.1 F912.2
X165. Z-2.41528 F2736.7
X165.35325 Y34.5477 Z-2.47796
X165.68879 Y34.43029 Z-2.54065
X165.98979 Y34.24116 Z-2.60333
X166.24116 Y33.98979 Z-2.66601
X166.43029 Y33.68879 Z-2.72869
X166.5477 Y33.35325 Z-2.79137
X166.5875 Y33. Z-2.85405
Y29.33667 Z-3.5
Y22. F3649.
X166.5477 Y21.64675
X166.43029 Y21.31121
X166.24116 Y21.01021
X165.98979 Y20.75884
X165.68879 Y20.56971
X165.35325 Y20.4523
X165. Y20.4125
X0.
X-0.35325 Y20.4523
X-0.68879 Y20.56971
X-0.98979 Y20.75884
X-1.24116 Y21.01021
X-1.43029 Y21.31121
X-1.5477 Y21.64675
X-1.5875 Y22.
Y33.
X-1.5477 Y33.35325
X-1.43029 Y33.68879
X-1.24116 Y33.98979
X-0.98979 Y34.24116
X-0.68879 Y34.43029
X-0.35325 Y34.5477
X0. Y34.5875
X165.
X165.35325 Y34.5477
X165.68879 Y34.43029
X165.98979 Y34.24116
X166.24116 Y33.98979
X166.43029 Y33.68879
X166.5477 Y33.35325
X166.5875 Y33.
Y29.33667
G0 Z1.5875
X163.21195 Y34.5875
G1 Z-3.26667 F912.2
X165. Z-3.58195 F2736.7
X165.35325 Y34.5477 Z-3.64463
X165.68879 Y34.43029 Z-3.70731
X165.98979 Y34.24116 Z-3.76999
X166.24116 Y33.98979 Z-3.83268
X166.43029 Y33.68879 Z-3.89536
X166.5477 Y33.35325 Z-3.95804
X166.5875 Y33. Z-4.02072
Y29.33667 Z-4.66667
Y22. F3649.
X166.5477 Y21.64675
X166.43029 Y21.31121
X166.24116 Y21.01021
X165.98979 Y20.75884
X165.68879 Y20.56971
X165.35325 Y20.4523
X165. Y20.4125
X0.
X-0.35325 Y20.4523
X-0.68879 Y20.56971
X-0.98979 Y20.75884
X-1.24116 Y21.01021
X-1.43029 Y21.31121
X-1.5477 Y21.64675
X-1.5875 Y22.
Y33.
X-1.5477 Y33.35325
X-1.43029 Y33.68879
X-1.24116 Y33.98979
X-0.98979 Y34.24116
X-0.68879 Y34.43029
X-0.35325 Y34.5477
X0. Y34.5875
X165.
X165.35325 Y34.5477
X165.68879 Y34.43029
X165.98979 Y34.24116
X166.24116 Y33.98979
X166.43029 Y33.68879
X166.5477 Y33.35325
X166.5875 Y33.
Y29.33667
G0 Z1.5875
X163.21195 Y34.5875
G1 Z-4.43333 F912.2
X165. Z-4.74862 F2736.7
X165.35325 Y34.5477 Z-4.8113
X165.68879 Y34.43029 Z-4.87398
X165.98979 Y34.24116 Z-4.93666
X166.24116 Y33.98979 Z-4.99934
X166.43029 Y33.68879 Z-5.06203
X166.5477 Y33.35325 Z-5.12471
X166.5875 Y33. Z-5.18739
Y29.33667 Z-5.83333
Y22. F3649.
X166.5477 Y21.64675
X166.43029 Y21.31121
X166.24116 Y21.01021
X165.98979 Y20.75884
X165.68879 Y20.56971
X165.35325 Y20.4523
X165. Y20.4125
X0.
X-0.35325 Y20.4523
X-0.68879 Y20.56971
X-0.98979 Y20.75884
X-1.24116 Y21.01021
X-1.43029 Y21.31121
X-1.5477 Y21.64675
X-1.5875 Y22.
Y33.
X-1.5477 Y33.35325
X-1.43029 Y33.68879
X-1.24116 Y33.98979
X-0.98979 Y34.24116
X-0.68879 Y34.43029
X-0.35325 Y34.5477
X0. Y34.5875
X165.
X165.35325 Y34.5477
X165.68879 Y34.43029
X165.98979 Y34.24116
X166.24116 Y33.98979
X166.43029 Y33.68879
X166.5477 Y33.35325
X166.5875 Y33.
Y29.33667
G0 Z1.5875
X163.21195 Y34.5875
G1 Z-5.6 F912.2
X165. Z-5.91528 F2736.7
X165.35325 Y34.5477 Z-5.97796
X165.68879 Y34.43029 Z-6.04065
X165.98979 Y34.24116 Z-6.10333
X166.24116 Y33.98979 Z-6.16601
X166.43029 Y33.68879 Z-6.22869
X166.5477 Y33.35325 Z-6.29137
X166.5875 Y33. Z-6.35406
Y29.33667 Z-7.
Y22. F3649.
X166.5477 Y21.64675
X166.43029 Y21.31121
X166.24116 Y21.01021
X165.98979 Y20.75884
X165.68879 Y20.56971
X165.35325 Y20.4523
X165. Y20.4125
X0.
X-0.35325 Y20.4523
X-0.68879 Y20.56971
X-0.98979 Y20.75884
X-1.24116 Y21.01021
X-1.43029 Y21.31121
X-1.5477 Y21.64675
X-1.5875 Y22.
Y33.
X-1.5477 Y33.35325
X-1.43029 Y33.68879
X-1.24116 Y33.98979
X-0.98979 Y34.24116
X-0.68879 Y34.43029
X-0.35325 Y34.5477
X0. Y34.5875
X165.
X165.35325 Y34.5477
X165.68879 Y34.43029
X165.98979 Y34.24116
X166.24116 Y33.98979
X166.43029 Y33.68879
X166.5477 Y33.35325
X166.5875 Y33.
Y29.33667
G0 Z1.5875
M30
%
