%
G17 G21 G40 G90 G64 P0.1
(2 1/2 Axis Profiling)
(SlotDrill 1/8in 3.175mm Carbide Aluminium Cut)
T6 M06
S18246 M3
G0 Z1.5875
X80.83692 Y166.5875
G1 Z0.16667 F912.2
X72.33 Z-1.33333 F2736.7
X25.5 F3649.
G17
G03 X23.9125 Y165. I0. J-1.5875
G1 Y161.
G02 X23.0875 I-0.4125 J0.
G1 Y165.
G03 X21.5 Y166.5875 I-1.5875 J0.
G1 X0.
G03 X-1.5875 Y165. I0. J-1.5875
G1 Y0.
G03 X0. Y-1.5875 I1.5875 J0.
G1 X21.5
G03 X23.0875 Y0. I0. J1.5875
G1 Y4.
G02 X23.9125 I0.4125 J0.
G1 Y0.
G03 X25.5 Y-1.5875 I1.5875 J0.
G1 X106.5
G03 X108.0875 Y0. I0. J1.5875
G1 Y4.
G02 X108.9125 I0.4125 J0.
G1 Y0.
G03 X110.5 Y-1.5875 I1.5875 J0.
G1 X189.04621
G03 X190.63371 Y0. I0. J1.5875
G1 Y4.
G02 X191.45871 I0.4125 J0.
G1 Y0.
G03 X193.04621 Y-1.5875 I1.5875 J0.
G1 X217.
G03 X218.5875 Y0. I0. J1.5875
G1 Y165.
G03 X217. Y166.5875 I-1.5875 J0.
G1 X193.04621
G03 X191.45871 Y165. I0. J-1.5875
G1 Y161.
G02 X190.63371 I-0.4125 J0.
G1 Y165.
G03 X189.04621 Y166.5875 I-1.5875 J0.
G1 X110.5
G03 X108.9125 Y165. I0. J-1.5875
G1 Y161.
G02 X108.0875 I-0.4125 J0.
G1 Y165.
G03 X106.5 Y166.5875 I-1.5875 J0.
G1 X72.33
G0 Z1.5875
X80.83692
G1 Z-1.16667 F912.2
X72.33 Z-2.66667 F2736.7
X25.5 F3649.
G03 X23.9125 Y165. I0. J-1.5875
G1 Y161.
G02 X23.0875 I-0.4125 J0.
G1 Y165.
G03 X21.5 Y166.5875 I-1.5875 J0.
G1 X0.
G03 X-1.5875 Y165. I0. J-1.5875
G1 Y0.
G03 X0. Y-1.5875 I1.5875 J0.
G1 X21.5
G03 X23.0875 Y0. I0. J1.5875
G1 Y4.
G02 X23.9125 I0.4125 J0.
G1 Y0.
G03 X25.5 Y-1.5875 I1.5875 J0.
G1 X106.5
G03 X108.0875 Y0. I0. J1.5875
G1 Y4.
G02 X108.9125 I0.4125 J0.
G1 Y0.
G03 X110.5 Y-1.5875 I1.5875 J0.
G1 X189.04621
G03 X190.63371 Y0. I0. J1.5875
G1 Y4.
G02 X191.45871 I0.4125 J0.
G1 Y0.
G03 X193.04621 Y-1.5875 I1.5875 J0.
G1 X217.
G03 X218.5875 Y0. I0. J1.5875
G1 Y165.
G03 X217. Y166.5875 I-1.5875 J0.
G1 X193.04621
G03 X191.45871 Y165. I0. J-1.5875
G1 Y161.
G02 X190.63371 I-0.4125 J0.
G1 Y165.
G03 X189.04621 Y166.5875 I-1.5875 J0.
G1 X110.5
G03 X108.9125 Y165. I0. J-1.5875
G1 Y161.
G02 X108.0875 I-0.4125 J0.
G1 Y165.
G03 X106.5 Y166.5875 I-1.5875 J0.
G1 X72.33
G0 Z1.5875
X80.83692
G1 Z-2.5 F912.2
X72.33 Z-4. F2736.7
X25.5 F3649.
G03 X23.9125 Y165. I0. J-1.5875
G1 Y161.
G02 X23.0875 I-0.4125 J0.
G1 Y165.
G03 X21.5 Y166.5875 I-1.5875 J0.
G1 X0.
G03 X-1.5875 Y165. I0. J-1.5875
G1 Y0.
G03 X0. Y-1.5875 I1.5875 J0.
G1 X21.5
G03 X23.0875 Y0. I0. J1.5875
G1 Y4.
G02 X23.9125 I0.4125 J0.
G1 Y0.
G03 X25.5 Y-1.5875 I1.5875 J0.
G1 X106.5
G03 X108.0875 Y0. I0. J1.5875
G1 Y4.
G02 X108.9125 I0.4125 J0.
G1 Y0.
G03 X110.5 Y-1.5875 I1.5875 J0.
G1 X189.04621
G03 X190.63371 Y0. I0. J1.5875
G1 Y4.
G02 X191.45871 I0.4125 J0.
G1 Y0.
G03 X193.04621 Y-1.5875 I1.5875 J0.
G1 X217.
G03 X218.5875 Y0. I0. J1.5875
G1 Y165.
G03 X217. Y166.5875 I-1.5875 J0.
G1 X193.04621
G03 X191.45871 Y165. I0. J-1.5875
G1 Y161.
G02 X190.63371 I-0.4125 J0.
G1 Y165.
G03 X189.04621 Y166.5875 I-1.5875 J0.
G1 X110.5
G03 X108.9125 Y165. I0. J-1.5875
G1 Y161.
G02 X108.0875 I-0.4125 J0.
G1 Y165.
G03 X106.5 Y166.5875 I-1.5875 J0.
G1 X72.33
G0 Z1.5875
M30
%
