%
G17 G21 G40 G90 G64 P0.1
(2 1/2 Axis Profiling)
(SlotDrill 2mm Carbide)
T12 M06
S24000 M3
G0 Z1.
X38.127 Y-19.70738
G1 Z-0.45241 F120.
X38.22973 Y-19.89107 Z-0.48952 F360.
X38.41035 Y-20.17077 Z-0.54823
X38.60835 Y-20.43846 Z-0.60694
X38.82293 Y-20.69305 Z-0.66565
X39.05322 Y-20.93352 Z-0.72436
X39.2983 Y-21.15889 Z-0.78307
X39.55718 Y-21.36827 Z-0.84178
X39.82882 Y-21.56081 Z-0.90048
X40.11213 Y-21.73573 Z-0.95919
X40.40596 Y-21.89234 Z-1.0179
X40.70912 Y-22.02999 Z-1.07661
X41.02041 Y-22.14813 Z-1.13532
X41.33857 Y-22.2463 Z-1.19403
X41.66231 Y-22.32409 Z-1.25274
X41.99033 Y-22.38119 Z-1.31145
X42.32132 Y-22.41736 Z-1.37016
X42.65393 Y-22.43248 Z-1.42887
X42.98683 Y-22.42647 Z-1.48757
X43.31868 Y-22.39935 Z-1.54628
X43.64814 Y-22.35125 Z-1.60499
X43.97389 Y-22.28234 Z-1.6637
X44.29461 Y-22.19292 Z-1.72241
G17
G03 X41.15677 Y-12.17894 I-1.56892 J5.00699 F480.
X44.29461 Y-22.19292 I1.56892 J-5.00699
G0 Z1.
X38.127 Y-19.70738
G1 Z-1.45241 F120.
X38.22973 Y-19.89107 Z-1.48952 F360.
X38.41035 Y-20.17077 Z-1.54823
X38.60835 Y-20.43846 Z-1.60694
X38.82293 Y-20.69305 Z-1.66565
X39.05322 Y-20.93352 Z-1.72436
X39.2983 Y-21.15889 Z-1.78307
X39.55718 Y-21.36827 Z-1.84178
X39.82882 Y-21.56081 Z-1.90048
X40.11213 Y-21.73573 Z-1.95919
X40.40596 Y-21.89234 Z-2.0179
X40.70912 Y-22.02999 Z-2.07661
X41.02041 Y-22.14813 Z-2.13532
X41.33857 Y-22.2463 Z-2.19403
X41.66231 Y-22.32409 Z-2.25274
X41.99033 Y-22.38119 Z-2.31145
X42.32132 Y-22.41736 Z-2.37016
X42.65393 Y-22.43248 Z-2.42887
X42.98683 Y-22.42647 Z-2.48757
X43.31868 Y-22.39935 Z-2.54628
X43.64814 Y-22.35125 Z-2.60499
X43.97389 Y-22.28234 Z-2.6637
X44.29461 Y-22.19292 Z-2.72241
G03 X41.15677 Y-12.17894 I-1.56892 J5.00699 F480.
X44.29461 Y-22.19292 I1.56892 J-5.00699
G0 Z1.
X38.127 Y-19.70738
G1 Z-2.45241 F120.
X38.22973 Y-19.89107 Z-2.48952 F360.
X38.41035 Y-20.17077 Z-2.54823
X38.60835 Y-20.43846 Z-2.60694
X38.82293 Y-20.69305 Z-2.66565
X39.05322 Y-20.93352 Z-2.72436
X39.2983 Y-21.15889 Z-2.78307
X39.55718 Y-21.36827 Z-2.84178
X39.82882 Y-21.56081 Z-2.90048
X40.11213 Y-21.73573 Z-2.95919
X40.40596 Y-21.89234 Z-3.0179
X40.70912 Y-22.02999 Z-3.07661
X41.02041 Y-22.14813 Z-3.13532
X41.33857 Y-22.2463 Z-3.19403
X41.66231 Y-22.32409 Z-3.25274
X41.99033 Y-22.38119 Z-3.31145
X42.32132 Y-22.41736 Z-3.37016
X42.65393 Y-22.43248 Z-3.42887
X42.98683 Y-22.42647 Z-3.48757
X43.31868 Y-22.39935 Z-3.54628
X43.64814 Y-22.35125 Z-3.60499
X43.97389 Y-22.28234 Z-3.6637
X44.29461 Y-22.19292 Z-3.72241
G03 X41.15677 Y-12.17894 I-1.56892 J5.00699 F480.
X44.29461 Y-22.19292 I1.56892 J-5.00699
G0 Z1.
X38.127 Y-19.70738
G1 Z-3.45241 F120.
X38.22973 Y-19.89107 Z-3.48952 F360.
X38.41035 Y-20.17077 Z-3.54823
X38.60835 Y-20.43846 Z-3.60694
X38.82293 Y-20.69305 Z-3.66565
X39.05322 Y-20.93352 Z-3.72436
X39.2983 Y-21.15889 Z-3.78307
X39.55718 Y-21.36827 Z-3.84178
X39.82882 Y-21.56081 Z-3.90048
X40.11213 Y-21.73573 Z-3.95919
X40.40596 Y-21.89234 Z-4.0179
X40.70912 Y-22.02999 Z-4.07661
X41.02041 Y-22.14813 Z-4.13532
X41.33857 Y-22.2463 Z-4.19403
X41.66231 Y-22.32409 Z-4.25274
X41.99033 Y-22.38119 Z-4.31145
X42.32132 Y-22.41736 Z-4.37016
X42.65393 Y-22.43248 Z-4.42887
X42.98683 Y-22.42647 Z-4.48757
X43.31868 Y-22.39935 Z-4.54628
X43.64814 Y-22.35125 Z-4.60499
X43.97389 Y-22.28234 Z-4.6637
X44.29461 Y-22.19292 Z-4.72241
G03 X41.15677 Y-12.17894 I-1.56892 J5.00699 F480.
X44.29461 Y-22.19292 I1.56892 J-5.00699
G0 Z1.
M30
%
