%
G17 G21 G40 G90 G64 P0.1
(2 1/2 Axis Profiling)
(SlotDrill 2mm Carbide)
T12 M06
S24000 M3
G0 Z1.
X47.72687 Y-28.75562
G1 Z-0.01628 F120.
X47.7885 Y-28.55431 Z-0.05341 F360.
X47.86558 Y-28.2304 Z-0.11212
X47.92196 Y-27.90226 Z-0.17083
X47.95741 Y-27.5712 Z-0.22953
X47.97179 Y-27.23855 Z-0.28824
X47.96505 Y-26.90567 Z-0.34695
X47.93721 Y-26.57389 Z-0.40566
X47.88838 Y-26.24453 Z-0.46437
X47.81876 Y-25.91894 Z-0.52308
X47.72863 Y-25.59842 Z-0.58178
X47.61835 Y-25.28426 Z-0.64049
X47.48837 Y-24.97773 Z-0.6992
X47.33921 Y-24.68006 Z-0.75791
X47.17147 Y-24.39245 Z-0.81662
X46.98582 Y-24.11605 Z-0.87533
X46.78302 Y-23.85199 Z-0.93403
X46.56388 Y-23.60132 Z-0.99274
X46.32929 Y-23.36506 Z-1.05145
X46.08018 Y-23.14414 Z-1.11016
X45.81756 Y-22.93948 Z-1.16887
X45.54249 Y-22.75188 Z-1.22758
X45.25607 Y-22.5821 Z-1.28628
G17
G03 X40.19423 Y-31.77455 I-2.53092 J-4.59623 F480.
X45.25607 Y-22.5821 I2.53092 J4.59622
G0 Z1.
X47.72687 Y-28.75562
G1 Z-1.01629 F120.
X47.7885 Y-28.55431 Z-1.05341 F360.
X47.86558 Y-28.2304 Z-1.11212
X47.92196 Y-27.90226 Z-1.17083
X47.95741 Y-27.5712 Z-1.22953
X47.97179 Y-27.23855 Z-1.28824
X47.96505 Y-26.90567 Z-1.34695
X47.93721 Y-26.57389 Z-1.40566
X47.88838 Y-26.24453 Z-1.46437
X47.81876 Y-25.91894 Z-1.52308
X47.72863 Y-25.59842 Z-1.58178
X47.61835 Y-25.28426 Z-1.64049
X47.48837 Y-24.97773 Z-1.6992
X47.33921 Y-24.68006 Z-1.75791
X47.17147 Y-24.39245 Z-1.81662
X46.98582 Y-24.11605 Z-1.87533
X46.78302 Y-23.85199 Z-1.93403
X46.56388 Y-23.60132 Z-1.99274
X46.32929 Y-23.36506 Z-2.05145
X46.08018 Y-23.14414 Z-2.11016
X45.81756 Y-22.93948 Z-2.16887
X45.54249 Y-22.75188 Z-2.22758
X45.25607 Y-22.5821 Z-2.28629
G03 X40.19423 Y-31.77455 I-2.53092 J-4.59623 F480.
X45.25607 Y-22.5821 I2.53092 J4.59622
G0 Z1.
X47.72687 Y-28.75562
G1 Z-2.01629 F120.
X47.7885 Y-28.55431 Z-2.05341 F360.
X47.86558 Y-28.2304 Z-2.11212
X47.92196 Y-27.90226 Z-2.17083
X47.95741 Y-27.5712 Z-2.22953
X47.97179 Y-27.23855 Z-2.28824
X47.96505 Y-26.90567 Z-2.34695
X47.93721 Y-26.57389 Z-2.40566
X47.88838 Y-26.24453 Z-2.46437
X47.81876 Y-25.91894 Z-2.52308
X47.72863 Y-25.59842 Z-2.58178
X47.61835 Y-25.28426 Z-2.64049
X47.48837 Y-24.97773 Z-2.6992
X47.33921 Y-24.68006 Z-2.75791
X47.17147 Y-24.39245 Z-2.81662
X46.98582 Y-24.11605 Z-2.87533
X46.78302 Y-23.85199 Z-2.93403
X46.56388 Y-23.60132 Z-2.99274
X46.32929 Y-23.36506 Z-3.05145
X46.08018 Y-23.14414 Z-3.11016
X45.81756 Y-22.93948 Z-3.16887
X45.54249 Y-22.75188 Z-3.22758
X45.25607 Y-22.5821 Z-3.28629
G03 X40.19423 Y-31.77455 I-2.53092 J-4.59623 F480.
X45.25607 Y-22.5821 I2.53092 J4.59622
G0 Z1.
X47.72687 Y-28.75562
G1 Z-3.01629 F120.
X47.7885 Y-28.55431 Z-3.05341 F360.
X47.86558 Y-28.2304 Z-3.11212
X47.92196 Y-27.90226 Z-3.17083
X47.95741 Y-27.5712 Z-3.22953
X47.97179 Y-27.23855 Z-3.28824
X47.96505 Y-26.90567 Z-3.34695
X47.93721 Y-26.57389 Z-3.40566
X47.88838 Y-26.24453 Z-3.46437
X47.81876 Y-25.91894 Z-3.52308
X47.72863 Y-25.59842 Z-3.58178
X47.61835 Y-25.28426 Z-3.64049
X47.48837 Y-24.97773 Z-3.6992
X47.33921 Y-24.68006 Z-3.75791
X47.17147 Y-24.39245 Z-3.81662
X46.98582 Y-24.11605 Z-3.87533
X46.78302 Y-23.85199 Z-3.93403
X46.56388 Y-23.60132 Z-3.99274
X46.32929 Y-23.36506 Z-4.05145
X46.08018 Y-23.14414 Z-4.11016
X45.81756 Y-22.93948 Z-4.16887
X45.54249 Y-22.75188 Z-4.22758
X45.25607 Y-22.5821 Z-4.28629
G03 X40.19423 Y-31.77455 I-2.53092 J-4.59623 F480.
X45.25607 Y-22.5821 I2.53092 J4.59622
G0 Z1.
M30
%
