%
G17 G21 G40 G90 G64 P0.1
(2 1/2 Axis Profiling)
(SlotDrill 2mm Carbide)
T12 M06
S24000 M3
G0 Z1.
X26.67066 Y-56.68268
G1 Z-0.13 F120.
X26.67088 Y-56.68248 Z-0.13005 F360.
X26.68211 Y-56.67128 Z-0.13285
X26.69261 Y-56.65938 Z-0.13565
X26.70233 Y-56.64685 Z-0.13844
X26.71123 Y-56.63372 Z-0.14124
X26.71929 Y-56.62005 Z-0.14404
X26.72646 Y-56.6059 Z-0.14684
X26.73272 Y-56.59132 Z-0.14963
X26.73805 Y-56.57638 Z-0.15243
X26.74241 Y-56.56113 Z-0.15523
X26.7458 Y-56.54563 Z-0.15802
X26.7482 Y-56.52995 Z-0.16082
X26.7496 Y-56.51415 Z-0.16362
X26.74999 Y-56.49829 Z-0.16642
X26.74938 Y-56.48244 Z-0.16921
X26.74777 Y-56.46666 Z-0.17201
X26.74515 Y-56.45101 Z-0.17481
X26.74155 Y-56.43556 Z-0.17761
X26.73698 Y-56.42037 Z-0.1804
X26.73145 Y-56.4055 Z-0.1832
X26.72499 Y-56.39101 Z-0.186
X26.71763 Y-56.37696 Z-0.18879
X26.70938 Y-56.3634 Z-0.19159
X26.7003 Y-56.3504 Z-0.19439
X26.69041 Y-56.338 Z-0.19719
X26.67975 Y-56.32625 Z-0.19998
X26.66837 Y-56.3152 Z-0.20278
X26.65631 Y-56.30489 Z-0.20558
X26.64362 Y-56.29537 Z-0.20837
X26.63035 Y-56.28667 Z-0.21117
X26.61656 Y-56.27883 Z-0.21397
X26.60229 Y-56.27189 Z-0.21677
X26.58762 Y-56.26586 Z-0.21956
X26.57259 Y-56.26077 Z-0.22236
X26.55727 Y-56.25665 Z-0.22516
X26.54173 Y-56.25351 Z-0.22796
X26.52601 Y-56.25136 Z-0.23075
X26.51019 Y-56.25021 Z-0.23355
X26.49432 Y-56.25006 Z-0.23635
X26.47848 Y-56.25093 Z-0.23914
X26.46273 Y-56.25279 Z-0.24194
X26.44712 Y-56.25566 Z-0.24474
X26.43173 Y-56.2595 Z-0.24754
X26.41662 Y-56.26431 Z-0.25033
X26.40184 Y-56.27008 Z-0.25313
X26.38745 Y-56.27677 Z-0.25593
X26.37352 Y-56.28435 Z-0.25873
X26.3601 Y-56.29281 Z-0.26152
X26.34724 Y-56.3021 Z-0.26432
X26.33499 Y-56.31219 Z-0.26712
X26.32342 Y-56.32303 Z-0.26991
X26.31255 Y-56.33459 Z-0.27271
X26.30243 Y-56.34681 Z-0.27551
X26.29311 Y-56.35965 Z-0.27831
X26.28463 Y-56.37305 Z-0.2811
X26.27701 Y-56.38697 Z-0.2839
X26.27029 Y-56.40134 Z-0.2867
X26.2645 Y-56.41611 Z-0.2895
X26.25965 Y-56.43121 Z-0.29229
X26.25577 Y-56.44659 Z-0.29509
X26.25288 Y-56.46219 Z-0.29789
X26.25097 Y-56.47794 Z-0.30068
X26.25008 Y-56.49378 Z-0.30348
X26.25019 Y-56.50964 Z-0.30628
X26.2513 Y-56.52547 Z-0.30908
X26.25342 Y-56.54119 Z-0.31187
X26.25652 Y-56.55675 Z-0.31467
X26.26061 Y-56.57207 Z-0.31747
X26.26567 Y-56.58711 Z-0.32026
X26.27166 Y-56.6018 Z-0.32306
X26.27858 Y-56.61608 Z-0.32586
X26.28639 Y-56.62988 Z-0.32866
X26.29506 Y-56.64317 Z-0.33145
X26.30455 Y-56.65588 Z-0.33425
X26.31483 Y-56.66796 Z-0.33705
X26.32586 Y-56.67937 Z-0.33985
X26.33758 Y-56.69005 Z-0.34264
X26.34996 Y-56.69997 Z-0.34544
X26.36295 Y-56.70909 Z-0.34824
X26.37648 Y-56.71736 Z-0.35103
X26.39052 Y-56.72475 Z-0.35383
X26.40499 Y-56.73124 Z-0.35663
X26.41985 Y-56.7368 Z-0.35943
X26.43503 Y-56.74141 Z-0.36222
X26.45047 Y-56.74505 Z-0.36502
X26.46612 Y-56.74769 Z-0.36782
X26.48189 Y-56.74934 Z-0.37062
X26.49774 Y-56.74999 Z-0.37341
X26.5136 Y-56.74963 Z-0.37621
X26.52941 Y-56.74826 Z-0.37901
X26.5451 Y-56.7459 Z-0.3818
X26.5606 Y-56.74254 Z-0.3846
X26.57586 Y-56.73821 Z-0.3874
X26.59082 Y-56.73292 Z-0.3902
X26.60541 Y-56.72669 Z-0.39299
X26.61957 Y-56.71955 Z-0.39579
X26.63326 Y-56.71152 Z-0.39859
X26.64641 Y-56.70265 Z-0.40138
X26.65896 Y-56.69295 Z-0.40418
X26.67088 Y-56.68248 Z-0.40698
X26.68211 Y-56.67128 Z-0.40978
X26.69261 Y-56.65938 Z-0.41257
X26.70233 Y-56.64685 Z-0.41537
X26.71123 Y-56.63372 Z-0.41817
X26.71929 Y-56.62005 Z-0.42097
X26.72646 Y-56.6059 Z-0.42376
X26.73272 Y-56.59132 Z-0.42656
X26.73805 Y-56.57638 Z-0.42936
X26.74241 Y-56.56113 Z-0.43215
X26.7458 Y-56.54563 Z-0.43495
X26.7482 Y-56.52995 Z-0.43775
X26.7496 Y-56.51415 Z-0.44055
X26.74999 Y-56.49829 Z-0.44334
X26.74938 Y-56.48244 Z-0.44614
X26.74777 Y-56.46666 Z-0.44894
X26.74515 Y-56.45101 Z-0.45174
X26.74155 Y-56.43556 Z-0.45453
X26.73698 Y-56.42037 Z-0.45733
X26.73145 Y-56.4055 Z-0.46013
X26.72499 Y-56.39101 Z-0.46292
X26.71763 Y-56.37696 Z-0.46572
X26.70938 Y-56.3634 Z-0.46852
X26.7003 Y-56.3504 Z-0.47132
X26.69041 Y-56.338 Z-0.47411
X26.67975 Y-56.32625 Z-0.47691
X26.66837 Y-56.3152 Z-0.47971
X26.65631 Y-56.30489 Z-0.4825
X26.64362 Y-56.29537 Z-0.4853
X26.63035 Y-56.28667 Z-0.4881
X26.61656 Y-56.27883 Z-0.4909
X26.60229 Y-56.27189 Z-0.49369
X26.58762 Y-56.26586 Z-0.49649
X26.57259 Y-56.26077 Z-0.49929
X26.55727 Y-56.25665 Z-0.50209
X26.54173 Y-56.25351 Z-0.50488
X26.52601 Y-56.25136 Z-0.50768
X26.51019 Y-56.25021 Z-0.51048
X26.49432 Y-56.25006 Z-0.51327
X26.47848 Y-56.25093 Z-0.51607
X26.46273 Y-56.25279 Z-0.51887
X26.44712 Y-56.25566 Z-0.52167
X26.43173 Y-56.2595 Z-0.52446
X26.41662 Y-56.26431 Z-0.52726
X26.40184 Y-56.27008 Z-0.53006
X26.38745 Y-56.27677 Z-0.53286
X26.37352 Y-56.28435 Z-0.53565
X26.3601 Y-56.29281 Z-0.53845
X26.34724 Y-56.3021 Z-0.54125
X26.33499 Y-56.31219 Z-0.54404
X26.32342 Y-56.32303 Z-0.54684
X26.31255 Y-56.33459 Z-0.54964
X26.30243 Y-56.34681 Z-0.55243
X26.29311 Y-56.35965 Z-0.55523
X26.28463 Y-56.37305 Z-0.55803
X26.27701 Y-56.38697 Z-0.56083
X26.27029 Y-56.40134 Z-0.56362
X26.2645 Y-56.41611 Z-0.56642
X26.25965 Y-56.43121 Z-0.56922
X26.25577 Y-56.44659 Z-0.57202
X26.25288 Y-56.46219 Z-0.57481
X26.25097 Y-56.47794 Z-0.57761
X26.25008 Y-56.49378 Z-0.58041
X26.25019 Y-56.50964 Z-0.5832
X26.2513 Y-56.52547 Z-0.586
X26.25342 Y-56.54119 Z-0.5888
X26.25652 Y-56.55675 Z-0.5916
X26.26061 Y-56.57207 Z-0.59439
X26.26567 Y-56.58711 Z-0.59719
X26.27166 Y-56.6018 Z-0.59999
X26.27858 Y-56.61608 Z-0.60279
X26.28639 Y-56.62988 Z-0.60558
X26.29506 Y-56.64317 Z-0.60838
X26.30455 Y-56.65588 Z-0.61118
X26.31483 Y-56.66796 Z-0.61398
X26.32586 Y-56.67937 Z-0.61677
X26.33758 Y-56.69005 Z-0.61957
X26.34996 Y-56.69997 Z-0.62237
X26.36295 Y-56.70909 Z-0.62516
X26.37648 Y-56.71736 Z-0.62796
X26.39052 Y-56.72475 Z-0.63076
X26.40499 Y-56.73124 Z-0.63355
X26.41985 Y-56.7368 Z-0.63635
X26.43503 Y-56.74141 Z-0.63915
X26.45047 Y-56.74505 Z-0.64195
X26.46612 Y-56.74769 Z-0.64474
X26.48189 Y-56.74934 Z-0.64754
X26.49774 Y-56.74999 Z-0.65034
X26.5136 Y-56.74963 Z-0.65314
X26.52941 Y-56.74826 Z-0.65593
X26.5451 Y-56.7459 Z-0.65873
X26.5606 Y-56.74254 Z-0.66153
X26.57586 Y-56.73821 Z-0.66433
X26.59082 Y-56.73292 Z-0.66712
X26.60541 Y-56.72669 Z-0.66992
X26.61957 Y-56.71955 Z-0.67272
X26.63326 Y-56.71152 Z-0.67551
X26.64641 Y-56.70265 Z-0.67831
X26.65896 Y-56.69295 Z-0.68111
X26.67088 Y-56.68248 Z-0.68391
X26.68211 Y-56.67128 Z-0.6867
X26.69261 Y-56.65938 Z-0.6895
X26.70233 Y-56.64685 Z-0.6923
X26.71123 Y-56.63372 Z-0.6951
X26.71929 Y-56.62005 Z-0.69789
X26.72646 Y-56.6059 Z-0.70069
X26.73272 Y-56.59132 Z-0.70349
X26.73805 Y-56.57638 Z-0.70628
X26.74241 Y-56.56113 Z-0.70908
X26.7458 Y-56.54563 Z-0.71188
X26.7482 Y-56.52995 Z-0.71467
X26.7496 Y-56.51415 Z-0.71747
X26.74999 Y-56.49829 Z-0.72027
X26.74938 Y-56.48244 Z-0.72307
X26.74777 Y-56.46666 Z-0.72586
X26.74515 Y-56.45101 Z-0.72866
X26.74155 Y-56.43556 Z-0.73146
X26.73698 Y-56.42037 Z-0.73426
X26.73145 Y-56.4055 Z-0.73705
X26.72499 Y-56.39101 Z-0.73985
X26.71763 Y-56.37696 Z-0.74265
X26.70938 Y-56.3634 Z-0.74544
X26.7003 Y-56.3504 Z-0.74824
X26.69041 Y-56.338 Z-0.75104
X26.67975 Y-56.32625 Z-0.75384
X26.66837 Y-56.3152 Z-0.75663
X26.65631 Y-56.30489 Z-0.75943
X26.64362 Y-56.29537 Z-0.76223
X26.63035 Y-56.28667 Z-0.76503
X26.61656 Y-56.27883 Z-0.76782
X26.60229 Y-56.27189 Z-0.77062
X26.58762 Y-56.26586 Z-0.77342
X26.57259 Y-56.26077 Z-0.77622
X26.55727 Y-56.25665 Z-0.77901
X26.54173 Y-56.25351 Z-0.78181
X26.52601 Y-56.25136 Z-0.78461
X26.51019 Y-56.25021 Z-0.7874
X26.49432 Y-56.25006 Z-0.7902
X26.47848 Y-56.25093 Z-0.793
X26.46273 Y-56.25279 Z-0.7958
X26.44712 Y-56.25566 Z-0.79859
X26.43173 Y-56.2595 Z-0.80139
X26.41662 Y-56.26431 Z-0.80419
X26.40184 Y-56.27008 Z-0.80698
X26.38745 Y-56.27677 Z-0.80978
X26.37352 Y-56.28435 Z-0.81258
X26.3601 Y-56.29281 Z-0.81538
X26.34724 Y-56.3021 Z-0.81817
X26.33499 Y-56.31219 Z-0.82097
X26.32342 Y-56.32303 Z-0.82377
X26.31255 Y-56.33459 Z-0.82657
X26.30243 Y-56.34681 Z-0.82936
X26.29311 Y-56.35965 Z-0.83216
X26.28463 Y-56.37305 Z-0.83496
X26.27701 Y-56.38697 Z-0.83775
X26.27029 Y-56.40134 Z-0.84055
X26.2645 Y-56.41611 Z-0.84335
X26.25965 Y-56.43121 Z-0.84615
X26.25577 Y-56.44659 Z-0.84894
X26.25288 Y-56.46219 Z-0.85174
X26.25097 Y-56.47794 Z-0.85454
X26.25008 Y-56.49378 Z-0.85733
X26.25019 Y-56.50964 Z-0.86013
X26.2513 Y-56.52547 Z-0.86293
X26.25342 Y-56.54119 Z-0.86573
X26.25652 Y-56.55675 Z-0.86852
X26.26061 Y-56.57207 Z-0.87132
X26.26567 Y-56.58711 Z-0.87412
X26.27166 Y-56.6018 Z-0.87692
X26.27858 Y-56.61608 Z-0.87971
X26.28639 Y-56.62988 Z-0.88251
X26.29506 Y-56.64317 Z-0.88531
X26.30455 Y-56.65588 Z-0.88811
X26.31483 Y-56.66796 Z-0.8909
X26.32586 Y-56.67937 Z-0.8937
X26.33758 Y-56.69005 Z-0.8965
X26.34996 Y-56.69997 Z-0.89929
X26.36295 Y-56.70909 Z-0.90209
X26.37648 Y-56.71736 Z-0.90489
X26.39052 Y-56.72475 Z-0.90769
X26.40499 Y-56.73124 Z-0.91048
X26.41985 Y-56.7368 Z-0.91328
X26.43503 Y-56.74141 Z-0.91608
X26.45047 Y-56.74505 Z-0.91887
X26.46612 Y-56.74769 Z-0.92167
X26.48189 Y-56.74934 Z-0.92447
X26.49774 Y-56.74999 Z-0.92727
X26.5136 Y-56.74963 Z-0.93006
X26.52941 Y-56.74826 Z-0.93286
X26.5451 Y-56.7459 Z-0.93566
X26.5606 Y-56.74254 Z-0.93846
X26.57586 Y-56.73821 Z-0.94125
X26.59082 Y-56.73292 Z-0.94405
X26.60541 Y-56.72669 Z-0.94685
X26.61957 Y-56.71955 Z-0.94964
X26.63326 Y-56.71152 Z-0.95244
X26.64641 Y-56.70265 Z-0.95524
X26.65896 Y-56.69295 Z-0.95804
X26.67088 Y-56.68248 Z-0.96083
X26.68211 Y-56.67128 Z-0.96363
X26.69261 Y-56.65938 Z-0.96643
X26.70233 Y-56.64685 Z-0.96923
X26.71123 Y-56.63372 Z-0.97202
X26.71929 Y-56.62005 Z-0.97482
X26.72646 Y-56.6059 Z-0.97762
X26.73272 Y-56.59132 Z-0.98041
X26.73805 Y-56.57638 Z-0.98321
X26.74241 Y-56.56113 Z-0.98601
X26.7458 Y-56.54563 Z-0.98881
X26.7482 Y-56.52995 Z-0.9916
X26.7496 Y-56.51415 Z-0.9944
X26.74999 Y-56.49829 Z-0.9972
X26.74938 Y-56.48244 Z-0.99999
X26.74777 Y-56.46666 Z-1.00279
X26.74515 Y-56.45101 Z-1.00559
X26.74155 Y-56.43556 Z-1.00839
X26.73698 Y-56.42037 Z-1.01118
X26.73145 Y-56.4055 Z-1.01398
X26.72499 Y-56.39101 Z-1.01678
X26.71763 Y-56.37696 Z-1.01957
X26.70938 Y-56.3634 Z-1.02237
X26.7003 Y-56.3504 Z-1.02517
X26.69041 Y-56.338 Z-1.02797
X26.67975 Y-56.32625 Z-1.03076
X26.66837 Y-56.3152 Z-1.03356
X26.65631 Y-56.30489 Z-1.03636
X26.64362 Y-56.29537 Z-1.03916
X26.63035 Y-56.28667 Z-1.04195
X26.61656 Y-56.27883 Z-1.04475
X26.60229 Y-56.27189 Z-1.04755
X26.58762 Y-56.26586 Z-1.05035
X26.57259 Y-56.26077 Z-1.05314
X26.55727 Y-56.25665 Z-1.05594
X26.54173 Y-56.25351 Z-1.05874
X26.52601 Y-56.25136 Z-1.06153
X26.51019 Y-56.25021 Z-1.06433
X26.49432 Y-56.25006 Z-1.06713
X26.47848 Y-56.25093 Z-1.06993
X26.46273 Y-56.25279 Z-1.07272
X26.44712 Y-56.25566 Z-1.07552
X26.43173 Y-56.2595 Z-1.07832
X26.41662 Y-56.26431 Z-1.08111
X26.40184 Y-56.27008 Z-1.08391
X26.38745 Y-56.27677 Z-1.08671
X26.37352 Y-56.28435 Z-1.08951
X26.3601 Y-56.29281 Z-1.0923
X26.34724 Y-56.3021 Z-1.0951
X26.33499 Y-56.31219 Z-1.0979
X26.32342 Y-56.32303 Z-1.1007
X26.31255 Y-56.33459 Z-1.10349
X26.30243 Y-56.34681 Z-1.10629
X26.29311 Y-56.35965 Z-1.10909
X26.28463 Y-56.37305 Z-1.11188
X26.27701 Y-56.38697 Z-1.11468
X26.27029 Y-56.40134 Z-1.11748
X26.2645 Y-56.41611 Z-1.12028
X26.25965 Y-56.43121 Z-1.12307
X26.25577 Y-56.44659 Z-1.12587
X26.25288 Y-56.46219 Z-1.12867
X26.25097 Y-56.47794 Z-1.13147
X26.25008 Y-56.49378 Z-1.13426
X26.25019 Y-56.50964 Z-1.13706
X26.2513 Y-56.52547 Z-1.13986
X26.25342 Y-56.54119 Z-1.14265
X26.25652 Y-56.55675 Z-1.14545
X26.26061 Y-56.57207 Z-1.14825
X26.26567 Y-56.58711 Z-1.15105
X26.27166 Y-56.6018 Z-1.15384
X26.27858 Y-56.61608 Z-1.15664
X26.28639 Y-56.62988 Z-1.15944
X26.29506 Y-56.64317 Z-1.16223
X26.30455 Y-56.65588 Z-1.16503
X26.31483 Y-56.66796 Z-1.16783
X26.32586 Y-56.67937 Z-1.17063
X26.33758 Y-56.69005 Z-1.17342
X26.34996 Y-56.69997 Z-1.17622
X26.36295 Y-56.70909 Z-1.17902
X26.37648 Y-56.71736 Z-1.18182
X26.39052 Y-56.72475 Z-1.18461
X26.40499 Y-56.73124 Z-1.18741
X26.41985 Y-56.7368 Z-1.19021
X26.43503 Y-56.74141 Z-1.193
X26.45047 Y-56.74505 Z-1.1958
X26.46612 Y-56.74769 Z-1.1986
X26.48189 Y-56.74934 Z-1.2014
X26.49774 Y-56.74999 Z-1.20419
X26.5136 Y-56.74963 Z-1.20699
X26.52941 Y-56.74826 Z-1.20979
X26.5451 Y-56.7459 Z-1.21259
X26.5606 Y-56.74254 Z-1.21538
X26.57586 Y-56.73821 Z-1.21818
X26.59082 Y-56.73292 Z-1.22098
X26.60541 Y-56.72669 Z-1.22377
X26.61957 Y-56.71955 Z-1.22657
X26.63326 Y-56.71152 Z-1.22937
X26.64641 Y-56.70265 Z-1.23217
X26.65896 Y-56.69295 Z-1.23496
X26.67088 Y-56.68248 Z-1.23776
X26.68211 Y-56.67128 Z-1.24056
X26.69261 Y-56.65938 Z-1.24335
X26.70233 Y-56.64685 Z-1.24615
X26.71123 Y-56.63372 Z-1.24895
X26.71929 Y-56.62005 Z-1.25175
X26.72646 Y-56.6059 Z-1.25454
X26.73272 Y-56.59132 Z-1.25734
X26.73805 Y-56.57638 Z-1.26014
X26.74241 Y-56.56113 Z-1.26293
X26.7458 Y-56.54563 Z-1.26573
X26.7482 Y-56.52995 Z-1.26853
X26.7496 Y-56.51415 Z-1.27133
X26.74999 Y-56.49829 Z-1.27412
X26.74938 Y-56.48244 Z-1.27692
X26.74777 Y-56.46666 Z-1.27972
X26.74515 Y-56.45101 Z-1.28252
X26.74155 Y-56.43556 Z-1.28531
X26.73698 Y-56.42037 Z-1.28811
X26.73145 Y-56.4055 Z-1.29091
X26.72499 Y-56.39101 Z-1.29371
X26.71763 Y-56.37696 Z-1.2965
X26.70938 Y-56.3634 Z-1.2993
X26.7003 Y-56.3504 Z-1.3021
X26.69041 Y-56.338 Z-1.30489
X26.67975 Y-56.32625 Z-1.30769
X26.66837 Y-56.3152 Z-1.31049
X26.65631 Y-56.30489 Z-1.31329
X26.64362 Y-56.29537 Z-1.31608
X26.63035 Y-56.28667 Z-1.31888
X26.61656 Y-56.27883 Z-1.32168
X26.60229 Y-56.27189 Z-1.32447
X26.58762 Y-56.26586 Z-1.32727
X26.57259 Y-56.26077 Z-1.33007
X26.55727 Y-56.25665 Z-1.33287
X26.54173 Y-56.25351 Z-1.33566
X26.52601 Y-56.25136 Z-1.33846
X26.51019 Y-56.25021 Z-1.34126
X26.49432 Y-56.25006 Z-1.34406
X26.47848 Y-56.25093 Z-1.34685
X26.46273 Y-56.25279 Z-1.34965
X26.44712 Y-56.25566 Z-1.35245
X26.43173 Y-56.2595 Z-1.35524
X26.41662 Y-56.26431 Z-1.35804
X26.40184 Y-56.27008 Z-1.36084
X26.38745 Y-56.27677 Z-1.36364
X26.37352 Y-56.28435 Z-1.36643
X26.3601 Y-56.29281 Z-1.36923
X26.34724 Y-56.3021 Z-1.37203
X26.33499 Y-56.31219 Z-1.37482
X26.32342 Y-56.32303 Z-1.37762
X26.31255 Y-56.33459 Z-1.38042
X26.30243 Y-56.34681 Z-1.38322
X26.29311 Y-56.35965 Z-1.38601
X26.28463 Y-56.37305 Z-1.38881
X26.27701 Y-56.38697 Z-1.39161
X26.27029 Y-56.40134 Z-1.39441
X26.2645 Y-56.41611 Z-1.3972
X26.25965 Y-56.43121 Z-1.4
X26.32025 Y-56.67375 F480.
X26.5606 Y-56.74254
X26.74035 Y-56.56879
X26.67975 Y-56.32625
X26.4394 Y-56.25746
X26.25965 Y-56.43121
G0 Z1.
X26.67066 Y-56.68268
G1 Z-1.13 F120.
X26.67088 Y-56.68248 Z-1.13005 F360.
X26.68211 Y-56.67128 Z-1.13285
X26.69261 Y-56.65938 Z-1.13565
X26.70233 Y-56.64685 Z-1.13844
X26.71123 Y-56.63372 Z-1.14124
X26.71929 Y-56.62005 Z-1.14404
X26.72646 Y-56.6059 Z-1.14684
X26.73272 Y-56.59132 Z-1.14963
X26.73805 Y-56.57638 Z-1.15243
X26.74241 Y-56.56113 Z-1.15523
X26.7458 Y-56.54563 Z-1.15802
X26.7482 Y-56.52995 Z-1.16082
X26.7496 Y-56.51415 Z-1.16362
X26.74999 Y-56.49829 Z-1.16642
X26.74938 Y-56.48244 Z-1.16921
X26.74777 Y-56.46666 Z-1.17201
X26.74515 Y-56.45101 Z-1.17481
X26.74155 Y-56.43556 Z-1.17761
X26.73698 Y-56.42037 Z-1.1804
X26.73145 Y-56.4055 Z-1.1832
X26.72499 Y-56.39101 Z-1.186
X26.71763 Y-56.37696 Z-1.18879
X26.70938 Y-56.3634 Z-1.19159
X26.7003 Y-56.3504 Z-1.19439
X26.69041 Y-56.338 Z-1.19718
X26.67975 Y-56.32625 Z-1.19998
X26.66837 Y-56.3152 Z-1.20278
X26.65631 Y-56.30489 Z-1.20558
X26.64362 Y-56.29537 Z-1.20837
X26.63035 Y-56.28667 Z-1.21117
X26.61656 Y-56.27883 Z-1.21397
X26.60229 Y-56.27189 Z-1.21677
X26.58762 Y-56.26586 Z-1.21956
X26.57259 Y-56.26077 Z-1.22236
X26.55727 Y-56.25665 Z-1.22516
X26.54173 Y-56.25351 Z-1.22796
X26.52601 Y-56.25136 Z-1.23075
X26.51019 Y-56.25021 Z-1.23355
X26.49432 Y-56.25006 Z-1.23635
X26.47848 Y-56.25093 Z-1.23914
X26.46273 Y-56.25279 Z-1.24194
X26.44712 Y-56.25566 Z-1.24474
X26.43173 Y-56.2595 Z-1.24754
X26.41662 Y-56.26431 Z-1.25033
X26.40184 Y-56.27008 Z-1.25313
X26.38745 Y-56.27677 Z-1.25593
X26.37352 Y-56.28435 Z-1.25873
X26.3601 Y-56.29281 Z-1.26152
X26.34724 Y-56.3021 Z-1.26432
X26.33499 Y-56.31219 Z-1.26712
X26.32342 Y-56.32303 Z-1.26991
X26.31255 Y-56.33459 Z-1.27271
X26.30243 Y-56.34681 Z-1.27551
X26.29311 Y-56.35965 Z-1.27831
X26.28463 Y-56.37305 Z-1.2811
X26.27701 Y-56.38697 Z-1.2839
X26.27029 Y-56.40134 Z-1.2867
X26.2645 Y-56.41611 Z-1.28949
X26.25965 Y-56.43121 Z-1.29229
X26.25577 Y-56.44659 Z-1.29509
X26.25288 Y-56.46219 Z-1.29789
X26.25097 Y-56.47794 Z-1.30068
X26.25008 Y-56.49378 Z-1.30348
X26.25019 Y-56.50964 Z-1.30628
X26.2513 Y-56.52547 Z-1.30908
X26.25342 Y-56.54119 Z-1.31187
X26.25652 Y-56.55675 Z-1.31467
X26.26061 Y-56.57207 Z-1.31747
X26.26567 Y-56.58711 Z-1.32026
X26.27166 Y-56.6018 Z-1.32306
X26.27858 Y-56.61608 Z-1.32586
X26.28639 Y-56.62988 Z-1.32866
X26.29506 Y-56.64317 Z-1.33145
X26.30455 Y-56.65588 Z-1.33425
X26.31483 Y-56.66796 Z-1.33705
X26.32586 Y-56.67937 Z-1.33985
X26.33758 Y-56.69005 Z-1.34264
X26.34996 Y-56.69997 Z-1.34544
X26.36295 Y-56.70909 Z-1.34824
X26.37648 Y-56.71736 Z-1.35103
X26.39052 Y-56.72475 Z-1.35383
X26.40499 Y-56.73124 Z-1.35663
X26.41985 Y-56.7368 Z-1.35943
X26.43503 Y-56.74141 Z-1.36222
X26.45047 Y-56.74505 Z-1.36502
X26.46612 Y-56.74769 Z-1.36782
X26.48189 Y-56.74934 Z-1.37062
X26.49774 Y-56.74999 Z-1.37341
X26.5136 Y-56.74963 Z-1.37621
X26.52941 Y-56.74826 Z-1.37901
X26.5451 Y-56.7459 Z-1.3818
X26.5606 Y-56.74254 Z-1.3846
X26.57586 Y-56.73821 Z-1.3874
X26.59082 Y-56.73292 Z-1.3902
X26.60541 Y-56.72669 Z-1.39299
X26.61957 Y-56.71955 Z-1.39579
X26.63326 Y-56.71152 Z-1.39859
X26.64641 Y-56.70265 Z-1.40138
X26.65896 Y-56.69295 Z-1.40418
X26.67088 Y-56.68248 Z-1.40698
X26.68211 Y-56.67128 Z-1.40978
X26.69261 Y-56.65938 Z-1.41257
X26.70233 Y-56.64685 Z-1.41537
X26.71123 Y-56.63372 Z-1.41817
X26.71929 Y-56.62005 Z-1.42097
X26.72646 Y-56.6059 Z-1.42376
X26.73272 Y-56.59132 Z-1.42656
X26.73805 Y-56.57638 Z-1.42936
X26.74241 Y-56.56113 Z-1.43215
X26.7458 Y-56.54563 Z-1.43495
X26.7482 Y-56.52995 Z-1.43775
X26.7496 Y-56.51415 Z-1.44055
X26.74999 Y-56.49829 Z-1.44334
X26.74938 Y-56.48244 Z-1.44614
X26.74777 Y-56.46666 Z-1.44894
X26.74515 Y-56.45101 Z-1.45174
X26.74155 Y-56.43556 Z-1.45453
X26.73698 Y-56.42037 Z-1.45733
X26.73145 Y-56.4055 Z-1.46013
X26.72499 Y-56.39101 Z-1.46292
X26.71763 Y-56.37696 Z-1.46572
X26.70938 Y-56.3634 Z-1.46852
X26.7003 Y-56.3504 Z-1.47131
X26.69041 Y-56.338 Z-1.47411
X26.67975 Y-56.32625 Z-1.47691
X26.66837 Y-56.3152 Z-1.47971
X26.65631 Y-56.30489 Z-1.4825
X26.64362 Y-56.29537 Z-1.4853
X26.63035 Y-56.28667 Z-1.4881
X26.61656 Y-56.27883 Z-1.4909
X26.60229 Y-56.27189 Z-1.49369
X26.58762 Y-56.26586 Z-1.49649
X26.57259 Y-56.26077 Z-1.49929
X26.55727 Y-56.25665 Z-1.50209
X26.54173 Y-56.25351 Z-1.50488
X26.52601 Y-56.25136 Z-1.50768
X26.51019 Y-56.25021 Z-1.51048
X26.49432 Y-56.25006 Z-1.51327
X26.47848 Y-56.25093 Z-1.51607
X26.46273 Y-56.25279 Z-1.51887
X26.44712 Y-56.25566 Z-1.52167
X26.43173 Y-56.2595 Z-1.52446
X26.41662 Y-56.26431 Z-1.52726
X26.40184 Y-56.27008 Z-1.53006
X26.38745 Y-56.27677 Z-1.53286
X26.37352 Y-56.28435 Z-1.53565
X26.3601 Y-56.29281 Z-1.53845
X26.34724 Y-56.3021 Z-1.54125
X26.33499 Y-56.31219 Z-1.54404
X26.32342 Y-56.32303 Z-1.54684
X26.31255 Y-56.33459 Z-1.54964
X26.30243 Y-56.34681 Z-1.55244
X26.29311 Y-56.35965 Z-1.55523
X26.28463 Y-56.37305 Z-1.55803
X26.27701 Y-56.38697 Z-1.56083
X26.27029 Y-56.40134 Z-1.56362
X26.2645 Y-56.41611 Z-1.56642
X26.25965 Y-56.43121 Z-1.56922
X26.25577 Y-56.44659 Z-1.57202
X26.25288 Y-56.46219 Z-1.57481
X26.25097 Y-56.47794 Z-1.57761
X26.25008 Y-56.49378 Z-1.58041
X26.25019 Y-56.50964 Z-1.58321
X26.2513 Y-56.52547 Z-1.586
X26.25342 Y-56.54119 Z-1.5888
X26.25652 Y-56.55675 Z-1.5916
X26.26061 Y-56.57207 Z-1.59439
X26.26567 Y-56.58711 Z-1.59719
X26.27166 Y-56.6018 Z-1.59999
X26.27858 Y-56.61608 Z-1.60279
X26.28639 Y-56.62988 Z-1.60558
X26.29506 Y-56.64317 Z-1.60838
X26.30455 Y-56.65588 Z-1.61118
X26.31483 Y-56.66796 Z-1.61398
X26.32586 Y-56.67937 Z-1.61677
X26.33758 Y-56.69005 Z-1.61957
X26.34996 Y-56.69997 Z-1.62237
X26.36295 Y-56.70909 Z-1.62516
X26.37648 Y-56.71736 Z-1.62796
X26.39052 Y-56.72475 Z-1.63076
X26.40499 Y-56.73124 Z-1.63356
X26.41985 Y-56.7368 Z-1.63635
X26.43503 Y-56.74141 Z-1.63915
X26.45047 Y-56.74505 Z-1.64195
X26.46612 Y-56.74769 Z-1.64474
X26.48189 Y-56.74934 Z-1.64754
X26.49774 Y-56.74999 Z-1.65034
X26.5136 Y-56.74963 Z-1.65314
X26.52941 Y-56.74826 Z-1.65593
X26.5451 Y-56.7459 Z-1.65873
X26.5606 Y-56.74254 Z-1.66153
X26.57586 Y-56.73821 Z-1.66433
X26.59082 Y-56.73292 Z-1.66712
X26.60541 Y-56.72669 Z-1.66992
X26.61957 Y-56.71955 Z-1.67272
X26.63326 Y-56.71152 Z-1.67551
X26.64641 Y-56.70265 Z-1.67831
X26.65896 Y-56.69295 Z-1.68111
X26.67088 Y-56.68248 Z-1.68391
X26.68211 Y-56.67128 Z-1.6867
X26.69261 Y-56.65938 Z-1.6895
X26.70233 Y-56.64685 Z-1.6923
X26.71123 Y-56.63372 Z-1.6951
X26.71929 Y-56.62005 Z-1.69789
X26.72646 Y-56.6059 Z-1.70069
X26.73272 Y-56.59132 Z-1.70349
X26.73805 Y-56.57638 Z-1.70628
X26.74241 Y-56.56113 Z-1.70908
X26.7458 Y-56.54563 Z-1.71188
X26.7482 Y-56.52995 Z-1.71468
X26.7496 Y-56.51415 Z-1.71747
X26.74999 Y-56.49829 Z-1.72027
X26.74938 Y-56.48244 Z-1.72307
X26.74777 Y-56.46666 Z-1.72586
X26.74515 Y-56.45101 Z-1.72866
X26.74155 Y-56.43556 Z-1.73146
X26.73698 Y-56.42037 Z-1.73426
X26.73145 Y-56.4055 Z-1.73705
X26.72499 Y-56.39101 Z-1.73985
X26.71763 Y-56.37696 Z-1.74265
X26.70938 Y-56.3634 Z-1.74544
X26.7003 Y-56.3504 Z-1.74824
X26.69041 Y-56.338 Z-1.75104
X26.67975 Y-56.32625 Z-1.75384
X26.66837 Y-56.3152 Z-1.75663
X26.65631 Y-56.30489 Z-1.75943
X26.64362 Y-56.29537 Z-1.76223
X26.63035 Y-56.28667 Z-1.76503
X26.61656 Y-56.27883 Z-1.76782
X26.60229 Y-56.27189 Z-1.77062
X26.58762 Y-56.26586 Z-1.77342
X26.57259 Y-56.26077 Z-1.77622
X26.55727 Y-56.25665 Z-1.77901
X26.54173 Y-56.25351 Z-1.78181
X26.52601 Y-56.25136 Z-1.78461
X26.51019 Y-56.25021 Z-1.7874
X26.49432 Y-56.25006 Z-1.7902
X26.47848 Y-56.25093 Z-1.793
X26.46273 Y-56.25279 Z-1.7958
X26.44712 Y-56.25566 Z-1.79859
X26.43173 Y-56.2595 Z-1.80139
X26.41662 Y-56.26431 Z-1.80419
X26.40184 Y-56.27008 Z-1.80698
X26.38745 Y-56.27677 Z-1.80978
X26.37352 Y-56.28435 Z-1.81258
X26.3601 Y-56.29281 Z-1.81538
X26.34724 Y-56.3021 Z-1.81817
X26.33499 Y-56.31219 Z-1.82097
X26.32342 Y-56.32303 Z-1.82377
X26.31255 Y-56.33459 Z-1.82657
X26.30243 Y-56.34681 Z-1.82936
X26.29311 Y-56.35965 Z-1.83216
X26.28463 Y-56.37305 Z-1.83496
X26.27701 Y-56.38697 Z-1.83775
X26.27029 Y-56.40134 Z-1.84055
X26.2645 Y-56.41611 Z-1.84335
X26.25965 Y-56.43121 Z-1.84615
X26.25577 Y-56.44659 Z-1.84894
X26.25288 Y-56.46219 Z-1.85174
X26.25097 Y-56.47794 Z-1.85454
X26.25008 Y-56.49378 Z-1.85734
X26.25019 Y-56.50964 Z-1.86013
X26.2513 Y-56.52547 Z-1.86293
X26.25342 Y-56.54119 Z-1.86573
X26.25652 Y-56.55675 Z-1.86852
X26.26061 Y-56.57207 Z-1.87132
X26.26567 Y-56.58711 Z-1.87412
X26.27166 Y-56.6018 Z-1.87692
X26.27858 Y-56.61608 Z-1.87971
X26.28639 Y-56.62988 Z-1.88251
X26.29506 Y-56.64317 Z-1.88531
X26.30455 Y-56.65588 Z-1.88811
X26.31483 Y-56.66796 Z-1.8909
X26.32586 Y-56.67937 Z-1.8937
X26.33758 Y-56.69005 Z-1.8965
X26.34996 Y-56.69997 Z-1.89929
X26.36295 Y-56.70909 Z-1.90209
X26.37648 Y-56.71736 Z-1.90489
X26.39052 Y-56.72475 Z-1.90769
X26.40499 Y-56.73124 Z-1.91048
X26.41985 Y-56.7368 Z-1.91328
X26.43503 Y-56.74141 Z-1.91608
X26.45047 Y-56.74505 Z-1.91887
X26.46612 Y-56.74769 Z-1.92167
X26.48189 Y-56.74934 Z-1.92447
X26.49774 Y-56.74999 Z-1.92727
X26.5136 Y-56.74963 Z-1.93006
X26.52941 Y-56.74826 Z-1.93286
X26.5451 Y-56.7459 Z-1.93566
X26.5606 Y-56.74254 Z-1.93846
X26.57586 Y-56.73821 Z-1.94125
X26.59082 Y-56.73292 Z-1.94405
X26.60541 Y-56.72669 Z-1.94685
X26.61957 Y-56.71955 Z-1.94964
X26.63326 Y-56.71152 Z-1.95244
X26.64641 Y-56.70265 Z-1.95524
X26.65896 Y-56.69295 Z-1.95804
X26.67088 Y-56.68248 Z-1.96083
X26.68211 Y-56.67128 Z-1.96363
X26.69261 Y-56.65938 Z-1.96643
X26.70233 Y-56.64685 Z-1.96923
X26.71123 Y-56.63372 Z-1.97202
X26.71929 Y-56.62005 Z-1.97482
X26.72646 Y-56.6059 Z-1.97762
X26.73272 Y-56.59132 Z-1.98041
X26.73805 Y-56.57638 Z-1.98321
X26.74241 Y-56.56113 Z-1.98601
X26.7458 Y-56.54563 Z-1.98881
X26.7482 Y-56.52995 Z-1.9916
X26.7496 Y-56.51415 Z-1.9944
X26.74999 Y-56.49829 Z-1.9972
X26.74938 Y-56.48244 Z-1.99999
X26.74777 Y-56.46666 Z-2.00279
X26.74515 Y-56.45101 Z-2.00559
X26.74155 Y-56.43556 Z-2.00839
X26.73698 Y-56.42037 Z-2.01118
X26.73145 Y-56.4055 Z-2.01398
X26.72499 Y-56.39101 Z-2.01678
X26.71763 Y-56.37696 Z-2.01958
X26.70938 Y-56.3634 Z-2.02237
X26.7003 Y-56.3504 Z-2.02517
X26.69041 Y-56.338 Z-2.02797
X26.67975 Y-56.32625 Z-2.03076
X26.66837 Y-56.3152 Z-2.03356
X26.65631 Y-56.30489 Z-2.03636
X26.64362 Y-56.29537 Z-2.03916
X26.63035 Y-56.28667 Z-2.04195
X26.61656 Y-56.27883 Z-2.04475
X26.60229 Y-56.27189 Z-2.04755
X26.58762 Y-56.26586 Z-2.05035
X26.57259 Y-56.26077 Z-2.05314
X26.55727 Y-56.25665 Z-2.05594
X26.54173 Y-56.25351 Z-2.05874
X26.52601 Y-56.25136 Z-2.06153
X26.51019 Y-56.25021 Z-2.06433
X26.49432 Y-56.25006 Z-2.06713
X26.47848 Y-56.25093 Z-2.06993
X26.46273 Y-56.25279 Z-2.07272
X26.44712 Y-56.25566 Z-2.07552
X26.43173 Y-56.2595 Z-2.07832
X26.41662 Y-56.26431 Z-2.08111
X26.40184 Y-56.27008 Z-2.08391
X26.38745 Y-56.27677 Z-2.08671
X26.37352 Y-56.28435 Z-2.08951
X26.3601 Y-56.29281 Z-2.0923
X26.34724 Y-56.3021 Z-2.0951
X26.33499 Y-56.31219 Z-2.0979
X26.32342 Y-56.32303 Z-2.1007
X26.31255 Y-56.33459 Z-2.10349
X26.30243 Y-56.34681 Z-2.10629
X26.29311 Y-56.35965 Z-2.10909
X26.28463 Y-56.37305 Z-2.11188
X26.27701 Y-56.38697 Z-2.11468
X26.27029 Y-56.40134 Z-2.11748
X26.2645 Y-56.41611 Z-2.12028
X26.25965 Y-56.43121 Z-2.12307
X26.25577 Y-56.44659 Z-2.12587
X26.25288 Y-56.46219 Z-2.12867
X26.25097 Y-56.47794 Z-2.13147
X26.25008 Y-56.49378 Z-2.13426
X26.25019 Y-56.50964 Z-2.13706
X26.2513 Y-56.52547 Z-2.13986
X26.25342 Y-56.54119 Z-2.14265
X26.25652 Y-56.55675 Z-2.14545
X26.26061 Y-56.57207 Z-2.14825
X26.26567 Y-56.58711 Z-2.15104
X26.27166 Y-56.6018 Z-2.15384
X26.27858 Y-56.61608 Z-2.15664
X26.28639 Y-56.62988 Z-2.15944
X26.29506 Y-56.64317 Z-2.16223
X26.30455 Y-56.65588 Z-2.16503
X26.31483 Y-56.66796 Z-2.16783
X26.32586 Y-56.67937 Z-2.17063
X26.33758 Y-56.69005 Z-2.17342
X26.34996 Y-56.69997 Z-2.17622
X26.36295 Y-56.70909 Z-2.17902
X26.37648 Y-56.71736 Z-2.18182
X26.39052 Y-56.72475 Z-2.18461
X26.40499 Y-56.73124 Z-2.18741
X26.41985 Y-56.7368 Z-2.19021
X26.43503 Y-56.74141 Z-2.193
X26.45047 Y-56.74505 Z-2.1958
X26.46612 Y-56.74769 Z-2.1986
X26.48189 Y-56.74934 Z-2.2014
X26.49774 Y-56.74999 Z-2.20419
X26.5136 Y-56.74963 Z-2.20699
X26.52941 Y-56.74826 Z-2.20979
X26.5451 Y-56.7459 Z-2.21259
X26.5606 Y-56.74254 Z-2.21538
X26.57586 Y-56.73821 Z-2.21818
X26.59082 Y-56.73292 Z-2.22098
X26.60541 Y-56.72669 Z-2.22377
X26.61957 Y-56.71955 Z-2.22657
X26.63326 Y-56.71152 Z-2.22937
X26.64641 Y-56.70265 Z-2.23217
X26.65896 Y-56.69295 Z-2.23496
X26.67088 Y-56.68248 Z-2.23776
X26.68211 Y-56.67128 Z-2.24056
X26.69261 Y-56.65938 Z-2.24335
X26.70233 Y-56.64685 Z-2.24615
X26.71123 Y-56.63372 Z-2.24895
X26.71929 Y-56.62005 Z-2.25175
X26.72646 Y-56.6059 Z-2.25454
X26.73272 Y-56.59132 Z-2.25734
X26.73805 Y-56.57638 Z-2.26014
X26.74241 Y-56.56113 Z-2.26294
X26.7458 Y-56.54563 Z-2.26573
X26.7482 Y-56.52995 Z-2.26853
X26.7496 Y-56.51415 Z-2.27133
X26.74999 Y-56.49829 Z-2.27412
X26.74938 Y-56.48244 Z-2.27692
X26.74777 Y-56.46666 Z-2.27972
X26.74515 Y-56.45101 Z-2.28252
X26.74155 Y-56.43556 Z-2.28531
X26.73698 Y-56.42037 Z-2.28811
X26.73145 Y-56.4055 Z-2.29091
X26.72499 Y-56.39101 Z-2.29371
X26.71763 Y-56.37696 Z-2.2965
X26.70938 Y-56.3634 Z-2.2993
X26.7003 Y-56.3504 Z-2.3021
X26.69041 Y-56.338 Z-2.30489
X26.67975 Y-56.32625 Z-2.30769
X26.66837 Y-56.3152 Z-2.31049
X26.65631 Y-56.30489 Z-2.31329
X26.64362 Y-56.29537 Z-2.31608
X26.63035 Y-56.28667 Z-2.31888
X26.61656 Y-56.27883 Z-2.32168
X26.60229 Y-56.27189 Z-2.32447
X26.58762 Y-56.26586 Z-2.32727
X26.57259 Y-56.26077 Z-2.33007
X26.55727 Y-56.25665 Z-2.33287
X26.54173 Y-56.25351 Z-2.33566
X26.52601 Y-56.25136 Z-2.33846
X26.51019 Y-56.25021 Z-2.34126
X26.49432 Y-56.25006 Z-2.34406
X26.47848 Y-56.25093 Z-2.34685
X26.46273 Y-56.25279 Z-2.34965
X26.44712 Y-56.25566 Z-2.35245
X26.43173 Y-56.2595 Z-2.35524
X26.41662 Y-56.26431 Z-2.35804
X26.40184 Y-56.27008 Z-2.36084
X26.38745 Y-56.27677 Z-2.36364
X26.37352 Y-56.28435 Z-2.36643
X26.3601 Y-56.29281 Z-2.36923
X26.34724 Y-56.3021 Z-2.37203
X26.33499 Y-56.31219 Z-2.37483
X26.32342 Y-56.32303 Z-2.37762
X26.31255 Y-56.33459 Z-2.38042
X26.30243 Y-56.34681 Z-2.38322
X26.29311 Y-56.35965 Z-2.38601
X26.28463 Y-56.37305 Z-2.38881
X26.27701 Y-56.38697 Z-2.39161
X26.27029 Y-56.40134 Z-2.39441
X26.2645 Y-56.41611 Z-2.3972
X26.25965 Y-56.43121 Z-2.4
X26.32025 Y-56.67375 F480.
X26.5606 Y-56.74254
X26.74035 Y-56.56879
X26.67975 Y-56.32625
X26.4394 Y-56.25746
X26.25965 Y-56.43121
G0 Z1.
X26.67066 Y-56.68268
G1 Z-2.13 F120.
X26.67088 Y-56.68248 Z-2.13005 F360.
X26.68211 Y-56.67128 Z-2.13285
X26.69261 Y-56.65938 Z-2.13565
X26.70233 Y-56.64685 Z-2.13844
X26.71123 Y-56.63372 Z-2.14124
X26.71929 Y-56.62005 Z-2.14404
X26.72646 Y-56.6059 Z-2.14684
X26.73272 Y-56.59132 Z-2.14963
X26.73805 Y-56.57638 Z-2.15243
X26.74241 Y-56.56113 Z-2.15523
X26.7458 Y-56.54563 Z-2.15802
X26.7482 Y-56.52995 Z-2.16082
X26.7496 Y-56.51415 Z-2.16362
X26.74999 Y-56.49829 Z-2.16642
X26.74938 Y-56.48244 Z-2.16921
X26.74777 Y-56.46666 Z-2.17201
X26.74515 Y-56.45101 Z-2.17481
X26.74155 Y-56.43556 Z-2.1776
X26.73698 Y-56.42037 Z-2.1804
X26.73145 Y-56.4055 Z-2.1832
X26.72499 Y-56.39101 Z-2.186
X26.71763 Y-56.37696 Z-2.18879
X26.70938 Y-56.3634 Z-2.19159
X26.7003 Y-56.3504 Z-2.19439
X26.69041 Y-56.338 Z-2.19719
X26.67975 Y-56.32625 Z-2.19998
X26.66837 Y-56.3152 Z-2.20278
X26.65631 Y-56.30489 Z-2.20558
X26.64362 Y-56.29537 Z-2.20837
X26.63035 Y-56.28667 Z-2.21117
X26.61656 Y-56.27883 Z-2.21397
X26.60229 Y-56.27189 Z-2.21677
X26.58762 Y-56.26586 Z-2.21956
X26.57259 Y-56.26077 Z-2.22236
X26.55727 Y-56.25665 Z-2.22516
X26.54173 Y-56.25351 Z-2.22796
X26.52601 Y-56.25136 Z-2.23075
X26.51019 Y-56.25021 Z-2.23355
X26.49432 Y-56.25006 Z-2.23635
X26.47848 Y-56.25093 Z-2.23914
X26.46273 Y-56.25279 Z-2.24194
X26.44712 Y-56.25566 Z-2.24474
X26.43173 Y-56.2595 Z-2.24754
X26.41662 Y-56.26431 Z-2.25033
X26.40184 Y-56.27008 Z-2.25313
X26.38745 Y-56.27677 Z-2.25593
X26.37352 Y-56.28435 Z-2.25873
X26.3601 Y-56.29281 Z-2.26152
X26.34724 Y-56.3021 Z-2.26432
X26.33499 Y-56.31219 Z-2.26712
X26.32342 Y-56.32303 Z-2.26991
X26.31255 Y-56.33459 Z-2.27271
X26.30243 Y-56.34681 Z-2.27551
X26.29311 Y-56.35965 Z-2.27831
X26.28463 Y-56.37305 Z-2.2811
X26.27701 Y-56.38697 Z-2.2839
X26.27029 Y-56.40134 Z-2.2867
X26.2645 Y-56.41611 Z-2.28949
X26.25965 Y-56.43121 Z-2.29229
X26.25577 Y-56.44659 Z-2.29509
X26.25288 Y-56.46219 Z-2.29789
X26.25097 Y-56.47794 Z-2.30068
X26.25008 Y-56.49378 Z-2.30348
X26.25019 Y-56.50964 Z-2.30628
X26.2513 Y-56.52547 Z-2.30908
X26.25342 Y-56.54119 Z-2.31187
X26.25652 Y-56.55675 Z-2.31467
X26.26061 Y-56.57207 Z-2.31747
X26.26567 Y-56.58711 Z-2.32026
X26.27166 Y-56.6018 Z-2.32306
X26.27858 Y-56.61608 Z-2.32586
X26.28639 Y-56.62988 Z-2.32866
X26.29506 Y-56.64317 Z-2.33145
X26.30455 Y-56.65588 Z-2.33425
X26.31483 Y-56.66796 Z-2.33705
X26.32586 Y-56.67937 Z-2.33984
X26.33758 Y-56.69005 Z-2.34264
X26.34996 Y-56.69997 Z-2.34544
X26.36295 Y-56.70909 Z-2.34824
X26.37648 Y-56.71736 Z-2.35103
X26.39052 Y-56.72475 Z-2.35383
X26.40499 Y-56.73124 Z-2.35663
X26.41985 Y-56.7368 Z-2.35943
X26.43503 Y-56.74141 Z-2.36222
X26.45047 Y-56.74505 Z-2.36502
X26.46612 Y-56.74769 Z-2.36782
X26.48189 Y-56.74934 Z-2.37062
X26.49774 Y-56.74999 Z-2.37341
X26.5136 Y-56.74963 Z-2.37621
X26.52941 Y-56.74826 Z-2.37901
X26.5451 Y-56.7459 Z-2.3818
X26.5606 Y-56.74254 Z-2.3846
X26.57586 Y-56.73821 Z-2.3874
X26.59082 Y-56.73292 Z-2.39019
X26.60541 Y-56.72669 Z-2.39299
X26.61957 Y-56.71955 Z-2.39579
X26.63326 Y-56.71152 Z-2.39859
X26.64641 Y-56.70265 Z-2.40138
X26.65896 Y-56.69295 Z-2.40418
X26.67088 Y-56.68248 Z-2.40698
X26.68211 Y-56.67128 Z-2.40978
X26.69261 Y-56.65938 Z-2.41257
X26.70233 Y-56.64685 Z-2.41537
X26.71123 Y-56.63372 Z-2.41817
X26.71929 Y-56.62005 Z-2.42096
X26.72646 Y-56.6059 Z-2.42376
X26.73272 Y-56.59132 Z-2.42656
X26.73805 Y-56.57638 Z-2.42936
X26.74241 Y-56.56113 Z-2.43215
X26.7458 Y-56.54563 Z-2.43495
X26.7482 Y-56.52995 Z-2.43775
X26.7496 Y-56.51415 Z-2.44055
X26.74999 Y-56.49829 Z-2.44334
X26.74938 Y-56.48244 Z-2.44614
X26.74777 Y-56.46666 Z-2.44894
X26.74515 Y-56.45101 Z-2.45174
X26.74155 Y-56.43556 Z-2.45453
X26.73698 Y-56.42037 Z-2.45733
X26.73145 Y-56.4055 Z-2.46013
X26.72499 Y-56.39101 Z-2.46292
X26.71763 Y-56.37696 Z-2.46572
X26.70938 Y-56.3634 Z-2.46852
X26.7003 Y-56.3504 Z-2.47132
X26.69041 Y-56.338 Z-2.47411
X26.67975 Y-56.32625 Z-2.47691
X26.66837 Y-56.3152 Z-2.47971
X26.65631 Y-56.30489 Z-2.4825
X26.64362 Y-56.29537 Z-2.4853
X26.63035 Y-56.28667 Z-2.4881
X26.61656 Y-56.27883 Z-2.4909
X26.60229 Y-56.27189 Z-2.49369
X26.58762 Y-56.26586 Z-2.49649
X26.57259 Y-56.26077 Z-2.49929
X26.55727 Y-56.25665 Z-2.50209
X26.54173 Y-56.25351 Z-2.50488
X26.52601 Y-56.25136 Z-2.50768
X26.51019 Y-56.25021 Z-2.51048
X26.49432 Y-56.25006 Z-2.51327
X26.47848 Y-56.25093 Z-2.51607
X26.46273 Y-56.25279 Z-2.51887
X26.44712 Y-56.25566 Z-2.52167
X26.43173 Y-56.2595 Z-2.52446
X26.41662 Y-56.26431 Z-2.52726
X26.40184 Y-56.27008 Z-2.53006
X26.38745 Y-56.27677 Z-2.53286
X26.37352 Y-56.28435 Z-2.53565
X26.3601 Y-56.29281 Z-2.53845
X26.34724 Y-56.3021 Z-2.54125
X26.33499 Y-56.31219 Z-2.54404
X26.32342 Y-56.32303 Z-2.54684
X26.31255 Y-56.33459 Z-2.54964
X26.30243 Y-56.34681 Z-2.55244
X26.29311 Y-56.35965 Z-2.55523
X26.28463 Y-56.37305 Z-2.55803
X26.27701 Y-56.38697 Z-2.56083
X26.27029 Y-56.40134 Z-2.56362
X26.2645 Y-56.41611 Z-2.56642
X26.25965 Y-56.43121 Z-2.56922
X26.25577 Y-56.44659 Z-2.57202
X26.25288 Y-56.46219 Z-2.57481
X26.25097 Y-56.47794 Z-2.57761
X26.25008 Y-56.49378 Z-2.58041
X26.25019 Y-56.50964 Z-2.58321
X26.2513 Y-56.52547 Z-2.586
X26.25342 Y-56.54119 Z-2.5888
X26.25652 Y-56.55675 Z-2.5916
X26.26061 Y-56.57207 Z-2.59439
X26.26567 Y-56.58711 Z-2.59719
X26.27166 Y-56.6018 Z-2.59999
X26.27858 Y-56.61608 Z-2.60279
X26.28639 Y-56.62988 Z-2.60558
X26.29506 Y-56.64317 Z-2.60838
X26.30455 Y-56.65588 Z-2.61118
X26.31483 Y-56.66796 Z-2.61398
X26.32586 Y-56.67937 Z-2.61677
X26.33758 Y-56.69005 Z-2.61957
X26.34996 Y-56.69997 Z-2.62237
X26.36295 Y-56.70909 Z-2.62516
X26.37648 Y-56.71736 Z-2.62796
X26.39052 Y-56.72475 Z-2.63076
X26.40499 Y-56.73124 Z-2.63356
X26.41985 Y-56.7368 Z-2.63635
X26.43503 Y-56.74141 Z-2.63915
X26.45047 Y-56.74505 Z-2.64195
X26.46612 Y-56.74769 Z-2.64474
X26.48189 Y-56.74934 Z-2.64754
X26.49774 Y-56.74999 Z-2.65034
X26.5136 Y-56.74963 Z-2.65314
X26.52941 Y-56.74826 Z-2.65593
X26.5451 Y-56.7459 Z-2.65873
X26.5606 Y-56.74254 Z-2.66153
X26.57586 Y-56.73821 Z-2.66433
X26.59082 Y-56.73292 Z-2.66712
X26.60541 Y-56.72669 Z-2.66992
X26.61957 Y-56.71955 Z-2.67272
X26.63326 Y-56.71152 Z-2.67551
X26.64641 Y-56.70265 Z-2.67831
X26.65896 Y-56.69295 Z-2.68111
X26.67088 Y-56.68248 Z-2.68391
X26.68211 Y-56.67128 Z-2.6867
X26.69261 Y-56.65938 Z-2.6895
X26.70233 Y-56.64685 Z-2.6923
X26.71123 Y-56.63372 Z-2.6951
X26.71929 Y-56.62005 Z-2.69789
X26.72646 Y-56.6059 Z-2.70069
X26.73272 Y-56.59132 Z-2.70349
X26.73805 Y-56.57638 Z-2.70628
X26.74241 Y-56.56113 Z-2.70908
X26.7458 Y-56.54563 Z-2.71188
X26.7482 Y-56.52995 Z-2.71468
X26.7496 Y-56.51415 Z-2.71747
X26.74999 Y-56.49829 Z-2.72027
X26.74938 Y-56.48244 Z-2.72307
X26.74777 Y-56.46666 Z-2.72586
X26.74515 Y-56.45101 Z-2.72866
X26.74155 Y-56.43556 Z-2.73146
X26.73698 Y-56.42037 Z-2.73426
X26.73145 Y-56.4055 Z-2.73705
X26.72499 Y-56.39101 Z-2.73985
X26.71763 Y-56.37696 Z-2.74265
X26.70938 Y-56.3634 Z-2.74545
X26.7003 Y-56.3504 Z-2.74824
X26.69041 Y-56.338 Z-2.75104
X26.67975 Y-56.32625 Z-2.75384
X26.66837 Y-56.3152 Z-2.75663
X26.65631 Y-56.30489 Z-2.75943
X26.64362 Y-56.29537 Z-2.76223
X26.63035 Y-56.28667 Z-2.76503
X26.61656 Y-56.27883 Z-2.76782
X26.60229 Y-56.27189 Z-2.77062
X26.58762 Y-56.26586 Z-2.77342
X26.57259 Y-56.26077 Z-2.77622
X26.55727 Y-56.25665 Z-2.77901
X26.54173 Y-56.25351 Z-2.78181
X26.52601 Y-56.25136 Z-2.78461
X26.51019 Y-56.25021 Z-2.7874
X26.49432 Y-56.25006 Z-2.7902
X26.47848 Y-56.25093 Z-2.793
X26.46273 Y-56.25279 Z-2.7958
X26.44712 Y-56.25566 Z-2.79859
X26.43173 Y-56.2595 Z-2.80139
X26.41662 Y-56.26431 Z-2.80419
X26.40184 Y-56.27008 Z-2.80698
X26.38745 Y-56.27677 Z-2.80978
X26.37352 Y-56.28435 Z-2.81258
X26.3601 Y-56.29281 Z-2.81538
X26.34724 Y-56.3021 Z-2.81817
X26.33499 Y-56.31219 Z-2.82097
X26.32342 Y-56.32303 Z-2.82377
X26.31255 Y-56.33459 Z-2.82657
X26.30243 Y-56.34681 Z-2.82936
X26.29311 Y-56.35965 Z-2.83216
X26.28463 Y-56.37305 Z-2.83496
X26.27701 Y-56.38697 Z-2.83775
X26.27029 Y-56.40134 Z-2.84055
X26.2645 Y-56.41611 Z-2.84335
X26.25965 Y-56.43121 Z-2.84615
X26.25577 Y-56.44659 Z-2.84894
X26.25288 Y-56.46219 Z-2.85174
X26.25097 Y-56.47794 Z-2.85454
X26.25008 Y-56.49378 Z-2.85734
X26.25019 Y-56.50964 Z-2.86013
X26.2513 Y-56.52547 Z-2.86293
X26.25342 Y-56.54119 Z-2.86573
X26.25652 Y-56.55675 Z-2.86852
X26.26061 Y-56.57207 Z-2.87132
X26.26567 Y-56.58711 Z-2.87412
X26.27166 Y-56.6018 Z-2.87692
X26.27858 Y-56.61608 Z-2.87971
X26.28639 Y-56.62988 Z-2.88251
X26.29506 Y-56.64317 Z-2.88531
X26.30455 Y-56.65588 Z-2.88811
X26.31483 Y-56.66796 Z-2.8909
X26.32586 Y-56.67937 Z-2.8937
X26.33758 Y-56.69005 Z-2.8965
X26.34996 Y-56.69997 Z-2.89929
X26.36295 Y-56.70909 Z-2.90209
X26.37648 Y-56.71736 Z-2.90489
X26.39052 Y-56.72475 Z-2.90769
X26.40499 Y-56.73124 Z-2.91048
X26.41985 Y-56.7368 Z-2.91328
X26.43503 Y-56.74141 Z-2.91608
X26.45047 Y-56.74505 Z-2.91887
X26.46612 Y-56.74769 Z-2.92167
X26.48189 Y-56.74934 Z-2.92447
X26.49774 Y-56.74999 Z-2.92727
X26.5136 Y-56.74963 Z-2.93006
X26.52941 Y-56.74826 Z-2.93286
X26.5451 Y-56.7459 Z-2.93566
X26.5606 Y-56.74254 Z-2.93845
X26.57586 Y-56.73821 Z-2.94125
X26.59082 Y-56.73292 Z-2.94405
X26.60541 Y-56.72669 Z-2.94685
X26.61957 Y-56.71955 Z-2.94964
X26.63326 Y-56.71152 Z-2.95244
X26.64641 Y-56.70265 Z-2.95524
X26.65896 Y-56.69295 Z-2.95804
X26.67088 Y-56.68248 Z-2.96083
X26.68211 Y-56.67128 Z-2.96363
X26.69261 Y-56.65938 Z-2.96643
X26.70233 Y-56.64685 Z-2.96922
X26.71123 Y-56.63372 Z-2.97202
X26.71929 Y-56.62005 Z-2.97482
X26.72646 Y-56.6059 Z-2.97762
X26.73272 Y-56.59132 Z-2.98041
X26.73805 Y-56.57638 Z-2.98321
X26.74241 Y-56.56113 Z-2.98601
X26.7458 Y-56.54563 Z-2.98881
X26.7482 Y-56.52995 Z-2.9916
X26.7496 Y-56.51415 Z-2.9944
X26.74999 Y-56.49829 Z-2.9972
X26.74938 Y-56.48244 Z-2.99999
X26.74777 Y-56.46666 Z-3.00279
X26.74515 Y-56.45101 Z-3.00559
X26.74155 Y-56.43556 Z-3.00839
X26.73698 Y-56.42037 Z-3.01118
X26.73145 Y-56.4055 Z-3.01398
X26.72499 Y-56.39101 Z-3.01678
X26.71763 Y-56.37696 Z-3.01958
X26.70938 Y-56.3634 Z-3.02237
X26.7003 Y-56.3504 Z-3.02517
X26.69041 Y-56.338 Z-3.02797
X26.67975 Y-56.32625 Z-3.03076
X26.66837 Y-56.3152 Z-3.03356
X26.65631 Y-56.30489 Z-3.03636
X26.64362 Y-56.29537 Z-3.03916
X26.63035 Y-56.28667 Z-3.04195
X26.61656 Y-56.27883 Z-3.04475
X26.60229 Y-56.27189 Z-3.04755
X26.58762 Y-56.26586 Z-3.05035
X26.57259 Y-56.26077 Z-3.05314
X26.55727 Y-56.25665 Z-3.05594
X26.54173 Y-56.25351 Z-3.05874
X26.52601 Y-56.25136 Z-3.06153
X26.51019 Y-56.25021 Z-3.06433
X26.49432 Y-56.25006 Z-3.06713
X26.47848 Y-56.25093 Z-3.06993
X26.46273 Y-56.25279 Z-3.07272
X26.44712 Y-56.25566 Z-3.07552
X26.43173 Y-56.2595 Z-3.07832
X26.41662 Y-56.26431 Z-3.08111
X26.40184 Y-56.27008 Z-3.08391
X26.38745 Y-56.27677 Z-3.08671
X26.37352 Y-56.28435 Z-3.08951
X26.3601 Y-56.29281 Z-3.0923
X26.34724 Y-56.3021 Z-3.0951
X26.33499 Y-56.31219 Z-3.0979
X26.32342 Y-56.32303 Z-3.1007
X26.31255 Y-56.33459 Z-3.10349
X26.30243 Y-56.34681 Z-3.10629
X26.29311 Y-56.35965 Z-3.10909
X26.28463 Y-56.37305 Z-3.11188
X26.27701 Y-56.38697 Z-3.11468
X26.27029 Y-56.40134 Z-3.11748
X26.2645 Y-56.41611 Z-3.12028
X26.25965 Y-56.43121 Z-3.12307
X26.25577 Y-56.44659 Z-3.12587
X26.25288 Y-56.46219 Z-3.12867
X26.25097 Y-56.47794 Z-3.13147
X26.25008 Y-56.49378 Z-3.13426
X26.25019 Y-56.50964 Z-3.13706
X26.2513 Y-56.52547 Z-3.13986
X26.25342 Y-56.54119 Z-3.14265
X26.25652 Y-56.55675 Z-3.14545
X26.26061 Y-56.57207 Z-3.14825
X26.26567 Y-56.58711 Z-3.15105
X26.27166 Y-56.6018 Z-3.15384
X26.27858 Y-56.61608 Z-3.15664
X26.28639 Y-56.62988 Z-3.15944
X26.29506 Y-56.64317 Z-3.16223
X26.30455 Y-56.65588 Z-3.16503
X26.31483 Y-56.66796 Z-3.16783
X26.32586 Y-56.67937 Z-3.17063
X26.33758 Y-56.69005 Z-3.17342
X26.34996 Y-56.69997 Z-3.17622
X26.36295 Y-56.70909 Z-3.17902
X26.37648 Y-56.71736 Z-3.18181
X26.39052 Y-56.72475 Z-3.18461
X26.40499 Y-56.73124 Z-3.18741
X26.41985 Y-56.7368 Z-3.19021
X26.43503 Y-56.74141 Z-3.193
X26.45047 Y-56.74505 Z-3.1958
X26.46612 Y-56.74769 Z-3.1986
X26.48189 Y-56.74934 Z-3.2014
X26.49774 Y-56.74999 Z-3.20419
X26.5136 Y-56.74963 Z-3.20699
X26.52941 Y-56.74826 Z-3.20979
X26.5451 Y-56.7459 Z-3.21259
X26.5606 Y-56.74254 Z-3.21538
X26.57586 Y-56.73821 Z-3.21818
X26.59082 Y-56.73292 Z-3.22098
X26.60541 Y-56.72669 Z-3.22377
X26.61957 Y-56.71955 Z-3.22657
X26.63326 Y-56.71152 Z-3.22937
X26.64641 Y-56.70265 Z-3.23217
X26.65896 Y-56.69295 Z-3.23496
X26.67088 Y-56.68248 Z-3.23776
X26.68211 Y-56.67128 Z-3.24056
X26.69261 Y-56.65938 Z-3.24335
X26.70233 Y-56.64685 Z-3.24615
X26.71123 Y-56.63372 Z-3.24895
X26.71929 Y-56.62005 Z-3.25175
X26.72646 Y-56.6059 Z-3.25454
X26.73272 Y-56.59132 Z-3.25734
X26.73805 Y-56.57638 Z-3.26014
X26.74241 Y-56.56113 Z-3.26294
X26.7458 Y-56.54563 Z-3.26573
X26.7482 Y-56.52995 Z-3.26853
X26.7496 Y-56.51415 Z-3.27133
X26.74999 Y-56.49829 Z-3.27412
X26.74938 Y-56.48244 Z-3.27692
X26.74777 Y-56.46666 Z-3.27972
X26.74515 Y-56.45101 Z-3.28252
X26.74155 Y-56.43556 Z-3.28531
X26.73698 Y-56.42037 Z-3.28811
X26.73145 Y-56.4055 Z-3.29091
X26.72499 Y-56.39101 Z-3.29371
X26.71763 Y-56.37696 Z-3.2965
X26.70938 Y-56.3634 Z-3.2993
X26.7003 Y-56.3504 Z-3.3021
X26.69041 Y-56.338 Z-3.30489
X26.67975 Y-56.32625 Z-3.30769
X26.66837 Y-56.3152 Z-3.31049
X26.65631 Y-56.30489 Z-3.31329
X26.64362 Y-56.29537 Z-3.31608
X26.63035 Y-56.28667 Z-3.31888
X26.61656 Y-56.27883 Z-3.32168
X26.60229 Y-56.27189 Z-3.32447
X26.58762 Y-56.26586 Z-3.32727
X26.57259 Y-56.26077 Z-3.33007
X26.55727 Y-56.25665 Z-3.33287
X26.54173 Y-56.25351 Z-3.33566
X26.52601 Y-56.25136 Z-3.33846
X26.51019 Y-56.25021 Z-3.34126
X26.49432 Y-56.25006 Z-3.34406
X26.47848 Y-56.25093 Z-3.34685
X26.46273 Y-56.25279 Z-3.34965
X26.44712 Y-56.25566 Z-3.35245
X26.43173 Y-56.2595 Z-3.35524
X26.41662 Y-56.26431 Z-3.35804
X26.40184 Y-56.27008 Z-3.36084
X26.38745 Y-56.27677 Z-3.36364
X26.37352 Y-56.28435 Z-3.36643
X26.3601 Y-56.29281 Z-3.36923
X26.34724 Y-56.3021 Z-3.37203
X26.33499 Y-56.31219 Z-3.37483
X26.32342 Y-56.32303 Z-3.37762
X26.31255 Y-56.33459 Z-3.38042
X26.30243 Y-56.34681 Z-3.38322
X26.29311 Y-56.35965 Z-3.38601
X26.28463 Y-56.37305 Z-3.38881
X26.27701 Y-56.38697 Z-3.39161
X26.27029 Y-56.40134 Z-3.39441
X26.2645 Y-56.41611 Z-3.3972
X26.25965 Y-56.43121 Z-3.4
X26.32025 Y-56.67375 F480.
X26.5606 Y-56.74254
X26.74035 Y-56.56879
X26.67975 Y-56.32625
X26.4394 Y-56.25746
X26.25965 Y-56.43121
G0 Z1.
X26.67066 Y-56.68268
G1 Z-3.13 F120.
X26.67088 Y-56.68248 Z-3.13005 F360.
X26.68211 Y-56.67128 Z-3.13285
X26.69261 Y-56.65938 Z-3.13565
X26.70233 Y-56.64685 Z-3.13844
X26.71123 Y-56.63372 Z-3.14124
X26.71929 Y-56.62005 Z-3.14404
X26.72646 Y-56.6059 Z-3.14684
X26.73272 Y-56.59132 Z-3.14963
X26.73805 Y-56.57638 Z-3.15243
X26.74241 Y-56.56113 Z-3.15523
X26.7458 Y-56.54563 Z-3.15802
X26.7482 Y-56.52995 Z-3.16082
X26.7496 Y-56.51415 Z-3.16362
X26.74999 Y-56.49829 Z-3.16642
X26.74938 Y-56.48244 Z-3.16921
X26.74777 Y-56.46666 Z-3.17201
X26.74515 Y-56.45101 Z-3.17481
X26.74155 Y-56.43556 Z-3.1776
X26.73698 Y-56.42037 Z-3.1804
X26.73145 Y-56.4055 Z-3.1832
X26.72499 Y-56.39101 Z-3.186
X26.71763 Y-56.37696 Z-3.18879
X26.70938 Y-56.3634 Z-3.19159
X26.7003 Y-56.3504 Z-3.19439
X26.69041 Y-56.338 Z-3.19719
X26.67975 Y-56.32625 Z-3.19998
X26.66837 Y-56.3152 Z-3.20278
X26.65631 Y-56.30489 Z-3.20558
X26.64362 Y-56.29537 Z-3.20837
X26.63035 Y-56.28667 Z-3.21117
X26.61656 Y-56.27883 Z-3.21397
X26.60229 Y-56.27189 Z-3.21677
X26.58762 Y-56.26586 Z-3.21956
X26.57259 Y-56.26077 Z-3.22236
X26.55727 Y-56.25665 Z-3.22516
X26.54173 Y-56.25351 Z-3.22796
X26.52601 Y-56.25136 Z-3.23075
X26.51019 Y-56.25021 Z-3.23355
X26.49432 Y-56.25006 Z-3.23635
X26.47848 Y-56.25093 Z-3.23914
X26.46273 Y-56.25279 Z-3.24194
X26.44712 Y-56.25566 Z-3.24474
X26.43173 Y-56.2595 Z-3.24754
X26.41662 Y-56.26431 Z-3.25033
X26.40184 Y-56.27008 Z-3.25313
X26.38745 Y-56.27677 Z-3.25593
X26.37352 Y-56.28435 Z-3.25872
X26.3601 Y-56.29281 Z-3.26152
X26.34724 Y-56.3021 Z-3.26432
X26.33499 Y-56.31219 Z-3.26712
X26.32342 Y-56.32303 Z-3.26991
X26.31255 Y-56.33459 Z-3.27271
X26.30243 Y-56.34681 Z-3.27551
X26.29311 Y-56.35965 Z-3.27831
X26.28463 Y-56.37305 Z-3.2811
X26.27701 Y-56.38697 Z-3.2839
X26.27029 Y-56.40134 Z-3.2867
X26.2645 Y-56.41611 Z-3.2895
X26.25965 Y-56.43121 Z-3.29229
X26.25577 Y-56.44659 Z-3.29509
X26.25288 Y-56.46219 Z-3.29789
X26.25097 Y-56.47794 Z-3.30068
X26.25008 Y-56.49378 Z-3.30348
X26.25019 Y-56.50964 Z-3.30628
X26.2513 Y-56.52547 Z-3.30908
X26.25342 Y-56.54119 Z-3.31187
X26.25652 Y-56.55675 Z-3.31467
X26.26061 Y-56.57207 Z-3.31747
X26.26567 Y-56.58711 Z-3.32026
X26.27166 Y-56.6018 Z-3.32306
X26.27858 Y-56.61608 Z-3.32586
X26.28639 Y-56.62988 Z-3.32866
X26.29506 Y-56.64317 Z-3.33145
X26.30455 Y-56.65588 Z-3.33425
X26.31483 Y-56.66796 Z-3.33705
X26.32586 Y-56.67937 Z-3.33985
X26.33758 Y-56.69005 Z-3.34264
X26.34996 Y-56.69997 Z-3.34544
X26.36295 Y-56.70909 Z-3.34824
X26.37648 Y-56.71736 Z-3.35103
X26.39052 Y-56.72475 Z-3.35383
X26.40499 Y-56.73124 Z-3.35663
X26.41985 Y-56.7368 Z-3.35943
X26.43503 Y-56.74141 Z-3.36222
X26.45047 Y-56.74505 Z-3.36502
X26.46612 Y-56.74769 Z-3.36782
X26.48189 Y-56.74934 Z-3.37062
X26.49774 Y-56.74999 Z-3.37341
X26.5136 Y-56.74963 Z-3.37621
X26.52941 Y-56.74826 Z-3.37901
X26.5451 Y-56.7459 Z-3.3818
X26.5606 Y-56.74254 Z-3.3846
X26.57586 Y-56.73821 Z-3.3874
X26.59082 Y-56.73292 Z-3.3902
X26.60541 Y-56.72669 Z-3.39299
X26.61957 Y-56.71955 Z-3.39579
X26.63326 Y-56.71152 Z-3.39859
X26.64641 Y-56.70265 Z-3.40138
X26.65896 Y-56.69295 Z-3.40418
X26.67088 Y-56.68248 Z-3.40698
X26.68211 Y-56.67128 Z-3.40978
X26.69261 Y-56.65938 Z-3.41257
X26.70233 Y-56.64685 Z-3.41537
X26.71123 Y-56.63372 Z-3.41817
X26.71929 Y-56.62005 Z-3.42097
X26.72646 Y-56.6059 Z-3.42376
X26.73272 Y-56.59132 Z-3.42656
X26.73805 Y-56.57638 Z-3.42936
X26.74241 Y-56.56113 Z-3.43215
X26.7458 Y-56.54563 Z-3.43495
X26.7482 Y-56.52995 Z-3.43775
X26.7496 Y-56.51415 Z-3.44055
X26.74999 Y-56.49829 Z-3.44334
X26.74938 Y-56.48244 Z-3.44614
X26.74777 Y-56.46666 Z-3.44894
X26.74515 Y-56.45101 Z-3.45174
X26.74155 Y-56.43556 Z-3.45453
X26.73698 Y-56.42037 Z-3.45733
X26.73145 Y-56.4055 Z-3.46013
X26.72499 Y-56.39101 Z-3.46292
X26.71763 Y-56.37696 Z-3.46572
X26.70938 Y-56.3634 Z-3.46852
X26.7003 Y-56.3504 Z-3.47131
X26.69041 Y-56.338 Z-3.47411
X26.67975 Y-56.32625 Z-3.47691
X26.66837 Y-56.3152 Z-3.47971
X26.65631 Y-56.30489 Z-3.4825
X26.64362 Y-56.29537 Z-3.4853
X26.63035 Y-56.28667 Z-3.4881
X26.61656 Y-56.27883 Z-3.4909
X26.60229 Y-56.27189 Z-3.49369
X26.58762 Y-56.26586 Z-3.49649
X26.57259 Y-56.26077 Z-3.49929
X26.55727 Y-56.25665 Z-3.50209
X26.54173 Y-56.25351 Z-3.50488
X26.52601 Y-56.25136 Z-3.50768
X26.51019 Y-56.25021 Z-3.51048
X26.49432 Y-56.25006 Z-3.51327
X26.47848 Y-56.25093 Z-3.51607
X26.46273 Y-56.25279 Z-3.51887
X26.44712 Y-56.25566 Z-3.52167
X26.43173 Y-56.2595 Z-3.52446
X26.41662 Y-56.26431 Z-3.52726
X26.40184 Y-56.27008 Z-3.53006
X26.38745 Y-56.27677 Z-3.53286
X26.37352 Y-56.28435 Z-3.53565
X26.3601 Y-56.29281 Z-3.53845
X26.34724 Y-56.3021 Z-3.54125
X26.33499 Y-56.31219 Z-3.54404
X26.32342 Y-56.32303 Z-3.54684
X26.31255 Y-56.33459 Z-3.54964
X26.30243 Y-56.34681 Z-3.55244
X26.29311 Y-56.35965 Z-3.55523
X26.28463 Y-56.37305 Z-3.55803
X26.27701 Y-56.38697 Z-3.56083
X26.27029 Y-56.40134 Z-3.56362
X26.2645 Y-56.41611 Z-3.56642
X26.25965 Y-56.43121 Z-3.56922
X26.25577 Y-56.44659 Z-3.57202
X26.25288 Y-56.46219 Z-3.57481
X26.25097 Y-56.47794 Z-3.57761
X26.25008 Y-56.49378 Z-3.58041
X26.25019 Y-56.50964 Z-3.58321
X26.2513 Y-56.52547 Z-3.586
X26.25342 Y-56.54119 Z-3.5888
X26.25652 Y-56.55675 Z-3.5916
X26.26061 Y-56.57207 Z-3.59439
X26.26567 Y-56.58711 Z-3.59719
X26.27166 Y-56.6018 Z-3.59999
X26.27858 Y-56.61608 Z-3.60279
X26.28639 Y-56.62988 Z-3.60558
X26.29506 Y-56.64317 Z-3.60838
X26.30455 Y-56.65588 Z-3.61118
X26.31483 Y-56.66796 Z-3.61398
X26.32586 Y-56.67937 Z-3.61677
X26.33758 Y-56.69005 Z-3.61957
X26.34996 Y-56.69997 Z-3.62237
X26.36295 Y-56.70909 Z-3.62516
X26.37648 Y-56.71736 Z-3.62796
X26.39052 Y-56.72475 Z-3.63076
X26.40499 Y-56.73124 Z-3.63356
X26.41985 Y-56.7368 Z-3.63635
X26.43503 Y-56.74141 Z-3.63915
X26.45047 Y-56.74505 Z-3.64195
X26.46612 Y-56.74769 Z-3.64474
X26.48189 Y-56.74934 Z-3.64754
X26.49774 Y-56.74999 Z-3.65034
X26.5136 Y-56.74963 Z-3.65314
X26.52941 Y-56.74826 Z-3.65593
X26.5451 Y-56.7459 Z-3.65873
X26.5606 Y-56.74254 Z-3.66153
X26.57586 Y-56.73821 Z-3.66432
X26.59082 Y-56.73292 Z-3.66712
X26.60541 Y-56.72669 Z-3.66992
X26.61957 Y-56.71955 Z-3.67272
X26.63326 Y-56.71152 Z-3.67551
X26.64641 Y-56.70265 Z-3.67831
X26.65896 Y-56.69295 Z-3.68111
X26.67088 Y-56.68248 Z-3.68391
X26.68211 Y-56.67128 Z-3.6867
X26.69261 Y-56.65938 Z-3.6895
X26.70233 Y-56.64685 Z-3.6923
X26.71123 Y-56.63372 Z-3.6951
X26.71929 Y-56.62005 Z-3.69789
X26.72646 Y-56.6059 Z-3.70069
X26.73272 Y-56.59132 Z-3.70349
X26.73805 Y-56.57638 Z-3.70628
X26.74241 Y-56.56113 Z-3.70908
X26.7458 Y-56.54563 Z-3.71188
X26.7482 Y-56.52995 Z-3.71468
X26.7496 Y-56.51415 Z-3.71747
X26.74999 Y-56.49829 Z-3.72027
X26.74938 Y-56.48244 Z-3.72307
X26.74777 Y-56.46666 Z-3.72586
X26.74515 Y-56.45101 Z-3.72866
X26.74155 Y-56.43556 Z-3.73146
X26.73698 Y-56.42037 Z-3.73426
X26.73145 Y-56.4055 Z-3.73705
X26.72499 Y-56.39101 Z-3.73985
X26.71763 Y-56.37696 Z-3.74265
X26.70938 Y-56.3634 Z-3.74545
X26.7003 Y-56.3504 Z-3.74824
X26.69041 Y-56.338 Z-3.75104
X26.67975 Y-56.32625 Z-3.75384
X26.66837 Y-56.3152 Z-3.75663
X26.65631 Y-56.30489 Z-3.75943
X26.64362 Y-56.29537 Z-3.76223
X26.63035 Y-56.28667 Z-3.76503
X26.61656 Y-56.27883 Z-3.76782
X26.60229 Y-56.27189 Z-3.77062
X26.58762 Y-56.26586 Z-3.77342
X26.57259 Y-56.26077 Z-3.77621
X26.55727 Y-56.25665 Z-3.77901
X26.54173 Y-56.25351 Z-3.78181
X26.52601 Y-56.25136 Z-3.78461
X26.51019 Y-56.25021 Z-3.7874
X26.49432 Y-56.25006 Z-3.7902
X26.47848 Y-56.25093 Z-3.793
X26.46273 Y-56.25279 Z-3.7958
X26.44712 Y-56.25566 Z-3.79859
X26.43173 Y-56.2595 Z-3.80139
X26.41662 Y-56.26431 Z-3.80419
X26.40184 Y-56.27008 Z-3.80698
X26.38745 Y-56.27677 Z-3.80978
X26.37352 Y-56.28435 Z-3.81258
X26.3601 Y-56.29281 Z-3.81538
X26.34724 Y-56.3021 Z-3.81817
X26.33499 Y-56.31219 Z-3.82097
X26.32342 Y-56.32303 Z-3.82377
X26.31255 Y-56.33459 Z-3.82657
X26.30243 Y-56.34681 Z-3.82936
X26.29311 Y-56.35965 Z-3.83216
X26.28463 Y-56.37305 Z-3.83496
X26.27701 Y-56.38697 Z-3.83775
X26.27029 Y-56.40134 Z-3.84055
X26.2645 Y-56.41611 Z-3.84335
X26.25965 Y-56.43121 Z-3.84615
X26.25577 Y-56.44659 Z-3.84894
X26.25288 Y-56.46219 Z-3.85174
X26.25097 Y-56.47794 Z-3.85454
X26.25008 Y-56.49378 Z-3.85734
X26.25019 Y-56.50964 Z-3.86013
X26.2513 Y-56.52547 Z-3.86293
X26.25342 Y-56.54119 Z-3.86573
X26.25652 Y-56.55675 Z-3.86852
X26.26061 Y-56.57207 Z-3.87132
X26.26567 Y-56.58711 Z-3.87412
X26.27166 Y-56.6018 Z-3.87692
X26.27858 Y-56.61608 Z-3.87971
X26.28639 Y-56.62988 Z-3.88251
X26.29506 Y-56.64317 Z-3.88531
X26.30455 Y-56.65588 Z-3.88811
X26.31483 Y-56.66796 Z-3.8909
X26.32586 Y-56.67937 Z-3.8937
X26.33758 Y-56.69005 Z-3.8965
X26.34996 Y-56.69997 Z-3.89929
X26.36295 Y-56.70909 Z-3.90209
X26.37648 Y-56.71736 Z-3.90489
X26.39052 Y-56.72475 Z-3.90769
X26.40499 Y-56.73124 Z-3.91048
X26.41985 Y-56.7368 Z-3.91328
X26.43503 Y-56.74141 Z-3.91608
X26.45047 Y-56.74505 Z-3.91887
X26.46612 Y-56.74769 Z-3.92167
X26.48189 Y-56.74934 Z-3.92447
X26.49774 Y-56.74999 Z-3.92727
X26.5136 Y-56.74963 Z-3.93006
X26.52941 Y-56.74826 Z-3.93286
X26.5451 Y-56.7459 Z-3.93566
X26.5606 Y-56.74254 Z-3.93845
X26.57586 Y-56.73821 Z-3.94125
X26.59082 Y-56.73292 Z-3.94405
X26.60541 Y-56.72669 Z-3.94685
X26.61957 Y-56.71955 Z-3.94964
X26.63326 Y-56.71152 Z-3.95244
X26.64641 Y-56.70265 Z-3.95524
X26.65896 Y-56.69295 Z-3.95804
X26.67088 Y-56.68248 Z-3.96083
X26.68211 Y-56.67128 Z-3.96363
X26.69261 Y-56.65938 Z-3.96643
X26.70233 Y-56.64685 Z-3.96923
X26.71123 Y-56.63372 Z-3.97202
X26.71929 Y-56.62005 Z-3.97482
X26.72646 Y-56.6059 Z-3.97762
X26.73272 Y-56.59132 Z-3.98041
X26.73805 Y-56.57638 Z-3.98321
X26.74241 Y-56.56113 Z-3.98601
X26.7458 Y-56.54563 Z-3.9888
X26.7482 Y-56.52995 Z-3.9916
X26.7496 Y-56.51415 Z-3.9944
X26.74999 Y-56.49829 Z-3.9972
X26.74938 Y-56.48244 Z-3.99999
X26.74777 Y-56.46666 Z-4.00279
X26.74515 Y-56.45101 Z-4.00559
X26.74155 Y-56.43556 Z-4.00839
X26.73698 Y-56.42037 Z-4.01118
X26.73145 Y-56.4055 Z-4.01398
X26.72499 Y-56.39101 Z-4.01678
X26.71763 Y-56.37696 Z-4.01958
X26.70938 Y-56.3634 Z-4.02237
X26.7003 Y-56.3504 Z-4.02517
X26.69041 Y-56.338 Z-4.02797
X26.67975 Y-56.32625 Z-4.03076
X26.66837 Y-56.3152 Z-4.03356
X26.65631 Y-56.30489 Z-4.03636
X26.64362 Y-56.29537 Z-4.03916
X26.63035 Y-56.28667 Z-4.04195
X26.61656 Y-56.27883 Z-4.04475
X26.60229 Y-56.27189 Z-4.04755
X26.58762 Y-56.26586 Z-4.05035
X26.57259 Y-56.26077 Z-4.05314
X26.55727 Y-56.25665 Z-4.05594
X26.54173 Y-56.25351 Z-4.05874
X26.52601 Y-56.25136 Z-4.06153
X26.51019 Y-56.25021 Z-4.06433
X26.49432 Y-56.25006 Z-4.06713
X26.47848 Y-56.25093 Z-4.06992
X26.46273 Y-56.25279 Z-4.07272
X26.44712 Y-56.25566 Z-4.07552
X26.43173 Y-56.2595 Z-4.07832
X26.41662 Y-56.26431 Z-4.08111
X26.40184 Y-56.27008 Z-4.08391
X26.38745 Y-56.27677 Z-4.08671
X26.37352 Y-56.28435 Z-4.08951
X26.3601 Y-56.29281 Z-4.0923
X26.34724 Y-56.3021 Z-4.0951
X26.33499 Y-56.31219 Z-4.0979
X26.32342 Y-56.32303 Z-4.1007
X26.31255 Y-56.33459 Z-4.10349
X26.30243 Y-56.34681 Z-4.10629
X26.29311 Y-56.35965 Z-4.10909
X26.28463 Y-56.37305 Z-4.11188
X26.27701 Y-56.38697 Z-4.11468
X26.27029 Y-56.40134 Z-4.11748
X26.2645 Y-56.41611 Z-4.12028
X26.25965 Y-56.43121 Z-4.12307
X26.25577 Y-56.44659 Z-4.12587
X26.25288 Y-56.46219 Z-4.12867
X26.25097 Y-56.47794 Z-4.13147
X26.25008 Y-56.49378 Z-4.13426
X26.25019 Y-56.50964 Z-4.13706
X26.2513 Y-56.52547 Z-4.13986
X26.25342 Y-56.54119 Z-4.14265
X26.25652 Y-56.55675 Z-4.14545
X26.26061 Y-56.57207 Z-4.14825
X26.26567 Y-56.58711 Z-4.15105
X26.27166 Y-56.6018 Z-4.15384
X26.27858 Y-56.61608 Z-4.15664
X26.28639 Y-56.62988 Z-4.15944
X26.29506 Y-56.64317 Z-4.16223
X26.30455 Y-56.65588 Z-4.16503
X26.31483 Y-56.66796 Z-4.16783
X26.32586 Y-56.67937 Z-4.17063
X26.33758 Y-56.69005 Z-4.17342
X26.34996 Y-56.69997 Z-4.17622
X26.36295 Y-56.70909 Z-4.17902
X26.37648 Y-56.71736 Z-4.18182
X26.39052 Y-56.72475 Z-4.18461
X26.40499 Y-56.73124 Z-4.18741
X26.41985 Y-56.7368 Z-4.19021
X26.43503 Y-56.74141 Z-4.193
X26.45047 Y-56.74505 Z-4.1958
X26.46612 Y-56.74769 Z-4.1986
X26.48189 Y-56.74934 Z-4.2014
X26.49774 Y-56.74999 Z-4.20419
X26.5136 Y-56.74963 Z-4.20699
X26.52941 Y-56.74826 Z-4.20979
X26.5451 Y-56.7459 Z-4.21259
X26.5606 Y-56.74254 Z-4.21538
X26.57586 Y-56.73821 Z-4.21818
X26.59082 Y-56.73292 Z-4.22098
X26.60541 Y-56.72669 Z-4.22377
X26.61957 Y-56.71955 Z-4.22657
X26.63326 Y-56.71152 Z-4.22937
X26.64641 Y-56.70265 Z-4.23217
X26.65896 Y-56.69295 Z-4.23496
X26.67088 Y-56.68248 Z-4.23776
X26.68211 Y-56.67128 Z-4.24056
X26.69261 Y-56.65938 Z-4.24335
X26.70233 Y-56.64685 Z-4.24615
X26.71123 Y-56.63372 Z-4.24895
X26.71929 Y-56.62005 Z-4.25175
X26.72646 Y-56.6059 Z-4.25454
X26.73272 Y-56.59132 Z-4.25734
X26.73805 Y-56.57638 Z-4.26014
X26.74241 Y-56.56113 Z-4.26293
X26.7458 Y-56.54563 Z-4.26573
X26.7482 Y-56.52995 Z-4.26853
X26.7496 Y-56.51415 Z-4.27133
X26.74999 Y-56.49829 Z-4.27412
X26.74938 Y-56.48244 Z-4.27692
X26.74777 Y-56.46666 Z-4.27972
X26.74515 Y-56.45101 Z-4.28252
X26.74155 Y-56.43556 Z-4.28531
X26.73698 Y-56.42037 Z-4.28811
X26.73145 Y-56.4055 Z-4.29091
X26.72499 Y-56.39101 Z-4.29371
X26.71763 Y-56.37696 Z-4.2965
X26.70938 Y-56.3634 Z-4.2993
X26.7003 Y-56.3504 Z-4.3021
X26.69041 Y-56.338 Z-4.30489
X26.67975 Y-56.32625 Z-4.30769
X26.66837 Y-56.3152 Z-4.31049
X26.65631 Y-56.30489 Z-4.31329
X26.64362 Y-56.29537 Z-4.31608
X26.63035 Y-56.28667 Z-4.31888
X26.61656 Y-56.27883 Z-4.32168
X26.60229 Y-56.27189 Z-4.32447
X26.58762 Y-56.26586 Z-4.32727
X26.57259 Y-56.26077 Z-4.33007
X26.55727 Y-56.25665 Z-4.33287
X26.54173 Y-56.25351 Z-4.33566
X26.52601 Y-56.25136 Z-4.33846
X26.51019 Y-56.25021 Z-4.34126
X26.49432 Y-56.25006 Z-4.34406
X26.47848 Y-56.25093 Z-4.34685
X26.46273 Y-56.25279 Z-4.34965
X26.44712 Y-56.25566 Z-4.35245
X26.43173 Y-56.2595 Z-4.35524
X26.41662 Y-56.26431 Z-4.35804
X26.40184 Y-56.27008 Z-4.36084
X26.38745 Y-56.27677 Z-4.36364
X26.37352 Y-56.28435 Z-4.36643
X26.3601 Y-56.29281 Z-4.36923
X26.34724 Y-56.3021 Z-4.37203
X26.33499 Y-56.31219 Z-4.37483
X26.32342 Y-56.32303 Z-4.37762
X26.31255 Y-56.33459 Z-4.38042
X26.30243 Y-56.34681 Z-4.38322
X26.29311 Y-56.35965 Z-4.38601
X26.28463 Y-56.37305 Z-4.38881
X26.27701 Y-56.38697 Z-4.39161
X26.27029 Y-56.40134 Z-4.39441
X26.2645 Y-56.41611 Z-4.3972
X26.25965 Y-56.43121 Z-4.4
X26.32025 Y-56.67375 F480.
X26.5606 Y-56.74254
X26.74035 Y-56.56879
X26.67975 Y-56.32625
X26.4394 Y-56.25746
X26.25965 Y-56.43121
G0 Z1.
X25.08457 Y-32.00639
G1 Z-0.13 F120.
X24.67393 Y-32.93525 Z-0.30907 F360.
X24.24639 Y-34.09643 Z-0.52726
X23.89336 Y-35.28239 Z-0.74544
X23.61626 Y-36.48835 Z-0.96363
X23.4162 Y-37.70946 Z-1.18182
X23.294 Y-38.9408 Z-1.4
G17
G03 X62.206 Y-41.5592 I19.456 J-1.3092 F480.
X23.294 Y-38.9408 I-19.456 J1.3092
G0 Z1.
X25.08457 Y-32.00639
G1 Z-1.13 F120.
X24.67393 Y-32.93525 Z-1.30907 F360.
X24.24639 Y-34.09643 Z-1.52726
X23.89336 Y-35.28239 Z-1.74544
X23.61626 Y-36.48835 Z-1.96363
X23.4162 Y-37.70946 Z-2.18182
X23.294 Y-38.9408 Z-2.4
G03 X62.206 Y-41.5592 I19.456 J-1.3092 F480.
X23.294 Y-38.9408 I-19.456 J1.3092
G0 Z1.
X25.08457 Y-32.00639
G1 Z-2.13 F120.
X24.67393 Y-32.93525 Z-2.30907 F360.
X24.24639 Y-34.09643 Z-2.52726
X23.89336 Y-35.28239 Z-2.74545
X23.61626 Y-36.48835 Z-2.96363
X23.4162 Y-37.70946 Z-3.18181
X23.294 Y-38.9408 Z-3.4
G03 X62.206 Y-41.5592 I19.456 J-1.3092 F480.
X23.294 Y-38.9408 I-19.456 J1.3092
G0 Z1.
X25.08457 Y-32.00639
G1 Z-3.13 F120.
X24.67393 Y-32.93525 Z-3.30907 F360.
X24.24639 Y-34.09643 Z-3.52726
X23.89336 Y-35.28239 Z-3.74545
X23.61626 Y-36.48835 Z-3.96363
X23.4162 Y-37.70946 Z-4.18182
X23.294 Y-38.9408 Z-4.4
G03 X62.206 Y-41.5592 I19.456 J-1.3092 F480.
X23.294 Y-38.9408 I-19.456 J1.3092
G0 Z1.
X26.68734 Y-24.16552
G1 Z-0.13 F120.
X26.68755 Y-24.16531 Z-0.13005 F360.
X26.69765 Y-24.15308 Z-0.13285
X26.70696 Y-24.14023 Z-0.13565
X26.71544 Y-24.12682 Z-0.13844
X26.72305 Y-24.11291 Z-0.14124
X26.72976 Y-24.09853 Z-0.14404
X26.73555 Y-24.08376 Z-0.14684
X26.74039 Y-24.06865 Z-0.14963
X26.74426 Y-24.05327 Z-0.15243
X26.74714 Y-24.03767 Z-0.15523
X26.74904 Y-24.02192 Z-0.15802
X26.74993 Y-24.00608 Z-0.16082
X26.74981 Y-23.99021 Z-0.16362
X26.74868 Y-23.97439 Z-0.16642
X26.74656 Y-23.95867 Z-0.16921
X26.74344 Y-23.94311 Z-0.17201
X26.73934 Y-23.92779 Z-0.17481
X26.73428 Y-23.91275 Z-0.17761
X26.72828 Y-23.89807 Z-0.1804
X26.72135 Y-23.8838 Z-0.1832
X26.71354 Y-23.86999 Z-0.186
X26.70486 Y-23.85671 Z-0.18879
X26.69536 Y-23.84401 Z-0.19159
X26.68507 Y-23.83193 Z-0.19439
X26.67404 Y-23.82053 Z-0.19719
X26.66231 Y-23.80985 Z-0.19998
X26.64992 Y-23.79994 Z-0.20278
X26.63693 Y-23.79084 Z-0.20558
X26.62339 Y-23.78257 Z-0.20838
X26.60935 Y-23.77518 Z-0.21117
X26.59487 Y-23.7687 Z-0.21397
X26.58001 Y-23.76315 Z-0.21677
X26.56483 Y-23.75855 Z-0.21956
X26.54939 Y-23.75493 Z-0.22236
X26.53374 Y-23.75229 Z-0.22516
X26.51796 Y-23.75065 Z-0.22796
X26.50211 Y-23.75001 Z-0.23075
X26.48625 Y-23.75038 Z-0.23355
X26.47045 Y-23.75175 Z-0.23635
X26.45476 Y-23.75413 Z-0.23914
X26.43926 Y-23.75749 Z-0.24194
X26.424 Y-23.76183 Z-0.24474
X26.40905 Y-23.76713 Z-0.24754
X26.39446 Y-23.77337 Z-0.25033
X26.3803 Y-23.78052 Z-0.25313
X26.36662 Y-23.78855 Z-0.25593
X26.35348 Y-23.79744 Z-0.25873
X26.34093 Y-23.80714 Z-0.26152
X26.32901 Y-23.81762 Z-0.26432
X26.31779 Y-23.82883 Z-0.26712
X26.3073 Y-23.84073 Z-0.26991
X26.29759 Y-23.85327 Z-0.27271
X26.28869 Y-23.8664 Z-0.27551
X26.28064 Y-23.88007 Z-0.27831
X26.27348 Y-23.89423 Z-0.2811
X26.26722 Y-23.90881 Z-0.2839
X26.26191 Y-23.92376 Z-0.2867
X26.25755 Y-23.93901 Z-0.2895
X26.25417 Y-23.95451 Z-0.29229
X26.25178 Y-23.97019 Z-0.29509
X26.25039 Y-23.986 Z-0.29789
X26.25001 Y-24.00185 Z-0.30068
X26.25063 Y-24.01771 Z-0.30348
X26.25225 Y-24.03349 Z-0.30628
X26.25488 Y-24.04913 Z-0.30908
X26.25848 Y-24.06458 Z-0.31187
X26.26307 Y-24.07977 Z-0.31467
X26.2686 Y-24.09463 Z-0.31747
X26.27507 Y-24.10912 Z-0.32026
X26.28244 Y-24.12317 Z-0.32306
X26.29069 Y-24.13672 Z-0.32586
X26.29979 Y-24.14972 Z-0.32866
X26.30969 Y-24.16211 Z-0.33145
X26.32035 Y-24.17386 Z-0.33425
X26.33174 Y-24.1849 Z-0.33705
X26.3438 Y-24.1952 Z-0.33985
X26.3565 Y-24.20471 Z-0.34264
X26.36977 Y-24.2134 Z-0.34544
X26.38357 Y-24.22123 Z-0.34824
X26.39784 Y-24.22817 Z-0.35103
X26.41251 Y-24.23419 Z-0.35383
X26.42754 Y-24.23927 Z-0.35663
X26.44286 Y-24.24338 Z-0.35943
X26.45841 Y-24.24652 Z-0.36222
X26.47413 Y-24.24866 Z-0.36502
X26.48996 Y-24.2498 Z-0.36782
X26.50582 Y-24.24993 Z-0.37062
X26.52166 Y-24.24906 Z-0.37341
X26.53741 Y-24.24718 Z-0.37621
X26.55301 Y-24.24431 Z-0.37901
X26.5684 Y-24.24046 Z-0.3818
X26.58352 Y-24.23564 Z-0.3846
X26.59829 Y-24.22986 Z-0.3874
X26.61267 Y-24.22317 Z-0.3902
X26.6266 Y-24.21557 Z-0.39299
X26.64002 Y-24.20711 Z-0.39579
X26.65287 Y-24.19781 Z-0.39859
X26.66511 Y-24.18772 Z-0.40138
X26.67668 Y-24.17687 Z-0.40418
X26.68755 Y-24.16531 Z-0.40698
X26.69765 Y-24.15308 Z-0.40978
X26.70696 Y-24.14023 Z-0.41257
X26.71544 Y-24.12682 Z-0.41537
X26.72305 Y-24.11291 Z-0.41817
X26.72976 Y-24.09853 Z-0.42097
X26.73555 Y-24.08376 Z-0.42376
X26.74039 Y-24.06865 Z-0.42656
X26.74426 Y-24.05327 Z-0.42936
X26.74714 Y-24.03767 Z-0.43215
X26.74904 Y-24.02192 Z-0.43495
X26.74993 Y-24.00608 Z-0.43775
X26.74981 Y-23.99021 Z-0.44055
X26.74868 Y-23.97439 Z-0.44334
X26.74656 Y-23.95867 Z-0.44614
X26.74344 Y-23.94311 Z-0.44894
X26.73934 Y-23.92779 Z-0.45174
X26.73428 Y-23.91275 Z-0.45453
X26.72828 Y-23.89807 Z-0.45733
X26.72135 Y-23.8838 Z-0.46013
X26.71354 Y-23.86999 Z-0.46292
X26.70486 Y-23.85671 Z-0.46572
X26.69536 Y-23.84401 Z-0.46852
X26.68507 Y-23.83193 Z-0.47132
X26.67404 Y-23.82053 Z-0.47411
X26.66231 Y-23.80985 Z-0.47691
X26.64992 Y-23.79994 Z-0.47971
X26.63693 Y-23.79084 Z-0.4825
X26.62339 Y-23.78257 Z-0.4853
X26.60935 Y-23.77518 Z-0.4881
X26.59487 Y-23.7687 Z-0.4909
X26.58001 Y-23.76315 Z-0.49369
X26.56483 Y-23.75855 Z-0.49649
X26.54939 Y-23.75493 Z-0.49929
X26.53374 Y-23.75229 Z-0.50209
X26.51796 Y-23.75065 Z-0.50488
X26.50211 Y-23.75001 Z-0.50768
X26.48625 Y-23.75038 Z-0.51048
X26.47045 Y-23.75175 Z-0.51327
X26.45476 Y-23.75413 Z-0.51607
X26.43926 Y-23.75749 Z-0.51887
X26.424 Y-23.76183 Z-0.52167
X26.40905 Y-23.76713 Z-0.52446
X26.39446 Y-23.77337 Z-0.52726
X26.3803 Y-23.78052 Z-0.53006
X26.36662 Y-23.78855 Z-0.53286
X26.35348 Y-23.79744 Z-0.53565
X26.34093 Y-23.80714 Z-0.53845
X26.32901 Y-23.81762 Z-0.54125
X26.31779 Y-23.82883 Z-0.54404
X26.3073 Y-23.84073 Z-0.54684
X26.29759 Y-23.85327 Z-0.54964
X26.28869 Y-23.8664 Z-0.55244
X26.28064 Y-23.88007 Z-0.55523
X26.27348 Y-23.89423 Z-0.55803
X26.26722 Y-23.90881 Z-0.56083
X26.26191 Y-23.92376 Z-0.56363
X26.25755 Y-23.93901 Z-0.56642
X26.25417 Y-23.95451 Z-0.56922
X26.25178 Y-23.97019 Z-0.57202
X26.25039 Y-23.986 Z-0.57481
X26.25001 Y-24.00185 Z-0.57761
X26.25063 Y-24.01771 Z-0.58041
X26.25225 Y-24.03349 Z-0.5832
X26.25488 Y-24.04913 Z-0.586
X26.25848 Y-24.06458 Z-0.5888
X26.26307 Y-24.07977 Z-0.5916
X26.2686 Y-24.09463 Z-0.59439
X26.27507 Y-24.10912 Z-0.59719
X26.28244 Y-24.12317 Z-0.59999
X26.29069 Y-24.13672 Z-0.60279
X26.29979 Y-24.14972 Z-0.60558
X26.30969 Y-24.16211 Z-0.60838
X26.32035 Y-24.17386 Z-0.61118
X26.33174 Y-24.1849 Z-0.61398
X26.3438 Y-24.1952 Z-0.61677
X26.3565 Y-24.20471 Z-0.61957
X26.36977 Y-24.2134 Z-0.62237
X26.38357 Y-24.22123 Z-0.62516
X26.39784 Y-24.22817 Z-0.62796
X26.41251 Y-24.23419 Z-0.63076
X26.42754 Y-24.23927 Z-0.63356
X26.44286 Y-24.24338 Z-0.63635
X26.45841 Y-24.24652 Z-0.63915
X26.47413 Y-24.24866 Z-0.64195
X26.48996 Y-24.2498 Z-0.64475
X26.50582 Y-24.24993 Z-0.64754
X26.52166 Y-24.24906 Z-0.65034
X26.53741 Y-24.24718 Z-0.65314
X26.55301 Y-24.24431 Z-0.65593
X26.5684 Y-24.24046 Z-0.65873
X26.58352 Y-24.23564 Z-0.66153
X26.59829 Y-24.22986 Z-0.66433
X26.61267 Y-24.22317 Z-0.66712
X26.6266 Y-24.21557 Z-0.66992
X26.64002 Y-24.20711 Z-0.67272
X26.65287 Y-24.19781 Z-0.67551
X26.66511 Y-24.18772 Z-0.67831
X26.67668 Y-24.17687 Z-0.68111
X26.68755 Y-24.16531 Z-0.68391
X26.69765 Y-24.15308 Z-0.6867
X26.70696 Y-24.14023 Z-0.6895
X26.71544 Y-24.12682 Z-0.6923
X26.72305 Y-24.11291 Z-0.6951
X26.72976 Y-24.09853 Z-0.69789
X26.73555 Y-24.08376 Z-0.70069
X26.74039 Y-24.06865 Z-0.70349
X26.74426 Y-24.05327 Z-0.70628
X26.74714 Y-24.03767 Z-0.70908
X26.74904 Y-24.02192 Z-0.71188
X26.74993 Y-24.00608 Z-0.71468
X26.74981 Y-23.99021 Z-0.71747
X26.74868 Y-23.97439 Z-0.72027
X26.74656 Y-23.95867 Z-0.72307
X26.74344 Y-23.94311 Z-0.72587
X26.73934 Y-23.92779 Z-0.72866
X26.73428 Y-23.91275 Z-0.73146
X26.72828 Y-23.89807 Z-0.73426
X26.72135 Y-23.8838 Z-0.73705
X26.71354 Y-23.86999 Z-0.73985
X26.70486 Y-23.85671 Z-0.74265
X26.69536 Y-23.84401 Z-0.74544
X26.68507 Y-23.83193 Z-0.74824
X26.67404 Y-23.82053 Z-0.75104
X26.66231 Y-23.80985 Z-0.75384
X26.64992 Y-23.79994 Z-0.75663
X26.63693 Y-23.79084 Z-0.75943
X26.62339 Y-23.78257 Z-0.76223
X26.60935 Y-23.77518 Z-0.76503
X26.59487 Y-23.7687 Z-0.76782
X26.58001 Y-23.76315 Z-0.77062
X26.56483 Y-23.75855 Z-0.77342
X26.54939 Y-23.75493 Z-0.77622
X26.53374 Y-23.75229 Z-0.77901
X26.51796 Y-23.75065 Z-0.78181
X26.50211 Y-23.75001 Z-0.78461
X26.48625 Y-23.75038 Z-0.7874
X26.47045 Y-23.75175 Z-0.7902
X26.45476 Y-23.75413 Z-0.793
X26.43926 Y-23.75749 Z-0.7958
X26.424 Y-23.76183 Z-0.79859
X26.40905 Y-23.76713 Z-0.80139
X26.39446 Y-23.77337 Z-0.80419
X26.3803 Y-23.78052 Z-0.80698
X26.36662 Y-23.78855 Z-0.80978
X26.35348 Y-23.79744 Z-0.81258
X26.34093 Y-23.80714 Z-0.81538
X26.32901 Y-23.81762 Z-0.81817
X26.31779 Y-23.82883 Z-0.82097
X26.3073 Y-23.84073 Z-0.82377
X26.29759 Y-23.85327 Z-0.82657
X26.28869 Y-23.8664 Z-0.82936
X26.28064 Y-23.88007 Z-0.83216
X26.27348 Y-23.89423 Z-0.83496
X26.26722 Y-23.90881 Z-0.83775
X26.26191 Y-23.92376 Z-0.84055
X26.25755 Y-23.93901 Z-0.84335
X26.25417 Y-23.95451 Z-0.84615
X26.25178 Y-23.97019 Z-0.84894
X26.25039 Y-23.986 Z-0.85174
X26.25001 Y-24.00185 Z-0.85454
X26.25063 Y-24.01771 Z-0.85733
X26.25225 Y-24.03349 Z-0.86013
X26.25488 Y-24.04913 Z-0.86293
X26.25848 Y-24.06458 Z-0.86573
X26.26307 Y-24.07977 Z-0.86852
X26.2686 Y-24.09463 Z-0.87132
X26.27507 Y-24.10912 Z-0.87412
X26.28244 Y-24.12317 Z-0.87692
X26.29069 Y-24.13672 Z-0.87971
X26.29979 Y-24.14972 Z-0.88251
X26.30969 Y-24.16211 Z-0.88531
X26.32035 Y-24.17386 Z-0.88811
X26.33174 Y-24.1849 Z-0.8909
X26.3438 Y-24.1952 Z-0.8937
X26.3565 Y-24.20471 Z-0.8965
X26.36977 Y-24.2134 Z-0.89929
X26.38357 Y-24.22123 Z-0.90209
X26.39784 Y-24.22817 Z-0.90489
X26.41251 Y-24.23419 Z-0.90769
X26.42754 Y-24.23927 Z-0.91048
X26.44286 Y-24.24338 Z-0.91328
X26.45841 Y-24.24652 Z-0.91608
X26.47413 Y-24.24866 Z-0.91887
X26.48996 Y-24.2498 Z-0.92167
X26.50582 Y-24.24993 Z-0.92447
X26.52166 Y-24.24906 Z-0.92727
X26.53741 Y-24.24718 Z-0.93006
X26.55301 Y-24.24431 Z-0.93286
X26.5684 Y-24.24046 Z-0.93566
X26.58352 Y-24.23564 Z-0.93846
X26.59829 Y-24.22986 Z-0.94125
X26.61267 Y-24.22317 Z-0.94405
X26.6266 Y-24.21557 Z-0.94685
X26.64002 Y-24.20711 Z-0.94964
X26.65287 Y-24.19781 Z-0.95244
X26.66511 Y-24.18772 Z-0.95524
X26.67668 Y-24.17687 Z-0.95804
X26.68755 Y-24.16531 Z-0.96083
X26.69765 Y-24.15308 Z-0.96363
X26.70696 Y-24.14023 Z-0.96643
X26.71544 Y-24.12682 Z-0.96923
X26.72305 Y-24.11291 Z-0.97202
X26.72976 Y-24.09853 Z-0.97482
X26.73555 Y-24.08376 Z-0.97762
X26.74039 Y-24.06865 Z-0.98041
X26.74426 Y-24.05327 Z-0.98321
X26.74714 Y-24.03767 Z-0.98601
X26.74904 Y-24.02192 Z-0.98881
X26.74993 Y-24.00608 Z-0.9916
X26.74981 Y-23.99021 Z-0.9944
X26.74868 Y-23.97439 Z-0.9972
X26.74656 Y-23.95867 Z-0.99999
X26.74344 Y-23.94311 Z-1.00279
X26.73934 Y-23.92779 Z-1.00559
X26.73428 Y-23.91275 Z-1.00839
X26.72828 Y-23.89807 Z-1.01118
X26.72135 Y-23.8838 Z-1.01398
X26.71354 Y-23.86999 Z-1.01678
X26.70486 Y-23.85671 Z-1.01957
X26.69536 Y-23.84401 Z-1.02237
X26.68507 Y-23.83193 Z-1.02517
X26.67404 Y-23.82053 Z-1.02797
X26.66231 Y-23.80985 Z-1.03076
X26.64992 Y-23.79994 Z-1.03356
X26.63693 Y-23.79084 Z-1.03636
X26.62339 Y-23.78257 Z-1.03916
X26.60935 Y-23.77518 Z-1.04195
X26.59487 Y-23.7687 Z-1.04475
X26.58001 Y-23.76315 Z-1.04755
X26.56483 Y-23.75855 Z-1.05035
X26.54939 Y-23.75493 Z-1.05314
X26.53374 Y-23.75229 Z-1.05594
X26.51796 Y-23.75065 Z-1.05874
X26.50211 Y-23.75001 Z-1.06153
X26.48625 Y-23.75038 Z-1.06433
X26.47045 Y-23.75175 Z-1.06713
X26.45476 Y-23.75413 Z-1.06993
X26.43926 Y-23.75749 Z-1.07272
X26.424 Y-23.76183 Z-1.07552
X26.40905 Y-23.76713 Z-1.07832
X26.39446 Y-23.77337 Z-1.08111
X26.3803 Y-23.78052 Z-1.08391
X26.36662 Y-23.78855 Z-1.08671
X26.35348 Y-23.79744 Z-1.08951
X26.34093 Y-23.80714 Z-1.0923
X26.32901 Y-23.81762 Z-1.0951
X26.31779 Y-23.82883 Z-1.0979
X26.3073 Y-23.84073 Z-1.1007
X26.29759 Y-23.85327 Z-1.10349
X26.28869 Y-23.8664 Z-1.10629
X26.28064 Y-23.88007 Z-1.10909
X26.27348 Y-23.89423 Z-1.11188
X26.26722 Y-23.90881 Z-1.11468
X26.26191 Y-23.92376 Z-1.11748
X26.25755 Y-23.93901 Z-1.12028
X26.25417 Y-23.95451 Z-1.12307
X26.25178 Y-23.97019 Z-1.12587
X26.25039 Y-23.986 Z-1.12867
X26.25001 Y-24.00185 Z-1.13147
X26.25063 Y-24.01771 Z-1.13426
X26.25225 Y-24.03349 Z-1.13706
X26.25488 Y-24.04913 Z-1.13986
X26.25848 Y-24.06458 Z-1.14265
X26.26307 Y-24.07977 Z-1.14545
X26.2686 Y-24.09463 Z-1.14825
X26.27507 Y-24.10912 Z-1.15105
X26.28244 Y-24.12317 Z-1.15384
X26.29069 Y-24.13672 Z-1.15664
X26.29979 Y-24.14972 Z-1.15944
X26.30969 Y-24.16211 Z-1.16223
X26.32035 Y-24.17386 Z-1.16503
X26.33174 Y-24.1849 Z-1.16783
X26.3438 Y-24.1952 Z-1.17063
X26.3565 Y-24.20471 Z-1.17342
X26.36977 Y-24.2134 Z-1.17622
X26.38357 Y-24.22123 Z-1.17902
X26.39784 Y-24.22817 Z-1.18182
X26.41251 Y-24.23419 Z-1.18461
X26.42754 Y-24.23927 Z-1.18741
X26.44286 Y-24.24338 Z-1.19021
X26.45841 Y-24.24652 Z-1.193
X26.47413 Y-24.24866 Z-1.1958
X26.48996 Y-24.2498 Z-1.1986
X26.50582 Y-24.24993 Z-1.2014
X26.52166 Y-24.24906 Z-1.20419
X26.53741 Y-24.24718 Z-1.20699
X26.55301 Y-24.24431 Z-1.20979
X26.5684 Y-24.24046 Z-1.21259
X26.58352 Y-24.23564 Z-1.21538
X26.59829 Y-24.22986 Z-1.21818
X26.61267 Y-24.22317 Z-1.22098
X26.6266 Y-24.21557 Z-1.22377
X26.64002 Y-24.20711 Z-1.22657
X26.65287 Y-24.19781 Z-1.22937
X26.66511 Y-24.18772 Z-1.23217
X26.67668 Y-24.17687 Z-1.23496
X26.68755 Y-24.16531 Z-1.23776
X26.69765 Y-24.15308 Z-1.24056
X26.70696 Y-24.14023 Z-1.24335
X26.71544 Y-24.12682 Z-1.24615
X26.72305 Y-24.11291 Z-1.24895
X26.72976 Y-24.09853 Z-1.25175
X26.73555 Y-24.08376 Z-1.25454
X26.74039 Y-24.06865 Z-1.25734
X26.74426 Y-24.05327 Z-1.26014
X26.74714 Y-24.03767 Z-1.26293
X26.74904 Y-24.02192 Z-1.26573
X26.74993 Y-24.00608 Z-1.26853
X26.74981 Y-23.99021 Z-1.27133
X26.74868 Y-23.97439 Z-1.27412
X26.74656 Y-23.95867 Z-1.27692
X26.74344 Y-23.94311 Z-1.27972
X26.73934 Y-23.92779 Z-1.28252
X26.73428 Y-23.91275 Z-1.28531
X26.72828 Y-23.89807 Z-1.28811
X26.72135 Y-23.8838 Z-1.29091
X26.71354 Y-23.86999 Z-1.29371
X26.70486 Y-23.85671 Z-1.2965
X26.69536 Y-23.84401 Z-1.2993
X26.68507 Y-23.83193 Z-1.3021
X26.67404 Y-23.82053 Z-1.30489
X26.66231 Y-23.80985 Z-1.30769
X26.64992 Y-23.79994 Z-1.31049
X26.63693 Y-23.79084 Z-1.31329
X26.62339 Y-23.78257 Z-1.31608
X26.60935 Y-23.77518 Z-1.31888
X26.59487 Y-23.7687 Z-1.32168
X26.58001 Y-23.76315 Z-1.32447
X26.56483 Y-23.75855 Z-1.32727
X26.54939 Y-23.75493 Z-1.33007
X26.53374 Y-23.75229 Z-1.33287
X26.51796 Y-23.75065 Z-1.33566
X26.50211 Y-23.75001 Z-1.33846
X26.48625 Y-23.75038 Z-1.34126
X26.47045 Y-23.75175 Z-1.34406
X26.45476 Y-23.75413 Z-1.34685
X26.43926 Y-23.75749 Z-1.34965
X26.424 Y-23.76183 Z-1.35245
X26.40905 Y-23.76713 Z-1.35524
X26.39446 Y-23.77337 Z-1.35804
X26.3803 Y-23.78052 Z-1.36084
X26.36662 Y-23.78855 Z-1.36364
X26.35348 Y-23.79744 Z-1.36643
X26.34093 Y-23.80714 Z-1.36923
X26.32901 Y-23.81762 Z-1.37203
X26.31779 Y-23.82883 Z-1.37482
X26.3073 Y-23.84073 Z-1.37762
X26.29759 Y-23.85327 Z-1.38042
X26.28869 Y-23.8664 Z-1.38322
X26.28064 Y-23.88007 Z-1.38601
X26.27348 Y-23.89423 Z-1.38881
X26.26722 Y-23.90881 Z-1.39161
X26.26191 Y-23.92376 Z-1.39441
X26.25755 Y-23.93901 Z-1.3972
X26.25417 Y-23.95451 Z-1.4
X26.33769 Y-24.19015 F480.
X26.58352 Y-24.23564
X26.74583 Y-24.04549
X26.66231 Y-23.80985
X26.41648 Y-23.76436
X26.25417 Y-23.95451
G0 Z1.
X26.68734 Y-24.16552
G1 Z-1.13 F120.
X26.68755 Y-24.16531 Z-1.13005 F360.
X26.69765 Y-24.15308 Z-1.13285
X26.70696 Y-24.14023 Z-1.13565
X26.71544 Y-24.12682 Z-1.13844
X26.72305 Y-24.11291 Z-1.14124
X26.72976 Y-24.09853 Z-1.14404
X26.73555 Y-24.08376 Z-1.14684
X26.74039 Y-24.06865 Z-1.14963
X26.74426 Y-24.05327 Z-1.15243
X26.74714 Y-24.03767 Z-1.15523
X26.74904 Y-24.02192 Z-1.15802
X26.74993 Y-24.00608 Z-1.16082
X26.74981 Y-23.99021 Z-1.16362
X26.74868 Y-23.97439 Z-1.16642
X26.74656 Y-23.95867 Z-1.16921
X26.74344 Y-23.94311 Z-1.17201
X26.73934 Y-23.92779 Z-1.17481
X26.73428 Y-23.91275 Z-1.17761
X26.72828 Y-23.89807 Z-1.1804
X26.72135 Y-23.8838 Z-1.1832
X26.71354 Y-23.86999 Z-1.186
X26.70486 Y-23.85671 Z-1.18879
X26.69536 Y-23.84401 Z-1.19159
X26.68507 Y-23.83193 Z-1.19439
X26.67404 Y-23.82053 Z-1.19719
X26.66231 Y-23.80985 Z-1.19998
X26.64992 Y-23.79994 Z-1.20278
X26.63693 Y-23.79084 Z-1.20558
X26.62339 Y-23.78257 Z-1.20838
X26.60935 Y-23.77518 Z-1.21117
X26.59487 Y-23.7687 Z-1.21397
X26.58001 Y-23.76315 Z-1.21677
X26.56483 Y-23.75855 Z-1.21956
X26.54939 Y-23.75493 Z-1.22236
X26.53374 Y-23.75229 Z-1.22516
X26.51796 Y-23.75065 Z-1.22796
X26.50211 Y-23.75001 Z-1.23075
X26.48625 Y-23.75038 Z-1.23355
X26.47045 Y-23.75175 Z-1.23635
X26.45476 Y-23.75413 Z-1.23914
X26.43926 Y-23.75749 Z-1.24194
X26.424 Y-23.76183 Z-1.24474
X26.40905 Y-23.76713 Z-1.24754
X26.39446 Y-23.77337 Z-1.25033
X26.3803 Y-23.78052 Z-1.25313
X26.36662 Y-23.78855 Z-1.25593
X26.35348 Y-23.79744 Z-1.25873
X26.34093 Y-23.80714 Z-1.26152
X26.32901 Y-23.81762 Z-1.26432
X26.31779 Y-23.82883 Z-1.26712
X26.3073 Y-23.84073 Z-1.26991
X26.29759 Y-23.85327 Z-1.27271
X26.28869 Y-23.8664 Z-1.27551
X26.28064 Y-23.88007 Z-1.27831
X26.27348 Y-23.89423 Z-1.2811
X26.26722 Y-23.90881 Z-1.2839
X26.26191 Y-23.92376 Z-1.2867
X26.25755 Y-23.93901 Z-1.28949
X26.25417 Y-23.95451 Z-1.29229
X26.25178 Y-23.97019 Z-1.29509
X26.25039 Y-23.986 Z-1.29789
X26.25001 Y-24.00185 Z-1.30068
X26.25063 Y-24.01771 Z-1.30348
X26.25225 Y-24.03349 Z-1.30628
X26.25488 Y-24.04913 Z-1.30908
X26.25848 Y-24.06458 Z-1.31187
X26.26307 Y-24.07977 Z-1.31467
X26.2686 Y-24.09463 Z-1.31747
X26.27507 Y-24.10912 Z-1.32026
X26.28244 Y-24.12317 Z-1.32306
X26.29069 Y-24.13672 Z-1.32586
X26.29979 Y-24.14972 Z-1.32866
X26.30969 Y-24.16211 Z-1.33145
X26.32035 Y-24.17386 Z-1.33425
X26.33174 Y-24.1849 Z-1.33705
X26.3438 Y-24.1952 Z-1.33985
X26.3565 Y-24.20471 Z-1.34264
X26.36977 Y-24.2134 Z-1.34544
X26.38357 Y-24.22123 Z-1.34824
X26.39784 Y-24.22817 Z-1.35103
X26.41251 Y-24.23419 Z-1.35383
X26.42754 Y-24.23927 Z-1.35663
X26.44286 Y-24.24338 Z-1.35943
X26.45841 Y-24.24652 Z-1.36222
X26.47413 Y-24.24866 Z-1.36502
X26.48996 Y-24.2498 Z-1.36782
X26.50582 Y-24.24993 Z-1.37062
X26.52166 Y-24.24906 Z-1.37341
X26.53741 Y-24.24718 Z-1.37621
X26.55301 Y-24.24431 Z-1.37901
X26.5684 Y-24.24046 Z-1.3818
X26.58352 Y-24.23564 Z-1.3846
X26.59829 Y-24.22986 Z-1.3874
X26.61267 Y-24.22317 Z-1.3902
X26.6266 Y-24.21557 Z-1.39299
X26.64002 Y-24.20711 Z-1.39579
X26.65287 Y-24.19781 Z-1.39859
X26.66511 Y-24.18772 Z-1.40138
X26.67668 Y-24.17687 Z-1.40418
X26.68755 Y-24.16531 Z-1.40698
X26.69765 Y-24.15308 Z-1.40978
X26.70696 Y-24.14023 Z-1.41257
X26.71544 Y-24.12682 Z-1.41537
X26.72305 Y-24.11291 Z-1.41817
X26.72976 Y-24.09853 Z-1.42097
X26.73555 Y-24.08376 Z-1.42376
X26.74039 Y-24.06865 Z-1.42656
X26.74426 Y-24.05327 Z-1.42936
X26.74714 Y-24.03767 Z-1.43215
X26.74904 Y-24.02192 Z-1.43495
X26.74993 Y-24.00608 Z-1.43775
X26.74981 Y-23.99021 Z-1.44055
X26.74868 Y-23.97439 Z-1.44334
X26.74656 Y-23.95867 Z-1.44614
X26.74344 Y-23.94311 Z-1.44894
X26.73934 Y-23.92779 Z-1.45174
X26.73428 Y-23.91275 Z-1.45453
X26.72828 Y-23.89807 Z-1.45733
X26.72135 Y-23.8838 Z-1.46013
X26.71354 Y-23.86999 Z-1.46292
X26.70486 Y-23.85671 Z-1.46572
X26.69536 Y-23.84401 Z-1.46852
X26.68507 Y-23.83193 Z-1.47132
X26.67404 Y-23.82053 Z-1.47411
X26.66231 Y-23.80985 Z-1.47691
X26.64992 Y-23.79994 Z-1.47971
X26.63693 Y-23.79084 Z-1.4825
X26.62339 Y-23.78257 Z-1.4853
X26.60935 Y-23.77518 Z-1.4881
X26.59487 Y-23.7687 Z-1.4909
X26.58001 Y-23.76315 Z-1.49369
X26.56483 Y-23.75855 Z-1.49649
X26.54939 Y-23.75493 Z-1.49929
X26.53374 Y-23.75229 Z-1.50209
X26.51796 Y-23.75065 Z-1.50488
X26.50211 Y-23.75001 Z-1.50768
X26.48625 Y-23.75038 Z-1.51048
X26.47045 Y-23.75175 Z-1.51327
X26.45476 Y-23.75413 Z-1.51607
X26.43926 Y-23.75749 Z-1.51887
X26.424 Y-23.76183 Z-1.52167
X26.40905 Y-23.76713 Z-1.52446
X26.39446 Y-23.77337 Z-1.52726
X26.3803 Y-23.78052 Z-1.53006
X26.36662 Y-23.78855 Z-1.53286
X26.35348 Y-23.79744 Z-1.53565
X26.34093 Y-23.80714 Z-1.53845
X26.32901 Y-23.81762 Z-1.54125
X26.31779 Y-23.82883 Z-1.54404
X26.3073 Y-23.84073 Z-1.54684
X26.29759 Y-23.85327 Z-1.54964
X26.28869 Y-23.8664 Z-1.55244
X26.28064 Y-23.88007 Z-1.55523
X26.27348 Y-23.89423 Z-1.55803
X26.26722 Y-23.90881 Z-1.56083
X26.26191 Y-23.92376 Z-1.56363
X26.25755 Y-23.93901 Z-1.56642
X26.25417 Y-23.95451 Z-1.56922
X26.25178 Y-23.97019 Z-1.57202
X26.25039 Y-23.986 Z-1.57481
X26.25001 Y-24.00185 Z-1.57761
X26.25063 Y-24.01771 Z-1.58041
X26.25225 Y-24.03349 Z-1.58321
X26.25488 Y-24.04913 Z-1.586
X26.25848 Y-24.06458 Z-1.5888
X26.26307 Y-24.07977 Z-1.5916
X26.2686 Y-24.09463 Z-1.59439
X26.27507 Y-24.10912 Z-1.59719
X26.28244 Y-24.12317 Z-1.59999
X26.29069 Y-24.13672 Z-1.60279
X26.29979 Y-24.14972 Z-1.60558
X26.30969 Y-24.16211 Z-1.60838
X26.32035 Y-24.17386 Z-1.61118
X26.33174 Y-24.1849 Z-1.61398
X26.3438 Y-24.1952 Z-1.61677
X26.3565 Y-24.20471 Z-1.61957
X26.36977 Y-24.2134 Z-1.62237
X26.38357 Y-24.22123 Z-1.62516
X26.39784 Y-24.22817 Z-1.62796
X26.41251 Y-24.23419 Z-1.63076
X26.42754 Y-24.23927 Z-1.63356
X26.44286 Y-24.24338 Z-1.63635
X26.45841 Y-24.24652 Z-1.63915
X26.47413 Y-24.24866 Z-1.64195
X26.48996 Y-24.2498 Z-1.64475
X26.50582 Y-24.24993 Z-1.64754
X26.52166 Y-24.24906 Z-1.65034
X26.53741 Y-24.24718 Z-1.65314
X26.55301 Y-24.24431 Z-1.65593
X26.5684 Y-24.24046 Z-1.65873
X26.58352 Y-24.23564 Z-1.66153
X26.59829 Y-24.22986 Z-1.66433
X26.61267 Y-24.22317 Z-1.66712
X26.6266 Y-24.21557 Z-1.66992
X26.64002 Y-24.20711 Z-1.67272
X26.65287 Y-24.19781 Z-1.67551
X26.66511 Y-24.18772 Z-1.67831
X26.67668 Y-24.17687 Z-1.68111
X26.68755 Y-24.16531 Z-1.68391
X26.69765 Y-24.15308 Z-1.6867
X26.70696 Y-24.14023 Z-1.6895
X26.71544 Y-24.12682 Z-1.6923
X26.72305 Y-24.11291 Z-1.6951
X26.72976 Y-24.09853 Z-1.69789
X26.73555 Y-24.08376 Z-1.70069
X26.74039 Y-24.06865 Z-1.70349
X26.74426 Y-24.05327 Z-1.70628
X26.74714 Y-24.03767 Z-1.70908
X26.74904 Y-24.02192 Z-1.71188
X26.74993 Y-24.00608 Z-1.71468
X26.74981 Y-23.99021 Z-1.71747
X26.74868 Y-23.97439 Z-1.72027
X26.74656 Y-23.95867 Z-1.72307
X26.74344 Y-23.94311 Z-1.72587
X26.73934 Y-23.92779 Z-1.72866
X26.73428 Y-23.91275 Z-1.73146
X26.72828 Y-23.89807 Z-1.73426
X26.72135 Y-23.8838 Z-1.73705
X26.71354 Y-23.86999 Z-1.73985
X26.70486 Y-23.85671 Z-1.74265
X26.69536 Y-23.84401 Z-1.74544
X26.68507 Y-23.83193 Z-1.74824
X26.67404 Y-23.82053 Z-1.75104
X26.66231 Y-23.80985 Z-1.75384
X26.64992 Y-23.79994 Z-1.75663
X26.63693 Y-23.79084 Z-1.75943
X26.62339 Y-23.78257 Z-1.76223
X26.60935 Y-23.77518 Z-1.76503
X26.59487 Y-23.7687 Z-1.76782
X26.58001 Y-23.76315 Z-1.77062
X26.56483 Y-23.75855 Z-1.77342
X26.54939 Y-23.75493 Z-1.77622
X26.53374 Y-23.75229 Z-1.77901
X26.51796 Y-23.75065 Z-1.78181
X26.50211 Y-23.75001 Z-1.78461
X26.48625 Y-23.75038 Z-1.7874
X26.47045 Y-23.75175 Z-1.7902
X26.45476 Y-23.75413 Z-1.793
X26.43926 Y-23.75749 Z-1.7958
X26.424 Y-23.76183 Z-1.79859
X26.40905 Y-23.76713 Z-1.80139
X26.39446 Y-23.77337 Z-1.80419
X26.3803 Y-23.78052 Z-1.80699
X26.36662 Y-23.78855 Z-1.80978
X26.35348 Y-23.79744 Z-1.81258
X26.34093 Y-23.80714 Z-1.81538
X26.32901 Y-23.81762 Z-1.81817
X26.31779 Y-23.82883 Z-1.82097
X26.3073 Y-23.84073 Z-1.82377
X26.29759 Y-23.85327 Z-1.82657
X26.28869 Y-23.8664 Z-1.82936
X26.28064 Y-23.88007 Z-1.83216
X26.27348 Y-23.89423 Z-1.83496
X26.26722 Y-23.90881 Z-1.83775
X26.26191 Y-23.92376 Z-1.84055
X26.25755 Y-23.93901 Z-1.84335
X26.25417 Y-23.95451 Z-1.84615
X26.25178 Y-23.97019 Z-1.84894
X26.25039 Y-23.986 Z-1.85174
X26.25001 Y-24.00185 Z-1.85454
X26.25063 Y-24.01771 Z-1.85734
X26.25225 Y-24.03349 Z-1.86013
X26.25488 Y-24.04913 Z-1.86293
X26.25848 Y-24.06458 Z-1.86573
X26.26307 Y-24.07977 Z-1.86852
X26.2686 Y-24.09463 Z-1.87132
X26.27507 Y-24.10912 Z-1.87412
X26.28244 Y-24.12317 Z-1.87692
X26.29069 Y-24.13672 Z-1.87971
X26.29979 Y-24.14972 Z-1.88251
X26.30969 Y-24.16211 Z-1.88531
X26.32035 Y-24.17386 Z-1.88811
X26.33174 Y-24.1849 Z-1.8909
X26.3438 Y-24.1952 Z-1.8937
X26.3565 Y-24.20471 Z-1.8965
X26.36977 Y-24.2134 Z-1.89929
X26.38357 Y-24.22123 Z-1.90209
X26.39784 Y-24.22817 Z-1.90489
X26.41251 Y-24.23419 Z-1.90769
X26.42754 Y-24.23927 Z-1.91048
X26.44286 Y-24.24338 Z-1.91328
X26.45841 Y-24.24652 Z-1.91608
X26.47413 Y-24.24866 Z-1.91887
X26.48996 Y-24.2498 Z-1.92167
X26.50582 Y-24.24993 Z-1.92447
X26.52166 Y-24.24906 Z-1.92727
X26.53741 Y-24.24718 Z-1.93006
X26.55301 Y-24.24431 Z-1.93286
X26.5684 Y-24.24046 Z-1.93566
X26.58352 Y-24.23564 Z-1.93846
X26.59829 Y-24.22986 Z-1.94125
X26.61267 Y-24.22317 Z-1.94405
X26.6266 Y-24.21557 Z-1.94685
X26.64002 Y-24.20711 Z-1.94964
X26.65287 Y-24.19781 Z-1.95244
X26.66511 Y-24.18772 Z-1.95524
X26.67668 Y-24.17687 Z-1.95804
X26.68755 Y-24.16531 Z-1.96083
X26.69765 Y-24.15308 Z-1.96363
X26.70696 Y-24.14023 Z-1.96643
X26.71544 Y-24.12682 Z-1.96923
X26.72305 Y-24.11291 Z-1.97202
X26.72976 Y-24.09853 Z-1.97482
X26.73555 Y-24.08376 Z-1.97762
X26.74039 Y-24.06865 Z-1.98041
X26.74426 Y-24.05327 Z-1.98321
X26.74714 Y-24.03767 Z-1.98601
X26.74904 Y-24.02192 Z-1.98881
X26.74993 Y-24.00608 Z-1.9916
X26.74981 Y-23.99021 Z-1.9944
X26.74868 Y-23.97439 Z-1.9972
X26.74656 Y-23.95867 Z-1.99999
X26.74344 Y-23.94311 Z-2.00279
X26.73934 Y-23.92779 Z-2.00559
X26.73428 Y-23.91275 Z-2.00839
X26.72828 Y-23.89807 Z-2.01118
X26.72135 Y-23.8838 Z-2.01398
X26.71354 Y-23.86999 Z-2.01678
X26.70486 Y-23.85671 Z-2.01958
X26.69536 Y-23.84401 Z-2.02237
X26.68507 Y-23.83193 Z-2.02517
X26.67404 Y-23.82053 Z-2.02797
X26.66231 Y-23.80985 Z-2.03076
X26.64992 Y-23.79994 Z-2.03356
X26.63693 Y-23.79084 Z-2.03636
X26.62339 Y-23.78257 Z-2.03916
X26.60935 Y-23.77518 Z-2.04195
X26.59487 Y-23.7687 Z-2.04475
X26.58001 Y-23.76315 Z-2.04755
X26.56483 Y-23.75855 Z-2.05035
X26.54939 Y-23.75493 Z-2.05314
X26.53374 Y-23.75229 Z-2.05594
X26.51796 Y-23.75065 Z-2.05874
X26.50211 Y-23.75001 Z-2.06153
X26.48625 Y-23.75038 Z-2.06433
X26.47045 Y-23.75175 Z-2.06713
X26.45476 Y-23.75413 Z-2.06993
X26.43926 Y-23.75749 Z-2.07272
X26.424 Y-23.76183 Z-2.07552
X26.40905 Y-23.76713 Z-2.07832
X26.39446 Y-23.77337 Z-2.08111
X26.3803 Y-23.78052 Z-2.08391
X26.36662 Y-23.78855 Z-2.08671
X26.35348 Y-23.79744 Z-2.08951
X26.34093 Y-23.80714 Z-2.0923
X26.32901 Y-23.81762 Z-2.0951
X26.31779 Y-23.82883 Z-2.0979
X26.3073 Y-23.84073 Z-2.1007
X26.29759 Y-23.85327 Z-2.10349
X26.28869 Y-23.8664 Z-2.10629
X26.28064 Y-23.88007 Z-2.10909
X26.27348 Y-23.89423 Z-2.11188
X26.26722 Y-23.90881 Z-2.11468
X26.26191 Y-23.92376 Z-2.11748
X26.25755 Y-23.93901 Z-2.12028
X26.25417 Y-23.95451 Z-2.12307
X26.25178 Y-23.97019 Z-2.12587
X26.25039 Y-23.986 Z-2.12867
X26.25001 Y-24.00185 Z-2.13147
X26.25063 Y-24.01771 Z-2.13426
X26.25225 Y-24.03349 Z-2.13706
X26.25488 Y-24.04913 Z-2.13986
X26.25848 Y-24.06458 Z-2.14265
X26.26307 Y-24.07977 Z-2.14545
X26.2686 Y-24.09463 Z-2.14825
X26.27507 Y-24.10912 Z-2.15104
X26.28244 Y-24.12317 Z-2.15384
X26.29069 Y-24.13672 Z-2.15664
X26.29979 Y-24.14972 Z-2.15944
X26.30969 Y-24.16211 Z-2.16223
X26.32035 Y-24.17386 Z-2.16503
X26.33174 Y-24.1849 Z-2.16783
X26.3438 Y-24.1952 Z-2.17063
X26.3565 Y-24.20471 Z-2.17342
X26.36977 Y-24.2134 Z-2.17622
X26.38357 Y-24.22123 Z-2.17902
X26.39784 Y-24.22817 Z-2.18182
X26.41251 Y-24.23419 Z-2.18461
X26.42754 Y-24.23927 Z-2.18741
X26.44286 Y-24.24338 Z-2.19021
X26.45841 Y-24.24652 Z-2.193
X26.47413 Y-24.24866 Z-2.1958
X26.48996 Y-24.2498 Z-2.1986
X26.50582 Y-24.24993 Z-2.2014
X26.52166 Y-24.24906 Z-2.20419
X26.53741 Y-24.24718 Z-2.20699
X26.55301 Y-24.24431 Z-2.20979
X26.5684 Y-24.24046 Z-2.21259
X26.58352 Y-24.23564 Z-2.21538
X26.59829 Y-24.22986 Z-2.21818
X26.61267 Y-24.22317 Z-2.22098
X26.6266 Y-24.21557 Z-2.22377
X26.64002 Y-24.20711 Z-2.22657
X26.65287 Y-24.19781 Z-2.22937
X26.66511 Y-24.18772 Z-2.23217
X26.67668 Y-24.17687 Z-2.23496
X26.68755 Y-24.16531 Z-2.23776
X26.69765 Y-24.15308 Z-2.24056
X26.70696 Y-24.14023 Z-2.24335
X26.71544 Y-24.12682 Z-2.24615
X26.72305 Y-24.11291 Z-2.24895
X26.72976 Y-24.09853 Z-2.25175
X26.73555 Y-24.08376 Z-2.25454
X26.74039 Y-24.06865 Z-2.25734
X26.74426 Y-24.05327 Z-2.26014
X26.74714 Y-24.03767 Z-2.26294
X26.74904 Y-24.02192 Z-2.26573
X26.74993 Y-24.00608 Z-2.26853
X26.74981 Y-23.99021 Z-2.27133
X26.74868 Y-23.97439 Z-2.27412
X26.74656 Y-23.95867 Z-2.27692
X26.74344 Y-23.94311 Z-2.27972
X26.73934 Y-23.92779 Z-2.28252
X26.73428 Y-23.91275 Z-2.28531
X26.72828 Y-23.89807 Z-2.28811
X26.72135 Y-23.8838 Z-2.29091
X26.71354 Y-23.86999 Z-2.29371
X26.70486 Y-23.85671 Z-2.2965
X26.69536 Y-23.84401 Z-2.2993
X26.68507 Y-23.83193 Z-2.3021
X26.67404 Y-23.82053 Z-2.30489
X26.66231 Y-23.80985 Z-2.30769
X26.64992 Y-23.79994 Z-2.31049
X26.63693 Y-23.79084 Z-2.31329
X26.62339 Y-23.78257 Z-2.31608
X26.60935 Y-23.77518 Z-2.31888
X26.59487 Y-23.7687 Z-2.32168
X26.58001 Y-23.76315 Z-2.32447
X26.56483 Y-23.75855 Z-2.32727
X26.54939 Y-23.75493 Z-2.33007
X26.53374 Y-23.75229 Z-2.33287
X26.51796 Y-23.75065 Z-2.33566
X26.50211 Y-23.75001 Z-2.33846
X26.48625 Y-23.75038 Z-2.34126
X26.47045 Y-23.75175 Z-2.34406
X26.45476 Y-23.75413 Z-2.34685
X26.43926 Y-23.75749 Z-2.34965
X26.424 Y-23.76183 Z-2.35245
X26.40905 Y-23.76713 Z-2.35524
X26.39446 Y-23.77337 Z-2.35804
X26.3803 Y-23.78052 Z-2.36084
X26.36662 Y-23.78855 Z-2.36364
X26.35348 Y-23.79744 Z-2.36643
X26.34093 Y-23.80714 Z-2.36923
X26.32901 Y-23.81762 Z-2.37203
X26.31779 Y-23.82883 Z-2.37483
X26.3073 Y-23.84073 Z-2.37762
X26.29759 Y-23.85327 Z-2.38042
X26.28869 Y-23.8664 Z-2.38322
X26.28064 Y-23.88007 Z-2.38601
X26.27348 Y-23.89423 Z-2.38881
X26.26722 Y-23.90881 Z-2.39161
X26.26191 Y-23.92376 Z-2.39441
X26.25755 Y-23.93901 Z-2.3972
X26.25417 Y-23.95451 Z-2.4
X26.33769 Y-24.19015 F480.
X26.58352 Y-24.23564
X26.74583 Y-24.04549
X26.66231 Y-23.80985
X26.41648 Y-23.76436
X26.25417 Y-23.95451
G0 Z1.
X26.68734 Y-24.16552
G1 Z-2.13 F120.
X26.68755 Y-24.16531 Z-2.13005 F360.
X26.69765 Y-24.15308 Z-2.13285
X26.70696 Y-24.14023 Z-2.13565
X26.71544 Y-24.12682 Z-2.13844
X26.72305 Y-24.11291 Z-2.14124
X26.72976 Y-24.09853 Z-2.14404
X26.73555 Y-24.08376 Z-2.14684
X26.74039 Y-24.06865 Z-2.14963
X26.74426 Y-24.05327 Z-2.15243
X26.74714 Y-24.03767 Z-2.15523
X26.74904 Y-24.02192 Z-2.15802
X26.74993 Y-24.00608 Z-2.16082
X26.74981 Y-23.99021 Z-2.16362
X26.74868 Y-23.97439 Z-2.16642
X26.74656 Y-23.95867 Z-2.16921
X26.74344 Y-23.94311 Z-2.17201
X26.73934 Y-23.92779 Z-2.17481
X26.73428 Y-23.91275 Z-2.1776
X26.72828 Y-23.89807 Z-2.1804
X26.72135 Y-23.8838 Z-2.1832
X26.71354 Y-23.86999 Z-2.186
X26.70486 Y-23.85671 Z-2.18879
X26.69536 Y-23.84401 Z-2.19159
X26.68507 Y-23.83193 Z-2.19439
X26.67404 Y-23.82053 Z-2.19719
X26.66231 Y-23.80985 Z-2.19998
X26.64992 Y-23.79994 Z-2.20278
X26.63693 Y-23.79084 Z-2.20558
X26.62339 Y-23.78257 Z-2.20838
X26.60935 Y-23.77518 Z-2.21117
X26.59487 Y-23.7687 Z-2.21397
X26.58001 Y-23.76315 Z-2.21677
X26.56483 Y-23.75855 Z-2.21956
X26.54939 Y-23.75493 Z-2.22236
X26.53374 Y-23.75229 Z-2.22516
X26.51796 Y-23.75065 Z-2.22796
X26.50211 Y-23.75001 Z-2.23075
X26.48625 Y-23.75038 Z-2.23355
X26.47045 Y-23.75175 Z-2.23635
X26.45476 Y-23.75413 Z-2.23914
X26.43926 Y-23.75749 Z-2.24194
X26.424 Y-23.76183 Z-2.24474
X26.40905 Y-23.76713 Z-2.24754
X26.39446 Y-23.77337 Z-2.25033
X26.3803 Y-23.78052 Z-2.25313
X26.36662 Y-23.78855 Z-2.25593
X26.35348 Y-23.79744 Z-2.25873
X26.34093 Y-23.80714 Z-2.26152
X26.32901 Y-23.81762 Z-2.26432
X26.31779 Y-23.82883 Z-2.26712
X26.3073 Y-23.84073 Z-2.26991
X26.29759 Y-23.85327 Z-2.27271
X26.28869 Y-23.8664 Z-2.27551
X26.28064 Y-23.88007 Z-2.27831
X26.27348 Y-23.89423 Z-2.2811
X26.26722 Y-23.90881 Z-2.2839
X26.26191 Y-23.92376 Z-2.2867
X26.25755 Y-23.93901 Z-2.28949
X26.25417 Y-23.95451 Z-2.29229
X26.25178 Y-23.97019 Z-2.29509
X26.25039 Y-23.986 Z-2.29789
X26.25001 Y-24.00185 Z-2.30068
X26.25063 Y-24.01771 Z-2.30348
X26.25225 Y-24.03349 Z-2.30628
X26.25488 Y-24.04913 Z-2.30908
X26.25848 Y-24.06458 Z-2.31187
X26.26307 Y-24.07977 Z-2.31467
X26.2686 Y-24.09463 Z-2.31747
X26.27507 Y-24.10912 Z-2.32026
X26.28244 Y-24.12317 Z-2.32306
X26.29069 Y-24.13672 Z-2.32586
X26.29979 Y-24.14972 Z-2.32866
X26.30969 Y-24.16211 Z-2.33145
X26.32035 Y-24.17386 Z-2.33425
X26.33174 Y-24.1849 Z-2.33705
X26.3438 Y-24.1952 Z-2.33984
X26.3565 Y-24.20471 Z-2.34264
X26.36977 Y-24.2134 Z-2.34544
X26.38357 Y-24.22123 Z-2.34824
X26.39784 Y-24.22817 Z-2.35103
X26.41251 Y-24.23419 Z-2.35383
X26.42754 Y-24.23927 Z-2.35663
X26.44286 Y-24.24338 Z-2.35943
X26.45841 Y-24.24652 Z-2.36222
X26.47413 Y-24.24866 Z-2.36502
X26.48996 Y-24.2498 Z-2.36782
X26.50582 Y-24.24993 Z-2.37062
X26.52166 Y-24.24906 Z-2.37341
X26.53741 Y-24.24718 Z-2.37621
X26.55301 Y-24.24431 Z-2.37901
X26.5684 Y-24.24046 Z-2.3818
X26.58352 Y-24.23564 Z-2.3846
X26.59829 Y-24.22986 Z-2.3874
X26.61267 Y-24.22317 Z-2.39019
X26.6266 Y-24.21557 Z-2.39299
X26.64002 Y-24.20711 Z-2.39579
X26.65287 Y-24.19781 Z-2.39859
X26.66511 Y-24.18772 Z-2.40138
X26.67668 Y-24.17687 Z-2.40418
X26.68755 Y-24.16531 Z-2.40698
X26.69765 Y-24.15308 Z-2.40978
X26.70696 Y-24.14023 Z-2.41257
X26.71544 Y-24.12682 Z-2.41537
X26.72305 Y-24.11291 Z-2.41817
X26.72976 Y-24.09853 Z-2.42096
X26.73555 Y-24.08376 Z-2.42376
X26.74039 Y-24.06865 Z-2.42656
X26.74426 Y-24.05327 Z-2.42936
X26.74714 Y-24.03767 Z-2.43215
X26.74904 Y-24.02192 Z-2.43495
X26.74993 Y-24.00608 Z-2.43775
X26.74981 Y-23.99021 Z-2.44055
X26.74868 Y-23.97439 Z-2.44334
X26.74656 Y-23.95867 Z-2.44614
X26.74344 Y-23.94311 Z-2.44894
X26.73934 Y-23.92779 Z-2.45174
X26.73428 Y-23.91275 Z-2.45453
X26.72828 Y-23.89807 Z-2.45733
X26.72135 Y-23.8838 Z-2.46013
X26.71354 Y-23.86999 Z-2.46292
X26.70486 Y-23.85671 Z-2.46572
X26.69536 Y-23.84401 Z-2.46852
X26.68507 Y-23.83193 Z-2.47132
X26.67404 Y-23.82053 Z-2.47411
X26.66231 Y-23.80985 Z-2.47691
X26.64992 Y-23.79994 Z-2.47971
X26.63693 Y-23.79084 Z-2.4825
X26.62339 Y-23.78257 Z-2.4853
X26.60935 Y-23.77518 Z-2.4881
X26.59487 Y-23.7687 Z-2.4909
X26.58001 Y-23.76315 Z-2.49369
X26.56483 Y-23.75855 Z-2.49649
X26.54939 Y-23.75493 Z-2.49929
X26.53374 Y-23.75229 Z-2.50209
X26.51796 Y-23.75065 Z-2.50488
X26.50211 Y-23.75001 Z-2.50768
X26.48625 Y-23.75038 Z-2.51048
X26.47045 Y-23.75175 Z-2.51327
X26.45476 Y-23.75413 Z-2.51607
X26.43926 Y-23.75749 Z-2.51887
X26.424 Y-23.76183 Z-2.52167
X26.40905 Y-23.76713 Z-2.52446
X26.39446 Y-23.77337 Z-2.52726
X26.3803 Y-23.78052 Z-2.53006
X26.36662 Y-23.78855 Z-2.53286
X26.35348 Y-23.79744 Z-2.53565
X26.34093 Y-23.80714 Z-2.53845
X26.32901 Y-23.81762 Z-2.54125
X26.31779 Y-23.82883 Z-2.54404
X26.3073 Y-23.84073 Z-2.54684
X26.29759 Y-23.85327 Z-2.54964
X26.28869 Y-23.8664 Z-2.55244
X26.28064 Y-23.88007 Z-2.55523
X26.27348 Y-23.89423 Z-2.55803
X26.26722 Y-23.90881 Z-2.56083
X26.26191 Y-23.92376 Z-2.56363
X26.25755 Y-23.93901 Z-2.56642
X26.25417 Y-23.95451 Z-2.56922
X26.25178 Y-23.97019 Z-2.57202
X26.25039 Y-23.986 Z-2.57481
X26.25001 Y-24.00185 Z-2.57761
X26.25063 Y-24.01771 Z-2.58041
X26.25225 Y-24.03349 Z-2.58321
X26.25488 Y-24.04913 Z-2.586
X26.25848 Y-24.06458 Z-2.5888
X26.26307 Y-24.07977 Z-2.5916
X26.2686 Y-24.09463 Z-2.59439
X26.27507 Y-24.10912 Z-2.59719
X26.28244 Y-24.12317 Z-2.59999
X26.29069 Y-24.13672 Z-2.60279
X26.29979 Y-24.14972 Z-2.60558
X26.30969 Y-24.16211 Z-2.60838
X26.32035 Y-24.17386 Z-2.61118
X26.33174 Y-24.1849 Z-2.61398
X26.3438 Y-24.1952 Z-2.61677
X26.3565 Y-24.20471 Z-2.61957
X26.36977 Y-24.2134 Z-2.62237
X26.38357 Y-24.22123 Z-2.62516
X26.39784 Y-24.22817 Z-2.62796
X26.41251 Y-24.23419 Z-2.63076
X26.42754 Y-24.23927 Z-2.63356
X26.44286 Y-24.24338 Z-2.63635
X26.45841 Y-24.24652 Z-2.63915
X26.47413 Y-24.24866 Z-2.64195
X26.48996 Y-24.2498 Z-2.64475
X26.50582 Y-24.24993 Z-2.64754
X26.52166 Y-24.24906 Z-2.65034
X26.53741 Y-24.24718 Z-2.65314
X26.55301 Y-24.24431 Z-2.65593
X26.5684 Y-24.24046 Z-2.65873
X26.58352 Y-24.23564 Z-2.66153
X26.59829 Y-24.22986 Z-2.66433
X26.61267 Y-24.22317 Z-2.66712
X26.6266 Y-24.21557 Z-2.66992
X26.64002 Y-24.20711 Z-2.67272
X26.65287 Y-24.19781 Z-2.67551
X26.66511 Y-24.18772 Z-2.67831
X26.67668 Y-24.17687 Z-2.68111
X26.68755 Y-24.16531 Z-2.68391
X26.69765 Y-24.15308 Z-2.6867
X26.70696 Y-24.14023 Z-2.6895
X26.71544 Y-24.12682 Z-2.6923
X26.72305 Y-24.11291 Z-2.6951
X26.72976 Y-24.09853 Z-2.69789
X26.73555 Y-24.08376 Z-2.70069
X26.74039 Y-24.06865 Z-2.70349
X26.74426 Y-24.05327 Z-2.70628
X26.74714 Y-24.03767 Z-2.70908
X26.74904 Y-24.02192 Z-2.71188
X26.74993 Y-24.00608 Z-2.71468
X26.74981 Y-23.99021 Z-2.71747
X26.74868 Y-23.97439 Z-2.72027
X26.74656 Y-23.95867 Z-2.72307
X26.74344 Y-23.94311 Z-2.72587
X26.73934 Y-23.92779 Z-2.72866
X26.73428 Y-23.91275 Z-2.73146
X26.72828 Y-23.89807 Z-2.73426
X26.72135 Y-23.8838 Z-2.73705
X26.71354 Y-23.86999 Z-2.73985
X26.70486 Y-23.85671 Z-2.74265
X26.69536 Y-23.84401 Z-2.74545
X26.68507 Y-23.83193 Z-2.74824
X26.67404 Y-23.82053 Z-2.75104
X26.66231 Y-23.80985 Z-2.75384
X26.64992 Y-23.79994 Z-2.75663
X26.63693 Y-23.79084 Z-2.75943
X26.62339 Y-23.78257 Z-2.76223
X26.60935 Y-23.77518 Z-2.76503
X26.59487 Y-23.7687 Z-2.76782
X26.58001 Y-23.76315 Z-2.77062
X26.56483 Y-23.75855 Z-2.77342
X26.54939 Y-23.75493 Z-2.77622
X26.53374 Y-23.75229 Z-2.77901
X26.51796 Y-23.75065 Z-2.78181
X26.50211 Y-23.75001 Z-2.78461
X26.48625 Y-23.75038 Z-2.7874
X26.47045 Y-23.75175 Z-2.7902
X26.45476 Y-23.75413 Z-2.793
X26.43926 Y-23.75749 Z-2.7958
X26.424 Y-23.76183 Z-2.79859
X26.40905 Y-23.76713 Z-2.80139
X26.39446 Y-23.77337 Z-2.80419
X26.3803 Y-23.78052 Z-2.80699
X26.36662 Y-23.78855 Z-2.80978
X26.35348 Y-23.79744 Z-2.81258
X26.34093 Y-23.80714 Z-2.81538
X26.32901 Y-23.81762 Z-2.81817
X26.31779 Y-23.82883 Z-2.82097
X26.3073 Y-23.84073 Z-2.82377
X26.29759 Y-23.85327 Z-2.82657
X26.28869 Y-23.8664 Z-2.82936
X26.28064 Y-23.88007 Z-2.83216
X26.27348 Y-23.89423 Z-2.83496
X26.26722 Y-23.90881 Z-2.83775
X26.26191 Y-23.92376 Z-2.84055
X26.25755 Y-23.93901 Z-2.84335
X26.25417 Y-23.95451 Z-2.84615
X26.25178 Y-23.97019 Z-2.84894
X26.25039 Y-23.986 Z-2.85174
X26.25001 Y-24.00185 Z-2.85454
X26.25063 Y-24.01771 Z-2.85734
X26.25225 Y-24.03349 Z-2.86013
X26.25488 Y-24.04913 Z-2.86293
X26.25848 Y-24.06458 Z-2.86573
X26.26307 Y-24.07977 Z-2.86852
X26.2686 Y-24.09463 Z-2.87132
X26.27507 Y-24.10912 Z-2.87412
X26.28244 Y-24.12317 Z-2.87692
X26.29069 Y-24.13672 Z-2.87971
X26.29979 Y-24.14972 Z-2.88251
X26.30969 Y-24.16211 Z-2.88531
X26.32035 Y-24.17386 Z-2.88811
X26.33174 Y-24.1849 Z-2.8909
X26.3438 Y-24.1952 Z-2.8937
X26.3565 Y-24.20471 Z-2.8965
X26.36977 Y-24.2134 Z-2.89929
X26.38357 Y-24.22123 Z-2.90209
X26.39784 Y-24.22817 Z-2.90489
X26.41251 Y-24.23419 Z-2.90769
X26.42754 Y-24.23927 Z-2.91048
X26.44286 Y-24.24338 Z-2.91328
X26.45841 Y-24.24652 Z-2.91608
X26.47413 Y-24.24866 Z-2.91887
X26.48996 Y-24.2498 Z-2.92167
X26.50582 Y-24.24993 Z-2.92447
X26.52166 Y-24.24906 Z-2.92727
X26.53741 Y-24.24718 Z-2.93006
X26.55301 Y-24.24431 Z-2.93286
X26.5684 Y-24.24046 Z-2.93566
X26.58352 Y-24.23564 Z-2.93845
X26.59829 Y-24.22986 Z-2.94125
X26.61267 Y-24.22317 Z-2.94405
X26.6266 Y-24.21557 Z-2.94685
X26.64002 Y-24.20711 Z-2.94964
X26.65287 Y-24.19781 Z-2.95244
X26.66511 Y-24.18772 Z-2.95524
X26.67668 Y-24.17687 Z-2.95804
X26.68755 Y-24.16531 Z-2.96083
X26.69765 Y-24.15308 Z-2.96363
X26.70696 Y-24.14023 Z-2.96643
X26.71544 Y-24.12682 Z-2.96922
X26.72305 Y-24.11291 Z-2.97202
X26.72976 Y-24.09853 Z-2.97482
X26.73555 Y-24.08376 Z-2.97762
X26.74039 Y-24.06865 Z-2.98041
X26.74426 Y-24.05327 Z-2.98321
X26.74714 Y-24.03767 Z-2.98601
X26.74904 Y-24.02192 Z-2.98881
X26.74993 Y-24.00608 Z-2.9916
X26.74981 Y-23.99021 Z-2.9944
X26.74868 Y-23.97439 Z-2.9972
X26.74656 Y-23.95867 Z-2.99999
X26.74344 Y-23.94311 Z-3.00279
X26.73934 Y-23.92779 Z-3.00559
X26.73428 Y-23.91275 Z-3.00839
X26.72828 Y-23.89807 Z-3.01118
X26.72135 Y-23.8838 Z-3.01398
X26.71354 Y-23.86999 Z-3.01678
X26.70486 Y-23.85671 Z-3.01958
X26.69536 Y-23.84401 Z-3.02237
X26.68507 Y-23.83193 Z-3.02517
X26.67404 Y-23.82053 Z-3.02797
X26.66231 Y-23.80985 Z-3.03076
X26.64992 Y-23.79994 Z-3.03356
X26.63693 Y-23.79084 Z-3.03636
X26.62339 Y-23.78257 Z-3.03916
X26.60935 Y-23.77518 Z-3.04195
X26.59487 Y-23.7687 Z-3.04475
X26.58001 Y-23.76315 Z-3.04755
X26.56483 Y-23.75855 Z-3.05035
X26.54939 Y-23.75493 Z-3.05314
X26.53374 Y-23.75229 Z-3.05594
X26.51796 Y-23.75065 Z-3.05874
X26.50211 Y-23.75001 Z-3.06153
X26.48625 Y-23.75038 Z-3.06433
X26.47045 Y-23.75175 Z-3.06713
X26.45476 Y-23.75413 Z-3.06993
X26.43926 Y-23.75749 Z-3.07272
X26.424 Y-23.76183 Z-3.07552
X26.40905 Y-23.76713 Z-3.07832
X26.39446 Y-23.77337 Z-3.08111
X26.3803 Y-23.78052 Z-3.08391
X26.36662 Y-23.78855 Z-3.08671
X26.35348 Y-23.79744 Z-3.08951
X26.34093 Y-23.80714 Z-3.0923
