%
G17 G21 G40 G90 G64 P0.1
(Standard Drill )
(2mm Carbide Drill)
T16 M06
S24000 M3
G0 Z3.5
X54.75 Y59.25
G21 S24000 M3
G81 X54.75 Y59.25 Z-5.57735 R2.5 F1321.0
X54.75488Y26.74511
X87.21948Y26.76178
X87.25Y59.25
X134.75Y59.25
X167.25813Y59.24663
X167.21948Y26.76178
X134.73853Y26.72016
G80
G0 Z3.5
(SlotDrill 2mm Carbide)
T12 M06
S24000 M3
Z1.
X6.41041 Y140.62775
G1 Z-0.5 F332.2
G17
G03 X5.58959 Y139.37225 I-0.41041 J-0.62775 F1329.
X6.41041 Y140.62775 I0.41041 J0.62775
G1 Z-1.
G03 X5.58959 Y139.37225 I-0.41041 J-0.62775
X6.41041 Y140.62775 I0.41041 J0.62775
G1 Z-1.5
G03 X5.58959 Y139.37225 I-0.41041 J-0.62775
X6.41041 Y140.62775 I0.41041 J0.62775
G1 Z-2.
G03 X5.58959 Y139.37225 I-0.41041 J-0.62775
X6.41041 Y140.62775 I0.41041 J0.62775
G1 Z-2.5
G03 X5.58959 Y139.37225 I-0.41041 J-0.62775
X6.41041 Y140.62775 I0.41041 J0.62775
G1 Z-3.
G03 X5.58959 Y139.37225 I-0.41041 J-0.62775
X6.41041 Y140.62775 I0.41041 J0.62775
G1 Z-3.5
G03 X5.58959 Y139.37225 I-0.41041 J-0.62775
X6.41041 Y140.62775 I0.41041 J0.62775
G1 Z-4.
G03 X5.58959 Y139.37225 I-0.41041 J-0.62775
X6.41041 Y140.62775 I0.41041 J0.62775
G0 Z1.
X110.30266 Y139.72393
G1 Z-0.5 F332.2
G03 X111.69734 Y140.27607 I0.69734 J0.27607 F1329.
X110.30266 Y139.72393 I-0.69734 J-0.27607
G1 Z-1.
G03 X111.69734 Y140.27607 I0.69734 J0.27607
X110.30266 Y139.72393 I-0.69734 J-0.27607
G1 Z-1.5
G03 X111.69734 Y140.27607 I0.69734 J0.27607
X110.30266 Y139.72393 I-0.69734 J-0.27607
G1 Z-2.
G03 X111.69734 Y140.27607 I0.69734 J0.27607
X110.30266 Y139.72393 I-0.69734 J-0.27607
G1 Z-2.5
G03 X111.69734 Y140.27607 I0.69734 J0.27607
X110.30266 Y139.72393 I-0.69734 J-0.27607
G1 Z-3.
G03 X111.69734 Y140.27607 I0.69734 J0.27607
X110.30266 Y139.72393 I-0.69734 J-0.27607
G1 Z-3.5
G03 X111.69734 Y140.27607 I0.69734 J0.27607
X110.30266 Y139.72393 I-0.69734 J-0.27607
G1 Z-4.
G03 X111.69734 Y140.27607 I0.69734 J0.27607
X110.30266 Y139.72393 I-0.69734 J-0.27607
G0 Z1.
X216.27607 Y139.30266
G1 Z-0.5 F332.2
G03 X215.72393 Y140.69734 I-0.27607 J0.69734 F1329.
X216.27607 Y139.30266 I0.27607 J-0.69734
G1 Z-1.
G03 X215.72393 Y140.69734 I-0.27607 J0.69734
X216.27607 Y139.30266 I0.27607 J-0.69734
G1 Z-1.5
G03 X215.72393 Y140.69734 I-0.27607 J0.69734
X216.27607 Y139.30266 I0.27607 J-0.69734
G1 Z-2.
G03 X215.72393 Y140.69734 I-0.27607 J0.69734
X216.27607 Y139.30266 I0.27607 J-0.69734
G1 Z-2.5
G03 X215.72393 Y140.69734 I-0.27607 J0.69734
X216.27607 Y139.30266 I0.27607 J-0.69734
G1 Z-3.
G03 X215.72393 Y140.69734 I-0.27607 J0.69734
X216.27607 Y139.30266 I0.27607 J-0.69734
G1 Z-3.5
G03 X215.72393 Y140.69734 I-0.27607 J0.69734
X216.27607 Y139.30266 I0.27607 J-0.69734
G1 Z-4.
G03 X215.72393 Y140.69734 I-0.27607 J0.69734
X216.27607 Y139.30266 I0.27607 J-0.69734
G0 Z1.
X215.46967 Y6.53033
G1 Z-0.5 F332.2
G03 X216.53033 Y5.46967 I0.53033 J-0.53033 F1329.
X215.46967 Y6.53033 I-0.53033 J0.53033
G1 Z-1.
G03 X216.53033 Y5.46967 I0.53033 J-0.53033
X215.46967 Y6.53033 I-0.53033 J0.53033
G1 Z-1.5
G03 X216.53033 Y5.46967 I0.53033 J-0.53033
X215.46967 Y6.53033 I-0.53033 J0.53033
G1 Z-2.
G03 X216.53033 Y5.46967 I0.53033 J-0.53033
X215.46967 Y6.53033 I-0.53033 J0.53033
G1 Z-2.5
G03 X216.53033 Y5.46967 I0.53033 J-0.53033
X215.46967 Y6.53033 I-0.53033 J0.53033
G1 Z-3.
G03 X216.53033 Y5.46967 I0.53033 J-0.53033
X215.46967 Y6.53033 I-0.53033 J0.53033
G1 Z-3.5
G03 X216.53033 Y5.46967 I0.53033 J-0.53033
X215.46967 Y6.53033 I-0.53033 J0.53033
G1 Z-4.
G03 X216.53033 Y5.46967 I0.53033 J-0.53033
X215.46967 Y6.53033 I-0.53033 J0.53033
G0 Z1.
X111.69734 Y6.27607
G1 Z-0.5 F332.2
G03 X110.30266 Y5.72393 I-0.69734 J-0.27607 F1329.
X111.69734 Y6.27607 I0.69734 J0.27607
G1 Z-1.
G03 X110.30266 Y5.72393 I-0.69734 J-0.27607
X111.69734 Y6.27607 I0.69734 J0.27607
G1 Z-1.5
G03 X110.30266 Y5.72393 I-0.69734 J-0.27607
X111.69734 Y6.27607 I0.69734 J0.27607
G1 Z-2.
G03 X110.30266 Y5.72393 I-0.69734 J-0.27607
X111.69734 Y6.27607 I0.69734 J0.27607
G1 Z-2.5
G03 X110.30266 Y5.72393 I-0.69734 J-0.27607
X111.69734 Y6.27607 I0.69734 J0.27607
G1 Z-3.
G03 X110.30266 Y5.72393 I-0.69734 J-0.27607
X111.69734 Y6.27607 I0.69734 J0.27607
G1 Z-3.5
G03 X110.30266 Y5.72393 I-0.69734 J-0.27607
X111.69734 Y6.27607 I0.69734 J0.27607
G1 Z-4.
G03 X110.30266 Y5.72393 I-0.69734 J-0.27607
X111.69734 Y6.27607 I0.69734 J0.27607
G0 Z1.
X5.72393 Y6.69734
G1 Z-0.5 F332.2
G03 X6.27607 Y5.30266 I0.27607 J-0.69734 F1329.
X5.72393 Y6.69734 I-0.27607 J0.69734
G1 Z-1.
G03 X6.27607 Y5.30266 I0.27607 J-0.69734
X5.72393 Y6.69734 I-0.27607 J0.69734
G1 Z-1.5
G03 X6.27607 Y5.30266 I0.27607 J-0.69734
X5.72393 Y6.69734 I-0.27607 J0.69734
G1 Z-2.
G03 X6.27607 Y5.30266 I0.27607 J-0.69734
X5.72393 Y6.69734 I-0.27607 J0.69734
G1 Z-2.5
G03 X6.27607 Y5.30266 I0.27607 J-0.69734
X5.72393 Y6.69734 I-0.27607 J0.69734
G1 Z-3.
G03 X6.27607 Y5.30266 I0.27607 J-0.69734
X5.72393 Y6.69734 I-0.27607 J0.69734
G1 Z-3.5
G03 X6.27607 Y5.30266 I0.27607 J-0.69734
X5.72393 Y6.69734 I-0.27607 J0.69734
G1 Z-4.
G03 X6.27607 Y5.30266 I0.27607 J-0.69734
X5.72393 Y6.69734 I-0.27607 J0.69734
G0 Z1.
X76.98154 Y58.10906
G1 Z-0.5 F332.2
G03 X65.01846 Y27.89094 I-5.98154 J-15.10906 F1329.
X76.98154 Y58.10906 I5.98154 J15.10906
G1 Z-1.
G03 X65.01846 Y27.89094 I-5.98154 J-15.10906
X76.98154 Y58.10906 I5.98154 J15.10906
G1 Z-1.5
G03 X65.01846 Y27.89094 I-5.98154 J-15.10906
X76.98154 Y58.10906 I5.98154 J15.10906
G1 Z-2.
G03 X65.01846 Y27.89094 I-5.98154 J-15.10906
X76.98154 Y58.10906 I5.98154 J15.10906
G1 Z-2.5
G03 X65.01846 Y27.89094 I-5.98154 J-15.10906
X76.98154 Y58.10906 I5.98154 J15.10906
G1 Z-3.
G03 X65.01846 Y27.89094 I-5.98154 J-15.10906
X76.98154 Y58.10906 I5.98154 J15.10906
G1 Z-3.5
G03 X65.01846 Y27.89094 I-5.98154 J-15.10906
X76.98154 Y58.10906 I5.98154 J15.10906
G1 Z-4.
G03 X65.01846 Y27.89094 I-5.98154 J-15.10906
X76.98154 Y58.10906 I5.98154 J15.10906
G0 Z1.
X146.52868 Y58.62273
G1 Z-0.5 F332.2
G03 X155.47132 Y27.37727 I4.47132 J-15.62273 F1329.
X146.52868 Y58.62273 I-4.47132 J15.62273
G1 Z-1.
G03 X155.47132 Y27.37727 I4.47132 J-15.62273
X146.52868 Y58.62273 I-4.47132 J15.62273
G1 Z-1.5
G03 X155.47132 Y27.37727 I4.47132 J-15.62273
X146.52868 Y58.62273 I-4.47132 J15.62273
G1 Z-2.
G03 X155.47132 Y27.37727 I4.47132 J-15.62273
X146.52868 Y58.62273 I-4.47132 J15.62273
G1 Z-2.5
G03 X155.47132 Y27.37727 I4.47132 J-15.62273
X146.52868 Y58.62273 I-4.47132 J15.62273
G1 Z-3.
G03 X155.47132 Y27.37727 I4.47132 J-15.62273
X146.52868 Y58.62273 I-4.47132 J15.62273
G1 Z-3.5
G03 X155.47132 Y27.37727 I4.47132 J-15.62273
X146.52868 Y58.62273 I-4.47132 J15.62273
G1 Z-4.
G03 X155.47132 Y27.37727 I4.47132 J-15.62273
X146.52868 Y58.62273 I-4.47132 J15.62273
G0 Z1.
X36.06155 Y93.5697
G1 Z-0.5 F332.2
X36.07196 Y93.58134 F1329.
G03 X37.25 Y95.44763 I-4.56926 J4.18915
G1 Y100.54951
G03 X24.75 I-6.25 J-2.54951
G1 Y95.44929
G03 X36.05115 Y93.55806 I6.23195 J2.52841
G1 X36.06155 Y93.5697
Z-1.
X36.07196 Y93.58134
G03 X37.25 Y95.44763 I-4.56926 J4.18915
G1 Y100.54951
G03 X24.75 I-6.25 J-2.54951
G1 Y95.44929
G03 X36.05115 Y93.55806 I6.23195 J2.52841
G1 X36.06155 Y93.5697
Z-1.5
X36.07196 Y93.58134
G03 X37.25 Y95.44763 I-4.56926 J4.18915
G1 Y100.54951
G03 X24.75 I-6.25 J-2.54951
G1 Y95.44929
G03 X36.05115 Y93.55806 I6.23195 J2.52841
G1 X36.06155 Y93.5697
Z-2.
X36.07196 Y93.58134
G03 X37.25 Y95.44763 I-4.56926 J4.18915
G1 Y100.54951
G03 X24.75 I-6.25 J-2.54951
G1 Y95.44929
G03 X36.05115 Y93.55806 I6.23195 J2.52841
G1 X36.06155 Y93.5697
Z-2.5
X36.07196 Y93.58134
G03 X37.25 Y95.44763 I-4.56926 J4.18915
G1 Y100.54951
G03 X24.75 I-6.25 J-2.54951
G1 Y95.44929
G03 X36.05115 Y93.55806 I6.23195 J2.52841
G1 X36.06155 Y93.5697
Z-3.
X36.07196 Y93.58134
G03 X37.25 Y95.44763 I-4.56926 J4.18915
G1 Y100.54951
G03 X24.75 I-6.25 J-2.54951
G1 Y95.44929
G03 X36.05115 Y93.55806 I6.23195 J2.52841
G1 X36.06155 Y93.5697
Z-3.5
X36.07196 Y93.58134
G03 X37.25 Y95.44763 I-4.56926 J4.18915
G1 Y100.54951
G03 X24.75 I-6.25 J-2.54951
G1 Y95.44929
G03 X36.05115 Y93.55806 I6.23195 J2.52841
G1 X36.06155 Y93.5697
Z-4.
X36.07196 Y93.58134
G03 X37.25 Y95.44763 I-4.56926 J4.18915
G1 Y100.54951
G03 X24.75 I-6.25 J-2.54951
G1 Y95.44929
G03 X36.05115 Y93.55806 I6.23195 J2.52841
G1 X36.06155 Y93.5697
G0 Z1.
X36.39521 Y127.04328
G1 Z-0.5 F332.2
G03 X24.75 Y125.54988 I-5.40072 J-4.03648 F1329.
G1 Y120.45049
G03 X37.25 I6.25 J2.54951
G1 Y125.51203
X36.91764 Y126.23999
X36.39521 Y127.04328
Z-1.
G03 X24.75 Y125.54988 I-5.40072 J-4.03648
G1 Y120.45049
G03 X37.25 I6.25 J2.54951
G1 Y125.51203
X36.91764 Y126.23999
X36.39521 Y127.04328
Z-1.5
G03 X24.75 Y125.54988 I-5.40072 J-4.03648
G1 Y120.45049
G03 X37.25 I6.25 J2.54951
G1 Y125.51203
X36.91764 Y126.23999
X36.39521 Y127.04328
Z-2.
G03 X24.75 Y125.54988 I-5.40072 J-4.03648
G1 Y120.45049
G03 X37.25 I6.25 J2.54951
G1 Y125.51203
X36.91764 Y126.23999
X36.39521 Y127.04328
Z-2.5
G03 X24.75 Y125.54988 I-5.40072 J-4.03648
G1 Y120.45049
G03 X37.25 I6.25 J2.54951
G1 Y125.51203
X36.91764 Y126.23999
X36.39521 Y127.04328
Z-3.
G03 X24.75 Y125.54988 I-5.40072 J-4.03648
G1 Y120.45049
G03 X37.25 I6.25 J2.54951
G1 Y125.51203
X36.91764 Y126.23999
X36.39521 Y127.04328
Z-3.5
G03 X24.75 Y125.54988 I-5.40072 J-4.03648
G1 Y120.45049
G03 X37.25 I6.25 J2.54951
G1 Y125.51203
X36.91764 Y126.23999
X36.39521 Y127.04328
Z-4.
G03 X24.75 Y125.54988 I-5.40072 J-4.03648
G1 Y120.45049
G03 X37.25 I6.25 J2.54951
G1 Y125.51203
X36.91764 Y126.23999
X36.39521 Y127.04328
G0 Z1.
(2 1/2 Axis Profiling-1)
(SlotDrill 2mm Carbide)
X6.76455 Y139.79884
G1 Z-4. F125.5
G03 X6.54721 Y140.837 I-0.62775 J0.41041 F376.5
X5.45279 Y139.163 I-0.54721 J-0.837 F502.
X6.54721 Y140.837 I0.54721 J0.837
X5.50906 Y140.61966 I-0.41041 J-0.62775 F753.
G0 Z1.
X110.49148 Y140.60532
G1 Z-4. F125.5
G03 X110.07021 Y139.6319 I0.27607 J-0.69734 F376.5
X111.92979 Y140.36809 I0.92979 J0.3681 F502.
X110.07021 Y139.6319 I-0.92979 J-0.36809
X111.04362 Y139.21063 I0.69734 J0.27608 F753.
G0 Z1.
X215.39468 Y139.49148
G1 Z-4. F125.5
G03 X216.36809 Y139.07021 I0.69734 J0.27607 F376.5
X215.6319 Y140.92979 I-0.36809 J0.92979 F502.
X216.36809 Y139.07021 I0.3681 J-0.92979
X216.78936 Y140.04362 I-0.27607 J0.69734 F753.
G0 Z1.
X216.35355 Y6.70711
G1 Z-4. F125.5
G03 X215.29289 I-0.53033 J-0.53033 F376.5
X216.70711 Y5.29289 I0.70711 J-0.70711 F502.
X215.29289 Y6.70711 I-0.70711 J0.70711
Y5.64645 I0.53033 J-0.53033 F753.
G0 Z1.
X111.50852 Y5.39468
G1 Z-4. F125.5
G03 X111.92979 Y6.3681 I-0.27607 J0.69734 F376.5
X110.07021 Y5.6319 I-0.92979 J-0.3681 F502.
X111.92979 Y6.3681 I0.92979 J0.3681
X110.95638 Y6.78936 I-0.69734 J-0.27608 F753.
G0 Z1.
X6.60532 Y6.50852
G1 Z-4. F125.5
G03 X5.6319 Y6.92979 I-0.69734 J-0.27607 F376.5
X6.3681 Y5.07021 I0.3681 J-0.92979 F502.
X5.6319 Y6.92979 I-0.3681 J0.92979
X5.21064 Y5.95638 I0.27608 J-0.69734 F753.
G0 Z1.
X77.49483 Y57.36809
G1 Z-4. F125.5
G03 X77.07356 Y58.34151 I-0.69734 J0.27608 F376.5
X64.92644 Y27.65849 I-6.07356 J-15.34151 F502.
X77.07356 Y58.34151 I6.07356 J15.34151
X76.10015 Y57.92024 I-0.27607 J-0.69734 F753.
G0 Z1.
X147.38731 Y58.3484
G1 Z-4. F125.5
G03 X146.45989 Y58.86308 I-0.72105 J-0.20637 F376.5
X155.54011 Y27.13692 I4.54011 J-15.86308 F502.
X146.45989 Y58.86308 I-4.54011 J15.86308
X145.94521 Y57.93566 I0.20637 J-0.72105 F753.
G0 Z1.
X35.1889 Y93.34386
G1 Z-4. F125.5
G03 X36.24791 Y93.40308 I0.4999 J0.55911 F376.5
G1 X36.25623 Y93.41239 F502.
G03 X37.5 Y95.39952 I-4.75353 J4.3581
G1 Y100.59808
G03 X24.5 I-6.5 J-2.59808
G1 Y95.40096
G03 X36.23959 Y93.39377 I6.48195 J2.57674
G1 X36.24791 Y93.40308
G03 X36.18869 Y94.46209 I-0.55911 J0.49989 F753.
G0 Z1.
X36.4474 Y126.13678
G1 Z-4. F125.5
G03 X36.60038 Y127.18635 I-0.44829 J0.60128 F376.5
X24.5 Y125.59837 I-5.60589 J-4.17955 F502.
G1 Y120.40192
G03 X37.5 I6.5 J2.59808
G1 Y125.5664
X37.13734 Y126.36072
X36.60038 Y127.18635
G03 X35.5902 Y127.36679 I-0.60127 J-0.44829 F753.
G0 Z1.
(2 1/2 Axis Profiling-2)
(SlotDrill 2mm Carbide)
X227. Y57.7475
G1 Z-0.5 F332.2
X226. F996.7
G03 X223. Y54.7475 I0. J-3.
G1 Y5. F1329.
G02 X217. Y-1. I-6. J0.
G1 X5.
G02 X-1. Y5. I0. J6.
G1 Y141.
G02 X5. Y147. I6. J0.
G1 X217.
G02 X223. Y141. I0. J-6.
G1 Y54.7475
Z-1.
Y5.
G02 X217. Y-1. I-6. J0.
G1 X5.
G02 X-1. Y5. I0. J6.
G1 Y141.
G02 X5. Y147. I6. J0.
G1 X217.
G02 X223. Y141. I0. J-6.
G1 Y54.7475
Z-1.5
Y5.
G02 X217. Y-1. I-6. J0.
G1 X5.
G02 X-1. Y5. I0. J6.
G1 Y141.
G02 X5. Y147. I6. J0.
G1 X217.
G02 X223. Y141. I0. J-6.
G1 Y54.7475
Z-2.
Y5.
G02 X217. Y-1. I-6. J0.
G1 X5.
G02 X-1. Y5. I0. J6.
G1 Y141.
G02 X5. Y147. I6. J0.
G1 X217.
G02 X223. Y141. I0. J-6.
G1 Y54.7475
Z-2.5
Y5.
G02 X217. Y-1. I-6. J0.
G1 X5.
G02 X-1. Y5. I0. J6.
G1 Y141.
G02 X5. Y147. I6. J0.
G1 X217.
G02 X223. Y141. I0. J-6.
G1 Y54.7475
Z-3.
Y5.
G02 X217. Y-1. I-6. J0.
G1 X5.
G02 X-1. Y5. I0. J6.
G1 Y141.
G02 X5. Y147. I6. J0.
G1 X217.
G02 X223. Y141. I0. J-6.
G1 Y54.7475
Z-3.5
Y5.
G02 X217. Y-1. I-6. J0.
G1 X5.
G02 X-1. Y5. I0. J6.
G1 Y141.
G02 X5. Y147. I6. J0.
G1 X217.
G02 X223. Y141. I0. J-6.
G1 Y54.7475
Z-4.
Y5.
G02 X217. Y-1. I-6. J0.
G1 X5.
G02 X-1. Y5. I0. J6.
G1 Y141.
G02 X5. Y147. I6. J0.
G1 X217.
G02 X223. Y141. I0. J-6.
G1 Y54.7475
G03 X226. Y51.7475 I3. J0. F1993.5
G1 X227.
G0 Z1.
M30
%
