%
G17 G21 G40 G90 G64 P0.1
(2 1/2 Axis Pocketing)
(SlotDrill 1/8in 3.175mm Carbide Aluminium Cut)
T6 M06
S23960 M3
G0 Z1.5875
X60.33473 Y174.43876
G1 Z1.1 F4198.
Z-0.9 F3594.
X63.4125 Z-1.44269
Y174.76376 Z-1.5
X21.5875 F4792.
Y174.43876
X63.4125
Y174.76376
Z-3.
X21.5875
Y174.43876
X63.4125
Y174.76376
Z-4.5
X21.5875
Y174.43876
X63.4125
Y174.76376
Z-6.
X21.5875
Y174.43876
X63.4125
Y174.76376
X62.35184 Z-4.93934 F5000.
Z-4.33934
G0 Z1.5875
X24.99027 Y100.46376
G1 Z1.1 F4198.
Z-0.9 F3594.
X21.5875 Z-1.5
Y100.13876 F4792.
X63.4125
Y100.46376
X21.5875
Z-3.
Y100.13876
X63.4125
Y100.46376
X21.5875
Z-4.5
Y100.13876
X63.4125
Y100.46376
X21.5875
Z-6.
Y100.13876
X63.4125
Y100.46376
X21.5875
Y99.4031 Z-4.93934 F5000.
Z-4.33934
G0 Z1.5875
(2 1/2 Axis Pocketing-3)
(SlotDrill 1/8in 3.175mm Carbide Aluminium Cut)
X7.6625 Y251.86099
G1 Z1.35 F4198.
Z-0.65 F3594.
Y255.26376 Z-1.25
X7.3375 F4792.
Y38.43876
X7.6625
Y255.26376
Z-2.5
X7.3375
Y38.43876
X7.6625
Y255.26376
Z-3.75
X7.3375
Y38.43876
X7.6625
Y255.26376
Z-5.
X7.3375
Y38.43876
X7.6625
Y255.26376
X6.60184 Z-3.93934 F5000.
Z-3.33934
G0 Z1.5875
X237.10984 Y174.31301
G1 Z1.35 F4198.
Z-0.65 F3594.
X240.05673 Y172.61163 Z-1.25
X240.21923 Y172.89309 F4792.
X52.44327 Y281.30559
X52.28077 Y281.02413
X240.05673 Y172.61163
Z-2.5
X240.21923 Y172.89309
X52.44327 Y281.30559
X52.28077 Y281.02413
X240.05673 Y172.61163
Z-3.75
X240.21923 Y172.89309
X52.44327 Y281.30559
X52.28077 Y281.02413
X240.05673 Y172.61163
Z-5.
X240.21923 Y172.89309
X52.44327 Y281.30559
X52.28077 Y281.02413
X240.05673 Y172.61163
X240.58706 Y173.53019 Z-3.93934 F5000.
Z-3.33934
G0 Z1.5875
X55.22766 Y14.37977
G1 Z1.35 F4198.
Z-0.65 F3594.
X52.28077 Y12.67839 Z-1.25
X52.44327 Y12.39693 F4792.
X240.21923 Y120.80943
X240.05673 Y121.09089
X52.28077 Y12.67839
Z-2.5
X52.44327 Y12.39693
X240.21923 Y120.80943
X240.05673 Y121.09089
X52.28077 Y12.67839
Z-3.75
X52.44327 Y12.39693
X240.21923 Y120.80943
X240.05673 Y121.09089
X52.28077 Y12.67839
Z-5.
X52.44327 Y12.39693
X240.21923 Y120.80943
X240.05673 Y121.09089
X52.28077 Y12.67839
X52.8111 Y11.75983 Z-3.93934 F5000.
Z-3.33934
G0 Z1.5875
(2 1/2 Axis Pocketing)
(SlotDrill 1/8in 3.175mm Carbide Aluminium Cut)
X78.80455 Y167.60314
G1 Z1.6 F4198.
Z-0.4 F3594.
X79.14194 Y167.01876 Z-0.51898
X80.05127 Z-0.67932
X80.50593 Y167.80626 Z-0.83966
X80.05127 Y168.59376 Z-1.
X79.14194 F4792.
X78.68728 Y167.80626
X79.14194 Y167.01876
X80.05127
X80.50593 Y167.80626
X80.05127 Y168.59376
Z-2.
X79.14194
X78.68728 Y167.80626
X79.14194 Y167.01876
X80.05127
X80.50593 Y167.80626
X80.05127 Y168.59376
Z-3.
X79.14194
X78.68728 Y167.80626
X79.14194 Y167.01876
X80.05127
X80.50593 Y167.80626
X80.05127 Y168.59376
Z-4.
X79.14194
X78.68728 Y167.80626
X79.14194 Y167.01876
X80.05127
X80.50593 Y167.80626
X80.05127 Y168.59376
Z-5.
X79.14194
X78.68728 Y167.80626
X79.14194 Y167.01876
X80.05127
X80.50593 Y167.80626
X80.05127 Y168.59376
Z-6.
X79.14194
X78.68728 Y167.80626
X79.14194 Y167.01876
X80.05127
X80.50593 Y167.80626
X80.05127 Y168.59376
Z-7.
X79.14194
X78.68728 Y167.80626
X79.14194 Y167.01876
X80.05127
X80.50593 Y167.80626
X80.05127 Y168.59376
Z-8.
X79.14194
X78.68728 Y167.80626
X79.14194 Y167.01876
X80.05127
X80.50593 Y167.80626
X80.05127 Y168.59376
Z-9.
X79.14194
X78.68728 Y167.80626
X79.14194 Y167.01876
X80.05127
X80.50593 Y167.80626
X80.05127 Y168.59376
Z-10.
X79.14194
X78.68728 Y167.80626
X79.14194 Y167.01876
X80.05127
X80.50593 Y167.80626
X80.05127 Y168.59376
Y167.5331 Z-8.93934 F5000.
Z-8.33934
G0 Z1.5875
X80.16789 Y125.31124
G1 Z1.6 F4198.
Z-0.4 F3594.
X80.50593 Y125.89525 Z-0.51898
X80.05213 Y126.68325 Z-0.67932
X79.14281 Y126.68426 Z-0.83966
X78.68728 Y125.89726 Z-1.
X79.14107 Y125.10926 F4792.
X80.0504 Y125.10826
X80.50593 Y125.89525
X80.05213 Y126.68325
X79.14281 Y126.68426
X78.68728 Y125.89726
Z-2.
X79.14107 Y125.10926
X80.0504 Y125.10826
X80.50593 Y125.89525
X80.05213 Y126.68325
X79.14281 Y126.68426
X78.68728 Y125.89726
Z-3.
X79.14107 Y125.10926
X80.0504 Y125.10826
X80.50593 Y125.89525
X80.05213 Y126.68325
X79.14281 Y126.68426
X78.68728 Y125.89726
Z-4.
X79.14107 Y125.10926
X80.0504 Y125.10826
X80.50593 Y125.89525
X80.05213 Y126.68325
X79.14281 Y126.68426
X78.68728 Y125.89726
Z-5.
X79.14107 Y125.10926
X80.0504 Y125.10826
X80.50593 Y125.89525
X80.05213 Y126.68325
X79.14281 Y126.68426
X78.68728 Y125.89726
Z-6.
X79.14107 Y125.10926
X80.0504 Y125.10826
X80.50593 Y125.89525
X80.05213 Y126.68325
X79.14281 Y126.68426
X78.68728 Y125.89726
Z-7.
X79.14107 Y125.10926
X80.0504 Y125.10826
X80.50593 Y125.89525
X80.05213 Y126.68325
X79.14281 Y126.68426
X78.68728 Y125.89726
Z-8.
X79.14107 Y125.10926
X80.0504 Y125.10826
X80.50593 Y125.89525
X80.05213 Y126.68325
X79.14281 Y126.68426
X78.68728 Y125.89726
Z-9.
X79.14107 Y125.10926
X80.0504 Y125.10826
X80.50593 Y125.89525
X80.05213 Y126.68325
X79.14281 Y126.68426
X78.68728 Y125.89726
Z-10.
X79.14107 Y125.10926
X80.0504 Y125.10826
X80.50593 Y125.89525
X80.05213 Y126.68325
X79.14281 Y126.68426
X78.68728 Y125.89726
X79.60642 Y126.42658 Z-8.93934 F5000.
Z-8.33934
G0 Z1.5875
X145.41648 Y121.93376
G1 Z1.6 F4198.
Z-0.4 F3594.
X146.09127 Z-0.51898
X146.54593 Y122.72126 Z-0.67932
X146.09127 Y123.50876 Z-0.83966
X145.18194 Z-1.
X144.72728 Y122.72126 F4792.
X145.18194 Y121.93376
X146.09127
X146.54593 Y122.72126
X146.09127 Y123.50876
X145.18194
Z-2.
X144.72728 Y122.72126
X145.18194 Y121.93376
X146.09127
X146.54593 Y122.72126
X146.09127 Y123.50876
X145.18194
Z-3.
X144.72728 Y122.72126
X145.18194 Y121.93376
X146.09127
X146.54593 Y122.72126
X146.09127 Y123.50876
X145.18194
Z-4.
X144.72728 Y122.72126
X145.18194 Y121.93376
X146.09127
X146.54593 Y122.72126
X146.09127 Y123.50876
X145.18194
Z-5.
X144.72728 Y122.72126
X145.18194 Y121.93376
X146.09127
X146.54593 Y122.72126
X146.09127 Y123.50876
X145.18194
Z-6.
X144.72728 Y122.72126
X145.18194 Y121.93376
X146.09127
X146.54593 Y122.72126
X146.09127 Y123.50876
X145.18194
Z-7.
X144.72728 Y122.72126
X145.18194 Y121.93376
X146.09127
X146.54593 Y122.72126
X146.09127 Y123.50876
X145.18194
Z-8.
X144.72728 Y122.72126
X145.18194 Y121.93376
X146.09127
X146.54593 Y122.72126
X146.09127 Y123.50876
X145.18194
Z-9.
X144.72728 Y122.72126
X145.18194 Y121.93376
X146.09127
X146.54593 Y122.72126
X146.09127 Y123.50876
X145.18194
Z-10.
X144.72728 Y122.72126
X145.18194 Y121.93376
X146.09127
X146.54593 Y122.72126
X146.09127 Y123.50876
X145.18194
X146.1005 Y122.97843 Z-8.93934 F5000.
Z-8.33934
G0 Z1.5875
X145.85673 Y171.76876
G1 Z1.6 F4198.
Z-0.4 F3594.
X145.18194 Z-0.51898
X144.72728 Y170.98126 Z-0.67932
X145.18194 Y170.19376 Z-0.83966
X146.09127 Z-1.
X146.54593 Y170.98126 F4792.
X146.09127 Y171.76876
X145.18194
X144.72728 Y170.98126
X145.18194 Y170.19376
X146.09127
Z-2.
X146.54593 Y170.98126
X146.09127 Y171.76876
X145.18194
X144.72728 Y170.98126
X145.18194 Y170.19376
X146.09127
Z-3.
X146.54593 Y170.98126
X146.09127 Y171.76876
X145.18194
X144.72728 Y170.98126
X145.18194 Y170.19376
X146.09127
Z-4.
X146.54593 Y170.98126
X146.09127 Y171.76876
X145.18194
X144.72728 Y170.98126
X145.18194 Y170.19376
X146.09127
Z-5.
X146.54593 Y170.98126
X146.09127 Y171.76876
X145.18194
X144.72728 Y170.98126
X145.18194 Y170.19376
X146.09127
Z-6.
X146.54593 Y170.98126
X146.09127 Y171.76876
X145.18194
X144.72728 Y170.98126
X145.18194 Y170.19376
X146.09127
Z-7.
X146.54593 Y170.98126
X146.09127 Y171.76876
X145.18194
X144.72728 Y170.98126
X145.18194 Y170.19376
X146.09127
Z-8.
X146.54593 Y170.98126
X146.09127 Y171.76876
X145.18194
X144.72728 Y170.98126
X145.18194 Y170.19376
X146.09127
Z-9.
X146.54593 Y170.98126
X146.09127 Y171.76876
X145.18194
X144.72728 Y170.98126
X145.18194 Y170.19376
X146.09127
Z-10.
X146.54593 Y170.98126
X146.09127 Y171.76876
X145.18194
X144.72728 Y170.98126
X145.18194 Y170.19376
X146.09127
X145.17271 Y170.72409 Z-8.93934 F5000.
Z-8.33934
G0 Z1.5875
(2 1/2 Axis Pocketing)
(SlotDrill 1/8in 3.175mm Carbide Aluminium Cut)
X24.41105 Y16.75547
G1 Z1.21111 F4198.
Z-0.78889 F3594.
X24.3982 Y16.75401 Z-0.79117
X24.32319 Y16.73644 Z-0.80475
X24.25072 Y16.71029 Z-0.81834
X24.18178 Y16.67591 Z-0.83192
X24.1173 Y16.63375 Z-0.84551
X24.05814 Y16.58439 Z-0.85909
X24.00512 Y16.5285 Z-0.87267
X23.95894 Y16.46683 Z-0.88626
X23.92024 Y16.40021 Z-0.89985
X23.88953 Y16.32956 Z-0.91343
X23.86723 Y16.25581 Z-0.92701
X23.85365 Y16.17998 Z-0.9406
X23.84895 Y16.10308 Z-0.95418
X23.85322 Y16.02615 Z-0.96777
X23.86639 Y15.95025 Z-0.98135
X23.88828 Y15.87638 Z-0.99494
X23.9186 Y15.80556 Z-1.00852
X23.95694 Y15.73873 Z-1.02211
X24.00278 Y15.67681 Z-1.03569
X24.05549 Y15.62062 Z-1.04927
X24.11437 Y15.57094 Z-1.06286
X24.17863 Y15.52843 Z-1.07644
X24.24738 Y15.49366 Z-1.09003
X24.3197 Y15.46711 Z-1.10361
X24.39462 Y15.44914 Z-1.1172
X24.47111 Y15.43999 Z-1.13078
X24.54815 Y15.43977 Z-1.14437
X24.6247 Y15.44851 Z-1.15795
X24.69971 Y15.46607 Z-1.17154
X24.77218 Y15.49222 Z-1.18512
X24.84112 Y15.52661 Z-1.19871
X24.90561 Y15.56877 Z-1.21229
X24.96476 Y15.61812 Z-1.22587
X25.01778 Y15.67402 Z-1.23946
X25.06396 Y15.73569 Z-1.25304
X25.10266 Y15.8023 Z-1.26663
X25.13337 Y15.87296 Z-1.28021
X25.15567 Y15.9467 Z-1.2938
X25.16926 Y16.02254 Z-1.30738
X25.17395 Y16.09944 Z-1.32097
X25.16968 Y16.17636 Z-1.33455
X25.15651 Y16.25227 Z-1.34814
X25.13462 Y16.32613 Z-1.36172
X25.1043 Y16.39696 Z-1.3753
X25.06596 Y16.46378 Z-1.38889
G17
G03 X23.95694 Y15.73873 I-0.55451 J-0.36252 F4792.
X25.06596 Y16.46378 I0.55451 J0.36253
G1 Z-2.77778
G03 X23.95694 Y15.73873 I-0.55451 J-0.36252
X25.06596 Y16.46378 I0.55451 J0.36253
G1 Z-4.16667
G03 X23.95694 Y15.73873 I-0.55451 J-0.36252
X25.06596 Y16.46378 I0.55451 J0.36253
G1 Z-5.55556
G03 X23.95694 Y15.73873 I-0.55451 J-0.36252
X25.06596 Y16.46378 I0.55451 J0.36253
G1 Z-6.94444
G03 X23.95694 Y15.73873 I-0.55451 J-0.36252
X25.06596 Y16.46378 I0.55451 J0.36253
G1 Z-8.33333
G03 X23.95694 Y15.73873 I-0.55451 J-0.36252
X25.06596 Y16.46378 I0.55451 J0.36253
G1 Z-9.72222
G03 X23.95694 Y15.73873 I-0.55451 J-0.36252
X25.06596 Y16.46378 I0.55451 J0.36253
G1 Z-11.11111
G03 X23.95694 Y15.73873 I-0.55451 J-0.36252
X25.06596 Y16.46378 I0.55451 J0.36253
G1 Z-12.5
G03 X23.95694 Y15.73873 I-0.55451 J-0.36252
X25.06596 Y16.46378 I0.55451 J0.36253
G1 Y15.40312 Z-11.43934 F5000.
Z-10.83934
G0 Z1.5875
X24.41105 Y278.25547
G1 Z1.21111 F4198.
Z-0.78889 F3594.
X24.3982 Y278.25401 Z-0.79117
X24.32319 Y278.23644 Z-0.80475
X24.25072 Y278.21029 Z-0.81834
X24.18178 Y278.17591 Z-0.83192
X24.1173 Y278.13375 Z-0.84551
X24.05814 Y278.08439 Z-0.85909
X24.00512 Y278.0285 Z-0.87267
X23.95894 Y277.96683 Z-0.88626
X23.92024 Y277.90021 Z-0.89985
X23.88953 Y277.82956 Z-0.91343
X23.86723 Y277.75581 Z-0.92701
X23.85365 Y277.67998 Z-0.9406
X23.84895 Y277.60308 Z-0.95418
X23.85322 Y277.52616 Z-0.96777
X23.86639 Y277.45025 Z-0.98135
X23.88828 Y277.37638 Z-0.99494
X23.9186 Y277.30556 Z-1.00852
X23.95694 Y277.23873 Z-1.02211
X24.00278 Y277.17681 Z-1.03569
X24.05549 Y277.12062 Z-1.04927
X24.11437 Y277.07094 Z-1.06286
X24.17863 Y277.02843 Z-1.07644
X24.24738 Y276.99366 Z-1.09003
X24.3197 Y276.96711 Z-1.10361
X24.39462 Y276.94914 Z-1.1172
X24.47111 Y276.93999 Z-1.13078
X24.54815 Y276.93977 Z-1.14437
X24.6247 Y276.94851 Z-1.15795
X24.69971 Y276.96607 Z-1.17154
X24.77218 Y276.99222 Z-1.18512
X24.84112 Y277.02661 Z-1.19871
X24.90561 Y277.06877 Z-1.21229
X24.96476 Y277.11812 Z-1.22587
X25.01778 Y277.17402 Z-1.23946
X25.06396 Y277.23569 Z-1.25304
X25.10266 Y277.3023 Z-1.26663
X25.13337 Y277.37296 Z-1.28021
X25.15567 Y277.4467 Z-1.2938
X25.16926 Y277.52254 Z-1.30738
X25.17395 Y277.59944 Z-1.32097
X25.16968 Y277.67636 Z-1.33455
X25.15651 Y277.75227 Z-1.34814
X25.13462 Y277.82613 Z-1.36172
X25.1043 Y277.89696 Z-1.3753
X25.06596 Y277.96378 Z-1.38889
G03 X23.95694 Y277.23873 I-0.55451 J-0.36252 F4792.
X25.06596 Y277.96378 I0.55451 J0.36253
G1 Z-2.77778
G03 X23.95694 Y277.23873 I-0.55451 J-0.36252
X25.06596 Y277.96378 I0.55451 J0.36253
G1 Z-4.16667
G03 X23.95694 Y277.23873 I-0.55451 J-0.36252
X25.06596 Y277.96378 I0.55451 J0.36253
G1 Z-5.55556
G03 X23.95694 Y277.23873 I-0.55451 J-0.36252
X25.06596 Y277.96378 I0.55451 J0.36253
G1 Z-6.94444
G03 X23.95694 Y277.23873 I-0.55451 J-0.36252
X25.06596 Y277.96378 I0.55451 J0.36253
G1 Z-8.33333
G03 X23.95694 Y277.23873 I-0.55451 J-0.36252
X25.06596 Y277.96378 I0.55451 J0.36253
G1 Z-9.72222
G03 X23.95694 Y277.23873 I-0.55451 J-0.36252
X25.06596 Y277.96378 I0.55451 J0.36253
G1 Z-11.11111
G03 X23.95694 Y277.23873 I-0.55451 J-0.36252
X25.06596 Y277.96378 I0.55451 J0.36253
G1 Z-12.5
G03 X23.95694 Y277.23873 I-0.55451 J-0.36252
X25.06596 Y277.96378 I0.55451 J0.36253
G1 Y276.90312 Z-11.43934 F5000.
Z-10.83934
G0 Z1.5875
X251.57961 Y146.5773
G1 Z1.21111 F4198.
Z-0.78889 F3594.
X251.58541 Y146.58885 Z-0.79117
X251.61176 Y146.66125 Z-0.80475
X251.62953 Y146.73621 Z-0.81834
X251.63848 Y146.81274 Z-0.83192
Y146.88978 Z-0.84551
X251.62953 Y146.9663 Z-0.85909
X251.61176 Y147.04126 Z-0.87267
X251.58541 Y147.11366 Z-0.88626
X251.55084 Y147.18251 Z-0.89985
X251.5085 Y147.24687 Z-0.91343
X251.45898 Y147.30589 Z-0.92701
X251.40294 Y147.35876 Z-0.9406
X251.34114 Y147.40477 Z-0.95418
X251.27442 Y147.44329 Z-0.96777
X251.20368 Y147.4738 Z-0.98135
X251.12988 Y147.4959 Z-0.99494
X251.05401 Y147.50928 Z-1.00852
X250.97709 Y147.51376 Z-1.02211
X250.90018 Y147.50928 Z-1.03569
X250.82431 Y147.4959 Z-1.04927
X250.75051 Y147.4738 Z-1.06286
X250.67977 Y147.44329 Z-1.07644
X250.61305 Y147.40477 Z-1.09003
X250.55125 Y147.35876 Z-1.10361
X250.49521 Y147.30589 Z-1.1172
X250.44569 Y147.24687 Z-1.13078
X250.40335 Y147.18251 Z-1.14437
X250.36878 Y147.11366 Z-1.15795
X250.34243 Y147.04126 Z-1.17154
X250.32466 Y146.9663 Z-1.18512
X250.31572 Y146.88978 Z-1.19871
Y146.81274 Z-1.21229
X250.32466 Y146.73621 Z-1.22587
X250.34243 Y146.66125 Z-1.23946
X250.36878 Y146.58885 Z-1.25304
X250.40335 Y146.52001 Z-1.26663
X250.44569 Y146.45564 Z-1.28021
X250.49521 Y146.39662 Z-1.2938
X250.55125 Y146.34375 Z-1.30738
X250.61305 Y146.29775 Z-1.32097
X250.67977 Y146.25923 Z-1.33455
X250.75051 Y146.22871 Z-1.34814
X250.82431 Y146.20662 Z-1.36172
X250.90018 Y146.19324 Z-1.3753
X250.97709 Y146.18876 Z-1.38889
G03 Y147.51376 I0. J0.6625 F4792.
Y146.18876 I0. J-0.6625
G1 Z-2.77778
G03 Y147.51376 I0. J0.6625
Y146.18876 I0. J-0.6625
G1 Z-4.16667
G03 Y147.51376 I0. J0.6625
Y146.18876 I0. J-0.6625
G1 Z-5.55556
G03 Y147.51376 I0. J0.6625
Y146.18876 I0. J-0.6625
G1 Z-6.94444
G03 Y147.51376 I0. J0.6625
Y146.18876 I0. J-0.6625
G1 Z-8.33333
G03 Y147.51376 I0. J0.6625
Y146.18876 I0. J-0.6625
G1 Z-9.72222
G03 Y147.51376 I0. J0.6625
Y146.18876 I0. J-0.6625
G1 Z-11.11111
G03 Y147.51376 I0. J0.6625
Y146.18876 I0. J-0.6625
G1 Z-12.5
G03 Y147.51376 I0. J0.6625
Y146.18876 I0. J-0.6625
G1 X250.04419 Y146.69343 Z-11.43934 F5000.
Z-10.83934
G0 Z1.5875
(2 1/2 Axis Profiling)
(SlotDrill 1/8in 3.175mm Carbide Aluminium Cut)
X257.63325 Y169.97476
G1 Z0.61111 F4198.
X258.25078 Y169.15919 Z0.43073 F3594.
X258.85079 Y168.31959 Z0.24877
X259.42741 Y167.46376 Z0.06681
X259.98018 Y166.59234 Z-0.11515
X260.50871 Y165.706 Z-0.29712
X261.01257 Y164.80541 Z-0.47908
X261.4914 Y163.89126 Z-0.66104
X261.94481 Y162.96425 Z-0.843
X262.37248 Y162.02508 Z-1.02497
X262.77407 Y161.07447 Z-1.20693
X263.14927 Y160.11314 Z-1.38889
G02 X246.79345 Y114.29935 I-35.11439 J-13.2904 F4792.
G1 X54.79375 Y3.44828
G02 X-1.5875 Y36.00001 I-18.79375 J32.55173
G1 Y257.70251
G02 X54.79375 Y290.25424 I37.5875 J0.
G1 X246.79303 Y179.4034
G02 X263.14927 Y160.11314 I-18.66404 J-32.40463
G1 Z-2.77778
G02 X246.79345 Y114.29935 I-35.11439 J-13.2904
G1 X54.79375 Y3.44828
G02 X-1.5875 Y36.00001 I-18.79375 J32.55173
G1 Y257.70251
G02 X54.79375 Y290.25424 I37.5875 J0.
G1 X246.79303 Y179.4034
G02 X263.14927 Y160.11314 I-18.66404 J-32.40463
G1 Z-4.16667
G02 X246.79345 Y114.29935 I-35.11439 J-13.2904
G1 X54.79375 Y3.44828
G02 X-1.5875 Y36.00001 I-18.79375 J32.55173
G1 Y257.70251
G02 X54.79375 Y290.25424 I37.5875 J0.
G1 X246.79303 Y179.4034
G02 X263.14927 Y160.11314 I-18.66404 J-32.40463
G1 Z-5.55556
G02 X246.79345 Y114.29935 I-35.11439 J-13.2904
G1 X54.79375 Y3.44828
G02 X-1.5875 Y36.00001 I-18.79375 J32.55173
G1 Y257.70251
G02 X54.79375 Y290.25424 I37.5875 J0.
G1 X246.79303 Y179.4034
G02 X263.14927 Y160.11314 I-18.66404 J-32.40463
G1 Z-6.94444
G02 X246.79345 Y114.29935 I-35.11439 J-13.2904
G1 X54.79375 Y3.44828
G02 X-1.5875 Y36.00001 I-18.79375 J32.55173
G1 Y257.70251
G02 X54.79375 Y290.25424 I37.5875 J0.
G1 X246.79303 Y179.4034
G02 X263.14927 Y160.11314 I-18.66404 J-32.40463
G1 Z-8.33333
G02 X246.79345 Y114.29935 I-35.11439 J-13.2904
G1 X54.79375 Y3.44828
G02 X-1.5875 Y36.00001 I-18.79375 J32.55173
G1 Y257.70251
G02 X54.79375 Y290.25424 I37.5875 J0.
G1 X246.79303 Y179.4034
G02 X263.14927 Y160.11314 I-18.66404 J-32.40463
G1 Z-9.72222
G02 X246.79345 Y114.29935 I-35.11439 J-13.2904
G1 X54.79375 Y3.44828
G02 X-1.5875 Y36.00001 I-18.79375 J32.55173
G1 Y257.70251
G02 X54.79375 Y290.25424 I37.5875 J0.
G1 X246.79303 Y179.4034
G02 X263.14927 Y160.11314 I-18.66404 J-32.40463
G1 Z-11.11111
G02 X246.79345 Y114.29935 I-35.11439 J-13.2904
G1 X54.79375 Y3.44828
G02 X-1.5875 Y36.00001 I-18.79375 J32.55173
G1 Y257.70251
G02 X54.79375 Y290.25424 I37.5875 J0.
G1 X246.79303 Y179.4034
G02 X263.14927 Y160.11314 I-18.66404 J-32.40463
G1 Z-12.5
G02 X246.79345 Y114.29935 I-35.11439 J-13.2904
G1 X54.79375 Y3.44828
G02 X-1.5875 Y36.00001 I-18.79375 J32.55173
G1 Y257.70251
G02 X54.79375 Y290.25424 I37.5875 J0.
G1 X246.79303 Y179.4034
G02 X263.14927 Y160.11314 I-18.66404 J-32.40463
G0 Z1.5875
M30
%
