%
G17 G21 G40 G90 G64 P0.1
(2 1/2 Axis Facing)
(SlotDrill 1/8in 3.175mm Carbide Aluminium Cut)
T6 M06
S22056 M3
G0 Z11.5875
X35.53116 Y33.28861
G1 Z10.81167 F132.2
X28.32864 Y33.28354 Z9.54167 F396.7
G17
G03 X28. Y33.29375 I-0.32864 J-5.28354 F529.
G1 X2.
G03 X-3.29375 Y28. I0. J-5.29375
G1 Y2.
G03 X2. Y-3.29375 I5.29375 J0.
G1 X68.
G03 X73.29375 Y2. I0. J5.29375
G1 Y28.
G03 X68. Y33.29375 I-5.29375 J0.
G1 X42.84363
X28.32864 Y33.28354
X28.32919 Y32.48979
X42.84391 Y32.5
X68.
G02 X72.5 Y28. I0. J-4.5
G1 Y2.
G02 X68. Y-2.5 I-4.5 J0.
G1 X2.
G02 X-2.5 Y2. I0. J4.5
G1 Y28.
G02 X2. Y32.5 I4.5 J0.
G1 X28.
G02 X28.27936 Y32.49132 I0. J-4.5
G1 X28.32919 Y32.48979
X28.32975 Y31.69604
X28.30482 Y31.69641
X28.25499 Y31.69794
X28.23008 Y31.6991
G03 X28. Y31.70625 I-0.23008 J-3.6991
G1 X2.
G03 X-1.70625 Y28. I0. J-3.70625
G1 Y2.
G03 X2. Y-1.70625 I3.70625 J0.
G1 X68.
G03 X71.70625 Y2. I0. J3.70625
G1 Y28.
G03 X68. Y31.70625 I-3.70625 J0.
G1 X42.84418
X28.32975 Y31.69604
X28.32765 Y30.90239
X42.84446 Y30.9125
X68.
G02 X70.9125 Y28. I0. J-2.9125
G1 Y2.
G02 X68. Y-0.9125 I-2.9125 J0.
G1 X2.
G02 X-0.9125 Y2. I0. J2.9125
G1 Y28.
G02 X2. Y30.9125 I2.9125 J0.
G1 X28.
G02 X28.18081 Y30.90688 I0. J-2.9125
G1 X28.21816 Y30.90505
X28.28045 Y30.90304
X28.31784 Y30.90238
X28.32765 Y30.90239
X28.3282 Y30.10877
X28.30386 Y30.10875
X28.25484 Y30.1097
X28.17926 Y30.11225
X28.13153 Y30.11466
G03 X28. Y30.11875 I-0.13153 J-2.11466
G1 X2.
G03 X-0.11875 Y28. I0. J-2.11875
G1 Y2.
G03 X2. Y-0.11875 I2.11875 J0.
G1 X68.
G03 X70.11875 Y2. I0. J2.11875
G1 Y28.
G03 X68. Y30.11875 I-2.11875 J0.
G1 X42.84474
X28.3282 Y30.10877
X28.32875 Y29.31518
X42.84501 Y29.325
X68.
G02 X69.325 Y28. I0. J-1.325
G1 Y2.
G02 X68. Y0.675 I-1.325 J0.
G1 X2.
G02 X0.675 Y2. I0. J1.325
G1 Y28.
G02 X2. Y29.325 I1.325 J0.
G1 X28.
G02 X28.08226 Y29.32244 I0. J-1.325
G1 X28.13923 Y29.31951
X28.22805 Y29.3164
X28.28849 Y29.31515
X28.32875 Y29.31518
X28.32928 Y28.52161
X28.27205 Y28.52157
X28.20028 Y28.52314
X28.09844 Y28.52681
X28.03298 Y28.53022
G03 X28. Y28.53125 I-0.03298 J-0.53022
G1 X2.
G03 X1.46875 Y28. I0. J-0.53125
G1 Y2.
G03 X2. Y1.46875 I0.53125 J0.
G1 X68.
G03 X68.53125 Y2. I0. J0.53125
G1 Y28.
G03 X68. Y28.53125 I-0.53125 J0.
G1 X42.84528
X28.32928 Y28.52161
X28.32981 Y27.72806
X42.84555 Y27.7375
X67.7375
Y2.2625
X2.2625
Y27.7375
X27.99265
X28.05711 Y27.73414
X28.17167 Y27.7299
X28.25471 Y27.72801
X28.32981 Y27.72806
X28.33033 Y26.93453
X28.23661 Y26.93447
X28.14236 Y26.9367
X28.01578 Y26.94147
X27.97197 Y26.94375
X3.05625
Y3.05625
X66.94375
Y26.94375
X42.8458
X28.33033 Y26.93453
X28.33083 Y26.14101
X42.84606 Y26.15
X66.15
Y3.85
X3.85
Y26.15
X27.95129
X27.97445 Y26.14879
X28.11247 Y26.14351
X28.21784 Y26.14094
X28.33083 Y26.14101
X28.33132 Y25.3475
X28.19848 Y25.34743
X28.08212 Y25.35034
X27.93061 Y25.35625
X4.64375
Y4.64375
X65.35625
Y25.35625
X42.8463
X28.33132 Y25.3475
X28.3318 Y24.55375
X42.84654 Y24.5625
X64.5625
Y5.4375
X5.4375
Y24.5625
X27.91513
X28.05118 Y24.55719
X28.19896 Y24.55367
X28.3318 Y24.55375
X28.33228 Y23.76024
X28.18007 Y23.76015
X28.02024 Y23.76405
X27.89966 Y23.76875
X6.23125
Y6.23125
X63.76875
Y23.76875
X42.84678
X28.33228 Y23.76024
X28.33274 Y22.96673
X42.84701 Y22.975
X62.975
Y7.025
X7.025
Y22.975
X27.88418
X27.9893 Y22.9709
X28.16072 Y22.96664
X28.33274 Y22.96673
X28.3332 Y22.17298
X28.16118 Y22.17289
X27.95836 Y22.17775
X27.86871 Y22.18125
X7.81875
Y7.81875
X62.18125
Y22.18125
X42.84724
X28.3332 Y22.17298
X28.33365 Y21.37947
X42.84746 Y21.3875
X61.3875
Y8.6125
X8.6125
Y21.3875
X27.85323
X27.92743 Y21.38461
X28.14214 Y21.37936
X28.33365 Y21.37947
X28.33409 Y20.58596
X28.12276 Y20.58585
X27.89649 Y20.59146
X27.83776 Y20.59375
X9.40625
Y9.40625
X60.59375
Y20.59375
X42.84768
X28.33409 Y20.58596
X28.33451 Y19.79221
X42.8479 Y19.8
X59.8
Y10.2
X10.2
Y19.8
X27.82228
X27.86555 Y19.79831
X28.12319 Y19.7921
X28.33451 Y19.79221
X28.33494 Y18.9987
X28.10406 Y18.99858
X27.83461 Y19.00517
X27.80681 Y19.00625
X10.99375
Y10.99375
X59.00625
Y19.00625
X42.84811
X28.33494 Y18.9987
X28.33535 Y18.20519
X42.84832 Y18.2125
X58.2125
Y11.7875
X11.7875
Y18.2125
G02 X28.33535 Y18.20519 I8.00192 J-616.14693
G1 X28.33575 Y17.41144
G02 X12.58125 Y17.41875 I-4.16026 J8015.99328
G1 Y12.58125
X57.41875
Y17.41875
X42.84852
X28.33575 Y17.41144
X28.33615 Y16.61794
X42.84872 Y16.625
X56.625
Y13.375
X13.375
Y16.625
G02 X28.33615 Y16.61794 I7.19829 J-598.00594
G1 X28.33654 Y15.82443
G02 X14.16875 Y15.83125 I-3.57279 J7293.61652
G1 Y14.16875
X55.83125
Y15.83125
X42.84891
X28.33654 Y15.82443
X28.33691 Y15.03092
X42.8491 Y15.0375
X55.0375
Y14.9625
X14.9625
Y15.0375
G02 X28.33691 Y15.03092 I6.39483 J-594.39455
X34.68979 Y8.6838 I0.00288 J-6.35 F793.5
G1 X34.69267 Y2.3338
G0 Z11.5875
X35.53116 Y33.28861
G1 Z10.35333 F132.2
X28.32864 Y33.28354 Z9.08333 F396.7
G03 X28. Y33.29375 I-0.32864 J-5.28354 F529.
G1 X2.
G03 X-3.29375 Y28. I0. J-5.29375
G1 Y2.
G03 X2. Y-3.29375 I5.29375 J0.
G1 X68.
G03 X73.29375 Y2. I0. J5.29375
G1 Y28.
G03 X68. Y33.29375 I-5.29375 J0.
G1 X42.84363
X28.32864 Y33.28354
X28.32919 Y32.48979
X42.84391 Y32.5
X68.
G02 X72.5 Y28. I0. J-4.5
G1 Y2.
G02 X68. Y-2.5 I-4.5 J0.
G1 X2.
G02 X-2.5 Y2. I0. J4.5
G1 Y28.
G02 X2. Y32.5 I4.5 J0.
G1 X28.
G02 X28.27936 Y32.49132 I0. J-4.5
G1 X28.32919 Y32.48979
X28.32975 Y31.69604
X28.30482 Y31.69641
X28.25499 Y31.69794
X28.23008 Y31.6991
G03 X28. Y31.70625 I-0.23008 J-3.6991
G1 X2.
G03 X-1.70625 Y28. I0. J-3.70625
G1 Y2.
G03 X2. Y-1.70625 I3.70625 J0.
G1 X68.
G03 X71.70625 Y2. I0. J3.70625
G1 Y28.
G03 X68. Y31.70625 I-3.70625 J0.
G1 X42.84418
X28.32975 Y31.69604
X28.32765 Y30.90239
X42.84446 Y30.9125
X68.
G02 X70.9125 Y28. I0. J-2.9125
G1 Y2.
G02 X68. Y-0.9125 I-2.9125 J0.
G1 X2.
G02 X-0.9125 Y2. I0. J2.9125
G1 Y28.
G02 X2. Y30.9125 I2.9125 J0.
G1 X28.
G02 X28.18081 Y30.90688 I0. J-2.9125
G1 X28.21816 Y30.90505
X28.28045 Y30.90304
X28.31784 Y30.90238
X28.32765 Y30.90239
X28.3282 Y30.10877
X28.30386 Y30.10875
X28.25484 Y30.1097
X28.17926 Y30.11225
X28.13153 Y30.11466
G03 X28. Y30.11875 I-0.13153 J-2.11466
G1 X2.
G03 X-0.11875 Y28. I0. J-2.11875
G1 Y2.
G03 X2. Y-0.11875 I2.11875 J0.
G1 X68.
G03 X70.11875 Y2. I0. J2.11875
G1 Y28.
G03 X68. Y30.11875 I-2.11875 J0.
G1 X42.84474
X28.3282 Y30.10877
X28.32875 Y29.31518
X42.84501 Y29.325
X68.
G02 X69.325 Y28. I0. J-1.325
G1 Y2.
G02 X68. Y0.675 I-1.325 J0.
G1 X2.
G02 X0.675 Y2. I0. J1.325
G1 Y28.
G02 X2. Y29.325 I1.325 J0.
G1 X28.
G02 X28.08226 Y29.32244 I0. J-1.325
G1 X28.13923 Y29.31951
X28.22805 Y29.3164
X28.28849 Y29.31515
X28.32875 Y29.31518
X28.32928 Y28.52161
X28.27205 Y28.52157
X28.20028 Y28.52314
X28.09844 Y28.52681
X28.03298 Y28.53022
G03 X28. Y28.53125 I-0.03298 J-0.53022
G1 X2.
G03 X1.46875 Y28. I0. J-0.53125
G1 Y2.
G03 X2. Y1.46875 I0.53125 J0.
G1 X68.
G03 X68.53125 Y2. I0. J0.53125
G1 Y28.
G03 X68. Y28.53125 I-0.53125 J0.
G1 X42.84528
X28.32928 Y28.52161
X28.32981 Y27.72806
X42.84555 Y27.7375
X67.7375
Y2.2625
X2.2625
Y27.7375
X27.99265
X28.05711 Y27.73414
X28.17167 Y27.7299
X28.25471 Y27.72801
X28.32981 Y27.72806
X28.33033 Y26.93453
X28.23661 Y26.93447
X28.14236 Y26.9367
X28.01578 Y26.94147
X27.97197 Y26.94375
X3.05625
Y3.05625
X66.94375
Y26.94375
X42.8458
X28.33033 Y26.93453
X28.33083 Y26.14101
X42.84606 Y26.15
X66.15
Y3.85
X3.85
Y26.15
X27.95129
X27.97445 Y26.14879
X28.11247 Y26.14351
X28.21784 Y26.14094
X28.33083 Y26.14101
X28.33132 Y25.3475
X28.19848 Y25.34743
X28.08212 Y25.35034
X27.93061 Y25.35625
X4.64375
Y4.64375
X65.35625
Y25.35625
X42.8463
X28.33132 Y25.3475
X28.3318 Y24.55375
X42.84654 Y24.5625
X64.5625
Y5.4375
X5.4375
Y24.5625
X27.91513
X28.05118 Y24.55719
X28.19896 Y24.55367
X28.3318 Y24.55375
X28.33228 Y23.76024
X28.18007 Y23.76015
X28.02024 Y23.76405
X27.89966 Y23.76875
X6.23125
Y6.23125
X63.76875
Y23.76875
X42.84678
X28.33228 Y23.76024
X28.33274 Y22.96673
X42.84701 Y22.975
X62.975
Y7.025
X7.025
Y22.975
X27.88418
X27.9893 Y22.9709
X28.16072 Y22.96664
X28.33274 Y22.96673
X28.3332 Y22.17298
X28.16118 Y22.17289
X27.95836 Y22.17775
X27.86871 Y22.18125
X7.81875
Y7.81875
X62.18125
Y22.18125
X42.84724
X28.3332 Y22.17298
X28.33365 Y21.37947
X42.84746 Y21.3875
X61.3875
Y8.6125
X8.6125
Y21.3875
X27.85323
X27.92743 Y21.38461
X28.14214 Y21.37936
X28.33365 Y21.37947
X28.33409 Y20.58596
X28.12276 Y20.58585
X27.89649 Y20.59146
X27.83776 Y20.59375
X9.40625
Y9.40625
X60.59375
Y20.59375
X42.84768
X28.33409 Y20.58596
X28.33451 Y19.79221
X42.8479 Y19.8
X59.8
Y10.2
X10.2
Y19.8
X27.82228
X27.86555 Y19.79831
X28.12319 Y19.7921
X28.33451 Y19.79221
X28.33494 Y18.9987
X28.10406 Y18.99858
X27.83461 Y19.00517
X27.80681 Y19.00625
X10.99375
Y10.99375
X59.00625
Y19.00625
X42.84811
X28.33494 Y18.9987
X28.33535 Y18.20519
X42.84832 Y18.2125
X58.2125
Y11.7875
X11.7875
Y18.2125
G02 X28.33535 Y18.20519 I8.00192 J-616.14693
G1 X28.33575 Y17.41144
G02 X12.58125 Y17.41875 I-4.16026 J8015.99328
G1 Y12.58125
X57.41875
Y17.41875
X42.84852
X28.33575 Y17.41144
X28.33615 Y16.61794
X42.84872 Y16.625
X56.625
Y13.375
X13.375
Y16.625
G02 X28.33615 Y16.61794 I7.19829 J-598.00594
G1 X28.33654 Y15.82443
G02 X14.16875 Y15.83125 I-3.57279 J7293.61652
G1 Y14.16875
X55.83125
Y15.83125
X42.84891
X28.33654 Y15.82443
X28.33691 Y15.03092
X42.8491 Y15.0375
X55.0375
Y14.9625
X14.9625
Y15.0375
G02 X28.33691 Y15.03092 I6.39483 J-594.39455
X34.68979 Y8.6838 I0.00288 J-6.35 F793.5
G1 X34.69267 Y2.3338
G0 Z11.5875
X35.53116 Y33.28861
G1 Z9.895 F132.2
X28.32864 Y33.28354 Z8.625 F396.7
G03 X28. Y33.29375 I-0.32864 J-5.28354 F529.
G1 X2.
G03 X-3.29375 Y28. I0. J-5.29375
G1 Y2.
G03 X2. Y-3.29375 I5.29375 J0.
G1 X68.
G03 X73.29375 Y2. I0. J5.29375
G1 Y28.
G03 X68. Y33.29375 I-5.29375 J0.
G1 X42.84363
X28.32864 Y33.28354
X28.32919 Y32.48979
X42.84391 Y32.5
X68.
G02 X72.5 Y28. I0. J-4.5
G1 Y2.
G02 X68. Y-2.5 I-4.5 J0.
G1 X2.
G02 X-2.5 Y2. I0. J4.5
G1 Y28.
G02 X2. Y32.5 I4.5 J0.
G1 X28.
G02 X28.27936 Y32.49132 I0. J-4.5
G1 X28.32919 Y32.48979
X28.32975 Y31.69604
X28.30482 Y31.69641
X28.25499 Y31.69794
X28.23008 Y31.6991
G03 X28. Y31.70625 I-0.23008 J-3.6991
G1 X2.
G03 X-1.70625 Y28. I0. J-3.70625
G1 Y2.
G03 X2. Y-1.70625 I3.70625 J0.
G1 X68.
G03 X71.70625 Y2. I0. J3.70625
G1 Y28.
G03 X68. Y31.70625 I-3.70625 J0.
G1 X42.84418
X28.32975 Y31.69604
X28.32765 Y30.90239
X42.84446 Y30.9125
X68.
G02 X70.9125 Y28. I0. J-2.9125
G1 Y2.
G02 X68. Y-0.9125 I-2.9125 J0.
G1 X2.
G02 X-0.9125 Y2. I0. J2.9125
G1 Y28.
G02 X2. Y30.9125 I2.9125 J0.
G1 X28.
G02 X28.18081 Y30.90688 I0. J-2.9125
G1 X28.21816 Y30.90505
X28.28045 Y30.90304
X28.31784 Y30.90238
X28.32765 Y30.90239
X28.3282 Y30.10877
X28.30386 Y30.10875
X28.25484 Y30.1097
X28.17926 Y30.11225
X28.13153 Y30.11466
G03 X28. Y30.11875 I-0.13153 J-2.11466
G1 X2.
G03 X-0.11875 Y28. I0. J-2.11875
G1 Y2.
G03 X2. Y-0.11875 I2.11875 J0.
G1 X68.
G03 X70.11875 Y2. I0. J2.11875
G1 Y28.
G03 X68. Y30.11875 I-2.11875 J0.
G1 X42.84474
X28.3282 Y30.10877
X28.32875 Y29.31518
X42.84501 Y29.325
X68.
G02 X69.325 Y28. I0. J-1.325
G1 Y2.
G02 X68. Y0.675 I-1.325 J0.
G1 X2.
G02 X0.675 Y2. I0. J1.325
G1 Y28.
G02 X2. Y29.325 I1.325 J0.
G1 X28.
G02 X28.08226 Y29.32244 I0. J-1.325
G1 X28.13923 Y29.31951
X28.22805 Y29.3164
X28.28849 Y29.31515
X28.32875 Y29.31518
X28.32928 Y28.52161
X28.27205 Y28.52157
X28.20028 Y28.52314
X28.09844 Y28.52681
X28.03298 Y28.53022
G03 X28. Y28.53125 I-0.03298 J-0.53022
G1 X2.
G03 X1.46875 Y28. I0. J-0.53125
G1 Y2.
G03 X2. Y1.46875 I0.53125 J0.
G1 X68.
G03 X68.53125 Y2. I0. J0.53125
G1 Y28.
G03 X68. Y28.53125 I-0.53125 J0.
G1 X42.84528
X28.32928 Y28.52161
X28.32981 Y27.72806
X42.84555 Y27.7375
X67.7375
Y2.2625
X2.2625
Y27.7375
X27.99265
X28.05711 Y27.73414
X28.17167 Y27.7299
X28.25471 Y27.72801
X28.32981 Y27.72806
X28.33033 Y26.93453
X28.23661 Y26.93447
X28.14236 Y26.9367
X28.01578 Y26.94147
X27.97197 Y26.94375
X3.05625
Y3.05625
X66.94375
Y26.94375
X42.8458
X28.33033 Y26.93453
X28.33083 Y26.14101
X42.84606 Y26.15
X66.15
Y3.85
X3.85
Y26.15
X27.95129
X27.97445 Y26.14879
X28.11247 Y26.14351
X28.21784 Y26.14094
X28.33083 Y26.14101
X28.33132 Y25.3475
X28.19848 Y25.34743
X28.08212 Y25.35034
X27.93061 Y25.35625
X4.64375
Y4.64375
X65.35625
Y25.35625
X42.8463
X28.33132 Y25.3475
X28.3318 Y24.55375
X42.84654 Y24.5625
X64.5625
Y5.4375
X5.4375
Y24.5625
X27.91513
X28.05118 Y24.55719
X28.19896 Y24.55367
X28.3318 Y24.55375
X28.33228 Y23.76024
X28.18007 Y23.76015
X28.02024 Y23.76405
X27.89966 Y23.76875
X6.23125
Y6.23125
X63.76875
Y23.76875
X42.84678
X28.33228 Y23.76024
X28.33274 Y22.96673
X42.84701 Y22.975
X62.975
Y7.025
X7.025
Y22.975
X27.88418
X27.9893 Y22.9709
X28.16072 Y22.96664
X28.33274 Y22.96673
X28.3332 Y22.17298
X28.16118 Y22.17289
X27.95836 Y22.17775
X27.86871 Y22.18125
X7.81875
Y7.81875
X62.18125
Y22.18125
X42.84724
X28.3332 Y22.17298
X28.33365 Y21.37947
X42.84746 Y21.3875
X61.3875
Y8.6125
X8.6125
Y21.3875
X27.85323
X27.92743 Y21.38461
X28.14214 Y21.37936
X28.33365 Y21.37947
X28.33409 Y20.58596
X28.12276 Y20.58585
X27.89649 Y20.59146
X27.83776 Y20.59375
X9.40625
Y9.40625
X60.59375
Y20.59375
X42.84768
X28.33409 Y20.58596
X28.33451 Y19.79221
X42.8479 Y19.8
X59.8
Y10.2
X10.2
Y19.8
X27.82228
X27.86555 Y19.79831
X28.12319 Y19.7921
X28.33451 Y19.79221
X28.33494 Y18.9987
X28.10406 Y18.99858
X27.83461 Y19.00517
X27.80681 Y19.00625
X10.99375
Y10.99375
X59.00625
Y19.00625
X42.84811
X28.33494 Y18.9987
X28.33535 Y18.20519
X42.84832 Y18.2125
X58.2125
Y11.7875
X11.7875
Y18.2125
G02 X28.33535 Y18.20519 I8.00192 J-616.14693
G1 X28.33575 Y17.41144
G02 X12.58125 Y17.41875 I-4.16026 J8015.99328
G1 Y12.58125
X57.41875
Y17.41875
X42.84852
X28.33575 Y17.41144
X28.33615 Y16.61794
X42.84872 Y16.625
X56.625
Y13.375
X13.375
Y16.625
G02 X28.33615 Y16.61794 I7.19829 J-598.00594
G1 X28.33654 Y15.82443
G02 X14.16875 Y15.83125 I-3.57279 J7293.61652
G1 Y14.16875
X55.83125
Y15.83125
X42.84891
X28.33654 Y15.82443
X28.33691 Y15.03092
X42.8491 Y15.0375
X55.0375
Y14.9625
X14.9625
Y15.0375
G02 X28.33691 Y15.03092 I6.39483 J-594.39455
X34.68979 Y8.6838 I0.00288 J-6.35 F793.5
G1 X34.69267 Y2.3338
G0 Z11.5875
X35.53116 Y33.28861
G1 Z9.43667 F132.2
X28.32864 Y33.28354 Z8.16667 F396.7
G03 X28. Y33.29375 I-0.32864 J-5.28354 F529.
G1 X2.
G03 X-3.29375 Y28. I0. J-5.29375
G1 Y2.
G03 X2. Y-3.29375 I5.29375 J0.
G1 X68.
G03 X73.29375 Y2. I0. J5.29375
G1 Y28.
G03 X68. Y33.29375 I-5.29375 J0.
G1 X42.84363
X28.32864 Y33.28354
X28.32919 Y32.48979
X42.84391 Y32.5
X68.
G02 X72.5 Y28. I0. J-4.5
G1 Y2.
G02 X68. Y-2.5 I-4.5 J0.
G1 X2.
G02 X-2.5 Y2. I0. J4.5
G1 Y28.
G02 X2. Y32.5 I4.5 J0.
G1 X28.
G02 X28.27936 Y32.49132 I0. J-4.5
G1 X28.32919 Y32.48979
X28.32975 Y31.69604
X28.30482 Y31.69641
X28.25499 Y31.69794
X28.23008 Y31.6991
G03 X28. Y31.70625 I-0.23008 J-3.6991
G1 X2.
G03 X-1.70625 Y28. I0. J-3.70625
G1 Y2.
G03 X2. Y-1.70625 I3.70625 J0.
G1 X68.
G03 X71.70625 Y2. I0. J3.70625
G1 Y28.
G03 X68. Y31.70625 I-3.70625 J0.
G1 X42.84418
X28.32975 Y31.69604
X28.32765 Y30.90239
X42.84446 Y30.9125
X68.
G02 X70.9125 Y28. I0. J-2.9125
G1 Y2.
G02 X68. Y-0.9125 I-2.9125 J0.
G1 X2.
G02 X-0.9125 Y2. I0. J2.9125
G1 Y28.
G02 X2. Y30.9125 I2.9125 J0.
G1 X28.
G02 X28.18081 Y30.90688 I0. J-2.9125
G1 X28.21816 Y30.90505
X28.28045 Y30.90304
X28.31784 Y30.90238
X28.32765 Y30.90239
X28.3282 Y30.10877
X28.30386 Y30.10875
X28.25484 Y30.1097
X28.17926 Y30.11225
X28.13153 Y30.11466
G03 X28. Y30.11875 I-0.13153 J-2.11466
G1 X2.
G03 X-0.11875 Y28. I0. J-2.11875
G1 Y2.
G03 X2. Y-0.11875 I2.11875 J0.
G1 X68.
G03 X70.11875 Y2. I0. J2.11875
G1 Y28.
G03 X68. Y30.11875 I-2.11875 J0.
G1 X42.84474
X28.3282 Y30.10877
X28.32875 Y29.31518
X42.84501 Y29.325
X68.
G02 X69.325 Y28. I0. J-1.325
G1 Y2.
G02 X68. Y0.675 I-1.325 J0.
G1 X2.
G02 X0.675 Y2. I0. J1.325
G1 Y28.
G02 X2. Y29.325 I1.325 J0.
G1 X28.
G02 X28.08226 Y29.32244 I0. J-1.325
G1 X28.13923 Y29.31951
X28.22805 Y29.3164
X28.28849 Y29.31515
X28.32875 Y29.31518
X28.32928 Y28.52161
X28.27205 Y28.52157
X28.20028 Y28.52314
X28.09844 Y28.52681
X28.03298 Y28.53022
G03 X28. Y28.53125 I-0.03298 J-0.53022
G1 X2.
G03 X1.46875 Y28. I0. J-0.53125
G1 Y2.
G03 X2. Y1.46875 I0.53125 J0.
G1 X68.
G03 X68.53125 Y2. I0. J0.53125
G1 Y28.
G03 X68. Y28.53125 I-0.53125 J0.
G1 X42.84528
X28.32928 Y28.52161
X28.32981 Y27.72806
X42.84555 Y27.7375
X67.7375
Y2.2625
X2.2625
Y27.7375
X27.99265
X28.05711 Y27.73414
X28.17167 Y27.7299
X28.25471 Y27.72801
X28.32981 Y27.72806
X28.33033 Y26.93453
X28.23661 Y26.93447
X28.14236 Y26.9367
X28.01578 Y26.94147
X27.97197 Y26.94375
X3.05625
Y3.05625
X66.94375
Y26.94375
X42.8458
X28.33033 Y26.93453
X28.33083 Y26.14101
X42.84606 Y26.15
X66.15
Y3.85
X3.85
Y26.15
X27.95129
X27.97445 Y26.14879
X28.11247 Y26.14351
X28.21784 Y26.14094
X28.33083 Y26.14101
X28.33132 Y25.3475
X28.19848 Y25.34743
X28.08212 Y25.35034
X27.93061 Y25.35625
X4.64375
Y4.64375
X65.35625
Y25.35625
X42.8463
X28.33132 Y25.3475
X28.3318 Y24.55375
X42.84654 Y24.5625
X64.5625
Y5.4375
X5.4375
Y24.5625
X27.91513
X28.05118 Y24.55719
X28.19896 Y24.55367
X28.3318 Y24.55375
X28.33228 Y23.76024
X28.18007 Y23.76015
X28.02024 Y23.76405
X27.89966 Y23.76875
X6.23125
Y6.23125
X63.76875
Y23.76875
X42.84678
X28.33228 Y23.76024
X28.33274 Y22.96673
X42.84701 Y22.975
X62.975
Y7.025
X7.025
Y22.975
X27.88418
X27.9893 Y22.9709
X28.16072 Y22.96664
X28.33274 Y22.96673
X28.3332 Y22.17298
X28.16118 Y22.17289
X27.95836 Y22.17775
X27.86871 Y22.18125
X7.81875
Y7.81875
X62.18125
Y22.18125
X42.84724
X28.3332 Y22.17298
X28.33365 Y21.37947
X42.84746 Y21.3875
X61.3875
Y8.6125
X8.6125
Y21.3875
X27.85323
X27.92743 Y21.38461
X28.14214 Y21.37936
X28.33365 Y21.37947
X28.33409 Y20.58596
X28.12276 Y20.58585
X27.89649 Y20.59146
X27.83776 Y20.59375
X9.40625
Y9.40625
X60.59375
Y20.59375
X42.84768
X28.33409 Y20.58596
X28.33451 Y19.79221
X42.8479 Y19.8
X59.8
Y10.2
X10.2
Y19.8
X27.82228
X27.86555 Y19.79831
X28.12319 Y19.7921
X28.33451 Y19.79221
X28.33494 Y18.9987
X28.10406 Y18.99858
X27.83461 Y19.00517
X27.80681 Y19.00625
X10.99375
Y10.99375
X59.00625
Y19.00625
X42.84811
X28.33494 Y18.9987
X28.33535 Y18.20519
X42.84832 Y18.2125
X58.2125
Y11.7875
X11.7875
Y18.2125
G02 X28.33535 Y18.20519 I8.00192 J-616.14693
G1 X28.33575 Y17.41144
G02 X12.58125 Y17.41875 I-4.16026 J8015.99328
G1 Y12.58125
X57.41875
Y17.41875
X42.84852
X28.33575 Y17.41144
X28.33615 Y16.61794
X42.84872 Y16.625
X56.625
Y13.375
X13.375
Y16.625
G02 X28.33615 Y16.61794 I7.19829 J-598.00594
G1 X28.33654 Y15.82443
G02 X14.16875 Y15.83125 I-3.57279 J7293.61652
G1 Y14.16875
X55.83125
Y15.83125
X42.84891
X28.33654 Y15.82443
X28.33691 Y15.03092
X42.8491 Y15.0375
X55.0375
Y14.9625
X14.9625
Y15.0375
G02 X28.33691 Y15.03092 I6.39483 J-594.39455
X34.68979 Y8.6838 I0.00288 J-6.35 F793.5
G1 X34.69267 Y2.3338
G0 Z11.5875
X35.53116 Y33.28861
G1 Z8.97833 F132.2
X28.32864 Y33.28354 Z7.70833 F396.7
G03 X28. Y33.29375 I-0.32864 J-5.28354 F529.
G1 X2.
G03 X-3.29375 Y28. I0. J-5.29375
G1 Y2.
G03 X2. Y-3.29375 I5.29375 J0.
G1 X68.
G03 X73.29375 Y2. I0. J5.29375
G1 Y28.
G03 X68. Y33.29375 I-5.29375 J0.
G1 X42.84363
X28.32864 Y33.28354
X28.32919 Y32.48979
X42.84391 Y32.5
X68.
G02 X72.5 Y28. I0. J-4.5
G1 Y2.
G02 X68. Y-2.5 I-4.5 J0.
G1 X2.
G02 X-2.5 Y2. I0. J4.5
G1 Y28.
G02 X2. Y32.5 I4.5 J0.
G1 X28.
G02 X28.27936 Y32.49132 I0. J-4.5
G1 X28.32919 Y32.48979
X28.32975 Y31.69604
X28.30482 Y31.69641
X28.25499 Y31.69794
X28.23008 Y31.6991
G03 X28. Y31.70625 I-0.23008 J-3.6991
G1 X2.
G03 X-1.70625 Y28. I0. J-3.70625
G1 Y2.
G03 X2. Y-1.70625 I3.70625 J0.
G1 X68.
G03 X71.70625 Y2. I0. J3.70625
G1 Y28.
G03 X68. Y31.70625 I-3.70625 J0.
G1 X42.84418
X28.32975 Y31.69604
X28.32765 Y30.90239
X42.84446 Y30.9125
X68.
G02 X70.9125 Y28. I0. J-2.9125
G1 Y2.
G02 X68. Y-0.9125 I-2.9125 J0.
G1 X2.
G02 X-0.9125 Y2. I0. J2.9125
G1 Y28.
G02 X2. Y30.9125 I2.9125 J0.
G1 X28.
G02 X28.18081 Y30.90688 I0. J-2.9125
G1 X28.21816 Y30.90505
X28.28045 Y30.90304
X28.31784 Y30.90238
X28.32765 Y30.90239
X28.3282 Y30.10877
X28.30386 Y30.10875
X28.25484 Y30.1097
X28.17926 Y30.11225
X28.13153 Y30.11466
G03 X28. Y30.11875 I-0.13153 J-2.11466
G1 X2.
G03 X-0.11875 Y28. I0. J-2.11875
G1 Y2.
G03 X2. Y-0.11875 I2.11875 J0.
G1 X68.
G03 X70.11875 Y2. I0. J2.11875
G1 Y28.
G03 X68. Y30.11875 I-2.11875 J0.
G1 X42.84474
X28.3282 Y30.10877
X28.32875 Y29.31518
X42.84501 Y29.325
X68.
G02 X69.325 Y28. I0. J-1.325
G1 Y2.
G02 X68. Y0.675 I-1.325 J0.
G1 X2.
G02 X0.675 Y2. I0. J1.325
G1 Y28.
G02 X2. Y29.325 I1.325 J0.
G1 X28.
G02 X28.08226 Y29.32244 I0. J-1.325
G1 X28.13923 Y29.31951
X28.22805 Y29.3164
X28.28849 Y29.31515
X28.32875 Y29.31518
X28.32928 Y28.52161
X28.27205 Y28.52157
X28.20028 Y28.52314
X28.09844 Y28.52681
X28.03298 Y28.53022
G03 X28. Y28.53125 I-0.03298 J-0.53022
G1 X2.
G03 X1.46875 Y28. I0. J-0.53125
G1 Y2.
G03 X2. Y1.46875 I0.53125 J0.
G1 X68.
G03 X68.53125 Y2. I0. J0.53125
G1 Y28.
G03 X68. Y28.53125 I-0.53125 J0.
G1 X42.84528
X28.32928 Y28.52161
X28.32981 Y27.72806
X42.84555 Y27.7375
X67.7375
Y2.2625
X2.2625
Y27.7375
X27.99265
X28.05711 Y27.73414
X28.17167 Y27.7299
X28.25471 Y27.72801
X28.32981 Y27.72806
X28.33033 Y26.93453
X28.23661 Y26.93447
X28.14236 Y26.9367
X28.01578 Y26.94147
X27.97197 Y26.94375
X3.05625
Y3.05625
X66.94375
Y26.94375
X42.8458
X28.33033 Y26.93453
X28.33083 Y26.14101
X42.84606 Y26.15
X66.15
Y3.85
X3.85
Y26.15
X27.95129
X27.97445 Y26.14879
X28.11247 Y26.14351
X28.21784 Y26.14094
X28.33083 Y26.14101
X28.33132 Y25.3475
X28.19848 Y25.34743
X28.08212 Y25.35034
X27.93061 Y25.35625
X4.64375
Y4.64375
X65.35625
Y25.35625
X42.8463
X28.33132 Y25.3475
X28.3318 Y24.55375
X42.84654 Y24.5625
X64.5625
Y5.4375
X5.4375
Y24.5625
X27.91513
X28.05118 Y24.55719
X28.19896 Y24.55367
X28.3318 Y24.55375
X28.33228 Y23.76024
X28.18007 Y23.76015
X28.02024 Y23.76405
X27.89966 Y23.76875
X6.23125
Y6.23125
X63.76875
Y23.76875
X42.84678
X28.33228 Y23.76024
X28.33274 Y22.96673
X42.84701 Y22.975
X62.975
Y7.025
X7.025
Y22.975
X27.88418
X27.9893 Y22.9709
X28.16072 Y22.96664
X28.33274 Y22.96673
X28.3332 Y22.17298
X28.16118 Y22.17289
X27.95836 Y22.17775
X27.86871 Y22.18125
X7.81875
Y7.81875
X62.18125
Y22.18125
X42.84724
X28.3332 Y22.17298
X28.33365 Y21.37947
X42.84746 Y21.3875
X61.3875
Y8.6125
X8.6125
Y21.3875
X27.85323
X27.92743 Y21.38461
X28.14214 Y21.37936
X28.33365 Y21.37947
X28.33409 Y20.58596
X28.12276 Y20.58585
X27.89649 Y20.59146
X27.83776 Y20.59375
X9.40625
Y9.40625
X60.59375
Y20.59375
X42.84768
X28.33409 Y20.58596
X28.33451 Y19.79221
X42.8479 Y19.8
X59.8
Y10.2
X10.2
Y19.8
X27.82228
X27.86555 Y19.79831
X28.12319 Y19.7921
X28.33451 Y19.79221
X28.33494 Y18.9987
X28.10406 Y18.99858
X27.83461 Y19.00517
X27.80681 Y19.00625
X10.99375
Y10.99375
X59.00625
Y19.00625
X42.84811
X28.33494 Y18.9987
X28.33535 Y18.20519
X42.84832 Y18.2125
X58.2125
Y11.7875
X11.7875
Y18.2125
G02 X28.33535 Y18.20519 I8.00192 J-616.14693
G1 X28.33575 Y17.41144
G02 X12.58125 Y17.41875 I-4.16026 J8015.99328
G1 Y12.58125
X57.41875
Y17.41875
X42.84852
X28.33575 Y17.41144
X28.33615 Y16.61794
X42.84872 Y16.625
X56.625
Y13.375
X13.375
Y16.625
G02 X28.33615 Y16.61794 I7.19829 J-598.00594
G1 X28.33654 Y15.82443
G02 X14.16875 Y15.83125 I-3.57279 J7293.61652
G1 Y14.16875
X55.83125
Y15.83125
X42.84891
X28.33654 Y15.82443
X28.33691 Y15.03092
X42.8491 Y15.0375
X55.0375
Y14.9625
X14.9625
Y15.0375
G02 X28.33691 Y15.03092 I6.39483 J-594.39455
X34.68979 Y8.6838 I0.00288 J-6.35 F793.5
G1 X34.69267 Y2.3338
G0 Z11.5875
X35.53116 Y33.28861
G1 Z8.52 F132.2
X28.32864 Y33.28354 Z7.25 F396.7
G03 X28. Y33.29375 I-0.32864 J-5.28354 F529.
G1 X2.
G03 X-3.29375 Y28. I0. J-5.29375
G1 Y2.
G03 X2. Y-3.29375 I5.29375 J0.
G1 X68.
G03 X73.29375 Y2. I0. J5.29375
G1 Y28.
G03 X68. Y33.29375 I-5.29375 J0.
G1 X42.84363
X28.32864 Y33.28354
X28.32919 Y32.48979
X42.84391 Y32.5
X68.
G02 X72.5 Y28. I0. J-4.5
G1 Y2.
G02 X68. Y-2.5 I-4.5 J0.
G1 X2.
G02 X-2.5 Y2. I0. J4.5
G1 Y28.
G02 X2. Y32.5 I4.5 J0.
G1 X28.
G02 X28.27936 Y32.49132 I0. J-4.5
G1 X28.32919 Y32.48979
X28.32975 Y31.69604
X28.30482 Y31.69641
X28.25499 Y31.69794
X28.23008 Y31.6991
G03 X28. Y31.70625 I-0.23008 J-3.6991
G1 X2.
G03 X-1.70625 Y28. I0. J-3.70625
G1 Y2.
G03 X2. Y-1.70625 I3.70625 J0.
G1 X68.
G03 X71.70625 Y2. I0. J3.70625
G1 Y28.
G03 X68. Y31.70625 I-3.70625 J0.
G1 X42.84418
X28.32975 Y31.69604
X28.32765 Y30.90239
X42.84446 Y30.9125
X68.
G02 X70.9125 Y28. I0. J-2.9125
G1 Y2.
G02 X68. Y-0.9125 I-2.9125 J0.
G1 X2.
G02 X-0.9125 Y2. I0. J2.9125
G1 Y28.
G02 X2. Y30.9125 I2.9125 J0.
G1 X28.
G02 X28.18081 Y30.90688 I0. J-2.9125
G1 X28.21816 Y30.90505
X28.28045 Y30.90304
X28.31784 Y30.90238
X28.32765 Y30.90239
X28.3282 Y30.10877
X28.30386 Y30.10875
X28.25484 Y30.1097
X28.17926 Y30.11225
X28.13153 Y30.11466
G03 X28. Y30.11875 I-0.13153 J-2.11466
G1 X2.
G03 X-0.11875 Y28. I0. J-2.11875
G1 Y2.
G03 X2. Y-0.11875 I2.11875 J0.
G1 X68.
G03 X70.11875 Y2. I0. J2.11875
G1 Y28.
G03 X68. Y30.11875 I-2.11875 J0.
G1 X42.84474
X28.3282 Y30.10877
X28.32875 Y29.31518
X42.84501 Y29.325
X68.
G02 X69.325 Y28. I0. J-1.325
G1 Y2.
G02 X68. Y0.675 I-1.325 J0.
G1 X2.
G02 X0.675 Y2. I0. J1.325
G1 Y28.
G02 X2. Y29.325 I1.325 J0.
G1 X28.
G02 X28.08226 Y29.32244 I0. J-1.325
G1 X28.13923 Y29.31951
X28.22805 Y29.3164
X28.28849 Y29.31515
X28.32875 Y29.31518
X28.32928 Y28.52161
X28.27205 Y28.52157
X28.20028 Y28.52314
X28.09844 Y28.52681
X28.03298 Y28.53022
G03 X28. Y28.53125 I-0.03298 J-0.53022
G1 X2.
G03 X1.46875 Y28. I0. J-0.53125
G1 Y2.
G03 X2. Y1.46875 I0.53125 J0.
G1 X68.
G03 X68.53125 Y2. I0. J0.53125
G1 Y28.
G03 X68. Y28.53125 I-0.53125 J0.
G1 X42.84528
X28.32928 Y28.52161
X28.32981 Y27.72806
X42.84555 Y27.7375
X67.7375
Y2.2625
X2.2625
Y27.7375
X27.99265
X28.05711 Y27.73414
X28.17167 Y27.7299
X28.25471 Y27.72801
X28.32981 Y27.72806
X28.33033 Y26.93453
X28.23661 Y26.93447
X28.14236 Y26.9367
X28.01578 Y26.94147
X27.97197 Y26.94375
X3.05625
Y3.05625
X66.94375
Y26.94375
X42.8458
X28.33033 Y26.93453
X28.33083 Y26.14101
X42.84606 Y26.15
X66.15
Y3.85
X3.85
Y26.15
X27.95129
X27.97445 Y26.14879
X28.11247 Y26.14351
X28.21784 Y26.14094
X28.33083 Y26.14101
X28.33132 Y25.3475
X28.19848 Y25.34743
X28.08212 Y25.35034
X27.93061 Y25.35625
X4.64375
Y4.64375
X65.35625
Y25.35625
X42.8463
X28.33132 Y25.3475
X28.3318 Y24.55375
X42.84654 Y24.5625
X64.5625
Y5.4375
X5.4375
Y24.5625
X27.91513
X28.05118 Y24.55719
X28.19896 Y24.55367
X28.3318 Y24.55375
X28.33228 Y23.76024
X28.18007 Y23.76015
X28.02024 Y23.76405
X27.89966 Y23.76875
X6.23125
Y6.23125
X63.76875
Y23.76875
X42.84678
X28.33228 Y23.76024
X28.33274 Y22.96673
X42.84701 Y22.975
X62.975
Y7.025
X7.025
Y22.975
X27.88418
X27.9893 Y22.9709
X28.16072 Y22.96664
X28.33274 Y22.96673
X28.3332 Y22.17298
X28.16118 Y22.17289
X27.95836 Y22.17775
X27.86871 Y22.18125
X7.81875
Y7.81875
X62.18125
Y22.18125
X42.84724
X28.3332 Y22.17298
X28.33365 Y21.37947
X42.84746 Y21.3875
X61.3875
Y8.6125
X8.6125
Y21.3875
X27.85323
X27.92743 Y21.38461
X28.14214 Y21.37936
X28.33365 Y21.37947
X28.33409 Y20.58596
X28.12276 Y20.58585
X27.89649 Y20.59146
X27.83776 Y20.59375
X9.40625
Y9.40625
X60.59375
Y20.59375
X42.84768
X28.33409 Y20.58596
X28.33451 Y19.79221
X42.8479 Y19.8
X59.8
Y10.2
X10.2
Y19.8
X27.82228
X27.86555 Y19.79831
X28.12319 Y19.7921
X28.33451 Y19.79221
X28.33494 Y18.9987
X28.10406 Y18.99858
X27.83461 Y19.00517
X27.80681 Y19.00625
X10.99375
Y10.99375
X59.00625
Y19.00625
X42.84811
X28.33494 Y18.9987
X28.33535 Y18.20519
X42.84832 Y18.2125
X58.2125
Y11.7875
X11.7875
Y18.2125
G02 X28.33535 Y18.20519 I8.00192 J-616.14693
G1 X28.33575 Y17.41144
G02 X12.58125 Y17.41875 I-4.16026 J8015.99328
G1 Y12.58125
X57.41875
Y17.41875
X42.84852
X28.33575 Y17.41144
X28.33615 Y16.61794
X42.84872 Y16.625
X56.625
Y13.375
X13.375
Y16.625
G02 X28.33615 Y16.61794 I7.19829 J-598.00594
G1 X28.33654 Y15.82443
G02 X14.16875 Y15.83125 I-3.57279 J7293.61652
G1 Y14.16875
X55.83125
Y15.83125
X42.84891
X28.33654 Y15.82443
X28.33691 Y15.03092
X42.8491 Y15.0375
X55.0375
Y14.9625
X14.9625
Y15.0375
G02 X28.33691 Y15.03092 I6.39483 J-594.39455
X34.68979 Y8.6838 I0.00288 J-6.35 F793.5
G1 X34.69267 Y2.3338
G0 Z11.5875
X35.53116 Y33.28861
G1 Z8.27 F132.2
X28.32864 Y33.28354 Z7. F396.7
G03 X28. Y33.29375 I-0.32864 J-5.28354 F529.
G1 X2.
G03 X-3.29375 Y28. I0. J-5.29375
G1 Y2.
G03 X2. Y-3.29375 I5.29375 J0.
G1 X68.
G03 X73.29375 Y2. I0. J5.29375
G1 Y28.
G03 X68. Y33.29375 I-5.29375 J0.
G1 X42.84363
X28.32864 Y33.28354
X28.32919 Y32.48979
X42.84391 Y32.5
X68.
G02 X72.5 Y28. I0. J-4.5
G1 Y2.
G02 X68. Y-2.5 I-4.5 J0.
G1 X2.
G02 X-2.5 Y2. I0. J4.5
G1 Y28.
G02 X2. Y32.5 I4.5 J0.
G1 X28.
G02 X28.27936 Y32.49132 I0. J-4.5
G1 X28.32919 Y32.48979
X28.32975 Y31.69604
X28.30482 Y31.69641
X28.25499 Y31.69794
X28.23008 Y31.6991
G03 X28. Y31.70625 I-0.23008 J-3.6991
G1 X2.
G03 X-1.70625 Y28. I0. J-3.70625
G1 Y2.
G03 X2. Y-1.70625 I3.70625 J0.
G1 X68.
G03 X71.70625 Y2. I0. J3.70625
G1 Y28.
G03 X68. Y31.70625 I-3.70625 J0.
G1 X42.84418
X28.32975 Y31.69604
X28.32765 Y30.90239
X42.84446 Y30.9125
X68.
G02 X70.9125 Y28. I0. J-2.9125
G1 Y2.
G02 X68. Y-0.9125 I-2.9125 J0.
G1 X2.
G02 X-0.9125 Y2. I0. J2.9125
G1 Y28.
G02 X2. Y30.9125 I2.9125 J0.
G1 X28.
G02 X28.18081 Y30.90688 I0. J-2.9125
G1 X28.21816 Y30.90505
X28.28045 Y30.90304
X28.31784 Y30.90238
X28.32765 Y30.90239
X28.3282 Y30.10877
X28.30386 Y30.10875
X28.25484 Y30.1097
X28.17926 Y30.11225
X28.13153 Y30.11466
G03 X28. Y30.11875 I-0.13153 J-2.11466
G1 X2.
G03 X-0.11875 Y28. I0. J-2.11875
G1 Y2.
G03 X2. Y-0.11875 I2.11875 J0.
G1 X68.
G03 X70.11875 Y2. I0. J2.11875
G1 Y28.
G03 X68. Y30.11875 I-2.11875 J0.
G1 X42.84474
X28.3282 Y30.10877
X28.32875 Y29.31518
X42.84501 Y29.325
X68.
G02 X69.325 Y28. I0. J-1.325
G1 Y2.
G02 X68. Y0.675 I-1.325 J0.
G1 X2.
G02 X0.675 Y2. I0. J1.325
G1 Y28.
G02 X2. Y29.325 I1.325 J0.
G1 X28.
G02 X28.08226 Y29.32244 I0. J-1.325
G1 X28.13923 Y29.31951
X28.22805 Y29.3164
X28.28849 Y29.31515
X28.32875 Y29.31518
X28.32928 Y28.52161
X28.27205 Y28.52157
X28.20028 Y28.52314
X28.09844 Y28.52681
X28.03298 Y28.53022
G03 X28. Y28.53125 I-0.03298 J-0.53022
G1 X2.
G03 X1.46875 Y28. I0. J-0.53125
G1 Y2.
G03 X2. Y1.46875 I0.53125 J0.
G1 X68.
G03 X68.53125 Y2. I0. J0.53125
G1 Y28.
G03 X68. Y28.53125 I-0.53125 J0.
G1 X42.84528
X28.32928 Y28.52161
X28.32981 Y27.72806
X42.84555 Y27.7375
X67.7375
Y2.2625
X2.2625
Y27.7375
X27.99265
X28.05711 Y27.73414
X28.17167 Y27.7299
X28.25471 Y27.72801
X28.32981 Y27.72806
X28.33033 Y26.93453
X28.23661 Y26.93447
X28.14236 Y26.9367
X28.01578 Y26.94147
X27.97197 Y26.94375
X3.05625
Y3.05625
X66.94375
Y26.94375
X42.8458
X28.33033 Y26.93453
X28.33083 Y26.14101
X42.84606 Y26.15
X66.15
Y3.85
X3.85
Y26.15
X27.95129
X27.97445 Y26.14879
X28.11247 Y26.14351
X28.21784 Y26.14094
X28.33083 Y26.14101
X28.33132 Y25.3475
X28.19848 Y25.34743
X28.08212 Y25.35034
X27.93061 Y25.35625
X4.64375
Y4.64375
X65.35625
Y25.35625
X42.8463
X28.33132 Y25.3475
X28.3318 Y24.55375
X42.84654 Y24.5625
X64.5625
Y5.4375
X5.4375
Y24.5625
X27.91513
X28.05118 Y24.55719
X28.19896 Y24.55367
X28.3318 Y24.55375
X28.33228 Y23.76024
X28.18007 Y23.76015
X28.02024 Y23.76405
X27.89966 Y23.76875
X6.23125
Y6.23125
X63.76875
Y23.76875
X42.84678
X28.33228 Y23.76024
X28.33274 Y22.96673
X42.84701 Y22.975
X62.975
Y7.025
X7.025
Y22.975
X27.88418
X27.9893 Y22.9709
X28.16072 Y22.96664
X28.33274 Y22.96673
X28.3332 Y22.17298
X28.16118 Y22.17289
X27.95836 Y22.17775
X27.86871 Y22.18125
X7.81875
Y7.81875
X62.18125
Y22.18125
X42.84724
X28.3332 Y22.17298
X28.33365 Y21.37947
X42.84746 Y21.3875
X61.3875
Y8.6125
X8.6125
Y21.3875
X27.85323
X27.92743 Y21.38461
X28.14214 Y21.37936
X28.33365 Y21.37947
X28.33409 Y20.58596
X28.12276 Y20.58585
X27.89649 Y20.59146
X27.83776 Y20.59375
X9.40625
Y9.40625
X60.59375
Y20.59375
X42.84768
X28.33409 Y20.58596
X28.33451 Y19.79221
X42.8479 Y19.8
X59.8
Y10.2
X10.2
Y19.8
X27.82228
X27.86555 Y19.79831
X28.12319 Y19.7921
X28.33451 Y19.79221
X28.33494 Y18.9987
X28.10406 Y18.99858
X27.83461 Y19.00517
X27.80681 Y19.00625
X10.99375
Y10.99375
X59.00625
Y19.00625
X42.84811
X28.33494 Y18.9987
X28.33535 Y18.20519
X42.84832 Y18.2125
X58.2125
Y11.7875
X11.7875
Y18.2125
G02 X28.33535 Y18.20519 I8.00192 J-616.14693
G1 X28.33575 Y17.41144
G02 X12.58125 Y17.41875 I-4.16026 J8015.99328
G1 Y12.58125
X57.41875
Y17.41875
X42.84852
X28.33575 Y17.41144
X28.33615 Y16.61794
X42.84872 Y16.625
X56.625
Y13.375
X13.375
Y16.625
G02 X28.33615 Y16.61794 I7.19829 J-598.00594
G1 X28.33654 Y15.82443
G02 X14.16875 Y15.83125 I-3.57279 J7293.61652
G1 Y14.16875
X55.83125
Y15.83125
X42.84891
X28.33654 Y15.82443
X28.33691 Y15.03092
X42.8491 Y15.0375
X55.0375
Y14.9625
X14.9625
Y15.0375
G02 X28.33691 Y15.03092 I6.39483 J-594.39455
X34.68979 Y8.6838 I0.00288 J-6.35 F793.5
G1 X34.69267 Y2.3338
G0 Z11.5875
(2 1/2 Axis Facing)
(SlotDrill 1/8in 3.175mm Carbide Aluminium Cut)
X35.09141 Y-2.97856
G1 Z7.795 F137.7
X35.10064 Y-2.98878 Z7.79257 F413.2
X35.1259 Y-3.01668 Z7.78593
X35.1512 Y-3.04455 Z7.7793
X35.17654 Y-3.07238 Z7.77266
X35.20192 Y-3.10018 Z7.76602
X35.22733 Y-3.12794 Z7.75939
X35.25279 Y-3.15566 Z7.75275
X35.27828 Y-3.18335 Z7.74612
X35.30381 Y-3.21101 Z7.73948
X35.32938 Y-3.23862 Z7.73284
X35.35499 Y-3.26621 Z7.72621
X35.38064 Y-3.29375 Z7.71957
X35.35499 Y-3.26621 Z7.71293
X35.32938 Y-3.23862 Z7.7063
X35.30381 Y-3.21101 Z7.69966
X35.27828 Y-3.18335 Z7.69302
X35.25279 Y-3.15566 Z7.68639
X35.22733 Y-3.12794 Z7.67975
X35.20192 Y-3.10018 Z7.67311
X35.17654 Y-3.07238 Z7.66648
X35.1512 Y-3.04455 Z7.65984
X35.1259 Y-3.01668 Z7.6532
X35.10064 Y-2.98878 Z7.64657
X35.07542 Y-2.96084 Z7.63993
X35.05024 Y-2.93287 Z7.63329
X35.0251 Y-2.90486 Z7.62666
X35. Y-2.87682 Z7.62002
X34.9749 Y-2.90486 Z7.61339
X34.94976 Y-2.93287 Z7.60675
X34.92458 Y-2.96084 Z7.60011
X34.89936 Y-2.98878 Z7.59348
X34.8741 Y-3.01668 Z7.58684
X34.8488 Y-3.04455 Z7.5802
X34.82346 Y-3.07238 Z7.57357
X34.79808 Y-3.10018 Z7.56693
X34.77267 Y-3.12794 Z7.56029
X34.74721 Y-3.15566 Z7.55366
X34.72172 Y-3.18335 Z7.54702
X34.69619 Y-3.21101 Z7.54038
X34.67062 Y-3.23862 Z7.53375
X34.64501 Y-3.26621 Z7.52711
X34.61936 Y-3.29375 Z7.52047
X34.64501 Y-3.26621 Z7.51384
X34.67062 Y-3.23862 Z7.5072
X34.69619 Y-3.21101 Z7.50057
X34.72172 Y-3.18335 Z7.49393
X34.74721 Y-3.15566 Z7.48729
X34.77267 Y-3.12794 Z7.48066
X34.79808 Y-3.10018 Z7.47402
X34.82346 Y-3.07238 Z7.46738
X34.8488 Y-3.04455 Z7.46075
X34.8741 Y-3.01668 Z7.45411
X34.89936 Y-2.98878 Z7.44747
X34.92458 Y-2.96084 Z7.44084
X34.94976 Y-2.93287 Z7.4342
X34.9749 Y-2.90486 Z7.42756
X35. Y-2.87682 Z7.42093
X35.0251 Y-2.90486 Z7.41429
X35.05024 Y-2.93287 Z7.40765
X35.07542 Y-2.96084 Z7.40102
X35.10064 Y-2.98878 Z7.39438
X35.1259 Y-3.01668 Z7.38774
X35.1512 Y-3.04455 Z7.38111
X35.17654 Y-3.07238 Z7.37447
X35.20192 Y-3.10018 Z7.36783
X35.22733 Y-3.12794 Z7.3612
X35.25279 Y-3.15566 Z7.35456
X35.27828 Y-3.18335 Z7.34793
X35.30381 Y-3.21101 Z7.34129
X35.32938 Y-3.23862 Z7.33465
X35.35499 Y-3.26621 Z7.32802
X35.38064 Y-3.29375 Z7.32138
X35.35499 Y-3.26621 Z7.31474
X35.32938 Y-3.23862 Z7.30811
X35.30381 Y-3.21101 Z7.30147
X35.27828 Y-3.18335 Z7.29483
X35.25279 Y-3.15566 Z7.2882
X35.22733 Y-3.12794 Z7.28156
X35.20192 Y-3.10018 Z7.27492
X35.17654 Y-3.07238 Z7.26829
X35.1512 Y-3.04455 Z7.26165
X35.1259 Y-3.01668 Z7.25502
X35.10064 Y-2.98878 Z7.24838
X35.07542 Y-2.96084 Z7.24174
X35.05024 Y-2.93287 Z7.2351
X35.0251 Y-2.90486 Z7.22847
X35. Y-2.87682 Z7.22183
X34.9749 Y-2.90486 Z7.2152
X34.94976 Y-2.93287 Z7.20856
X34.92458 Y-2.96084 Z7.20192
X34.89936 Y-2.98878 Z7.19529
X34.8741 Y-3.01668 Z7.18865
X34.8488 Y-3.04455 Z7.18201
X34.82346 Y-3.07238 Z7.17538
X34.79808 Y-3.10018 Z7.16874
X34.77267 Y-3.12794 Z7.1621
X34.74721 Y-3.15566 Z7.15547
X34.72172 Y-3.18335 Z7.14883
X34.69619 Y-3.21101 Z7.14219
X34.67062 Y-3.23862 Z7.13556
X34.64501 Y-3.26621 Z7.12892
X34.61936 Y-3.29375 Z7.12228
X34.64501 Y-3.26621 Z7.11565
X34.67062 Y-3.23862 Z7.10901
X34.69619 Y-3.21101 Z7.10238
X34.72172 Y-3.18335 Z7.09574
X34.74721 Y-3.15566 Z7.0891
X34.77267 Y-3.12794 Z7.08247
X34.79808 Y-3.10018 Z7.07583
X34.82346 Y-3.07238 Z7.06919
X34.8488 Y-3.04455 Z7.06256
X34.8741 Y-3.01668 Z7.05592
X34.89936 Y-2.98878 Z7.04928
X34.92458 Y-2.96084 Z7.04265
X34.94976 Y-2.93287 Z7.03601
X34.9749 Y-2.90486 Z7.02937
X35. Y-2.87682 Z7.02274
X35.0251 Y-2.90486 Z7.0161
X35.05024 Y-2.93287 Z7.00946
X35.07542 Y-2.96084 Z7.00283
X35.10064 Y-2.98878 Z6.99619
X35.1259 Y-3.01668 Z6.98955
X35.1512 Y-3.04455 Z6.98292
X35.17654 Y-3.07238 Z6.97628
X35.20192 Y-3.10018 Z6.96965
X35.22733 Y-3.12794 Z6.96301
X35.25279 Y-3.15566 Z6.95637
X35.27828 Y-3.18335 Z6.94974
X35.30381 Y-3.21101 Z6.9431
X35.32938 Y-3.23862 Z6.93646
X35.35499 Y-3.26621 Z6.92983
X35.38064 Y-3.29375 Z6.92319
X35.35499 Y-3.26621 Z6.91655
X35.32938 Y-3.23862 Z6.90992
X35.30381 Y-3.21101 Z6.90328
X35.27828 Y-3.18335 Z6.89664
X35.25279 Y-3.15566 Z6.89001
X35.22733 Y-3.12794 Z6.88337
X35.20192 Y-3.10018 Z6.87673
X35.17654 Y-3.07238 Z6.8701
X35.1512 Y-3.04455 Z6.86346
X35.1259 Y-3.01668 Z6.85682
X35.10064 Y-2.98878 Z6.85019
X35.07542 Y-2.96084 Z6.84355
X35.05024 Y-2.93287 Z6.83691
X35.0251 Y-2.90486 Z6.83028
X35. Y-2.87682 Z6.82364
X34.9749 Y-2.90486 Z6.81701
X34.94976 Y-2.93287 Z6.81037
X34.92458 Y-2.96084 Z6.80373
X34.89936 Y-2.98878 Z6.7971
X34.8741 Y-3.01668 Z6.79046
X34.8488 Y-3.04455 Z6.78382
X34.82346 Y-3.07238 Z6.77719
X34.79808 Y-3.10018 Z6.77055
X34.77267 Y-3.12794 Z6.76391
X34.74721 Y-3.15566 Z6.75728
X34.72172 Y-3.18335 Z6.75064
X34.69619 Y-3.21101 Z6.744
X34.67062 Y-3.23862 Z6.73737
X34.64501 Y-3.26621 Z6.73073
X34.61936 Y-3.29375 Z6.72409
X34.64501 Y-3.26621 Z6.71746
X34.67062 Y-3.23862 Z6.71082
X34.69619 Y-3.21101 Z6.70418
X34.72172 Y-3.18335 Z6.69755
X34.74721 Y-3.15566 Z6.69091
X34.77267 Y-3.12794 Z6.68428
X34.79808 Y-3.10018 Z6.67764
X34.82346 Y-3.07238 Z6.671
X34.8488 Y-3.04455 Z6.66437
X34.8741 Y-3.01668 Z6.65773
X34.89936 Y-2.98878 Z6.65109
X34.92458 Y-2.96084 Z6.64446
X34.94976 Y-2.93287 Z6.63782
X34.9749 Y-2.90486 Z6.63118
X35. Y-2.87682 Z6.62455
X35.0251 Y-2.90486 Z6.61791
X35.05024 Y-2.93287 Z6.61127
X35.07542 Y-2.96084 Z6.60464
X35.10064 Y-2.98878 Z6.598
X35.1259 Y-3.01668 Z6.59136
X35.1512 Y-3.04455 Z6.58473
X35.17654 Y-3.07238 Z6.57809
X35.20192 Y-3.10018 Z6.57145
X35.22733 Y-3.12794 Z6.56482
X35.25279 Y-3.15566 Z6.55818
X35.27828 Y-3.18335 Z6.55155
X35.30381 Y-3.21101 Z6.54491
X35.32938 Y-3.23862 Z6.53827
X35.35499 Y-3.26621 Z6.53164
X35.38064 Y-3.29375 Z6.525
G02 X35. Y-2.87682 I19.61936 J18.29375 F551.
X34.61936 Y-3.29375 I-20. J17.87682
G1 X33.51931
G03 X35. Y-1.66211 I-18.51931 J18.29375
X36.48069 Y-3.29375 I20. J16.66211
G1 X37.61408
G02 X35. Y-0.39258 I17.38592 J18.29375
X32.38592 Y-3.29375 I-20. J15.39258
G1 X31.21221
G03 X35. Y0.94664 I-16.21221 J18.29375
X38.7878 Y-3.29375 I20. J14.05336
G1 X40.0113
G02 X35. Y2.3777 I14.9887 J18.29375
X29.9887 Y-3.29375 I-20. J12.6223
G1 X28.70208
G03 X35. Y3.93618 I-13.70208 J18.29375
X41.29792 Y-3.29375 I20. J11.06382
G1 X42.66742
G02 X35. Y5.68582 I12.33258 J18.29375
X27.33258 Y-3.29375 I-20. J9.31418
G1 X25.84889
G03 X35. Y7.764 I-10.84889 J18.29375
X44.15111 Y-3.29375 I20. J7.236
G1 X65.84889
G0 Z11.5875
X34.97438 Y32.90543
G1 Z7.795 F137.7
X34.95046 Y32.93208 Z7.78868 F413.2
X34.92563 Y32.95967 Z7.78214
X34.90077 Y32.98722 Z7.7756
X34.87586 Y33.01473 Z7.76905
X34.85092 Y33.04221 Z7.76251
X34.82594 Y33.06965 Z7.75597
X34.80093 Y33.09707 Z7.74942
X34.77587 Y33.12444 Z7.74288
X34.75078 Y33.15178 Z7.73634
X34.72565 Y33.17909 Z7.72979
X34.70048 Y33.20636 Z7.72325
X34.67527 Y33.2336 Z7.7167
X34.65003 Y33.2608 Z7.71016
X34.62475 Y33.28797 Z7.70362
X34.65003 Y33.2608 Z7.69707
X34.67527 Y33.2336 Z7.69053
X34.70048 Y33.20636 Z7.68399
X34.72565 Y33.17909 Z7.67744
X34.75078 Y33.15178 Z7.6709
X34.77587 Y33.12444 Z7.66436
X34.80093 Y33.09707 Z7.65781
X34.82594 Y33.06965 Z7.65127
X34.85092 Y33.04221 Z7.64472
X34.87586 Y33.01473 Z7.63818
X34.90077 Y32.98722 Z7.63164
X34.92563 Y32.95967 Z7.62509
X34.95046 Y32.93208 Z7.61855
X34.97525 Y32.90447 Z7.61201
X35. Y32.87681 Z7.60546
X35.02478 Y32.9045 Z7.59891
X35.0496 Y32.93216 Z7.59236
X35.07446 Y32.95977 Z7.58581
X35.09936 Y32.98736 Z7.57926
X35.1243 Y33.01491 Z7.5727
X35.14927 Y33.04242 Z7.56615
X35.17428 Y33.0699 Z7.5596
X35.19933 Y33.09735 Z7.55305
X35.22442 Y33.12476 Z7.54649
X35.24955 Y33.15214 Z7.53994
X35.27471 Y33.17948 Z7.53339
X35.29991 Y33.20679 Z7.52684
X35.32515 Y33.23406 Z7.52029
X35.35043 Y33.26129 Z7.51373
X35.37574 Y33.2885 Z7.50718
X35.35043 Y33.26129 Z7.50063
X35.32515 Y33.23406 Z7.49408
X35.29991 Y33.20679 Z7.48752
X35.27471 Y33.17948 Z7.48097
X35.24955 Y33.15214 Z7.47442
X35.22442 Y33.12476 Z7.46787
X35.19933 Y33.09735 Z7.46132
X35.17428 Y33.0699 Z7.45476
X35.14927 Y33.04242 Z7.44821
X35.1243 Y33.01491 Z7.44166
X35.09936 Y32.98736 Z7.43511
X35.07446 Y32.95977 Z7.42856
X35.0496 Y32.93216 Z7.422
X35.02478 Y32.9045 Z7.41545
X35. Y32.87681 Z7.4089
X34.97525 Y32.90447 Z7.40236
X34.95046 Y32.93208 Z7.39581
X34.92563 Y32.95967 Z7.38927
X34.90077 Y32.98722 Z7.38272
X34.87586 Y33.01473 Z7.37618
X34.85092 Y33.04221 Z7.36964
X34.82594 Y33.06965 Z7.36309
X34.80093 Y33.09707 Z7.35655
X34.77587 Y33.12444 Z7.35001
X34.75078 Y33.15178 Z7.34346
X34.72565 Y33.17909 Z7.33692
X34.70048 Y33.20636 Z7.33038
X34.67527 Y33.2336 Z7.32383
X34.65003 Y33.2608 Z7.31729
X34.62475 Y33.28797 Z7.31074
X34.65003 Y33.2608 Z7.3042
X34.67527 Y33.2336 Z7.29766
X34.70048 Y33.20636 Z7.29111
X34.72565 Y33.17909 Z7.28457
X34.75078 Y33.15178 Z7.27803
X34.77587 Y33.12444 Z7.27148
X34.80093 Y33.09707 Z7.26494
X34.82594 Y33.06965 Z7.2584
X34.85092 Y33.04221 Z7.25185
X34.87586 Y33.01473 Z7.24531
X34.90077 Y32.98722 Z7.23876
X34.92563 Y32.95967 Z7.23222
X34.95046 Y32.93208 Z7.22568
X34.97525 Y32.90447 Z7.21913
X35. Y32.87681 Z7.21259
X35.02478 Y32.9045 Z7.20604
X35.0496 Y32.93216 Z7.19949
X35.07446 Y32.95977 Z7.19293
X35.09936 Y32.98736 Z7.18638
X35.1243 Y33.01491 Z7.17983
X35.14927 Y33.04242 Z7.17328
X35.17428 Y33.0699 Z7.16673
X35.19933 Y33.09735 Z7.16017
X35.22442 Y33.12476 Z7.15362
X35.24955 Y33.15214 Z7.14707
X35.27471 Y33.17948 Z7.14052
X35.29991 Y33.20679 Z7.13396
X35.32515 Y33.23406 Z7.12741
X35.35043 Y33.26129 Z7.12086
X35.37574 Y33.2885 Z7.11431
X35.35043 Y33.26129 Z7.10776
X35.32515 Y33.23406 Z7.1012
X35.29991 Y33.20679 Z7.09465
X35.27471 Y33.17948 Z7.0881
X35.24955 Y33.15214 Z7.08155
X35.22442 Y33.12476 Z7.075
X35.19933 Y33.09735 Z7.06844
X35.17428 Y33.0699 Z7.06189
X35.14927 Y33.04242 Z7.05534
X35.1243 Y33.01491 Z7.04879
X35.09936 Y32.98736 Z7.04224
X35.07446 Y32.95977 Z7.03568
X35.0496 Y32.93216 Z7.02913
X35.02478 Y32.9045 Z7.02258
X35. Y32.87681 Z7.01603
X34.97525 Y32.90447 Z7.00948
X34.95046 Y32.93208 Z7.00294
X34.92563 Y32.95967 Z6.9964
X34.90077 Y32.98722 Z6.98985
X34.87586 Y33.01473 Z6.98331
X34.85092 Y33.04221 Z6.97677
X34.82594 Y33.06965 Z6.97022
X34.80093 Y33.09707 Z6.96368
X34.77587 Y33.12444 Z6.95713
X34.75078 Y33.15178 Z6.95059
X34.72565 Y33.17909 Z6.94405
X34.70048 Y33.20636 Z6.9375
X34.67527 Y33.2336 Z6.93096
X34.65003 Y33.2608 Z6.92442
X34.62475 Y33.28797 Z6.91787
X34.65003 Y33.2608 Z6.91133
X34.67527 Y33.2336 Z6.90479
X34.70048 Y33.20636 Z6.89824
X34.72565 Y33.17909 Z6.8917
X34.75078 Y33.15178 Z6.88515
X34.77587 Y33.12444 Z6.87861
X34.80093 Y33.09707 Z6.87207
X34.82594 Y33.06965 Z6.86552
X34.85092 Y33.04221 Z6.85898
X34.87586 Y33.01473 Z6.85244
X34.90077 Y32.98722 Z6.84589
X34.92563 Y32.95967 Z6.83935
X34.95046 Y32.93208 Z6.8328
X34.97525 Y32.90447 Z6.82626
X35. Y32.87681 Z6.81972
X35.02478 Y32.9045 Z6.81317
X35.0496 Y32.93216 Z6.80661
X35.07446 Y32.95977 Z6.80006
X35.09936 Y32.98736 Z6.79351
X35.1243 Y33.01491 Z6.78696
X35.14927 Y33.04242 Z6.7804
X35.17428 Y33.0699 Z6.77385
X35.19933 Y33.09735 Z6.7673
X35.22442 Y33.12476 Z6.76075
X35.24955 Y33.15214 Z6.7542
X35.27471 Y33.17948 Z6.74765
X35.29991 Y33.20679 Z6.74109
X35.32515 Y33.23406 Z6.73454
X35.35043 Y33.26129 Z6.72799
X35.37574 Y33.2885 Z6.72144
X35.35043 Y33.26129 Z6.71488
X35.32515 Y33.23406 Z6.70833
X35.29991 Y33.20679 Z6.70178
X35.27471 Y33.17948 Z6.69523
X35.24955 Y33.15214 Z6.68868
X35.22442 Y33.12476 Z6.68212
X35.19933 Y33.09735 Z6.67557
X35.17428 Y33.0699 Z6.66902
X35.14927 Y33.04242 Z6.66247
X35.1243 Y33.01491 Z6.65591
X35.09936 Y32.98736 Z6.64936
X35.07446 Y32.95977 Z6.64281
X35.0496 Y32.93216 Z6.63626
X35.02478 Y32.9045 Z6.62971
X35. Y32.87681 Z6.62315
X34.97525 Y32.90447 Z6.61661
X34.95046 Y32.93208 Z6.61007
X34.92563 Y32.95967 Z6.60352
X34.90077 Y32.98722 Z6.59698
X34.87586 Y33.01473 Z6.59044
X34.85092 Y33.04221 Z6.58389
X34.82594 Y33.06965 Z6.57735
X34.80093 Y33.09707 Z6.5708
X34.77587 Y33.12444 Z6.56426
X34.75078 Y33.15178 Z6.55772
X34.72565 Y33.17909 Z6.55117
X34.70048 Y33.20636 Z6.54463
X34.67527 Y33.2336 Z6.53809
X34.65003 Y33.2608 Z6.53154
X34.62475 Y33.28797 Z6.525
G02 X35. Y32.87681 I-19.62475 J-18.28797 F551.
X35.37574 Y33.2885 I20. J-17.87681
G1 X36.47627 Y33.28927
G03 X35. Y31.66211 I18.52373 J-18.28927
X33.52577 Y33.28719 I-20. J-16.66211
G1 X32.39364 Y33.2864
G02 X35. Y30.39257 I-17.39364 J-18.2864
X37.61021 Y33.29007 I20. J-15.39257
G1 X38.78457 Y33.29089
G03 X35. Y29.05336 I16.21543 J-18.29089
X31.22142 Y33.28557 I-20. J-14.05336
G1 X29.99972 Y33.28471
G02 X35. Y27.6223 I-14.99972 J-18.28471
X40.00887 Y33.29176 I20. J-12.6223
G1 X41.29647 Y33.29266
G03 X35. Y26.06382 I13.70353 J-18.29266
X28.71533 Y33.28381 I-20. J-11.06382
G1 X28.32864 Y33.28354
G03 X28. Y33.29375 I-0.32864 J-5.28354
G1 X27.33258
G02 X35. Y24.31417 I-12.33258 J-18.29375
X42.66724 Y33.29363 I20. J-9.31417
G1 X42.84363 Y33.29375
X44.15111
G03 X35. Y22.236 I10.84889 J-18.29375
X25.84889 Y33.29375 I-20. J-7.236
G1 X4.15112
G0 Z11.5875
X71.47019 Y31.97216
G1 Z7.795 F137.7
X71.5164 Y31.92722 Z7.78364 F413.2
X71.57571 Y31.86915 Z7.769
X71.63481 Y31.81088 Z7.75436
X71.6937 Y31.75239 Z7.73973
X71.75239 Y31.6937 Z7.72509
X71.81088 Y31.63481 Z7.71046
X71.86915 Y31.57571 Z7.69582
X71.92722 Y31.5164 Z7.68119
X71.98508 Y31.45689 Z7.66655
X72.04274 Y31.39718 Z7.65192
X72.10018 Y31.33727 Z7.63728
X72.15741 Y31.27715 Z7.62265
X72.10018 Y31.33727 Z7.60801
X72.04274 Y31.39718 Z7.59338
X71.98508 Y31.45689 Z7.57874
X71.92722 Y31.5164 Z7.56411
X71.86915 Y31.57571 Z7.54947
X71.81088 Y31.63481 Z7.53483
X71.75239 Y31.6937 Z7.5202
X71.6937 Y31.75239 Z7.50556
X71.63481 Y31.81088 Z7.49093
X71.57571 Y31.86915 Z7.47629
X71.5164 Y31.92722 Z7.46166
X71.45689 Y31.98509 Z7.44702
X71.39718 Y32.04274 Z7.43239
X71.33727 Y32.10018 Z7.41775
X71.27715 Y32.15741 Z7.40312
X71.33727 Y32.10018 Z7.38848
X71.39718 Y32.04274 Z7.37385
X71.45689 Y31.98509 Z7.35921
X71.5164 Y31.92722 Z7.34458
X71.57571 Y31.86915 Z7.32994
X71.63481 Y31.81088 Z7.31531
X71.6937 Y31.75239 Z7.30067
X71.75239 Y31.6937 Z7.28603
X71.81088 Y31.63481 Z7.2714
X71.86915 Y31.57571 Z7.25676
X71.92722 Y31.5164 Z7.24213
X71.98508 Y31.45689 Z7.22749
X72.04274 Y31.39718 Z7.21286
X72.10018 Y31.33727 Z7.19822
X72.15741 Y31.27715 Z7.18359
X72.10018 Y31.33727 Z7.16895
X72.04274 Y31.39718 Z7.15432
X71.98508 Y31.45689 Z7.13968
X71.92722 Y31.5164 Z7.12505
X71.86915 Y31.57571 Z7.11041
X71.81088 Y31.63481 Z7.09578
X71.75239 Y31.6937 Z7.08114
X71.6937 Y31.75239 Z7.06651
X71.63481 Y31.81088 Z7.05187
X71.57571 Y31.86915 Z7.03723
X71.5164 Y31.92722 Z7.0226
X71.45689 Y31.98509 Z7.00796
X71.39718 Y32.04274 Z6.99333
X71.33727 Y32.10018 Z6.97869
X71.27715 Y32.15741 Z6.96406
X71.33727 Y32.10018 Z6.94942
X71.39718 Y32.04274 Z6.93479
X71.45689 Y31.98509 Z6.92015
X71.5164 Y31.92722 Z6.90552
X71.57571 Y31.86915 Z6.89088
X71.63481 Y31.81088 Z6.87625
X71.6937 Y31.75239 Z6.86161
X71.75239 Y31.6937 Z6.84698
X71.81088 Y31.63481 Z6.83234
X71.86915 Y31.57571 Z6.81771
X71.92722 Y31.5164 Z6.80307
X71.98508 Y31.45689 Z6.78843
X72.04274 Y31.39718 Z6.7738
X72.10018 Y31.33727 Z6.75917
X72.15741 Y31.27715 Z6.74453
X72.10018 Y31.33727 Z6.72989
X72.04274 Y31.39718 Z6.71526
X71.98508 Y31.45689 Z6.70062
X71.92722 Y31.5164 Z6.68599
X71.86915 Y31.57571 Z6.67135
X71.81088 Y31.63481 Z6.65672
X71.75239 Y31.6937 Z6.64208
X71.6937 Y31.75239 Z6.62745
X71.63481 Y31.81088 Z6.61281
X71.57571 Y31.86915 Z6.59818
X71.5164 Y31.92722 Z6.58354
X71.45689 Y31.98509 Z6.56891
X71.39718 Y32.04274 Z6.55427
X71.33727 Y32.10018 Z6.53963
X71.27715 Y32.15741 Z6.525
G02 X72.15741 Y31.27715 I-16.27715 J-17.15741 F551.
X73.23618 Y28.7786 I-4.15741 J-3.27715
G03 X68.7786 Y33.23618 I-18.23618 J-13.7786
X68. Y33.29375 I-0.7786 J-5.23618
G1 X67.33258
G02 X73.29375 Y27.33258 I-12.33258 J-18.29375
G1 Y25.84889
G03 X65.84889 Y33.29375 I-18.29375 J-10.84889
G0 Z11.5875
X71.97228 Y-1.47007
G1 Z7.795 F137.7
X71.92722 Y-1.51641 Z7.7836 F413.2
X71.86915 Y-1.57571 Z7.76897
X71.81088 Y-1.63481 Z7.75433
X71.75239 Y-1.69371 Z7.7397
X71.6937 Y-1.75239 Z7.72506
X71.63481 Y-1.81088 Z7.71043
X71.57571 Y-1.86915 Z7.69579
X71.51641 Y-1.92722 Z7.68116
X71.4569 Y-1.98508 Z7.66652
X71.39719 Y-2.04273 Z7.65189
X71.33728 Y-2.10017 Z7.63725
X71.27717 Y-2.1574 Z7.62262
X71.33728 Y-2.10017 Z7.60798
X71.39719 Y-2.04273 Z7.59335
X71.4569 Y-1.98508 Z7.57871
X71.51641 Y-1.92722 Z7.56408
X71.57571 Y-1.86915 Z7.54945
X71.63481 Y-1.81088 Z7.53481
X71.6937 Y-1.75239 Z7.52017
X71.75239 Y-1.69371 Z7.50554
X71.81088 Y-1.63481 Z7.4909
X71.86915 Y-1.57571 Z7.47627
X71.92722 Y-1.51641 Z7.46163
X71.98508 Y-1.4569 Z7.447
X72.04273 Y-1.39719 Z7.43236
X72.10017 Y-1.33728 Z7.41773
X72.1574 Y-1.27717 Z7.4031
X72.10017 Y-1.33728 Z7.38846
X72.04273 Y-1.39719 Z7.37383
X71.98508 Y-1.4569 Z7.35919
X71.92722 Y-1.51641 Z7.34456
X71.86915 Y-1.57571 Z7.32992
X71.81088 Y-1.63481 Z7.31529
X71.75239 Y-1.69371 Z7.30065
X71.6937 Y-1.75239 Z7.28602
X71.63481 Y-1.81088 Z7.27138
X71.57571 Y-1.86915 Z7.25675
X71.51641 Y-1.92722 Z7.24211
X71.4569 Y-1.98508 Z7.22748
X71.39719 Y-2.04273 Z7.21284
X71.33728 Y-2.10017 Z7.19821
X71.27717 Y-2.1574 Z7.18357
X71.33728 Y-2.10017 Z7.16894
X71.39719 Y-2.04273 Z7.1543
X71.4569 Y-1.98508 Z7.13967
X71.51641 Y-1.92722 Z7.12503
X71.57571 Y-1.86915 Z7.1104
X71.63481 Y-1.81088 Z7.09576
X71.6937 Y-1.75239 Z7.08113
X71.75239 Y-1.69371 Z7.06649
X71.81088 Y-1.63481 Z7.05186
X71.86915 Y-1.57571 Z7.03722
X71.92722 Y-1.51641 Z7.02259
X71.98508 Y-1.4569 Z7.00795
X72.04273 Y-1.39719 Z6.99332
X72.10017 Y-1.33728 Z6.97868
X72.1574 Y-1.27717 Z6.96405
X72.10017 Y-1.33728 Z6.94941
X72.04273 Y-1.39719 Z6.93478
X71.98508 Y-1.4569 Z6.92014
X71.92722 Y-1.51641 Z6.90551
X71.86915 Y-1.57571 Z6.89087
X71.81088 Y-1.63481 Z6.87624
X71.75239 Y-1.69371 Z6.8616
X71.6937 Y-1.75239 Z6.84697
X71.63481 Y-1.81088 Z6.83233
X71.57571 Y-1.86915 Z6.8177
X71.51641 Y-1.92722 Z6.80306
X71.4569 Y-1.98508 Z6.78843
X71.39719 Y-2.04273 Z6.77379
X71.33728 Y-2.10017 Z6.75916
X71.27717 Y-2.1574 Z6.74452
X71.33728 Y-2.10017 Z6.72989
X71.39719 Y-2.04273 Z6.71525
X71.4569 Y-1.98508 Z6.70062
X71.51641 Y-1.92722 Z6.68598
X71.57571 Y-1.86915 Z6.67135
X71.63481 Y-1.81088 Z6.65671
X71.6937 Y-1.75239 Z6.64208
X71.75239 Y-1.69371 Z6.62744
X71.81088 Y-1.63481 Z6.61281
X71.86915 Y-1.57571 Z6.59818
X71.92722 Y-1.51641 Z6.58354
X71.98508 Y-1.4569 Z6.5689
X72.04273 Y-1.39719 Z6.55427
X72.10017 Y-1.33728 Z6.53963
X72.1574 Y-1.27717 Z6.525
G02 X71.27717 Y-2.1574 I-17.1574 J16.27717 F551.
X68.7786 Y-3.23618 I-3.27717 J4.1574
G03 X73.23618 Y1.22139 I-13.7786 J18.23618
X73.29375 Y2. I-5.23618 J0.77861
G1 Y2.66742
G02 X67.33258 Y-3.29375 I-18.29375 J12.33258
G1 X65.84889
G03 X73.29375 Y4.15111 I-10.84889 J18.29375
G0 Z11.5875
X-1.47013 Y-1.97222
G1 Z7.795 F137.7
X-1.51641 Y-1.92722 Z7.78362 F413.2
X-1.57571 Y-1.86915 Z7.76898
X-1.63481 Y-1.81088 Z7.75435
X-1.69371 Y-1.75239 Z7.73971
X-1.75239 Y-1.6937 Z7.72508
X-1.81088 Y-1.63481 Z7.71044
X-1.86915 Y-1.57571 Z7.69581
X-1.92722 Y-1.5164 Z7.68117
X-1.98508 Y-1.4569 Z7.66654
X-2.04273 Y-1.39719 Z7.6519
X-2.10017 Y-1.33727 Z7.63727
X-2.1574 Y-1.27716 Z7.62263
X-2.10017 Y-1.33727 Z7.608
X-2.04273 Y-1.39719 Z7.59336
X-1.98508 Y-1.4569 Z7.57873
X-1.92722 Y-1.5164 Z7.56409
X-1.86915 Y-1.57571 Z7.54946
X-1.81088 Y-1.63481 Z7.53482
X-1.75239 Y-1.6937 Z7.52019
X-1.69371 Y-1.75239 Z7.50555
X-1.63481 Y-1.81088 Z7.49092
X-1.57571 Y-1.86915 Z7.47628
X-1.51641 Y-1.92722 Z7.46165
X-1.4569 Y-1.98508 Z7.44701
X-1.39719 Y-2.04273 Z7.43238
X-1.33727 Y-2.10017 Z7.41774
X-1.27716 Y-2.1574 Z7.40311
X-1.33727 Y-2.10017 Z7.38847
X-1.39719 Y-2.04273 Z7.37384
X-1.4569 Y-1.98508 Z7.3592
X-1.51641 Y-1.92722 Z7.34457
X-1.57571 Y-1.86915 Z7.32993
X-1.63481 Y-1.81088 Z7.3153
X-1.69371 Y-1.75239 Z7.30066
X-1.75239 Y-1.6937 Z7.28602
X-1.81088 Y-1.63481 Z7.27139
X-1.86915 Y-1.57571 Z7.25675
X-1.92722 Y-1.5164 Z7.24212
X-1.98508 Y-1.4569 Z7.22748
X-2.04273 Y-1.39719 Z7.21285
X-2.10017 Y-1.33727 Z7.19821
X-2.1574 Y-1.27716 Z7.18358
X-2.10017 Y-1.33727 Z7.16894
X-2.04273 Y-1.39719 Z7.15431
X-1.98508 Y-1.4569 Z7.13967
X-1.92722 Y-1.5164 Z7.12504
X-1.86915 Y-1.57571 Z7.1104
X-1.81088 Y-1.63481 Z7.09577
X-1.75239 Y-1.6937 Z7.08113
X-1.69371 Y-1.75239 Z7.0665
X-1.63481 Y-1.81088 Z7.05186
X-1.57571 Y-1.86915 Z7.03723
X-1.51641 Y-1.92722 Z7.02259
X-1.4569 Y-1.98508 Z7.00796
X-1.39719 Y-2.04273 Z6.99332
X-1.33727 Y-2.10017 Z6.97869
X-1.27716 Y-2.1574 Z6.96405
X-1.33727 Y-2.10017 Z6.94942
X-1.39719 Y-2.04273 Z6.93478
X-1.4569 Y-1.98508 Z6.92015
X-1.51641 Y-1.92722 Z6.90551
X-1.57571 Y-1.86915 Z6.89088
X-1.63481 Y-1.81088 Z6.87624
X-1.69371 Y-1.75239 Z6.86161
X-1.75239 Y-1.6937 Z6.84697
X-1.81088 Y-1.63481 Z6.83234
X-1.86915 Y-1.57571 Z6.8177
X-1.92722 Y-1.5164 Z6.80307
X-1.98508 Y-1.4569 Z6.78843
X-2.04273 Y-1.39719 Z6.7738
X-2.10017 Y-1.33727 Z6.75916
X-2.1574 Y-1.27716 Z6.74453
X-2.10017 Y-1.33727 Z6.72989
X-2.04273 Y-1.39719 Z6.71526
X-1.98508 Y-1.4569 Z6.70062
X-1.92722 Y-1.5164 Z6.68599
X-1.86915 Y-1.57571 Z6.67135
X-1.81088 Y-1.63481 Z6.65672
X-1.75239 Y-1.6937 Z6.64208
X-1.69371 Y-1.75239 Z6.62745
X-1.63481 Y-1.81088 Z6.61281
X-1.57571 Y-1.86915 Z6.59818
X-1.51641 Y-1.92722 Z6.58354
X-1.4569 Y-1.98508 Z6.5689
X-1.39719 Y-2.04273 Z6.55427
X-1.33727 Y-2.10017 Z6.53963
X-1.27716 Y-2.1574 Z6.525
G02 X-2.1574 Y-1.27716 I16.27716 J17.1574 F551.
X-3.23618 Y1.2214 I4.1574 J3.27716
G03 X1.2214 Y-3.23618 I18.23618 J13.7786
X2. Y-3.29375 I0.7786 J5.23618
G1 X2.66742
G02 X-3.29375 Y2.66742 I12.33258 J18.29375
G1 Y4.15111
G03 X4.15111 Y-3.29375 I18.29375 J10.84889
G0 Z11.5875
X-1.97197 Y31.47038
G1 Z7.795 F137.7
X-1.92723 Y31.51639 Z7.78368 F413.2
X-1.86916 Y31.5757 Z7.76905
X-1.81088 Y31.6348 Z7.75441
X-1.75239 Y31.6937 Z7.73978
X-1.6937 Y31.75239 Z7.72514
X-1.6348 Y31.81088 Z7.71051
X-1.5757 Y31.86916 Z7.69587
X-1.51639 Y31.92723 Z7.68123
X-1.45688 Y31.98509 Z7.6666
X-1.39717 Y32.04275 Z7.65196
X-1.33725 Y32.10019 Z7.63733
X-1.27713 Y32.15742 Z7.62269
X-1.33725 Y32.10019 Z7.60805
X-1.39717 Y32.04275 Z7.59342
X-1.45688 Y31.98509 Z7.57878
X-1.51639 Y31.92723 Z7.56415
X-1.5757 Y31.86916 Z7.54951
X-1.6348 Y31.81088 Z7.53488
X-1.6937 Y31.75239 Z7.52024
X-1.75239 Y31.6937 Z7.5056
X-1.81088 Y31.6348 Z7.49097
X-1.86916 Y31.5757 Z7.47633
X-1.92723 Y31.51639 Z7.46169
X-1.98509 Y31.45688 Z7.44706
X-2.04275 Y31.39717 Z7.43242
X-2.10019 Y31.33725 Z7.41779
X-2.15742 Y31.27713 Z7.40315
X-2.10019 Y31.33725 Z7.38852
X-2.04275 Y31.39717 Z7.37388
X-1.98509 Y31.45688 Z7.35924
X-1.92723 Y31.51639 Z7.34461
X-1.86916 Y31.5757 Z7.32997
X-1.81088 Y31.6348 Z7.31534
X-1.75239 Y31.6937 Z7.3007
X-1.6937 Y31.75239 Z7.28606
X-1.6348 Y31.81088 Z7.27143
X-1.5757 Y31.86916 Z7.25679
X-1.51639 Y31.92723 Z7.24216
X-1.45688 Y31.98509 Z7.22752
X-1.39717 Y32.04275 Z7.21289
X-1.33725 Y32.10019 Z7.19825
X-1.27713 Y32.15742 Z7.18361
X-1.33725 Y32.10019 Z7.16898
X-1.39717 Y32.04275 Z7.15434
X-1.45688 Y31.98509 Z7.13971
X-1.51639 Y31.92723 Z7.12507
X-1.5757 Y31.86916 Z7.11043
X-1.6348 Y31.81088 Z7.0958
X-1.6937 Y31.75239 Z7.08116
X-1.75239 Y31.6937 Z7.06653
X-1.81088 Y31.6348 Z7.05189
X-1.86916 Y31.5757 Z7.03725
X-1.92723 Y31.51639 Z7.02262
X-1.98509 Y31.45688 Z7.00798
X-2.04275 Y31.39717 Z6.99335
X-2.10019 Y31.33725 Z6.97871
X-2.15742 Y31.27713 Z6.96408
X-2.10019 Y31.33725 Z6.94944
X-2.04275 Y31.39717 Z6.9348
X-1.98509 Y31.45688 Z6.92017
X-1.92723 Y31.51639 Z6.90553
X-1.86916 Y31.5757 Z6.8909
X-1.81088 Y31.6348 Z6.87626
X-1.75239 Y31.6937 Z6.86163
X-1.6937 Y31.75239 Z6.84699
X-1.6348 Y31.81088 Z6.83235
X-1.5757 Y31.86916 Z6.81772
X-1.51639 Y31.92723 Z6.80308
X-1.45688 Y31.98509 Z6.78845
X-1.39717 Y32.04275 Z6.77381
X-1.33725 Y32.10019 Z6.75917
X-1.27713 Y32.15742 Z6.74454
X-1.33725 Y32.10019 Z6.7299
X-1.39717 Y32.04275 Z6.71527
X-1.45688 Y31.98509 Z6.70063
X-1.51639 Y31.92723 Z6.686
X-1.5757 Y31.86916 Z6.67136
X-1.6348 Y31.81088 Z6.65672
X-1.6937 Y31.75239 Z6.64209
X-1.75239 Y31.6937 Z6.62745
X-1.81088 Y31.6348 Z6.61282
X-1.86916 Y31.5757 Z6.59818
X-1.92723 Y31.51639 Z6.58354
X-1.98509 Y31.45688 Z6.56891
X-2.04275 Y31.39717 Z6.55427
X-2.10019 Y31.33725 Z6.53964
X-2.15742 Y31.27713 Z6.525
G02 X-1.27713 Y32.15742 I17.15742 J-16.27713 F551.
X1.2214 Y33.23618 I3.27713 J-4.15742
G03 X-3.23618 Y28.7786 I13.7786 J-18.23618
X-3.29375 Y28. I5.23618 J-0.7786
G1 Y27.33258
G02 X2.66742 Y33.29375 I18.29375 J-12.33258
G1 X4.15112
G03 X-3.29375 Y25.84888 I10.84888 J-18.29375
G0 Z11.5875
X69.93533 Y29.00406
G1 Z7.795 F137.7
X69.78319 Y29.16626 Z7.75579 F413.2
X69.47801 Y29.47801 Z7.67886
X69.16626 Y29.78319 Z7.60194
X68.84808 Y30.08165 Z7.52501
X68.52361 Y30.37327 Z7.44809
X68.193 Y30.65791 Z7.37117
X67.8564 Y30.93545 Z7.29424
X67.51397 Y31.20574 Z7.21732
X67.16585 Y31.46868 Z7.14039
X66.81221 Y31.72415 Z7.06347
X66.45321 Y31.97202 Z6.98654
X66.08901 Y32.21218 Z6.90962
X65.71978 Y32.44454 Z6.8327
X65.34568 Y32.66897 Z6.75577
X64.96688 Y32.88538 Z6.67885
X64.58356 Y33.09367 Z6.60192
X64.19588 Y33.29375 Z6.525
G02 X73.29375 Y24.19588 I-9.19588 J-18.29375 F551.
G1 Y5.80411
G02 X64.19589 Y-3.29375 I-18.29375 J9.19589
G1 X45.80411
G0 Z11.5875
X40.06461 Y0.99588
G1 Z7.795 F137.7
X40.24771 Y0.80156 Z7.74792 F413.2
X40.55159 Y0.49245 Z7.67149
X40.86195 Y0.18983 Z7.59506
X41.17864 Y-0.10615 Z7.51862
X41.50153 Y-0.39535 Z7.44219
X41.83047 Y-0.67766 Z7.36576
X42.16531 Y-0.95294 Z7.28933
X42.5059 Y-1.22107 Z7.21289
X42.85209 Y-1.48193 Z7.13646
X43.20373 Y-1.7354 Z7.06003
X43.56065 Y-1.98137 Z6.98359
X43.92271 Y-2.21973 Z6.90716
X44.28972 Y-2.45037 Z6.83073
X44.66154 Y-2.6732 Z6.7543
X45.03799 Y-2.88809 Z6.67786
X45.4189 Y-3.09498 Z6.60143
X45.80411 Y-3.29375 Z6.525
G02 X35. Y10.6153 I9.19589 J18.29375 F551.
X24.19589 Y-3.29375 I-20. J4.3847
G1 X5.80411
G02 X-3.29375 Y5.80412 I9.19589 J18.29375
G1 Y24.19588
G0 Z11.5875
X0.99593 Y29.93533
G1 Z7.795 F137.7
X0.83374 Y29.78319 Z7.75579 F413.2
X0.52199 Y29.47801 Z7.67886
X0.21681 Y29.16626 Z7.60194
X-0.08165 Y28.84808 Z7.52501
X-0.37327 Y28.52361 Z7.44809
X-0.65791 Y28.193 Z7.37117
X-0.93544 Y27.8564 Z7.29424
X-1.20574 Y27.51397 Z7.21732
X-1.46868 Y27.16585 Z7.14039
X-1.72415 Y26.81221 Z7.06347
X-1.97202 Y26.45321 Z6.98655
X-2.21219 Y26.08901 Z6.90962
X-2.44454 Y25.71978 Z6.8327
X-2.66897 Y25.34568 Z6.75577
X-2.88538 Y24.96688 Z6.67885
X-3.09367 Y24.58355 Z6.60192
X-3.29375 Y24.19588 Z6.525
G02 X5.80412 Y33.29375 I18.29375 J-9.19588 F551.
G1 X24.19588
G02 X35. Y19.3847 I-9.19588 J-18.29375
X35.47609 Y21.16786 I20. J-4.3847
X45.80412 Y33.29375 I19.52391 J-6.16786
G0 Z11.5875
X1.6756 Y0.51544
G1 Z7.795 F137.7
X1.69307 Y0.49906 Z7.79078 F413.2
X2.00724 Y0.21691 Z7.71632
X2.32739 Y-0.05844 Z7.64186
X2.65337 Y-0.32685 Z7.5674
X2.98504 Y-0.58821 Z7.49295
X3.32224 Y-0.84239 Z7.41849
X3.66481 Y-1.08929 Z7.34403
X4.0126 Y-1.32877 Z7.26957
X4.36545 Y-1.56074 Z7.19512
X4.7232 Y-1.78508 Z7.12066
X5.08567 Y-2.0017 Z7.0462
X5.45271 Y-2.21049 Z6.97174
X5.82415 Y-2.41136 Z6.89729
X6.1998 Y-2.60421 Z6.82283
X6.57951 Y-2.78896 Z6.74837
X6.9631 Y-2.96552 Z6.67391
X7.35038 Y-3.13381 Z6.59946
X7.74119 Y-3.29375 Z6.525
G02 X-3.29375 Y7.74119 I7.25881 J18.29375 F551.
G1 Y10.30146
G03 X10.30145 Y-3.29375 I18.29375 J4.69854
G1 X19.69855
G0 Z11.5875
X0.51544 Y28.32439
G1 Z7.795 F137.7
X0.49906 Y28.30692 Z7.79078 F413.2
X0.21691 Y27.99276 Z7.71632
X-0.05844 Y27.67261 Z7.64186
X-0.32685 Y27.34662 Z7.5674
X-0.58821 Y27.01496 Z7.49295
X-0.84239 Y26.67776 Z7.41849
X-1.08928 Y26.33518 Z7.34403
X-1.32877 Y25.98739 Z7.26957
X-1.56074 Y25.63454 Z7.19512
X-1.78508 Y25.2768 Z7.12066
X-2.0017 Y24.91432 Z7.0462
X-2.21049 Y24.54728 Z6.97174
X-2.41136 Y24.17585 Z6.89729
X-2.60421 Y23.80019 Z6.82283
X-2.78896 Y23.42048 Z6.74837
X-2.96552 Y23.03689 Z6.67391
X-3.13381 Y22.64961 Z6.59946
X-3.29375 Y22.2588 Z6.525
G02 X7.7412 Y33.29375 I18.29375 J-7.2588 F551.
G1 X10.30147
G03 X-3.29375 Y19.69854 I4.69853 J-18.29375
G0 Z11.5875
X28.32439 Y29.48455
G1 Z7.795 F137.7
X28.02732 Y29.75264 Z7.72444 F413.2
X27.70562 Y30.0306 Z7.64948
X27.37798 Y30.30154 Z7.57451
X27.04458 Y30.56534 Z7.49955
X26.70555 Y30.82187 Z7.42458
X26.36106 Y31.07103 Z7.34962
X26.01126 Y31.31268 Z7.27465
X25.65633 Y31.54672 Z7.19969
X25.29643 Y31.77304 Z7.12472
X24.93173 Y31.99154 Z7.04976
X24.56238 Y32.2021 Z6.97479
X24.18858 Y32.40464 Z6.89983
X23.81049 Y32.59906 Z6.82486
X23.42828 Y32.78526 Z6.7499
X23.04215 Y32.96317 Z6.67493
X22.65226 Y33.13269 Z6.59996
X22.2588 Y33.29375 Z6.525
G02 X34.55583 Y17.21834 I-7.2588 J-18.29375 F551.
X22.25881 Y-3.29375 I-19.55583 J-2.21834
G1 X19.69855
G03 X33.76714 Y17.12887 I-4.69855 J18.29375
X19.69854 Y33.29375 I-18.76714 J-2.12887
G0 Z11.5875
X68.32439 Y29.48456
G1 Z7.795 F137.7
X68.30692 Y29.50094 Z7.79078 F413.2
X67.99276 Y29.78309 Z7.71632
X67.67261 Y30.05844 Z7.64186
X67.34662 Y30.32685 Z7.5674
X67.01496 Y30.58821 Z7.49295
X66.67776 Y30.84239 Z7.41849
X66.33518 Y31.08929 Z7.34403
X65.98739 Y31.32877 Z7.26957
X65.63454 Y31.56074 Z7.19512
X65.2768 Y31.78508 Z7.12066
X64.91432 Y32.0017 Z7.0462
X64.54728 Y32.21049 Z6.97174
X64.17585 Y32.41136 Z6.89729
X63.80019 Y32.60421 Z6.82283
X63.42048 Y32.78896 Z6.74837
X63.0369 Y32.96552 Z6.67391
X62.64961 Y33.13381 Z6.59946
X62.2588 Y33.29375 Z6.525
G02 X73.29375 Y22.25881 I-7.2588 J-18.29375 F551.
G1 Y19.69855
G03 X59.69854 Y33.29375 I-18.29375 J-4.69855
G1 X50.30146
G0 Z11.5875
X69.48456 Y1.6756
G1 Z7.795 F137.7
X69.50094 Y1.69307 Z7.79078 F413.2
X69.78309 Y2.00724 Z7.71632
X70.05844 Y2.32739 Z7.64186
X70.32685 Y2.65338 Z7.5674
X70.58821 Y2.98504 Z7.49295
X70.8424 Y3.32224 Z7.41849
X71.08929 Y3.66481 Z7.34403
X71.32877 Y4.0126 Z7.26957
X71.56074 Y4.36545 Z7.19512
X71.78508 Y4.7232 Z7.12066
X72.0017 Y5.08567 Z7.0462
X72.21049 Y5.45271 Z6.97174
X72.41136 Y5.82415 Z6.89729
X72.60421 Y6.1998 Z6.82283
X72.78896 Y6.57951 Z6.74837
X72.96552 Y6.9631 Z6.67391
X73.13381 Y7.35038 Z6.59946
X73.29375 Y7.74119 Z6.525
G02 X62.25881 Y-3.29375 I-18.29375 J7.25881 F551.
G1 X59.69855
G03 X73.29375 Y10.30145 I-4.69855 J18.29375
G0 Z11.5875
X41.67569 Y0.51553
G1 Z7.795 F137.7
X41.70314 Y0.48983 Z7.78837 F413.2
X42.0169 Y0.20842 Z7.71405
X42.33661 Y-0.0662 Z7.63974
X42.66213 Y-0.33391 Z7.56542
X42.99331 Y-0.59459 Z7.49111
X43.33 Y-0.84811 Z7.41679
X43.67204 Y-1.09437 Z7.34247
X44.01927 Y-1.33325 Z7.26816
X44.37154 Y-1.56464 Z7.19384
X44.72868 Y-1.78844 Z7.11953
X45.09053 Y-2.00453 Z7.04521
X45.45693 Y-2.21283 Z6.9709
X45.8277 Y-2.41323 Z6.89658
X46.20268 Y-2.60564 Z6.82226
X46.58169 Y-2.78999 Z6.74795
X46.96457 Y-2.96617 Z6.67363
X47.35112 Y-3.13412 Z6.59932
X47.74119 Y-3.29375 Z6.525
G02 X36.23297 Y20.92875 I7.25881 J18.29375 F551.
X47.7412 Y33.29375 I18.76703 J-5.92875
G1 X50.30146
G03 X36.98985 Y20.68965 I4.69854 J-18.29375
X50.30145 Y-3.29375 I18.01015 J-5.68965
G0 Z11.5875
X36.98985 Y20.68965
G1 Z6.525 F137.7
X37.74673 Y20.45054 F551.
G02 X72.25327 Y9.54946 I17.25327 J-5.45054
X37.74673 Y20.45054 I-17.25327 J5.45054
G1 X38.50361 Y20.21143
G03 X71.49639 Y9.78857 I16.49639 J-5.21143
X38.50361 Y20.21143 I-16.49639 J5.21143
G1 X39.26049 Y19.97232
G02 X70.73951 Y10.02768 I15.73951 J-4.97232
X39.26049 Y19.97232 I-15.73951 J4.97232
G1 X40.01737 Y19.73321
G03 X69.98263 Y10.26678 I14.98263 J-4.73321
X40.01737 Y19.73321 I-14.98263 J4.73322
G1 X40.77425 Y19.49411
G02 X69.22575 Y10.50589 I14.22575 J-4.49411
X40.77425 Y19.49411 I-14.22575 J4.49411
G1 X41.53112 Y19.255
G03 X68.46887 Y10.745 I13.46888 J-4.255
X41.53112 Y19.255 I-13.46887 J4.255
G1 X42.288 Y19.01589
G02 X67.712 Y10.98411 I12.712 J-4.01589
X42.288 Y19.01589 I-12.712 J4.01589
G1 X43.04488 Y18.77678
G03 X66.95512 Y11.22322 I11.95512 J-3.77678
X43.04488 Y18.77678 I-11.95512 J3.77678
G1 X43.80176 Y18.53767
G02 X66.19824 Y11.46233 I11.19824 J-3.53767
X43.80176 Y18.53767 I-11.19824 J3.53767
G1 X44.55864 Y18.29856
G03 X65.44136 Y11.70143 I10.44136 J-3.29856
X44.55864 Y18.29856 I-10.44136 J3.29857
G1 X45.31552 Y18.05946
G02 X64.68448 Y11.94054 I9.68448 J-3.05946
X45.31552 Y18.05946 I-9.68448 J3.05946
G1 X46.0724 Y17.82035
G03 X63.9276 Y12.17965 I8.9276 J-2.82035
X46.0724 Y17.82035 I-8.9276 J2.82035
G1 X46.82928 Y17.58124
G02 X63.17072 Y12.41876 I8.17072 J-2.58124
X46.82928 Y17.58124 I-8.17072 J2.58124
G1 X47.58616 Y17.34213
G03 X62.41384 Y12.65787 I7.41384 J-2.34213
X47.58616 Y17.34213 I-7.41384 J2.34213
G1 X48.34304 Y17.10302
G02 X61.65696 Y12.89698 I6.65696 J-2.10302
X48.34304 Y17.10302 I-6.65696 J2.10302
G1 X49.09992 Y16.86391
G03 X60.90008 Y13.13608 I5.90008 J-1.86391
X49.09992 Y16.86391 I-5.90008 J1.86392
G0 Z11.5875
X33.76714 Y17.12887
G1 Z6.525 F137.7
X32.97845 Y17.0394 F551.
G02 X-2.97845 Y12.96059 I-17.97845 J-2.0394
X32.97845 Y17.0394 I17.97845 J2.03941
G1 X32.18976 Y16.94994
G03 X-2.18975 Y13.05006 I-17.18976 J-1.94994
X32.18976 Y16.94994 I17.18975 J1.94994
G1 X31.40106 Y16.86047
G02 X-1.40106 Y13.13952 I-16.40106 J-1.86047
X31.40106 Y16.86047 I16.40106 J1.86048
G1 X30.61237 Y16.77101
G03 X-0.61237 Y13.22899 I-15.61237 J-1.77101
X30.61237 Y16.77101 I15.61237 J1.77101
G1 X29.82368 Y16.68154
G02 X0.17632 Y13.31846 I-14.82368 J-1.68154
X29.82368 Y16.68154 I14.82368 J1.68154
G1 X29.03499 Y16.59207
G03 X0.96501 Y13.40792 I-14.03499 J-1.59207
X29.03499 Y16.59207 I14.03499 J1.59208
G1 X28.2463 Y16.50261
G02 X1.7537 Y13.49739 I-13.2463 J-1.50261
X28.2463 Y16.50261 I13.2463 J1.50261
G1 X27.45761 Y16.41314
G03 X2.5424 Y13.58685 I-12.45761 J-1.41314
X27.45761 Y16.41314 I12.4576 J1.41315
G1 X26.66891 Y16.32368
G02 X3.33109 Y13.67632 I-11.66891 J-1.32368
X26.66891 Y16.32368 I11.66891 J1.32368
G1 X25.88022 Y16.23421
G03 X4.11978 Y13.76579 I-10.88022 J-1.23421
X25.88022 Y16.23421 I10.88022 J1.23421
G1 X25.09153 Y16.14474
G02 X4.90847 Y13.85525 I-10.09153 J-1.14474
X25.09153 Y16.14474 I10.09153 J1.14475
G1 X24.30284 Y16.05528
G03 X5.69716 Y13.94472 I-9.30284 J-1.05528
X24.30284 Y16.05528 I9.30284 J1.05528
G1 X23.51414 Y15.96581
G02 X6.48586 Y14.03419 I-8.51414 J-0.96581
X23.51414 Y15.96581 I8.51414 J0.96581
G1 X22.72545 Y15.87634
G03 X7.27455 Y14.12365 I-7.72545 J-0.87634
X22.72545 Y15.87634 I7.72545 J0.87635
G1 X21.93676 Y15.78688
G02 X8.06324 Y14.21312 I-6.93676 J-0.78688
X21.93676 Y15.78688 I6.93676 J0.78688
G1 X21.14807 Y15.69741
G03 X8.85193 Y14.30258 I-6.14807 J-0.69741
X21.14807 Y15.69741 I6.14807 J0.69742
G0 Z11.5875
X35.77534 Y10.78528
G1 Z6.525 F137.7
X35. Y10.6153 F551.
G02 Y19.3847 I20. J4.3847
X35.34452 Y17.3078 I-20. J-4.3847
X35. Y10.6153 I-20.34452 J-2.3078
G0 Z11.5875
X35.09141 Y-2.97856
G1 Z7.32 F137.7
X35.10064 Y-2.98878 Z7.31757 F413.2
X35.1259 Y-3.01668 Z7.31093
X35.1512 Y-3.04455 Z7.3043
X35.17654 Y-3.07238 Z7.29766
X35.20192 Y-3.10018 Z7.29102
X35.22733 Y-3.12794 Z7.28439
X35.25279 Y-3.15566 Z7.27775
X35.27828 Y-3.18335 Z7.27112
X35.30381 Y-3.21101 Z7.26448
X35.32938 Y-3.23862 Z7.25784
X35.35499 Y-3.26621 Z7.25121
X35.38064 Y-3.29375 Z7.24457
X35.35499 Y-3.26621 Z7.23793
X35.32938 Y-3.23862 Z7.2313
X35.30381 Y-3.21101 Z7.22466
X35.27828 Y-3.18335 Z7.21802
X35.25279 Y-3.15566 Z7.21139
X35.22733 Y-3.12794 Z7.20475
X35.20192 Y-3.10018 Z7.19811
X35.17654 Y-3.07238 Z7.19148
X35.1512 Y-3.04455 Z7.18484
X35.1259 Y-3.01668 Z7.1782
X35.10064 Y-2.98878 Z7.17157
X35.07542 Y-2.96084 Z7.16493
X35.05024 Y-2.93287 Z7.15829
X35.0251 Y-2.90486 Z7.15166
X35. Y-2.87682 Z7.14502
X34.9749 Y-2.90486 Z7.13839
X34.94976 Y-2.93287 Z7.13175
X34.92458 Y-2.96084 Z7.12511
X34.89936 Y-2.98878 Z7.11848
X34.8741 Y-3.01668 Z7.11184
X34.8488 Y-3.04455 Z7.1052
X34.82346 Y-3.07238 Z7.09857
X34.79808 Y-3.10018 Z7.09193
X34.77267 Y-3.12794 Z7.08529
X34.74721 Y-3.15566 Z7.07866
X34.72172 Y-3.18335 Z7.07202
X34.69619 Y-3.21101 Z7.06538
X34.67062 Y-3.23862 Z7.05875
X34.64501 Y-3.26621 Z7.05211
X34.61936 Y-3.29375 Z7.04547
X34.64501 Y-3.26621 Z7.03884
X34.67062 Y-3.23862 Z7.0322
X34.69619 Y-3.21101 Z7.02557
X34.72172 Y-3.18335 Z7.01893
X34.74721 Y-3.15566 Z7.01229
X34.77267 Y-3.12794 Z7.00566
X34.79808 Y-3.10018 Z6.99902
X34.82346 Y-3.07238 Z6.99238
X34.8488 Y-3.04455 Z6.98575
X34.8741 Y-3.01668 Z6.97911
X34.89936 Y-2.98878 Z6.97247
X34.92458 Y-2.96084 Z6.96584
X34.94976 Y-2.93287 Z6.9592
X34.9749 Y-2.90486 Z6.95256
X35. Y-2.87682 Z6.94593
X35.0251 Y-2.90486 Z6.93929
X35.05024 Y-2.93287 Z6.93265
X35.07542 Y-2.96084 Z6.92602
X35.10064 Y-2.98878 Z6.91938
X35.1259 Y-3.01668 Z6.91274
X35.1512 Y-3.04455 Z6.90611
X35.17654 Y-3.07238 Z6.89947
X35.20192 Y-3.10018 Z6.89283
X35.22733 Y-3.12794 Z6.8862
X35.25279 Y-3.15566 Z6.87956
X35.27828 Y-3.18335 Z6.87293
X35.30381 Y-3.21101 Z6.86629
X35.32938 Y-3.23862 Z6.85965
X35.35499 Y-3.26621 Z6.85302
X35.38064 Y-3.29375 Z6.84638
X35.35499 Y-3.26621 Z6.83974
X35.32938 Y-3.23862 Z6.83311
X35.30381 Y-3.21101 Z6.82647
X35.27828 Y-3.18335 Z6.81983
X35.25279 Y-3.15566 Z6.8132
X35.22733 Y-3.12794 Z6.80656
X35.20192 Y-3.10018 Z6.79992
X35.17654 Y-3.07238 Z6.79329
X35.1512 Y-3.04455 Z6.78665
X35.1259 Y-3.01668 Z6.78002
X35.10064 Y-2.98878 Z6.77338
X35.07542 Y-2.96084 Z6.76674
X35.05024 Y-2.93287 Z6.7601
X35.0251 Y-2.90486 Z6.75347
X35. Y-2.87682 Z6.74683
X34.9749 Y-2.90486 Z6.7402
X34.94976 Y-2.93287 Z6.73356
X34.92458 Y-2.96084 Z6.72692
X34.89936 Y-2.98878 Z6.72029
X34.8741 Y-3.01668 Z6.71365
X34.8488 Y-3.04455 Z6.70701
X34.82346 Y-3.07238 Z6.70038
X34.79808 Y-3.10018 Z6.69374
X34.77267 Y-3.12794 Z6.6871
X34.74721 Y-3.15566 Z6.68047
X34.72172 Y-3.18335 Z6.67383
X34.69619 Y-3.21101 Z6.66719
X34.67062 Y-3.23862 Z6.66056
X34.64501 Y-3.26621 Z6.65392
X34.61936 Y-3.29375 Z6.64728
X34.64501 Y-3.26621 Z6.64065
X34.67062 Y-3.23862 Z6.63401
X34.69619 Y-3.21101 Z6.62737
X34.72172 Y-3.18335 Z6.62074
X34.74721 Y-3.15566 Z6.6141
X34.77267 Y-3.12794 Z6.60747
X34.79808 Y-3.10018 Z6.60083
X34.82346 Y-3.07238 Z6.59419
X34.8488 Y-3.04455 Z6.58756
X34.8741 Y-3.01668 Z6.58092
X34.89936 Y-2.98878 Z6.57428
X34.92458 Y-2.96084 Z6.56765
X34.94976 Y-2.93287 Z6.56101
X34.9749 Y-2.90486 Z6.55437
X35. Y-2.87682 Z6.54774
X35.0251 Y-2.90486 Z6.5411
X35.05024 Y-2.93287 Z6.53446
X35.07542 Y-2.96084 Z6.52783
X35.10064 Y-2.98878 Z6.52119
X35.1259 Y-3.01668 Z6.51455
X35.1512 Y-3.04455 Z6.50792
X35.17654 Y-3.07238 Z6.50128
X35.20192 Y-3.10018 Z6.49464
X35.22733 Y-3.12794 Z6.48801
X35.25279 Y-3.15566 Z6.48137
X35.27828 Y-3.18335 Z6.47474
X35.30381 Y-3.21101 Z6.4681
X35.32938 Y-3.23862 Z6.46146
X35.35499 Y-3.26621 Z6.45483
X35.38064 Y-3.29375 Z6.44819
X35.35499 Y-3.26621 Z6.44155
X35.32938 Y-3.23862 Z6.43492
X35.30381 Y-3.21101 Z6.42828
X35.27828 Y-3.18335 Z6.42164
X35.25279 Y-3.15566 Z6.41501
X35.22733 Y-3.12794 Z6.40837
X35.20192 Y-3.10018 Z6.40173
X35.17654 Y-3.07238 Z6.3951
X35.1512 Y-3.04455 Z6.38846
X35.1259 Y-3.01668 Z6.38182
X35.10064 Y-2.98878 Z6.37519
X35.07542 Y-2.96084 Z6.36855
X35.05024 Y-2.93287 Z6.36191
X35.0251 Y-2.90486 Z6.35528
X35. Y-2.87682 Z6.34864
X34.9749 Y-2.90486 Z6.34201
X34.94976 Y-2.93287 Z6.33537
X34.92458 Y-2.96084 Z6.32873
X34.89936 Y-2.98878 Z6.3221
X34.8741 Y-3.01668 Z6.31546
X34.8488 Y-3.04455 Z6.30882
X34.82346 Y-3.07238 Z6.30219
X34.79808 Y-3.10018 Z6.29555
X34.77267 Y-3.12794 Z6.28891
X34.74721 Y-3.15566 Z6.28228
X34.72172 Y-3.18335 Z6.27564
X34.69619 Y-3.21101 Z6.269
X34.67062 Y-3.23862 Z6.26237
X34.64501 Y-3.26621 Z6.25573
X34.61936 Y-3.29375 Z6.24909
X34.64501 Y-3.26621 Z6.24246
X34.67062 Y-3.23862 Z6.23582
X34.69619 Y-3.21101 Z6.22918
X34.72172 Y-3.18335 Z6.22255
X34.74721 Y-3.15566 Z6.21591
X34.77267 Y-3.12794 Z6.20928
X34.79808 Y-3.10018 Z6.20264
X34.82346 Y-3.07238 Z6.196
X34.8488 Y-3.04455 Z6.18937
X34.8741 Y-3.01668 Z6.18273
X34.89936 Y-2.98878 Z6.17609
X34.92458 Y-2.96084 Z6.16946
X34.94976 Y-2.93287 Z6.16282
X34.9749 Y-2.90486 Z6.15618
X35. Y-2.87682 Z6.14955
X35.0251 Y-2.90486 Z6.14291
X35.05024 Y-2.93287 Z6.13627
X35.07542 Y-2.96084 Z6.12964
X35.10064 Y-2.98878 Z6.123
X35.1259 Y-3.01668 Z6.11637
X35.1512 Y-3.04455 Z6.10973
X35.17654 Y-3.07238 Z6.10309
X35.20192 Y-3.10018 Z6.09645
X35.22733 Y-3.12794 Z6.08982
X35.25279 Y-3.15566 Z6.08318
X35.27828 Y-3.18335 Z6.07655
X35.30381 Y-3.21101 Z6.06991
X35.32938 Y-3.23862 Z6.06327
X35.35499 Y-3.26621 Z6.05664
X35.38064 Y-3.29375 Z6.05
G02 X35. Y-2.87682 I19.61936 J18.29375 F551.
X34.61936 Y-3.29375 I-20. J17.87682
G1 X33.51931
G03 X35. Y-1.66211 I-18.51931 J18.29375
X36.48069 Y-3.29375 I20. J16.66211
G1 X37.61408
G02 X35. Y-0.39258 I17.38592 J18.29375
X32.38592 Y-3.29375 I-20. J15.39258
G1 X31.21221
G03 X35. Y0.94664 I-16.21221 J18.29375
X38.7878 Y-3.29375 I20. J14.05336
G1 X40.0113
G02 X35. Y2.3777 I14.9887 J18.29375
X29.9887 Y-3.29375 I-20. J12.6223
G1 X28.70208
G03 X35. Y3.93618 I-13.70208 J18.29375
X41.29792 Y-3.29375 I20. J11.06382
G1 X42.66742
G02 X35. Y5.68582 I12.33258 J18.29375
X27.33258 Y-3.29375 I-20. J9.31418
G1 X25.84889
G03 X35. Y7.764 I-10.84889 J18.29375
X44.15111 Y-3.29375 I20. J7.236
G1 X65.84889
G0 Z11.5875
X34.97438 Y32.90543
G1 Z7.32 F137.7
X34.95046 Y32.93208 Z7.31368 F413.2
X34.92563 Y32.95967 Z7.30714
X34.90077 Y32.98722 Z7.3006
X34.87586 Y33.01473 Z7.29405
X34.85092 Y33.04221 Z7.28751
X34.82594 Y33.06965 Z7.28097
X34.80093 Y33.09707 Z7.27442
X34.77587 Y33.12444 Z7.26788
X34.75078 Y33.15178 Z7.26134
X34.72565 Y33.17909 Z7.25479
X34.70048 Y33.20636 Z7.24825
X34.67527 Y33.2336 Z7.2417
X34.65003 Y33.2608 Z7.23516
X34.62475 Y33.28797 Z7.22862
X34.65003 Y33.2608 Z7.22207
X34.67527 Y33.2336 Z7.21553
X34.70048 Y33.20636 Z7.20899
X34.72565 Y33.17909 Z7.20244
X34.75078 Y33.15178 Z7.1959
X34.77587 Y33.12444 Z7.18936
X34.80093 Y33.09707 Z7.18281
X34.82594 Y33.06965 Z7.17627
X34.85092 Y33.04221 Z7.16972
X34.87586 Y33.01473 Z7.16318
X34.90077 Y32.98722 Z7.15664
X34.92563 Y32.95967 Z7.15009
X34.95046 Y32.93208 Z7.14355
X34.97525 Y32.90447 Z7.13701
X35. Y32.87681 Z7.13046
X35.02478 Y32.9045 Z7.12391
X35.0496 Y32.93216 Z7.11736
X35.07446 Y32.95977 Z7.11081
X35.09936 Y32.98736 Z7.10426
X35.1243 Y33.01491 Z7.0977
X35.14927 Y33.04242 Z7.09115
X35.17428 Y33.0699 Z7.0846
X35.19933 Y33.09735 Z7.07805
X35.22442 Y33.12476 Z7.07149
X35.24955 Y33.15214 Z7.06494
X35.27471 Y33.17948 Z7.05839
X35.29991 Y33.20679 Z7.05184
X35.32515 Y33.23406 Z7.04529
X35.35043 Y33.26129 Z7.03873
X35.37574 Y33.2885 Z7.03218
X35.35043 Y33.26129 Z7.02563
X35.32515 Y33.23406 Z7.01908
X35.29991 Y33.20679 Z7.01252
X35.27471 Y33.17948 Z7.00597
X35.24955 Y33.15214 Z6.99942
X35.22442 Y33.12476 Z6.99287
X35.19933 Y33.09735 Z6.98632
X35.17428 Y33.0699 Z6.97976
X35.14927 Y33.04242 Z6.97321
X35.1243 Y33.01491 Z6.96666
X35.09936 Y32.98736 Z6.96011
X35.07446 Y32.95977 Z6.95356
X35.0496 Y32.93216 Z6.947
X35.02478 Y32.9045 Z6.94045
X35. Y32.87681 Z6.9339
X34.97525 Y32.90447 Z6.92736
X34.95046 Y32.93208 Z6.92081
X34.92563 Y32.95967 Z6.91427
X34.90077 Y32.98722 Z6.90772
X34.87586 Y33.01473 Z6.90118
X34.85092 Y33.04221 Z6.89464
X34.82594 Y33.06965 Z6.88809
X34.80093 Y33.09707 Z6.88155
X34.77587 Y33.12444 Z6.87501
X34.75078 Y33.15178 Z6.86846
X34.72565 Y33.17909 Z6.86192
X34.70048 Y33.20636 Z6.85538
X34.67527 Y33.2336 Z6.84883
X34.65003 Y33.2608 Z6.84229
X34.62475 Y33.28797 Z6.83574
X34.65003 Y33.2608 Z6.8292
X34.67527 Y33.2336 Z6.82266
X34.70048 Y33.20636 Z6.81611
X34.72565 Y33.17909 Z6.80957
X34.75078 Y33.15178 Z6.80303
X34.77587 Y33.12444 Z6.79648
X34.80093 Y33.09707 Z6.78994
X34.82594 Y33.06965 Z6.7834
X34.85092 Y33.04221 Z6.77685
X34.87586 Y33.01473 Z6.77031
X34.90077 Y32.98722 Z6.76377
X34.92563 Y32.95967 Z6.75722
X34.95046 Y32.93208 Z6.75068
X34.97525 Y32.90447 Z6.74413
X35. Y32.87681 Z6.73759
X35.02478 Y32.9045 Z6.73104
X35.0496 Y32.93216 Z6.72449
X35.07446 Y32.95977 Z6.71793
X35.09936 Y32.98736 Z6.71138
X35.1243 Y33.01491 Z6.70483
X35.14927 Y33.04242 Z6.69828
X35.17428 Y33.0699 Z6.69173
X35.19933 Y33.09735 Z6.68517
X35.22442 Y33.12476 Z6.67862
X35.24955 Y33.15214 Z6.67207
X35.27471 Y33.17948 Z6.66552
X35.29991 Y33.20679 Z6.65896
X35.32515 Y33.23406 Z6.65241
X35.35043 Y33.26129 Z6.64586
X35.37574 Y33.2885 Z6.63931
X35.35043 Y33.26129 Z6.63276
X35.32515 Y33.23406 Z6.6262
X35.29991 Y33.20679 Z6.61965
X35.27471 Y33.17948 Z6.6131
X35.24955 Y33.15214 Z6.60655
X35.22442 Y33.12476 Z6.6
X35.19933 Y33.09735 Z6.59344
X35.17428 Y33.0699 Z6.58689
X35.14927 Y33.04242 Z6.58034
X35.1243 Y33.01491 Z6.57379
X35.09936 Y32.98736 Z6.56724
X35.07446 Y32.95977 Z6.56068
X35.0496 Y32.93216 Z6.55413
X35.02478 Y32.9045 Z6.54758
X35. Y32.87681 Z6.54103
X34.97525 Y32.90447 Z6.53448
X34.95046 Y32.93208 Z6.52794
X34.92563 Y32.95967 Z6.5214
X34.90077 Y32.98722 Z6.51485
X34.87586 Y33.01473 Z6.50831
X34.85092 Y33.04221 Z6.50176
X34.82594 Y33.06965 Z6.49522
X34.80093 Y33.09707 Z6.48868
X34.77587 Y33.12444 Z6.48213
X34.75078 Y33.15178 Z6.47559
X34.72565 Y33.17909 Z6.46905
X34.70048 Y33.20636 Z6.4625
X34.67527 Y33.2336 Z6.45596
X34.65003 Y33.2608 Z6.44942
X34.62475 Y33.28797 Z6.44287
X34.65003 Y33.2608 Z6.43633
X34.67527 Y33.2336 Z6.42978
X34.70048 Y33.20636 Z6.42324
X34.72565 Y33.17909 Z6.4167
X34.75078 Y33.15178 Z6.41015
X34.77587 Y33.12444 Z6.40361
X34.80093 Y33.09707 Z6.39707
X34.82594 Y33.06965 Z6.39052
X34.85092 Y33.04221 Z6.38398
X34.87586 Y33.01473 Z6.37744
X34.90077 Y32.98722 Z6.37089
X34.92563 Y32.95967 Z6.36435
X34.95046 Y32.93208 Z6.3578
X34.97525 Y32.90447 Z6.35126
X35. Y32.87681 Z6.34472
X35.02478 Y32.9045 Z6.33817
X35.0496 Y32.93216 Z6.33161
X35.07446 Y32.95977 Z6.32506
X35.09936 Y32.98736 Z6.31851
X35.1243 Y33.01491 Z6.31196
X35.14927 Y33.04242 Z6.3054
X35.17428 Y33.0699 Z6.29885
X35.19933 Y33.09735 Z6.2923
X35.22442 Y33.12476 Z6.28575
X35.24955 Y33.15214 Z6.2792
X35.27471 Y33.17948 Z6.27264
X35.29991 Y33.20679 Z6.26609
X35.32515 Y33.23406 Z6.25954
X35.35043 Y33.26129 Z6.25299
X35.37574 Y33.2885 Z6.24644
X35.35043 Y33.26129 Z6.23988
X35.32515 Y33.23406 Z6.23333
X35.29991 Y33.20679 Z6.22678
X35.27471 Y33.17948 Z6.22023
X35.24955 Y33.15214 Z6.21368
X35.22442 Y33.12476 Z6.20712
X35.19933 Y33.09735 Z6.20057
X35.17428 Y33.0699 Z6.19402
X35.14927 Y33.04242 Z6.18747
X35.1243 Y33.01491 Z6.18091
X35.09936 Y32.98736 Z6.17436
X35.07446 Y32.95977 Z6.16781
X35.0496 Y32.93216 Z6.16126
X35.02478 Y32.9045 Z6.15471
X35. Y32.87681 Z6.14815
X34.97525 Y32.90447 Z6.14161
X34.95046 Y32.93208 Z6.13507
X34.92563 Y32.95967 Z6.12852
X34.90077 Y32.98722 Z6.12198
X34.87586 Y33.01473 Z6.11544
X34.85092 Y33.04221 Z6.10889
X34.82594 Y33.06965 Z6.10235
X34.80093 Y33.09707 Z6.0958
X34.77587 Y33.12444 Z6.08926
X34.75078 Y33.15178 Z6.08272
X34.72565 Y33.17909 Z6.07617
X34.70048 Y33.20636 Z6.06963
X34.67527 Y33.2336 Z6.06309
X34.65003 Y33.2608 Z6.05654
X34.62475 Y33.28797 Z6.05
G02 X35. Y32.87681 I-19.62475 J-18.28797 F551.
X35.37574 Y33.2885 I20. J-17.87681
G1 X36.47627 Y33.28927
G03 X35. Y31.66211 I18.52373 J-18.28927
X33.52577 Y33.28719 I-20. J-16.66211
G1 X32.39364 Y33.2864
G02 X35. Y30.39257 I-17.39364 J-18.2864
X37.61021 Y33.29007 I20. J-15.39257
G1 X38.78457 Y33.29089
G03 X35. Y29.05336 I16.21543 J-18.29089
X31.22142 Y33.28557 I-20. J-14.05336
G1 X29.99972 Y33.28471
G02 X35. Y27.6223 I-14.99972 J-18.28471
X40.00887 Y33.29176 I20. J-12.6223
G1 X41.29647 Y33.29266
G03 X35. Y26.06382 I13.70353 J-18.29266
X28.71533 Y33.28381 I-20. J-11.06382
G1 X28.32864 Y33.28354
G03 X28. Y33.29375 I-0.32864 J-5.28354
G1 X27.33258
G02 X35. Y24.31417 I-12.33258 J-18.29375
X42.66724 Y33.29363 I20. J-9.31417
G1 X42.84363 Y33.29375
X44.15111
G03 X35. Y22.236 I10.84889 J-18.29375
X25.84889 Y33.29375 I-20. J-7.236
G1 X4.15112
G0 Z11.5875
X71.47019 Y31.97216
G1 Z7.32 F137.7
X71.5164 Y31.92722 Z7.30863 F413.2
X71.57571 Y31.86915 Z7.294
X71.63481 Y31.81088 Z7.27936
X71.6937 Y31.75239 Z7.26473
X71.75239 Y31.6937 Z7.25009
X71.81088 Y31.63481 Z7.23546
X71.86915 Y31.57571 Z7.22082
X71.92722 Y31.5164 Z7.20619
X71.98508 Y31.45689 Z7.19155
X72.04274 Y31.39718 Z7.17692
X72.10018 Y31.33727 Z7.16228
X72.15741 Y31.27715 Z7.14765
X72.10018 Y31.33727 Z7.13301
X72.04274 Y31.39718 Z7.11838
X71.98508 Y31.45689 Z7.10374
X71.92722 Y31.5164 Z7.08911
X71.86915 Y31.57571 Z7.07447
X71.81088 Y31.63481 Z7.05983
X71.75239 Y31.6937 Z7.0452
X71.6937 Y31.75239 Z7.03056
X71.63481 Y31.81088 Z7.01593
X71.57571 Y31.86915 Z7.00129
X71.5164 Y31.92722 Z6.98666
X71.45689 Y31.98509 Z6.97202
X71.39718 Y32.04274 Z6.95739
X71.33727 Y32.10018 Z6.94275
X71.27715 Y32.15741 Z6.92812
X71.33727 Y32.10018 Z6.91348
X71.39718 Y32.04274 Z6.89885
X71.45689 Y31.98509 Z6.88421
X71.5164 Y31.92722 Z6.86958
X71.57571 Y31.86915 Z6.85494
X71.63481 Y31.81088 Z6.84031
X71.6937 Y31.75239 Z6.82567
X71.75239 Y31.6937 Z6.81104
X71.81088 Y31.63481 Z6.7964
X71.86915 Y31.57571 Z6.78176
X71.92722 Y31.5164 Z6.76713
X71.98508 Y31.45689 Z6.75249
X72.04274 Y31.39718 Z6.73786
X72.10018 Y31.33727 Z6.72322
X72.15741 Y31.27715 Z6.70859
X72.10018 Y31.33727 Z6.69395
X72.04274 Y31.39718 Z6.67932
X71.98508 Y31.45689 Z6.66468
X71.92722 Y31.5164 Z6.65005
X71.86915 Y31.57571 Z6.63541
X71.81088 Y31.63481 Z6.62078
X71.75239 Y31.6937 Z6.60614
X71.6937 Y31.75239 Z6.59151
X71.63481 Y31.81088 Z6.57687
X71.57571 Y31.86915 Z6.56223
X71.5164 Y31.92722 Z6.5476
X71.45689 Y31.98509 Z6.53296
X71.39718 Y32.04274 Z6.51833
X71.33727 Y32.10018 Z6.50369
X71.27715 Y32.15741 Z6.48906
X71.33727 Y32.10018 Z6.47442
X71.39718 Y32.04274 Z6.45979
X71.45689 Y31.98509 Z6.44515
X71.5164 Y31.92722 Z6.43052
X71.57571 Y31.86915 Z6.41588
X71.63481 Y31.81088 Z6.40125
X71.6937 Y31.75239 Z6.38661
X71.75239 Y31.6937 Z6.37198
X71.81088 Y31.63481 Z6.35734
X71.86915 Y31.57571 Z6.34271
X71.92722 Y31.5164 Z6.32807
X71.98508 Y31.45689 Z6.31343
X72.04274 Y31.39718 Z6.2988
X72.10018 Y31.33727 Z6.28417
X72.15741 Y31.27715 Z6.26953
X72.10018 Y31.33727 Z6.25489
X72.04274 Y31.39718 Z6.24026
X71.98508 Y31.45689 Z6.22562
X71.92722 Y31.5164 Z6.21099
X71.86915 Y31.57571 Z6.19635
X71.81088 Y31.63481 Z6.18172
X71.75239 Y31.6937 Z6.16708
X71.6937 Y31.75239 Z6.15245
X71.63481 Y31.81088 Z6.13781
X71.57571 Y31.86915 Z6.12318
X71.5164 Y31.92722 Z6.10854
X71.45689 Y31.98509 Z6.09391
X71.39718 Y32.04274 Z6.07927
X71.33727 Y32.10018 Z6.06463
X71.27715 Y32.15741 Z6.05
G02 X72.15741 Y31.27715 I-16.27715 J-17.15741 F551.
X73.23618 Y28.7786 I-4.15741 J-3.27715
G03 X68.7786 Y33.23618 I-18.23618 J-13.7786
X68. Y33.29375 I-0.7786 J-5.23618
G1 X67.33258
G02 X73.29375 Y27.33258 I-12.33258 J-18.29375
G1 Y25.84889
G03 X65.84889 Y33.29375 I-18.29375 J-10.84889
G0 Z11.5875
X71.97228 Y-1.47007
G1 Z7.32 F137.7
X71.92722 Y-1.51641 Z7.3086 F413.2
X71.86915 Y-1.57571 Z7.29397
X71.81088 Y-1.63481 Z7.27933
X71.75239 Y-1.69371 Z7.2647
X71.6937 Y-1.75239 Z7.25006
X71.63481 Y-1.81088 Z7.23543
X71.57571 Y-1.86915 Z7.22079
X71.51641 Y-1.92722 Z7.20616
X71.4569 Y-1.98508 Z7.19152
X71.39719 Y-2.04273 Z7.17689
X71.33728 Y-2.10017 Z7.16225
X71.27717 Y-2.1574 Z7.14762
X71.33728 Y-2.10017 Z7.13298
X71.39719 Y-2.04273 Z7.11835
X71.4569 Y-1.98508 Z7.10371
X71.51641 Y-1.92722 Z7.08908
X71.57571 Y-1.86915 Z7.07445
X71.63481 Y-1.81088 Z7.05981
X71.6937 Y-1.75239 Z7.04517
X71.75239 Y-1.69371 Z7.03054
X71.81088 Y-1.63481 Z7.0159
X71.86915 Y-1.57571 Z7.00127
X71.92722 Y-1.51641 Z6.98663
X71.98508 Y-1.4569 Z6.972
X72.04273 Y-1.39719 Z6.95736
X72.10017 Y-1.33728 Z6.94273
X72.1574 Y-1.27717 Z6.9281
X72.10017 Y-1.33728 Z6.91346
X72.04273 Y-1.39719 Z6.89883
X71.98508 Y-1.4569 Z6.88419
X71.92722 Y-1.51641 Z6.86956
X71.86915 Y-1.57571 Z6.85492
X71.81088 Y-1.63481 Z6.84029
X71.75239 Y-1.69371 Z6.82565
X71.6937 Y-1.75239 Z6.81102
X71.63481 Y-1.81088 Z6.79638
X71.57571 Y-1.86915 Z6.78175
X71.51641 Y-1.92722 Z6.76711
X71.4569 Y-1.98508 Z6.75248
X71.39719 Y-2.04273 Z6.73784
X71.33728 Y-2.10017 Z6.72321
X71.27717 Y-2.1574 Z6.70857
X71.33728 Y-2.10017 Z6.69394
X71.39719 Y-2.04273 Z6.6793
X71.4569 Y-1.98508 Z6.66467
X71.51641 Y-1.92722 Z6.65003
X71.57571 Y-1.86915 Z6.6354
X71.63481 Y-1.81088 Z6.62076
X71.6937 Y-1.75239 Z6.60613
X71.75239 Y-1.69371 Z6.59149
X71.81088 Y-1.63481 Z6.57686
X71.86915 Y-1.57571 Z6.56222
X71.92722 Y-1.51641 Z6.54759
X71.98508 Y-1.4569 Z6.53295
X72.04273 Y-1.39719 Z6.51832
X72.10017 Y-1.33728 Z6.50368
X72.1574 Y-1.27717 Z6.48905
X72.10017 Y-1.33728 Z6.47441
X72.04273 Y-1.39719 Z6.45978
X71.98508 Y-1.4569 Z6.44514
X71.92722 Y-1.51641 Z6.43051
X71.86915 Y-1.57571 Z6.41587
X71.81088 Y-1.63481 Z6.40124
X71.75239 Y-1.69371 Z6.3866
X71.6937 Y-1.75239 Z6.37197
X71.63481 Y-1.81088 Z6.35733
X71.57571 Y-1.86915 Z6.3427
X71.51641 Y-1.92722 Z6.32806
X71.4569 Y-1.98508 Z6.31343
X71.39719 Y-2.04273 Z6.29879
X71.33728 Y-2.10017 Z6.28416
X71.27717 Y-2.1574 Z6.26952
X71.33728 Y-2.10017 Z6.25489
X71.39719 Y-2.04273 Z6.24025
X71.4569 Y-1.98508 Z6.22562
X71.51641 Y-1.92722 Z6.21098
X71.57571 Y-1.86915 Z6.19635
X71.63481 Y-1.81088 Z6.18171
X71.6937 Y-1.75239 Z6.16708
X71.75239 Y-1.69371 Z6.15244
X71.81088 Y-1.63481 Z6.13781
X71.86915 Y-1.57571 Z6.12317
X71.92722 Y-1.51641 Z6.10854
X71.98508 Y-1.4569 Z6.0939
X72.04273 Y-1.39719 Z6.07927
X72.10017 Y-1.33728 Z6.06463
X72.1574 Y-1.27717 Z6.05
G02 X71.27717 Y-2.1574 I-17.1574 J16.27717 F551.
X68.7786 Y-3.23618 I-3.27717 J4.1574
G03 X73.23618 Y1.22139 I-13.7786 J18.23618
X73.29375 Y2. I-5.23618 J0.77861
G1 Y2.66742
G02 X67.33258 Y-3.29375 I-18.29375 J12.33258
G1 X65.84889
G03 X73.29375 Y4.15111 I-10.84889 J18.29375
G0 Z11.5875
X-1.47013 Y-1.97222
G1 Z7.32 F137.7
X-1.51641 Y-1.92722 Z7.30862 F413.2
X-1.57571 Y-1.86915 Z7.29398
X-1.63481 Y-1.81088 Z7.27935
X-1.69371 Y-1.75239 Z7.26471
X-1.75239 Y-1.6937 Z7.25008
X-1.81088 Y-1.63481 Z7.23544
X-1.86915 Y-1.57571 Z7.22081
X-1.92722 Y-1.5164 Z7.20617
X-1.98508 Y-1.4569 Z7.19154
X-2.04273 Y-1.39719 Z7.1769
X-2.10017 Y-1.33727 Z7.16227
X-2.1574 Y-1.27716 Z7.14763
X-2.10017 Y-1.33727 Z7.133
X-2.04273 Y-1.39719 Z7.11836
X-1.98508 Y-1.4569 Z7.10373
X-1.92722 Y-1.5164 Z7.08909
X-1.86915 Y-1.57571 Z7.07446
X-1.81088 Y-1.63481 Z7.05982
X-1.75239 Y-1.6937 Z7.04519
X-1.69371 Y-1.75239 Z7.03055
X-1.63481 Y-1.81088 Z7.01592
X-1.57571 Y-1.86915 Z7.00128
X-1.51641 Y-1.92722 Z6.98665
X-1.4569 Y-1.98508 Z6.97201
X-1.39719 Y-2.04273 Z6.95738
X-1.33727 Y-2.10017 Z6.94274
X-1.27716 Y-2.1574 Z6.92811
X-1.33727 Y-2.10017 Z6.91347
X-1.39719 Y-2.04273 Z6.89884
X-1.4569 Y-1.98508 Z6.8842
X-1.51641 Y-1.92722 Z6.86957
X-1.57571 Y-1.86915 Z6.85493
X-1.63481 Y-1.81088 Z6.8403
X-1.69371 Y-1.75239 Z6.82566
X-1.75239 Y-1.6937 Z6.81102
X-1.81088 Y-1.63481 Z6.79639
X-1.86915 Y-1.57571 Z6.78176
X-1.92722 Y-1.5164 Z6.76712
X-1.98508 Y-1.4569 Z6.75248
X-2.04273 Y-1.39719 Z6.73785
X-2.10017 Y-1.33727 Z6.72321
X-2.1574 Y-1.27716 Z6.70858
X-2.10017 Y-1.33727 Z6.69394
X-2.04273 Y-1.39719 Z6.67931
X-1.98508 Y-1.4569 Z6.66467
X-1.92722 Y-1.5164 Z6.65004
X-1.86915 Y-1.57571 Z6.6354
X-1.81088 Y-1.63481 Z6.62077
X-1.75239 Y-1.6937 Z6.60613
X-1.69371 Y-1.75239 Z6.5915
X-1.63481 Y-1.81088 Z6.57686
X-1.57571 Y-1.86915 Z6.56223
X-1.51641 Y-1.92722 Z6.54759
X-1.4569 Y-1.98508 Z6.53296
X-1.39719 Y-2.04273 Z6.51832
X-1.33727 Y-2.10017 Z6.50369
X-1.27716 Y-2.1574 Z6.48905
X-1.33727 Y-2.10017 Z6.47442
X-1.39719 Y-2.04273 Z6.45978
X-1.4569 Y-1.98508 Z6.44515
X-1.51641 Y-1.92722 Z6.43051
X-1.57571 Y-1.86915 Z6.41588
X-1.63481 Y-1.81088 Z6.40124
X-1.69371 Y-1.75239 Z6.38661
X-1.75239 Y-1.6937 Z6.37197
X-1.81088 Y-1.63481 Z6.35734
X-1.86915 Y-1.57571 Z6.3427
X-1.92722 Y-1.5164 Z6.32807
X-1.98508 Y-1.4569 Z6.31343
X-2.04273 Y-1.39719 Z6.2988
X-2.10017 Y-1.33727 Z6.28416
X-2.1574 Y-1.27716 Z6.26953
X-2.10017 Y-1.33727 Z6.25489
X-2.04273 Y-1.39719 Z6.24026
X-1.98508 Y-1.4569 Z6.22562
X-1.92722 Y-1.5164 Z6.21099
X-1.86915 Y-1.57571 Z6.19635
X-1.81088 Y-1.63481 Z6.18172
X-1.75239 Y-1.6937 Z6.16708
X-1.69371 Y-1.75239 Z6.15245
X-1.63481 Y-1.81088 Z6.13781
X-1.57571 Y-1.86915 Z6.12318
X-1.51641 Y-1.92722 Z6.10854
X-1.4569 Y-1.98508 Z6.0939
X-1.39719 Y-2.04273 Z6.07927
X-1.33727 Y-2.10017 Z6.06463
X-1.27716 Y-2.1574 Z6.05
G02 X-2.1574 Y-1.27716 I16.27716 J17.1574 F551.
X-3.23618 Y1.2214 I4.1574 J3.27716
G03 X1.2214 Y-3.23618 I18.23618 J13.7786
X2. Y-3.29375 I0.7786 J5.23618
G1 X2.66742
G02 X-3.29375 Y2.66742 I12.33258 J18.29375
G1 Y4.15111
G03 X4.15111 Y-3.29375 I18.29375 J10.84889
G0 Z11.5875
X-1.97197 Y31.47038
G1 Z7.32 F137.7
X-1.92723 Y31.51639 Z7.30868 F413.2
X-1.86916 Y31.5757 Z7.29405
X-1.81088 Y31.6348 Z7.27941
X-1.75239 Y31.6937 Z7.26478
X-1.6937 Y31.75239 Z7.25014
X-1.6348 Y31.81088 Z7.23551
X-1.5757 Y31.86916 Z7.22087
X-1.51639 Y31.92723 Z7.20623
X-1.45688 Y31.98509 Z7.1916
X-1.39717 Y32.04275 Z7.17696
X-1.33725 Y32.10019 Z7.16233
X-1.27713 Y32.15742 Z7.14769
X-1.33725 Y32.10019 Z7.13305
X-1.39717 Y32.04275 Z7.11842
X-1.45688 Y31.98509 Z7.10378
X-1.51639 Y31.92723 Z7.08915
X-1.5757 Y31.86916 Z7.07451
X-1.6348 Y31.81088 Z7.05987
X-1.6937 Y31.75239 Z7.04524
X-1.75239 Y31.6937 Z7.0306
X-1.81088 Y31.6348 Z7.01597
X-1.86916 Y31.5757 Z7.00133
X-1.92723 Y31.51639 Z6.98669
X-1.98509 Y31.45688 Z6.97206
X-2.04275 Y31.39717 Z6.95742
X-2.10019 Y31.33725 Z6.94279
X-2.15742 Y31.27713 Z6.92815
X-2.10019 Y31.33725 Z6.91352
X-2.04275 Y31.39717 Z6.89888
X-1.98509 Y31.45688 Z6.88424
X-1.92723 Y31.51639 Z6.86961
X-1.86916 Y31.5757 Z6.85497
X-1.81088 Y31.6348 Z6.84034
X-1.75239 Y31.6937 Z6.8257
X-1.6937 Y31.75239 Z6.81107
X-1.6348 Y31.81088 Z6.79643
X-1.5757 Y31.86916 Z6.78179
X-1.51639 Y31.92723 Z6.76716
X-1.45688 Y31.98509 Z6.75252
X-1.39717 Y32.04275 Z6.73789
X-1.33725 Y32.10019 Z6.72325
X-1.27713 Y32.15742 Z6.70861
X-1.33725 Y32.10019 Z6.69398
X-1.39717 Y32.04275 Z6.67934
X-1.45688 Y31.98509 Z6.66471
X-1.51639 Y31.92723 Z6.65007
X-1.5757 Y31.86916 Z6.63543
X-1.6348 Y31.81088 Z6.6208
X-1.6937 Y31.75239 Z6.60616
X-1.75239 Y31.6937 Z6.59153
X-1.81088 Y31.6348 Z6.57689
X-1.86916 Y31.5757 Z6.56225
X-1.92723 Y31.51639 Z6.54762
X-1.98509 Y31.45688 Z6.53298
X-2.04275 Y31.39717 Z6.51835
X-2.10019 Y31.33725 Z6.50371
X-2.15742 Y31.27713 Z6.48908
X-2.10019 Y31.33725 Z6.47444
X-2.04275 Y31.39717 Z6.4598
X-1.98509 Y31.45688 Z6.44517
X-1.92723 Y31.51639 Z6.43053
X-1.86916 Y31.5757 Z6.4159
X-1.81088 Y31.6348 Z6.40126
X-1.75239 Y31.6937 Z6.38663
X-1.6937 Y31.75239 Z6.37199
X-1.6348 Y31.81088 Z6.35735
X-1.5757 Y31.86916 Z6.34272
X-1.51639 Y31.92723 Z6.32808
X-1.45688 Y31.98509 Z6.31345
X-1.39717 Y32.04275 Z6.29881
X-1.33725 Y32.10019 Z6.28417
X-1.27713 Y32.15742 Z6.26954
X-1.33725 Y32.10019 Z6.2549
X-1.39717 Y32.04275 Z6.24027
X-1.45688 Y31.98509 Z6.22563
X-1.51639 Y31.92723 Z6.211
X-1.5757 Y31.86916 Z6.19636
X-1.6348 Y31.81088 Z6.18172
X-1.6937 Y31.75239 Z6.16709
X-1.75239 Y31.6937 Z6.15245
X-1.81088 Y31.6348 Z6.13781
X-1.86916 Y31.5757 Z6.12318
X-1.92723 Y31.51639 Z6.10854
X-1.98509 Y31.45688 Z6.09391
X-2.04275 Y31.39717 Z6.07927
X-2.10019 Y31.33725 Z6.06464
X-2.15742 Y31.27713 Z6.05
G02 X-1.27713 Y32.15742 I17.15742 J-16.27713 F551.
X1.2214 Y33.23618 I3.27713 J-4.15742
G03 X-3.23618 Y28.7786 I13.7786 J-18.23618
X-3.29375 Y28. I5.23618 J-0.7786
G1 Y27.33258
G02 X2.66742 Y33.29375 I18.29375 J-12.33258
G1 X4.15112
G03 X-3.29375 Y25.84888 I10.84888 J-18.29375
G0 Z11.5875
X69.93533 Y29.00406
G1 Z7.32 F137.7
X69.78319 Y29.16626 Z7.28079 F413.2
X69.47801 Y29.47801 Z7.20386
X69.16626 Y29.78319 Z7.12694
X68.84808 Y30.08165 Z7.05002
X68.52361 Y30.37327 Z6.97309
X68.193 Y30.65791 Z6.89617
X67.8564 Y30.93545 Z6.81924
X67.51397 Y31.20574 Z6.74232
X67.16585 Y31.46868 Z6.66539
X66.81221 Y31.72415 Z6.58847
X66.45321 Y31.97202 Z6.51154
X66.08901 Y32.21218 Z6.43462
X65.71978 Y32.44454 Z6.3577
X65.34568 Y32.66897 Z6.28077
X64.96688 Y32.88538 Z6.20385
X64.58356 Y33.09367 Z6.12692
X64.19588 Y33.29375 Z6.05
G02 X73.29375 Y24.19588 I-9.19588 J-18.29375 F551.
G1 Y5.80411
G02 X64.19589 Y-3.29375 I-18.29375 J9.19589
G1 X45.80411
G0 Z11.5875
X40.06461 Y0.99588
G1 Z7.32 F137.7
X40.24771 Y0.80156 Z7.27292 F413.2
X40.55159 Y0.49245 Z7.19649
X40.86195 Y0.18983 Z7.12006
X41.17864 Y-0.10615 Z7.04362
X41.50153 Y-0.39535 Z6.96719
X41.83047 Y-0.67766 Z6.89076
X42.16531 Y-0.95294 Z6.81433
X42.5059 Y-1.22107 Z6.73789
X42.85209 Y-1.48193 Z6.66146
X43.20373 Y-1.7354 Z6.58503
X43.56065 Y-1.98137 Z6.50859
X43.92271 Y-2.21973 Z6.43216
X44.28972 Y-2.45037 Z6.35573
X44.66154 Y-2.6732 Z6.2793
X45.03799 Y-2.88809 Z6.20286
X45.4189 Y-3.09498 Z6.12643
X45.80411 Y-3.29375 Z6.05
G02 X35. Y10.6153 I9.19589 J18.29375 F551.
X24.19589 Y-3.29375 I-20. J4.3847
G1 X5.80411
G02 X-3.29375 Y5.80412 I9.19589 J18.29375
G1 Y24.19588
G0 Z11.5875
X0.99593 Y29.93533
G1 Z7.32 F137.7
X0.83374 Y29.78319 Z7.28079 F413.2
X0.52199 Y29.47801 Z7.20386
X0.21681 Y29.16626 Z7.12694
X-0.08165 Y28.84808 Z7.05002
X-0.37327 Y28.52361 Z6.97309
X-0.65791 Y28.193 Z6.89617
X-0.93544 Y27.8564 Z6.81924
X-1.20574 Y27.51397 Z6.74232
X-1.46868 Y27.16585 Z6.66539
X-1.72415 Y26.81221 Z6.58847
X-1.97202 Y26.45321 Z6.51155
X-2.21219 Y26.08901 Z6.43462
X-2.44454 Y25.71978 Z6.3577
X-2.66897 Y25.34568 Z6.28077
X-2.88538 Y24.96688 Z6.20385
X-3.09367 Y24.58355 Z6.12692
X-3.29375 Y24.19588 Z6.05
G02 X5.80412 Y33.29375 I18.29375 J-9.19588 F551.
G1 X24.19588
G02 X35. Y19.3847 I-9.19588 J-18.29375
X35.47609 Y21.16786 I20. J-4.3847
X45.80412 Y33.29375 I19.52391 J-6.16786
G0 Z11.5875
X1.6756 Y0.51544
G1 Z7.32 F137.7
X1.69307 Y0.49906 Z7.31578 F413.2
X2.00724 Y0.21691 Z7.24132
X2.32739 Y-0.05844 Z7.16686
X2.65337 Y-0.32685 Z7.0924
X2.98504 Y-0.58821 Z7.01795
X3.32224 Y-0.84239 Z6.94349
X3.66481 Y-1.08929 Z6.86903
X4.0126 Y-1.32877 Z6.79457
X4.36545 Y-1.56074 Z6.72012
X4.7232 Y-1.78508 Z6.64566
X5.08567 Y-2.0017 Z6.5712
X5.45271 Y-2.21049 Z6.49674
X5.82415 Y-2.41136 Z6.42229
X6.1998 Y-2.60421 Z6.34783
X6.57951 Y-2.78896 Z6.27337
X6.9631 Y-2.96552 Z6.19892
X7.35038 Y-3.13381 Z6.12446
X7.74119 Y-3.29375 Z6.05
G02 X-3.29375 Y7.74119 I7.25881 J18.29375 F551.
G1 Y10.30146
G03 X10.30145 Y-3.29375 I18.29375 J4.69854
G1 X19.69855
G0 Z11.5875
X0.51544 Y28.32439
G1 Z7.32 F137.7
X0.49906 Y28.30692 Z7.31578 F413.2
X0.21691 Y27.99276 Z7.24132
X-0.05844 Y27.67261 Z7.16686
X-0.32685 Y27.34662 Z7.0924
X-0.58821 Y27.01496 Z7.01795
X-0.84239 Y26.67776 Z6.94349
X-1.08928 Y26.33518 Z6.86903
X-1.32877 Y25.98739 Z6.79457
X-1.56074 Y25.63454 Z6.72012
X-1.78508 Y25.2768 Z6.64566
X-2.0017 Y24.91432 Z6.5712
X-2.21049 Y24.54728 Z6.49674
X-2.41136 Y24.17585 Z6.42229
X-2.60421 Y23.80019 Z6.34783
X-2.78896 Y23.42048 Z6.27337
X-2.96552 Y23.03689 Z6.19892
X-3.13381 Y22.64961 Z6.12446
X-3.29375 Y22.2588 Z6.05
G02 X7.7412 Y33.29375 I18.29375 J-7.2588 F551.
G1 X10.30147
G03 X-3.29375 Y19.69854 I4.69853 J-18.29375
G0 Z11.5875
X28.32439 Y29.48455
G1 Z7.32 F137.7
X28.02732 Y29.75264 Z7.24944 F413.2
X27.70562 Y30.0306 Z7.17448
X27.37798 Y30.30154 Z7.09951
X27.04458 Y30.56534 Z7.02455
X26.70555 Y30.82187 Z6.94958
X26.36106 Y31.07103 Z6.87462
X26.01126 Y31.31268 Z6.79965
X25.65633 Y31.54672 Z6.72469
X25.29643 Y31.77304 Z6.64972
X24.93173 Y31.99154 Z6.57476
X24.56238 Y32.2021 Z6.49979
X24.18858 Y32.40464 Z6.42483
X23.81049 Y32.59906 Z6.34986
X23.42828 Y32.78526 Z6.27489
X23.04215 Y32.96317 Z6.19993
X22.65226 Y33.13269 Z6.12496
X22.2588 Y33.29375 Z6.05
G02 X34.55583 Y17.21834 I-7.2588 J-18.29375 F551.
X22.25881 Y-3.29375 I-19.55583 J-2.21834
G1 X19.69855
G03 X33.76714 Y17.12887 I-4.69855 J18.29375
X19.69854 Y33.29375 I-18.76714 J-2.12887
G0 Z11.5875
X68.32439 Y29.48456
G1 Z7.32 F137.7
X68.30692 Y29.50094 Z7.31578 F413.2
X67.99276 Y29.78309 Z7.24132
X67.67261 Y30.05844 Z7.16686
X67.34662 Y30.32685 Z7.0924
X67.01496 Y30.58821 Z7.01795
X66.67776 Y30.84239 Z6.94349
X66.33518 Y31.08929 Z6.86903
X65.98739 Y31.32877 Z6.79457
X65.63454 Y31.56074 Z6.72012
X65.2768 Y31.78508 Z6.64566
X64.91432 Y32.0017 Z6.5712
X64.54728 Y32.21049 Z6.49674
X64.17585 Y32.41136 Z6.42229
X63.80019 Y32.60421 Z6.34783
X63.42048 Y32.78896 Z6.27337
X63.0369 Y32.96552 Z6.19892
X62.64961 Y33.13381 Z6.12446
X62.2588 Y33.29375 Z6.05
G02 X73.29375 Y22.25881 I-7.2588 J-18.29375 F551.
G1 Y19.69855
G03 X59.69854 Y33.29375 I-18.29375 J-4.69855
G1 X50.30146
G0 Z11.5875
X69.48456 Y1.6756
G1 Z7.32 F137.7
X69.50094 Y1.69307 Z7.31578 F413.2
X69.78309 Y2.00724 Z7.24132
X70.05844 Y2.32739 Z7.16686
X70.32685 Y2.65338 Z7.0924
X70.58821 Y2.98504 Z7.01795
X70.8424 Y3.32224 Z6.94349
X71.08929 Y3.66481 Z6.86903
X71.32877 Y4.0126 Z6.79457
X71.56074 Y4.36545 Z6.72012
X71.78508 Y4.7232 Z6.64566
X72.0017 Y5.08567 Z6.5712
X72.21049 Y5.45271 Z6.49674
X72.41136 Y5.82415 Z6.42229
X72.60421 Y6.1998 Z6.34783
X72.78896 Y6.57951 Z6.27337
X72.96552 Y6.9631 Z6.19892
X73.13381 Y7.35038 Z6.12446
X73.29375 Y7.74119 Z6.05
G02 X62.25881 Y-3.29375 I-18.29375 J7.25881 F551.
G1 X59.69855
G03 X73.29375 Y10.30145 I-4.69855 J18.29375
G0 Z11.5875
X41.67569 Y0.51553
G1 Z7.32 F137.7
X41.70314 Y0.48983 Z7.31337 F413.2
X42.0169 Y0.20842 Z7.23905
X42.33661 Y-0.0662 Z7.16474
X42.66213 Y-0.33391 Z7.09042
X42.99331 Y-0.59459 Z7.01611
X43.33 Y-0.84811 Z6.94179
X43.67204 Y-1.09437 Z6.86747
X44.01927 Y-1.33325 Z6.79316
X44.37154 Y-1.56464 Z6.71884
X44.72868 Y-1.78844 Z6.64453
X45.09053 Y-2.00453 Z6.57021
X45.45693 Y-2.21283 Z6.49589
X45.8277 Y-2.41323 Z6.42158
X46.20268 Y-2.60564 Z6.34726
X46.58169 Y-2.78999 Z6.27295
X46.96457 Y-2.96617 Z6.19863
X47.35112 Y-3.13412 Z6.12432
X47.74119 Y-3.29375 Z6.05
G02 X36.23297 Y20.92875 I7.25881 J18.29375 F551.
