%
G17 G21 G40 G90 G64 P0.1
(Standard Drill )
(1/8in Carbide Drill)
T25 M06
S16491 M3
G0 Z1.8
X62.5 Y5.
G21 S16491 M3
G81 X62.5 Y5. Z-2.96188 R1. F600.0
X62.5Y30.
X37.5Y30.
X27.5Y30.
X27.5Y5.
X37.5Y5.
X2.5Y5.
X2.5Y30.
G80
G0 Z1.8
(1/16in 1.6mm 1 Flute Carbide Router)
T31 M06
Z0.8
X20.10889 Y18.45819
G1 Z0.77 F478.
X20.09778 Y18.52598 Z0.75789 F1434.
X20.01046 Y18.89115 Z0.69168
X19.89702 Y19.24907 Z0.62548
X19.75804 Y19.59786 Z0.55927
X19.59426 Y19.93572 Z0.49307
X19.40653 Y20.26089 Z0.42686
X19.19582 Y20.57165 Z0.36066
X18.96324 Y20.86641 Z0.29445
X18.71 Y21.14361 Z0.22825
X18.43741 Y21.40182 Z0.16205
X18.14691 Y21.63968 Z0.09584
X17.83999 Y21.85597 Z0.02964
X17.51827 Y22.04954 Z-0.03657
X17.18342 Y22.21939 Z-0.10277
X16.83719 Y22.36464 Z-0.16898
X16.48138 Y22.48453 Z-0.23518
X16.11785 Y22.57843 Z-0.30139
X15.74848 Y22.64585 Z-0.36759
X15.37522 Y22.68644 Z-0.4338
X15. Y22.7 Z-0.5
G17
G03 Y12.3 I0. J-5.2 F600.
Y22.7 I0. J5.2
G1 Z-1.
G03 Y12.3 I0. J-5.2
Y22.7 I0. J5.2
G1 Z-1.5
G03 Y12.3 I0. J-5.2
Y22.7 I0. J5.2
G1 Z-2.
G03 Y12.3 I0. J-5.2
Y22.7 I0. J5.2
G1 Z-2.5
G03 Y12.3 I0. J-5.2
Y22.7 I0. J5.2
G0 Z0.8
X51.87182 Y12.65075
G1 Z0.77 F478.
X51.93646 Y12.67402 Z0.75789 F1434.
X52.27964 Y12.82633 Z0.69168
X52.61094 Y13.003 Z0.62548
X52.92863 Y13.20313 Z0.55927
X53.23105 Y13.42565 Z0.49307
X53.51662 Y13.66942 Z0.42686
X53.78386 Y13.93315 Z0.36066
X54.03137 Y14.21548 Z0.29445
X54.25786 Y14.51494 Z0.22825
X54.46216 Y14.82996 Z0.16205
X54.64319 Y15.1589 Z0.09584
X54.80002 Y15.50005 Z0.02964
X54.93182 Y15.85162 Z-0.03657
X55.03791 Y16.21178 Z-0.10277
X55.11773 Y16.57867 Z-0.16898
X55.17087 Y16.95035 Z-0.23518
X55.19705 Y17.3249 Z-0.30139
X55.19614 Y17.70037 Z-0.36759
X55.16813 Y18.07478 Z-0.4338
X55.11319 Y18.44621 Z-0.5
G03 X44.88681 Y16.55379 I-5.11319 J-0.94621 F600.
X55.11319 Y18.44621 I5.11319 J0.94621
G1 Z-1.
G03 X44.88681 Y16.55379 I-5.11319 J-0.94621
X55.11319 Y18.44621 I5.11319 J0.94621
G1 Z-1.5
G03 X44.88681 Y16.55379 I-5.11319 J-0.94621
X55.11319 Y18.44621 I5.11319 J0.94621
G1 Z-2.
G03 X44.88681 Y16.55379 I-5.11319 J-0.94621
X55.11319 Y18.44621 I5.11319 J0.94621
G1 Z-2.5
G03 X44.88681 Y16.55379 I-5.11319 J-0.94621
X55.11319 Y18.44621 I5.11319 J0.94621
G0 Z0.8
(2 1/2 Axis Profiling)
(1/16in 1.6mm 1 Flute Carbide Router)
X30.8 Y18.86586
G1 Z0.77 F478.
Y11.66333 Z-0.5 F1434.
Y0. F600.
G02 X30. Y-0.8 I-0.8 J0.
G1 X0.
G02 X-0.8 Y0. I0. J0.8
G1 Y35.
G02 X0. Y35.8 I0.8 J0.
G1 X30.
G02 X30.8 Y35. I0. J-0.8
G1 Y11.66333
Z-1.
Y0.
G02 X30. Y-0.8 I-0.8 J0.
G1 X0.
G02 X-0.8 Y0. I0. J0.8
G1 Y35.
G02 X0. Y35.8 I0.8 J0.
G1 X30.
G02 X30.8 Y35. I0. J-0.8
G1 Y11.66333
Z-1.5
Y0.
G02 X30. Y-0.8 I-0.8 J0.
G1 X0.
G02 X-0.8 Y0. I0. J0.8
G1 Y35.
G02 X0. Y35.8 I0.8 J0.
G1 X30.
G02 X30.8 Y35. I0. J-0.8
G1 Y11.66333
Z-2.
Y0.
G02 X30. Y-0.8 I-0.8 J0.
G1 X0.
G02 X-0.8 Y0. I0. J0.8
G1 Y35.
G02 X0. Y35.8 I0.8 J0.
G1 X30.
G02 X30.8 Y35. I0. J-0.8
G1 Y11.66333
Z-2.5
Y0.
G02 X30. Y-0.8 I-0.8 J0.
G1 X0.
G02 X-0.8 Y0. I0. J0.8
G1 Y35.
G02 X0. Y35.8 I0.8 J0.
G1 X30.
G02 X30.8 Y35. I0. J-0.8
G1 Y11.66333
G0 Z0.8
X65.8 Y30.53919
G1 Z0.77 F478.
Y23.33667 Z-0.5 F1434.
Y0. F600.
G02 X65. Y-0.8 I-0.8 J0.
G1 X35.
G02 X34.2 Y0. I0. J0.8
G1 Y35.
G02 X35. Y35.8 I0.8 J0.
G1 X65.
G02 X65.8 Y35. I0. J-0.8
G1 Y23.33667
Z-1.
Y0.
G02 X65. Y-0.8 I-0.8 J0.
G1 X35.
G02 X34.2 Y0. I0. J0.8
G1 Y35.
G02 X35. Y35.8 I0.8 J0.
G1 X65.
G02 X65.8 Y35. I0. J-0.8
G1 Y23.33667
Z-1.5
Y0.
G02 X65. Y-0.8 I-0.8 J0.
G1 X35.
G02 X34.2 Y0. I0. J0.8
G1 Y35.
G02 X35. Y35.8 I0.8 J0.
G1 X65.
G02 X65.8 Y35. I0. J-0.8
G1 Y23.33667
Z-2.
Y0.
G02 X65. Y-0.8 I-0.8 J0.
G1 X35.
G02 X34.2 Y0. I0. J0.8
G1 Y35.
G02 X35. Y35.8 I0.8 J0.
G1 X65.
G02 X65.8 Y35. I0. J-0.8
G1 Y23.33667
Z-2.5
Y0.
G02 X65. Y-0.8 I-0.8 J0.
G1 X35.
G02 X34.2 Y0. I0. J0.8
G1 Y35.
G02 X35. Y35.8 I0.8 J0.
G1 X65.
G02 X65.8 Y35. I0. J-0.8
G1 Y23.33667
G0 Z0.8
M30
%
