%
G17 G21 G40 G90 G64 P0.1
(Standard Drill )
(1/8in Carbide Drill)
T13 M06
S4912 M3
G0 Z21.5875
X2.5 Y27.5
G21 S4912 M3
G83 X2.5 Y27.5 Z-1.91654 R12. Q1.5 F147.0
X2.5Y2.5
X27.5Y2.5
X27.5Y27.5
X42.5Y27.5
X42.5Y2.5
X67.5Y2.5
X67.5Y27.5
G80
G0 Z21.5875
M30
%
