; generated by Slic3r 0.9.8 on 2013-04-01 at 20:45:19

; layer_height = 0.3
; perimeters = 3
; top_solid_layers = 3
; bottom_solid_layers = 3
; fill_density = 0.4
; perimeter_speed = 30
; infill_speed = 40
; travel_speed = 130
; scale = 1
; nozzle_diameter = 0.4
; filament_diameter = 3
; extrusion_multiplier = 1
; perimeters extrusion width = 0.42mm
; infill extrusion width = 0.42mm
; support material extrusion width = 0.24mm
; first layer extrusion width = 0.42mm

M190 P115 ; wait for bed temperature to be reached
M104 P235 ; set temperature
G92 A0                  ; Reset A to 0
G40                        ; Cancel cutter compensation
G64 P0.1                ; Path Blend within .1mm
G0 X108.5 Y108.5  ; Move to center
M109 P235 ; wait for temperature to be reached
G90 ; use absolute coordinates
G21 ; set units to millimeters
G0 A-1.00000
G0 Z0.400
G0 X125.310 Y124.930 F7800.000
G0 F3600.000 A0.10000
G1 X124.930000 Y125.310000 Z0.400000 A0.112640 F540.000000
G3 X120.560000 Y127.120000 Z0.400000 A0.226180 I-4.6289 J-4.9954
G1 X96.430000 Y127.120000 Z0.400000 A0.793820
G3 X89.870000 Y120.560000 Z0.400000 A1.033530 I0.2660 J-6.8260
G1 X89.870000 Y96.430000 Z0.400000 A1.601170
G3 X96.430000 Y89.870000 Z0.400000 A1.840880 I6.8260 J0.2660
G1 X120.560000 Y89.870000 Z0.400000 A2.408520
G3 X127.120000 Y96.430000 Z0.400000 A2.648230 I-0.2660 J6.8260
G1 X127.120000 Y120.560000 Z0.400000 A3.215870
G3 X125.310000 Y124.930000 Z0.400000 A3.329410 I-6.8568 J-0.2802
G0 X125.010 Y124.640 F7800.000
G1 X124.440000 Y125.190000 Z0.400000 A3.348040 F540.000000
G3 X120.290000 Y126.710000 Z0.400000 A3.454080 I-4.1461 J-4.8946
G1 X96.430000 Y126.700000 Z0.400000 A4.015370
G3 X90.280000 Y120.290000 Z0.400000 A4.246070 I0.2288 J-6.3748
G1 X90.290000 Y96.430000 Z0.400000 A4.807360
G3 X96.700000 Y90.280000 Z0.400000 A5.038060 I6.3748 J0.2288
G1 X120.560000 Y90.290000 Z0.400000 A5.599350
G3 X126.710000 Y96.700000 Z0.400000 A5.830050 I-0.2288 J6.3748
G1 X126.700000 Y120.560000 Z0.400000 A6.391340
G3 X125.010000 Y124.640000 Z0.400000 A6.497350 I-6.3105 J-0.2239
G0 A5.49735
G0 Z0.900
G0 X110.111 Y111.253 F7800.000
G0 Z0.400
G0 F3600.000 A6.59735
G1 X109.814000 Y110.956000 Z0.400000 A6.607240 F1080.000000
G0 X110.099 Y111.259 F7800.000
G1 X109.233000 Y111.196000 Z0.400000 A6.627660 F1080.000000
G0 X107.418 Y111.064 F7800.000
G1 X106.307000 Y110.983000 Z0.400000 A6.653870 F1080.000000
G1 X106.482000 Y111.158000 Z0.400000 A6.659690
G0 A5.65969
G0 Z0.900
G0 X106.044 Y107.186 F7800.000
G0 Z0.400
G0 F3600.000 A6.75969
G1 X105.679000 Y106.820000 Z0.400000 A6.771850 F1080.000000
G0 X105.689 Y106.786 F7800.000
G1 X107.695000 Y105.316000 Z0.400000 A6.830340 F1080.000000
G0 X107.705 Y105.311 F7800.000
G1 X108.072000 Y105.677000 Z0.400000 A6.842540 F1080.000000
G0 A5.84254
G0 Z0.900
G0 X111.323 Y108.928 F7800.000
G0 Z0.400
G0 F3600.000 A6.94254
G1 X111.606000 Y109.212000 Z0.400000 A6.951970 F1080.000000
G0 X113.053 Y109.406 F7800.000
G1 X112.943000 Y109.848000 Z0.400000 A6.962690 F540.000000
G3 X112.943000 Y107.152000 Z0.400000 A7.584320 I-4.4297 J-1.3480
G1 X113.053000 Y107.594000 Z0.400000 A7.595040
G3 X113.143000 Y108.500000 Z0.400000 A7.616480 I-4.6117 J0.9156
G1 X113.120000 Y108.955000 Z0.400000 A7.627190
G3 X113.053000 Y109.406000 Z0.400000 A7.637910 I-15.6715 J-2.0977
G0 X112.645 Y109.325 F7800.000
G1 X112.544000 Y109.727000 Z0.400000 A7.647670 F540.000000
G3 X112.706000 Y108.914000 Z0.400000 A8.252600 I-4.0428 J-1.2282
G1 X112.654000 Y109.263000 Z0.400000 A8.260890
G1 X112.645000 Y109.325000 Z0.400000 A8.262360
G0 X112.237 Y109.243 F7800.000
G1 X112.146000 Y109.606000 Z0.400000 A8.271160 F540.000000
G3 X112.292000 Y108.873000 Z0.400000 A8.816520 I-3.6453 J-1.1071
G1 X112.246000 Y109.182000 Z0.400000 A8.823850
G1 X112.237000 Y109.243000 Z0.400000 A8.825320
G0 X112.545 Y109.523 F7800.000
G0 A7.82532
G0 Z0.900
G0 X119.459 Y97.541 F7800.000
G0 Z0.400
G0 F3600.000 A8.92532
G1 X119.459000 Y119.459000 Z0.400000 A9.440900 F540.000000
G1 X97.541000 Y119.459000 Z0.400000 A9.956490
G1 X97.541000 Y97.541000 Z0.400000 A10.472070
G1 X119.459000 Y97.541000 Z0.400000 A10.987660
G0 X119.874 Y97.126 F7800.000
G1 X119.874000 Y119.874000 Z0.400000 A11.522800 F540.000000
G1 X97.126000 Y119.874000 Z0.400000 A12.057940
G1 X97.126000 Y97.126000 Z0.400000 A12.593090
G1 X119.874000 Y97.126000 Z0.400000 A13.128230
G0 X120.290 Y96.710 F7800.000
G1 X120.290000 Y120.290000 Z0.400000 A13.682930 F378.000000
G1 X96.710000 Y120.290000 Z0.400000 A14.237640
G1 X96.710000 Y96.710000 Z0.400000 A14.792340
G1 X120.290000 Y96.710000 Z0.400000 A15.347040
G0 X120.082 Y97.070 F7800.000
G0 X119.043 Y97.770
G1 X119.043000 Y119.230000 Z0.400000 A15.859170 F720.000000
G1 X118.621000 Y119.230000 Z0.400000 A15.869230
G1 X118.621000 Y97.770000 Z0.400000 A16.381350
G1 X118.200000 Y97.770000 Z0.400000 A16.391420
G1 X118.200000 Y119.230000 Z0.400000 A16.903540
G1 X117.778000 Y119.230000 Z0.400000 A16.913610
G1 X117.778000 Y97.770000 Z0.400000 A17.425730
G1 X117.356000 Y97.770000 Z0.400000 A17.435800
G1 X117.356000 Y119.230000 Z0.400000 A17.947920
G1 X116.934000 Y119.230000 Z0.400000 A17.957990
G1 X116.934000 Y97.770000 Z0.400000 A18.470110
G1 X116.513000 Y97.770000 Z0.400000 A18.480180
G1 X116.513000 Y119.230000 Z0.400000 A18.992300
G1 X116.091000 Y119.230000 Z0.400000 A19.002370
G1 X116.091000 Y97.770000 Z0.400000 A19.514490
G1 X115.669000 Y97.770000 Z0.400000 A19.524560
G1 X115.669000 Y119.230000 Z0.400000 A20.036680
G1 X115.248000 Y119.230000 Z0.400000 A20.046740
G1 X115.248000 Y97.770000 Z0.400000 A20.558870
G1 X114.826000 Y97.770000 Z0.400000 A20.568930
G1 X114.826000 Y119.230000 Z0.400000 A21.081060
G1 X114.404000 Y119.230000 Z0.400000 A21.091120
G1 X114.404000 Y97.770000 Z0.400000 A21.603250
G1 X113.982000 Y97.770000 Z0.400000 A21.613310
G1 X113.982000 Y119.230000 Z0.400000 A22.125440
G1 X113.561000 Y119.230000 Z0.400000 A22.135500
G1 X113.561000 Y97.770000 Z0.400000 A22.647630
G0 A21.64763
G0 Z0.900
G0 X113.139 Y106.678 F7800.000
G0 Z0.400
G0 F3600.000 A22.74763
G1 X113.139000 Y97.770000 Z0.400000 A22.960200 F720.000000
G1 X112.717000 Y97.770000 Z0.400000 A22.970260
G1 X112.717000 Y105.895000 Z0.400000 A23.164160
G1 X112.296000 Y105.351000 Z0.400000 A23.180580
G1 X112.296000 Y97.770000 Z0.400000 A23.361500
G1 X111.874000 Y97.770000 Z0.400000 A23.371560
G1 X111.874000 Y104.926000 Z0.400000 A23.542320
G1 X111.452000 Y104.586000 Z0.400000 A23.555250
G1 X111.452000 Y97.770000 Z0.400000 A23.717900
G1 X111.030000 Y97.770000 Z0.400000 A23.727970
G1 X111.030000 Y104.313000 Z0.400000 A23.884110
G1 X110.609000 Y104.095000 Z0.400000 A23.895440
G1 X110.609000 Y97.770000 Z0.400000 A24.046380
G1 X110.187000 Y97.770000 Z0.400000 A24.056440
G1 X110.187000 Y103.924000 Z0.400000 A24.203310
G1 X109.765000 Y103.795000 Z0.400000 A24.213830
G1 X109.765000 Y97.770000 Z0.400000 A24.357620
G1 X109.344000 Y97.770000 Z0.400000 A24.367680
G1 X109.344000 Y103.704000 Z0.400000 A24.509300
G1 X108.922000 Y103.649000 Z0.400000 A24.519450
G1 X108.922000 Y97.770000 Z0.400000 A24.659750
G1 X108.500000 Y97.770000 Z0.400000 A24.669810
G1 X108.500000 Y103.635000 Z0.400000 A24.809770
G1 X108.078000 Y103.650000 Z0.400000 A24.819840
G1 X108.078000 Y97.770000 Z0.400000 A24.960160
G1 X107.657000 Y97.770000 Z0.400000 A24.970230
G1 X107.657000 Y103.704000 Z0.400000 A25.111840
G1 X107.235000 Y103.795000 Z0.400000 A25.122140
G1 X107.235000 Y97.770000 Z0.400000 A25.265920
G1 X106.813000 Y97.770000 Z0.400000 A25.275990
G1 X106.813000 Y103.924000 Z0.400000 A25.422850
G1 X106.391000 Y104.095000 Z0.400000 A25.433710
G1 X106.391000 Y97.770000 Z0.400000 A25.584650
G1 X105.970000 Y97.770000 Z0.400000 A25.594720
G1 X105.970000 Y104.313000 Z0.400000 A25.750860
G1 X105.548000 Y104.586000 Z0.400000 A25.762840
G1 X105.548000 Y97.770000 Z0.400000 A25.925500
G1 X105.126000 Y97.770000 Z0.400000 A25.935560
G1 X105.126000 Y104.926000 Z0.400000 A26.106320
G1 X104.705000 Y105.351000 Z0.400000 A26.120610
G1 X104.705000 Y97.770000 Z0.400000 A26.301530
G1 X104.283000 Y97.770000 Z0.400000 A26.311590
G1 X104.283000 Y105.895000 Z0.400000 A26.505480
G1 X103.861000 Y106.677000 Z0.400000 A26.526700
G1 X103.861000 Y97.770000 Z0.400000 A26.739270
G0 A25.73927
G0 Z0.900
G0 X113.139 Y110.322 F7800.000
G0 Z0.400
G0 F3600.000 A26.83927
G1 X113.139000 Y119.230000 Z0.400000 A27.051840 F720.000000
G1 X112.717000 Y119.230000 Z0.400000 A27.061910
G1 X112.717000 Y111.105000 Z0.400000 A27.255800
G1 X112.296000 Y111.649000 Z0.400000 A27.272220
G1 X112.296000 Y119.230000 Z0.400000 A27.453140
G1 X111.874000 Y119.230000 Z0.400000 A27.463200
G1 X111.874000 Y112.074000 Z0.400000 A27.633960
G1 X111.452000 Y112.414000 Z0.400000 A27.646890
G1 X111.452000 Y119.230000 Z0.400000 A27.809550
G1 X111.030000 Y119.230000 Z0.400000 A27.819610
G1 X111.030000 Y112.687000 Z0.400000 A27.975750
G1 X110.609000 Y112.905000 Z0.400000 A27.987080
G1 X110.609000 Y119.230000 Z0.400000 A28.138020
G1 X110.187000 Y119.230000 Z0.400000 A28.148080
G1 X110.187000 Y113.076000 Z0.400000 A28.294950
G1 X109.765000 Y113.205000 Z0.400000 A28.305480
G1 X109.765000 Y119.230000 Z0.400000 A28.449260
G1 X109.344000 Y119.230000 Z0.400000 A28.459320
G1 X109.344000 Y113.296000 Z0.400000 A28.600940
G1 X108.922000 Y113.351000 Z0.400000 A28.611090
G1 X108.922000 Y119.230000 Z0.400000 A28.751390
G1 X108.500000 Y119.230000 Z0.400000 A28.761450
G1 X108.500000 Y113.372000 Z0.400000 A28.901260
G1 X108.078000 Y113.351000 Z0.400000 A28.911330
G1 X108.078000 Y119.230000 Z0.400000 A29.051630
G1 X107.657000 Y119.230000 Z0.400000 A29.061690
G1 X107.657000 Y113.296000 Z0.400000 A29.203310
G1 X107.235000 Y113.205000 Z0.400000 A29.213600
G1 X107.235000 Y119.230000 Z0.400000 A29.357390
G1 X106.813000 Y119.230000 Z0.400000 A29.367450
G1 X106.813000 Y113.076000 Z0.400000 A29.514320
G1 X106.391000 Y112.905000 Z0.400000 A29.525180
G1 X106.391000 Y119.230000 Z0.400000 A29.676120
G1 X105.970000 Y119.230000 Z0.400000 A29.686180
G1 X105.970000 Y112.687000 Z0.400000 A29.842320
G1 X105.548000 Y112.414000 Z0.400000 A29.854310
G1 X105.548000 Y119.230000 Z0.400000 A30.016960
G1 X105.126000 Y119.230000 Z0.400000 A30.027030
G1 X105.126000 Y112.074000 Z0.400000 A30.197790
G1 X104.705000 Y111.649000 Z0.400000 A30.212080
G1 X104.705000 Y119.230000 Z0.400000 A30.392990
G1 X104.283000 Y119.230000 Z0.400000 A30.403060
G1 X104.283000 Y111.105000 Z0.400000 A30.596950
G1 X103.861000 Y110.323000 Z0.400000 A30.618170
G1 X103.861000 Y119.230000 Z0.400000 A30.830740
G1 X103.439000 Y119.230000 Z0.400000 A30.840800
G1 X103.439000 Y97.770000 Z0.400000 A31.352930
G1 X103.018000 Y97.770000 Z0.400000 A31.362990
G1 X103.018000 Y119.230000 Z0.400000 A31.875110
G1 X102.596000 Y119.230000 Z0.400000 A31.885180
G1 X102.596000 Y97.770000 Z0.400000 A32.397300
G1 X102.174000 Y97.770000 Z0.400000 A32.407370
G1 X102.174000 Y119.230000 Z0.400000 A32.919490
G1 X101.753000 Y119.230000 Z0.400000 A32.929560
G1 X101.753000 Y97.770000 Z0.400000 A33.441680
G1 X101.331000 Y97.770000 Z0.400000 A33.451750
G1 X101.331000 Y119.230000 Z0.400000 A33.963870
G1 X100.909000 Y119.230000 Z0.400000 A33.973940
G1 X100.909000 Y97.770000 Z0.400000 A34.486060
G1 X100.487000 Y97.770000 Z0.400000 A34.496130
G1 X100.487000 Y119.230000 Z0.400000 A35.008250
G1 X100.066000 Y119.230000 Z0.400000 A35.018320
G1 X100.066000 Y97.770000 Z0.400000 A35.530440
G1 X99.644000 Y97.770000 Z0.400000 A35.540500
G1 X99.644000 Y119.230000 Z0.400000 A36.052630
G1 X99.222000 Y119.230000 Z0.400000 A36.062690
G1 X99.222000 Y97.770000 Z0.400000 A36.574820
G1 X98.801000 Y97.770000 Z0.400000 A36.584880
G1 X98.801000 Y119.230000 Z0.400000 A37.097010
G1 X98.379000 Y119.230000 Z0.400000 A37.107070
G1 X98.379000 Y97.770000 Z0.400000 A37.619200
G1 X97.957000 Y97.770000 Z0.400000 A37.629260
G1 X97.957000 Y119.230000 Z0.400000 A38.141390
M104 P230 ; set temperature
M140 P110 ; set bed temperature
G0 A37.14139
G0 Z0.700
G0 X96.430 Y127.120 F7800.000
G0 F3600.000 A38.24139
G1 X95.630000 Y127.040000 Z0.700000 A38.255570 F1800.000000
G3 X89.870000 Y120.560000 Z0.700000 A38.421170 I1.0616 J-6.7437
G1 X89.870000 Y96.430000 Z0.700000 A38.846900
G3 X96.430000 Y89.870000 Z0.700000 A39.026690 I6.8260 J0.2660
G1 X120.560000 Y89.870000 Z0.700000 A39.452420
G3 X127.120000 Y96.430000 Z0.700000 A39.632200 I-0.2660 J6.8260
G1 X127.120000 Y120.560000 Z0.700000 A40.057930
G3 X120.560000 Y127.120000 Z0.700000 A40.237720 I-6.8260 J-0.2660
G1 X96.492000 Y127.120000 Z0.700000 A40.662350
G1 X96.430000 Y127.120000 Z0.700000 A40.663450
G0 X96.430 Y126.700 F7800.000
G1 X95.910000 Y126.660000 Z0.700000 A40.672650 F1800.000000
G3 X90.280000 Y120.290000 Z0.700000 A40.836480 I0.7795 J-6.3619
G1 X90.280000 Y96.700000 Z0.700000 A41.252680
G3 X96.700000 Y90.280000 Z0.700000 A41.430450 I6.4165 J-0.0035
G1 X120.290000 Y90.280000 Z0.700000 A41.846650
G3 X126.710000 Y96.700000 Z0.700000 A42.024450 I0.0035 J6.4165
G1 X126.710000 Y120.290000 Z0.700000 A42.440650
G3 X125.660000 Y123.800000 Z0.700000 A42.506170 I-6.4254 J-0.0101
G1 X125.190000 Y124.440000 Z0.700000 A42.520180
G3 X120.290000 Y126.710000 Z0.700000 A42.618420 I-4.8969 J-4.1469
G1 X96.492000 Y126.702000 Z0.700000 A43.038290
G1 X96.430000 Y126.700000 Z0.700000 A43.039390
G0 A42.03939
G0 Z1.200
G0 X106.482 Y111.158 F7800.000
G0 Z0.700
G0 F3600.000 A43.13939
G1 X106.307000 Y110.983000 Z0.700000 A43.142270 F3600.000000
G1 X107.418000 Y111.064000 Z0.700000 A43.155240
G0 X109.233 Y111.196 F7800.000
G1 X110.103000 Y111.260000 Z0.700000 A43.165390 F3600.000000
G0 X110.113 Y111.254 F7800.000
G1 X109.814000 Y110.956000 Z0.700000 A43.170300 F3600.000000
G0 X111.606 Y109.212 F7800.000
G1 X111.323000 Y108.928000 Z0.700000 A43.174970 F3600.000000
G0 A42.17497
G0 Z1.200
G0 X108.072 Y105.677 F7800.000
G0 Z0.700
G0 F3600.000 A43.27497
G1 X107.704000 Y105.310000 Z0.700000 A43.281020 F3600.000000
G1 X105.687000 Y106.788000 Z0.700000 A43.310140
G0 X105.677 Y106.819 F7800.000
G1 X106.044000 Y107.186000 Z0.700000 A43.316180 F3600.000000
G0 X104.436 Y106.245 F7800.000
G1 X104.633000 Y105.916000 Z0.700000 A43.322990 F1800.000000
G3 X103.849000 Y108.500000 Z0.700000 A43.793630 I3.8670 J2.5842
G1 X103.871000 Y108.044000 Z0.700000 A43.801740
G3 X104.436000 Y106.245000 Z0.700000 A43.835500 I4.5539 J0.4420
G0 X104.795 Y106.460 F7800.000
G1 X104.981000 Y106.149000 Z0.700000 A43.841940 F1800.000000
G3 X104.268000 Y108.500000 Z0.700000 A44.270140 I3.5090 J2.3478
G1 X104.289000 Y108.085000 Z0.700000 A44.277520
G3 X104.795000 Y106.460000 Z0.700000 A44.307990 I4.1797 J0.4102
G0 X105.154 Y106.675 F7800.000
G1 X105.330000 Y106.382000 Z0.700000 A44.314070 F1800.000000
G3 X104.688000 Y108.500000 Z0.700000 A44.699830 I3.1557 J2.1128
G1 X104.706000 Y108.126000 Z0.700000 A44.706480
G3 X105.154000 Y106.675000 Z0.700000 A44.733650 I3.7749 J0.3709
G0 X104.940 Y106.316 F7800.000
G0 A43.73365
G0 Z1.200
G0 X119.450 Y97.550 F7800.000
G0 Z0.700
G0 F3600.000 A44.83365
G1 X119.450000 Y119.450000 Z0.700000 A45.222990 F1800.000000
G1 X97.550000 Y119.450000 Z0.700000 A45.612330
G1 X97.550000 Y97.550000 Z0.700000 A46.001680
G1 X119.450000 Y97.550000 Z0.700000 A46.391020
G0 X119.869 Y97.131 F7800.000
G1 X119.869000 Y119.869000 Z0.700000 A46.795250 F1800.000000
G1 X97.131000 Y119.869000 Z0.700000 A47.199490
G1 X97.131000 Y97.131000 Z0.700000 A47.603720
G1 X119.869000 Y97.131000 Z0.700000 A48.007960
G0 X120.288 Y96.712 F7800.000
G1 X120.288000 Y120.288000 Z0.700000 A48.427080 F1260.000000
G1 X96.712000 Y120.288000 Z0.700000 A48.846210
G1 X96.712000 Y96.712000 Z0.700000 A49.265340
G1 X120.288000 Y96.712000 Z0.700000 A49.684470
G0 X120.079 Y97.075 F7800.000
G0 A48.68447
G0 Z1.200
G0 X108.622 Y113.555 F7800.000
G0 Z0.700
G0 F3600.000 A49.78447
G1 X119.220000 Y113.555000 Z0.700000 A49.973940 F2400.000000
G1 X119.220000 Y113.134000 Z0.700000 A49.981480
G1 X110.359000 Y113.134000 Z0.700000 A50.139900
G1 X111.133000 Y112.712000 Z0.700000 A50.155660
G1 X119.220000 Y112.712000 Z0.700000 A50.300240
G1 X119.220000 Y112.291000 Z0.700000 A50.307780
G1 X111.669000 Y112.291000 Z0.700000 A50.442770
G1 X112.092000 Y111.870000 Z0.700000 A50.453430
G1 X119.220000 Y111.870000 Z0.700000 A50.580870
G1 X119.220000 Y111.449000 Z0.700000 A50.588400
G1 X112.430000 Y111.449000 Z0.700000 A50.709810
G1 X112.701000 Y111.027000 Z0.700000 A50.718760
G1 X119.220000 Y111.027000 Z0.700000 A50.835320
G1 X119.220000 Y110.606000 Z0.700000 A50.842850
G1 X112.917000 Y110.606000 Z0.700000 A50.955530
G1 X113.087000 Y110.185000 Z0.700000 A50.963650
G1 X119.220000 Y110.185000 Z0.700000 A51.073290
G1 X119.220000 Y109.764000 Z0.700000 A51.080820
G1 X113.216000 Y109.764000 Z0.700000 A51.188170
G1 X113.306000 Y109.342000 Z0.700000 A51.195880
G1 X119.220000 Y109.342000 Z0.700000 A51.301610
G1 X119.220000 Y108.921000 Z0.700000 A51.309140
G1 X113.361000 Y108.921000 Z0.700000 A51.413880
G1 X113.382000 Y108.500000 Z0.700000 A51.421430
G1 X119.220000 Y108.500000 Z0.700000 A51.525800
G1 X119.220000 Y108.079000 Z0.700000 A51.533340
G1 X113.361000 Y108.079000 Z0.700000 A51.638080
G1 X113.306000 Y107.657000 Z0.700000 A51.645680
G1 X119.220000 Y107.657000 Z0.700000 A51.751410
G1 X119.220000 Y107.236000 Z0.700000 A51.758940
G1 X113.220000 Y107.236000 Z0.700000 A51.866210
G1 X113.087000 Y106.815000 Z0.700000 A51.874100
G1 X119.220000 Y106.815000 Z0.700000 A51.983750
G1 X119.220000 Y106.394000 Z0.700000 A51.991280
G1 X112.917000 Y106.394000 Z0.700000 A52.103960
G1 X112.701000 Y105.972000 Z0.700000 A52.112430
G1 X119.220000 Y105.972000 Z0.700000 A52.228980
G1 X119.220000 Y105.551000 Z0.700000 A52.236510
G1 X112.430000 Y105.551000 Z0.700000 A52.357910
G1 X112.092000 Y105.130000 Z0.700000 A52.367560
G1 X119.220000 Y105.130000 Z0.700000 A52.495010
G1 X119.220000 Y104.709000 Z0.700000 A52.502540
G1 X111.669000 Y104.709000 Z0.700000 A52.637530
G1 X111.133000 Y104.287000 Z0.700000 A52.649730
G1 X119.220000 Y104.287000 Z0.700000 A52.794310
G1 X119.220000 Y103.866000 Z0.700000 A52.801840
G1 X110.359000 Y103.866000 Z0.700000 A52.960270
G1 X108.622000 Y103.445000 Z0.700000 A52.992220
G1 X119.220000 Y103.445000 Z0.700000 A53.181700
G1 X119.220000 Y103.024000 Z0.700000 A53.189230
G1 X97.780000 Y103.024000 Z0.700000 A53.572540
G1 X97.780000 Y103.445000 Z0.700000 A53.580070
G1 X108.378000 Y103.445000 Z0.700000 A53.769550
G3 X97.780000 Y103.866000 Z0.700000 A53.959920 I-6.1675 J-21.6526
G1 X97.780000 Y104.287000 Z0.700000 A53.967450
G1 X105.867000 Y104.287000 Z0.700000 A54.112040
G1 X105.331000 Y104.709000 Z0.700000 A54.124240
G1 X97.780000 Y104.709000 Z0.700000 A54.259230
G1 X97.780000 Y105.130000 Z0.700000 A54.266760
G1 X104.908000 Y105.130000 Z0.700000 A54.394200
G1 X104.570000 Y105.551000 Z0.700000 A54.403850
G1 X97.780000 Y105.551000 Z0.700000 A54.525250
G1 X97.780000 Y105.972000 Z0.700000 A54.532790
G1 X104.299000 Y105.972000 Z0.700000 A54.649340
G1 X104.083000 Y106.394000 Z0.700000 A54.657810
G1 X97.780000 Y106.394000 Z0.700000 A54.770490
G1 X97.780000 Y106.815000 Z0.700000 A54.778020
G1 X103.913000 Y106.815000 Z0.700000 A54.887660
G1 X103.784000 Y107.236000 Z0.700000 A54.895540
G1 X97.780000 Y107.236000 Z0.700000 A55.002880
G1 X97.780000 Y107.657000 Z0.700000 A55.010420
G1 X103.694000 Y107.657000 Z0.700000 A55.116150
G1 X103.639000 Y108.079000 Z0.700000 A55.123740
G1 X97.780000 Y108.079000 Z0.700000 A55.228490
G1 X97.780000 Y108.500000 Z0.700000 A55.236020
G1 X103.618000 Y108.500000 Z0.700000 A55.340400
G1 X103.639000 Y108.921000 Z0.700000 A55.347940
G1 X97.780000 Y108.921000 Z0.700000 A55.452690
G1 X97.780000 Y109.342000 Z0.700000 A55.460220
G1 X103.694000 Y109.342000 Z0.700000 A55.565950
G1 X103.784000 Y109.764000 Z0.700000 A55.573650
G1 X97.780000 Y109.764000 Z0.700000 A55.681000
G1 X97.780000 Y110.185000 Z0.700000 A55.688530
G1 X103.913000 Y110.185000 Z0.700000 A55.798170
G1 X104.083000 Y110.606000 Z0.700000 A55.806290
G1 X97.780000 Y110.606000 Z0.700000 A55.918970
G1 X97.780000 Y111.027000 Z0.700000 A55.926500
G1 X104.299000 Y111.027000 Z0.700000 A56.043060
G1 X104.570000 Y111.449000 Z0.700000 A56.052020
G1 X97.780000 Y111.449000 Z0.700000 A56.173420
G1 X97.780000 Y111.870000 Z0.700000 A56.180950
G1 X104.908000 Y111.870000 Z0.700000 A56.308390
G1 X105.331000 Y112.291000 Z0.700000 A56.319050
G1 X97.780000 Y112.291000 Z0.700000 A56.454050
G1 X97.780000 Y112.712000 Z0.700000 A56.461580
G1 X105.867000 Y112.712000 Z0.700000 A56.606160
G1 X106.641000 Y113.134000 Z0.700000 A56.621920
G1 X97.780000 Y113.134000 Z0.700000 A56.780350
G0 A55.78035
G0 Z1.200
G0 X97.780 Y102.602 F7800.000
G0 Z0.700
G0 F3600.000 A56.88035
G1 X119.220000 Y102.602000 Z0.700000 A57.263660 F2400.000000
G1 X119.220000 Y102.181000 Z0.700000 A57.271190
G1 X97.780000 Y102.181000 Z0.700000 A57.654500
G1 X97.780000 Y101.760000 Z0.700000 A57.662040
G1 X119.220000 Y101.760000 Z0.700000 A58.045350
G1 X119.220000 Y101.339000 Z0.700000 A58.052880
G1 X97.780000 Y101.339000 Z0.700000 A58.436190
G1 X97.780000 Y100.917000 Z0.700000 A58.443720
G1 X119.220000 Y100.917000 Z0.700000 A58.827040
G1 X119.220000 Y100.496000 Z0.700000 A58.834570
G1 X97.780000 Y100.496000 Z0.700000 A59.217880
G1 X97.780000 Y100.075000 Z0.700000 A59.225410
G1 X119.220000 Y100.075000 Z0.700000 A59.608730
G1 X119.220000 Y99.654000 Z0.700000 A59.616260
G1 X97.780000 Y99.654000 Z0.700000 A59.999570
G1 X97.780000 Y99.232000 Z0.700000 A60.007100
G1 X119.220000 Y99.232000 Z0.700000 A60.390420
G1 X119.220000 Y98.811000 Z0.700000 A60.397950
G1 X97.780000 Y98.811000 Z0.700000 A60.781260
G1 X97.780000 Y98.390000 Z0.700000 A60.788790
G1 X119.220000 Y98.390000 Z0.700000 A61.172110
G1 X119.220000 Y97.969000 Z0.700000 A61.179640
G1 X97.780000 Y97.969000 Z0.700000 A61.562950
G0 A60.56295
G0 Z1.200
G0 X108.378 Y113.555 F7800.000
G0 Z0.700
G0 F3600.000 A61.66295
G1 X97.780000 Y113.555000 Z0.700000 A61.852430 F2400.000000
G1 X97.780000 Y113.976000 Z0.700000 A61.859960
G1 X119.220000 Y113.976000 Z0.700000 A62.243270
G1 X119.220000 Y114.398000 Z0.700000 A62.250800
G1 X97.780000 Y114.398000 Z0.700000 A62.634120
G1 X97.780000 Y114.819000 Z0.700000 A62.641650
G1 X119.220000 Y114.819000 Z0.700000 A63.024960
G1 X119.220000 Y115.240000 Z0.700000 A63.032490
G1 X97.780000 Y115.240000 Z0.700000 A63.415810
G1 X97.780000 Y115.661000 Z0.700000 A63.423340
G1 X119.220000 Y115.661000 Z0.700000 A63.806650
G1 X119.220000 Y116.083000 Z0.700000 A63.814180
G1 X97.780000 Y116.083000 Z0.700000 A64.197500
G1 X97.780000 Y116.504000 Z0.700000 A64.205030
G1 X119.220000 Y116.504000 Z0.700000 A64.588340
G1 X119.220000 Y116.925000 Z0.700000 A64.595870
G1 X97.780000 Y116.925000 Z0.700000 A64.979190
G1 X97.780000 Y117.346000 Z0.700000 A64.986720
G1 X119.220000 Y117.346000 Z0.700000 A65.370030
G1 X119.220000 Y117.768000 Z0.700000 A65.377560
G1 X97.780000 Y117.768000 Z0.700000 A65.760880
G1 X97.780000 Y118.189000 Z0.700000 A65.768410
G1 X119.220000 Y118.189000 Z0.700000 A66.151720
G1 X119.220000 Y118.610000 Z0.700000 A66.159250
G1 X97.780000 Y118.610000 Z0.700000 A66.542570
G1 X97.780000 Y119.031000 Z0.700000 A66.550100
G1 X119.220000 Y119.031000 Z0.700000 A66.933410
G0 A65.93341
G0 Z1.000
G0 X110.113 Y111.254 F7800.000
G0 F3600.000 A67.03341
G1 X109.814000 Y110.956000 Z1.000000 A67.038320 F3600.000000
G0 X110.103 Y111.260 F7800.000
G1 X109.233000 Y111.196000 Z1.000000 A67.048470 F3600.000000
G0 X107.418 Y111.064 F7800.000
G1 X106.307000 Y110.983000 Z1.000000 A67.061440 F3600.000000
G1 X106.482000 Y111.158000 Z1.000000 A67.064320
G0 A66.06432
G0 Z1.500
G0 X106.044 Y107.186 F7800.000
G0 Z1.000
G0 F3600.000 A67.16432
G1 X105.677000 Y106.819000 Z1.000000 A67.170370 F3600.000000
G0 X105.687 Y106.788 F7800.000
G1 X107.704000 Y105.310000 Z1.000000 A67.199480 F3600.000000
G1 X108.072000 Y105.677000 Z1.000000 A67.205540
G0 A66.20554
G0 Z1.500
G0 X111.323 Y108.928 F7800.000
G0 Z1.000
G0 F3600.000 A67.30554
G1 X111.606000 Y109.212000 Z1.000000 A67.310210 F3600.000000
G0 X113.062 Y109.407 F7800.000
G1 X112.951000 Y109.850000 Z1.000000 A67.318320 F1800.000000
G3 X113.129000 Y108.956000 Z1.000000 A67.821410 I-4.4474 J-1.3502
G1 X113.071000 Y109.345000 Z1.000000 A67.828410
G1 X113.062000 Y109.407000 Z1.000000 A67.829520
G0 X112.650 Y109.326 F7800.000
G1 X112.549000 Y109.728000 Z1.000000 A67.836910 F1800.000000
G3 X112.711000 Y108.915000 Z1.000000 A68.294630 I-4.0488 J-1.2294
G1 X112.660000 Y109.263000 Z1.000000 A68.300900
G1 X112.650000 Y109.326000 Z1.000000 A68.302020
G0 X112.239 Y109.244 F7800.000
G1 X112.148000 Y109.607000 Z1.000000 A68.308670 F1800.000000
G3 X112.294000 Y108.874000 Z1.000000 A68.721020 I-3.6464 J-1.1073
G1 X112.248000 Y109.182000 Z1.000000 A68.726560
G1 X112.239000 Y109.244000 Z1.000000 A68.727680
G0 X112.549 Y109.525 F7800.000
G0 A67.72768
G0 Z1.500
G0 X119.450 Y97.550 F7800.000
G0 Z1.000
G0 F3600.000 A68.82768
G1 X119.450000 Y119.450000 Z1.000000 A69.217020 F1800.000000
G1 X97.550000 Y119.450000 Z1.000000 A69.606360
G1 X97.550000 Y97.550000 Z1.000000 A69.995700
G1 X119.450000 Y97.550000 Z1.000000 A70.385040
G0 X119.869 Y97.131 F7800.000
G1 X119.869000 Y119.869000 Z1.000000 A70.789280 F1800.000000
G1 X97.131000 Y119.869000 Z1.000000 A71.193510
G1 X97.131000 Y97.131000 Z1.000000 A71.597750
G1 X119.869000 Y97.131000 Z1.000000 A72.001980
G0 X120.288 Y96.712 F7800.000
G1 X120.288000 Y120.288000 Z1.000000 A72.421110 F1260.000000
G1 X96.712000 Y120.288000 Z1.000000 A72.840240
G1 X96.712000 Y96.712000 Z1.000000 A73.259360
G1 X120.288000 Y96.712000 Z1.000000 A73.678490
G0 X120.079 Y97.075 F7800.000
G0 X119.031 Y97.780
G1 X119.031000 Y119.220000 Z1.000000 A74.061810 F2400.000000
G1 X118.610000 Y119.220000 Z1.000000 A74.069340
G1 X118.610000 Y97.780000 Z1.000000 A74.452650
G1 X118.189000 Y97.780000 Z1.000000 A74.460180
G1 X118.189000 Y119.220000 Z1.000000 A74.843490
G1 X117.768000 Y119.220000 Z1.000000 A74.851030
G1 X117.768000 Y97.780000 Z1.000000 A75.234340
G1 X117.346000 Y97.780000 Z1.000000 A75.241870
G1 X117.346000 Y119.220000 Z1.000000 A75.625180
G1 X116.925000 Y119.220000 Z1.000000 A75.632710
G1 X116.925000 Y97.780000 Z1.000000 A76.016030
G1 X116.504000 Y97.780000 Z1.000000 A76.023560
G1 X116.504000 Y119.220000 Z1.000000 A76.406870
G1 X116.083000 Y119.220000 Z1.000000 A76.414400
G1 X116.083000 Y97.780000 Z1.000000 A76.797710
G1 X115.661000 Y97.780000 Z1.000000 A76.805250
G1 X115.661000 Y119.220000 Z1.000000 A77.188560
G1 X115.240000 Y119.220000 Z1.000000 A77.196090
G1 X115.240000 Y97.780000 Z1.000000 A77.579400
G1 X114.819000 Y97.780000 Z1.000000 A77.586940
G1 X114.819000 Y119.220000 Z1.000000 A77.970250
G1 X114.398000 Y119.220000 Z1.000000 A77.977780
G1 X114.398000 Y97.780000 Z1.000000 A78.361090
G0 A77.36109
G0 Z1.500
G0 X103.866 Y97.780 F7800.000
G0 Z1.000
G0 F3600.000 A78.46109
G1 X103.866000 Y106.641000 Z1.000000 A78.619520 F2400.000000
G1 X104.287000 Y105.867000 Z1.000000 A78.635270
G1 X104.287000 Y97.780000 Z1.000000 A78.779860
G1 X104.709000 Y97.780000 Z1.000000 A78.787390
G1 X104.709000 Y105.331000 Z1.000000 A78.922380
G1 X105.130000 Y104.908000 Z1.000000 A78.933040
G1 X105.130000 Y97.780000 Z1.000000 A79.060480
G1 X105.551000 Y97.780000 Z1.000000 A79.068020
G1 X105.551000 Y104.570000 Z1.000000 A79.189420
G1 X105.972000 Y104.299000 Z1.000000 A79.198380
G1 X105.972000 Y97.780000 Z1.000000 A79.314930
G1 X106.394000 Y97.780000 Z1.000000 A79.322460
G1 X106.394000 Y104.083000 Z1.000000 A79.435140
G1 X106.815000 Y103.913000 Z1.000000 A79.443260
G1 X106.815000 Y97.780000 Z1.000000 A79.552900
G1 X107.236000 Y97.780000 Z1.000000 A79.560430
G1 X107.236000 Y103.784000 Z1.000000 A79.667780
G1 X107.658000 Y103.694000 Z1.000000 A79.675480
G1 X107.658000 Y97.780000 Z1.000000 A79.781210
G1 X108.079000 Y97.780000 Z1.000000 A79.788740
G1 X108.079000 Y103.639000 Z1.000000 A79.893490
G1 X108.500000 Y103.618000 Z1.000000 A79.901030
G1 X108.500000 Y97.780000 Z1.000000 A80.005410
G1 X108.921000 Y97.780000 Z1.000000 A80.012940
G1 X108.921000 Y103.639000 Z1.000000 A80.117690
G1 X109.343000 Y103.694000 Z1.000000 A80.125280
G1 X109.343000 Y97.780000 Z1.000000 A80.231010
G1 X109.764000 Y97.780000 Z1.000000 A80.238540
G1 X109.764000 Y103.784000 Z1.000000 A80.345890
G1 X110.185000 Y103.913000 Z1.000000 A80.353760
G1 X110.185000 Y97.780000 Z1.000000 A80.463400
G1 X110.606000 Y97.780000 Z1.000000 A80.470940
G1 X110.606000 Y104.083000 Z1.000000 A80.583620
G1 X111.028000 Y104.299000 Z1.000000 A80.592080
G1 X111.028000 Y97.780000 Z1.000000 A80.708640
G1 X111.449000 Y97.780000 Z1.000000 A80.716170
G1 X111.449000 Y104.570000 Z1.000000 A80.837570
G1 X111.870000 Y104.908000 Z1.000000 A80.847220
G1 X111.870000 Y97.780000 Z1.000000 A80.974660
G1 X112.291000 Y97.780000 Z1.000000 A80.982190
G1 X112.291000 Y105.331000 Z1.000000 A81.117180
G1 X112.713000 Y105.867000 Z1.000000 A81.129380
G1 X112.713000 Y97.780000 Z1.000000 A81.273970
G1 X113.134000 Y97.780000 Z1.000000 A81.281500
G1 X113.134000 Y106.641000 Z1.000000 A81.439920
G1 X113.555000 Y108.378000 Z1.000000 A81.471880
G1 X113.555000 Y97.780000 Z1.000000 A81.661350
G1 X113.976000 Y97.780000 Z1.000000 A81.668880
G1 X113.976000 Y119.220000 Z1.000000 A82.052190
G1 X113.555000 Y119.220000 Z1.000000 A82.059730
G1 X113.555000 Y108.622000 Z1.000000 A82.249200
G2 X113.134000 Y119.220000 Z1.000000 A82.439580 I21.6526 J6.1675
G1 X112.713000 Y119.220000 Z1.000000 A82.447110
G1 X112.713000 Y111.133000 Z1.000000 A82.591700
G1 X112.291000 Y111.669000 Z1.000000 A82.603890
G1 X112.291000 Y119.220000 Z1.000000 A82.738890
G1 X111.870000 Y119.220000 Z1.000000 A82.746420
G1 X111.870000 Y112.092000 Z1.000000 A82.873860
G1 X111.449000 Y112.430000 Z1.000000 A82.883510
G1 X111.449000 Y119.220000 Z1.000000 A83.004910
G1 X111.028000 Y119.220000 Z1.000000 A83.012450
G1 X111.028000 Y112.701000 Z1.000000 A83.129000
G1 X110.606000 Y112.917000 Z1.000000 A83.137470
G1 X110.606000 Y119.220000 Z1.000000 A83.250150
G1 X110.185000 Y119.220000 Z1.000000 A83.257680
G1 X110.185000 Y113.087000 Z1.000000 A83.367320
G1 X109.764000 Y113.216000 Z1.000000 A83.375190
G1 X109.764000 Y119.220000 Z1.000000 A83.482540
G1 X109.343000 Y119.220000 Z1.000000 A83.490080
G1 X109.343000 Y113.306000 Z1.000000 A83.595810
G1 X108.921000 Y113.361000 Z1.000000 A83.603400
G1 X108.921000 Y119.220000 Z1.000000 A83.708150
G1 X108.500000 Y119.220000 Z1.000000 A83.715680
G1 X108.500000 Y113.382000 Z1.000000 A83.820060
G1 X108.079000 Y113.361000 Z1.000000 A83.827600
G1 X108.079000 Y119.220000 Z1.000000 A83.932340
G1 X107.658000 Y119.220000 Z1.000000 A83.939870
G1 X107.658000 Y113.306000 Z1.000000 A84.045610
G1 X107.236000 Y113.216000 Z1.000000 A84.053310
G1 X107.236000 Y119.220000 Z1.000000 A84.160660
G1 X106.815000 Y119.220000 Z1.000000 A84.168190
G1 X106.815000 Y113.087000 Z1.000000 A84.277830
G1 X106.394000 Y112.917000 Z1.000000 A84.285950
G1 X106.394000 Y119.220000 Z1.000000 A84.398630
G1 X105.972000 Y119.220000 Z1.000000 A84.406160
G1 X105.972000 Y112.701000 Z1.000000 A84.522720
G1 X105.551000 Y112.430000 Z1.000000 A84.531670
G1 X105.551000 Y119.220000 Z1.000000 A84.653080
G1 X105.130000 Y119.220000 Z1.000000 A84.660610
G1 X105.130000 Y112.092000 Z1.000000 A84.788050
G1 X104.709000 Y111.669000 Z1.000000 A84.798710
G1 X104.709000 Y119.220000 Z1.000000 A84.933710
G1 X104.287000 Y119.220000 Z1.000000 A84.941240
G1 X104.287000 Y111.133000 Z1.000000 A85.085820
G1 X103.866000 Y110.359000 Z1.000000 A85.101580
G1 X103.866000 Y119.220000 Z1.000000 A85.260010
G1 X103.445000 Y119.220000 Z1.000000 A85.267540
G1 X103.445000 Y108.622000 Z1.000000 A85.457010
G0 X103.445 Y108.378 F7800.000
G1 X103.445000 Y97.780000 Z1.000000 A85.646490 F2400.000000
G1 X103.024000 Y97.780000 Z1.000000 A85.654020
G1 X103.024000 Y119.220000 Z1.000000 A86.037330
G1 X102.602000 Y119.220000 Z1.000000 A86.044860
G1 X102.602000 Y97.780000 Z1.000000 A86.428180
G1 X102.181000 Y97.780000 Z1.000000 A86.435710
G1 X102.181000 Y119.220000 Z1.000000 A86.819020
G1 X101.760000 Y119.220000 Z1.000000 A86.826550
G1 X101.760000 Y97.780000 Z1.000000 A87.209860
G1 X101.339000 Y97.780000 Z1.000000 A87.217400
G1 X101.339000 Y119.220000 Z1.000000 A87.600710
G1 X100.917000 Y119.220000 Z1.000000 A87.608240
G1 X100.917000 Y97.780000 Z1.000000 A87.991550
G1 X100.496000 Y97.780000 Z1.000000 A87.999080
G1 X100.496000 Y119.220000 Z1.000000 A88.382400
G1 X100.075000 Y119.220000 Z1.000000 A88.389930
G1 X100.075000 Y97.780000 Z1.000000 A88.773240
G1 X99.654000 Y97.780000 Z1.000000 A88.780770
G1 X99.654000 Y119.220000 Z1.000000 A89.164080
G1 X99.232000 Y119.220000 Z1.000000 A89.171620
G1 X99.232000 Y97.780000 Z1.000000 A89.554930
G1 X98.811000 Y97.780000 Z1.000000 A89.562460
G1 X98.811000 Y119.220000 Z1.000000 A89.945770
G1 X98.390000 Y119.220000 Z1.000000 A89.953300
G1 X98.390000 Y97.780000 Z1.000000 A90.336620
G1 X97.969000 Y97.780000 Z1.000000 A90.344150
G1 X97.969000 Y119.220000 Z1.000000 A90.727460
G0 A89.72746
G0 Z1.300
G0 X106.482 Y111.158 F7800.000
G0 F3600.000 A90.82746
G1 X106.307000 Y110.983000 Z1.300000 A90.830340 F3600.000000
G1 X107.418000 Y111.064000 Z1.300000 A90.843310
G0 X109.233 Y111.196 F7800.000
G1 X110.103000 Y111.260000 Z1.300000 A90.853460 F3600.000000
G0 X110.113 Y111.254 F7800.000
G1 X109.814000 Y110.956000 Z1.300000 A90.858370 F3600.000000
G0 X111.606 Y109.212 F7800.000
G1 X111.323000 Y108.928000 Z1.300000 A90.863040 F3600.000000
G0 A89.86304
G0 Z1.800
G0 X108.072 Y105.677 F7800.000
G0 Z1.300
G0 F3600.000 A90.96304
G1 X107.704000 Y105.310000 Z1.300000 A90.969100 F3600.000000
G1 X105.687000 Y106.788000 Z1.300000 A90.998210
G0 X105.677 Y106.819 F7800.000
G1 X106.044000 Y107.186000 Z1.300000 A91.004260 F3600.000000
G0 X104.448 Y106.224 F7800.000
G1 X104.633000 Y105.916000 Z1.300000 A91.010650 F1800.000000
G3 X103.849000 Y108.500000 Z1.300000 A91.481270 I3.8670 J2.5842
G1 X103.871000 Y108.044000 Z1.300000 A91.489390
G3 X104.448000 Y106.224000 Z1.300000 A91.523560 I4.5515 J0.4415
G0 X104.807 Y106.440 F7800.000
G1 X104.982000 Y106.149000 Z1.300000 A91.529590 F1800.000000
G3 X104.289000 Y108.915000 Z1.300000 A91.950400 I3.5179 J2.3512
G1 X104.268000 Y108.500000 Z1.300000 A91.957780
G3 X104.807000 Y106.440000 Z1.300000 A91.996050 I4.1986 J-0.0019
G0 X105.167 Y106.655 F7800.000
G1 X105.330000 Y106.382000 Z1.300000 A92.001710 F1800.000000
G3 X104.688000 Y108.500000 Z1.300000 A92.387470 I3.1557 J2.1128
G1 X104.706000 Y108.126000 Z1.300000 A92.394120
G3 X105.167000 Y106.655000 Z1.300000 A92.421710 I3.7360 J0.3631
G0 X104.953 Y106.295 F7800.000
G0 A91.42171
G0 Z1.800
G0 X119.450 Y119.450 F7800.000
G0 Z1.300
G0 F3600.000 A92.52171
G1 X97.550000 Y119.450000 Z1.300000 A92.911050 F1800.000000
G1 X97.550000 Y97.550000 Z1.300000 A93.300400
G1 X119.450000 Y97.550000 Z1.300000 A93.689740
G1 X119.450000 Y119.450000 Z1.300000 A94.079080
G0 X119.869 Y119.869 F7800.000
G1 X97.131000 Y119.869000 Z1.300000 A94.483310 F1800.000000
G1 X97.131000 Y97.131000 Z1.300000 A94.887550
G1 X119.869000 Y97.131000 Z1.300000 A95.291780
G1 X119.869000 Y119.869000 Z1.300000 A95.696020
G0 X120.288 Y120.288 F7800.000
G1 X96.712000 Y120.288000 Z1.300000 A96.115150 F1260.000000
G1 X96.712000 Y96.712000 Z1.300000 A96.534270
G1 X120.288000 Y96.712000 Z1.300000 A96.953400
G1 X120.288000 Y120.288000 Z1.300000 A97.372530
G0 X119.925 Y120.079 F7800.000
G0 X119.220 Y119.031
G1 X97.780000 Y119.031000 Z1.300000 A97.753680 F2400.000000
G1 X97.780000 Y117.984000 Z1.300000 A97.772300
G1 X119.220000 Y117.984000 Z1.300000 A98.153450
G1 X119.220000 Y116.937000 Z1.300000 A98.172060
G1 X97.780000 Y116.937000 Z1.300000 A98.553210
G1 X97.780000 Y115.890000 Z1.300000 A98.571830
G1 X119.220000 Y115.890000 Z1.300000 A98.952980
G1 X119.220000 Y114.843000 Z1.300000 A98.971600
G1 X97.780000 Y114.843000 Z1.300000 A99.352750
G1 X97.780000 Y113.795000 Z1.300000 A99.371360
G1 X119.220000 Y113.795000 Z1.300000 A99.752510
G1 X119.220000 Y112.748000 Z1.300000 A99.771130
G1 X111.074000 Y112.748000 Z1.300000 A99.915940
G1 X112.243000 Y111.701000 Z1.300000 A99.943830
G1 X119.220000 Y111.701000 Z1.300000 A100.067870
G1 X119.220000 Y110.654000 Z1.300000 A100.086490
G1 X112.895000 Y110.654000 Z1.300000 A100.198930
G0 X113.255 Y109.607 F7800.000
G1 X119.220000 Y109.607000 Z1.300000 A100.304970 F2400.000000
G1 X119.220000 Y108.559000 Z1.300000 A100.323590
G1 X113.379000 Y108.559000 Z1.300000 A100.427420
G0 X113.285 Y107.512 F7800.000
G1 X119.220000 Y107.512000 Z1.300000 A100.532940 F2400.000000
G1 X119.220000 Y106.465000 Z1.300000 A100.551560
G1 X112.951000 Y106.465000 Z1.300000 A100.663000
G1 X112.331000 Y105.418000 Z1.300000 A100.684640
G1 X119.220000 Y105.418000 Z1.300000 A100.807110
G1 X119.220000 Y104.371000 Z1.300000 A100.825730
G1 X111.245000 Y104.371000 Z1.300000 A100.967510
G0 X105.755 Y104.371 F7800.000
G1 X97.780000 Y104.371000 Z1.300000 A101.109280 F2400.000000
G1 X97.780000 Y105.418000 Z1.300000 A101.127900
G1 X104.669000 Y105.418000 Z1.300000 A101.250380
G1 X104.049000 Y106.465000 Z1.300000 A101.272020
G1 X97.780000 Y106.465000 Z1.300000 A101.383460
G1 X97.780000 Y107.512000 Z1.300000 A101.402080
G1 X103.715000 Y107.512000 Z1.300000 A101.507590
G0 X103.621 Y108.559 F7800.000
G1 X97.780000 Y108.559000 Z1.300000 A101.611430 F2400.000000
G1 X97.780000 Y109.607000 Z1.300000 A101.630050
G1 X103.745000 Y109.607000 Z1.300000 A101.736090
G0 X104.105 Y110.654 F7800.000
G1 X97.780000 Y110.654000 Z1.300000 A101.848540 F2400.000000
G1 X97.780000 Y111.701000 Z1.300000 A101.867150
G1 X104.757000 Y111.701000 Z1.300000 A101.991200
G1 X105.926000 Y112.748000 Z1.300000 A102.019090
G1 X97.780000 Y112.748000 Z1.300000 A102.163900
G0 X97.780 Y103.323 F7800.000
G1 X119.220000 Y103.323000 Z1.300000 A102.545050 F2400.000000
G1 X119.220000 Y102.276000 Z1.300000 A102.563660
G1 X97.780000 Y102.276000 Z1.300000 A102.944810
G1 X97.780000 Y101.229000 Z1.300000 A102.963430
G1 X119.220000 Y101.229000 Z1.300000 A103.344580
G1 X119.220000 Y100.182000 Z1.300000 A103.363200
G1 X97.780000 Y100.182000 Z1.300000 A103.744350
G1 X97.780000 Y99.135000 Z1.300000 A103.762960
G1 X119.220000 Y99.135000 Z1.300000 A104.144110
G1 X119.220000 Y98.087000 Z1.300000 A104.162730
G1 X97.780000 Y98.087000 Z1.300000 A104.543880
G0 A103.54388
G0 Z1.600
G0 X105.687 Y106.788 F7800.000
G0 F3600.000 A104.64388
G1 X107.704000 Y105.310000 Z1.600000 A104.673000 F3600.000000
G1 X108.072000 Y105.677000 Z1.600000 A104.679050
G0 X106.044 Y107.186 F7800.000
G1 X105.677000 Y106.819000 Z1.600000 A104.685100 F3600.000000
G0 A103.68510
G0 Z2.100
G0 X106.482 Y111.158 F7800.000
G0 Z1.600
G0 F3600.000 A104.78510
G1 X106.307000 Y110.983000 Z1.600000 A104.787980 F3600.000000
G1 X107.418000 Y111.064000 Z1.600000 A104.800950
G0 X109.233 Y111.196 F7800.000
G1 X110.103000 Y111.260000 Z1.600000 A104.811100 F3600.000000
G0 X110.113 Y111.254 F7800.000
G1 X109.814000 Y110.956000 Z1.600000 A104.816010 F3600.000000
G0 X111.606 Y109.212 F7800.000
G1 X111.323000 Y108.928000 Z1.600000 A104.820680 F3600.000000
G0 X113.113 Y109.064 F7800.000
G1 X113.062000 Y109.407000 Z1.600000 A104.826860 F1800.000000
G3 X113.151000 Y108.500000 Z1.600000 A105.329940 I-4.5479 J-0.9041
G1 X113.122000 Y109.001000 Z1.600000 A105.338870
G1 X113.113000 Y109.064000 Z1.600000 A105.339990
G0 X112.698 Y109.002 F7800.000
G1 X112.650000 Y109.326000 Z1.600000 A105.345800 F1800.000000
G3 X112.650000 Y107.674000 Z1.600000 A105.788760 I-4.1382 J-0.8260
G1 X112.711000 Y108.085000 Z1.600000 A105.796150
G1 X112.698000 Y109.002000 Z1.600000 A105.812480
G0 X112.284 Y108.941 F7800.000
G1 X112.239000 Y109.244000 Z1.600000 A105.817930 F1800.000000
G3 X112.312000 Y108.500000 Z1.600000 A106.230290 I-3.7261 J-0.7412
G1 X112.293000 Y108.878000 Z1.600000 A106.237030
G1 X112.284000 Y108.941000 Z1.600000 A106.238140
G0 X112.619 Y109.192 F7800.000
G0 A105.23814
G0 Z2.100
G0 X97.550 Y119.450 F7800.000
G0 Z1.600
G0 F3600.000 A106.33814
G1 X97.550000 Y97.550000 Z1.600000 A106.727480 F1800.000000
G1 X119.450000 Y97.550000 Z1.600000 A107.116830
G1 X119.450000 Y119.450000 Z1.600000 A107.506170
G1 X97.550000 Y119.450000 Z1.600000 A107.895510
G0 X97.131 Y119.869 F7800.000
G1 X97.131000 Y97.131000 Z1.600000 A108.299740 F1800.000000
G1 X119.869000 Y97.131000 Z1.600000 A108.703980
G1 X119.869000 Y119.869000 Z1.600000 A109.108210
G1 X97.131000 Y119.869000 Z1.600000 A109.512450
G0 X96.712 Y120.288 F7800.000
G1 X96.712000 Y96.712000 Z1.600000 A109.931580 F1260.000000
G1 X120.288000 Y96.712000 Z1.600000 A110.350700
G1 X120.288000 Y120.288000 Z1.600000 A110.769830
G1 X96.712000 Y120.288000 Z1.600000 A111.188960
G0 X96.921 Y119.925 F7800.000
G0 X97.969 Y119.220
G1 X97.969000 Y97.780000 Z1.600000 A111.570110 F2400.000000
G1 X99.016000 Y97.780000 Z1.600000 A111.588730
G1 X99.016000 Y119.220000 Z1.600000 A111.969880
G1 X100.063000 Y119.220000 Z1.600000 A111.988500
G1 X100.063000 Y97.780000 Z1.600000 A112.369650
G1 X101.110000 Y97.780000 Z1.600000 A112.388260
G1 X101.110000 Y119.220000 Z1.600000 A112.769410
G1 X102.157000 Y119.220000 Z1.600000 A112.788030
G1 X102.157000 Y97.780000 Z1.600000 A113.169180
G1 X103.205000 Y97.780000 Z1.600000 A113.187800
G1 X103.205000 Y119.220000 Z1.600000 A113.568950
G1 X104.252000 Y119.220000 Z1.600000 A113.587570
G1 X104.252000 Y111.074000 Z1.600000 A113.732380
G1 X105.299000 Y112.243000 Z1.600000 A113.760260
G1 X105.299000 Y119.220000 Z1.600000 A113.884310
G1 X106.346000 Y119.220000 Z1.600000 A113.902920
G1 X106.346000 Y112.895000 Z1.600000 A114.015370
G0 X107.393 Y113.255 F7800.000
G1 X107.393000 Y119.220000 Z1.600000 A114.121410 F2400.000000
G1 X108.441000 Y119.220000 Z1.600000 A114.140030
G1 X108.441000 Y113.379000 Z1.600000 A114.243870
G0 X109.488 Y113.285 F7800.000
G1 X109.488000 Y119.220000 Z1.600000 A114.349380 F2400.000000
G1 X110.535000 Y119.220000 Z1.600000 A114.368000
G1 X110.535000 Y112.951000 Z1.600000 A114.479450
G1 X111.582000 Y112.331000 Z1.600000 A114.501090
G1 X111.582000 Y119.220000 Z1.600000 A114.623560
G1 X112.629000 Y119.220000 Z1.600000 A114.642180
G1 X112.629000 Y111.245000 Z1.600000 A114.783960
G0 X112.629 Y105.755 F7800.000
G1 X112.629000 Y97.780000 Z1.600000 A114.925740 F2400.000000
G1 X111.582000 Y97.780000 Z1.600000 A114.944350
G1 X111.582000 Y104.669000 Z1.600000 A115.066830
G1 X110.535000 Y104.049000 Z1.600000 A115.088470
G1 X110.535000 Y97.780000 Z1.600000 A115.199910
G1 X109.488000 Y97.780000 Z1.600000 A115.218530
G1 X109.488000 Y103.715000 Z1.600000 A115.324050
G0 X108.441 Y103.630 F7800.000
G1 X108.441000 Y97.780000 Z1.600000 A115.428040 F2400.000000
G1 X107.393000 Y97.780000 Z1.600000 A115.446660
G1 X107.393000 Y103.745000 Z1.600000 A115.552700
G0 X106.346 Y104.105 F7800.000
G1 X106.346000 Y97.780000 Z1.600000 A115.665140 F2400.000000
G1 X105.299000 Y97.780000 Z1.600000 A115.683760
G1 X105.299000 Y104.758000 Z1.600000 A115.807800
G1 X104.252000 Y105.926000 Z1.600000 A115.835690
G1 X104.252000 Y97.780000 Z1.600000 A115.980500
G0 X113.677 Y97.780 F7800.000
G1 X113.677000 Y119.220000 Z1.600000 A116.361650 F2400.000000
G1 X114.724000 Y119.220000 Z1.600000 A116.380270
G1 X114.724000 Y97.780000 Z1.600000 A116.761420
G1 X115.771000 Y97.780000 Z1.600000 A116.780030
G1 X115.771000 Y119.220000 Z1.600000 A117.161190
G1 X116.818000 Y119.220000 Z1.600000 A117.179800
G1 X116.818000 Y97.780000 Z1.600000 A117.560950
G1 X117.865000 Y97.780000 Z1.600000 A117.579570
G1 X117.865000 Y119.220000 Z1.600000 A117.960720
G1 X118.913000 Y119.220000 Z1.600000 A117.979340
G1 X118.913000 Y97.780000 Z1.600000 A118.360490
G0 A117.36049
G0 Z1.900
G0 X108.072 Y105.677 F7800.000
G0 F3600.000 A118.46049
G1 X107.704000 Y105.310000 Z1.900000 A118.466550 F3600.000000
G1 X105.687000 Y106.788000 Z1.900000 A118.495660
G0 X105.677 Y106.819 F7800.000
G1 X106.044000 Y107.186000 Z1.900000 A118.501700 F3600.000000
G0 A117.50170
G0 Z2.400
G0 X106.482 Y111.158 F7800.000
G0 Z1.900
G0 F3600.000 A118.60170
G1 X106.307000 Y110.983000 Z1.900000 A118.604590 F3600.000000
G1 X107.418000 Y111.064000 Z1.900000 A118.617560
G0 X109.233 Y111.196 F7800.000
G1 X110.103000 Y111.260000 Z1.900000 A118.627700 F3600.000000
G0 X110.113 Y111.254 F7800.000
G1 X109.814000 Y110.956000 Z1.900000 A118.632620 F3600.000000
G0 X111.606 Y109.212 F7800.000
G1 X111.323000 Y108.928000 Z1.900000 A118.637280 F3600.000000
G0 X113.111 Y109.075 F7800.000
G1 X113.062000 Y109.407000 Z1.900000 A118.643250 F1800.000000
G3 X113.151000 Y108.500000 Z1.900000 A119.146340 I-4.5479 J-0.9041
G1 X113.120000 Y109.013000 Z1.900000 A119.155480
G1 X113.111000 Y109.075000 Z1.900000 A119.156600
G0 X112.697 Y109.014 F7800.000
G1 X112.650000 Y109.326000 Z1.900000 A119.162200 F1800.000000
G3 X112.650000 Y107.674000 Z1.900000 A119.605160 I-4.1382 J-0.8260
G1 X112.711000 Y108.085000 Z1.900000 A119.612540
G1 X112.697000 Y109.014000 Z1.900000 A119.629090
G0 X112.282 Y108.952 F7800.000
G1 X112.239000 Y109.244000 Z1.900000 A119.634320 F1800.000000
G3 X112.312000 Y108.500000 Z1.900000 A120.046690 I-3.7261 J-0.7412
G1 X112.291000 Y108.890000 Z1.900000 A120.053630
G1 X112.282000 Y108.952000 Z1.900000 A120.054750
G0 X112.617 Y109.204 F7800.000
G0 A119.05475
G0 Z2.400
G0 X97.550 Y119.450 F7800.000
G0 Z1.900
G0 F3600.000 A120.15475
G1 X97.550000 Y97.550000 Z1.900000 A120.544090 F1800.000000
G1 X119.450000 Y97.550000 Z1.900000 A120.933430
G1 X119.450000 Y119.450000 Z1.900000 A121.322770
G1 X97.550000 Y119.450000 Z1.900000 A121.712110
G0 X97.131 Y119.869 F7800.000
G1 X97.131000 Y97.131000 Z1.900000 A122.116350 F1800.000000
G1 X119.869000 Y97.131000 Z1.900000 A122.520580
G1 X119.869000 Y119.869000 Z1.900000 A122.924820
G1 X97.131000 Y119.869000 Z1.900000 A123.329050
G0 X96.712 Y120.288 F7800.000
G1 X96.712000 Y96.712000 Z1.900000 A123.748180 F1260.000000
G1 X120.288000 Y96.712000 Z1.900000 A124.167310
G1 X120.288000 Y120.288000 Z1.900000 A124.586440
G1 X96.712000 Y120.288000 Z1.900000 A125.005570
G0 X96.921 Y119.925 F7800.000
G0 X97.780 Y112.748
G1 X105.926000 Y112.748000 Z1.900000 A125.150370 F2400.000000
G1 X104.757000 Y111.701000 Z1.900000 A125.178260
G1 X97.780000 Y111.701000 Z1.900000 A125.302310
G1 X97.780000 Y110.654000 Z1.900000 A125.320920
G1 X104.105000 Y110.654000 Z1.900000 A125.433370
G0 X103.745 Y109.607 F7800.000
G1 X97.780000 Y109.607000 Z1.900000 A125.539410 F2400.000000
G1 X97.780000 Y108.559000 Z1.900000 A125.558030
G1 X103.621000 Y108.559000 Z1.900000 A125.661870
G0 X103.715 Y107.512 F7800.000
G1 X97.780000 Y107.512000 Z1.900000 A125.767380 F2400.000000
G1 X97.780000 Y106.465000 Z1.900000 A125.786000
G1 X104.049000 Y106.465000 Z1.900000 A125.897450
G1 X104.669000 Y105.418000 Z1.900000 A125.919080
G1 X97.780000 Y105.418000 Z1.900000 A126.041560
G1 X97.780000 Y104.371000 Z1.900000 A126.060180
G1 X105.755000 Y104.371000 Z1.900000 A126.201960
G0 X111.245 Y104.371 F7800.000
G1 X119.220000 Y104.371000 Z1.900000 A126.343730 F2400.000000
G1 X119.220000 Y105.418000 Z1.900000 A126.362350
G1 X112.322000 Y105.418000 Z1.900000 A126.484980
G1 X112.951000 Y106.465000 Z1.900000 A126.506710
G1 X119.220000 Y106.465000 Z1.900000 A126.618150
G1 X119.220000 Y107.512000 Z1.900000 A126.636770
G1 X113.285000 Y107.512000 Z1.900000 A126.742280
G0 X113.379 Y108.559 F7800.000
G1 X119.220000 Y108.559000 Z1.900000 A126.846120 F2400.000000
G1 X119.220000 Y109.607000 Z1.900000 A126.864740
G1 X113.255000 Y109.607000 Z1.900000 A126.970780
G0 X112.895 Y110.654 F7800.000
G1 X119.220000 Y110.654000 Z1.900000 A127.083220 F2400.000000
G1 X119.220000 Y111.701000 Z1.900000 A127.101840
G1 X112.243000 Y111.701000 Z1.900000 A127.225880
G1 X111.074000 Y112.748000 Z1.900000 A127.253770
G1 X119.220000 Y112.748000 Z1.900000 A127.398570
G1 X119.220000 Y113.795000 Z1.900000 A127.417190
G1 X97.780000 Y113.795000 Z1.900000 A127.798340
G1 X97.780000 Y114.843000 Z1.900000 A127.816960
G1 X119.220000 Y114.843000 Z1.900000 A128.198110
G1 X119.220000 Y115.890000 Z1.900000 A128.216730
G1 X97.780000 Y115.890000 Z1.900000 A128.597880
G1 X97.780000 Y116.937000 Z1.900000 A128.616490
G1 X119.220000 Y116.937000 Z1.900000 A128.997640
G1 X119.220000 Y117.984000 Z1.900000 A129.016260
G1 X97.780000 Y117.984000 Z1.900000 A129.397410
G1 X97.780000 Y119.031000 Z1.900000 A129.416030
G1 X119.220000 Y119.031000 Z1.900000 A129.797180
G0 A128.79718
G0 Z2.400
G0 X97.780 Y103.323 F7800.000
G0 Z1.900
G0 F3600.000 A129.89718
G1 X119.220000 Y103.323000 Z1.900000 A130.278330 F2400.000000
G1 X119.220000 Y102.276000 Z1.900000 A130.296940
G1 X97.780000 Y102.276000 Z1.900000 A130.678090
G1 X97.780000 Y101.229000 Z1.900000 A130.696710
G1 X119.220000 Y101.229000 Z1.900000 A131.077860
G1 X119.220000 Y100.182000 Z1.900000 A131.096480
G1 X97.780000 Y100.182000 Z1.900000 A131.477630
G1 X97.780000 Y99.135000 Z1.900000 A131.496240
G1 X119.220000 Y99.135000 Z1.900000 A131.877390
G1 X119.220000 Y98.087000 Z1.900000 A131.896010
G1 X97.780000 Y98.087000 Z1.900000 A132.277160
G0 A131.27716
G0 Z2.200
G0 X105.687 Y106.788 F7800.000
G0 F3600.000 A132.37716
G1 X107.704000 Y105.310000 Z2.200000 A132.406280 F3600.000000
G1 X108.072000 Y105.677000 Z2.200000 A132.412330
G0 X106.044 Y107.186 F7800.000
G1 X105.677000 Y106.819000 Z2.200000 A132.418380 F3600.000000
G0 A131.41838
G0 Z2.700
G0 X106.482 Y111.158 F7800.000
G0 Z2.200
G0 F3600.000 A132.51838
G1 X106.307000 Y110.983000 Z2.200000 A132.521260 F3600.000000
G1 X107.418000 Y111.064000 Z2.200000 A132.534230
G0 X109.233 Y111.196 F7800.000
G1 X110.103000 Y111.260000 Z2.200000 A132.544380 F3600.000000
G0 X110.113 Y111.254 F7800.000
G1 X109.814000 Y110.956000 Z2.200000 A132.549290 F3600.000000
G0 X111.606 Y109.212 F7800.000
G1 X111.323000 Y108.928000 Z2.200000 A132.553960 F3600.000000
G0 X113.109 Y109.087 F7800.000
G1 X113.062000 Y109.407000 Z2.200000 A132.559720 F1800.000000
G3 X113.151000 Y108.500000 Z2.200000 A133.062800 I-4.5479 J-0.9041
G1 X113.118000 Y109.025000 Z2.200000 A133.072150
G1 X113.109000 Y109.087000 Z2.200000 A133.073270
G0 X112.695 Y109.025 F7800.000
G1 X112.650000 Y109.326000 Z2.200000 A133.078660 F1800.000000
G3 X112.650000 Y107.674000 Z2.200000 A133.521620 I-4.1382 J-0.8260
G1 X112.711000 Y108.085000 Z2.200000 A133.529010
G1 X112.695000 Y109.025000 Z2.200000 A133.545760
G0 X112.281 Y108.964 F7800.000
G1 X112.239000 Y109.244000 Z2.200000 A133.550780 F1800.000000
G3 X112.312000 Y108.500000 Z2.200000 A133.963150 I-3.7261 J-0.7412
G1 X112.290000 Y108.902000 Z2.200000 A133.970300
G1 X112.281000 Y108.964000 Z2.200000 A133.971420
G0 X112.615 Y109.216 F7800.000
G0 A132.97142
G0 Z2.700
G0 X119.450 Y97.550 F7800.000
G0 Z2.200
G0 F3600.000 A134.07142
G1 X119.450000 Y119.450000 Z2.200000 A134.460760 F1800.000000
G1 X97.550000 Y119.450000 Z2.200000 A134.850100
G1 X97.550000 Y97.550000 Z2.200000 A135.239440
G1 X119.450000 Y97.550000 Z2.200000 A135.628780
G0 X119.869 Y97.131 F7800.000
G1 X119.869000 Y119.869000 Z2.200000 A136.033020 F1800.000000
G1 X97.131000 Y119.869000 Z2.200000 A136.437250
G1 X97.131000 Y97.131000 Z2.200000 A136.841490
G1 X119.869000 Y97.131000 Z2.200000 A137.245720
G0 X120.288 Y96.712 F7800.000
G1 X120.288000 Y120.288000 Z2.200000 A137.664850 F1260.000000
G1 X96.712000 Y120.288000 Z2.200000 A138.083980
G1 X96.712000 Y96.712000 Z2.200000 A138.503110
G1 X120.288000 Y96.712000 Z2.200000 A138.922240
G0 X120.079 Y97.075 F7800.000
G0 X118.913 Y97.780
G1 X118.913000 Y119.220000 Z2.200000 A139.303390 F2400.000000
G1 X117.865000 Y119.220000 Z2.200000 A139.322000
G1 X117.865000 Y97.780000 Z2.200000 A139.703150
G1 X116.818000 Y97.780000 Z2.200000 A139.721770
G1 X116.818000 Y119.220000 Z2.200000 A140.102920
G1 X115.771000 Y119.220000 Z2.200000 A140.121540
G1 X115.771000 Y97.780000 Z2.200000 A140.502690
G1 X114.724000 Y97.780000 Z2.200000 A140.521310
G1 X114.724000 Y119.220000 Z2.200000 A140.902460
G1 X113.677000 Y119.220000 Z2.200000 A140.921070
G1 X113.677000 Y97.780000 Z2.200000 A141.302230
G0 X109.488 Y103.715 F7800.000
G1 X109.488000 Y97.780000 Z2.200000 A141.407740 F2400.000000
G1 X110.535000 Y97.780000 Z2.200000 A141.426360
G1 X110.535000 Y104.049000 Z2.200000 A141.537800
G1 X111.582000 Y104.669000 Z2.200000 A141.559440
G1 X111.582000 Y97.780000 Z2.200000 A141.681920
G1 X112.629000 Y97.780000 Z2.200000 A141.700540
G1 X112.629000 Y105.755000 Z2.200000 A141.842310
G0 X108.441 Y103.621 F7800.000
G1 X108.441000 Y97.780000 Z2.200000 A141.946150 F2400.000000
G1 X107.393000 Y97.780000 Z2.200000 A141.964770
G1 X107.393000 Y103.745000 Z2.200000 A142.070810
G0 X106.346 Y104.105 F7800.000
G1 X106.346000 Y97.780000 Z2.200000 A142.183250 F2400.000000
G1 X105.299000 Y97.780000 Z2.200000 A142.201870
G1 X105.299000 Y104.758000 Z2.200000 A142.325910
G1 X104.252000 Y105.926000 Z2.200000 A142.353800
G1 X104.252000 Y97.780000 Z2.200000 A142.498610
G0 A141.49861
G0 Z2.700
G0 X106.346 Y112.895 F7800.000
G0 Z2.200
G0 F3600.000 A142.59861
G1 X106.346000 Y119.220000 Z2.200000 A142.711050 F2400.000000
G1 X105.299000 Y119.220000 Z2.200000 A142.729670
G1 X105.299000 Y112.243000 Z2.200000 A142.853710
G1 X104.252000 Y111.074000 Z2.200000 A142.881600
G1 X104.252000 Y119.220000 Z2.200000 A143.026410
G1 X103.205000 Y119.220000 Z2.200000 A143.045030
G1 X103.205000 Y97.780000 Z2.200000 A143.426180
G1 X102.157000 Y97.780000 Z2.200000 A143.444790
G1 X102.157000 Y119.220000 Z2.200000 A143.825940
G1 X101.110000 Y119.220000 Z2.200000 A143.844560
G1 X101.110000 Y97.780000 Z2.200000 A144.225710
G1 X100.063000 Y97.780000 Z2.200000 A144.244330
G1 X100.063000 Y119.220000 Z2.200000 A144.625480
G1 X99.016000 Y119.220000 Z2.200000 A144.644100
G1 X99.016000 Y97.780000 Z2.200000 A145.025250
G1 X97.969000 Y97.780000 Z2.200000 A145.043860
G1 X97.969000 Y119.220000 Z2.200000 A145.425020
G0 X107.393 Y113.255 F7800.000
G1 X107.393000 Y119.220000 Z2.200000 A145.531060 F2400.000000
G1 X108.441000 Y119.220000 Z2.200000 A145.549680
G1 X108.441000 Y113.379000 Z2.200000 A145.653510
G0 X109.488 Y113.285 F7800.000
G1 X109.488000 Y119.220000 Z2.200000 A145.759030 F2400.000000
G1 X110.535000 Y119.220000 Z2.200000 A145.777650
G1 X110.535000 Y112.951000 Z2.200000 A145.889090
G1 X111.582000 Y112.331000 Z2.200000 A145.910730
G1 X111.582000 Y119.220000 Z2.200000 A146.033210
G1 X112.629000 Y119.220000 Z2.200000 A146.051830
G1 X112.629000 Y111.245000 Z2.200000 A146.193600
G0 A145.19360
G0 Z2.500
G0 X111.606 Y109.212 F7800.000
G0 F3600.000 A146.29360
G1 X111.323000 Y108.928000 Z2.500000 A146.298270 F3600.000000
G0 X109.814 Y110.956 F7800.000
G1 X110.113000 Y111.254000 Z2.500000 A146.303180 F3600.000000
G0 X110.103 Y111.260 F7800.000
G1 X109.233000 Y111.196000 Z2.500000 A146.313330 F3600.000000
G0 X107.418 Y111.064 F7800.000
G1 X106.307000 Y110.983000 Z2.500000 A146.326300 F3600.000000
G1 X106.409000 Y111.086000 Z2.500000 A146.327990
G0 A145.32799
G0 Z3.000
G0 X106.044 Y107.186 F7800.000
G0 Z2.500
G0 F3600.000 A146.42799
G1 X105.677000 Y106.819000 Z2.500000 A146.434030 F3600.000000
G0 X105.687 Y106.788 F7800.000
G1 X107.704000 Y105.310000 Z2.500000 A146.463150 F3600.000000
G1 X108.072000 Y105.677000 Z2.500000 A146.469200
G0 X107.901 Y103.893 F7800.000
G1 X108.500000 Y103.849000 Z2.500000 A146.479870 F1800.000000
G3 X104.049000 Y109.850000 Z2.500000 A146.845020 I-0.0002 J4.6510
G1 X103.938000 Y109.407000 Z2.500000 A146.853130
G3 X107.901000 Y103.893000 Z2.500000 A146.988510 I4.5541 J-0.9080
G0 X107.963 Y104.307 F7800.000
G1 X108.500000 Y104.268000 Z2.500000 A146.998080 F1800.000000
G3 X105.229000 Y105.815000 Z2.500000 A147.404130 I-0.0055 J4.2200
G1 X105.508000 Y105.508000 Z2.500000 A147.411510
G3 X107.963000 Y104.307000 Z2.500000 A147.460990 I2.9678 J2.9568
G0 X108.024 Y104.721 F7800.000
G1 X108.500000 Y104.688000 Z2.500000 A147.469470 F1800.000000
G3 X104.852000 Y109.607000 Z2.500000 A147.768770 I-0.0001 J3.8121
G1 X104.761000 Y109.244000 Z2.500000 A147.775420
G3 X108.024000 Y104.721000 Z2.500000 A147.886650 I3.7331 J-0.7454
G0 X108.198 Y104.340 F7800.000
G0 A146.88665
G0 Z3.000
G0 X119.450 Y97.550 F7800.000
G0 Z2.500
G0 F3600.000 A147.98665
G1 X119.450000 Y119.450000 Z2.500000 A148.375990 F1800.000000
G1 X97.550000 Y119.450000 Z2.500000 A148.765330
G1 X97.550000 Y97.550000 Z2.500000 A149.154670
G1 X119.450000 Y97.550000 Z2.500000 A149.544020
G0 X119.869 Y97.131 F7800.000
G1 X119.869000 Y119.869000 Z2.500000 A149.948250 F1800.000000
G1 X97.131000 Y119.869000 Z2.500000 A150.352480
G1 X97.131000 Y97.131000 Z2.500000 A150.756720
G1 X119.869000 Y97.131000 Z2.500000 A151.160950
G0 X120.288 Y96.712 F7800.000
G1 X120.288000 Y120.288000 Z2.500000 A151.580080 F1260.000000
G1 X96.712000 Y120.288000 Z2.500000 A151.999210
G1 X96.712000 Y96.712000 Z2.500000 A152.418340
G1 X120.288000 Y96.712000 Z2.500000 A152.837470
G0 X120.079 Y97.075 F7800.000
G0 X111.245 Y104.371
G1 X119.220000 Y104.371000 Z2.500000 A152.979240 F2400.000000
G1 X119.220000 Y105.418000 Z2.500000 A152.997860
G1 X112.320000 Y105.418000 Z2.500000 A153.120520
G1 X112.951000 Y106.465000 Z2.500000 A153.142250
G1 X119.220000 Y106.465000 Z2.500000 A153.253690
G1 X119.220000 Y107.512000 Z2.500000 A153.272310
G1 X113.285000 Y107.512000 Z2.500000 A153.377830
G0 X113.379 Y108.559 F7800.000
G1 X119.220000 Y108.559000 Z2.500000 A153.481660 F2400.000000
G1 X119.220000 Y109.607000 Z2.500000 A153.500280
G1 X113.255000 Y109.607000 Z2.500000 A153.606320
G0 X112.895 Y110.654 F7800.000
G1 X119.220000 Y110.654000 Z2.500000 A153.718760 F2400.000000
G1 X119.220000 Y111.701000 Z2.500000 A153.737380
G1 X112.243000 Y111.701000 Z2.500000 A153.861420
G1 X111.074000 Y112.748000 Z2.500000 A153.889310
G1 X119.220000 Y112.748000 Z2.500000 A154.034120
G1 X119.220000 Y113.795000 Z2.500000 A154.052740
G1 X97.780000 Y113.795000 Z2.500000 A154.433890
G1 X97.780000 Y114.843000 Z2.500000 A154.452500
G1 X119.220000 Y114.843000 Z2.500000 A154.833650
G1 X119.220000 Y115.890000 Z2.500000 A154.852270
G1 X97.780000 Y115.890000 Z2.500000 A155.233420
G1 X97.780000 Y116.937000 Z2.500000 A155.252040
G1 X119.220000 Y116.937000 Z2.500000 A155.633190
G1 X119.220000 Y117.984000 Z2.500000 A155.651800
G1 X97.780000 Y117.984000 Z2.500000 A156.032950
G1 X97.780000 Y119.031000 Z2.500000 A156.051570
G1 X119.220000 Y119.031000 Z2.500000 A156.432720
G0 X104.105 Y110.654 F7800.000
G1 X97.780000 Y110.654000 Z2.500000 A156.545160 F2400.000000
G1 X97.780000 Y111.701000 Z2.500000 A156.563780
G1 X104.757000 Y111.701000 Z2.500000 A156.687820
G1 X105.926000 Y112.748000 Z2.500000 A156.715710
G1 X97.780000 Y112.748000 Z2.500000 A156.860520
G0 X103.745 Y109.607 F7800.000
G1 X97.780000 Y109.607000 Z2.500000 A156.966560 F2400.000000
G1 X97.780000 Y108.559000 Z2.500000 A156.985180
G1 X103.621000 Y108.559000 Z2.500000 A157.089020
G0 X103.715 Y107.512 F7800.000
G1 X97.780000 Y107.512000 Z2.500000 A157.194540 F2400.000000
G1 X97.780000 Y106.465000 Z2.500000 A157.213150
G1 X104.049000 Y106.465000 Z2.500000 A157.324600
G1 X104.669000 Y105.418000 Z2.500000 A157.346240
G1 X97.780000 Y105.418000 Z2.500000 A157.468720
G1 X97.780000 Y104.371000 Z2.500000 A157.487330
G1 X105.755000 Y104.371000 Z2.500000 A157.629110
G0 X97.780 Y103.323 F7800.000
G1 X119.220000 Y103.323000 Z2.500000 A158.010260 F2400.000000
G1 X119.220000 Y102.276000 Z2.500000 A158.028880
G1 X97.780000 Y102.276000 Z2.500000 A158.410030
G1 X97.780000 Y101.229000 Z2.500000 A158.428640
G1 X119.220000 Y101.229000 Z2.500000 A158.809790
G1 X119.220000 Y100.182000 Z2.500000 A158.828410
G1 X97.780000 Y100.182000 Z2.500000 A159.209560
G1 X97.780000 Y99.135000 Z2.500000 A159.228180
G1 X119.220000 Y99.135000 Z2.500000 A159.609330
G1 X119.220000 Y98.087000 Z2.500000 A159.627950
G1 X97.780000 Y98.087000 Z2.500000 A160.009100
G0 A159.00910
G0 Z2.800
G0 X105.687 Y106.788 F7800.000
G0 F3600.000 A160.10910
G1 X107.704000 Y105.310000 Z2.800000 A160.138210 F3600.000000
G1 X108.072000 Y105.677000 Z2.800000 A160.144270
G0 X106.044 Y107.186 F7800.000
G1 X105.677000 Y106.819000 Z2.800000 A160.150310 F3600.000000
G0 A159.15031
G0 Z3.300
G0 X106.482 Y111.158 F7800.000
G0 Z2.800
G0 F3600.000 A160.25031
G1 X106.307000 Y110.983000 Z2.800000 A160.253190 F3600.000000
G1 X107.418000 Y111.064000 Z2.800000 A160.266160
G0 X109.233 Y111.196 F7800.000
G1 X110.103000 Y111.260000 Z2.800000 A160.276310 F3600.000000
G0 X110.113 Y111.254 F7800.000
G1 X109.814000 Y110.956000 Z2.800000 A160.281220 F3600.000000
G0 X111.606 Y109.212 F7800.000
G1 X111.323000 Y108.928000 Z2.800000 A160.285890 F3600.000000
G0 X113.106 Y109.110 F7800.000
G1 X113.062000 Y109.407000 Z2.800000 A160.291230 F1800.000000
G3 X113.151000 Y108.500000 Z2.800000 A160.794320 I-4.5479 J-0.9041
G1 X113.115000 Y109.048000 Z2.800000 A160.804080
G1 X113.106000 Y109.110000 Z2.800000 A160.805200
G0 X112.691 Y109.049 F7800.000
G1 X112.650000 Y109.326000 Z2.800000 A160.810170 F1800.000000
G3 X112.650000 Y107.674000 Z2.800000 A161.253130 I-4.1382 J-0.8260
G1 X112.711000 Y108.085000 Z2.800000 A161.260520
G1 X112.691000 Y109.049000 Z2.800000 A161.277690
G0 X112.277 Y108.987 F7800.000
G1 X112.239000 Y109.244000 Z2.800000 A161.282290 F1800.000000
G3 X112.312000 Y108.500000 Z2.800000 A161.694660 I-3.7261 J-0.7412
G1 X112.286000 Y108.925000 Z2.800000 A161.702230
G1 X112.277000 Y108.987000 Z2.800000 A161.703350
G0 X112.612 Y109.240 F7800.000
G0 A160.70335
G0 Z3.300
G0 X97.550 Y119.450 F7800.000
G0 Z2.800
G0 F3600.000 A161.80335
G1 X97.550000 Y97.550000 Z2.800000 A162.192690 F1800.000000
G1 X119.450000 Y97.550000 Z2.800000 A162.582030
G1 X119.450000 Y119.450000 Z2.800000 A162.971370
G1 X97.550000 Y119.450000 Z2.800000 A163.360710
G0 X97.131 Y119.869 F7800.000
G1 X97.131000 Y97.131000 Z2.800000 A163.764950 F1800.000000
G1 X119.869000 Y97.131000 Z2.800000 A164.169180
G1 X119.869000 Y119.869000 Z2.800000 A164.573420
G1 X97.131000 Y119.869000 Z2.800000 A164.977650
G0 X96.712 Y120.288 F7800.000
G1 X96.712000 Y96.712000 Z2.800000 A165.396780 F1260.000000
G1 X120.288000 Y96.712000 Z2.800000 A165.815910
G1 X120.288000 Y120.288000 Z2.800000 A166.235040
G1 X96.712000 Y120.288000 Z2.800000 A166.654160
G0 X96.921 Y119.925 F7800.000
G0 X97.969 Y119.220
G1 X97.969000 Y97.780000 Z2.800000 A167.035320 F2400.000000
G1 X99.016000 Y97.780000 Z2.800000 A167.053930
G1 X99.016000 Y119.220000 Z2.800000 A167.435080
G1 X100.063000 Y119.220000 Z2.800000 A167.453700
G1 X100.063000 Y97.780000 Z2.800000 A167.834850
G1 X101.110000 Y97.780000 Z2.800000 A167.853470
G1 X101.110000 Y119.220000 Z2.800000 A168.234620
G1 X102.157000 Y119.220000 Z2.800000 A168.253240
G1 X102.157000 Y97.780000 Z2.800000 A168.634390
G1 X103.205000 Y97.780000 Z2.800000 A168.653000
G1 X103.205000 Y119.220000 Z2.800000 A169.034150
G1 X104.252000 Y119.220000 Z2.800000 A169.052770
G1 X104.252000 Y111.074000 Z2.800000 A169.197580
G1 X105.299000 Y112.243000 Z2.800000 A169.225470
G1 X105.299000 Y119.220000 Z2.800000 A169.349510
G1 X106.346000 Y119.220000 Z2.800000 A169.368130
G1 X106.346000 Y112.895000 Z2.800000 A169.480570
G0 X107.393 Y113.255 F7800.000
G1 X107.393000 Y119.220000 Z2.800000 A169.586620 F2400.000000
G1 X108.441000 Y119.220000 Z2.800000 A169.605230
G1 X108.441000 Y113.379000 Z2.800000 A169.709070
G0 X109.488 Y113.285 F7800.000
G1 X109.488000 Y119.220000 Z2.800000 A169.814590 F2400.000000
G1 X110.535000 Y119.220000 Z2.800000 A169.833210
G1 X110.535000 Y112.951000 Z2.800000 A169.944650
G1 X111.582000 Y112.331000 Z2.800000 A169.966290
G1 X111.582000 Y119.220000 Z2.800000 A170.088770
G1 X112.629000 Y119.220000 Z2.800000 A170.107390
G1 X112.629000 Y111.245000 Z2.800000 A170.249160
G0 X112.629 Y105.755 F7800.000
G1 X112.629000 Y97.780000 Z2.800000 A170.390940 F2400.000000
G1 X111.582000 Y97.780000 Z2.800000 A170.409560
G1 X111.582000 Y104.669000 Z2.800000 A170.532030
G1 X110.535000 Y104.049000 Z2.800000 A170.553670
G1 X110.535000 Y97.780000 Z2.800000 A170.665120
G1 X109.488000 Y97.780000 Z2.800000 A170.683730
G1 X109.488000 Y103.715000 Z2.800000 A170.789250
G0 X108.441 Y103.621 F7800.000
G1 X108.441000 Y97.780000 Z2.800000 A170.893090 F2400.000000
G1 X107.393000 Y97.780000 Z2.800000 A170.911710
G1 X107.393000 Y103.745000 Z2.800000 A171.017750
G0 X106.346 Y104.105 F7800.000
G1 X106.346000 Y97.780000 Z2.800000 A171.130190 F2400.000000
G1 X105.299000 Y97.780000 Z2.800000 A171.148810
G1 X105.299000 Y104.758000 Z2.800000 A171.272850
G1 X104.252000 Y105.926000 Z2.800000 A171.300740
G1 X104.252000 Y97.780000 Z2.800000 A171.445550
G0 X113.677 Y97.780 F7800.000
G1 X113.677000 Y119.220000 Z2.800000 A171.826700 F2400.000000
G1 X114.724000 Y119.220000 Z2.800000 A171.845310
G1 X114.724000 Y97.780000 Z2.800000 A172.226460
G1 X115.771000 Y97.780000 Z2.800000 A172.245080
G1 X115.771000 Y119.220000 Z2.800000 A172.626230
G1 X116.818000 Y119.220000 Z2.800000 A172.644850
G1 X116.818000 Y97.780000 Z2.800000 A173.026000
G1 X117.865000 Y97.780000 Z2.800000 A173.044620
G1 X117.865000 Y119.220000 Z2.800000 A173.425770
G1 X118.913000 Y119.220000 Z2.800000 A173.444380
G1 X118.913000 Y97.780000 Z2.800000 A173.825540
G0 A172.82554
G0 Z3.100
G0 X108.072 Y105.677 F7800.000
G0 F3600.000 A173.92554
G1 X107.704000 Y105.310000 Z3.100000 A173.931590 F3600.000000
G1 X105.687000 Y106.788000 Z3.100000 A173.960710
G0 X105.677 Y106.819 F7800.000
G1 X106.044000 Y107.186000 Z3.100000 A173.966750 F3600.000000
G0 A172.96675
G0 Z3.600
G0 X106.482 Y111.158 F7800.000
G0 Z3.100
G0 F3600.000 A174.06675
G1 X106.307000 Y110.983000 Z3.100000 A174.069630 F3600.000000
G1 X107.418000 Y111.064000 Z3.100000 A174.082600
G0 X109.233 Y111.196 F7800.000
G1 X110.103000 Y111.260000 Z3.100000 A174.092750 F3600.000000
G0 X110.113 Y111.254 F7800.000
G1 X109.814000 Y110.956000 Z3.100000 A174.097660 F3600.000000
G0 X111.606 Y109.212 F7800.000
G1 X111.323000 Y108.928000 Z3.100000 A174.102330 F3600.000000
G0 X113.104 Y109.122 F7800.000
G1 X113.062000 Y109.407000 Z3.100000 A174.107460 F1800.000000
G3 X113.151000 Y108.500000 Z3.100000 A174.610550 I-4.5479 J-0.9041
G1 X113.113000 Y109.060000 Z3.100000 A174.620520
G1 X113.104000 Y109.122000 Z3.100000 A174.621640
G0 X112.690 Y109.061 F7800.000
G1 X112.650000 Y109.326000 Z3.100000 A174.626400 F1800.000000
G3 X112.650000 Y107.674000 Z3.100000 A175.069360 I-4.1382 J-0.8260
G1 X112.711000 Y108.085000 Z3.100000 A175.076750
G1 X112.690000 Y109.061000 Z3.100000 A175.094130
G0 X112.275 Y108.999 F7800.000
G1 X112.239000 Y109.244000 Z3.100000 A175.098520 F1800.000000
G3 X112.312000 Y108.500000 Z3.100000 A175.510880 I-3.7261 J-0.7412
G1 X112.285000 Y108.937000 Z3.100000 A175.518660
G1 X112.275000 Y108.999000 Z3.100000 A175.519780
G0 X112.610 Y109.251 F7800.000
G0 A174.51978
G0 Z3.600
G0 X119.450 Y97.550 F7800.000
G0 Z3.100
G0 F3600.000 A175.61978
G1 X119.450000 Y119.450000 Z3.100000 A176.009120 F1800.000000
G1 X97.550000 Y119.450000 Z3.100000 A176.398460
G1 X97.550000 Y97.550000 Z3.100000 A176.787800
G1 X119.450000 Y97.550000 Z3.100000 A177.177140
G0 X119.869 Y97.131 F7800.000
G1 X119.869000 Y119.869000 Z3.100000 A177.581380 F1800.000000
G1 X97.131000 Y119.869000 Z3.100000 A177.985610
G1 X97.131000 Y97.131000 Z3.100000 A178.389850
G1 X119.869000 Y97.131000 Z3.100000 A178.794080
G0 X120.288 Y96.712 F7800.000
G1 X120.288000 Y120.288000 Z3.100000 A179.213210 F1260.000000
G1 X96.712000 Y120.288000 Z3.100000 A179.632340
G1 X96.712000 Y96.712000 Z3.100000 A180.051470
G1 X120.288000 Y96.712000 Z3.100000 A180.470600
G0 X120.079 Y97.075 F7800.000
G0 X111.245 Y104.371
G1 X119.220000 Y104.371000 Z3.100000 A180.612370 F2400.000000
G1 X119.220000 Y105.418000 Z3.100000 A180.630990
G1 X112.331000 Y105.418000 Z3.100000 A180.753460
G1 X112.951000 Y106.465000 Z3.100000 A180.775100
G1 X119.220000 Y106.465000 Z3.100000 A180.886550
G1 X119.220000 Y107.512000 Z3.100000 A180.905160
G1 X113.285000 Y107.512000 Z3.100000 A181.010680
G0 X113.379 Y108.559 F7800.000
G1 X119.220000 Y108.559000 Z3.100000 A181.114510 F2400.000000
G1 X119.220000 Y109.607000 Z3.100000 A181.133130
G1 X113.255000 Y109.607000 Z3.100000 A181.239170
G0 X112.895 Y110.654 F7800.000
G1 X119.220000 Y110.654000 Z3.100000 A181.351610 F2400.000000
G1 X119.220000 Y111.701000 Z3.100000 A181.370230
G1 X112.243000 Y111.701000 Z3.100000 A181.494270
G1 X111.074000 Y112.748000 Z3.100000 A181.522160
G1 X119.220000 Y112.748000 Z3.100000 A181.666970
G1 X119.220000 Y113.795000 Z3.100000 A181.685590
G1 X97.780000 Y113.795000 Z3.100000 A182.066740
G1 X97.780000 Y114.843000 Z3.100000 A182.085350
G1 X119.220000 Y114.843000 Z3.100000 A182.466500
G1 X119.220000 Y115.890000 Z3.100000 A182.485120
G1 X97.780000 Y115.890000 Z3.100000 A182.866270
G1 X97.780000 Y116.937000 Z3.100000 A182.884890
G1 X119.220000 Y116.937000 Z3.100000 A183.266040
G1 X119.220000 Y117.984000 Z3.100000 A183.284650
G1 X97.780000 Y117.984000 Z3.100000 A183.665800
G1 X97.780000 Y119.031000 Z3.100000 A183.684420
G1 X119.220000 Y119.031000 Z3.100000 A184.065570
G0 X104.105 Y110.654 F7800.000
G1 X97.780000 Y110.654000 Z3.100000 A184.178020 F2400.000000
G1 X97.780000 Y111.701000 Z3.100000 A184.196630
G1 X104.757000 Y111.701000 Z3.100000 A184.320670
G1 X105.926000 Y112.748000 Z3.100000 A184.348560
G1 X97.780000 Y112.748000 Z3.100000 A184.493370
G0 X103.745 Y109.607 F7800.000
G1 X97.780000 Y109.607000 Z3.100000 A184.599420 F2400.000000
G1 X97.780000 Y108.559000 Z3.100000 A184.618030
G1 X103.621000 Y108.559000 Z3.100000 A184.721870
G0 X103.715 Y107.512 F7800.000
G1 X97.780000 Y107.512000 Z3.100000 A184.827390 F2400.000000
G1 X97.780000 Y106.465000 Z3.100000 A184.846010
G1 X104.049000 Y106.465000 Z3.100000 A184.957450
G1 X104.669000 Y105.418000 Z3.100000 A184.979090
G1 X97.780000 Y105.418000 Z3.100000 A185.101570
G1 X97.780000 Y104.371000 Z3.100000 A185.120180
G1 X105.755000 Y104.371000 Z3.100000 A185.261960
G0 X97.780 Y103.323 F7800.000
G1 X119.220000 Y103.323000 Z3.100000 A185.643110 F2400.000000
G1 X119.220000 Y102.276000 Z3.100000 A185.661730
G1 X97.780000 Y102.276000 Z3.100000 A186.042880
G1 X97.780000 Y101.229000 Z3.100000 A186.061490
G1 X119.220000 Y101.229000 Z3.100000 A186.442640
G1 X119.220000 Y100.182000 Z3.100000 A186.461260
G1 X97.780000 Y100.182000 Z3.100000 A186.842410
G1 X97.780000 Y99.135000 Z3.100000 A186.861030
G1 X119.220000 Y99.135000 Z3.100000 A187.242180
G1 X119.220000 Y98.087000 Z3.100000 A187.260800
G1 X97.780000 Y98.087000 Z3.100000 A187.641950
G0 A186.64195
G0 Z3.400
G0 X105.687 Y106.788 F7800.000
G0 F3600.000 A187.74195
G1 X107.704000 Y105.310000 Z3.400000 A187.771060 F3600.000000
G1 X108.072000 Y105.677000 Z3.400000 A187.777120
G0 X106.044 Y107.186 F7800.000
G1 X105.677000 Y106.819000 Z3.400000 A187.783160 F3600.000000
G0 A186.78316
G0 Z3.900
G0 X106.482 Y111.158 F7800.000
G0 Z3.400
G0 F3600.000 A187.88316
G1 X106.307000 Y110.983000 Z3.400000 A187.886040 F3600.000000
G1 X107.418000 Y111.064000 Z3.400000 A187.899010
G0 X109.233 Y111.196 F7800.000
G1 X110.101000 Y111.259000 Z3.400000 A187.909140 F3600.000000
G0 X110.112 Y111.253 F7800.000
G1 X109.814000 Y110.956000 Z3.400000 A187.914040 F3600.000000
G0 X111.606 Y109.212 F7800.000
G1 X111.323000 Y108.928000 Z3.400000 A187.918700 F3600.000000
G0 X113.102 Y109.134 F7800.000
G1 X113.062000 Y109.407000 Z3.400000 A187.923620 F1800.000000
G3 X113.151000 Y108.500000 Z3.400000 A188.426710 I-4.5479 J-0.9041
G1 X113.111000 Y109.072000 Z3.400000 A188.436900
G1 X113.102000 Y109.134000 Z3.400000 A188.438010
G0 X112.688 Y109.072 F7800.000
G1 X112.650000 Y109.326000 Z3.400000 A188.442560 F1800.000000
G3 X112.650000 Y107.674000 Z3.400000 A188.885510 I-4.1382 J-0.8260
G1 X112.711000 Y108.085000 Z3.400000 A188.892900
G1 X112.697000 Y109.010000 Z3.400000 A188.909370
G1 X112.688000 Y109.072000 Z3.400000 A188.910490
G0 X112.274 Y109.011 F7800.000
G1 X112.239000 Y109.244000 Z3.400000 A188.914670 F1800.000000
G3 X112.312000 Y108.500000 Z3.400000 A189.327030 I-3.7261 J-0.7412
G1 X112.283000 Y108.949000 Z3.400000 A189.335030
G1 X112.274000 Y109.011000 Z3.400000 A189.336150
G0 X112.608 Y109.263 F7800.000
G0 A188.33615
G0 Z3.900
G0 X97.550 Y97.550 F7800.000
G0 Z3.400
G0 F3600.000 A189.43615
G1 X119.450000 Y97.550000 Z3.400000 A189.825490 F1800.000000
G1 X119.450000 Y119.450000 Z3.400000 A190.214830
G1 X97.550000 Y119.450000 Z3.400000 A190.604170
G1 X97.550000 Y97.550000 Z3.400000 A190.993510
G0 X97.131 Y97.131 F7800.000
G1 X119.869000 Y97.131000 Z3.400000 A191.397750 F1800.000000
G1 X119.869000 Y119.869000 Z3.400000 A191.801980
G1 X97.131000 Y119.869000 Z3.400000 A192.206220
G1 X97.131000 Y97.131000 Z3.400000 A192.610450
G0 X96.712 Y96.712 F7800.000
G1 X120.288000 Y96.712000 Z3.400000 A193.029580 F1260.000000
G1 X120.288000 Y120.288000 Z3.400000 A193.448710
G1 X96.712000 Y120.288000 Z3.400000 A193.867840
G1 X96.712000 Y96.712000 Z3.400000 A194.286960
G0 X97.075 Y96.921 F7800.000
G0 X104.252 Y97.780
G1 X104.252000 Y105.926000 Z3.400000 A194.431770 F2400.000000
G1 X105.299000 Y104.758000 Z3.400000 A194.459660
G1 X105.299000 Y97.780000 Z3.400000 A194.583700
G1 X106.346000 Y97.780000 Z3.400000 A194.602320
G1 X106.346000 Y104.105000 Z3.400000 A194.714760
G0 X107.393 Y103.745 F7800.000
G1 X107.393000 Y97.780000 Z3.400000 A194.820800 F2400.000000
G1 X108.441000 Y97.780000 Z3.400000 A194.839420
G1 X108.441000 Y103.619000 Z3.400000 A194.943230
G0 X109.488 Y103.715 F7800.000
G1 X109.488000 Y97.780000 Z3.400000 A195.048740 F2400.000000
G1 X110.535000 Y97.780000 Z3.400000 A195.067360
G1 X110.535000 Y104.049000 Z3.400000 A195.178800
G1 X111.582000 Y104.669000 Z3.400000 A195.200440
G1 X111.582000 Y97.780000 Z3.400000 A195.322920
G1 X112.629000 Y97.780000 Z3.400000 A195.341540
G1 X112.629000 Y105.755000 Z3.400000 A195.483310
G0 X112.629 Y111.245 F7800.000
G1 X112.629000 Y119.220000 Z3.400000 A195.625090 F2400.000000
G1 X111.582000 Y119.220000 Z3.400000 A195.643710
G1 X111.582000 Y112.331000 Z3.400000 A195.766180
G1 X110.535000 Y112.951000 Z3.400000 A195.787820
G1 X110.535000 Y119.220000 Z3.400000 A195.899270
G1 X109.488000 Y119.220000 Z3.400000 A195.917890
G1 X109.488000 Y113.285000 Z3.400000 A196.023400
G0 X108.441 Y113.379 F7800.000
G1 X108.441000 Y119.220000 Z3.400000 A196.127240 F2400.000000
G1 X107.393000 Y119.220000 Z3.400000 A196.145860
G1 X107.393000 Y113.255000 Z3.400000 A196.251900
G0 X106.346 Y112.895 F7800.000
G1 X106.346000 Y119.220000 Z3.400000 A196.364350 F2400.000000
G1 X105.299000 Y119.220000 Z3.400000 A196.382960
G1 X105.299000 Y112.243000 Z3.400000 A196.507010
G1 X104.252000 Y111.074000 Z3.400000 A196.534900
G1 X104.252000 Y119.220000 Z3.400000 A196.679700
G1 X103.205000 Y119.220000 Z3.400000 A196.698320
G1 X103.205000 Y97.780000 Z3.400000 A197.079470
G1 X102.157000 Y97.780000 Z3.400000 A197.098090
G1 X102.157000 Y119.220000 Z3.400000 A197.479240
G1 X101.110000 Y119.220000 Z3.400000 A197.497860
G1 X101.110000 Y97.780000 Z3.400000 A197.879010
G1 X100.063000 Y97.780000 Z3.400000 A197.897620
G1 X100.063000 Y119.220000 Z3.400000 A198.278780
G1 X99.016000 Y119.220000 Z3.400000 A198.297390
G1 X99.016000 Y97.780000 Z3.400000 A198.678540
G1 X97.969000 Y97.780000 Z3.400000 A198.697160
G1 X97.969000 Y119.220000 Z3.400000 A199.078310
G0 A198.07831
G0 Z3.900
G0 X113.677 Y97.780 F7800.000
G0 Z3.400
G0 F3600.000 A199.17831
G1 X113.677000 Y119.220000 Z3.400000 A199.559460 F2400.000000
G1 X114.724000 Y119.220000 Z3.400000 A199.578080
G1 X114.724000 Y97.780000 Z3.400000 A199.959230
G1 X115.771000 Y97.780000 Z3.400000 A199.977850
G1 X115.771000 Y119.220000 Z3.400000 A200.359000
G1 X116.818000 Y119.220000 Z3.400000 A200.377610
G1 X116.818000 Y97.780000 Z3.400000 A200.758770
G1 X117.865000 Y97.780000 Z3.400000 A200.777380
G1 X117.865000 Y119.220000 Z3.400000 A201.158530
G1 X118.913000 Y119.220000 Z3.400000 A201.177150
G1 X118.913000 Y97.780000 Z3.400000 A201.558300
G0 A200.55830
G0 Z3.700
G0 X108.072 Y105.677 F7800.000
G0 F3600.000 A201.65830
G1 X107.704000 Y105.310000 Z3.700000 A201.664360 F3600.000000
G1 X105.687000 Y106.788000 Z3.700000 A201.693470
G0 X105.677 Y106.819 F7800.000
G1 X106.044000 Y107.186000 Z3.700000 A201.699520 F3600.000000
G0 A200.69952
G0 Z4.200
G0 X106.482 Y111.158 F7800.000
G0 Z3.700
G0 F3600.000 A201.79952
G1 X106.307000 Y110.983000 Z3.700000 A201.802400 F3600.000000
G1 X107.418000 Y111.064000 Z3.700000 A201.815370
G0 X109.233 Y111.196 F7800.000
G1 X110.103000 Y111.260000 Z3.700000 A201.825520 F3600.000000
G0 X110.113 Y111.254 F7800.000
G1 X109.814000 Y110.956000 Z3.700000 A201.830430 F3600.000000
G0 X111.606 Y109.212 F7800.000
G1 X111.323000 Y108.928000 Z3.700000 A201.835100 F3600.000000
G0 A200.83510
G0 Z3.700
G0 X113.101 Y109.146 F7800.000
G0 F3600.000 A201.93510
G1 X113.062000 Y109.407000 Z3.700000 A201.939800 F1800.000000
G3 X113.151000 Y108.500000 Z3.700000 A202.442890 I-4.5479 J-0.9041
G1 X113.110000 Y109.083000 Z3.700000 A202.453290
G1 X113.101000 Y109.146000 Z3.700000 A202.454410
G0 X112.686 Y109.084 F7800.000
G1 X112.650000 Y109.326000 Z3.700000 A202.458750 F1800.000000
G3 X112.650000 Y107.674000 Z3.700000 A202.901710 I-4.1382 J-0.8260
G1 X112.711000 Y108.085000 Z3.700000 A202.909090
G1 X112.695000 Y109.022000 Z3.700000 A202.925770
G1 X112.686000 Y109.084000 Z3.700000 A202.926890
G0 X112.272 Y109.023 F7800.000
G1 X112.239000 Y109.244000 Z3.700000 A202.930860 F1800.000000
G3 X112.312000 Y108.500000 Z3.700000 A203.343230 I-3.7261 J-0.7412
G1 X112.281000 Y108.960000 Z3.700000 A203.351430
G1 X112.272000 Y109.023000 Z3.700000 A203.352550
G0 X112.606 Y109.275 F7800.000
G0 A202.35255
G0 Z4.200
G0 X119.450 Y97.550 F7800.000
G0 Z3.700
G0 F3600.000 A203.45255
G1 X119.450000 Y119.450000 Z3.700000 A203.841890 F1800.000000
G1 X97.550000 Y119.450000 Z3.700000 A204.231230
G1 X97.550000 Y97.550000 Z3.700000 A204.620570
G1 X119.450000 Y97.550000 Z3.700000 A205.009910
G0 X119.869 Y97.131 F7800.000
G1 X119.869000 Y119.869000 Z3.700000 A205.414150 F1800.000000
G1 X97.131000 Y119.869000 Z3.700000 A205.818380
G1 X97.131000 Y97.131000 Z3.700000 A206.222620
G1 X119.869000 Y97.131000 Z3.700000 A206.626850
G0 X120.288 Y96.712 F7800.000
G1 X120.288000 Y120.288000 Z3.700000 A207.045980 F1260.000000
G1 X96.712000 Y120.288000 Z3.700000 A207.465110
G1 X96.712000 Y96.712000 Z3.700000 A207.884240
G1 X120.288000 Y96.712000 Z3.700000 A208.303360
G0 X120.079 Y97.075 F7800.000
G0 X111.245 Y104.371
G1 X119.220000 Y104.371000 Z3.700000 A208.445140 F2400.000000
G1 X119.220000 Y105.418000 Z3.700000 A208.463760
G1 X112.331000 Y105.418000 Z3.700000 A208.586230
G1 X112.951000 Y106.465000 Z3.700000 A208.607870
G1 X119.220000 Y106.465000 Z3.700000 A208.719310
G1 X119.220000 Y107.512000 Z3.700000 A208.737930
G1 X113.285000 Y107.512000 Z3.700000 A208.843450
G0 X113.379 Y108.559 F7800.000
G1 X119.220000 Y108.559000 Z3.700000 A208.947280 F2400.000000
G1 X119.220000 Y109.607000 Z3.700000 A208.965900
G1 X113.255000 Y109.607000 Z3.700000 A209.071940
G0 X112.895 Y110.654 F7800.000
G1 X119.220000 Y110.654000 Z3.700000 A209.184380 F2400.000000
G1 X119.220000 Y111.701000 Z3.700000 A209.203000
G1 X112.243000 Y111.701000 Z3.700000 A209.327040
G1 X111.074000 Y112.748000 Z3.700000 A209.354930
G1 X119.220000 Y112.748000 Z3.700000 A209.499740
G1 X119.220000 Y113.795000 Z3.700000 A209.518360
G1 X97.780000 Y113.795000 Z3.700000 A209.899510
G1 X97.780000 Y114.843000 Z3.700000 A209.918120
G1 X119.220000 Y114.843000 Z3.700000 A210.299270
G1 X119.220000 Y115.890000 Z3.700000 A210.317890
G1 X97.780000 Y115.890000 Z3.700000 A210.699040
G1 X97.780000 Y116.937000 Z3.700000 A210.717660
G1 X119.220000 Y116.937000 Z3.700000 A211.098810
G1 X119.220000 Y117.984000 Z3.700000 A211.117420
G1 X97.780000 Y117.984000 Z3.700000 A211.498570
G1 X97.780000 Y119.031000 Z3.700000 A211.517190
G1 X119.220000 Y119.031000 Z3.700000 A211.898340
G0 X104.105 Y110.654 F7800.000
G1 X97.780000 Y110.654000 Z3.700000 A212.010780 F2400.000000
G1 X97.780000 Y111.701000 Z3.700000 A212.029400
G1 X104.757000 Y111.701000 Z3.700000 A212.153440
G1 X105.926000 Y112.748000 Z3.700000 A212.181330
G1 X97.780000 Y112.748000 Z3.700000 A212.326140
G0 X103.745 Y109.607 F7800.000
G1 X97.780000 Y109.607000 Z3.700000 A212.432180 F2400.000000
G1 X97.780000 Y108.559000 Z3.700000 A212.450800
G1 X103.621000 Y108.559000 Z3.700000 A212.554640
G0 X103.715 Y107.512 F7800.000
G1 X97.780000 Y107.512000 Z3.700000 A212.660160 F2400.000000
G1 X97.780000 Y106.465000 Z3.700000 A212.678770
G1 X104.049000 Y106.465000 Z3.700000 A212.790220
G1 X104.669000 Y105.418000 Z3.700000 A212.811860
G1 X97.780000 Y105.418000 Z3.700000 A212.934340
G1 X97.780000 Y104.371000 Z3.700000 A212.952950
G1 X105.755000 Y104.371000 Z3.700000 A213.094730
G0 X97.780 Y103.323 F7800.000
G1 X119.220000 Y103.323000 Z3.700000 A213.475880 F2400.000000
G1 X119.220000 Y102.276000 Z3.700000 A213.494500
G1 X97.780000 Y102.276000 Z3.700000 A213.875650
G1 X97.780000 Y101.229000 Z3.700000 A213.894260
G1 X119.220000 Y101.229000 Z3.700000 A214.275410
G1 X119.220000 Y100.182000 Z3.700000 A214.294030
G1 X97.780000 Y100.182000 Z3.700000 A214.675180
G1 X97.780000 Y99.135000 Z3.700000 A214.693800
G1 X119.220000 Y99.135000 Z3.700000 A215.074950
G1 X119.220000 Y98.087000 Z3.700000 A215.093570
G1 X97.780000 Y98.087000 Z3.700000 A215.474720
G0 A214.47472
G0 Z4.000
G0 X105.687 Y106.788 F7800.000
G0 F3600.000 A215.57472
G1 X107.704000 Y105.310000 Z4.000000 A215.603830 F3600.000000
G1 X108.072000 Y105.677000 Z4.000000 A215.609890
G0 X106.044 Y107.186 F7800.000
G1 X105.677000 Y106.819000 Z4.000000 A215.615930 F3600.000000
G0 A214.61593
G0 Z4.500
G0 X106.482 Y111.158 F7800.000
G0 Z4.000
G0 F3600.000 A215.71593
G1 X106.307000 Y110.983000 Z4.000000 A215.718810 F3600.000000
G1 X107.418000 Y111.064000 Z4.000000 A215.731780
G0 X109.233 Y111.196 F7800.000
G1 X110.103000 Y111.260000 Z4.000000 A215.741930 F3600.000000
G0 X110.113 Y111.254 F7800.000
G1 X109.814000 Y110.956000 Z4.000000 A215.746840 F3600.000000
G0 X111.606 Y109.212 F7800.000
G1 X111.323000 Y108.928000 Z4.000000 A215.751510 F3600.000000
G0 A214.75151
G0 Z4.000
G0 X113.099 Y109.157 F7800.000
G0 F3600.000 A215.85151
G1 X113.062000 Y109.407000 Z4.000000 A215.856010 F1800.000000
G3 X113.151000 Y108.500000 Z4.000000 A216.359100 I-4.5479 J-0.9041
G1 X113.108000 Y109.095000 Z4.000000 A216.369700
G1 X113.099000 Y109.157000 Z4.000000 A216.370820
G0 X112.684 Y109.096 F7800.000
G1 X112.650000 Y109.326000 Z4.000000 A216.374950 F1800.000000
G3 X112.650000 Y107.674000 Z4.000000 A216.817910 I-4.1382 J-0.8260
G1 X112.711000 Y108.085000 Z4.000000 A216.825290
G1 X112.694000 Y109.034000 Z4.000000 A216.842180
G1 X112.684000 Y109.096000 Z4.000000 A216.843300
G0 X112.270 Y109.034 F7800.000
G1 X112.239000 Y109.244000 Z4.000000 A216.847070 F1800.000000
G3 X112.312000 Y108.500000 Z4.000000 A217.259430 I-3.7261 J-0.7412
G1 X112.279000 Y108.972000 Z4.000000 A217.267840
G1 X112.270000 Y109.034000 Z4.000000 A217.268960
G0 X112.604 Y109.287 F7800.000
G0 A216.26896
G0 Z4.500
G0 X97.550 Y97.550 F7800.000
G0 Z4.000
G0 F3600.000 A217.36896
G1 X119.450000 Y97.550000 Z4.000000 A217.758300 F1800.000000
G1 X119.450000 Y119.450000 Z4.000000 A218.147640
G1 X97.550000 Y119.450000 Z4.000000 A218.536980
G1 X97.550000 Y97.550000 Z4.000000 A218.926320
G0 X97.131 Y97.131 F7800.000
G1 X119.869000 Y97.131000 Z4.000000 A219.330560 F1800.000000
G1 X119.869000 Y119.869000 Z4.000000 A219.734790
G1 X97.131000 Y119.869000 Z4.000000 A220.139030
G1 X97.131000 Y97.131000 Z4.000000 A220.543260
G0 X96.712 Y96.712 F7800.000
G1 X120.288000 Y96.712000 Z4.000000 A220.962390 F1260.000000
G1 X120.288000 Y120.288000 Z4.000000 A221.381520
G1 X96.712000 Y120.288000 Z4.000000 A221.800650
G1 X96.712000 Y96.712000 Z4.000000 A222.219780
G0 X97.075 Y96.921 F7800.000
G0 X104.252 Y97.780
G1 X104.252000 Y105.926000 Z4.000000 A222.364580 F2400.000000
G1 X105.299000 Y104.758000 Z4.000000 A222.392470
G1 X105.299000 Y97.780000 Z4.000000 A222.516510
G1 X106.346000 Y97.780000 Z4.000000 A222.535130
G1 X106.346000 Y104.105000 Z4.000000 A222.647570
G0 X107.393 Y103.745 F7800.000
G1 X107.393000 Y97.780000 Z4.000000 A222.753620 F2400.000000
G1 X108.441000 Y97.780000 Z4.000000 A222.772230
G1 X108.441000 Y103.621000 Z4.000000 A222.876070
G0 X109.488 Y103.715 F7800.000
G1 X109.488000 Y97.780000 Z4.000000 A222.981590 F2400.000000
G1 X110.535000 Y97.780000 Z4.000000 A223.000200
G1 X110.535000 Y104.049000 Z4.000000 A223.111650
G1 X111.582000 Y104.669000 Z4.000000 A223.133290
G1 X111.582000 Y97.780000 Z4.000000 A223.255760
G1 X112.629000 Y97.780000 Z4.000000 A223.274380
G1 X112.629000 Y105.755000 Z4.000000 A223.416160
G0 X112.629 Y111.245 F7800.000
G1 X112.629000 Y119.220000 Z4.000000 A223.557940 F2400.000000
G1 X111.582000 Y119.220000 Z4.000000 A223.576550
G1 X111.582000 Y112.331000 Z4.000000 A223.699030
G1 X110.535000 Y112.951000 Z4.000000 A223.720670
G1 X110.535000 Y119.220000 Z4.000000 A223.832110
G1 X109.488000 Y119.220000 Z4.000000 A223.850730
G1 X109.488000 Y113.285000 Z4.000000 A223.956250
G0 X108.441 Y113.379 F7800.000
G1 X108.441000 Y119.220000 Z4.000000 A224.060090 F2400.000000
G1 X107.393000 Y119.220000 Z4.000000 A224.078700
G1 X107.393000 Y113.255000 Z4.000000 A224.184750
G0 X106.346 Y112.895 F7800.000
G1 X106.346000 Y119.220000 Z4.000000 A224.297190 F2400.000000
G1 X105.299000 Y119.220000 Z4.000000 A224.315810
G1 X105.299000 Y112.243000 Z4.000000 A224.439850
G1 X104.252000 Y111.074000 Z4.000000 A224.467740
G1 X104.252000 Y119.220000 Z4.000000 A224.612550
G1 X103.205000 Y119.220000 Z4.000000 A224.631160
G1 X103.205000 Y97.780000 Z4.000000 A225.012320
G1 X102.157000 Y97.780000 Z4.000000 A225.030930
G1 X102.157000 Y119.220000 Z4.000000 A225.412080
G1 X101.110000 Y119.220000 Z4.000000 A225.430700
G1 X101.110000 Y97.780000 Z4.000000 A225.811850
G1 X100.063000 Y97.780000 Z4.000000 A225.830470
G1 X100.063000 Y119.220000 Z4.000000 A226.211620
G1 X99.016000 Y119.220000 Z4.000000 A226.230240
G1 X99.016000 Y97.780000 Z4.000000 A226.611390
G1 X97.969000 Y97.780000 Z4.000000 A226.630000
G1 X97.969000 Y119.220000 Z4.000000 A227.011150
G0 A226.01115
G0 Z4.500
G0 X113.677 Y97.780 F7800.000
G0 Z4.000
G0 F3600.000 A227.11115
G1 X113.677000 Y119.220000 Z4.000000 A227.492310 F2400.000000
G1 X114.724000 Y119.220000 Z4.000000 A227.510920
G1 X114.724000 Y97.780000 Z4.000000 A227.892070
G1 X115.771000 Y97.780000 Z4.000000 A227.910690
G1 X115.771000 Y119.220000 Z4.000000 A228.291840
G1 X116.818000 Y119.220000 Z4.000000 A228.310460
G1 X116.818000 Y97.780000 Z4.000000 A228.691610
G1 X117.865000 Y97.780000 Z4.000000 A228.710230
G1 X117.865000 Y119.220000 Z4.000000 A229.091380
G1 X118.913000 Y119.220000 Z4.000000 A229.109990
G1 X118.913000 Y97.780000 Z4.000000 A229.491140
G0 A228.49114
G0 Z4.300
G0 X108.072 Y105.677 F7800.000
G0 F3600.000 A229.59114
G1 X107.704000 Y105.310000 Z4.300000 A229.597200 F3600.000000
G1 X105.687000 Y106.788000 Z4.300000 A229.626320
G0 X105.677 Y106.819 F7800.000
G1 X106.044000 Y107.186000 Z4.300000 A229.632360 F3600.000000
G0 A228.63236
G0 Z4.800
G0 X106.482 Y111.158 F7800.000
G0 Z4.300
G0 F3600.000 A229.73236
G1 X106.307000 Y110.983000 Z4.300000 A229.735240 F3600.000000
G1 X107.418000 Y111.064000 Z4.300000 A229.748210
G0 X109.233 Y111.196 F7800.000
G1 X110.100000 Y111.259000 Z4.300000 A229.758330 F3600.000000
G0 X110.112 Y111.253 F7800.000
G1 X109.814000 Y110.956000 Z4.300000 A229.763230 F3600.000000
G0 X111.606 Y109.212 F7800.000
G1 X111.323000 Y108.928000 Z4.300000 A229.767900 F3600.000000
G0 X113.097 Y109.169 F7800.000
G1 X113.062000 Y109.407000 Z4.300000 A229.772180 F1800.000000
G3 X113.151000 Y108.500000 Z4.300000 A230.275270 I-4.5479 J-0.9041
G1 X113.106000 Y109.107000 Z4.300000 A230.286090
G1 X113.097000 Y109.169000 Z4.300000 A230.287200
G0 X112.683 Y109.107 F7800.000
G1 X112.650000 Y109.326000 Z4.300000 A230.291120 F1800.000000
G3 X112.650000 Y107.674000 Z4.300000 A230.734080 I-4.1382 J-0.8260
G1 X112.711000 Y108.085000 Z4.300000 A230.741470
G1 X112.692000 Y109.045000 Z4.300000 A230.758570
G1 X112.683000 Y109.107000 Z4.300000 A230.759690
G0 X112.268 Y109.046 F7800.000
G1 X112.239000 Y109.244000 Z4.300000 A230.763240 F1800.000000
G3 X112.312000 Y108.500000 Z4.300000 A231.175600 I-3.7261 J-0.7412
G1 X112.278000 Y108.984000 Z4.300000 A231.184230
G1 X112.268000 Y109.046000 Z4.300000 A231.185340
G0 X112.602 Y109.299 F7800.000
G0 A230.18534
G0 Z4.800
G0 X119.450 Y97.550 F7800.000
G0 Z4.300
G0 F3600.000 A231.28534
G1 X119.450000 Y119.450000 Z4.300000 A231.674680 F1800.000000
G1 X97.550000 Y119.450000 Z4.300000 A232.064030
G1 X97.550000 Y97.550000 Z4.300000 A232.453370
G1 X119.450000 Y97.550000 Z4.300000 A232.842710
G0 X119.869 Y97.131 F7800.000
G1 X119.869000 Y119.869000 Z4.300000 A233.246940 F1800.000000
G1 X97.131000 Y119.869000 Z4.300000 A233.651180
G1 X97.131000 Y97.131000 Z4.300000 A234.055410
G1 X119.869000 Y97.131000 Z4.300000 A234.459650
G0 X120.288 Y96.712 F7800.000
G1 X120.288000 Y120.288000 Z4.300000 A234.878780 F1260.000000
G1 X96.712000 Y120.288000 Z4.300000 A235.297900
G1 X96.712000 Y96.712000 Z4.300000 A235.717030
G1 X120.288000 Y96.712000 Z4.300000 A236.136160
G0 X120.079 Y97.075 F7800.000
G0 X111.245 Y104.371
G1 X119.220000 Y104.371000 Z4.300000 A236.277940 F2400.000000
G1 X119.220000 Y105.418000 Z4.300000 A236.296550
G1 X112.331000 Y105.418000 Z4.300000 A236.419030
G1 X112.951000 Y106.465000 Z4.300000 A236.440670
G1 X119.220000 Y106.465000 Z4.300000 A236.552110
G1 X119.220000 Y107.512000 Z4.300000 A236.570730
G1 X113.285000 Y107.512000 Z4.300000 A236.676240
G0 X113.379 Y108.559 F7800.000
G1 X119.220000 Y108.559000 Z4.300000 A236.780080 F2400.000000
G1 X119.220000 Y109.607000 Z4.300000 A236.798700
G1 X113.255000 Y109.607000 Z4.300000 A236.904740
G0 X112.895 Y110.654 F7800.000
G1 X119.220000 Y110.654000 Z4.300000 A237.017180 F2400.000000
G1 X119.220000 Y111.701000 Z4.300000 A237.035800
G1 X112.243000 Y111.701000 Z4.300000 A237.159840
G1 X111.074000 Y112.748000 Z4.300000 A237.187730
G1 X119.220000 Y112.748000 Z4.300000 A237.332530
G1 X119.220000 Y113.795000 Z4.300000 A237.351150
G1 X97.780000 Y113.795000 Z4.300000 A237.732300
G1 X97.780000 Y114.843000 Z4.300000 A237.750920
G1 X119.220000 Y114.843000 Z4.300000 A238.132070
G1 X119.220000 Y115.890000 Z4.300000 A238.150690
G1 X97.780000 Y115.890000 Z4.300000 A238.531840
G1 X97.780000 Y116.937000 Z4.300000 A238.550450
G1 X119.220000 Y116.937000 Z4.300000 A238.931600
G1 X119.220000 Y117.984000 Z4.300000 A238.950220
G1 X97.780000 Y117.984000 Z4.300000 A239.331370
G1 X97.780000 Y119.031000 Z4.300000 A239.349990
G1 X119.220000 Y119.031000 Z4.300000 A239.731140
G0 X104.105 Y110.654 F7800.000
G1 X97.780000 Y110.654000 Z4.300000 A239.843580 F2400.000000
G1 X97.780000 Y111.701000 Z4.300000 A239.862200
G1 X104.757000 Y111.701000 Z4.300000 A239.986240
G1 X105.926000 Y112.748000 Z4.300000 A240.014130
G1 X97.780000 Y112.748000 Z4.300000 A240.158940
G0 X103.745 Y109.607 F7800.000
G1 X97.780000 Y109.607000 Z4.300000 A240.264980 F2400.000000
G1 X97.780000 Y108.559000 Z4.300000 A240.283600
G1 X103.621000 Y108.559000 Z4.300000 A240.387440
G0 X103.715 Y107.512 F7800.000
G1 X97.780000 Y107.512000 Z4.300000 A240.492950 F2400.000000
G1 X97.780000 Y106.465000 Z4.300000 A240.511570
G1 X104.049000 Y106.465000 Z4.300000 A240.623020
G1 X104.669000 Y105.418000 Z4.300000 A240.644660
G1 X97.780000 Y105.418000 Z4.300000 A240.767130
G1 X97.780000 Y104.371000 Z4.300000 A240.785750
G1 X105.755000 Y104.371000 Z4.300000 A240.927530
G0 X97.780 Y103.323 F7800.000
G1 X119.220000 Y103.323000 Z4.300000 A241.308680 F2400.000000
G1 X119.220000 Y102.276000 Z4.300000 A241.327290
G1 X97.780000 Y102.276000 Z4.300000 A241.708440
G1 X97.780000 Y101.229000 Z4.300000 A241.727060
G1 X119.220000 Y101.229000 Z4.300000 A242.108210
G1 X119.220000 Y100.182000 Z4.300000 A242.126830
G1 X97.780000 Y100.182000 Z4.300000 A242.507980
G1 X97.780000 Y99.135000 Z4.300000 A242.526590
G1 X119.220000 Y99.135000 Z4.300000 A242.907740
G1 X119.220000 Y98.087000 Z4.300000 A242.926360
G1 X97.780000 Y98.087000 Z4.300000 A243.307510
G0 A242.30751
G0 Z4.600
G0 X105.687 Y106.788 F7800.000
G0 F3600.000 A243.40751
G1 X107.704000 Y105.310000 Z4.600000 A243.436630 F3600.000000
G1 X108.072000 Y105.677000 Z4.600000 A243.442680
G0 X106.044 Y107.186 F7800.000
G1 X105.677000 Y106.819000 Z4.600000 A243.448730 F3600.000000
G0 A242.44873
G0 Z5.100
G0 X106.482 Y111.158 F7800.000
G0 Z4.600
G0 F3600.000 A243.54873
G1 X106.307000 Y110.983000 Z4.600000 A243.551610 F3600.000000
G1 X107.418000 Y111.064000 Z4.600000 A243.564580
G0 X109.233 Y111.196 F7800.000
G1 X110.103000 Y111.260000 Z4.600000 A243.574730 F3600.000000
G0 X110.113 Y111.254 F7800.000
G1 X109.814000 Y110.956000 Z4.600000 A243.579640 F3600.000000
G0 X111.606 Y109.212 F7800.000
G1 X111.323000 Y108.928000 Z4.600000 A243.584310 F3600.000000
G0 X113.095 Y109.181 F7800.000
G1 X113.062000 Y109.407000 Z4.600000 A243.588380 F1800.000000
G3 X113.151000 Y108.500000 Z4.600000 A244.091470 I-4.5479 J-0.9041
G1 X113.105000 Y109.118000 Z4.600000 A244.102500
G1 X113.095000 Y109.181000 Z4.600000 A244.103610
G0 X112.681 Y109.119 F7800.000
G1 X112.650000 Y109.326000 Z4.600000 A244.107320 F1800.000000
G3 X112.650000 Y107.674000 Z4.600000 A244.550280 I-4.1382 J-0.8260
G1 X112.711000 Y108.085000 Z4.600000 A244.557670
G1 X112.690000 Y109.057000 Z4.600000 A244.574980
G1 X112.681000 Y109.119000 Z4.600000 A244.576100
G0 X112.267 Y109.058 F7800.000
G1 X112.148000 Y109.607000 Z4.600000 A244.586080 F1800.000000
G3 X112.312000 Y108.500000 Z4.600000 A244.991790 I-3.6416 J-1.1051
G1 X112.276000 Y108.996000 Z4.600000 A245.000620
G1 X112.267000 Y109.058000 Z4.600000 A245.001740
G0 X112.589 Y109.325 F7800.000
G0 A244.00174
G0 Z5.100
G0 X97.550 Y119.450 F7800.000
G0 Z4.600
G0 F3600.000 A245.10174
G1 X97.550000 Y97.550000 Z4.600000 A245.491080 F1800.000000
G1 X119.450000 Y97.550000 Z4.600000 A245.880420
G1 X119.450000 Y119.450000 Z4.600000 A246.269770
G1 X97.550000 Y119.450000 Z4.600000 A246.659110
G0 X97.131 Y119.869 F7800.000
G1 X97.131000 Y97.131000 Z4.600000 A247.063340 F1800.000000
G1 X119.869000 Y97.131000 Z4.600000 A247.467580
G1 X119.869000 Y119.869000 Z4.600000 A247.871810
G1 X97.131000 Y119.869000 Z4.600000 A248.276050
G0 X96.712 Y120.288 F7800.000
G1 X96.712000 Y96.712000 Z4.600000 A248.695170 F1260.000000
G1 X120.288000 Y96.712000 Z4.600000 A249.114300
G1 X120.288000 Y120.288000 Z4.600000 A249.533430
G1 X96.712000 Y120.288000 Z4.600000 A249.952560
G0 X96.921 Y119.925 F7800.000
G0 X97.969 Y119.220
G1 X97.969000 Y97.780000 Z4.600000 A250.333710 F2400.000000
G1 X99.016000 Y97.780000 Z4.600000 A250.352330
G1 X99.016000 Y119.220000 Z4.600000 A250.733480
G1 X100.063000 Y119.220000 Z4.600000 A250.752090
G1 X100.063000 Y97.780000 Z4.600000 A251.133240
G1 X101.110000 Y97.780000 Z4.600000 A251.151860
G1 X101.110000 Y119.220000 Z4.600000 A251.533010
G1 X102.157000 Y119.220000 Z4.600000 A251.551630
G1 X102.157000 Y97.780000 Z4.600000 A251.932780
G1 X103.205000 Y97.780000 Z4.600000 A251.951400
G1 X103.205000 Y119.220000 Z4.600000 A252.332550
G1 X104.252000 Y119.220000 Z4.600000 A252.351170
G1 X104.252000 Y111.074000 Z4.600000 A252.495970
G1 X105.299000 Y112.243000 Z4.600000 A252.523860
G1 X105.299000 Y119.220000 Z4.600000 A252.647910
G1 X106.346000 Y119.220000 Z4.600000 A252.666520
G1 X106.346000 Y112.895000 Z4.600000 A252.778970
G0 X107.393 Y113.255 F7800.000
G1 X107.393000 Y119.220000 Z4.600000 A252.885010 F2400.000000
G1 X108.441000 Y119.220000 Z4.600000 A252.903630
G1 X108.441000 Y113.379000 Z4.600000 A253.007470
G0 X109.488 Y113.285 F7800.000
G1 X109.488000 Y119.220000 Z4.600000 A253.112980 F2400.000000
G1 X110.535000 Y119.220000 Z4.600000 A253.131600
G1 X110.535000 Y112.951000 Z4.600000 A253.243040
G1 X111.582000 Y112.331000 Z4.600000 A253.264690
G1 X111.582000 Y119.220000 Z4.600000 A253.387160
G1 X112.629000 Y119.220000 Z4.600000 A253.405780
G1 X112.629000 Y111.245000 Z4.600000 A253.547560
G0 X112.629 Y105.755 F7800.000
G1 X112.629000 Y97.780000 Z4.600000 A253.689330 F2400.000000
G1 X111.582000 Y97.780000 Z4.600000 A253.707950
G1 X111.582000 Y104.669000 Z4.600000 A253.830430
G1 X110.535000 Y104.049000 Z4.600000 A253.852070
G1 X110.535000 Y97.780000 Z4.600000 A253.963510
G1 X109.488000 Y97.780000 Z4.600000 A253.982130
G1 X109.488000 Y103.715000 Z4.600000 A254.087640
G0 X108.441 Y103.621 F7800.000
G1 X108.441000 Y97.780000 Z4.600000 A254.191480 F2400.000000
G1 X107.393000 Y97.780000 Z4.600000 A254.210100
G1 X107.393000 Y103.745000 Z4.600000 A254.316140
G0 X106.346 Y104.105 F7800.000
G1 X106.346000 Y97.780000 Z4.600000 A254.428590 F2400.000000
G1 X105.299000 Y97.780000 Z4.600000 A254.447200
G1 X105.299000 Y104.758000 Z4.600000 A254.571240
G1 X104.252000 Y105.926000 Z4.600000 A254.599130
G1 X104.252000 Y97.780000 Z4.600000 A254.743940
G0 X113.677 Y97.780 F7800.000
G1 X113.677000 Y119.220000 Z4.600000 A255.125090 F2400.000000
G1 X114.724000 Y119.220000 Z4.600000 A255.143710
G1 X114.724000 Y97.780000 Z4.600000 A255.524860
G1 X115.771000 Y97.780000 Z4.600000 A255.543480
G1 X115.771000 Y119.220000 Z4.600000 A255.924630
G1 X116.818000 Y119.220000 Z4.600000 A255.943240
G1 X116.818000 Y97.780000 Z4.600000 A256.324390
G1 X117.865000 Y97.780000 Z4.600000 A256.343010
G1 X117.865000 Y119.220000 Z4.600000 A256.724160
G1 X118.913000 Y119.220000 Z4.600000 A256.742780
G1 X118.913000 Y97.780000 Z4.600000 A257.123930
G0 A256.12393
G0 Z4.900
G0 X108.072 Y105.677 F7800.000
G0 F3600.000 A257.22393
G1 X107.704000 Y105.310000 Z4.900000 A257.229990 F3600.000000
G1 X105.687000 Y106.788000 Z4.900000 A257.259100
G0 X105.677 Y106.819 F7800.000
G1 X106.044000 Y107.186000 Z4.900000 A257.265140 F3600.000000
G0 A256.26514
G0 Z5.400
G0 X106.482 Y111.158 F7800.000
G0 Z4.900
G0 F3600.000 A257.36514
G1 X106.307000 Y110.983000 Z4.900000 A257.368030 F3600.000000
G1 X107.418000 Y111.064000 Z4.900000 A257.381000
G0 X109.233 Y111.196 F7800.000
G1 X110.103000 Y111.260000 Z4.900000 A257.391140 F3600.000000
G0 X110.113 Y111.254 F7800.000
G1 X109.814000 Y110.956000 Z4.900000 A257.396060 F3600.000000
G0 X111.606 Y109.212 F7800.000
G1 X111.323000 Y108.928000 Z4.900000 A257.400720 F3600.000000
G0 X113.094 Y109.192 F7800.000
G1 X113.062000 Y109.407000 Z4.900000 A257.404590 F1800.000000
G3 X113.151000 Y108.500000 Z4.900000 A257.907680 I-4.5479 J-0.9041
G1 X113.103000 Y109.130000 Z4.900000 A257.918910
G1 X113.094000 Y109.192000 Z4.900000 A257.920030
G0 X112.679 Y109.131 F7800.000
G1 X112.650000 Y109.326000 Z4.900000 A257.923530 F1800.000000
G3 X112.650000 Y107.674000 Z4.900000 A258.366490 I-4.1382 J-0.8260
G1 X112.711000 Y108.085000 Z4.900000 A258.373870
G1 X112.732000 Y108.500000 Z4.900000 A258.381260
G1 X112.688000 Y109.069000 Z4.900000 A258.391400
G1 X112.679000 Y109.131000 Z4.900000 A258.392510
G0 X112.265 Y109.069 F7800.000
G1 X112.148000 Y109.607000 Z4.900000 A258.402290 F1800.000000
G3 X112.312000 Y108.500000 Z4.900000 A258.808000 I-3.6416 J-1.1051
G1 X112.274000 Y109.007000 Z4.900000 A258.817040
G1 X112.265000 Y109.069000 Z4.900000 A258.818160
G0 X112.587 Y109.337 F7800.000
G0 A257.81816
G0 Z5.400
G0 X119.450 Y97.550 F7800.000
G0 Z4.900
G0 F3600.000 A258.91816
G1 X119.450000 Y119.450000 Z4.900000 A259.307500 F1800.000000
G1 X97.550000 Y119.450000 Z4.900000 A259.696840
G1 X97.550000 Y97.550000 Z4.900000 A260.086180
G1 X119.450000 Y97.550000 Z4.900000 A260.475520
G0 X119.869 Y97.131 F7800.000
G1 X119.869000 Y119.869000 Z4.900000 A260.879760 F1800.000000
G1 X97.131000 Y119.869000 Z4.900000 A261.283990
G1 X97.131000 Y97.131000 Z4.900000 A261.688230
G1 X119.869000 Y97.131000 Z4.900000 A262.092460
G0 X120.288 Y96.712 F7800.000
G1 X120.288000 Y120.288000 Z4.900000 A262.511590 F1260.000000
G1 X96.712000 Y120.288000 Z4.900000 A262.930720
G1 X96.712000 Y96.712000 Z4.900000 A263.349850
G1 X120.288000 Y96.712000 Z4.900000 A263.768980
G0 X120.079 Y97.075 F7800.000
G0 X111.245 Y104.371
G1 X119.220000 Y104.371000 Z4.900000 A263.910750 F2400.000000
G1 X119.220000 Y105.418000 Z4.900000 A263.929370
G1 X112.331000 Y105.418000 Z4.900000 A264.051840
G1 X112.951000 Y106.465000 Z4.900000 A264.073480
G1 X119.220000 Y106.465000 Z4.900000 A264.184930
G1 X119.220000 Y107.512000 Z4.900000 A264.203540
G1 X113.285000 Y107.512000 Z4.900000 A264.309060
G0 X113.379 Y108.559 F7800.000
G1 X119.220000 Y108.559000 Z4.900000 A264.412900 F2400.000000
G1 X119.220000 Y109.607000 Z4.900000 A264.431510
G1 X113.255000 Y109.607000 Z4.900000 A264.537550
G0 X112.895 Y110.654 F7800.000
G1 X119.220000 Y110.654000 Z4.900000 A264.650000 F2400.000000
G1 X119.220000 Y111.701000 Z4.900000 A264.668610
G1 X112.243000 Y111.701000 Z4.900000 A264.792650
G1 X111.074000 Y112.748000 Z4.900000 A264.820540
G1 X119.220000 Y112.748000 Z4.900000 A264.965350
G1 X119.220000 Y113.795000 Z4.900000 A264.983970
G1 X97.780000 Y113.795000 Z4.900000 A265.365120
G1 X97.780000 Y114.843000 Z4.900000 A265.383730
G1 X119.220000 Y114.843000 Z4.900000 A265.764880
G1 X119.220000 Y115.890000 Z4.900000 A265.783500
G1 X97.780000 Y115.890000 Z4.900000 A266.164650
G1 X97.780000 Y116.937000 Z4.900000 A266.183270
G1 X119.220000 Y116.937000 Z4.900000 A266.564420
G1 X119.220000 Y117.984000 Z4.900000 A266.583030
G1 X97.780000 Y117.984000 Z4.900000 A266.964180
G1 X97.780000 Y119.031000 Z4.900000 A266.982800
G1 X119.220000 Y119.031000 Z4.900000 A267.363950
G0 X104.105 Y110.654 F7800.000
G1 X97.780000 Y110.654000 Z4.900000 A267.476400 F2400.000000
G1 X97.780000 Y111.701000 Z4.900000 A267.495010
G1 X104.757000 Y111.701000 Z4.900000 A267.619060
G1 X105.926000 Y112.748000 Z4.900000 A267.646940
