%
G17 G21 G40 G90 G64 P0.1
(2 1/2 Axis Facing)
(SlotDrill 1/8in 3.175mm Carbide Aluminium Cut)
T6 M06
S23960 M3
G0 Z13.5375
X-14.98458 Y-21.79375
G1 Z13.22 F790.5
X-14.98426 Z13.21994 F2371.5
X-15.00002 Z13.21716
X-14.98426 Z13.21439
X-15.00002 Z13.21161
X-14.98426 Z13.20883
X-15.00002 Z13.20605
X-14.98426 Z13.20327
X-15.00002 Z13.20049
X-14.98426 Z13.19771
X-15.00002 Z13.19493
X-14.98426 Z13.19216
X-15.00002 Z13.18938
X-14.98426 Z13.1866
X-15.00002 Z13.18382
X-14.98426 Z13.18104
X-15.00002 Z13.17826
X-14.98426 Z13.17548
X-15.00002 Z13.1727
X-14.98426 Z13.16992
X-15.00002 Z13.16714
X-14.98426 Z13.16437
X-15.00002 Z13.16159
X-14.98426 Z13.15881
X-15.00002 Z13.15603
X-14.98426 Z13.15325
X-15.00002 Z13.15047
X-14.98426 Z13.14769
X-15.00002 Z13.14491
X-14.98426 Z13.14213
X-15.00002 Z13.13936
X-14.98426 Z13.13658
X-15.00002 Z13.1338
X-14.98426 Z13.13102
X-15.00002 Z13.12824
X-14.98426 Z13.12546
X-15.00002 Z13.12268
X-14.98426 Z13.1199
X-15.00002 Z13.11712
X-14.98426 Z13.11435
X-15.00002 Z13.11157
X-14.98426 Z13.10879
X-15.00002 Z13.10601
X-14.98426 Z13.10323
X-15.00002 Z13.10045
X-14.98426 Z13.09767
X-15.00002 Z13.09489
X-14.98426 Z13.09212
X-15.00002 Z13.08934
X-14.98426 Z13.08656
X-15.00002 Z13.08378
X-14.98426 Z13.081
X-15.00002 Z13.07822
X-14.98426 Z13.07544
X-15.00002 Z13.07266
X-14.98426 Z13.06988
X-15.00002 Z13.06711
X-14.98426 Z13.06433
X-15.00002 Z13.06155
X-14.98426 Z13.05877
X-15.00002 Z13.05599
X-14.98426 Z13.05321
X-15.00002 Z13.05043
X-14.98426 Z13.04765
X-15.00002 Z13.04487
X-14.98426 Z13.0421
X-15.00002 Z13.03932
X-14.98426 Z13.03654
X-15.00002 Z13.03376
X-14.98426 Z13.03098
X-15.00002 Z13.0282
X-14.98426 Z13.02542
X-15.00002 Z13.02264
X-14.98426 Z13.01986
X-15.00002 Z13.01709
X-14.98426 Z13.01431
X-15.00002 Z13.01153
X-14.98426 Z13.00875
X-15.00002 Z13.00597
X-14.98426 Z13.00319
X-15.00002 Z13.00041
X-14.98426 Z12.99763
X-15.00002 Z12.99485
X-14.98426 Z12.99208
X-15.00002 Z12.9893
X-14.98426 Z12.98652
X-15.00002 Z12.98374
X-14.98426 Z12.98096
X-15.00002 Z12.97818
X-14.98426 Z12.9754
X-15.00002 Z12.97262
X-14.98426 Z12.96984
X-15.00002 Z12.96707
X-14.98426 Z12.96429
X-15.00002 Z12.96151
X-14.98426 Z12.95873
X-15.00002 Z12.95595
X-14.98426 Z12.95317
X-15.00002 Z12.95039
X-14.98426 Z12.94761
X-15.00002 Z12.94483
X-14.98426 Z12.94206
X-15.00002 Z12.93928
X-14.98426 Z12.9365
X-15.00002 Z12.93372
X-14.98426 Z12.93094
X-15.00002 Z12.92816
X-14.98426 Z12.92538
X-15.00002 Z12.9226
X-14.98426 Z12.91982
X-15.00002 Z12.91705
X-14.98426 Z12.91427
X-15.00002 Z12.91149
X-14.98426 Z12.90871
X-15.00002 Z12.90593
X-14.98426 Z12.90315
X-15.00002 Z12.90037
X-14.98426 Z12.89759
X-15.00002 Z12.89482
X-14.98426 Z12.89204
X-15.00002 Z12.88926
X-14.98426 Z12.88648
X-15.00002 Z12.8837
X-14.98426 Z12.88092
X-15.00002 Z12.87814
X-14.98426 Z12.87536
X-15.00002 Z12.87258
X-14.98426 Z12.86981
X-15.00002 Z12.86703
X-14.98426 Z12.86425
X-15.00002 Z12.86147
X-14.98426 Z12.85869
X-15.00002 Z12.85591
X-14.98426 Z12.85313
X-15.00002 Z12.85035
X-14.98426 Z12.84757
X-15.00002 Z12.8448
X-14.98426 Z12.84202
X-15.00002 Z12.83924
X-14.98426 Z12.83646
X-15.00002 Z12.83368
X-14.98426 Z12.8309
X-15.00002 Z12.82812
X-14.98426 Z12.82534
X-15.00002 Z12.82256
X-14.98426 Z12.81979
X-15.00002 Z12.81701
X-14.98426 Z12.81423
X-15.00002 Z12.81145
X-14.98426 Z12.80867
X-15.00002 Z12.80589
X-14.98426 Z12.80311
X-15.00002 Z12.80033
X-14.98426 Z12.79755
X-15.00002 Z12.79478
X-14.98426 Z12.792
X-15.00002 Z12.78922
X-14.98426 Z12.78644
X-15.00002 Z12.78366
X-14.98426 Z12.78088
X-15.00002 Z12.7781
X-14.98426 Z12.77532
X-15.00002 Z12.77254
X-14.98426 Z12.76977
X-15.00002 Z12.76699
X-14.98426 Z12.76421
X-15.00002 Z12.76143
X-14.98426 Z12.75865
X-15.00002 Z12.75587
X-14.98426 Z12.75309
X-15.00002 Z12.75031
X-14.98426 Z12.74753
X-15.00002 Z12.74476
X-14.98426 Z12.74198
X-15.00002 Z12.7392
X-14.98426 Z12.73642
X-15.00002 Z12.73364
X-14.98426 Z12.73086
X-15.00002 Z12.72808
X-14.98426 Z12.7253
X-15.00002 Z12.72253
X-14.98426 Z12.71975
X-15.00002 Z12.71697
X-14.98426 Z12.71419
X-15.00002 Z12.71141
X-14.98426 Z12.70863
X-15.00002 Z12.70585
X-14.98426 Z12.70307
X-15.00002 Z12.70029
X-14.98426 Z12.69752
X-15.00002 Z12.69474
X-14.98426 Z12.69196
X-15.00002 Z12.68918
X-14.98426 Z12.6864
X-15.00002 Z12.68362
X-14.98426 Z12.68084
X-15.00002 Z12.67806
X-14.98426 Z12.67529
X-15.00002 Z12.67251
X-14.98426 Z12.66973
X-15.00002 Z12.66695
X-14.98426 Z12.66417
X-15.00002 Z12.66139
X-14.98426 Z12.65861
X-15.00002 Z12.65583
X-14.98426 Z12.65305
X-15.00002 Z12.65028
X-14.98426 Z12.6475
X-15.00002 Z12.64472
X-14.98426 Z12.64194
X-15.00002 Z12.63916
X-14.98426 Z12.63638
X-15.00002 Z12.6336
X-14.98426 Z12.63082
X-15.00002 Z12.62804
X-14.98426 Z12.62526
X-15.00002 Z12.62249
X-14.98426 Z12.61971
X-15.00002 Z12.61693
X-14.98426 Z12.61415
X-15.00002 Z12.61137
X-14.98426 Z12.60859
X-15.00002 Z12.60581
X-14.98426 Z12.60303
X-15.00002 Z12.60026
X-14.98426 Z12.59748
X-15.00002 Z12.5947
X-14.98426 Z12.59192
X-15.00002 Z12.58914
X-14.98426 Z12.58636
X-15.00002 Z12.58358
X-14.98426 Z12.5808
X-15.00002 Z12.57802
X-14.98426 Z12.57525
X-15.00002 Z12.57247
X-14.98426 Z12.56969
X-15.00002 Z12.56691
X-14.98426 Z12.56413
X-15.00002 Z12.56135
X-14.98426 Z12.55857
X-15.00002 Z12.55579
X-14.98426 Z12.55301
X-15.00002 Z12.55024
X-14.98426 Z12.54746
X-15.00002 Z12.54468
X-14.98426 Z12.5419
X-15.00002 Z12.53912
X-14.98426 Z12.53634
X-15.00002 Z12.53356
X-14.98426 Z12.53078
X-15.00002 Z12.52801
X-14.98426 Z12.52523
X-15.00002 Z12.52245
X-14.98426 Z12.51967
X-15.00002 Z12.51689
X-14.98426 Z12.51411
X-15.00002 Z12.51133
X-14.98426 Z12.50855
X-15.00002 Z12.50577
X-14.98426 Z12.50299
X-15.00002 Z12.50022
X-14.98426 Z12.49744
X-15.00002 Z12.49466
X-14.98426 Z12.49188
X-15.00002 Z12.4891
X-14.98426 Z12.48632
X-15.00002 Z12.48354
X-14.98426 Z12.48076
X-15.00002 Z12.47798
X-14.98426 Z12.47521
X-15.00002 Z12.47243
X-14.98426 Z12.46965
X-15.00002 Z12.46687
X-14.98426 Z12.46409
X-15.00002 Z12.46131
X-14.98426 Z12.45853
X-15.00002 Z12.45575
X-14.98426 Z12.45298
X-15.00002 Z12.4502
X-14.98426 Z12.44742
X-15.00002 Z12.44464
X-14.98426 Z12.44186
X-15.00002 Z12.43908
X-14.98426 Z12.4363
X-15.00002 Z12.43352
X-14.98426 Z12.43074
X-15.00002 Z12.42796
X-14.98426 Z12.42519
X-15.00002 Z12.42241
X-14.98426 Z12.41963
X-15.00002 Z12.41685
X-14.98426 Z12.41407
X-15.00002 Z12.41129
X-14.98426 Z12.40851
X-15.00002 Z12.40573
X-14.98426 Z12.40296
X-15.00002 Z12.40018
X-14.98426 Z12.3974
X-15.00002 Z12.39462
X-14.98426 Z12.39184
X-15.00002 Z12.38906
X-14.98426 Z12.38628
X-15.00002 Z12.3835
X-14.98426 Z12.38072
X-15.00002 Z12.37795
X-14.98426 Z12.37517
X-15.00002 Z12.37239
X-14.98426 Z12.36961
X-15.00002 Z12.36683
X-14.98426 Z12.36405
X-15.00002 Z12.36127
X-14.98426 Z12.35849
X-15.00002 Z12.35571
X-14.98426 Z12.35294
X-15.00002 Z12.35016
X-14.98426 Z12.34738
X-15.00002 Z12.3446
X-14.98426 Z12.34182
X-15.00002 Z12.33904
X-14.98426 Z12.33626
X-15.00002 Z12.33348
X-14.98426 Z12.3307
X-15.00002 Z12.32793
X-14.98426 Z12.32515
X-15.00002 Z12.32237
X-14.98426 Z12.31959
X-15.00002 Z12.31681
X-14.98426 Z12.31403
X-15.00002 Z12.31125
X-14.98426 Z12.30847
X-15.00002 Z12.30569
X-14.98426 Z12.30292
X-15.00002 Z12.30014
X-14.98426 Z12.29736
X-15.00002 Z12.29458
X-14.98426 Z12.2918
X-15.00002 Z12.28902
X-14.98426 Z12.28624
X-15.00002 Z12.28346
X-14.98426 Z12.28068
X-15.00002 Z12.27791
X-14.98426 Z12.27513
X-15.00002 Z12.27235
X-14.98426 Z12.26957
X-15.00002 Z12.26679
X-14.98426 Z12.26401
X-15.00002 Z12.26123
X-14.98426 Z12.25845
X-15.00002 Z12.25568
X-14.98426 Z12.2529
X-15.00002 Z12.25012
X-14.98426 Z12.24734
X-15.00002 Z12.24456
X-14.98426 Z12.24178
X-15.00002 Z12.239
X-14.98426 Z12.23622
X-15.00002 Z12.23344
X-14.98426 Z12.23067
X-15.00002 Z12.22789
X-14.98426 Z12.22511
X-15.00002 Z12.22233
X-14.98426 Z12.21955
X-15.00002 Z12.21677
X-14.98426 Z12.21399
X-15.00002 Z12.21121
X-14.98426 Z12.20843
X-15.00002 Z12.20566
X-14.98426 Z12.20288
X-15.00002 Z12.2001
X-14.98426 Z12.19732
X-15.00002 Z12.19454
X-14.98426 Z12.19176
X-15.00002 Z12.18898
X-14.98426 Z12.1862
X-15.00002 Z12.18342
X-14.98426 Z12.18065
X-15.00002 Z12.17787
X-14.98426 Z12.17509
X-15.00002 Z12.17231
X-14.98426 Z12.16953
X-15.00002 Z12.16675
X-14.98426 Z12.16397
X-15.00002 Z12.16119
X-14.98426 Z12.15841
X-15.00002 Z12.15564
X-14.98426 Z12.15286
X-15.00002 Z12.15008
X-14.98426 Z12.1473
X-15.00002 Z12.14452
X-14.98426 Z12.14174
X-15.00002 Z12.13896
X-14.98426 Z12.13618
X-15.00002 Z12.1334
X-14.98426 Z12.13063
X-15.00002 Z12.12785
X-14.98426 Z12.12507
X-15.00002 Z12.12229
X-14.98426 Z12.11951
X-15.00002 Z12.11673
X-14.98426 Z12.11395
X-15.00002 Z12.11117
X-14.98426 Z12.10839
X-15.00002 Z12.10562
X-14.98426 Z12.10284
X-15.00002 Z12.10006
X-14.98426 Z12.09728
X-15.00002 Z12.0945
X-14.98426 Z12.09172
X-15.00002 Z12.08894
X-14.98426 Z12.08616
X-15.00002 Z12.08339
X-14.98426 Z12.08061
X-15.00002 Z12.07783
X-14.98426 Z12.07505
X-15.00002 Z12.07227
X-14.98426 Z12.06949
X-15.00002 Z12.06671
X-14.98426 Z12.06393
X-15.00002 Z12.06115
X-14.98426 Z12.05838
X-15.00002 Z12.0556
X-14.98426 Z12.05282
X-15.00002 Z12.05004
X-14.98426 Z12.04726
X-15.00002 Z12.04448
X-14.98426 Z12.0417
X-15.00002 Z12.03892
X-14.98426 Z12.03614
X-15.00002 Z12.03337
X-14.98426 Z12.03059
X-15.00002 Z12.02781
X-14.98426 Z12.02503
X-15.00002 Z12.02225
X-14.98426 Z12.01947
X-15.00002 Z12.01669
X-14.98426 Z12.01391
X-15.00002 Z12.01113
X-14.98426 Z12.00836
X-15.00002 Z12.00558
X-14.98426 Z12.0028
X-15.00002 Z12.00002
X-14.98426 Z11.99724
X-15.00002 Z11.99446
X-14.98426 Z11.99168
X-15.00002 Z11.9889
X-14.98426 Z11.98612
X-15.00002 Z11.98335
X-14.98426 Z11.98057
X-15.00002 Z11.97779
X-14.98426 Z11.97501
X-15.00002 Z11.97223
X-14.98426 Z11.96945
X-15.00002 Z11.96667
X-14.98426 Z11.96389
X-15.00002 Z11.96111
X-14.98426 Z11.95834
X-15.00002 Z11.95556
X-14.98426 Z11.95278
X-15.00002 Z11.95
X-14.98426 F3162.
X15.0778 Y-21.78993
X16.24834 Y-21.67464
X16.40095 Y-21.64428
X17.52651 Y-21.30285
X17.67027 Y-21.2433
X18.12546 Y-21.
X-18.12546
X-18.70759 Y-20.68884
X-18.83697 Y-20.6024
X-19.31968 Y-20.20625
X19.31968
X19.74619 Y-19.85622
X19.85622 Y-19.74619
X20.13007 Y-19.4125
X-20.13007
X-20.6024 Y-18.83697
X-20.68884 Y-18.70759
X-20.73633 Y-18.61875
X20.73633
X21.1606 Y-17.825
X-21.1606
X-21.2433 Y-17.67027
X-21.30285 Y-17.52651
X-21.45309 Y-17.03125
X21.45309
X21.64428 Y-16.40096
X21.67464 Y-16.24834
X21.67567 Y-16.2375
X-21.67571
X-21.75389 Y-15.44375
X21.75141
X21.79375 Y-15.
Y-14.65
X-21.78998
X-21.79008 Y-13.85625
X21.79375
Y-13.0625
X-21.79018
X-21.79029 Y-12.26875
X21.79375
Y-11.475
X-21.79039
X-21.79049 Y-10.68125
X21.79375
Y-9.8875
X-21.79059
X-21.79069 Y-9.09375
X21.79375
Y-8.3
X-21.79079
X-21.79089 Y-7.50625
X21.79375
Y-6.7125
X-21.79099
X-21.79109 Y-5.91875
X21.79375
Y-5.125
X-21.79119
X-21.79129 Y-4.33125
X21.79375
Y-3.5375
X-21.79139
X-21.7915 Y-2.74375
X21.79375
Y-1.95
X-21.7916
X-21.7917 Y-1.15625
X21.79375
Y-0.3625
X-21.7918
X-21.7919 Y0.43125
X21.79375
Y1.225
X-21.792
X-21.7921 Y2.01875
X21.79375
Y2.8125
X-21.7922
X-21.7923 Y3.60625
X21.79375
Y4.4
X-21.7924
X-21.7925 Y5.19375
X21.79368
X21.79338 Y5.9875
X-21.79261
X-21.79271 Y6.78125
X21.79308
X21.79277 Y7.575
X-21.79281
X-21.79291 Y8.36875
X21.79247
X21.79217 Y9.1625
X-21.79301
X-21.79311 Y9.95625
X21.79187
X21.79157 Y10.75
X-21.79321
X-21.79331 Y11.54375
X21.79127
X21.79097 Y12.3375
X-21.79341
X-21.79351 Y13.13125
X21.79067
X21.79036 Y13.925
X-21.79361
X-21.79371 Y14.71875
X21.79006
X21.78993 Y15.0778
X21.74711 Y15.5125
X-21.74485
X-21.67464 Y16.24834
X-21.66312 Y16.30625
X21.66312
X21.64428 Y16.40095
X21.43223 Y17.1
X-21.43223
G17
G02 X-21.12385 Y17.89375 I2.62905 J-0.56463
G1 X21.12385
X20.69958 Y18.6875
X-20.69958
X-20.68884 Y18.70759
X-20.6024 Y18.83697
X-20.07365 Y19.48125
X20.07365
X19.85622 Y19.74619
X19.74619 Y19.85622
X19.2359 Y20.275
X-19.2359
X-18.83697 Y20.60239
X-18.70759 Y20.68884
X-17.99683 Y21.06875
X17.99683
G0 Z13.5375
(2 1/2 Axis Pocketing)
(SlotDrill 1/8in 3.175mm Carbide Aluminium Cut)
X-0.37829 Y0.04199
G1 Z13.05 F790.5
Z12.45 F2371.5
X-0.37376 Y0.05633 Z12.44597
X-0.30649 Y0.1476 Z12.41559
X-0.22166 Y0.20567 Z12.38804
X-0.13229 Y0.22914 Z12.36329
X-0.05047 Y0.2211 Z12.34126
X0.01412 Y0.18846 Z12.32186
X0.05524 Y0.14074 Z12.30499
X0.0707 Y0.08865 Z12.29043
X0.06246 Y0.04258 Z12.27789
X0.03612 Y0.01114 Z12.2669
X0. Y0. Z12.25677
X0.03612 Y0.01114 Z12.24664
X0.06246 Y0.04258 Z12.23565
X0.0707 Y0.08865 Z12.22311
X0.05524 Y0.14074 Z12.20855
X0.01412 Y0.18846 Z12.19167
X-0.05047 Y0.2211 Z12.17229
X-0.13229 Y0.22914 Z12.15025
X-0.22166 Y0.20567 Z12.1255
X-0.30649 Y0.1476 Z12.09795
X-0.37376 Y0.05633 Z12.06757
X-0.41113 Y-0.06197 Z12.03433
X-0.40865 Y-0.1968 Z11.99819
X-0.3602 Y-0.33422 Z11.95915
X-0.26458 Y-0.45827 Z11.91718
X-0.12616 Y-0.55275 Z11.87228
X0.04519 Y-0.60307 Z11.82442
X0.23475 Y-0.59814 Z11.77361
X0.4242 Y-0.53193 Z11.71984
X0.59337 Y-0.40455 Z11.6631
X0.72237 Y-0.22282 Z11.60338
X0.59337 Y-0.40455 Z11.54367
X0.4242 Y-0.53193 Z11.48693
X0.23475 Y-0.59814 Z11.43316
X0.04519 Y-0.60307 Z11.38235
X-0.12616 Y-0.55275 Z11.33449
X-0.26458 Y-0.45827 Z11.28959
X-0.3602 Y-0.33422 Z11.24762
X-0.40865 Y-0.1968 Z11.20858
X-0.41113 Y-0.06197 Z11.17244
X-0.37376 Y0.05633 Z11.1392
X-0.30649 Y0.1476 Z11.10882
X-0.22166 Y0.20567 Z11.08127
X-0.13229 Y0.22914 Z11.05652
X-0.05047 Y0.2211 Z11.03448
X0.01412 Y0.18846 Z11.01509
X0.05524 Y0.14074 Z10.99822
X0.0707 Y0.08865 Z10.98366
X0.06246 Y0.04258 Z10.97112
X0.03612 Y0.01114 Z10.96013
X0. Y0. Z10.95
G03 X0.05524 Y0.14074 I-0.01314 J0.08636 F3162.
X-0.22166 Y0.20567 I-0.17402 J-0.11919
X-0.40865 Y-0.1968 I0.16711 J-0.32232
X0.04519 Y-0.60307 I0.50556 J0.10814
X0.59337 Y-0.40455 I0.0782 J0.64017
X0.42342 Y0.831 I-0.61211 J0.54527
X-1.00781 Y0.51351 I-0.56034 J-0.85874
X-0.6036 Y-1.18462 I1.03804 J-0.65008
X1.36143 Y-0.69368 I0.73987 J1.21667
X0.3911 Y1.71352 I-1.41403 J0.82918
X-1.98438 Y0. I-0.50981 J-1.79658
X0.24598 Y-2.18317 I2.08313 J-0.10272
X2.26802 Y0.86469 I-0.16815 J2.30622
X-1.53243 Y2.17096 I-2.40515 J-0.81587
X-1.87272 Y-2.19774 I1.51966 J-2.31597
X2.7999 Y-1.37087 I2.0163 J2.22177
X0.78056 Y3.25129 I-2.85464 J1.50505
X-3.57188 Y0. I-0.89879 J-3.33572
X0.88711 Y-3.69508 I3.68178 J-0.09502
X3.41269 Y2.16238 I-0.83096 J3.8315
X-3.15105 Y2.88456 I-3.55765 J-2.14542
X-2.06593 Y-4.00209 I3.17283 J-3.02888
X4.62993 Y-0.99552 I2.19944 J4.06105
X0.0803 Y4.95824 I-4.71603 J1.11141
X-5.05526 Y-1.16614 I-0.17436 J-5.06917
X2.45151 Y-4.83068 I5.18562 J1.10165
X3.78867 Y4.20775 I-2.43231 J4.97796
X-5.14339 Y2.86781 I-3.93218 J-4.22859
X-1.715 Y-5.87027 I5.19574 J-3.00305
X6.35 Y0. I1.83291 J5.9571
X-1.46347 Y6.41189 I-6.46172 J0.09247
X-6.12981 Y-2.95196 I1.39826 J-6.54142
X4.38336 Y-5.49656 I6.27063 J2.91729
X4.22289 Y5.91018 I-4.3835 J5.64283
X-7.06005 Y2.52284 I-4.36352 J-5.95042
X-0.91546 Y-7.66961 I7.13448 J-2.64731
X7.86753 Y1.18584 I1.01759 J7.77402
X-3.36823 Y7.46476 I-7.99428 J-1.11297
X-6.45206 Y-5.41392 I3.33247 J-7.60653
X7.15164 Y-4.8759 I6.59821 J5.41795
X2.90685 Y8.39878 I-7.19403 J5.01561
X-9.07482 Y0.86654 I-3.03014 J-8.47575
X1.32988 Y-9.24949 I9.17872 J-0.96817
X8.60632 Y4.21377 I-1.25997 J9.37894
X-6.36427 Y7.4688 I-8.74854 J-4.18242
X-5.79141 Y-8.20455 I6.36918 J-7.61435
X9.59878 Y-3.65958 I5.93119 J8.24541
X10.30231 Y-0.46939 I-9.57051 J3.78325
G0 Z13.5375
X10.37673 Y-0.47278
G1 Z10.95 F790.5
G03 X-10.37673 Y0.47278 I-10.37673 J0.47278 F3162.
X10.37673 Y-0.47278 I10.37673 J-0.47278
G1 X10.23001 Y0.48193 Z11.20882 F4743.
Z11.80882
G0 Z13.5375
(2 1/2 Axis Pocketing-1)
(SlotDrill 1/8in 3.175mm Carbide Aluminium Cut)
X0.35014 Y0.5266
G1 Z12.05556 F790.5
Z11.45556 F2371.5
X0.34863 Y0.54087 Z11.45171
X0.34553 Y0.56172 Z11.44606
X0.34155 Y0.58243 Z11.44041
X0.3367 Y0.60295 Z11.43476
X0.331 Y0.62324 Z11.42911
X0.32444 Y0.64328 Z11.42346
X0.31704 Y0.66302 Z11.41781
X0.30882 Y0.68244 Z11.41216
X0.29979 Y0.70149 Z11.40651
X0.28996 Y0.72014 Z11.40087
X0.27935 Y0.73836 Z11.39522
X0.26799 Y0.75612 Z11.38957
X0.25589 Y0.77338 Z11.38392
X0.24307 Y0.79012 Z11.37827
X0.22955 Y0.8063 Z11.37262
X0.21537 Y0.8219 Z11.36697
X0.20054 Y0.83689 Z11.36132
X0.18509 Y0.85123 Z11.35567
X0.16905 Y0.86492 Z11.35002
X0.15245 Y0.87791 Z11.34437
X0.13532 Y0.8902 Z11.33872
X0.11768 Y0.90175 Z11.33308
X0.09957 Y0.91254 Z11.32743
X0.08103 Y0.92257 Z11.32178
X0.06207 Y0.9318 Z11.31613
X0.04275 Y0.94023 Z11.31048
X0.02308 Y0.94783 Z11.30483
X0.00311 Y0.9546 Z11.29918
X-0.01712 Y0.96052 Z11.29353
X-0.03759 Y0.96558 Z11.28788
X-0.05825 Y0.96978 Z11.28223
X-0.07907 Y0.9731 Z11.27658
X-0.10001 Y0.97554 Z11.27094
X-0.12103 Y0.97709 Z11.26529
X-0.14211 Y0.97776 Z11.25964
X-0.16319 Y0.97754 Z11.25399
X-0.18424 Y0.97643 Z11.24834
X-0.20523 Y0.97443 Z11.24269
X-0.22612 Y0.97155 Z11.23704
X-0.24686 Y0.96779 Z11.23139
X-0.26743 Y0.96316 Z11.22574
X-0.28778 Y0.95767 Z11.22009
X-0.30789 Y0.95132 Z11.21444
X-0.32771 Y0.94413 Z11.20879
X-0.34721 Y0.93612 Z11.20315
X-0.36635 Y0.92729 Z11.1975
X-0.38511 Y0.91765 Z11.19185
X-0.40344 Y0.90724 Z11.1862
X-0.42132 Y0.89607 Z11.18055
X-0.43871 Y0.88415 Z11.1749
X-0.45558 Y0.8715 Z11.16925
X-0.4719 Y0.85816 Z11.1636
X-0.48765 Y0.84414 Z11.15795
X-0.50279 Y0.82947 Z11.1523
X-0.5173 Y0.81418 Z11.14665
X-0.53115 Y0.79828 Z11.14101
X-0.54432 Y0.78182 Z11.13536
X-0.55679 Y0.76481 Z11.12971
X-0.56852 Y0.7473 Z11.12406
X-0.57951 Y0.72931 Z11.11841
X-0.58973 Y0.71087 Z11.11276
X-0.59916 Y0.69201 Z11.10711
X-0.60779 Y0.67278 Z11.10146
X-0.6156 Y0.65319 Z11.09581
X-0.62258 Y0.6333 Z11.09016
X-0.62871 Y0.61313 Z11.08451
X-0.63399 Y0.59271 Z11.07886
X-0.6384 Y0.5721 Z11.07321
X-0.64194 Y0.55131 Z11.06757
X-0.6446 Y0.5304 Z11.06192
X-0.64638 Y0.50939 Z11.05627
X-0.64727 Y0.48833 Z11.05062
Y0.46725 Z11.04497
X-0.64638 Y0.44618 Z11.03932
X-0.6446 Y0.42517 Z11.03367
X-0.64194 Y0.40426 Z11.02802
X-0.6384 Y0.38347 Z11.02237
X-0.63399 Y0.36286 Z11.01672
X-0.62871 Y0.34245 Z11.01107
X-0.62258 Y0.32228 Z11.00542
X-0.6156 Y0.30238 Z10.99978
X-0.60779 Y0.2828 Z10.99413
X-0.59916 Y0.26356 Z10.98848
X-0.58973 Y0.24471 Z10.98283
X-0.57951 Y0.22627 Z10.97718
X-0.56852 Y0.20827 Z10.97153
X-0.55679 Y0.19076 Z10.96588
X-0.54432 Y0.17375 Z10.96023
X-0.53115 Y0.15729 Z10.95458
X-0.5173 Y0.1414 Z10.94893
X-0.50279 Y0.1261 Z10.94328
X-0.48765 Y0.11143 Z10.93763
X-0.4719 Y0.09741 Z10.93199
X-0.45558 Y0.08407 Z10.92634
X-0.43871 Y0.07143 Z10.92069
X-0.42132 Y0.05951 Z10.91504
X-0.40344 Y0.04833 Z10.90939
X-0.38511 Y0.03792 Z10.90374
X-0.36635 Y0.02829 Z10.89809
X-0.34721 Y0.01945 Z10.89244
X-0.32771 Y0.01144 Z10.88679
X-0.30789 Y0.00425 Z10.88114
X-0.28778 Y-0.00209 Z10.87549
X-0.26743 Y-0.00759 Z10.86984
X-0.24686 Y-0.01222 Z10.8642
X-0.22612 Y-0.01598 Z10.85855
X-0.20523 Y-0.01886 Z10.8529
X-0.18424 Y-0.02085 Z10.84725
X-0.16319 Y-0.02196 Z10.8416
X-0.14211 Y-0.02219 Z10.83595
X-0.12103 Y-0.02152 Z10.8303
X-0.10001 Y-0.01997 Z10.82465
X-0.07907 Y-0.01753 Z10.819
X-0.05825 Y-0.01421 Z10.81335
X-0.03759 Y-0.01001 Z10.8077
X-0.01712 Y-0.00495 Z10.80205
X0.00311 Y0.00097 Z10.79641
X0.02308 Y0.00774 Z10.79076
X0.04275 Y0.01534 Z10.78511
X0.06207 Y0.02377 Z10.77946
X0.08103 Y0.033 Z10.77381
X0.09957 Y0.04303 Z10.76816
X0.11768 Y0.05382 Z10.76251
X0.13532 Y0.06537 Z10.75686
X0.15245 Y0.07766 Z10.75121
X0.16905 Y0.09065 Z10.74556
X0.18509 Y0.10434 Z10.73991
X0.20054 Y0.11869 Z10.73426
X0.21537 Y0.13367 Z10.72862
X0.22955 Y0.14927 Z10.72297
X0.24307 Y0.16545 Z10.71732
X0.25589 Y0.18219 Z10.71167
X0.26799 Y0.19945 Z10.70602
X0.27935 Y0.21721 Z10.70037
X0.28996 Y0.23543 Z10.69472
X0.29979 Y0.25408 Z10.68907
X0.30882 Y0.27313 Z10.68342
X0.31704 Y0.29255 Z10.67777
X0.32444 Y0.31229 Z10.67212
X0.331 Y0.33233 Z10.66647
X0.3367 Y0.35262 Z10.66083
X0.34155 Y0.37314 Z10.65518
X0.34553 Y0.39385 Z10.64953
X0.34863 Y0.4147 Z10.64388
X0.35084 Y0.43567 Z10.63823
X0.35218 Y0.45671 Z10.63258
X0.35262 Y0.47779 Z10.62693
X0.35218 Y0.49886 Z10.62128
X0.35084 Y0.5199 Z10.61563
X0.34863 Y0.54087 Z10.60998
X0.34553 Y0.56172 Z10.60433
X0.34155 Y0.58243 Z10.59869
X0.3367 Y0.60295 Z10.59304
X0.331 Y0.62324 Z10.58739
X0.32444 Y0.64328 Z10.58174
X0.31704 Y0.66302 Z10.57609
X0.30882 Y0.68244 Z10.57044
X0.29979 Y0.70149 Z10.56479
X0.28996 Y0.72014 Z10.55914
X0.27935 Y0.73836 Z10.55349
X0.26799 Y0.75612 Z10.54784
X0.25589 Y0.77338 Z10.54219
X0.24307 Y0.79012 Z10.53654
X0.22955 Y0.8063 Z10.5309
X0.21537 Y0.8219 Z10.52525
X0.20054 Y0.83689 Z10.5196
X0.18509 Y0.85123 Z10.51395
X0.16905 Y0.86492 Z10.5083
X0.15245 Y0.87791 Z10.50265
X0.13532 Y0.8902 Z10.497
X0.11768 Y0.90175 Z10.49135
X0.09957 Y0.91254 Z10.4857
X0.08103 Y0.92257 Z10.48005
X0.06207 Y0.9318 Z10.4744
X0.04275 Y0.94023 Z10.46876
X0.02308 Y0.94783 Z10.46311
X0.00311 Y0.9546 Z10.45746
X-0.01712 Y0.96052 Z10.45181
X-0.03759 Y0.96558 Z10.44616
X-0.05825 Y0.96978 Z10.44051
X-0.07907 Y0.9731 Z10.43486
X-0.10001 Y0.97554 Z10.42921
X-0.12103 Y0.97709 Z10.42356
X-0.14211 Y0.97776 Z10.41791
X-0.16319 Y0.97754 Z10.41226
X-0.18424 Y0.97643 Z10.40661
X-0.20523 Y0.97443 Z10.40096
X-0.22612 Y0.97155 Z10.39532
X-0.24686 Y0.96779 Z10.38967
X-0.26743 Y0.96316 Z10.38402
X-0.28778 Y0.95767 Z10.37837
X-0.30789 Y0.95132 Z10.37272
X-0.32771 Y0.94413 Z10.36707
X-0.34721 Y0.93612 Z10.36142
X-0.36635 Y0.92729 Z10.35577
X-0.38511 Y0.91765 Z10.35012
X-0.40344 Y0.90724 Z10.34447
X-0.42132 Y0.89607 Z10.33882
X-0.43871 Y0.88415 Z10.33318
X-0.45558 Y0.8715 Z10.32753
X-0.4719 Y0.85816 Z10.32188
X-0.48765 Y0.84414 Z10.31623
X-0.50279 Y0.82947 Z10.31058
X-0.5173 Y0.81418 Z10.30493
X-0.53115 Y0.79828 Z10.29928
X-0.54432 Y0.78182 Z10.29363
X-0.55679 Y0.76481 Z10.28798
X-0.56852 Y0.7473 Z10.28233
X-0.57951 Y0.72931 Z10.27668
X-0.58973 Y0.71087 Z10.27103
X-0.59916 Y0.69201 Z10.26539
X-0.60779 Y0.67278 Z10.25974
X-0.6156 Y0.65319 Z10.25409
X-0.62258 Y0.6333 Z10.24844
X-0.62871 Y0.61313 Z10.24279
X-0.63399 Y0.59271 Z10.23714
X-0.6384 Y0.5721 Z10.23149
X-0.64194 Y0.55131 Z10.22584
X-0.6446 Y0.5304 Z10.22019
X-0.64638 Y0.50939 Z10.21454
X-0.64727 Y0.48833 Z10.20889
Y0.46725 Z10.20324
X-0.64638 Y0.44618 Z10.19759
X-0.6446 Y0.42517 Z10.19195
X-0.64194 Y0.40426 Z10.1863
X-0.6384 Y0.38347 Z10.18065
X-0.63399 Y0.36286 Z10.175
X-0.62871 Y0.34245 Z10.16935
X-0.62258 Y0.32228 Z10.1637
X-0.6156 Y0.30238 Z10.15805
X-0.60779 Y0.2828 Z10.1524
X-0.59916 Y0.26356 Z10.14675
X-0.58973 Y0.24471 Z10.1411
X-0.57951 Y0.22627 Z10.13545
X-0.56852 Y0.20827 Z10.1298
X-0.55679 Y0.19076 Z10.12416
X-0.54432 Y0.17375 Z10.11851
X-0.53115 Y0.15729 Z10.11286
X-0.5173 Y0.1414 Z10.10721
X-0.50279 Y0.1261 Z10.10156
X-0.48765 Y0.11143 Z10.09591
X-0.4719 Y0.09741 Z10.09026
X-0.45558 Y0.08407 Z10.08461
X-0.43871 Y0.07143 Z10.07896
X-0.42132 Y0.05951 Z10.07331
X-0.40344 Y0.04833 Z10.06766
X-0.38511 Y0.03792 Z10.06202
X-0.36635 Y0.02829 Z10.05637
X-0.34721 Y0.01945 Z10.05072
X-0.32771 Y0.01144 Z10.04507
X-0.30789 Y0.00425 Z10.03942
X-0.28778 Y-0.00209 Z10.03377
X-0.26743 Y-0.00759 Z10.02812
X-0.24686 Y-0.01222 Z10.02247
X-0.22612 Y-0.01598 Z10.01682
X-0.20523 Y-0.01886 Z10.01117
X-0.18424 Y-0.02085 Z10.00552
X-0.16319 Y-0.02196 Z9.99987
X-0.14211 Y-0.02219 Z9.99422
X-0.12103 Y-0.02152 Z9.98858
X-0.10001 Y-0.01997 Z9.98293
X-0.07907 Y-0.01753 Z9.97728
X-0.05825 Y-0.01421 Z9.97163
X-0.03759 Y-0.01001 Z9.96598
X-0.01712 Y-0.00495 Z9.96033
X-0.00002 Y0.00006 Z9.95556
X0. Y0.
G03 X0.05524 Y0.14074 I-0.01314 J0.08636 F3162.
X-0.22166 Y0.20567 I-0.17402 J-0.11919
X-0.40865 Y-0.1968 I0.16711 J-0.32232
X0.04519 Y-0.60307 I0.50556 J0.10814
X0.59337 Y-0.40455 I0.0782 J0.64017
X0.42342 Y0.831 I-0.61211 J0.54527
X-1.00781 Y0.51351 I-0.56034 J-0.85874
X-0.6036 Y-1.18462 I1.03804 J-0.65008
X1.36143 Y-0.69368 I0.73987 J1.21667
X0.3911 Y1.71352 I-1.41403 J0.82918
X-1.98438 Y0. I-0.50981 J-1.79658
G1 X-1.98598 Y-0.22377
X-1.96246 Y-0.446
G03 X1.96246 Y0.44599 I1.96246 J0.446
X-1.96246 Y-0.446 I-1.96246 J-0.44599
G1 X-1.3488 Y-1.19194 Z10.21438 F4743.
Z10.81437
G0 Z13.5375
X0.35014 Y0.5266
G1 Z11.06111 F790.5
Z10.46111 F2371.5
X0.34863 Y0.54087 Z10.45726
X0.34553 Y0.56172 Z10.45162
X0.34155 Y0.58243 Z10.44597
X0.3367 Y0.60295 Z10.44032
X0.331 Y0.62324 Z10.43467
X0.32444 Y0.64328 Z10.42902
X0.31704 Y0.66302 Z10.42337
X0.30882 Y0.68244 Z10.41772
X0.29979 Y0.70149 Z10.41207
X0.28996 Y0.72014 Z10.40642
X0.27935 Y0.73836 Z10.40077
X0.26799 Y0.75612 Z10.39512
X0.25589 Y0.77338 Z10.38947
X0.24307 Y0.79012 Z10.38382
X0.22955 Y0.8063 Z10.37818
X0.21537 Y0.8219 Z10.37253
X0.20054 Y0.83689 Z10.36688
X0.18509 Y0.85123 Z10.36123
X0.16905 Y0.86492 Z10.35558
X0.15245 Y0.87791 Z10.34993
X0.13532 Y0.8902 Z10.34428
X0.11768 Y0.90175 Z10.33863
X0.09957 Y0.91254 Z10.33298
X0.08103 Y0.92257 Z10.32733
X0.06207 Y0.9318 Z10.32168
X0.04275 Y0.94023 Z10.31603
X0.02308 Y0.94783 Z10.31039
X0.00311 Y0.9546 Z10.30474
X-0.01712 Y0.96052 Z10.29909
X-0.03759 Y0.96558 Z10.29344
X-0.05825 Y0.96978 Z10.28779
X-0.07907 Y0.9731 Z10.28214
X-0.10001 Y0.97554 Z10.27649
X-0.12103 Y0.97709 Z10.27084
X-0.14211 Y0.97776 Z10.26519
X-0.16319 Y0.97754 Z10.25954
X-0.18424 Y0.97643 Z10.2539
X-0.20523 Y0.97443 Z10.24824
X-0.22612 Y0.97155 Z10.2426
X-0.24686 Y0.96779 Z10.23695
X-0.26743 Y0.96316 Z10.2313
X-0.28778 Y0.95767 Z10.22565
X-0.30789 Y0.95132 Z10.22
X-0.32771 Y0.94413 Z10.21435
X-0.34721 Y0.93612 Z10.2087
X-0.36635 Y0.92729 Z10.20305
X-0.38511 Y0.91765 Z10.1974
X-0.40344 Y0.90724 Z10.19175
X-0.42132 Y0.89607 Z10.1861
X-0.43871 Y0.88415 Z10.18045
X-0.45558 Y0.8715 Z10.17481
X-0.4719 Y0.85816 Z10.16916
X-0.48765 Y0.84414 Z10.16351
X-0.50279 Y0.82947 Z10.15786
X-0.5173 Y0.81418 Z10.15221
X-0.53115 Y0.79828 Z10.14656
X-0.54432 Y0.78182 Z10.14091
X-0.55679 Y0.76481 Z10.13526
X-0.56852 Y0.7473 Z10.12961
X-0.57951 Y0.72931 Z10.12396
X-0.58973 Y0.71087 Z10.11832
X-0.59916 Y0.69201 Z10.11267
X-0.60779 Y0.67278 Z10.10702
X-0.6156 Y0.65319 Z10.10137
X-0.62258 Y0.6333 Z10.09572
X-0.62871 Y0.61313 Z10.09007
X-0.63399 Y0.59271 Z10.08442
X-0.6384 Y0.5721 Z10.07877
X-0.64194 Y0.55131 Z10.07312
X-0.6446 Y0.5304 Z10.06747
X-0.64638 Y0.50939 Z10.06182
X-0.64727 Y0.48833 Z10.05617
Y0.46725 Z10.05052
X-0.64638 Y0.44618 Z10.04488
X-0.6446 Y0.42517 Z10.03923
X-0.64194 Y0.40426 Z10.03358
X-0.6384 Y0.38347 Z10.02793
X-0.63399 Y0.36286 Z10.02228
X-0.62871 Y0.34245 Z10.01663
X-0.62258 Y0.32228 Z10.01098
X-0.6156 Y0.30238 Z10.00533
X-0.60779 Y0.2828 Z9.99968
X-0.59916 Y0.26356 Z9.99403
X-0.58973 Y0.24471 Z9.98838
X-0.57951 Y0.22627 Z9.98273
X-0.56852 Y0.20827 Z9.97709
X-0.55679 Y0.19076 Z9.97144
X-0.54432 Y0.17375 Z9.96579
X-0.53115 Y0.15729 Z9.96014
X-0.5173 Y0.1414 Z9.95449
X-0.50279 Y0.1261 Z9.94884
X-0.48765 Y0.11143 Z9.94319
X-0.4719 Y0.09741 Z9.93754
X-0.45558 Y0.08407 Z9.93189
X-0.43871 Y0.07143 Z9.92624
X-0.42132 Y0.05951 Z9.92059
X-0.40344 Y0.04833 Z9.91494
X-0.38511 Y0.03792 Z9.9093
X-0.36635 Y0.02829 Z9.90365
X-0.34721 Y0.01945 Z9.898
X-0.32771 Y0.01144 Z9.89235
X-0.30789 Y0.00425 Z9.8867
X-0.28778 Y-0.00209 Z9.88105
X-0.26743 Y-0.00759 Z9.8754
X-0.24686 Y-0.01222 Z9.86975
X-0.22612 Y-0.01598 Z9.8641
X-0.20523 Y-0.01886 Z9.85845
X-0.18424 Y-0.02085 Z9.8528
X-0.16319 Y-0.02196 Z9.84715
X-0.14211 Y-0.02219 Z9.84151
X-0.12103 Y-0.02152 Z9.83586
X-0.10001 Y-0.01997 Z9.83021
X-0.07907 Y-0.01753 Z9.82456
X-0.05825 Y-0.01421 Z9.81891
X-0.03759 Y-0.01001 Z9.81326
X-0.01712 Y-0.00495 Z9.80761
X0.00311 Y0.00097 Z9.80196
X0.02308 Y0.00774 Z9.79631
X0.04275 Y0.01534 Z9.79066
X0.06207 Y0.02377 Z9.78501
X0.08103 Y0.033 Z9.77936
X0.09957 Y0.04303 Z9.77372
X0.11768 Y0.05382 Z9.76807
X0.13532 Y0.06537 Z9.76242
X0.15245 Y0.07766 Z9.75677
X0.16905 Y0.09065 Z9.75112
X0.18509 Y0.10434 Z9.74547
X0.20054 Y0.11869 Z9.73982
X0.21537 Y0.13367 Z9.73417
X0.22955 Y0.14927 Z9.72852
X0.24307 Y0.16545 Z9.72287
X0.25589 Y0.18219 Z9.71722
X0.26799 Y0.19945 Z9.71157
X0.27935 Y0.21721 Z9.70593
X0.28996 Y0.23543 Z9.70028
X0.29979 Y0.25408 Z9.69463
X0.30882 Y0.27313 Z9.68898
X0.31704 Y0.29255 Z9.68333
X0.32444 Y0.31229 Z9.67768
X0.331 Y0.33233 Z9.67203
X0.3367 Y0.35262 Z9.66638
X0.34155 Y0.37314 Z9.66073
X0.34553 Y0.39385 Z9.65508
X0.34863 Y0.4147 Z9.64943
X0.35084 Y0.43567 Z9.64378
X0.35218 Y0.45671 Z9.63814
X0.35262 Y0.47779 Z9.63249
X0.35218 Y0.49886 Z9.62684
X0.35084 Y0.5199 Z9.62119
X0.34863 Y0.54087 Z9.61554
X0.34553 Y0.56172 Z9.60989
X0.34155 Y0.58243 Z9.60424
X0.3367 Y0.60295 Z9.59859
X0.331 Y0.62324 Z9.59294
X0.32444 Y0.64328 Z9.58729
X0.31704 Y0.66302 Z9.58164
X0.30882 Y0.68244 Z9.576
X0.29979 Y0.70149 Z9.57035
X0.28996 Y0.72014 Z9.5647
X0.27935 Y0.73836 Z9.55905
X0.26799 Y0.75612 Z9.5534
X0.25589 Y0.77338 Z9.54775
X0.24307 Y0.79012 Z9.5421
X0.22955 Y0.8063 Z9.53645
X0.21537 Y0.8219 Z9.5308
X0.20054 Y0.83689 Z9.52515
X0.18509 Y0.85123 Z9.5195
X0.16905 Y0.86492 Z9.51385
X0.15245 Y0.87791 Z9.5082
X0.13532 Y0.8902 Z9.50256
X0.11768 Y0.90175 Z9.49691
X0.09957 Y0.91254 Z9.49126
X0.08103 Y0.92257 Z9.48561
X0.06207 Y0.9318 Z9.47996
X0.04275 Y0.94023 Z9.47431
X0.02308 Y0.94783 Z9.46866
X0.00311 Y0.9546 Z9.46301
X-0.01712 Y0.96052 Z9.45736
X-0.03759 Y0.96558 Z9.45171
X-0.05825 Y0.96978 Z9.44607
X-0.07907 Y0.9731 Z9.44042
X-0.10001 Y0.97554 Z9.43477
X-0.12103 Y0.97709 Z9.42912
X-0.14211 Y0.97776 Z9.42347
X-0.16319 Y0.97754 Z9.41782
X-0.18424 Y0.97643 Z9.41217
X-0.20523 Y0.97443 Z9.40652
X-0.22612 Y0.97155 Z9.40087
X-0.24686 Y0.96779 Z9.39522
X-0.26743 Y0.96316 Z9.38957
X-0.28778 Y0.95767 Z9.38392
X-0.30789 Y0.95132 Z9.37828
X-0.32771 Y0.94413 Z9.37263
X-0.34721 Y0.93612 Z9.36698
X-0.36635 Y0.92729 Z9.36133
X-0.38511 Y0.91765 Z9.35568
X-0.40344 Y0.90724 Z9.35003
X-0.42132 Y0.89607 Z9.34438
X-0.43871 Y0.88415 Z9.33873
X-0.45558 Y0.8715 Z9.33308
X-0.4719 Y0.85816 Z9.32743
X-0.48765 Y0.84414 Z9.32178
X-0.50279 Y0.82947 Z9.31613
X-0.5173 Y0.81418 Z9.31048
X-0.53115 Y0.79828 Z9.30484
X-0.54432 Y0.78182 Z9.29919
X-0.55679 Y0.76481 Z9.29354
X-0.56852 Y0.7473 Z9.28789
X-0.57951 Y0.72931 Z9.28224
X-0.58973 Y0.71087 Z9.27659
X-0.59916 Y0.69201 Z9.27094
X-0.60779 Y0.67278 Z9.26529
X-0.6156 Y0.65319 Z9.25964
X-0.62258 Y0.6333 Z9.25399
X-0.62871 Y0.61313 Z9.24834
X-0.63399 Y0.59271 Z9.24269
X-0.6384 Y0.5721 Z9.23705
X-0.64194 Y0.55131 Z9.2314
X-0.6446 Y0.5304 Z9.22575
X-0.64638 Y0.50939 Z9.2201
X-0.64727 Y0.48833 Z9.21445
Y0.46725 Z9.2088
X-0.64638 Y0.44618 Z9.20315
X-0.6446 Y0.42517 Z9.1975
X-0.64194 Y0.40426 Z9.19185
X-0.6384 Y0.38347 Z9.1862
X-0.63399 Y0.36286 Z9.18055
X-0.62871 Y0.34245 Z9.1749
X-0.62258 Y0.32228 Z9.16926
X-0.6156 Y0.30238 Z9.16361
X-0.60779 Y0.2828 Z9.15796
X-0.59916 Y0.26356 Z9.15231
X-0.58973 Y0.24471 Z9.14666
X-0.57951 Y0.22627 Z9.14101
X-0.56852 Y0.20827 Z9.13536
X-0.55679 Y0.19076 Z9.12971
X-0.54432 Y0.17375 Z9.12406
X-0.53115 Y0.15729 Z9.11841
X-0.5173 Y0.1414 Z9.11276
X-0.50279 Y0.1261 Z9.10711
X-0.48765 Y0.11143 Z9.10147
X-0.4719 Y0.09741 Z9.09582
X-0.45558 Y0.08407 Z9.09017
X-0.43871 Y0.07143 Z9.08452
X-0.42132 Y0.05951 Z9.07887
X-0.40344 Y0.04833 Z9.07322
X-0.38511 Y0.03792 Z9.06757
X-0.36635 Y0.02829 Z9.06192
X-0.34721 Y0.01945 Z9.05627
X-0.32771 Y0.01144 Z9.05062
X-0.30789 Y0.00425 Z9.04497
X-0.28778 Y-0.00209 Z9.03932
X-0.26743 Y-0.00759 Z9.03368
X-0.24686 Y-0.01222 Z9.02803
X-0.22612 Y-0.01598 Z9.02238
X-0.20523 Y-0.01886 Z9.01673
X-0.18424 Y-0.02085 Z9.01108
X-0.16319 Y-0.02196 Z9.00543
X-0.14211 Y-0.02219 Z8.99978
X-0.12103 Y-0.02152 Z8.99413
X-0.10001 Y-0.01997 Z8.98848
X-0.07907 Y-0.01753 Z8.98283
X-0.05825 Y-0.01421 Z8.97718
X-0.03759 Y-0.01001 Z8.97153
X-0.01712 Y-0.00495 Z8.96589
X-0.00002 Y0.00006 Z8.96111
X0. Y0.
G03 X0.05524 Y0.14074 I-0.01314 J0.08636 F3162.
X-0.22166 Y0.20567 I-0.17402 J-0.11919
X-0.40865 Y-0.1968 I0.16711 J-0.32232
X0.04519 Y-0.60307 I0.50556 J0.10814
X0.59337 Y-0.40455 I0.0782 J0.64017
X0.42342 Y0.831 I-0.61211 J0.54527
X-1.00781 Y0.51351 I-0.56034 J-0.85874
X-0.6036 Y-1.18462 I1.03804 J-0.65008
X1.36143 Y-0.69368 I0.73987 J1.21667
X0.3911 Y1.71352 I-1.41403 J0.82918
X-1.98438 Y0. I-0.50981 J-1.79658
G1 X-1.98598 Y-0.22377
X-1.96246 Y-0.446
G03 X1.96246 Y0.44599 I1.96246 J0.446
X-1.96246 Y-0.446 I-1.96246 J-0.44599
G1 X-1.3488 Y-1.19194 Z9.21993 F4743.
Z9.81993
G0 Z13.5375
X0.35014 Y0.5266
G1 Z10.06667 F790.5
Z9.46667 F2371.5
X0.34863 Y0.54087 Z9.46282
X0.34553 Y0.56172 Z9.45717
X0.34155 Y0.58243 Z9.45152
X0.3367 Y0.60295 Z9.44587
X0.331 Y0.62324 Z9.44022
X0.32444 Y0.64328 Z9.43457
X0.31704 Y0.66302 Z9.42892
X0.30882 Y0.68244 Z9.42328
X0.29979 Y0.70149 Z9.41763
X0.28996 Y0.72014 Z9.41198
X0.27935 Y0.73836 Z9.40633
X0.26799 Y0.75612 Z9.40068
X0.25589 Y0.77338 Z9.39503
X0.24307 Y0.79012 Z9.38938
X0.22955 Y0.8063 Z9.38373
X0.21537 Y0.8219 Z9.37808
X0.20054 Y0.83689 Z9.37243
X0.18509 Y0.85123 Z9.36678
X0.16905 Y0.86492 Z9.36114
X0.15245 Y0.87791 Z9.35549
X0.13532 Y0.8902 Z9.34984
X0.11768 Y0.90175 Z9.34419
X0.09957 Y0.91254 Z9.33854
X0.08103 Y0.92257 Z9.33289
X0.06207 Y0.9318 Z9.32724
X0.04275 Y0.94023 Z9.32159
X0.02308 Y0.94783 Z9.31594
X0.00311 Y0.9546 Z9.31029
X-0.01712 Y0.96052 Z9.30464
X-0.03759 Y0.96558 Z9.29899
X-0.05825 Y0.96978 Z9.29335
X-0.07907 Y0.9731 Z9.2877
X-0.10001 Y0.97554 Z9.28205
X-0.12103 Y0.97709 Z9.2764
X-0.14211 Y0.97776 Z9.27075
X-0.16319 Y0.97754 Z9.2651
X-0.18424 Y0.97643 Z9.25945
X-0.20523 Y0.97443 Z9.2538
X-0.22612 Y0.97155 Z9.24815
X-0.24686 Y0.96779 Z9.2425
X-0.26743 Y0.96316 Z9.23685
X-0.28778 Y0.95767 Z9.2312
X-0.30789 Y0.95132 Z9.22555
X-0.32771 Y0.94413 Z9.21991
X-0.34721 Y0.93612 Z9.21426
X-0.36635 Y0.92729 Z9.20861
X-0.38511 Y0.91765 Z9.20296
X-0.40344 Y0.90724 Z9.19731
X-0.42132 Y0.89607 Z9.19166
X-0.43871 Y0.88415 Z9.18601
X-0.45558 Y0.8715 Z9.18036
X-0.4719 Y0.85816 Z9.17471
X-0.48765 Y0.84414 Z9.16906
X-0.50279 Y0.82947 Z9.16341
X-0.5173 Y0.81418 Z9.15776
X-0.53115 Y0.79828 Z9.15212
X-0.54432 Y0.78182 Z9.14647
X-0.55679 Y0.76481 Z9.14082
X-0.56852 Y0.7473 Z9.13517
X-0.57951 Y0.72931 Z9.12952
X-0.58973 Y0.71087 Z9.12387
X-0.59916 Y0.69201 Z9.11822
X-0.60779 Y0.67278 Z9.11257
X-0.6156 Y0.65319 Z9.10692
X-0.62258 Y0.6333 Z9.10127
X-0.62871 Y0.61313 Z9.09562
X-0.63399 Y0.59271 Z9.08998
X-0.6384 Y0.5721 Z9.08433
X-0.64194 Y0.55131 Z9.07868
X-0.6446 Y0.5304 Z9.07303
X-0.64638 Y0.50939 Z9.06738
X-0.64727 Y0.48833 Z9.06173
Y0.46725 Z9.05608
X-0.64638 Y0.44618 Z9.05043
X-0.6446 Y0.42517 Z9.04478
X-0.64194 Y0.40426 Z9.03913
X-0.6384 Y0.38347 Z9.03348
X-0.63399 Y0.36286 Z9.02783
X-0.62871 Y0.34245 Z9.02218
X-0.62258 Y0.32228 Z9.01654
X-0.6156 Y0.30238 Z9.01089
X-0.60779 Y0.2828 Z9.00524
X-0.59916 Y0.26356 Z8.99959
X-0.58973 Y0.24471 Z8.99394
X-0.57951 Y0.22627 Z8.98829
X-0.56852 Y0.20827 Z8.98264
X-0.55679 Y0.19076 Z8.97699
X-0.54432 Y0.17375 Z8.97134
X-0.53115 Y0.15729 Z8.96569
X-0.5173 Y0.1414 Z8.96004
X-0.50279 Y0.1261 Z8.9544
X-0.48765 Y0.11143 Z8.94875
X-0.4719 Y0.09741 Z8.9431
X-0.45558 Y0.08407 Z8.93745
X-0.43871 Y0.07143 Z8.9318
X-0.42132 Y0.05951 Z8.92615
X-0.40344 Y0.04833 Z8.9205
X-0.38511 Y0.03792 Z8.91485
X-0.36635 Y0.02829 Z8.9092
X-0.34721 Y0.01945 Z8.90355
X-0.32771 Y0.01144 Z8.8979
X-0.30789 Y0.00425 Z8.89226
X-0.28778 Y-0.00209 Z8.88661
X-0.26743 Y-0.00759 Z8.88096
X-0.24686 Y-0.01222 Z8.87531
X-0.22612 Y-0.01598 Z8.86966
X-0.20523 Y-0.01886 Z8.86401
X-0.18424 Y-0.02085 Z8.85836
X-0.16319 Y-0.02196 Z8.85271
X-0.14211 Y-0.02219 Z8.84706
X-0.12103 Y-0.02152 Z8.84141
X-0.10001 Y-0.01997 Z8.83576
X-0.07907 Y-0.01753 Z8.83011
X-0.05825 Y-0.01421 Z8.82446
X-0.03759 Y-0.01001 Z8.81882
X-0.01712 Y-0.00495 Z8.81317
X0.00311 Y0.00097 Z8.80752
X0.02308 Y0.00774 Z8.80187
X0.04275 Y0.01534 Z8.79622
X0.06207 Y0.02377 Z8.79057
X0.08103 Y0.033 Z8.78492
X0.09957 Y0.04303 Z8.77927
X0.11768 Y0.05382 Z8.77362
X0.13532 Y0.06537 Z8.76797
X0.15245 Y0.07766 Z8.76232
X0.16905 Y0.09065 Z8.75667
X0.18509 Y0.10434 Z8.75103
X0.20054 Y0.11869 Z8.74538
X0.21537 Y0.13367 Z8.73973
X0.22955 Y0.14927 Z8.73408
X0.24307 Y0.16545 Z8.72843
X0.25589 Y0.18219 Z8.72278
X0.26799 Y0.19945 Z8.71713
X0.27935 Y0.21721 Z8.71148
X0.28996 Y0.23543 Z8.70583
X0.29979 Y0.25408 Z8.70018
X0.30882 Y0.27313 Z8.69453
X0.31704 Y0.29255 Z8.68888
X0.32444 Y0.31229 Z8.68324
X0.331 Y0.33233 Z8.67759
X0.3367 Y0.35262 Z8.67194
X0.34155 Y0.37314 Z8.66629
X0.34553 Y0.39385 Z8.66064
X0.34863 Y0.4147 Z8.65499
X0.35084 Y0.43567 Z8.64934
X0.35218 Y0.45671 Z8.64369
X0.35262 Y0.47779 Z8.63804
X0.35218 Y0.49886 Z8.63239
X0.35084 Y0.5199 Z8.62674
X0.34863 Y0.54087 Z8.6211
X0.34553 Y0.56172 Z8.61545
X0.34155 Y0.58243 Z8.6098
X0.3367 Y0.60295 Z8.60415
X0.331 Y0.62324 Z8.5985
X0.32444 Y0.64328 Z8.59285
X0.31704 Y0.66302 Z8.5872
X0.30882 Y0.68244 Z8.58155
X0.29979 Y0.70149 Z8.5759
X0.28996 Y0.72014 Z8.57025
X0.27935 Y0.73836 Z8.5646
X0.26799 Y0.75612 Z8.55895
X0.25589 Y0.77338 Z8.5533
X0.24307 Y0.79012 Z8.54766
X0.22955 Y0.8063 Z8.54201
X0.21537 Y0.8219 Z8.53636
X0.20054 Y0.83689 Z8.53071
X0.18509 Y0.85123 Z8.52506
X0.16905 Y0.86492 Z8.51941
X0.15245 Y0.87791 Z8.51376
X0.13532 Y0.8902 Z8.50811
X0.11768 Y0.90175 Z8.50246
X0.09957 Y0.91254 Z8.49681
X0.08103 Y0.92257 Z8.49116
X0.06207 Y0.9318 Z8.48551
X0.04275 Y0.94023 Z8.47987
X0.02308 Y0.94783 Z8.47422
X0.00311 Y0.9546 Z8.46857
X-0.01712 Y0.96052 Z8.46292
X-0.03759 Y0.96558 Z8.45727
X-0.05825 Y0.96978 Z8.45162
X-0.07907 Y0.9731 Z8.44597
X-0.10001 Y0.97554 Z8.44032
X-0.12103 Y0.97709 Z8.43467
X-0.14211 Y0.97776 Z8.42902
X-0.16319 Y0.97754 Z8.42337
X-0.18424 Y0.97643 Z8.41773
X-0.20523 Y0.97443 Z8.41208
X-0.22612 Y0.97155 Z8.40643
X-0.24686 Y0.96779 Z8.40078
X-0.26743 Y0.96316 Z8.39513
X-0.28778 Y0.95767 Z8.38948
X-0.30789 Y0.95132 Z8.38383
X-0.32771 Y0.94413 Z8.37818
X-0.34721 Y0.93612 Z8.37253
X-0.36635 Y0.92729 Z8.36688
X-0.38511 Y0.91765 Z8.36123
X-0.40344 Y0.90724 Z8.35558
X-0.42132 Y0.89607 Z8.34993
X-0.43871 Y0.88415 Z8.34429
X-0.45558 Y0.8715 Z8.33864
X-0.4719 Y0.85816 Z8.33299
X-0.48765 Y0.84414 Z8.32734
X-0.50279 Y0.82947 Z8.32169
X-0.5173 Y0.81418 Z8.31604
X-0.53115 Y0.79828 Z8.31039
X-0.54432 Y0.78182 Z8.30474
X-0.55679 Y0.76481 Z8.29909
X-0.56852 Y0.7473 Z8.29344
X-0.57951 Y0.72931 Z8.28779
X-0.58973 Y0.71087 Z8.28215
X-0.59916 Y0.69201 Z8.2765
X-0.60779 Y0.67278 Z8.27085
X-0.6156 Y0.65319 Z8.2652
X-0.62258 Y0.6333 Z8.25955
X-0.62871 Y0.61313 Z8.2539
X-0.63399 Y0.59271 Z8.24825
X-0.6384 Y0.5721 Z8.2426
X-0.64194 Y0.55131 Z8.23695
X-0.6446 Y0.5304 Z8.2313
X-0.64638 Y0.50939 Z8.22565
X-0.64727 Y0.48833 Z8.22001
Y0.46725 Z8.21435
X-0.64638 Y0.44618 Z8.20871
X-0.6446 Y0.42517 Z8.20306
X-0.64194 Y0.40426 Z8.19741
X-0.6384 Y0.38347 Z8.19176
X-0.63399 Y0.36286 Z8.18611
X-0.62871 Y0.34245 Z8.18046
X-0.62258 Y0.32228 Z8.17481
X-0.6156 Y0.30238 Z8.16916
X-0.60779 Y0.2828 Z8.16351
X-0.59916 Y0.26356 Z8.15786
X-0.58973 Y0.24471 Z8.15221
X-0.57951 Y0.22627 Z8.14657
X-0.56852 Y0.20827 Z8.14092
X-0.55679 Y0.19076 Z8.13527
X-0.54432 Y0.17375 Z8.12962
X-0.53115 Y0.15729 Z8.12397
X-0.5173 Y0.1414 Z8.11832
X-0.50279 Y0.1261 Z8.11267
X-0.48765 Y0.11143 Z8.10702
X-0.4719 Y0.09741 Z8.10137
X-0.45558 Y0.08407 Z8.09572
X-0.43871 Y0.07143 Z8.09007
X-0.42132 Y0.05951 Z8.08442
X-0.40344 Y0.04833 Z8.07878
X-0.38511 Y0.03792 Z8.07313
X-0.36635 Y0.02829 Z8.06748
X-0.34721 Y0.01945 Z8.06183
X-0.32771 Y0.01144 Z8.05618
X-0.30789 Y0.00425 Z8.05053
X-0.28778 Y-0.00209 Z8.04488
X-0.26743 Y-0.00759 Z8.03923
X-0.24686 Y-0.01222 Z8.03358
X-0.22612 Y-0.01598 Z8.02793
X-0.20523 Y-0.01886 Z8.02228
X-0.18424 Y-0.02085 Z8.01663
X-0.16319 Y-0.02196 Z8.01099
X-0.14211 Y-0.02219 Z8.00534
X-0.12103 Y-0.02152 Z7.99969
X-0.10001 Y-0.01997 Z7.99404
X-0.07907 Y-0.01753 Z7.98839
X-0.05825 Y-0.01421 Z7.98274
X-0.03759 Y-0.01001 Z7.97709
X-0.01712 Y-0.00495 Z7.97144
X-0.00002 Y0.00006 Z7.96667
X0. Y0.
G03 X0.05524 Y0.14074 I-0.01314 J0.08636 F3162.
X-0.22166 Y0.20567 I-0.17402 J-0.11919
X-0.40865 Y-0.1968 I0.16711 J-0.32232
X0.04519 Y-0.60307 I0.50556 J0.10814
X0.59337 Y-0.40455 I0.0782 J0.64017
X0.42342 Y0.831 I-0.61211 J0.54527
X-1.00781 Y0.51351 I-0.56034 J-0.85874
X-0.6036 Y-1.18462 I1.03804 J-0.65008
X1.36143 Y-0.69368 I0.73987 J1.21667
X0.3911 Y1.71352 I-1.41403 J0.82918
X-1.98438 Y0. I-0.50981 J-1.79658
G1 X-1.98598 Y-0.22377
X-1.96246 Y-0.446
G03 X1.96246 Y0.44599 I1.96246 J0.446
X-1.96246 Y-0.446 I-1.96246 J-0.44599
G1 X-1.3488 Y-1.19194 Z8.22549 F4743.
Z8.82549
G0 Z13.5375
X0.35014 Y0.5266
G1 Z9.07222 F790.5
Z8.47222 F2371.5
X0.34863 Y0.54087 Z8.46837
X0.34553 Y0.56172 Z8.46273
X0.34155 Y0.58243 Z8.45708
X0.3367 Y0.60295 Z8.45143
X0.331 Y0.62324 Z8.44578
X0.32444 Y0.64328 Z8.44013
X0.31704 Y0.66302 Z8.43448
X0.30882 Y0.68244 Z8.42883
X0.29979 Y0.70149 Z8.42318
X0.28996 Y0.72014 Z8.41753
X0.27935 Y0.73836 Z8.41188
X0.26799 Y0.75612 Z8.40623
X0.25589 Y0.77338 Z8.40059
X0.24307 Y0.79012 Z8.39494
X0.22955 Y0.8063 Z8.38929
X0.21537 Y0.8219 Z8.38364
X0.20054 Y0.83689 Z8.37799
X0.18509 Y0.85123 Z8.37234
X0.16905 Y0.86492 Z8.36669
X0.15245 Y0.87791 Z8.36104
X0.13532 Y0.8902 Z8.35539
X0.11768 Y0.90175 Z8.34974
X0.09957 Y0.91254 Z8.34409
X0.08103 Y0.92257 Z8.33844
X0.06207 Y0.9318 Z8.3328
X0.04275 Y0.94023 Z8.32715
X0.02308 Y0.94783 Z8.3215
X0.00311 Y0.9546 Z8.31585
X-0.01712 Y0.96052 Z8.3102
X-0.03759 Y0.96558 Z8.30455
X-0.05825 Y0.96978 Z8.2989
X-0.07907 Y0.9731 Z8.29325
X-0.10001 Y0.97554 Z8.2876
X-0.12103 Y0.97709 Z8.28195
X-0.14211 Y0.97776 Z8.2763
X-0.16319 Y0.97754 Z8.27065
X-0.18424 Y0.97643 Z8.26501
X-0.20523 Y0.97443 Z8.25936
X-0.22612 Y0.97155 Z8.25371
X-0.24686 Y0.96779 Z8.24806
X-0.26743 Y0.96316 Z8.24241
X-0.28778 Y0.95767 Z8.23676
X-0.30789 Y0.95132 Z8.23111
X-0.32771 Y0.94413 Z8.22546
X-0.34721 Y0.93612 Z8.21981
X-0.36635 Y0.92729 Z8.21416
X-0.38511 Y0.91765 Z8.20851
X-0.40344 Y0.90724 Z8.20286
X-0.42132 Y0.89607 Z8.19722
X-0.43871 Y0.88415 Z8.19157
X-0.45558 Y0.8715 Z8.18592
X-0.4719 Y0.85816 Z8.18027
X-0.48765 Y0.84414 Z8.17462
X-0.50279 Y0.82947 Z8.16897
X-0.5173 Y0.81418 Z8.16332
X-0.53115 Y0.79828 Z8.15767
X-0.54432 Y0.78182 Z8.15202
X-0.55679 Y0.76481 Z8.14637
X-0.56852 Y0.7473 Z8.14072
X-0.57951 Y0.72931 Z8.13507
X-0.58973 Y0.71087 Z8.12943
X-0.59916 Y0.69201 Z8.12378
X-0.60779 Y0.67278 Z8.11813
X-0.6156 Y0.65319 Z8.11248
X-0.62258 Y0.6333 Z8.10683
X-0.62871 Y0.61313 Z8.10118
X-0.63399 Y0.59271 Z8.09553
X-0.6384 Y0.5721 Z8.08988
X-0.64194 Y0.55131 Z8.08423
X-0.6446 Y0.5304 Z8.07858
X-0.64638 Y0.50939 Z8.07293
X-0.64727 Y0.48833 Z8.06728
Y0.46725 Z8.06164
X-0.64638 Y0.44618 Z8.05599
X-0.6446 Y0.42517 Z8.05034
X-0.64194 Y0.40426 Z8.04469
X-0.6384 Y0.38347 Z8.03904
X-0.63399 Y0.36286 Z8.03339
X-0.62871 Y0.34245 Z8.02774
X-0.62258 Y0.32228 Z8.02209
X-0.6156 Y0.30238 Z8.01644
X-0.60779 Y0.2828 Z8.01079
X-0.59916 Y0.26356 Z8.00514
X-0.58973 Y0.24471 Z7.99949
X-0.57951 Y0.22627 Z7.99385
X-0.56852 Y0.20827 Z7.9882
X-0.55679 Y0.19076 Z7.98255
X-0.54432 Y0.17375 Z7.9769
X-0.53115 Y0.15729 Z7.97125
X-0.5173 Y0.1414 Z7.9656
X-0.50279 Y0.1261 Z7.95995
X-0.48765 Y0.11143 Z7.9543
X-0.4719 Y0.09741 Z7.94865
X-0.45558 Y0.08407 Z7.943
X-0.43871 Y0.07143 Z7.93735
X-0.42132 Y0.05951 Z7.9317
X-0.40344 Y0.04833 Z7.92606
X-0.38511 Y0.03792 Z7.92041
X-0.36635 Y0.02829 Z7.91476
X-0.34721 Y0.01945 Z7.90911
X-0.32771 Y0.01144 Z7.90346
X-0.30789 Y0.00425 Z7.89781
X-0.28778 Y-0.00209 Z7.89216
X-0.26743 Y-0.00759 Z7.88651
X-0.24686 Y-0.01222 Z7.88086
X-0.22612 Y-0.01598 Z7.87521
X-0.20523 Y-0.01886 Z7.86956
X-0.18424 Y-0.02085 Z7.86391
X-0.16319 Y-0.02196 Z7.85827
X-0.14211 Y-0.02219 Z7.85262
X-0.12103 Y-0.02152 Z7.84697
X-0.10001 Y-0.01997 Z7.84132
X-0.07907 Y-0.01753 Z7.83567
X-0.05825 Y-0.01421 Z7.83002
X-0.03759 Y-0.01001 Z7.82437
X-0.01712 Y-0.00495 Z7.81872
X0.00311 Y0.00097 Z7.81307
X0.02308 Y0.00774 Z7.80742
X0.04275 Y0.01534 Z7.80177
X0.06207 Y0.02377 Z7.79613
X0.08103 Y0.033 Z7.79048
X0.09957 Y0.04303 Z7.78483
X0.11768 Y0.05382 Z7.77918
X0.13532 Y0.06537 Z7.77353
X0.15245 Y0.07766 Z7.76788
X0.16905 Y0.09065 Z7.76223
X0.18509 Y0.10434 Z7.75658
X0.20054 Y0.11869 Z7.75093
X0.21537 Y0.13367 Z7.74528
X0.22955 Y0.14927 Z7.73963
X0.24307 Y0.16545 Z7.73398
X0.25589 Y0.18219 Z7.72833
X0.26799 Y0.19945 Z7.72269
X0.27935 Y0.21721 Z7.71704
X0.28996 Y0.23543 Z7.71139
X0.29979 Y0.25408 Z7.70574
X0.30882 Y0.27313 Z7.70009
X0.31704 Y0.29255 Z7.69444
X0.32444 Y0.31229 Z7.68879
X0.331 Y0.33233 Z7.68314
X0.3367 Y0.35262 Z7.67749
X0.34155 Y0.37314 Z7.67184
X0.34553 Y0.39385 Z7.66619
X0.34863 Y0.4147 Z7.66055
X0.35084 Y0.43567 Z7.6549
X0.35218 Y0.45671 Z7.64925
X0.35262 Y0.47779 Z7.6436
X0.35218 Y0.49886 Z7.63795
X0.35084 Y0.5199 Z7.6323
X0.34863 Y0.54087 Z7.62665
X0.34553 Y0.56172 Z7.621
X0.34155 Y0.58243 Z7.61535
X0.3367 Y0.60295 Z7.6097
X0.331 Y0.62324 Z7.60405
X0.32444 Y0.64328 Z7.5984
X0.31704 Y0.66302 Z7.59276
X0.30882 Y0.68244 Z7.58711
X0.29979 Y0.70149 Z7.58146
X0.28996 Y0.72014 Z7.57581
X0.27935 Y0.73836 Z7.57016
X0.26799 Y0.75612 Z7.56451
X0.25589 Y0.77338 Z7.55886
X0.24307 Y0.79012 Z7.55321
X0.22955 Y0.8063 Z7.54756
X0.21537 Y0.8219 Z7.54191
X0.20054 Y0.83689 Z7.53626
X0.18509 Y0.85123 Z7.53061
X0.16905 Y0.86492 Z7.52497
X0.15245 Y0.87791 Z7.51932
X0.13532 Y0.8902 Z7.51367
X0.11768 Y0.90175 Z7.50802
X0.09957 Y0.91254 Z7.50237
X0.08103 Y0.92257 Z7.49672
X0.06207 Y0.9318 Z7.49107
X0.04275 Y0.94023 Z7.48542
X0.02308 Y0.94783 Z7.47977
X0.00311 Y0.9546 Z7.47412
X-0.01712 Y0.96052 Z7.46847
X-0.03759 Y0.96558 Z7.46282
X-0.05825 Y0.96978 Z7.45718
X-0.07907 Y0.9731 Z7.45153
X-0.10001 Y0.97554 Z7.44588
X-0.12103 Y0.97709 Z7.44023
X-0.14211 Y0.97776 Z7.43458
X-0.16319 Y0.97754 Z7.42893
X-0.18424 Y0.97643 Z7.42328
X-0.20523 Y0.97443 Z7.41763
X-0.22612 Y0.97155 Z7.41198
X-0.24686 Y0.96779 Z7.40633
X-0.26743 Y0.96316 Z7.40068
X-0.28778 Y0.95767 Z7.39503
X-0.30789 Y0.95132 Z7.38939
X-0.32771 Y0.94413 Z7.38374
X-0.34721 Y0.93612 Z7.37809
X-0.36635 Y0.92729 Z7.37244
X-0.38511 Y0.91765 Z7.36679
X-0.40344 Y0.90724 Z7.36114
X-0.42132 Y0.89607 Z7.35549
X-0.43871 Y0.88415 Z7.34984
X-0.45558 Y0.8715 Z7.34419
X-0.4719 Y0.85816 Z7.33854
X-0.48765 Y0.84414 Z7.33289
X-0.50279 Y0.82947 Z7.32724
X-0.5173 Y0.81418 Z7.3216
X-0.53115 Y0.79828 Z7.31595
X-0.54432 Y0.78182 Z7.3103
X-0.55679 Y0.76481 Z7.30465
X-0.56852 Y0.7473 Z7.299
X-0.57951 Y0.72931 Z7.29335
X-0.58973 Y0.71087 Z7.2877
X-0.59916 Y0.69201 Z7.28205
X-0.60779 Y0.67278 Z7.2764
X-0.6156 Y0.65319 Z7.27075
X-0.62258 Y0.6333 Z7.2651
X-0.62871 Y0.61313 Z7.25945
X-0.63399 Y0.59271 Z7.25381
X-0.6384 Y0.5721 Z7.24816
X-0.64194 Y0.55131 Z7.24251
X-0.6446 Y0.5304 Z7.23686
X-0.64638 Y0.50939 Z7.23121
X-0.64727 Y0.48833 Z7.22556
Y0.46725 Z7.21991
X-0.64638 Y0.44618 Z7.21426
X-0.6446 Y0.42517 Z7.20861
X-0.64194 Y0.40426 Z7.20296
X-0.6384 Y0.38347 Z7.19731
X-0.63399 Y0.36286 Z7.19167
X-0.62871 Y0.34245 Z7.18602
X-0.62258 Y0.32228 Z7.18037
X-0.6156 Y0.30238 Z7.17472
X-0.60779 Y0.2828 Z7.16907
X-0.59916 Y0.26356 Z7.16342
X-0.58973 Y0.24471 Z7.15777
X-0.57951 Y0.22627 Z7.15212
X-0.56852 Y0.20827 Z7.14647
X-0.55679 Y0.19076 Z7.14082
X-0.54432 Y0.17375 Z7.13517
X-0.53115 Y0.15729 Z7.12952
X-0.5173 Y0.1414 Z7.12387
X-0.50279 Y0.1261 Z7.11823
X-0.48765 Y0.11143 Z7.11258
X-0.4719 Y0.09741 Z7.10693
X-0.45558 Y0.08407 Z7.10128
X-0.43871 Y0.07143 Z7.09563
X-0.42132 Y0.05951 Z7.08998
X-0.40344 Y0.04833 Z7.08433
X-0.38511 Y0.03792 Z7.07868
X-0.36635 Y0.02829 Z7.07303
X-0.34721 Y0.01945 Z7.06738
X-0.32771 Y0.01144 Z7.06173
X-0.30789 Y0.00425 Z7.05608
X-0.28778 Y-0.00209 Z7.05044
X-0.26743 Y-0.00759 Z7.04479
X-0.24686 Y-0.01222 Z7.03914
X-0.22612 Y-0.01598 Z7.03349
X-0.20523 Y-0.01886 Z7.02784
X-0.18424 Y-0.02085 Z7.02219
X-0.16319 Y-0.02196 Z7.01654
X-0.14211 Y-0.02219 Z7.01089
X-0.12103 Y-0.02152 Z7.00524
X-0.10001 Y-0.01997 Z6.99959
X-0.07907 Y-0.01753 Z6.99394
X-0.05825 Y-0.01421 Z6.98829
X-0.03759 Y-0.01001 Z6.98265
X-0.01712 Y-0.00495 Z6.977
X-0.00002 Y0.00006 Z6.97222
X0. Y0.
G03 X0.05524 Y0.14074 I-0.01314 J0.08636 F3162.
X-0.22166 Y0.20567 I-0.17402 J-0.11919
X-0.40865 Y-0.1968 I0.16711 J-0.32232
X0.04519 Y-0.60307 I0.50556 J0.10814
X0.59337 Y-0.40455 I0.0782 J0.64017
X0.42342 Y0.831 I-0.61211 J0.54527
X-1.00781 Y0.51351 I-0.56034 J-0.85874
X-0.6036 Y-1.18462 I1.03804 J-0.65008
X1.36143 Y-0.69368 I0.73987 J1.21667
X0.3911 Y1.71352 I-1.41403 J0.82918
X-1.98438 Y0. I-0.50981 J-1.79658
G1 X-1.98598 Y-0.22377
X-1.96246 Y-0.446
G03 X1.96246 Y0.44599 I1.96246 J0.446
X-1.96246 Y-0.446 I-1.96246 J-0.44599
G1 X-1.3488 Y-1.19194 Z7.23104 F4743.
Z7.83104
G0 Z13.5375
X0.35014 Y0.5266
G1 Z8.07778 F790.5
Z7.47778 F2371.5
X0.34863 Y0.54087 Z7.47393
X0.34553 Y0.56172 Z7.46828
X0.34155 Y0.58243 Z7.46263
X0.3367 Y0.60295 Z7.45698
X0.331 Y0.62324 Z7.45133
X0.32444 Y0.64328 Z7.44568
X0.31704 Y0.66302 Z7.44004
X0.30882 Y0.68244 Z7.43439
X0.29979 Y0.70149 Z7.42874
X0.28996 Y0.72014 Z7.42309
X0.27935 Y0.73836 Z7.41744
X0.26799 Y0.75612 Z7.41179
X0.25589 Y0.77338 Z7.40614
X0.24307 Y0.79012 Z7.40049
X0.22955 Y0.8063 Z7.39484
X0.21537 Y0.8219 Z7.38919
X0.20054 Y0.83689 Z7.38354
X0.18509 Y0.85123 Z7.37789
X0.16905 Y0.86492 Z7.37225
X0.15245 Y0.87791 Z7.3666
X0.13532 Y0.8902 Z7.36095
X0.11768 Y0.90175 Z7.3553
X0.09957 Y0.91254 Z7.34965
X0.08103 Y0.92257 Z7.344
X0.06207 Y0.9318 Z7.33835
X0.04275 Y0.94023 Z7.3327
X0.02308 Y0.94783 Z7.32705
X0.00311 Y0.9546 Z7.3214
X-0.01712 Y0.96052 Z7.31575
X-0.03759 Y0.96558 Z7.3101
X-0.05825 Y0.96978 Z7.30446
X-0.07907 Y0.9731 Z7.29881
X-0.10001 Y0.97554 Z7.29316
X-0.12103 Y0.97709 Z7.28751
X-0.14211 Y0.97776 Z7.28186
X-0.16319 Y0.97754 Z7.27621
X-0.18424 Y0.97643 Z7.27056
X-0.20523 Y0.97443 Z7.26491
X-0.22612 Y0.97155 Z7.25926
X-0.24686 Y0.96779 Z7.25361
X-0.26743 Y0.96316 Z7.24796
X-0.28778 Y0.95767 Z7.24231
X-0.30789 Y0.95132 Z7.23667
X-0.32771 Y0.94413 Z7.23102
X-0.34721 Y0.93612 Z7.22537
X-0.36635 Y0.92729 Z7.21972
X-0.38511 Y0.91765 Z7.21407
X-0.40344 Y0.90724 Z7.20842
X-0.42132 Y0.89607 Z7.20277
X-0.43871 Y0.88415 Z7.19712
X-0.45558 Y0.8715 Z7.19147
X-0.4719 Y0.85816 Z7.18582
X-0.48765 Y0.84414 Z7.18017
X-0.50279 Y0.82947 Z7.17453
X-0.5173 Y0.81418 Z7.16888
X-0.53115 Y0.79828 Z7.16323
X-0.54432 Y0.78182 Z7.15758
X-0.55679 Y0.76481 Z7.15193
X-0.56852 Y0.7473 Z7.14628
X-0.57951 Y0.72931 Z7.14063
X-0.58973 Y0.71087 Z7.13498
X-0.59916 Y0.69201 Z7.12933
X-0.60779 Y0.67278 Z7.12368
X-0.6156 Y0.65319 Z7.11803
X-0.62258 Y0.6333 Z7.11238
X-0.62871 Y0.61313 Z7.10674
X-0.63399 Y0.59271 Z7.10109
X-0.6384 Y0.5721 Z7.09544
X-0.64194 Y0.55131 Z7.08979
X-0.6446 Y0.5304 Z7.08414
X-0.64638 Y0.50939 Z7.07849
X-0.64727 Y0.48833 Z7.07284
Y0.46725 Z7.06719
X-0.64638 Y0.44618 Z7.06154
X-0.6446 Y0.42517 Z7.05589
X-0.64194 Y0.40426 Z7.05024
X-0.6384 Y0.38347 Z7.04459
X-0.63399 Y0.36286 Z7.03895
X-0.62871 Y0.34245 Z7.0333
X-0.62258 Y0.32228 Z7.02765
X-0.6156 Y0.30238 Z7.022
X-0.60779 Y0.2828 Z7.01635
X-0.59916 Y0.26356 Z7.0107
X-0.58973 Y0.24471 Z7.00505
X-0.57951 Y0.22627 Z6.9994
X-0.56852 Y0.20827 Z6.99375
X-0.55679 Y0.19076 Z6.9881
X-0.54432 Y0.17375 Z6.98245
X-0.53115 Y0.15729 Z6.9768
X-0.5173 Y0.1414 Z6.97116
X-0.50279 Y0.1261 Z6.96551
X-0.48765 Y0.11143 Z6.95986
X-0.4719 Y0.09741 Z6.95421
X-0.45558 Y0.08407 Z6.94856
X-0.43871 Y0.07143 Z6.94291
X-0.42132 Y0.05951 Z6.93726
X-0.40344 Y0.04833 Z6.93161
X-0.38511 Y0.03792 Z6.92596
X-0.36635 Y0.02829 Z6.92031
X-0.34721 Y0.01945 Z6.91466
X-0.32771 Y0.01144 Z6.90901
X-0.30789 Y0.00425 Z6.90337
X-0.28778 Y-0.00209 Z6.89772
X-0.26743 Y-0.00759 Z6.89207
X-0.24686 Y-0.01222 Z6.88642
X-0.22612 Y-0.01598 Z6.88077
X-0.20523 Y-0.01886 Z6.87512
X-0.18424 Y-0.02085 Z6.86947
X-0.16319 Y-0.02196 Z6.86382
X-0.14211 Y-0.02219 Z6.85817
X-0.12103 Y-0.02152 Z6.85252
X-0.10001 Y-0.01997 Z6.84687
X-0.07907 Y-0.01753 Z6.84122
X-0.05825 Y-0.01421 Z6.83558
X-0.03759 Y-0.01001 Z6.82993
X-0.01712 Y-0.00495 Z6.82428
X0.00311 Y0.00097 Z6.81863
X0.02308 Y0.00774 Z6.81298
X0.04275 Y0.01534 Z6.80733
X0.06207 Y0.02377 Z6.80168
X0.08103 Y0.033 Z6.79603
X0.09957 Y0.04303 Z6.79038
X0.11768 Y0.05382 Z6.78473
X0.13532 Y0.06537 Z6.77908
X0.15245 Y0.07766 Z6.77343
X0.16905 Y0.09065 Z6.76779
X0.18509 Y0.10434 Z6.76214
X0.20054 Y0.11869 Z6.75649
X0.21537 Y0.13367 Z6.75084
X0.22955 Y0.14927 Z6.74519
X0.24307 Y0.16545 Z6.73954
X0.25589 Y0.18219 Z6.73389
X0.26799 Y0.19945 Z6.72824
X0.27935 Y0.21721 Z6.72259
X0.28996 Y0.23543 Z6.71694
X0.29979 Y0.25408 Z6.71129
X0.30882 Y0.27313 Z6.70564
X0.31704 Y0.29255 Z6.7
X0.32444 Y0.31229 Z6.69435
X0.331 Y0.33233 Z6.6887
X0.3367 Y0.35262 Z6.68305
X0.34155 Y0.37314 Z6.6774
X0.34553 Y0.39385 Z6.67175
X0.34863 Y0.4147 Z6.6661
X0.35084 Y0.43567 Z6.66045
X0.35218 Y0.45671 Z6.6548
X0.35262 Y0.47779 Z6.64915
X0.35218 Y0.49886 Z6.6435
X0.35084 Y0.5199 Z6.63785
X0.34863 Y0.54087 Z6.63221
X0.34553 Y0.56172 Z6.62656
X0.34155 Y0.58243 Z6.62091
X0.3367 Y0.60295 Z6.61526
X0.331 Y0.62324 Z6.60961
X0.32444 Y0.64328 Z6.60396
X0.31704 Y0.66302 Z6.59831
X0.30882 Y0.68244 Z6.59266
X0.29979 Y0.70149 Z6.58701
X0.28996 Y0.72014 Z6.58136
X0.27935 Y0.73836 Z6.57571
X0.26799 Y0.75612 Z6.57006
X0.25589 Y0.77338 Z6.56442
X0.24307 Y0.79012 Z6.55877
X0.22955 Y0.8063 Z6.55312
X0.21537 Y0.8219 Z6.54747
X0.20054 Y0.83689 Z6.54182
X0.18509 Y0.85123 Z6.53617
X0.16905 Y0.86492 Z6.53052
X0.15245 Y0.87791 Z6.52487
X0.13532 Y0.8902 Z6.51922
X0.11768 Y0.90175 Z6.51357
X0.09957 Y0.91254 Z6.50792
X0.08103 Y0.92257 Z6.50227
X0.06207 Y0.9318 Z6.49663
X0.04275 Y0.94023 Z6.49098
X0.02308 Y0.94783 Z6.48533
X0.00311 Y0.9546 Z6.47968
X-0.01712 Y0.96052 Z6.47403
X-0.03759 Y0.96558 Z6.46838
X-0.05825 Y0.96978 Z6.46273
X-0.07907 Y0.9731 Z6.45708
X-0.10001 Y0.97554 Z6.45143
X-0.12103 Y0.97709 Z6.44578
X-0.14211 Y0.97776 Z6.44013
X-0.16319 Y0.97754 Z6.43449
X-0.18424 Y0.97643 Z6.42884
X-0.20523 Y0.97443 Z6.42319
X-0.22612 Y0.97155 Z6.41754
X-0.24686 Y0.96779 Z6.41189
X-0.26743 Y0.96316 Z6.40624
X-0.28778 Y0.95767 Z6.40059
X-0.30789 Y0.95132 Z6.39494
X-0.32771 Y0.94413 Z6.38929
X-0.34721 Y0.93612 Z6.38364
X-0.36635 Y0.92729 Z6.37799
X-0.38511 Y0.91765 Z6.37234
X-0.40344 Y0.90724 Z6.3667
X-0.42132 Y0.89607 Z6.36105
X-0.43871 Y0.88415 Z6.3554
X-0.45558 Y0.8715 Z6.34975
X-0.4719 Y0.85816 Z6.3441
X-0.48765 Y0.84414 Z6.33845
X-0.50279 Y0.82947 Z6.3328
X-0.5173 Y0.81418 Z6.32715
X-0.53115 Y0.79828 Z6.3215
X-0.54432 Y0.78182 Z6.31585
X-0.55679 Y0.76481 Z6.3102
X-0.56852 Y0.7473 Z6.30455
X-0.57951 Y0.72931 Z6.29891
X-0.58973 Y0.71087 Z6.29326
X-0.59916 Y0.69201 Z6.28761
X-0.60779 Y0.67278 Z6.28196
X-0.6156 Y0.65319 Z6.27631
X-0.62258 Y0.6333 Z6.27066
X-0.62871 Y0.61313 Z6.26501
X-0.63399 Y0.59271 Z6.25936
X-0.6384 Y0.5721 Z6.25371
X-0.64194 Y0.55131 Z6.24806
X-0.6446 Y0.5304 Z6.24241
X-0.64638 Y0.50939 Z6.23676
X-0.64727 Y0.48833 Z6.23112
Y0.46725 Z6.22547
X-0.64638 Y0.44618 Z6.21982
X-0.6446 Y0.42517 Z6.21417
X-0.64194 Y0.40426 Z6.20852
X-0.6384 Y0.38347 Z6.20287
X-0.63399 Y0.36286 Z6.19722
X-0.62871 Y0.34245 Z6.19157
X-0.62258 Y0.32228 Z6.18592
X-0.6156 Y0.30238 Z6.18027
X-0.60779 Y0.2828 Z6.17462
X-0.59916 Y0.26356 Z6.16897
X-0.58973 Y0.24471 Z6.16333
X-0.57951 Y0.22627 Z6.15768
X-0.56852 Y0.20827 Z6.15203
X-0.55679 Y0.19076 Z6.14638
X-0.54432 Y0.17375 Z6.14073
X-0.53115 Y0.15729 Z6.13508
X-0.5173 Y0.1414 Z6.12943
X-0.50279 Y0.1261 Z6.12378
X-0.48765 Y0.11143 Z6.11813
X-0.4719 Y0.09741 Z6.11248
X-0.45558 Y0.08407 Z6.10683
X-0.43871 Y0.07143 Z6.10118
X-0.42132 Y0.05951 Z6.09554
X-0.40344 Y0.04833 Z6.08989
X-0.38511 Y0.03792 Z6.08424
X-0.36635 Y0.02829 Z6.07859
X-0.34721 Y0.01945 Z6.07294
X-0.32771 Y0.01144 Z6.06729
X-0.30789 Y0.00425 Z6.06164
X-0.28778 Y-0.00209 Z6.05599
X-0.26743 Y-0.00759 Z6.05034
X-0.24686 Y-0.01222 Z6.04469
X-0.22612 Y-0.01598 Z6.03904
X-0.20523 Y-0.01886 Z6.03339
X-0.18424 Y-0.02085 Z6.02775
X-0.16319 Y-0.02196 Z6.0221
X-0.14211 Y-0.02219 Z6.01645
X-0.12103 Y-0.02152 Z6.0108
X-0.10001 Y-0.01997 Z6.00515
X-0.07907 Y-0.01753 Z5.9995
X-0.05825 Y-0.01421 Z5.99385
X-0.03759 Y-0.01001 Z5.9882
X-0.01712 Y-0.00495 Z5.98255
X-0.00002 Y0.00006 Z5.97778
X0. Y0.
G03 X0.05524 Y0.14074 I-0.01314 J0.08636 F3162.
X-0.22166 Y0.20567 I-0.17402 J-0.11919
X-0.40865 Y-0.1968 I0.16711 J-0.32232
X0.04519 Y-0.60307 I0.50556 J0.10814
X0.59337 Y-0.40455 I0.0782 J0.64017
X0.42342 Y0.831 I-0.61211 J0.54527
X-1.00781 Y0.51351 I-0.56034 J-0.85874
X-0.6036 Y-1.18462 I1.03804 J-0.65008
X1.36143 Y-0.69368 I0.73987 J1.21667
X0.3911 Y1.71352 I-1.41403 J0.82918
X-1.98438 Y0. I-0.50981 J-1.79658
G1 X-1.98598 Y-0.22377
X-1.96246 Y-0.446
G03 X1.96246 Y0.44599 I1.96246 J0.446
X-1.96246 Y-0.446 I-1.96246 J-0.44599
G1 X-1.3488 Y-1.19194 Z6.2366 F4743.
Z6.8366
G0 Z13.5375
X0.35014 Y0.5266
G1 Z7.08333 F790.5
Z6.48333 F2371.5
X0.34863 Y0.54087 Z6.47949
X0.34553 Y0.56172 Z6.47384
X0.34155 Y0.58243 Z6.46819
X0.3367 Y0.60295 Z6.46254
X0.331 Y0.62324 Z6.45689
X0.32444 Y0.64328 Z6.45124
X0.31704 Y0.66302 Z6.44559
X0.30882 Y0.68244 Z6.43994
X0.29979 Y0.70149 Z6.43429
X0.28996 Y0.72014 Z6.42864
X0.27935 Y0.73836 Z6.423
X0.26799 Y0.75612 Z6.41735
X0.25589 Y0.77338 Z6.4117
X0.24307 Y0.79012 Z6.40605
X0.22955 Y0.8063 Z6.4004
X0.21537 Y0.8219 Z6.39475
X0.20054 Y0.83689 Z6.3891
X0.18509 Y0.85123 Z6.38345
X0.16905 Y0.86492 Z6.3778
X0.15245 Y0.87791 Z6.37215
X0.13532 Y0.8902 Z6.3665
X0.11768 Y0.90175 Z6.36085
X0.09957 Y0.91254 Z6.3552
X0.08103 Y0.92257 Z6.34956
X0.06207 Y0.9318 Z6.34391
X0.04275 Y0.94023 Z6.33826
X0.02308 Y0.94783 Z6.33261
X0.00311 Y0.9546 Z6.32696
X-0.01712 Y0.96052 Z6.32131
X-0.03759 Y0.96558 Z6.31566
X-0.05825 Y0.96978 Z6.31001
X-0.07907 Y0.9731 Z6.30436
X-0.10001 Y0.97554 Z6.29871
X-0.12103 Y0.97709 Z6.29306
X-0.14211 Y0.97776 Z6.28741
X-0.16319 Y0.97754 Z6.28177
X-0.18424 Y0.97643 Z6.27612
X-0.20523 Y0.97443 Z6.27047
X-0.22612 Y0.97155 Z6.26482
X-0.24686 Y0.96779 Z6.25917
X-0.26743 Y0.96316 Z6.25352
X-0.28778 Y0.95767 Z6.24787
X-0.30789 Y0.95132 Z6.24222
X-0.32771 Y0.94413 Z6.23657
X-0.34721 Y0.93612 Z6.23092
X-0.36635 Y0.92729 Z6.22527
X-0.38511 Y0.91765 Z6.21962
X-0.40344 Y0.90724 Z6.21398
X-0.42132 Y0.89607 Z6.20833
X-0.43871 Y0.88415 Z6.20268
X-0.45558 Y0.8715 Z6.19703
X-0.4719 Y0.85816 Z6.19138
X-0.48765 Y0.84414 Z6.18573
X-0.50279 Y0.82947 Z6.18008
X-0.5173 Y0.81418 Z6.17443
X-0.53115 Y0.79828 Z6.16878
X-0.54432 Y0.78182 Z6.16313
X-0.55679 Y0.76481 Z6.15748
X-0.56852 Y0.7473 Z6.15183
X-0.57951 Y0.72931 Z6.14619
X-0.58973 Y0.71087 Z6.14054
X-0.59916 Y0.69201 Z6.13489
X-0.60779 Y0.67278 Z6.12924
X-0.6156 Y0.65319 Z6.12359
X-0.62258 Y0.6333 Z6.11794
X-0.62871 Y0.61313 Z6.11229
X-0.63399 Y0.59271 Z6.10664
X-0.6384 Y0.5721 Z6.10099
X-0.64194 Y0.55131 Z6.09534
X-0.6446 Y0.5304 Z6.08969
X-0.64638 Y0.50939 Z6.08404
X-0.64727 Y0.48833 Z6.0784
Y0.46725 Z6.07275
X-0.64638 Y0.44618 Z6.0671
X-0.6446 Y0.42517 Z6.06145
X-0.64194 Y0.40426 Z6.0558
X-0.6384 Y0.38347 Z6.05015
X-0.63399 Y0.36286 Z6.0445
X-0.62871 Y0.34245 Z6.03885
X-0.62258 Y0.32228 Z6.0332
X-0.6156 Y0.30238 Z6.02755
X-0.60779 Y0.2828 Z6.0219
X-0.59916 Y0.26356 Z6.01625
X-0.58973 Y0.24471 Z6.01061
X-0.57951 Y0.22627 Z6.00496
X-0.56852 Y0.20827 Z5.99931
X-0.55679 Y0.19076 Z5.99366
X-0.54432 Y0.17375 Z5.98801
X-0.53115 Y0.15729 Z5.98236
X-0.5173 Y0.1414 Z5.97671
X-0.50279 Y0.1261 Z5.97106
X-0.48765 Y0.11143 Z5.96541
X-0.4719 Y0.09741 Z5.95976
X-0.45558 Y0.08407 Z5.95412
X-0.43871 Y0.07143 Z5.94847
X-0.42132 Y0.05951 Z5.94282
X-0.40344 Y0.04833 Z5.93717
X-0.38511 Y0.03792 Z5.93152
X-0.36635 Y0.02829 Z5.92587
X-0.34721 Y0.01945 Z5.92022
X-0.32771 Y0.01144 Z5.91457
X-0.30789 Y0.00425 Z5.90892
X-0.28778 Y-0.00209 Z5.90327
X-0.26743 Y-0.00759 Z5.89762
X-0.24686 Y-0.01222 Z5.89197
X-0.22612 Y-0.01598 Z5.88633
X-0.20523 Y-0.01886 Z5.88068
X-0.18424 Y-0.02085 Z5.87503
X-0.16319 Y-0.02196 Z5.86938
X-0.14211 Y-0.02219 Z5.86373
X-0.12103 Y-0.02152 Z5.85808
X-0.10001 Y-0.01997 Z5.85243
X-0.07907 Y-0.01753 Z5.84678
X-0.05825 Y-0.01421 Z5.84113
X-0.03759 Y-0.01001 Z5.83548
X-0.01712 Y-0.00495 Z5.82983
X0.00311 Y0.00097 Z5.82418
X0.02308 Y0.00774 Z5.81853
X0.04275 Y0.01534 Z5.81289
X0.06207 Y0.02377 Z5.80724
X0.08103 Y0.033 Z5.80159
X0.09957 Y0.04303 Z5.79594
X0.11768 Y0.05382 Z5.79029
X0.13532 Y0.06537 Z5.78464
X0.15245 Y0.07766 Z5.77899
X0.16905 Y0.09065 Z5.77334
X0.18509 Y0.10434 Z5.76769
X0.20054 Y0.11869 Z5.76204
X0.21537 Y0.13367 Z5.75639
X0.22955 Y0.14927 Z5.75075
X0.24307 Y0.16545 Z5.7451
X0.25589 Y0.18219 Z5.73945
X0.26799 Y0.19945 Z5.7338
X0.27935 Y0.21721 Z5.72815
X0.28996 Y0.23543 Z5.7225
X0.29979 Y0.25408 Z5.71685
X0.30882 Y0.27313 Z5.7112
X0.31704 Y0.29255 Z5.70555
X0.32444 Y0.31229 Z5.6999
X0.331 Y0.33233 Z5.69425
X0.3367 Y0.35262 Z5.6886
X0.34155 Y0.37314 Z5.68295
X0.34553 Y0.39385 Z5.67731
X0.34863 Y0.4147 Z5.67166
X0.35084 Y0.43567 Z5.66601
X0.35218 Y0.45671 Z5.66036
X0.35262 Y0.47779 Z5.65471
X0.35218 Y0.49886 Z5.64906
X0.35084 Y0.5199 Z5.64341
X0.34863 Y0.54087 Z5.63776
X0.34553 Y0.56172 Z5.63211
X0.34155 Y0.58243 Z5.62646
X0.3367 Y0.60295 Z5.62081
X0.331 Y0.62324 Z5.61517
X0.32444 Y0.64328 Z5.60952
X0.31704 Y0.66302 Z5.60387
X0.30882 Y0.68244 Z5.59822
X0.29979 Y0.70149 Z5.59257
X0.28996 Y0.72014 Z5.58692
X0.27935 Y0.73836 Z5.58127
X0.26799 Y0.75612 Z5.57562
X0.25589 Y0.77338 Z5.56997
X0.24307 Y0.79012 Z5.56432
X0.22955 Y0.8063 Z5.55867
X0.21537 Y0.8219 Z5.55302
X0.20054 Y0.83689 Z5.54737
X0.18509 Y0.85123 Z5.54173
X0.16905 Y0.86492 Z5.53608
X0.15245 Y0.87791 Z5.53043
X0.13532 Y0.8902 Z5.52478
X0.11768 Y0.90175 Z5.51913
X0.09957 Y0.91254 Z5.51348
X0.08103 Y0.92257 Z5.50783
X0.06207 Y0.9318 Z5.50218
X0.04275 Y0.94023 Z5.49653
X0.02308 Y0.94783 Z5.49088
X0.00311 Y0.9546 Z5.48523
X-0.01712 Y0.96052 Z5.47958
X-0.03759 Y0.96558 Z5.47394
X-0.05825 Y0.96978 Z5.46829
X-0.07907 Y0.9731 Z5.46264
X-0.10001 Y0.97554 Z5.45699
X-0.12103 Y0.97709 Z5.45134
X-0.14211 Y0.97776 Z5.44569
X-0.16319 Y0.97754 Z5.44004
X-0.18424 Y0.97643 Z5.43439
X-0.20523 Y0.97443 Z5.42874
X-0.22612 Y0.97155 Z5.42309
X-0.24686 Y0.96779 Z5.41744
X-0.26743 Y0.96316 Z5.41179
X-0.28778 Y0.95767 Z5.40615
X-0.30789 Y0.95132 Z5.4005
X-0.32771 Y0.94413 Z5.39485
X-0.34721 Y0.93612 Z5.3892
X-0.36635 Y0.92729 Z5.38355
X-0.38511 Y0.91765 Z5.3779
X-0.40344 Y0.90724 Z5.37225
X-0.42132 Y0.89607 Z5.3666
X-0.43871 Y0.88415 Z5.36095
X-0.45558 Y0.8715 Z5.3553
X-0.4719 Y0.85816 Z5.34965
X-0.48765 Y0.84414 Z5.344
X-0.50279 Y0.82947 Z5.33836
X-0.5173 Y0.81418 Z5.33271
X-0.53115 Y0.79828 Z5.32706
X-0.54432 Y0.78182 Z5.32141
X-0.55679 Y0.76481 Z5.31576
X-0.56852 Y0.7473 Z5.31011
X-0.57951 Y0.72931 Z5.30446
X-0.58973 Y0.71087 Z5.29881
X-0.59916 Y0.69201 Z5.29316
X-0.60779 Y0.67278 Z5.28751
X-0.6156 Y0.65319 Z5.28186
X-0.62258 Y0.6333 Z5.27621
X-0.62871 Y0.61313 Z5.27057
X-0.63399 Y0.59271 Z5.26492
X-0.6384 Y0.5721 Z5.25927
X-0.64194 Y0.55131 Z5.25362
X-0.6446 Y0.5304 Z5.24797
X-0.64638 Y0.50939 Z5.24232
X-0.64727 Y0.48833 Z5.23667
Y0.46725 Z5.23102
X-0.64638 Y0.44618 Z5.22537
X-0.6446 Y0.42517 Z5.21972
X-0.64194 Y0.40426 Z5.21408
X-0.6384 Y0.38347 Z5.20843
X-0.63399 Y0.36286 Z5.20278
X-0.62871 Y0.34245 Z5.19713
X-0.62258 Y0.32228 Z5.19148
X-0.6156 Y0.30238 Z5.18583
X-0.60779 Y0.2828 Z5.18018
X-0.59916 Y0.26356 Z5.17453
X-0.58973 Y0.24471 Z5.16888
X-0.57951 Y0.22627 Z5.16323
X-0.56852 Y0.20827 Z5.15758
X-0.55679 Y0.19076 Z5.15193
X-0.54432 Y0.17375 Z5.14628
X-0.53115 Y0.15729 Z5.14064
X-0.5173 Y0.1414 Z5.13499
X-0.50279 Y0.1261 Z5.12934
X-0.48765 Y0.11143 Z5.12369
X-0.4719 Y0.09741 Z5.11804
X-0.45558 Y0.08407 Z5.11239
X-0.43871 Y0.07143 Z5.10674
X-0.42132 Y0.05951 Z5.10109
X-0.40344 Y0.04833 Z5.09544
X-0.38511 Y0.03792 Z5.08979
X-0.36635 Y0.02829 Z5.08414
X-0.34721 Y0.01945 Z5.0785
X-0.32771 Y0.01144 Z5.07285
X-0.30789 Y0.00425 Z5.0672
X-0.28778 Y-0.00209 Z5.06155
X-0.26743 Y-0.00759 Z5.0559
X-0.24686 Y-0.01222 Z5.05025
X-0.22612 Y-0.01598 Z5.0446
X-0.20523 Y-0.01886 Z5.03895
X-0.18424 Y-0.02085 Z5.0333
X-0.16319 Y-0.02196 Z5.02765
X-0.14211 Y-0.02219 Z5.022
X-0.12103 Y-0.02152 Z5.01635
X-0.10001 Y-0.01997 Z5.0107
X-0.07907 Y-0.01753 Z5.00506
X-0.05825 Y-0.01421 Z4.99941
X-0.03759 Y-0.01001 Z4.99376
X-0.01712 Y-0.00495 Z4.98811
X-0.00002 Y0.00006 Z4.98333
X0. Y0.
G03 X0.05524 Y0.14074 I-0.01314 J0.08636 F3162.
X-0.22166 Y0.20567 I-0.17402 J-0.11919
X-0.40865 Y-0.1968 I0.16711 J-0.32232
X0.04519 Y-0.60307 I0.50556 J0.10814
X0.59337 Y-0.40455 I0.0782 J0.64017
X0.42342 Y0.831 I-0.61211 J0.54527
X-1.00781 Y0.51351 I-0.56034 J-0.85874
X-0.6036 Y-1.18462 I1.03804 J-0.65008
X1.36143 Y-0.69368 I0.73987 J1.21667
X0.3911 Y1.71352 I-1.41403 J0.82918
X-1.98438 Y0. I-0.50981 J-1.79658
G1 X-1.98598 Y-0.22377
X-1.96246 Y-0.446
G03 X1.96246 Y0.44599 I1.96246 J0.446
X-1.96246 Y-0.446 I-1.96246 J-0.44599
G1 X-1.3488 Y-1.19194 Z5.24215 F4743.
Z5.84215
G0 Z13.5375
X0.35014 Y0.5266
G1 Z6.08889 F790.5
Z5.48889 F2371.5
X0.34863 Y0.54087 Z5.48504
X0.34553 Y0.56172 Z5.47939
X0.34155 Y0.58243 Z5.47374
X0.3367 Y0.60295 Z5.46809
X0.331 Y0.62324 Z5.46245
X0.32444 Y0.64328 Z5.4568
X0.31704 Y0.66302 Z5.45115
X0.30882 Y0.68244 Z5.4455
X0.29979 Y0.70149 Z5.43985
X0.28996 Y0.72014 Z5.4342
X0.27935 Y0.73836 Z5.42855
X0.26799 Y0.75612 Z5.4229
X0.25589 Y0.77338 Z5.41725
X0.24307 Y0.79012 Z5.4116
X0.22955 Y0.8063 Z5.40595
X0.21537 Y0.8219 Z5.4003
X0.20054 Y0.83689 Z5.39466
X0.18509 Y0.85123 Z5.38901
X0.16905 Y0.86492 Z5.38336
X0.15245 Y0.87791 Z5.37771
X0.13532 Y0.8902 Z5.37206
X0.11768 Y0.90175 Z5.36641
X0.09957 Y0.91254 Z5.36076
X0.08103 Y0.92257 Z5.35511
X0.06207 Y0.9318 Z5.34946
X0.04275 Y0.94023 Z5.34381
X0.02308 Y0.94783 Z5.33816
X0.00311 Y0.9546 Z5.33251
X-0.01712 Y0.96052 Z5.32687
X-0.03759 Y0.96558 Z5.32122
X-0.05825 Y0.96978 Z5.31557
X-0.07907 Y0.9731 Z5.30992
X-0.10001 Y0.97554 Z5.30427
X-0.12103 Y0.97709 Z5.29862
X-0.14211 Y0.97776 Z5.29297
X-0.16319 Y0.97754 Z5.28732
X-0.18424 Y0.97643 Z5.28167
X-0.20523 Y0.97443 Z5.27602
X-0.22612 Y0.97155 Z5.27037
X-0.24686 Y0.96779 Z5.26472
X-0.26743 Y0.96316 Z5.25908
X-0.28778 Y0.95767 Z5.25343
X-0.30789 Y0.95132 Z5.24778
X-0.32771 Y0.94413 Z5.24213
X-0.34721 Y0.93612 Z5.23648
X-0.36635 Y0.92729 Z5.23083
X-0.38511 Y0.91765 Z5.22518
X-0.40344 Y0.90724 Z5.21953
X-0.42132 Y0.89607 Z5.21388
X-0.43871 Y0.88415 Z5.20823
X-0.45558 Y0.8715 Z5.20258
X-0.4719 Y0.85816 Z5.19693
X-0.48765 Y0.84414 Z5.19129
X-0.50279 Y0.82947 Z5.18564
X-0.5173 Y0.81418 Z5.17999
X-0.53115 Y0.79828 Z5.17434
X-0.54432 Y0.78182 Z5.16869
X-0.55679 Y0.76481 Z5.16304
X-0.56852 Y0.7473 Z5.15739
X-0.57951 Y0.72931 Z5.15174
X-0.58973 Y0.71087 Z5.14609
X-0.59916 Y0.69201 Z5.14044
X-0.60779 Y0.67278 Z5.13479
X-0.6156 Y0.65319 Z5.12915
X-0.62258 Y0.6333 Z5.1235
X-0.62871 Y0.61313 Z5.11785
X-0.63399 Y0.59271 Z5.1122
X-0.6384 Y0.5721 Z5.10655
X-0.64194 Y0.55131 Z5.1009
X-0.6446 Y0.5304 Z5.09525
X-0.64638 Y0.50939 Z5.0896
X-0.64727 Y0.48833 Z5.08395
Y0.46725 Z5.0783
X-0.64638 Y0.44618 Z5.07265
X-0.6446 Y0.42517 Z5.067
X-0.64194 Y0.40426 Z5.06135
X-0.6384 Y0.38347 Z5.05571
X-0.63399 Y0.36286 Z5.05006
X-0.62871 Y0.34245 Z5.04441
X-0.62258 Y0.32228 Z5.03876
X-0.6156 Y0.30238 Z5.03311
X-0.60779 Y0.2828 Z5.02746
X-0.59916 Y0.26356 Z5.02181
X-0.58973 Y0.24471 Z5.01616
X-0.57951 Y0.22627 Z5.01051
X-0.56852 Y0.20827 Z5.00486
X-0.55679 Y0.19076 Z4.99921
X-0.54432 Y0.17375 Z4.99357
X-0.53115 Y0.15729 Z4.98792
X-0.5173 Y0.1414 Z4.98227
X-0.50279 Y0.1261 Z4.97662
X-0.48765 Y0.11143 Z4.97097
X-0.4719 Y0.09741 Z4.96532
X-0.45558 Y0.08407 Z4.95967
X-0.43871 Y0.07143 Z4.95402
X-0.42132 Y0.05951 Z4.94837
X-0.40344 Y0.04833 Z4.94272
X-0.38511 Y0.03792 Z4.93707
X-0.36635 Y0.02829 Z4.93142
X-0.34721 Y0.01945 Z4.92577
X-0.32771 Y0.01144 Z4.92013
X-0.30789 Y0.00425 Z4.91448
X-0.28778 Y-0.00209 Z4.90883
X-0.26743 Y-0.00759 Z4.90318
X-0.24686 Y-0.01222 Z4.89753
X-0.22612 Y-0.01598 Z4.89188
X-0.20523 Y-0.01886 Z4.88623
X-0.18424 Y-0.02085 Z4.88058
X-0.16319 Y-0.02196 Z4.87493
X-0.14211 Y-0.02219 Z4.86928
X-0.12103 Y-0.02152 Z4.86364
X-0.10001 Y-0.01997 Z4.85798
X-0.07907 Y-0.01753 Z4.85234
X-0.05825 Y-0.01421 Z4.84669
X-0.03759 Y-0.01001 Z4.84104
X-0.01712 Y-0.00495 Z4.83539
X0.00311 Y0.00097 Z4.82974
X0.02308 Y0.00774 Z4.82409
X0.04275 Y0.01534 Z4.81844
X0.06207 Y0.02377 Z4.81279
X0.08103 Y0.033 Z4.80714
X0.09957 Y0.04303 Z4.80149
X0.11768 Y0.05382 Z4.79585
X0.13532 Y0.06537 Z4.79019
X0.15245 Y0.07766 Z4.78455
X0.16905 Y0.09065 Z4.7789
X0.18509 Y0.10434 Z4.77325
X0.20054 Y0.11869 Z4.7676
X0.21537 Y0.13367 Z4.76195
X0.22955 Y0.14927 Z4.7563
X0.24307 Y0.16545 Z4.75065
X0.25589 Y0.18219 Z4.745
X0.26799 Y0.19945 Z4.73935
X0.27935 Y0.21721 Z4.7337
X0.28996 Y0.23543 Z4.72805
X0.29979 Y0.25408 Z4.72241
X0.30882 Y0.27313 Z4.71676
X0.31704 Y0.29255 Z4.71111
X0.32444 Y0.31229 Z4.70546
X0.331 Y0.33233 Z4.69981
X0.3367 Y0.35262 Z4.69416
X0.34155 Y0.37314 Z4.68851
X0.34553 Y0.39385 Z4.68286
X0.34863 Y0.4147 Z4.67721
X0.35084 Y0.43567 Z4.67156
X0.35218 Y0.45671 Z4.66591
X0.35262 Y0.47779 Z4.66026
X0.35218 Y0.49886 Z4.65462
X0.35084 Y0.5199 Z4.64897
X0.34863 Y0.54087 Z4.64332
X0.34553 Y0.56172 Z4.63767
X0.34155 Y0.58243 Z4.63202
X0.3367 Y0.60295 Z4.62637
X0.331 Y0.62324 Z4.62072
X0.32444 Y0.64328 Z4.61507
X0.31704 Y0.66302 Z4.60942
X0.30882 Y0.68244 Z4.60377
X0.29979 Y0.70149 Z4.59812
X0.28996 Y0.72014 Z4.59247
X0.27935 Y0.73836 Z4.58683
X0.26799 Y0.75612 Z4.58118
X0.25589 Y0.77338 Z4.57553
X0.24307 Y0.79012 Z4.56988
X0.22955 Y0.8063 Z4.56423
X0.21537 Y0.8219 Z4.55858
X0.20054 Y0.83689 Z4.55293
X0.18509 Y0.85123 Z4.54728
X0.16905 Y0.86492 Z4.54163
X0.15245 Y0.87791 Z4.53598
X0.13532 Y0.8902 Z4.53033
X0.11768 Y0.90175 Z4.52468
X0.09957 Y0.91254 Z4.51904
X0.08103 Y0.92257 Z4.51339
X0.06207 Y0.9318 Z4.50774
X0.04275 Y0.94023 Z4.50209
X0.02308 Y0.94783 Z4.49644
X0.00311 Y0.9546 Z4.49079
X-0.01712 Y0.96052 Z4.48514
X-0.03759 Y0.96558 Z4.47949
X-0.05825 Y0.96978 Z4.47384
X-0.07907 Y0.9731 Z4.46819
X-0.10001 Y0.97554 Z4.46254
X-0.12103 Y0.97709 Z4.4569
X-0.14211 Y0.97776 Z4.45125
X-0.16319 Y0.97754 Z4.4456
X-0.18424 Y0.97643 Z4.43995
X-0.20523 Y0.97443 Z4.4343
X-0.22612 Y0.97155 Z4.42865
X-0.24686 Y0.96779 Z4.423
X-0.26743 Y0.96316 Z4.41735
X-0.28778 Y0.95767 Z4.4117
X-0.30789 Y0.95132 Z4.40605
X-0.32771 Y0.94413 Z4.4004
X-0.34721 Y0.93612 Z4.39475
X-0.36635 Y0.92729 Z4.3891
X-0.38511 Y0.91765 Z4.38346
X-0.40344 Y0.90724 Z4.37781
X-0.42132 Y0.89607 Z4.37216
X-0.43871 Y0.88415 Z4.36651
X-0.45558 Y0.8715 Z4.36086
X-0.4719 Y0.85816 Z4.35521
X-0.48765 Y0.84414 Z4.34956
X-0.50279 Y0.82947 Z4.34391
X-0.5173 Y0.81418 Z4.33826
X-0.53115 Y0.79828 Z4.33261
X-0.54432 Y0.78182 Z4.32696
X-0.55679 Y0.76481 Z4.32131
X-0.56852 Y0.7473 Z4.31567
X-0.57951 Y0.72931 Z4.31002
X-0.58973 Y0.71087 Z4.30437
X-0.59916 Y0.69201 Z4.29872
X-0.60779 Y0.67278 Z4.29307
X-0.6156 Y0.65319 Z4.28742
X-0.62258 Y0.6333 Z4.28177
X-0.62871 Y0.61313 Z4.27612
X-0.63399 Y0.59271 Z4.27047
X-0.6384 Y0.5721 Z4.26482
X-0.64194 Y0.55131 Z4.25917
X-0.6446 Y0.5304 Z4.25352
X-0.64638 Y0.50939 Z4.24788
X-0.64727 Y0.48833 Z4.24223
Y0.46725 Z4.23658
X-0.64638 Y0.44618 Z4.23093
X-0.6446 Y0.42517 Z4.22528
X-0.64194 Y0.40426 Z4.21963
X-0.6384 Y0.38347 Z4.21398
X-0.63399 Y0.36286 Z4.20833
X-0.62871 Y0.34245 Z4.20268
X-0.62258 Y0.32228 Z4.19703
X-0.6156 Y0.30238 Z4.19139
X-0.60779 Y0.2828 Z4.18574
X-0.59916 Y0.26356 Z4.18009
X-0.58973 Y0.24471 Z4.17444
X-0.57951 Y0.22627 Z4.16879
X-0.56852 Y0.20827 Z4.16314
X-0.55679 Y0.19076 Z4.15749
X-0.54432 Y0.17375 Z4.15184
X-0.53115 Y0.15729 Z4.14619
X-0.5173 Y0.1414 Z4.14054
X-0.50279 Y0.1261 Z4.13489
X-0.48765 Y0.11143 Z4.12924
X-0.4719 Y0.09741 Z4.1236
X-0.45558 Y0.08407 Z4.11794
X-0.43871 Y0.07143 Z4.1123
X-0.42132 Y0.05951 Z4.10665
X-0.40344 Y0.04833 Z4.101
X-0.38511 Y0.03792 Z4.09535
X-0.36635 Y0.02829 Z4.0897
X-0.34721 Y0.01945 Z4.08405
X-0.32771 Y0.01144 Z4.0784
X-0.30789 Y0.00425 Z4.07275
X-0.28778 Y-0.00209 Z4.0671
X-0.26743 Y-0.00759 Z4.06145
X-0.24686 Y-0.01222 Z4.0558
X-0.22612 Y-0.01598 Z4.05016
X-0.20523 Y-0.01886 Z4.04451
X-0.18424 Y-0.02085 Z4.03886
X-0.16319 Y-0.02196 Z4.03321
X-0.14211 Y-0.02219 Z4.02756
X-0.12103 Y-0.02152 Z4.02191
X-0.10001 Y-0.01997 Z4.01626
X-0.07907 Y-0.01753 Z4.01061
X-0.05825 Y-0.01421 Z4.00496
X-0.03759 Y-0.01001 Z3.99931
X-0.01712 Y-0.00495 Z3.99366
X-0.00002 Y0.00006 Z3.98889
X0. Y0.
G03 X0.05524 Y0.14074 I-0.01314 J0.08636 F3162.
X-0.22166 Y0.20567 I-0.17402 J-0.11919
X-0.40865 Y-0.1968 I0.16711 J-0.32232
X0.04519 Y-0.60307 I0.50556 J0.10814
X0.59337 Y-0.40455 I0.0782 J0.64017
X0.42342 Y0.831 I-0.61211 J0.54527
X-1.00781 Y0.51351 I-0.56034 J-0.85874
X-0.6036 Y-1.18462 I1.03804 J-0.65008
X1.36143 Y-0.69368 I0.73987 J1.21667
X0.3911 Y1.71352 I-1.41403 J0.82918
X-1.98438 Y0. I-0.50981 J-1.79658
G1 X-1.98598 Y-0.22377
X-1.96246 Y-0.446
G03 X1.96246 Y0.44599 I1.96246 J0.446
X-1.96246 Y-0.446 I-1.96246 J-0.44599
G1 X-1.3488 Y-1.19194 Z4.24771 F4743.
Z4.84771
G0 Z13.5375
X0.35014 Y0.5266
G1 Z5.09445 F790.5
Z4.49444 F2371.5
X0.34863 Y0.54087 Z4.4906
X0.34553 Y0.56172 Z4.48495
X0.34155 Y0.58243 Z4.4793
X0.3367 Y0.60295 Z4.47365
X0.331 Y0.62324 Z4.468
X0.32444 Y0.64328 Z4.46235
X0.31704 Y0.66302 Z4.4567
X0.30882 Y0.68244 Z4.45105
X0.29979 Y0.70149 Z4.4454
X0.28996 Y0.72014 Z4.43975
X0.27935 Y0.73836 Z4.43411
X0.26799 Y0.75612 Z4.42846
X0.25589 Y0.77338 Z4.42281
X0.24307 Y0.79012 Z4.41716
X0.22955 Y0.8063 Z4.41151
X0.21537 Y0.8219 Z4.40586
X0.20054 Y0.83689 Z4.40021
X0.18509 Y0.85123 Z4.39456
X0.16905 Y0.86492 Z4.38891
X0.15245 Y0.87791 Z4.38326
X0.13532 Y0.8902 Z4.37761
X0.11768 Y0.90175 Z4.37196
X0.09957 Y0.91254 Z4.36632
X0.08103 Y0.92257 Z4.36067
X0.06207 Y0.9318 Z4.35502
X0.04275 Y0.94023 Z4.34937
X0.02308 Y0.94783 Z4.34372
X0.00311 Y0.9546 Z4.33807
X-0.01712 Y0.96052 Z4.33242
X-0.03759 Y0.96558 Z4.32677
X-0.05825 Y0.96978 Z4.32112
X-0.07907 Y0.9731 Z4.31547
X-0.10001 Y0.97554 Z4.30982
X-0.12103 Y0.97709 Z4.30417
X-0.14211 Y0.97776 Z4.29853
X-0.16319 Y0.97754 Z4.29288
X-0.18424 Y0.97643 Z4.28723
X-0.20523 Y0.97443 Z4.28158
X-0.22612 Y0.97155 Z4.27593
X-0.24686 Y0.96779 Z4.27028
X-0.26743 Y0.96316 Z4.26463
X-0.28778 Y0.95767 Z4.25898
X-0.30789 Y0.95132 Z4.25333
X-0.32771 Y0.94413 Z4.24768
X-0.34721 Y0.93612 Z4.24203
X-0.36635 Y0.92729 Z4.23639
X-0.38511 Y0.91765 Z4.23074
X-0.40344 Y0.90724 Z4.22509
X-0.42132 Y0.89607 Z4.21944
X-0.43871 Y0.88415 Z4.21379
X-0.45558 Y0.8715 Z4.20814
X-0.4719 Y0.85816 Z4.20249
X-0.48765 Y0.84414 Z4.19684
X-0.50279 Y0.82947 Z4.19119
X-0.5173 Y0.81418 Z4.18554
X-0.53115 Y0.79828 Z4.17989
X-0.54432 Y0.78182 Z4.17424
X-0.55679 Y0.76481 Z4.1686
X-0.56852 Y0.7473 Z4.16295
X-0.57951 Y0.72931 Z4.1573
X-0.58973 Y0.71087 Z4.15165
X-0.59916 Y0.69201 Z4.146
X-0.60779 Y0.67278 Z4.14035
X-0.6156 Y0.65319 Z4.1347
X-0.62258 Y0.6333 Z4.12905
X-0.62871 Y0.61313 Z4.1234
X-0.63399 Y0.59271 Z4.11775
X-0.6384 Y0.5721 Z4.1121
X-0.64194 Y0.55131 Z4.10645
X-0.6446 Y0.5304 Z4.10081
X-0.64638 Y0.50939 Z4.09516
X-0.64727 Y0.48833 Z4.08951
Y0.46725 Z4.08386
X-0.64638 Y0.44618 Z4.07821
X-0.6446 Y0.42517 Z4.07256
X-0.64194 Y0.40426 Z4.06691
X-0.6384 Y0.38347 Z4.06126
X-0.63399 Y0.36286 Z4.05561
X-0.62871 Y0.34245 Z4.04996
X-0.62258 Y0.32228 Z4.04431
X-0.6156 Y0.30238 Z4.03866
X-0.60779 Y0.2828 Z4.03302
X-0.59916 Y0.26356 Z4.02737
X-0.58973 Y0.24471 Z4.02172
X-0.57951 Y0.22627 Z4.01607
X-0.56852 Y0.20827 Z4.01042
X-0.55679 Y0.19076 Z4.00477
X-0.54432 Y0.17375 Z3.99912
X-0.53115 Y0.15729 Z3.99347
X-0.5173 Y0.1414 Z3.98782
X-0.50279 Y0.1261 Z3.98217
X-0.48765 Y0.11143 Z3.97652
X-0.4719 Y0.09741 Z3.97088
X-0.45558 Y0.08407 Z3.96523
X-0.43871 Y0.07143 Z3.95958
X-0.42132 Y0.05951 Z3.95393
X-0.40344 Y0.04833 Z3.94828
X-0.38511 Y0.03792 Z3.94263
X-0.36635 Y0.02829 Z3.93698
X-0.34721 Y0.01945 Z3.93133
X-0.32771 Y0.01144 Z3.92568
X-0.30789 Y0.00425 Z3.92003
X-0.28778 Y-0.00209 Z3.91438
X-0.26743 Y-0.00759 Z3.90873
X-0.24686 Y-0.01222 Z3.90308
X-0.22612 Y-0.01598 Z3.89744
X-0.20523 Y-0.01886 Z3.89179
X-0.18424 Y-0.02085 Z3.88614
X-0.16319 Y-0.02196 Z3.88049
X-0.14211 Y-0.02219 Z3.87484
X-0.12103 Y-0.02152 Z3.86919
X-0.10001 Y-0.01997 Z3.86354
X-0.07907 Y-0.01753 Z3.85789
X-0.05825 Y-0.01421 Z3.85224
X-0.03759 Y-0.01001 Z3.84659
X-0.01712 Y-0.00495 Z3.84094
X0.00311 Y0.00097 Z3.83529
X0.02308 Y0.00774 Z3.82965
X0.04275 Y0.01534 Z3.824
X0.06207 Y0.02377 Z3.81835
X0.08103 Y0.033 Z3.8127
X0.09957 Y0.04303 Z3.80705
X0.11768 Y0.05382 Z3.8014
X0.13532 Y0.06537 Z3.79575
X0.15245 Y0.07766 Z3.7901
X0.16905 Y0.09065 Z3.78445
X0.18509 Y0.10434 Z3.7788
X0.20054 Y0.11869 Z3.77315
X0.21537 Y0.13367 Z3.7675
X0.22955 Y0.14927 Z3.76186
X0.24307 Y0.16545 Z3.75621
X0.25589 Y0.18219 Z3.75056
X0.26799 Y0.19945 Z3.74491
X0.27935 Y0.21721 Z3.73926
X0.28996 Y0.23543 Z3.73361
X0.29979 Y0.25408 Z3.72796
X0.30882 Y0.27313 Z3.72231
X0.31704 Y0.29255 Z3.71666
X0.32444 Y0.31229 Z3.71101
X0.331 Y0.33233 Z3.70536
X0.3367 Y0.35262 Z3.69971
X0.34155 Y0.37314 Z3.69407
X0.34553 Y0.39385 Z3.68842
X0.34863 Y0.4147 Z3.68277
X0.35084 Y0.43567 Z3.67712
X0.35218 Y0.45671 Z3.67147
X0.35262 Y0.47779 Z3.66582
X0.35218 Y0.49886 Z3.66017
X0.35084 Y0.5199 Z3.65452
X0.34863 Y0.54087 Z3.64887
X0.34553 Y0.56172 Z3.64322
X0.34155 Y0.58243 Z3.63757
X0.3367 Y0.60295 Z3.63192
X0.331 Y0.62324 Z3.62628
X0.32444 Y0.64328 Z3.62063
X0.31704 Y0.66302 Z3.61498
X0.30882 Y0.68244 Z3.60933
X0.29979 Y0.70149 Z3.60368
X0.28996 Y0.72014 Z3.59803
X0.27935 Y0.73836 Z3.59238
X0.26799 Y0.75612 Z3.58673
X0.25589 Y0.77338 Z3.58108
X0.24307 Y0.79012 Z3.57543
X0.22955 Y0.8063 Z3.56979
X0.21537 Y0.8219 Z3.56413
X0.20054 Y0.83689 Z3.55849
X0.18509 Y0.85123 Z3.55284
X0.16905 Y0.86492 Z3.54719
X0.15245 Y0.87791 Z3.54154
X0.13532 Y0.8902 Z3.53589
X0.11768 Y0.90175 Z3.53024
X0.09957 Y0.91254 Z3.52459
X0.08103 Y0.92257 Z3.51894
X0.06207 Y0.9318 Z3.51329
X0.04275 Y0.94023 Z3.50764
X0.02308 Y0.94783 Z3.50199
X0.00311 Y0.9546 Z3.49635
X-0.01712 Y0.96052 Z3.4907
X-0.03759 Y0.96558 Z3.48505
X-0.05825 Y0.96978 Z3.4794
X-0.07907 Y0.9731 Z3.47375
X-0.10001 Y0.97554 Z3.4681
X-0.12103 Y0.97709 Z3.46245
X-0.14211 Y0.97776 Z3.4568
X-0.16319 Y0.97754 Z3.45115
X-0.18424 Y0.97643 Z3.4455
X-0.20523 Y0.97443 Z3.43985
X-0.22612 Y0.97155 Z3.4342
X-0.24686 Y0.96779 Z3.42856
X-0.26743 Y0.96316 Z3.42291
X-0.28778 Y0.95767 Z3.41726
X-0.30789 Y0.95132 Z3.41161
X-0.32771 Y0.94413 Z3.40596
X-0.34721 Y0.93612 Z3.40031
X-0.36635 Y0.92729 Z3.39466
X-0.38511 Y0.91765 Z3.38901
X-0.40344 Y0.90724 Z3.38336
X-0.42132 Y0.89607 Z3.37771
X-0.43871 Y0.88415 Z3.37206
X-0.45558 Y0.8715 Z3.36641
X-0.4719 Y0.85816 Z3.36077
X-0.48765 Y0.84414 Z3.35512
X-0.50279 Y0.82947 Z3.34947
X-0.5173 Y0.81418 Z3.34382
X-0.53115 Y0.79828 Z3.33817
X-0.54432 Y0.78182 Z3.33252
X-0.55679 Y0.76481 Z3.32687
X-0.56852 Y0.7473 Z3.32122
X-0.57951 Y0.72931 Z3.31557
X-0.58973 Y0.71087 Z3.30992
X-0.59916 Y0.69201 Z3.30427
X-0.60779 Y0.67278 Z3.29862
X-0.6156 Y0.65319 Z3.29298
X-0.62258 Y0.6333 Z3.28733
X-0.62871 Y0.61313 Z3.28168
X-0.63399 Y0.59271 Z3.27603
X-0.6384 Y0.5721 Z3.27038
X-0.64194 Y0.55131 Z3.26473
X-0.6446 Y0.5304 Z3.25908
X-0.64638 Y0.50939 Z3.25343
X-0.64727 Y0.48833 Z3.24778
Y0.46725 Z3.24213
X-0.64638 Y0.44618 Z3.23648
X-0.6446 Y0.42517 Z3.23083
X-0.64194 Y0.40426 Z3.22519
X-0.6384 Y0.38347 Z3.21954
X-0.63399 Y0.36286 Z3.21389
X-0.62871 Y0.34245 Z3.20824
X-0.62258 Y0.32228 Z3.20259
X-0.6156 Y0.30238 Z3.19694
X-0.60779 Y0.2828 Z3.19129
X-0.59916 Y0.26356 Z3.18564
X-0.58973 Y0.24471 Z3.17999
X-0.57951 Y0.22627 Z3.17434
X-0.56852 Y0.20827 Z3.16869
X-0.55679 Y0.19076 Z3.16304
X-0.54432 Y0.17375 Z3.1574
X-0.53115 Y0.15729 Z3.15175
X-0.5173 Y0.1414 Z3.1461
X-0.50279 Y0.1261 Z3.14045
X-0.48765 Y0.11143 Z3.1348
X-0.4719 Y0.09741 Z3.12915
X-0.45558 Y0.08407 Z3.1235
X-0.43871 Y0.07143 Z3.11785
X-0.42132 Y0.05951 Z3.1122
X-0.40344 Y0.04833 Z3.10655
X-0.38511 Y0.03792 Z3.1009
X-0.36635 Y0.02829 Z3.09525
X-0.34721 Y0.01945 Z3.08961
X-0.32771 Y0.01144 Z3.08396
X-0.30789 Y0.00425 Z3.07831
X-0.28778 Y-0.00209 Z3.07266
X-0.26743 Y-0.00759 Z3.06701
X-0.24686 Y-0.01222 Z3.06136
X-0.22612 Y-0.01598 Z3.05571
X-0.20523 Y-0.01886 Z3.05006
X-0.18424 Y-0.02085 Z3.04441
X-0.16319 Y-0.02196 Z3.03876
X-0.14211 Y-0.02219 Z3.03311
X-0.12103 Y-0.02152 Z3.02746
X-0.10001 Y-0.01997 Z3.02182
X-0.07907 Y-0.01753 Z3.01617
X-0.05825 Y-0.01421 Z3.01052
X-0.03759 Y-0.01001 Z3.00487
X-0.01712 Y-0.00495 Z2.99922
X-0.00002 Y0.00006 Z2.99444
X0. Y0.
G03 X0.05524 Y0.14074 I-0.01314 J0.08636 F3162.
X-0.22166 Y0.20567 I-0.17402 J-0.11919
X-0.40865 Y-0.1968 I0.16711 J-0.32232
X0.04519 Y-0.60307 I0.50556 J0.10814
X0.59337 Y-0.40455 I0.0782 J0.64017
X0.42342 Y0.831 I-0.61211 J0.54527
X-1.00781 Y0.51351 I-0.56034 J-0.85874
X-0.6036 Y-1.18462 I1.03804 J-0.65008
X1.36143 Y-0.69368 I0.73987 J1.21667
X0.3911 Y1.71352 I-1.41403 J0.82918
X-1.98438 Y0. I-0.50981 J-1.79658
G1 X-1.98598 Y-0.22377
X-1.96246 Y-0.446
G03 X1.96246 Y0.44599 I1.96246 J0.446
X-1.96246 Y-0.446 I-1.96246 J-0.44599
G1 X-1.3488 Y-1.19194 Z3.25326 F4743.
Z3.85326
G0 Z13.5375
X0.35014 Y0.5266
G1 Z4.1 F790.5
Z3.5 F2371.5
X0.34863 Y0.54087 Z3.49615
X0.34553 Y0.56172 Z3.4905
X0.34155 Y0.58243 Z3.48485
X0.3367 Y0.60295 Z3.47921
X0.331 Y0.62324 Z3.47356
X0.32444 Y0.64328 Z3.46791
X0.31704 Y0.66302 Z3.46226
X0.30882 Y0.68244 Z3.45661
X0.29979 Y0.70149 Z3.45096
X0.28996 Y0.72014 Z3.44531
X0.27935 Y0.73836 Z3.43966
X0.26799 Y0.75612 Z3.43401
X0.25589 Y0.77338 Z3.42836
X0.24307 Y0.79012 Z3.42271
X0.22955 Y0.8063 Z3.41706
X0.21537 Y0.8219 Z3.41142
X0.20054 Y0.83689 Z3.40577
X0.18509 Y0.85123 Z3.40012
X0.16905 Y0.86492 Z3.39447
X0.15245 Y0.87791 Z3.38882
X0.13532 Y0.8902 Z3.38317
X0.11768 Y0.90175 Z3.37752
X0.09957 Y0.91254 Z3.37187
X0.08103 Y0.92257 Z3.36622
X0.06207 Y0.9318 Z3.36057
X0.04275 Y0.94023 Z3.35492
X0.02308 Y0.94783 Z3.34927
X0.00311 Y0.9546 Z3.34363
X-0.01712 Y0.96052 Z3.33798
X-0.03759 Y0.96558 Z3.33233
X-0.05825 Y0.96978 Z3.32668
X-0.07907 Y0.9731 Z3.32103
X-0.10001 Y0.97554 Z3.31538
X-0.12103 Y0.97709 Z3.30973
X-0.14211 Y0.97776 Z3.30408
X-0.16319 Y0.97754 Z3.29843
X-0.18424 Y0.97643 Z3.29278
X-0.20523 Y0.97443 Z3.28713
X-0.22612 Y0.97155 Z3.28148
X-0.24686 Y0.96779 Z3.27584
X-0.26743 Y0.96316 Z3.27019
X-0.28778 Y0.95767 Z3.26454
X-0.30789 Y0.95132 Z3.25889
X-0.32771 Y0.94413 Z3.25324
X-0.34721 Y0.93612 Z3.24759
X-0.36635 Y0.92729 Z3.24194
X-0.38511 Y0.91765 Z3.23629
X-0.40344 Y0.90724 Z3.23064
X-0.42132 Y0.89607 Z3.22499
X-0.43871 Y0.88415 Z3.21934
X-0.45558 Y0.8715 Z3.21369
X-0.4719 Y0.85816 Z3.20805
X-0.48765 Y0.84414 Z3.2024
X-0.50279 Y0.82947 Z3.19675
X-0.5173 Y0.81418 Z3.1911
X-0.53115 Y0.79828 Z3.18545
X-0.54432 Y0.78182 Z3.1798
X-0.55679 Y0.76481 Z3.17415
X-0.56852 Y0.7473 Z3.1685
X-0.57951 Y0.72931 Z3.16285
X-0.58973 Y0.71087 Z3.1572
X-0.59916 Y0.69201 Z3.15155
X-0.60779 Y0.67278 Z3.1459
X-0.6156 Y0.65319 Z3.14026
X-0.62258 Y0.6333 Z3.13461
X-0.62871 Y0.61313 Z3.12896
X-0.63399 Y0.59271 Z3.12331
X-0.6384 Y0.5721 Z3.11766
X-0.64194 Y0.55131 Z3.11201
X-0.6446 Y0.5304 Z3.10636
X-0.64638 Y0.50939 Z3.10071
X-0.64727 Y0.48833 Z3.09506
Y0.46725 Z3.08941
X-0.64638 Y0.44618 Z3.08376
X-0.6446 Y0.42517 Z3.07811
X-0.64194 Y0.40426 Z3.07247
X-0.6384 Y0.38347 Z3.06682
X-0.63399 Y0.36286 Z3.06117
X-0.62871 Y0.34245 Z3.05552
X-0.62258 Y0.32228 Z3.04987
X-0.6156 Y0.30238 Z3.04422
X-0.60779 Y0.2828 Z3.03857
X-0.59916 Y0.26356 Z3.03292
X-0.58973 Y0.24471 Z3.02727
X-0.57951 Y0.22627 Z3.02162
X-0.56852 Y0.20827 Z3.01598
X-0.55679 Y0.19076 Z3.01033
X-0.54432 Y0.17375 Z3.00468
X-0.53115 Y0.15729 Z2.99903
X-0.5173 Y0.1414 Z2.99338
X-0.50279 Y0.1261 Z2.98773
X-0.48765 Y0.11143 Z2.98208
X-0.4719 Y0.09741 Z2.97643
X-0.45558 Y0.08407 Z2.97078
X-0.43871 Y0.07143 Z2.96513
X-0.42132 Y0.05951 Z2.95948
X-0.40344 Y0.04833 Z2.95383
X-0.38511 Y0.03792 Z2.94819
X-0.36635 Y0.02829 Z2.94254
X-0.34721 Y0.01945 Z2.93689
X-0.32771 Y0.01144 Z2.93124
X-0.30789 Y0.00425 Z2.92559
X-0.28778 Y-0.00209 Z2.91994
X-0.26743 Y-0.00759 Z2.91429
X-0.24686 Y-0.01222 Z2.90864
X-0.22612 Y-0.01598 Z2.90299
X-0.20523 Y-0.01886 Z2.89734
X-0.18424 Y-0.02085 Z2.89169
X-0.16319 Y-0.02196 Z2.88604
X-0.14211 Y-0.02219 Z2.88039
X-0.12103 Y-0.02152 Z2.87475
X-0.10001 Y-0.01997 Z2.8691
X-0.07907 Y-0.01753 Z2.86345
X-0.05825 Y-0.01421 Z2.8578
X-0.03759 Y-0.01001 Z2.85215
X-0.01712 Y-0.00495 Z2.8465
X0.00311 Y0.00097 Z2.84085
X0.02308 Y0.00774 Z2.8352
X0.04275 Y0.01534 Z2.82955
X0.06207 Y0.02377 Z2.8239
X0.08103 Y0.033 Z2.81825
X0.09957 Y0.04303 Z2.8126
X0.11768 Y0.05382 Z2.80696
X0.13532 Y0.06537 Z2.80131
X0.15245 Y0.07766 Z2.79566
X0.16905 Y0.09065 Z2.79001
X0.18509 Y0.10434 Z2.78436
X0.20054 Y0.11869 Z2.77871
X0.21537 Y0.13367 Z2.77306
X0.22955 Y0.14927 Z2.76741
X0.24307 Y0.16545 Z2.76176
X0.25589 Y0.18219 Z2.75611
X0.26799 Y0.19945 Z2.75046
X0.27935 Y0.21721 Z2.74481
X0.28996 Y0.23543 Z2.73917
X0.29979 Y0.25408 Z2.73352
X0.30882 Y0.27313 Z2.72787
X0.31704 Y0.29255 Z2.72222
X0.32444 Y0.31229 Z2.71657
X0.331 Y0.33233 Z2.71092
X0.3367 Y0.35262 Z2.70527
X0.34155 Y0.37314 Z2.69962
X0.34553 Y0.39385 Z2.69397
X0.34863 Y0.4147 Z2.68832
X0.35084 Y0.43567 Z2.68267
X0.35218 Y0.45671 Z2.67702
X0.35262 Y0.47779 Z2.67138
X0.35218 Y0.49886 Z2.66573
X0.35084 Y0.5199 Z2.66008
X0.34863 Y0.54087 Z2.65443
X0.34553 Y0.56172 Z2.64878
X0.34155 Y0.58243 Z2.64313
X0.3367 Y0.60295 Z2.63748
X0.331 Y0.62324 Z2.63183
X0.32444 Y0.64328 Z2.62618
X0.31704 Y0.66302 Z2.62053
X0.30882 Y0.68244 Z2.61488
X0.29979 Y0.70149 Z2.60923
X0.28996 Y0.72014 Z2.60359
X0.27935 Y0.73836 Z2.59794
X0.26799 Y0.75612 Z2.59229
X0.25589 Y0.77338 Z2.58664
X0.24307 Y0.79012 Z2.58099
X0.22955 Y0.8063 Z2.57534
X0.21537 Y0.8219 Z2.56969
X0.20054 Y0.83689 Z2.56404
X0.18509 Y0.85123 Z2.55839
X0.16905 Y0.86492 Z2.55274
X0.15245 Y0.87791 Z2.54709
X0.13532 Y0.8902 Z2.54144
X0.11768 Y0.90175 Z2.5358
X0.09957 Y0.91254 Z2.53015
X0.08103 Y0.92257 Z2.5245
X0.06207 Y0.9318 Z2.51885
X0.04275 Y0.94023 Z2.5132
X0.02308 Y0.94783 Z2.50755
X0.00311 Y0.9546 Z2.5019
X-0.01712 Y0.96052 Z2.49625
X-0.03759 Y0.96558 Z2.4906
X-0.05825 Y0.96978 Z2.48495
X-0.07907 Y0.9731 Z2.4793
X-0.10001 Y0.97554 Z2.47365
X-0.12103 Y0.97709 Z2.46801
X-0.14211 Y0.97776 Z2.46236
X-0.16319 Y0.97754 Z2.45671
X-0.18424 Y0.97643 Z2.45106
X-0.20523 Y0.97443 Z2.44541
X-0.22612 Y0.97155 Z2.43976
X-0.24686 Y0.96779 Z2.43411
X-0.26743 Y0.96316 Z2.42846
X-0.28778 Y0.95767 Z2.42281
X-0.30789 Y0.95132 Z2.41716
X-0.32771 Y0.94413 Z2.41151
X-0.34721 Y0.93612 Z2.40586
X-0.36635 Y0.92729 Z2.40022
X-0.38511 Y0.91765 Z2.39457
X-0.40344 Y0.90724 Z2.38892
X-0.42132 Y0.89607 Z2.38327
X-0.43871 Y0.88415 Z2.37762
X-0.45558 Y0.8715 Z2.37197
X-0.4719 Y0.85816 Z2.36632
X-0.48765 Y0.84414 Z2.36067
X-0.50279 Y0.82947 Z2.35502
X-0.5173 Y0.81418 Z2.34937
X-0.53115 Y0.79828 Z2.34372
X-0.54432 Y0.78182 Z2.33807
X-0.55679 Y0.76481 Z2.33243
X-0.56852 Y0.7473 Z2.32678
X-0.57951 Y0.72931 Z2.32113
X-0.58973 Y0.71087 Z2.31548
X-0.59916 Y0.69201 Z2.30983
X-0.60779 Y0.67278 Z2.30418
X-0.6156 Y0.65319 Z2.29853
X-0.62258 Y0.6333 Z2.29288
X-0.62871 Y0.61313 Z2.28723
X-0.63399 Y0.59271 Z2.28158
X-0.6384 Y0.5721 Z2.27593
X-0.64194 Y0.55131 Z2.27029
X-0.6446 Y0.5304 Z2.26464
X-0.64638 Y0.50939 Z2.25899
X-0.64727 Y0.48833 Z2.25334
Y0.46725 Z2.24769
X-0.64638 Y0.44618 Z2.24204
X-0.6446 Y0.42517 Z2.23639
X-0.64194 Y0.40426 Z2.23074
X-0.6384 Y0.38347 Z2.22509
X-0.63399 Y0.36286 Z2.21944
X-0.62871 Y0.34245 Z2.21379
X-0.62258 Y0.32228 Z2.20814
X-0.6156 Y0.30238 Z2.2025
X-0.60779 Y0.2828 Z2.19685
X-0.59916 Y0.26356 Z2.1912
X-0.58973 Y0.24471 Z2.18555
X-0.57951 Y0.22627 Z2.1799
X-0.56852 Y0.20827 Z2.17425
X-0.55679 Y0.19076 Z2.1686
X-0.54432 Y0.17375 Z2.16295
X-0.53115 Y0.15729 Z2.1573
X-0.5173 Y0.1414 Z2.15165
X-0.50279 Y0.1261 Z2.146
X-0.48765 Y0.11143 Z2.14035
X-0.4719 Y0.09741 Z2.13471
X-0.45558 Y0.08407 Z2.12906
X-0.43871 Y0.07143 Z2.12341
X-0.42132 Y0.05951 Z2.11776
X-0.40344 Y0.04833 Z2.11211
X-0.38511 Y0.03792 Z2.10646
X-0.36635 Y0.02829 Z2.10081
X-0.34721 Y0.01945 Z2.09516
X-0.32771 Y0.01144 Z2.08951
X-0.30789 Y0.00425 Z2.08386
X-0.28778 Y-0.00209 Z2.07821
X-0.26743 Y-0.00759 Z2.07256
X-0.24686 Y-0.01222 Z2.06692
X-0.22612 Y-0.01598 Z2.06127
X-0.20523 Y-0.01886 Z2.05562
X-0.18424 Y-0.02085 Z2.04997
X-0.16319 Y-0.02196 Z2.04432
X-0.14211 Y-0.02219 Z2.03867
X-0.12103 Y-0.02152 Z2.03302
X-0.10001 Y-0.01997 Z2.02737
X-0.07907 Y-0.01753 Z2.02172
X-0.05825 Y-0.01421 Z2.01607
X-0.03759 Y-0.01001 Z2.01042
X-0.01712 Y-0.00495 Z2.00477
X-0.00002 Y0.00006 Z2.
X0. Y0.
G03 X0.05524 Y0.14074 I-0.01314 J0.08636 F3162.
X-0.22166 Y0.20567 I-0.17402 J-0.11919
X-0.40865 Y-0.1968 I0.16711 J-0.32232
X0.04519 Y-0.60307 I0.50556 J0.10814
X0.59337 Y-0.40455 I0.0782 J0.64017
X0.42342 Y0.831 I-0.61211 J0.54527
X-1.00781 Y0.51351 I-0.56034 J-0.85874
X-0.6036 Y-1.18462 I1.03804 J-0.65008
X1.36143 Y-0.69368 I0.73987 J1.21667
X0.3911 Y1.71352 I-1.41403 J0.82918
X-1.98438 Y0. I-0.50981 J-1.79658
G1 X-1.98598 Y-0.22377
X-1.96246 Y-0.446
G03 X1.96246 Y0.44599 I1.96246 J0.446
X-1.96246 Y-0.446 I-1.96246 J-0.44599
G1 X-1.3488 Y-1.19194 Z2.25882 F4743.
Z2.85882
G0 Z13.5375
(2 1/2 Axis Pocketing-2)
(SlotDrill 1/8in 3.175mm Carbide Aluminium Cut)
X0.35014 Y0.5266
G1 Z3.26667 F790.5
Z2.66667 F2371.5
X0.34863 Y0.54087 Z2.66282
X0.34553 Y0.56172 Z2.65717
X0.34155 Y0.58243 Z2.65152
X0.3367 Y0.60295 Z2.64587
X0.331 Y0.62324 Z2.64022
X0.32444 Y0.64328 Z2.63457
X0.31704 Y0.66302 Z2.62892
X0.30882 Y0.68244 Z2.62328
X0.29979 Y0.70149 Z2.61763
X0.28996 Y0.72014 Z2.61198
X0.27935 Y0.73836 Z2.60633
X0.26799 Y0.75612 Z2.60068
X0.25589 Y0.77338 Z2.59503
X0.24307 Y0.79012 Z2.58938
X0.22955 Y0.8063 Z2.58373
X0.21537 Y0.8219 Z2.57808
X0.20054 Y0.83689 Z2.57243
X0.18509 Y0.85123 Z2.56678
X0.16905 Y0.86492 Z2.56114
X0.15245 Y0.87791 Z2.55549
X0.13532 Y0.8902 Z2.54984
X0.11768 Y0.90175 Z2.54419
X0.09957 Y0.91254 Z2.53854
X0.08103 Y0.92257 Z2.53289
X0.06207 Y0.9318 Z2.52724
X0.04275 Y0.94023 Z2.52159
X0.02308 Y0.94783 Z2.51594
X0.00311 Y0.9546 Z2.51029
X-0.01712 Y0.96052 Z2.50464
X-0.03759 Y0.96558 Z2.49899
X-0.05825 Y0.96978 Z2.49334
X-0.07907 Y0.9731 Z2.4877
X-0.10001 Y0.97554 Z2.48205
X-0.12103 Y0.97709 Z2.4764
X-0.14211 Y0.97776 Z2.47075
X-0.16319 Y0.97754 Z2.4651
X-0.18424 Y0.97643 Z2.45945
X-0.20523 Y0.97443 Z2.4538
X-0.22612 Y0.97155 Z2.44815
X-0.24686 Y0.96779 Z2.4425
X-0.26743 Y0.96316 Z2.43685
X-0.28778 Y0.95767 Z2.4312
X-0.30789 Y0.95132 Z2.42555
X-0.32771 Y0.94413 Z2.41991
X-0.34721 Y0.93612 Z2.41426
X-0.36635 Y0.92729 Z2.40861
X-0.38511 Y0.91765 Z2.40296
X-0.40344 Y0.90724 Z2.39731
X-0.42132 Y0.89607 Z2.39166
X-0.43871 Y0.88415 Z2.38601
X-0.45558 Y0.8715 Z2.38036
X-0.4719 Y0.85816 Z2.37471
X-0.48765 Y0.84414 Z2.36906
X-0.50279 Y0.82947 Z2.36341
X-0.5173 Y0.81418 Z2.35776
X-0.53115 Y0.79828 Z2.35212
X-0.54432 Y0.78182 Z2.34647
X-0.55679 Y0.76481 Z2.34082
X-0.56852 Y0.7473 Z2.33517
X-0.57951 Y0.72931 Z2.32952
X-0.58973 Y0.71087 Z2.32387
X-0.59916 Y0.69201 Z2.31822
X-0.60779 Y0.67278 Z2.31257
X-0.6156 Y0.65319 Z2.30692
X-0.62258 Y0.6333 Z2.30127
X-0.62871 Y0.61313 Z2.29562
X-0.63399 Y0.59271 Z2.28997
X-0.6384 Y0.5721 Z2.28433
X-0.64194 Y0.55131 Z2.27868
X-0.6446 Y0.5304 Z2.27303
X-0.64638 Y0.50939 Z2.26738
X-0.64727 Y0.48833 Z2.26173
Y0.46725 Z2.25608
X-0.64638 Y0.44618 Z2.25043
X-0.6446 Y0.42517 Z2.24478
X-0.64194 Y0.40426 Z2.23913
X-0.6384 Y0.38347 Z2.23348
X-0.63399 Y0.36286 Z2.22783
X-0.62871 Y0.34245 Z2.22218
X-0.62258 Y0.32228 Z2.21654
X-0.6156 Y0.30238 Z2.21089
X-0.60779 Y0.2828 Z2.20524
X-0.59916 Y0.26356 Z2.19959
X-0.58973 Y0.24471 Z2.19394
X-0.57951 Y0.22627 Z2.18829
X-0.56852 Y0.20827 Z2.18264
X-0.55679 Y0.19076 Z2.17699
X-0.54432 Y0.17375 Z2.17134
X-0.53115 Y0.15729 Z2.16569
X-0.5173 Y0.1414 Z2.16004
X-0.50279 Y0.1261 Z2.15439
X-0.48765 Y0.11143 Z2.14875
X-0.4719 Y0.09741 Z2.1431
X-0.45558 Y0.08407 Z2.13745
X-0.43871 Y0.07143 Z2.1318
X-0.42132 Y0.05951 Z2.12615
X-0.40344 Y0.04833 Z2.1205
X-0.38511 Y0.03792 Z2.11485
X-0.36635 Y0.02829 Z2.1092
X-0.34721 Y0.01945 Z2.10355
X-0.32771 Y0.01144 Z2.0979
X-0.30789 Y0.00425 Z2.09226
X-0.28778 Y-0.00209 Z2.0866
X-0.26743 Y-0.00759 Z2.08096
X-0.24686 Y-0.01222 Z2.07531
X-0.22612 Y-0.01598 Z2.06966
X-0.20523 Y-0.01886 Z2.06401
X-0.18424 Y-0.02085 Z2.05836
X-0.16319 Y-0.02196 Z2.05271
X-0.14211 Y-0.02219 Z2.04706
X-0.12103 Y-0.02152 Z2.04141
X-0.10001 Y-0.01997 Z2.03576
X-0.07907 Y-0.01753 Z2.03011
X-0.05825 Y-0.01421 Z2.02446
X-0.03759 Y-0.01001 Z2.01882
X-0.01712 Y-0.00495 Z2.01317
X0.00311 Y0.00097 Z2.00752
X0.02308 Y0.00774 Z2.00187
X0.04275 Y0.01534 Z1.99622
X0.06207 Y0.02377 Z1.99057
X0.08103 Y0.033 Z1.98492
X0.09957 Y0.04303 Z1.97927
X0.11768 Y0.05382 Z1.97362
X0.13532 Y0.06537 Z1.96797
X0.15245 Y0.07766 Z1.96232
X0.16905 Y0.09065 Z1.95667
X0.18509 Y0.10434 Z1.95103
X0.20054 Y0.11869 Z1.94538
X0.21537 Y0.13367 Z1.93973
X0.22955 Y0.14927 Z1.93408
X0.24307 Y0.16545 Z1.92843
X0.25589 Y0.18219 Z1.92278
X0.26799 Y0.19945 Z1.91713
X0.27935 Y0.21721 Z1.91148
X0.28996 Y0.23543 Z1.90583
X0.29979 Y0.25408 Z1.90018
X0.30882 Y0.27313 Z1.89453
X0.31704 Y0.29255 Z1.88888
X0.32444 Y0.31229 Z1.88324
X0.331 Y0.33233 Z1.87759
X0.3367 Y0.35262 Z1.87194
X0.34155 Y0.37314 Z1.86629
X0.34553 Y0.39385 Z1.86064
X0.34863 Y0.4147 Z1.85499
X0.35084 Y0.43567 Z1.84934
X0.35218 Y0.45671 Z1.84369
X0.35262 Y0.47779 Z1.83804
X0.35218 Y0.49886 Z1.83239
X0.35084 Y0.5199 Z1.82674
X0.34863 Y0.54087 Z1.82109
X0.34553 Y0.56172 Z1.81545
X0.34155 Y0.58243 Z1.8098
X0.3367 Y0.60295 Z1.80415
X0.331 Y0.62324 Z1.7985
X0.32444 Y0.64328 Z1.79285
X0.31704 Y0.66302 Z1.7872
X0.30882 Y0.68244 Z1.78155
X0.29979 Y0.70149 Z1.7759
X0.28996 Y0.72014 Z1.77025
X0.27935 Y0.73836 Z1.7646
X0.26799 Y0.75612 Z1.75895
X0.25589 Y0.77338 Z1.7533
X0.24307 Y0.79012 Z1.74766
X0.22955 Y0.8063 Z1.74201
X0.21537 Y0.8219 Z1.73636
X0.20054 Y0.83689 Z1.73071
X0.18509 Y0.85123 Z1.72506
X0.16905 Y0.86492 Z1.71941
X0.15245 Y0.87791 Z1.71376
X0.13532 Y0.8902 Z1.70811
X0.11768 Y0.90175 Z1.70246
X0.09957 Y0.91254 Z1.69681
X0.08103 Y0.92257 Z1.69116
X0.06207 Y0.9318 Z1.68551
X0.04275 Y0.94023 Z1.67987
X0.02308 Y0.94783 Z1.67422
X0.00311 Y0.9546 Z1.66857
X-0.01712 Y0.96052 Z1.66292
X-0.03759 Y0.96558 Z1.65727
X-0.05825 Y0.96978 Z1.65162
X-0.07907 Y0.9731 Z1.64597
X-0.10001 Y0.97554 Z1.64032
X-0.12103 Y0.97709 Z1.63467
X-0.14211 Y0.97776 Z1.62902
X-0.16319 Y0.97754 Z1.62337
X-0.18424 Y0.97643 Z1.61773
X-0.20523 Y0.97443 Z1.61208
X-0.22612 Y0.97155 Z1.60643
X-0.24686 Y0.96779 Z1.60078
X-0.26743 Y0.96316 Z1.59513
X-0.28778 Y0.95767 Z1.58948
X-0.30789 Y0.95132 Z1.58383
X-0.32771 Y0.94413 Z1.57818
X-0.34721 Y0.93612 Z1.57253
X-0.36635 Y0.92729 Z1.56688
X-0.38511 Y0.91765 Z1.56123
X-0.40344 Y0.90724 Z1.55558
X-0.42132 Y0.89607 Z1.54993
X-0.43871 Y0.88415 Z1.54429
X-0.45558 Y0.8715 Z1.53864
X-0.4719 Y0.85816 Z1.53299
X-0.48765 Y0.84414 Z1.52734
X-0.50279 Y0.82947 Z1.52169
X-0.5173 Y0.81418 Z1.51604
X-0.53115 Y0.79828 Z1.51039
X-0.54432 Y0.78182 Z1.50474
X-0.55679 Y0.76481 Z1.49909
X-0.56852 Y0.7473 Z1.49344
X-0.57951 Y0.72931 Z1.48779
X-0.58973 Y0.71087 Z1.48215
X-0.59916 Y0.69201 Z1.4765
X-0.60779 Y0.67278 Z1.47085
X-0.6156 Y0.65319 Z1.4652
X-0.62258 Y0.6333 Z1.45955
X-0.62871 Y0.61313 Z1.4539
X-0.63399 Y0.59271 Z1.44825
X-0.6384 Y0.5721 Z1.4426
X-0.64194 Y0.55131 Z1.43695
X-0.6446 Y0.5304 Z1.4313
X-0.64638 Y0.50939 Z1.42565
X-0.64727 Y0.48833 Z1.42
Y0.46725 Z1.41436
X-0.64638 Y0.44618 Z1.40871
X-0.6446 Y0.42517 Z1.40306
X-0.64194 Y0.40426 Z1.39741
X-0.6384 Y0.38347 Z1.39176
X-0.63399 Y0.36286 Z1.38611
X-0.62871 Y0.34245 Z1.38046
X-0.62258 Y0.32228 Z1.37481
X-0.6156 Y0.30238 Z1.36916
X-0.60779 Y0.2828 Z1.36351
X-0.59916 Y0.26356 Z1.35786
X-0.58973 Y0.24471 Z1.35221
X-0.57951 Y0.22627 Z1.34656
X-0.56852 Y0.20827 Z1.34092
X-0.55679 Y0.19076 Z1.33527
X-0.54432 Y0.17375 Z1.32962
X-0.53115 Y0.15729 Z1.32397
X-0.5173 Y0.1414 Z1.31832
X-0.50279 Y0.1261 Z1.31267
X-0.48765 Y0.11143 Z1.30702
X-0.4719 Y0.09741 Z1.30137
X-0.45558 Y0.08407 Z1.29572
X-0.43871 Y0.07143 Z1.29007
X-0.42132 Y0.05951 Z1.28442
X-0.40344 Y0.04833 Z1.27878
X-0.38511 Y0.03792 Z1.27313
X-0.36635 Y0.02829 Z1.26748
X-0.34721 Y0.01945 Z1.26183
X-0.32771 Y0.01144 Z1.25618
X-0.30789 Y0.00425 Z1.25053
X-0.28778 Y-0.00209 Z1.24488
X-0.26743 Y-0.00759 Z1.23923
X-0.24686 Y-0.01222 Z1.23358
X-0.22612 Y-0.01598 Z1.22793
X-0.20523 Y-0.01886 Z1.22228
X-0.18424 Y-0.02085 Z1.21663
X-0.16319 Y-0.02196 Z1.21099
X-0.14211 Y-0.02219 Z1.20534
X-0.12103 Y-0.02152 Z1.19969
X-0.10001 Y-0.01997 Z1.19404
X-0.07907 Y-0.01753 Z1.18839
X-0.05825 Y-0.01421 Z1.18274
X-0.03759 Y-0.01001 Z1.17709
X-0.01712 Y-0.00495 Z1.17144
X-0.00002 Y0.00006 Z1.16667
X0. Y0.
G03 X0.05524 Y0.14074 I-0.01314 J0.08636 F3162.
X-0.22166 Y0.20567 I-0.17402 J-0.11919
X-0.40865 Y-0.1968 I0.16711 J-0.32232
X0.04519 Y-0.60307 I0.50556 J0.10814
X0.59337 Y-0.40455 I0.0782 J0.64017
X0.42342 Y0.831 I-0.61211 J0.54527
X-1.00781 Y0.51351 I-0.56034 J-0.85874
X-0.6036 Y-1.18462 I1.03804 J-0.65008
X0.30694 Y-1.37875 I0.71618 J1.12671
X-0.30695 Y1.37875 I-0.30694 J1.37875
X0.30694 Y-1.37875 I0.30695 J-1.37875
G1 X-0.30672 Y-0.6328 Z1.42549 F4743.
Z2.02549
G0 Z13.5375
X0.35014 Y0.5266
G1 Z2.43333 F790.5
Z1.83333 F2371.5
X0.34863 Y0.54087 Z1.82949
X0.34553 Y0.56172 Z1.82384
X0.34155 Y0.58243 Z1.81819
X0.3367 Y0.60295 Z1.81254
X0.331 Y0.62324 Z1.80689
X0.32444 Y0.64328 Z1.80124
X0.31704 Y0.66302 Z1.79559
X0.30882 Y0.68244 Z1.78994
X0.29979 Y0.70149 Z1.78429
X0.28996 Y0.72014 Z1.77864
X0.27935 Y0.73836 Z1.773
X0.26799 Y0.75612 Z1.76735
X0.25589 Y0.77338 Z1.7617
X0.24307 Y0.79012 Z1.75605
X0.22955 Y0.8063 Z1.7504
X0.21537 Y0.8219 Z1.74475
X0.20054 Y0.83689 Z1.7391
X0.18509 Y0.85123 Z1.73345
X0.16905 Y0.86492 Z1.7278
X0.15245 Y0.87791 Z1.72215
X0.13532 Y0.8902 Z1.7165
X0.11768 Y0.90175 Z1.71085
X0.09957 Y0.91254 Z1.70521
X0.08103 Y0.92257 Z1.69956
X0.06207 Y0.9318 Z1.69391
X0.04275 Y0.94023 Z1.68826
X0.02308 Y0.94783 Z1.68261
X0.00311 Y0.9546 Z1.67696
X-0.01712 Y0.96052 Z1.67131
X-0.03759 Y0.96558 Z1.66566
X-0.05825 Y0.96978 Z1.66001
X-0.07907 Y0.9731 Z1.65436
X-0.10001 Y0.97554 Z1.64871
X-0.12103 Y0.97709 Z1.64306
X-0.14211 Y0.97776 Z1.63741
X-0.16319 Y0.97754 Z1.63177
X-0.18424 Y0.97643 Z1.62612
X-0.20523 Y0.97443 Z1.62047
X-0.22612 Y0.97155 Z1.61482
X-0.24686 Y0.96779 Z1.60917
X-0.26743 Y0.96316 Z1.60352
X-0.28778 Y0.95767 Z1.59787
X-0.30789 Y0.95132 Z1.59222
X-0.32771 Y0.94413 Z1.58657
X-0.34721 Y0.93612 Z1.58092
X-0.36635 Y0.92729 Z1.57527
X-0.38511 Y0.91765 Z1.56962
