%
G17 G21 G40 G90 G64 P0.1
(Engraving)
(Ballnose 1mm Carbide)
T23 M06
S16491 M3
G0 Z6.
X4.37243 Y170.67836
G1 Z-0.2 F478.
X195.99244 F600.
G0 Z6.
X4.37243 Y192.11836
G1 Z-0.2 F478.
X21.12243 F600.
X4.37243 Y149.23836
X21.12243
X4.37243 Y192.11836
G0 Z6.
M30
%
