%
G17 G21 G40 G90 G64 P0.1
(2 1/2 Axis Profiling Inside)
(1/16in 1.6mm 1 Flute Carbide Router)
T31 M06
S16491 M3
G0 Z6.
X57.85248 Y34.10492
G1 Z0.47 F478.
X58.01786 Y34.89722 Z0.32728 F1434.
X58.37356 Y36.98156 Z-0.04555
X58.93068 Y41.22382 Z-0.8
G17
G03 X56.385 Y43.92222 I-2.54568 J0.1484 F600.
G02 X54.34868 Y43.96485 I-0.92542 J4.45197
G1 X54.2996 Y43.98336
X54.25184 Y44.00505
X54.2056 Y44.02982
X54.16109 Y44.05757
X54.11849 Y44.08817
X54.07799 Y44.1215
X54.03976 Y44.15742
X54.00396 Y44.19576
X53.97076 Y44.23636
X53.94028 Y44.27906
X53.91267 Y44.32366
X53.88804 Y44.36997
X53.8665 Y44.4178
X53.84815 Y44.46693
X53.83304 Y44.51717
X53.82127 Y44.56828
X53.81287 Y44.62006
X47.89958 Y90.54313
G02 X48.69303 Y91.4453 I0.79345 J0.10217
G1 X50.4626
G03 X52.91127 Y94.70699 I0. J2.55
X42.85167 Y111.97607 I-53.35482 J-19.51581
G1 X31.49549
X31.49552 Y96.51814
G02 X28.03719 Y92.42623 I-4.15 J0.00004
G03 X26.47052 Y90.57252 I0.31333 J-1.85371
G1 Y19.31416
G03 X28.03719 Y17.46046 I1.88 J0.
G02 X31.49552 Y13.36851 I-0.69167 J-4.09196
G1 X31.4955 Y10.651
X44.91402
G03 X54.59544 Y23.12976 I-15.77567 J22.23424
X58.93068 Y41.22382 I-56.78598 J23.17199
G0 Z6.
X104.4397 Y74.85541
G1 Z0.47 F478.
X104.35284 Y76.85458 Z0.11716 F1434.
X104.35227 Y76.9067 Z0.10797
X104.3551 Y76.95874 Z0.09878
X104.36132 Y77.0105 Z0.08959
X104.37089 Y77.06173 Z0.0804
X104.38377 Y77.11224 Z0.07121
X104.39992 Y77.1618 Z0.06201
X104.41926 Y77.2102 Z0.05282
X104.44171 Y77.25724 Z0.04363
X104.46718 Y77.30272 Z0.03444
X104.49556 Y77.34644 Z0.02525
X104.52672 Y77.38823 Z0.01606
X104.56054 Y77.42789 Z0.00687
X104.59687 Y77.46527 Z-0.00232
X104.63555 Y77.5002 Z-0.01151
X104.67643 Y77.53254 Z-0.0207
X104.71933 Y77.56215 Z-0.02989
X104.76406 Y77.5889 Z-0.03908
X104.81044 Y77.61269 Z-0.04828
X104.85828 Y77.6334 Z-0.05747
X104.90736 Y77.65095 Z-0.06666
X104.95747 Y77.66527 Z-0.07585
X105.00842 Y77.6763 Z-0.08504
X105.05526 Y77.6853 Z-0.09345
X105.10193 Y77.69518 Z-0.10186
X105.14841 Y77.70593 Z-0.11027
X105.19467 Y77.71755 Z-0.11868
X105.24071 Y77.73004 Z-0.1271
X105.28651 Y77.74338 Z-0.13551
X105.33206 Y77.75757 Z-0.14392
X105.37732 Y77.77262 Z-0.15233
X105.4223 Y77.7885 Z-0.16074
X105.46698 Y77.80523 Z-0.16915
X105.51133 Y77.82279 Z-0.17756
X105.55535 Y77.84118 Z-0.18597
X105.59901 Y77.86039 Z-0.19439
X105.64231 Y77.88041 Z-0.2028
X105.68523 Y77.90123 Z-0.21121
X105.72775 Y77.92286 Z-0.21962
X105.76985 Y77.94528 Z-0.22803
X105.81153 Y77.96848 Z-0.23644
X105.85277 Y77.99246 Z-0.24485
X105.89356 Y78.0172 Z-0.25326
X105.93387 Y78.0427 Z-0.26168
X105.9737 Y78.06896 Z-0.27009
X106.01303 Y78.09595 Z-0.2785
X106.05185 Y78.12367 Z-0.28691
X106.09014 Y78.15212 Z-0.29532
X106.1279 Y78.18128 Z-0.30373
X106.1651 Y78.21114 Z-0.31214
X106.20174 Y78.24168 Z-0.32055
X106.2378 Y78.27291 Z-0.32897
X106.27327 Y78.30481 Z-0.33738
X106.30814 Y78.33737 Z-0.34579
X106.34239 Y78.37057 Z-0.3542
X106.37601 Y78.4044 Z-0.36261
X106.409 Y78.43887 Z-0.37102
X106.44133 Y78.47394 Z-0.37943
X106.47301 Y78.50961 Z-0.38785
X106.50401 Y78.54586 Z-0.39626
X106.53433 Y78.58269 Z-0.40467
X106.56395 Y78.62008 Z-0.41308
X106.59287 Y78.65802 Z-0.42149
X106.62107 Y78.69649 Z-0.4299
X106.64855 Y78.73549 Z-0.43831
X106.6753 Y78.77499 Z-0.44673
X106.7013 Y78.81498 Z-0.45514
X106.72655 Y78.85545 Z-0.46355
X106.75103 Y78.89639 Z-0.47196
X106.77475 Y78.93778 Z-0.48037
X106.79769 Y78.97961 Z-0.48878
X106.81984 Y79.02185 Z-0.49719
X106.8412 Y79.06451 Z-0.5056
X106.86175 Y79.10756 Z-0.51402
X106.8815 Y79.15098 Z-0.52243
X106.90043 Y79.19477 Z-0.53084
X106.91854 Y79.2389 Z-0.53925
X106.93582 Y79.28336 Z-0.54766
X106.95227 Y79.32814 Z-0.55607
X106.96788 Y79.37322 Z-0.56448
X106.98264 Y79.41858 Z-0.57289
X106.99654 Y79.46421 Z-0.58131
X107.0096 Y79.51009 Z-0.58972
X107.02179 Y79.55621 Z-0.59813
X107.03311 Y79.60255 Z-0.60654
X107.04357 Y79.64909 Z-0.61495
X107.05316 Y79.69582 Z-0.62336
X107.06187 Y79.74272 Z-0.63177
X107.0697 Y79.78978 Z-0.64018
X107.07665 Y79.83697 Z-0.6486
X107.08271 Y79.88429 Z-0.65701
X107.08789 Y79.93171 Z-0.66542
X107.09218 Y79.97922 Z-0.67383
X107.09559 Y80.0268 Z-0.68224
X107.0981 Y80.07444 Z-0.69065
X107.09972 Y80.12211 Z-0.69906
X107.10045 Y80.16981 Z-0.70748
X107.10028 Y80.21751 Z-0.71589
X107.09922 Y80.2652 Z-0.7243
X107.09727 Y80.31287 Z-0.73271
X107.09443 Y80.36048 Z-0.74112
X107.0907 Y80.40804 Z-0.74953
X107.08608 Y80.45552 Z-0.75794
X107.08058 Y80.5029 Z-0.76636
X107.07418 Y80.55018 Z-0.77477
X107.06691 Y80.59732 Z-0.78318
X107.05875 Y80.64432 Z-0.79159
X107.04972 Y80.69116 Z-0.8
G03 X100.65988 Y98.09272 I-74.40591 J-17.44783 F600.
X94.7571 Y105.75484 I-28.60935 J-15.93546
G1 X72.89655
X90.77327 Y87.08712
G02 X91.92594 Y84.21676 I-2.99733 J-2.87028
G1 X91.92582 Y76.83479
G02 X90.73951 Y73.92984 I-4.15 J0.00005
X88.80105 Y72.81348 I-2.96369 J2.905
G03 X88.55643 Y72.73566 I0.64972 J-2.46584
X86.90077 Y70.34764 I0.89434 J-2.38802
G1 X86.90022 Y27.19463
G03 X88.81962 Y24.72381 I2.55 J-0.00002
G1 X88.82396 Y24.72269
G02 X91.92516 Y20.71867 I-1.04879 J-4.01529
G1 X91.92519 Y13.84548
G03 X92.89736 Y11.8422 I2.55 J-0.00004
X95.74103 Y11.63181 I1.57783 J2.00324
G1 X110.89433 Y20.29708
G03 X112.17847 Y22.50233 I-1.26584 J2.21363
X112.1726 Y28.01482 I-407.2665 J2.32209
X109.62279 Y30.53327 I-2.54981 J-0.03155
G02 X106.92148 Y30.56132 I-1.26657 J8.10911
X106.33225 Y31.29854 I0.21002 J0.77195
G1 X104.35284 Y76.85458
G02 X105.00842 Y77.6763 I0.79924 J0.03472
G03 X107.04972 Y80.69116 I-0.45793 J2.50854
G0 Z6.
X131.64365 Y110.44496
G1 Z0.47 F478.
X129.95392 Y110.35531 Z0.17164 F1434.
X128.89856 Y110.2315 Z-0.01573
X126.75869 Y109.8506 Z-0.39898
X124.65174 Y109.30497 Z-0.78274
X124.55873 Y109.27451 Z-0.8
X139.41399 F600.
G03 X124.55873 I-7.42763 J-21.97743
G0 Z6.
X156.97932 Y73.42508
G1 Z0.47 F478.
X156.89246 Y75.42425 Z0.11716 F1434.
X156.8919 Y75.47637 Z0.10797
X156.89473 Y75.52841 Z0.09878
X156.90094 Y75.58017 Z0.08959
X156.91051 Y75.6314 Z0.0804
X156.9234 Y75.68191 Z0.07121
X156.93954 Y75.73147 Z0.06201
X156.95889 Y75.77987 Z0.05282
X156.98134 Y75.82691 Z0.04363
X157.00681 Y75.87239 Z0.03444
X157.03518 Y75.91611 Z0.02525
X157.06634 Y75.9579 Z0.01606
X157.10016 Y75.99756 Z0.00687
X157.13649 Y76.03494 Z-0.00232
X157.17518 Y76.06987 Z-0.01151
X157.21606 Y76.10221 Z-0.0207
X157.25895 Y76.13182 Z-0.02989
X157.30369 Y76.15857 Z-0.03908
X157.35007 Y76.18236 Z-0.04828
X157.3979 Y76.20307 Z-0.05747
X157.44698 Y76.22062 Z-0.06666
X157.4971 Y76.23494 Z-0.07585
X157.54804 Y76.24597 Z-0.08504
X157.59489 Y76.25497 Z-0.09345
X157.64156 Y76.26485 Z-0.10186
X157.68803 Y76.2756 Z-0.11027
X157.7343 Y76.28722 Z-0.11868
X157.78034 Y76.29971 Z-0.1271
X157.82614 Y76.31305 Z-0.13551
X157.87168 Y76.32724 Z-0.14392
X157.91695 Y76.34229 Z-0.15233
X157.96193 Y76.35818 Z-0.16074
X158.0066 Y76.3749 Z-0.16915
X158.05095 Y76.39246 Z-0.17756
X158.09497 Y76.41085 Z-0.18597
X158.13864 Y76.43006 Z-0.19439
X158.18193 Y76.45008 Z-0.2028
X158.22485 Y76.47091 Z-0.21121
X158.26737 Y76.49253 Z-0.21962
X158.30948 Y76.51495 Z-0.22803
X158.35116 Y76.53815 Z-0.23644
X158.3924 Y76.56213 Z-0.24485
X158.43318 Y76.58687 Z-0.25326
X158.47349 Y76.61238 Z-0.26168
X158.51332 Y76.63863 Z-0.27009
X158.55265 Y76.66562 Z-0.2785
X158.59147 Y76.69335 Z-0.28691
X158.62977 Y76.72179 Z-0.29532
X158.66752 Y76.75095 Z-0.30373
X158.70473 Y76.78081 Z-0.31214
X158.74136 Y76.81135 Z-0.32055
X158.77742 Y76.84258 Z-0.32897
X158.81289 Y76.87448 Z-0.33738
X158.84776 Y76.90704 Z-0.34579
X158.88201 Y76.94024 Z-0.3542
X158.91564 Y76.97408 Z-0.36261
X158.94862 Y77.00854 Z-0.37102
X158.98096 Y77.04361 Z-0.37943
X159.01263 Y77.07928 Z-0.38785
X159.04363 Y77.11553 Z-0.39626
X159.07395 Y77.15236 Z-0.40467
X159.10357 Y77.18975 Z-0.41308
X159.13249 Y77.22769 Z-0.42149
X159.1607 Y77.26616 Z-0.4299
X159.18818 Y77.30516 Z-0.43831
X159.21492 Y77.34466 Z-0.44673
X159.24092 Y77.38465 Z-0.45514
X159.26617 Y77.42512 Z-0.46355
X159.29066 Y77.46606 Z-0.47196
X159.31437 Y77.50745 Z-0.48037
X159.33731 Y77.54928 Z-0.48878
X159.35946 Y77.59153 Z-0.49719
X159.38082 Y77.63418 Z-0.5056
X159.40138 Y77.67723 Z-0.51402
X159.42113 Y77.72065 Z-0.52243
X159.44006 Y77.76444 Z-0.53084
X159.45817 Y77.80857 Z-0.53925
X159.47545 Y77.85303 Z-0.54766
X159.4919 Y77.89781 Z-0.55607
X159.5075 Y77.94289 Z-0.56448
X159.52226 Y77.98825 Z-0.57289
X159.53617 Y78.03388 Z-0.58131
X159.54922 Y78.07976 Z-0.58972
X159.56141 Y78.12588 Z-0.59813
X159.57274 Y78.17222 Z-0.60654
X159.5832 Y78.21876 Z-0.61495
X159.59278 Y78.26549 Z-0.62336
X159.60149 Y78.31239 Z-0.63177
X159.60932 Y78.35945 Z-0.64018
X159.61627 Y78.40664 Z-0.6486
X159.62234 Y78.45396 Z-0.65701
X159.62752 Y78.50138 Z-0.66542
X159.63181 Y78.54889 Z-0.67383
X159.63521 Y78.59647 Z-0.68224
X159.63772 Y78.64411 Z-0.69065
X159.63934 Y78.69178 Z-0.69906
X159.64007 Y78.73948 Z-0.70748
X159.6399 Y78.78718 Z-0.71589
X159.63885 Y78.83487 Z-0.7243
X159.6369 Y78.88254 Z-0.73271
X159.63406 Y78.93015 Z-0.74112
X159.63033 Y78.97771 Z-0.74953
X159.62571 Y79.02519 Z-0.75794
X159.6202 Y79.07258 Z-0.76636
X159.61381 Y79.11985 Z-0.77477
X159.60653 Y79.16699 Z-0.78318
X159.59838 Y79.21399 Z-0.79159
X159.58934 Y79.26083 Z-0.8
G03 X153.19951 Y96.66239 I-74.40591 J-17.44783 F600.
X147.29672 Y104.32451 I-28.60936 J-15.93546
G1 X125.43617
X143.31289 Y85.65679
G02 X144.46556 Y82.78643 I-2.99733 J-2.87028
G1 X144.46544 Y75.40446
G02 X143.27913 Y72.49951 I-4.15 J0.00005
X141.34067 Y71.38315 I-2.96369 J2.905
G03 X141.09605 Y71.30533 I0.64972 J-2.46584
X139.44039 Y68.91731 I0.89434 J-2.38802
G1 X139.43984 Y25.7643
G03 X141.35925 Y23.29348 I2.55001 J-0.00002
G1 X141.36359 Y23.29236
G02 X144.46478 Y19.28834 I-1.04879 J-4.01529
G1 X144.46481 Y12.41515
G03 X145.43698 Y10.41187 I2.55 J-0.00004
X148.28065 Y10.20148 I1.57783 J2.00324
G1 X163.43395 Y18.86675
G03 X164.7181 Y21.072 I-1.26584 J2.21363
X164.71222 Y26.58449 I-407.26651 J2.32209
X162.16242 Y29.10294 I-2.5498 J-0.03155
G02 X159.46111 Y29.131 I-1.26658 J8.10911
X158.87187 Y29.86821 I0.21001 J0.77194
G1 X156.89246 Y75.42425
G02 X157.54804 Y76.24597 I0.79925 J0.03472
G03 X159.58934 Y79.26083 I-0.45793 J2.50854
G0 Z6.
X174.56559 Y150.39614
G1 Z0.47 F478.
X174.64803 Y150.42689 Z0.45448 F1434.
X174.73521 Y150.46099 Z0.43798
X174.82184 Y150.49648 Z0.42147
X174.90789 Y150.53333 Z0.40496
X174.99335 Y150.57154 Z0.38846
X175.07819 Y150.6111 Z0.37195
X175.1624 Y150.652 Z0.35545
X175.24594 Y150.69424 Z0.33894
X175.3288 Y150.73779 Z0.32243
X175.41097 Y150.78265 Z0.30593
X175.4924 Y150.82882 Z0.28942
X175.5731 Y150.87626 Z0.27291
X175.65304 Y150.92499 Z0.25641
X175.73219 Y150.97497 Z0.2399
X175.81053 Y151.02621 Z0.2234
X175.88806 Y151.07867 Z0.20689
X175.96474 Y151.13237 Z0.19038
X176.04056 Y151.18727 Z0.17388
X176.1155 Y151.24337 Z0.15737
X176.18954 Y151.30065 Z0.14086
X176.26267 Y151.3591 Z0.12436
X176.33485 Y151.4187 Z0.10785
X176.40609 Y151.47944 Z0.09134
X176.47634 Y151.54131 Z0.07484
X176.54561 Y151.60428 Z0.05833
X176.61387 Y151.66833 Z0.04182
X176.68111 Y151.73347 Z0.02532
X176.7473 Y151.79966 Z0.00881
X176.81244 Y151.8669 Z-0.00769
X176.8765 Y151.93516 Z-0.0242
X176.93947 Y152.00443 Z-0.04071
X177.00133 Y152.07469 Z-0.05721
X177.06207 Y152.14592 Z-0.07372
X177.12167 Y152.2181 Z-0.09023
X177.18012 Y152.29123 Z-0.10673
X177.23741 Y152.36527 Z-0.12324
X177.29351 Y152.44021 Z-0.13975
X177.34841 Y152.51603 Z-0.15625
X177.4021 Y152.59271 Z-0.17276
X177.45457 Y152.67024 Z-0.18926
X177.50581 Y152.74858 Z-0.20577
X177.55579 Y152.82773 Z-0.22228
X177.60452 Y152.90767 Z-0.23878
X177.65196 Y152.98836 Z-0.25529
X177.69813 Y153.0698 Z-0.2718
X177.74299 Y153.15196 Z-0.2883
X177.78654 Y153.23483 Z-0.30481
X177.82878 Y153.31837 Z-0.32132
X177.86968 Y153.40257 Z-0.33782
X177.90925 Y153.48742 Z-0.35433
X177.94746 Y153.57287 Z-0.37083
X177.98431 Y153.65893 Z-0.38734
X178.01979 Y153.74555 Z-0.40385
X178.05389 Y153.83273 Z-0.42035
X178.08661 Y153.92045 Z-0.43686
X178.11793 Y154.00866 Z-0.45337
X178.14784 Y154.09737 Z-0.46987
X178.17634 Y154.18653 Z-0.48638
X178.20343 Y154.27614 Z-0.50289
X178.22909 Y154.36617 Z-0.51939
X178.25332 Y154.45659 Z-0.5359
X178.27611 Y154.54738 Z-0.5524
X178.29746 Y154.63853 Z-0.56891
X178.31736 Y154.73 Z-0.58542
X178.33581 Y154.82178 Z-0.60192
X178.35279 Y154.91384 Z-0.61843
X178.36832 Y155.00616 Z-0.63494
X178.38238 Y155.09871 Z-0.65144
X178.39496 Y155.19147 Z-0.66795
X178.40608 Y155.28442 Z-0.68446
X178.41572 Y155.37753 Z-0.70096
X178.42388 Y155.47079 Z-0.71747
X178.43056 Y155.56416 Z-0.73398
X178.43575 Y155.65763 Z-0.75048
X178.43946 Y155.75117 Z-0.76699
X178.44169 Y155.84475 Z-0.78349
X178.44244 Y155.93836 Z-0.8
X178.4424 Y185.41836 F600.
G03 X172.5424 Y191.31836 I-5.9 J0.
G1 X21.92243
Y150.03836
X172.5424
G03 X178.44244 Y155.93836 I-0.00002 J5.90006
G0 Z6.
X79.10402 Y111.87529
G1 Z0.47 F478.
X77.4143 Y111.78564 Z0.17164 F1434.
X76.35894 Y111.66183 Z-0.01573
X74.21907 Y111.28092 Z-0.39898
X72.11211 Y110.7353 Z-0.78274
X72.01911 Y110.70484 Z-0.8
X86.87436 F600.
G03 X72.01911 I-7.42762 J-21.97743
G0 Z6.
X16.32774 Y120.12927
G1 Z0.47 F478.
X15.48947 Y119.87978 Z0.31578 F1434.
X14.5916 Y119.55004 Z0.14712
X12.84741 Y118.76228 Z-0.19034
X11.20915 Y117.82671 Z-0.52299
X10.18075 Y117.13251 Z-0.74177
X9.92301 Y116.92607 Z-0.8
X37.30602 F600.
G03 X12.84741 Y118.76228 I-13.85694 J-20.7622
X9.92301 Y116.92607 I8.48649 J-16.76271
G0 Z6.
(2 1/2 Axis Profiling Outside)
(1/16in 1.6mm 1 Flute Carbide Router)
X19.32107 Y-0.79974
G1 Z0.47 F478.
X19.31731 Y-0.79992 Z0.46934 F1434.
X19.26448 Y-0.79896 Z0.46002
X19.21182 Y-0.79451 Z0.4507
X19.15957 Y-0.78659 Z0.44138
X19.10796 Y-0.77524 Z0.43207
X19.05722 Y-0.76051 Z0.42275
X19.00755 Y-0.74246 Z0.41343
X18.95919 Y-0.72117 Z0.40411
X18.91233 Y-0.69673 Z0.3948
X18.86719 Y-0.66926 Z0.38548
X18.82397 Y-0.63886 Z0.37616
X18.78284 Y-0.60568 Z0.36684
X18.744 Y-0.56986 Z0.35753
X18.7076 Y-0.53155 Z0.34821
X18.67382 Y-0.49091 Z0.33889
X18.64279 Y-0.44814 Z0.32957
X18.61465 Y-0.40342 Z0.32025
X18.58952 Y-0.35693 Z0.31094
X18.56752 Y-0.30888 Z0.30162
X18.54874 Y-0.25949 Z0.2923
X18.53326 Y-0.20897 Z0.28299
X18.52115 Y-0.15753 Z0.27367
X18.51246 Y-0.10541 Z0.26435
X18.50724 Y-0.05282 Z0.25503
X18.50549 Y-0.00001 Z0.24571
Y5.3285 Z-0.69385
X18.5072 Y5.38082 Z-0.70308
X18.51234 Y5.43292 Z-0.71231
X18.52086 Y5.48457 Z-0.72154
X18.53275 Y5.53556 Z-0.73077
X18.54795 Y5.58565 Z-0.74
X18.56639 Y5.63465 Z-0.74923
X18.58799 Y5.68233 Z-0.75846
X18.61267 Y5.7285 Z-0.76769
X18.64032 Y5.77296 Z-0.77692
X18.67081 Y5.81551 Z-0.78615
X18.70402 Y5.85598 Z-0.79539
X18.72191 Y5.87508 Z-0.8
X18.7398 Y5.89419 F600.
X18.77801 Y5.92997
X18.81848 Y5.96318
X18.86103 Y5.99368
X18.90549 Y6.02132
X18.95166 Y6.046
X18.99934 Y6.06761
X19.04834 Y6.08605
X19.09843 Y6.10124
X19.14942 Y6.11313
X19.20107 Y6.12166
X19.25317 Y6.12679
X19.30549 Y6.1285
X26.54549
Y12.5685
X19.30549
G02 X18.50549 Y13.3685 I0. J0.8
G1 Y96.51818
G02 X19.30549 Y97.31818 I0.8 J0.
G1 X26.54549
Y103.75818
X19.30549
G02 X18.50549 Y104.55818 I0. J0.8
G1 Y111.97607
X-0.00002
G02 X-0.58402 Y113.32283 I0. J0.8
X5.01867 Y119.30285 I73.33705 J-63.09511
X8.33183 Y121.80054 I14.47537 J-15.7551
X13.76801 Y124.46311 I30.31673 J-55.01697
G1 X13.80442 Y124.47581
X13.8414 Y124.48674
X13.87885 Y124.49587
X13.91671 Y124.50319
X22.76273 Y125.99306
X22.79832 Y125.99824
X22.8341 Y126.00181
X22.87001 Y126.00377
X22.90597 Y126.00411
X22.94191 Y126.00283
G02 X27.69994 Y125.72313 I-0.48282 J-48.82172
G1 X27.73837 Y125.71613
G02 X34.62981 Y123.92988 I-15.17719 J-72.7412
G1 X34.66541 Y123.91596
X34.7003 Y123.90036
X34.73441 Y123.88311
X34.76766 Y123.86424
G02 X42.15944 Y119.43003 I-45.32229 J-83.92972
G1 X42.18816 Y119.40806
G02 X46.465 Y115.29369 I-42.7051 J-48.67151
G1 X46.48953 Y115.26356
G02 X53.25277 Y105.59977 I-195.19016 J-143.80307
G1 X53.26851 Y105.57436
G02 X56.20725 Y99.65812 I-76.72407 J-41.79869
X60.34843 Y87.72378 I-290.65795 J-107.54313
G1 X60.37562 Y87.67756
X60.39965 Y87.62963
X60.42041 Y87.58019
X60.43782 Y87.52948
X60.45179 Y87.47771
G02 X64.06306 Y42.87304 I-137.10314 J-33.54866
G1 X62.34057 Y31.39651
X62.33537 Y31.36589
G02 X60.76272 Y25.59421 I-48.89569 J10.22278
X56.27088 Y15.64716 I-252.08524 J107.8477
G1 X56.2545 Y15.6164
X56.23679 Y15.58639
G02 X52.88847 Y11.11533 I-33.62064 J21.68874
G1 X52.86186 Y11.08967
G02 X46.63105 Y5.86759 I-63.57329 J69.52531
G1 X46.60243 Y5.84842
G02 X38.34224 Y2.37514 I-15.13147 J24.42689
X19.31731 Y-0.79992 I-50.47678 J243.87062
X18.50549 Y-0.00001 I-0.01182 J0.79991
X18.51234 Y5.43292 I41.44868 J2.66426
G1 X18.52086 Y5.48457
X18.53275 Y5.53556
X18.54795 Y5.58565
X18.56639 Y5.63465
X18.58799 Y5.68233
X18.61267 Y5.7285
X18.64032 Y5.77296
X18.67081 Y5.81551
X18.70402 Y5.85598
X18.72191 Y5.87508
G0 Z6.
X86.92533 Y2.77572
G1 Z0.47 F478.
X80.63971 Y3.5705 Z-0.64715 F1434.
X80.58783 Y3.57879 Z-0.65641
X80.53661 Y3.59048 Z-0.66568
X80.48626 Y3.6055 Z-0.67494
X80.43702 Y3.6238 Z-0.6842
X80.38907 Y3.64528 Z-0.69347
X80.34265 Y3.66987 Z-0.70273
X80.29793 Y3.69745 Z-0.712
X80.25512 Y3.72791 Z-0.72126
X80.21441 Y3.76111 Z-0.73052
X80.17596 Y3.79691 Z-0.73979
X80.13994 Y3.83516 Z-0.74905
X80.10651 Y3.87569 Z-0.75831
X80.07582 Y3.91833 Z-0.76758
X80.04799 Y3.96289 Z-0.77684
X80.02314 Y4.00918 Z-0.7861
X80.00139 Y4.057 Z-0.79537
X79.9921 Y4.08157 Z-0.8
X79.98282 Y4.10615 F600.
X79.96751 Y4.1564
X79.95554 Y4.20756
X79.94695 Y4.25939
X79.94179 Y4.31167
X79.94006 Y4.36418
X79.9401 Y10.6631
G02 X81.7451 Y12.4681 I1.805 J0.
G1 X86.9752
Y19.9131
X79.7352
G02 X78.9352 Y20.71311 I0. J0.8
G1 X78.93587 Y76.83485
G02 X79.73587 Y77.63484 I0.8 J-0.00001
G1 X86.97588
X86.97599 Y84.07484
X79.736
G02 X78.936 Y84.87484 I0. J0.8
G1 Y89.96636
X60.44752 Y109.27273
G02 X60.61916 Y110.51528 I0.57779 J0.55332
X65.90605 Y113.62588 I33.06423 J-50.14896
G1 X65.9436 Y113.64197
G02 X73.15666 Y116.09583 I31.89057 J-81.91305
X77.08444 Y116.70327 I5.67118 J-23.66843
X83.04029 Y116.66093 I2.48507 J-69.36009
X90.10955 Y114.71191 I-2.68689 J-23.54049
X97.02962 Y110.32931 I-46.68512 J-81.36984
G1 X97.05693 Y110.30752
G02 X100.50735 Y106.86878 I-21.32269 J-24.84554
X105.77427 Y99.02271 I-88.5744 J-65.14915
G1 X105.79024 Y98.99235
X105.80489 Y98.96133
G02 X110.13316 Y88.02896 I-251.88214 J-106.04648
G1 X110.14431 Y87.99393
G02 X113.5953 Y73.87444 I-312.84937 J-83.94609
X113.96972 Y72.02614 I-3.79028 J-1.72988
X117.13454 Y25.32234 I-285.12028 J-42.77995
X117.10614 Y20.08501 I-370.2679 J-0.61053
X115.44255 Y17.19668 I-3.58174 J0.13972
G1 X115.39591 Y17.1693
X88.72281 Y2.69985
X88.6783 Y2.67747
X88.63249 Y2.6579
X88.58554 Y2.64122
X88.53765 Y2.6275
X88.489 Y2.61679
X88.43978 Y2.60912
X88.39017 Y2.60453
X88.34038 Y2.60304
X88.29058 Y2.60466
X88.24099 Y2.60936
X80.63971 Y3.5705
X80.58783 Y3.57879
X80.53661 Y3.59048
X80.48626 Y3.6055
X80.43702 Y3.6238
X80.38907 Y3.64528
X80.34265 Y3.66987
X80.29793 Y3.69745
X80.25512 Y3.72791
X80.21441 Y3.76111
X80.17596 Y3.79691
X80.13994 Y3.83516
X80.10651 Y3.87569
X80.07582 Y3.91833
X80.04799 Y3.96289
X80.02314 Y4.00918
X80.00139 Y4.057
X79.9921 Y4.08157
G0 Z6.
X139.41283 Y1.35198
G1 Z0.47 F478.
X133.17933 Y2.14017 Z-0.63789 F1434.
X133.12745 Y2.14846 Z-0.64715
X133.07623 Y2.16015 Z-0.65641
X133.02589 Y2.17517 Z-0.66568
X132.97664 Y2.19347 Z-0.67494
X132.9287 Y2.21495 Z-0.6842
X132.88227 Y2.23954 Z-0.69347
X132.83756 Y2.26712 Z-0.70273
X132.79475 Y2.29758 Z-0.712
X132.75403 Y2.33078 Z-0.72126
X132.71558 Y2.36658 Z-0.73052
X132.67957 Y2.40483 Z-0.73979
X132.64614 Y2.44536 Z-0.74905
X132.61544 Y2.488 Z-0.75831
X132.58761 Y2.53256 Z-0.76758
X132.56277 Y2.57885 Z-0.77684
X132.54101 Y2.62667 Z-0.7861
X132.52244 Y2.67582 Z-0.79537
X132.51479 Y2.70095 Z-0.8
X132.50714 Y2.72607 F600.
X132.49517 Y2.77723
X132.48658 Y2.82906
X132.48141 Y2.88134
X132.47969 Y2.93385
X132.47972 Y9.23277
G02 X134.28472 Y11.03777 I1.805 J0.
G1 X139.51482
Y18.48277
X132.27482
G02 X131.47482 Y19.28278 I0. J0.8
G1 X131.47549 Y75.40452
G02 X132.27549 Y76.20451 I0.8 J-0.00001
G1 X139.5155
X139.51561 Y82.64451
X132.27562
G02 X131.47562 Y83.44451 I0. J0.8
G1 Y88.53603
X112.98714 Y107.8424
G02 X113.15879 Y109.08495 I0.5778 J0.55332
X118.44567 Y112.19555 I33.06422 J-50.14896
G1 X118.48323 Y112.21164
G02 X125.69628 Y114.6655 I31.89056 J-81.91305
X129.62406 Y115.27294 I5.67119 J-23.66842
X135.57991 Y115.2306 I2.48507 J-69.36009
X142.64918 Y113.28158 I-2.68689 J-23.54048
X149.56925 Y108.89898 I-46.68513 J-81.36984
G1 X149.59656 Y108.8772
G02 X153.04698 Y105.43845 I-21.3227 J-24.84555
X158.31389 Y97.59238 I-88.57441 J-65.14914
G1 X158.32986 Y97.56202
X158.34451 Y97.53101
G02 X162.67279 Y86.59863 I-251.88214 J-106.04649
G1 X162.68393 Y86.5636
G02 X166.13493 Y72.44411 I-312.84937 J-83.94609
X166.50934 Y70.59581 I-3.79029 J-1.72988
X169.67417 Y23.89201 I-285.12027 J-42.77995
X169.64576 Y18.65468 I-370.26791 J-0.61053
X167.98218 Y15.76635 I-3.58174 J0.13972
G1 X167.93554 Y15.73897
X141.26244 Y1.26952
X141.21793 Y1.24714
X141.17211 Y1.22757
X141.12517 Y1.2109
X141.07728 Y1.19717
X141.02863 Y1.18646
X140.9794 Y1.17879
X140.9298 Y1.1742
X140.88 Y1.17272
X140.83021 Y1.17433
X140.78062 Y1.17903
X133.17933 Y2.14017
X133.12745 Y2.14846
X133.07623 Y2.16015
X133.02589 Y2.17517
X132.97664 Y2.19347
X132.9287 Y2.21495
X132.88227 Y2.23954
X132.83756 Y2.26712
X132.79475 Y2.29758
X132.75403 Y2.33078
X132.71558 Y2.36658
X132.67957 Y2.40483
X132.64614 Y2.44536
X132.61544 Y2.488
X132.58761 Y2.53256
X132.56277 Y2.57885
X132.54101 Y2.62667
X132.52244 Y2.67582
X132.51479 Y2.70095
G0 Z6.
X3.57243 Y149.74089
G1 Z0.47 F478.
Y142.53836 Z-0.8 F1434.
X3.5724 Y198.81836 F600.
X3.57404 Y198.86956
X3.57895 Y198.92056
X3.58712 Y198.97114
X3.59851 Y199.02109
X3.61307 Y199.0702
X3.63075 Y199.11829
X3.65147 Y199.16515
X3.67514 Y199.21058
X3.70168 Y199.2544
X3.73096 Y199.29644
X3.76288 Y199.33652
X3.7973 Y199.37447
X3.83407 Y199.41014
X3.87305 Y199.44338
X3.91408 Y199.47406
X3.95699 Y199.50205
G02 X11.62162 Y202.28919 I10.80677 J-17.78618
G1 X195.87237 Y230.25899
G02 X196.79244 Y229.46805 I0.12007 J-0.79094
G1 Y111.88867
G02 X195.87237 Y111.09773 I-0.8 J0.
G1 X11.62233 Y139.06742
G0 Z6.
M30
%
