%
G17 G21 G40 G90 G64 P0.1
(2 1/2 Axis Profiling)
(SlotDrill 1/8in 3.175mm Carbide Aluminium Cut)
T12 M06
S24000 M3
G0 Z1.5875
X8.06704 Y-4.44057
G1 Z0.27 F120.
X8.15931 Y-4.27736 Z0.23694 F360.
X8.41417 Y-3.75126 Z0.13386
X8.63515 Y-3.21004 Z0.03078
X8.82136 Y-2.65591 Z-0.07229
X8.97204 Y-2.09107 Z-0.17537
X9.0866 Y-1.51782 Z-0.27845
X9.16458 Y-0.93846 Z-0.38153
X9.20565 Y-0.35532 Z-0.48461
X9.20965 Y0.22926 Z-0.58769
X9.17656 Y0.81291 Z-0.69077
X9.10653 Y1.39329 Z-0.79384
X8.99983 Y1.96805 Z-0.89692
X8.85689 Y2.5349 Z-1.
G17
G03 X-8.85689 Y-2.5349 I-8.85689 J-2.5349 F480.
X8.85689 Y2.5349 I8.85689 J2.5349
G0 Z1.5875
X8.06704 Y-4.44057
G1 Z-0.73 F120.
X8.15931 Y-4.27736 Z-0.76306 F360.
X8.41417 Y-3.75126 Z-0.86614
X8.63515 Y-3.21004 Z-0.96922
X8.82136 Y-2.65591 Z-1.07229
X8.97204 Y-2.09107 Z-1.17537
X9.0866 Y-1.51782 Z-1.27845
X9.16458 Y-0.93846 Z-1.38153
X9.20565 Y-0.35532 Z-1.48461
X9.20965 Y0.22926 Z-1.58769
X9.17656 Y0.81291 Z-1.69077
X9.10653 Y1.39329 Z-1.79384
X8.99983 Y1.96805 Z-1.89692
X8.85689 Y2.5349 Z-2.
G03 X-8.85689 Y-2.5349 I-8.85689 J-2.5349 F480.
X8.85689 Y2.5349 I8.85689 J2.5349
G0 Z1.5875
X8.06704 Y-4.44057
G1 Z-1.73 F120.
X8.15931 Y-4.27736 Z-1.76306 F360.
X8.41417 Y-3.75126 Z-1.86614
X8.63515 Y-3.21004 Z-1.96921
X8.82136 Y-2.65591 Z-2.07229
X8.97204 Y-2.09107 Z-2.17537
X9.0866 Y-1.51782 Z-2.27845
X9.16458 Y-0.93846 Z-2.38153
X9.20565 Y-0.35532 Z-2.48461
X9.20965 Y0.22926 Z-2.58769
X9.17656 Y0.81291 Z-2.69076
X9.10653 Y1.39329 Z-2.79384
X8.99983 Y1.96805 Z-2.89692
X8.85689 Y2.5349 Z-3.
G03 X-8.85689 Y-2.5349 I-8.85689 J-2.5349 F480.
X8.85689 Y2.5349 I8.85689 J2.5349
G0 Z1.5875
X8.06704 Y-4.44057
G1 Z-2.73 F120.
X8.15931 Y-4.27736 Z-2.76306 F360.
X8.41417 Y-3.75126 Z-2.86614
X8.63515 Y-3.21004 Z-2.96922
X8.82136 Y-2.65591 Z-3.07229
X8.97204 Y-2.09107 Z-3.17537
X9.0866 Y-1.51782 Z-3.27845
X9.16458 Y-0.93846 Z-3.38153
X9.20565 Y-0.35532 Z-3.48461
X9.20965 Y0.22926 Z-3.58769
X9.17656 Y0.81291 Z-3.69076
X9.10653 Y1.39329 Z-3.79384
X8.99983 Y1.96805 Z-3.89692
X8.85689 Y2.5349 Z-4.
G03 X-8.85689 Y-2.5349 I-8.85689 J-2.5349 F480.
X8.85689 Y2.5349 I8.85689 J2.5349
G0 Z1.5875
(2 1/2 Axis Profiling-1)
(SlotDrill 1/8in 3.175mm Carbide Aluminium Cut)
S23554 M3
X3.39365 Y-5.63368
G1 Z-4. F82.2
X4.69154 Y-5.26221 F246.7
G03 X9.04917 Y2.58993 I-1.74726 J6.10488
X-9.04917 Y-2.58993 I-9.04917 J-2.58993 F329.
X9.04917 Y2.58993 I9.04917 J2.58993
X1.19703 Y6.94755 I-6.10489 J-1.74726 F493.5
G1 X-0.10086 Y6.57609
G0 Z1.5875
(Hole Pocketing)
(SlotDrill 2mm Carbide)
S24000 M3
Z1.
X13.39906 Y12.99289
G1 Z0.635 F120.
G3 Z0.408 I-0.39906 J0.00711 F480.
Z0.181 I-0.39906 J0.00711
Z-0.046 I-0.39906 J0.00711
Z-0.273 I-0.39906 J0.00711
Z-0.5 I-0.39906 J0.00711
G1 X13.3856 Y13.21356
X13.24864 Y13.41346
X13.00934 Y13.52404
X12.72588 Y13.49495
X12.48777 Y13.30803
G03 X13.51223 Y12.69197 I0.51223 J-0.30803
X12.48777 Y13.30803 I-0.51223 J0.30803
G1 X13.39906 Y12.99289
G3 Z-0.75 I-0.39906 J0.00711
Z-1. I-0.39906 J0.00711
G1 X13.3856 Y13.21356
X13.24864 Y13.41346
X13.00934 Y13.52404
X12.72588 Y13.49495
X12.48777 Y13.30803
G03 X13.51223 Y12.69197 I0.51223 J-0.30803
X12.48777 Y13.30803 I-0.51223 J0.30803
G1 X13.39906 Y12.99289
G3 Z-1.25 I-0.39906 J0.00711
Z-1.5 I-0.39906 J0.00711
G1 X13.3856 Y13.21356
X13.24864 Y13.41346
X13.00934 Y13.52404
X12.72588 Y13.49495
X12.48777 Y13.30803
G03 X13.51223 Y12.69197 I0.51223 J-0.30803
X12.48777 Y13.30803 I-0.51223 J0.30803
G1 X13.39906 Y12.99289
G3 Z-1.75 I-0.39906 J0.00711
Z-2. I-0.39906 J0.00711
G1 X13.3856 Y13.21356
X13.24864 Y13.41346
X13.00934 Y13.52404
X12.72588 Y13.49495
X12.48777 Y13.30803
G03 X13.51223 Y12.69197 I0.51223 J-0.30803
X12.48777 Y13.30803 I-0.51223 J0.30803
G1 X13.39906 Y12.99289
G3 Z-2.25 I-0.39906 J0.00711
Z-2.5 I-0.39906 J0.00711
G1 X13.3856 Y13.21356
X13.24864 Y13.41346
X13.00934 Y13.52404
X12.72588 Y13.49495
X12.48777 Y13.30803
G03 X13.51223 Y12.69197 I0.51223 J-0.30803
X12.48777 Y13.30803 I-0.51223 J0.30803
G1 X13.39906 Y12.99289
G3 Z-2.75 I-0.39906 J0.00711
Z-3. I-0.39906 J0.00711
G1 X13.3856 Y13.21356
X13.24864 Y13.41346
X13.00934 Y13.52404
X12.72588 Y13.49495
X12.48777 Y13.30803
G03 X13.51223 Y12.69197 I0.51223 J-0.30803
X12.48777 Y13.30803 I-0.51223 J0.30803
G1 X13.39906 Y12.99289
G3 Z-3.25 I-0.39906 J0.00711
Z-3.5 I-0.39906 J0.00711
G1 X13.3856 Y13.21356
X13.24864 Y13.41346
X13.00934 Y13.52404
X12.72588 Y13.49495
X12.48777 Y13.30803
G03 X13.51223 Y12.69197 I0.51223 J-0.30803
X12.48777 Y13.30803 I-0.51223 J0.30803
G1 X13.39906 Y12.99289
G3 Z-3.75 I-0.39906 J0.00711
Z-4. I-0.39906 J0.00711
G1 X13.3856 Y13.21356
X13.24864 Y13.41346
X13.00934 Y13.52404
X12.72588 Y13.49495
X12.48777 Y13.30803
G03 X13.51223 Y12.69197 I0.51223 J-0.30803
X12.48777 Y13.30803 I-0.51223 J0.30803
G1 X13.39906 Y12.99289
X13. Y13.
G0 Z1.
X-12.60094 Y12.99289
G1 Z0.635 F120.
G3 Z0.408 I-0.39906 J0.00711 F480.
Z0.181 I-0.39906 J0.00711
Z-0.046 I-0.39906 J0.00711
Z-0.273 I-0.39906 J0.00711
Z-0.5 I-0.39906 J0.00711
G1 X-12.6144 Y13.21356
X-12.75137 Y13.41346
X-12.99066 Y13.52404
X-13.27412 Y13.49495
X-13.51223 Y13.30803
G03 X-12.48777 Y12.69197 I0.51223 J-0.30803
X-13.51223 Y13.30803 I-0.51223 J0.30803
G1 X-12.60094 Y12.99289
G3 Z-0.75 I-0.39906 J0.00711
Z-1. I-0.39906 J0.00711
G1 X-12.6144 Y13.21356
X-12.75137 Y13.41346
X-12.99066 Y13.52404
X-13.27412 Y13.49495
X-13.51223 Y13.30803
G03 X-12.48777 Y12.69197 I0.51223 J-0.30803
X-13.51223 Y13.30803 I-0.51223 J0.30803
G1 X-12.60094 Y12.99289
G3 Z-1.25 I-0.39906 J0.00711
Z-1.5 I-0.39906 J0.00711
G1 X-12.6144 Y13.21356
X-12.75137 Y13.41346
X-12.99066 Y13.52404
X-13.27412 Y13.49495
X-13.51223 Y13.30803
G03 X-12.48777 Y12.69197 I0.51223 J-0.30803
X-13.51223 Y13.30803 I-0.51223 J0.30803
G1 X-12.60094 Y12.99289
G3 Z-1.75 I-0.39906 J0.00711
Z-2. I-0.39906 J0.00711
G1 X-12.6144 Y13.21356
X-12.75137 Y13.41346
X-12.99066 Y13.52404
X-13.27412 Y13.49495
X-13.51223 Y13.30803
G03 X-12.48777 Y12.69197 I0.51223 J-0.30803
X-13.51223 Y13.30803 I-0.51223 J0.30803
G1 X-12.60094 Y12.99289
G3 Z-2.25 I-0.39906 J0.00711
Z-2.5 I-0.39906 J0.00711
G1 X-12.6144 Y13.21356
X-12.75137 Y13.41346
X-12.99066 Y13.52404
X-13.27412 Y13.49495
X-13.51223 Y13.30803
G03 X-12.48777 Y12.69197 I0.51223 J-0.30803
X-13.51223 Y13.30803 I-0.51223 J0.30803
G1 X-12.60094 Y12.99289
G3 Z-2.75 I-0.39906 J0.00711
Z-3. I-0.39906 J0.00711
G1 X-12.6144 Y13.21356
X-12.75137 Y13.41346
X-12.99066 Y13.52404
X-13.27412 Y13.49495
X-13.51223 Y13.30803
G03 X-12.48777 Y12.69197 I0.51223 J-0.30803
X-13.51223 Y13.30803 I-0.51223 J0.30803
G1 X-12.60094 Y12.99289
G3 Z-3.25 I-0.39906 J0.00711
Z-3.5 I-0.39906 J0.00711
G1 X-12.6144 Y13.21356
X-12.75137 Y13.41346
X-12.99066 Y13.52404
X-13.27412 Y13.49495
X-13.51223 Y13.30803
G03 X-12.48777 Y12.69197 I0.51223 J-0.30803
X-13.51223 Y13.30803 I-0.51223 J0.30803
G1 X-12.60094 Y12.99289
G3 Z-3.75 I-0.39906 J0.00711
Z-4. I-0.39906 J0.00711
G1 X-12.6144 Y13.21356
X-12.75137 Y13.41346
X-12.99066 Y13.52404
X-13.27412 Y13.49495
X-13.51223 Y13.30803
G03 X-12.48777 Y12.69197 I0.51223 J-0.30803
X-13.51223 Y13.30803 I-0.51223 J0.30803
G1 X-12.60094 Y12.99289
X-13. Y13.
G0 Z1.
X-12.60094 Y-13.00711
G1 Z0.635 F120.
G3 Z0.408 I-0.39906 J0.00711 F480.
Z0.181 I-0.39906 J0.00711
Z-0.046 I-0.39906 J0.00711
Z-0.273 I-0.39906 J0.00711
Z-0.5 I-0.39906 J0.00711
G1 X-12.6144 Y-12.78644
X-12.75137 Y-12.58654
X-12.99066 Y-12.47596
X-13.27412 Y-12.50505
X-13.51223 Y-12.69197
G03 X-12.48777 Y-13.30803 I0.51223 J-0.30803
X-13.51223 Y-12.69197 I-0.51223 J0.30803
G1 X-12.60094 Y-13.00711
G3 Z-0.75 I-0.39906 J0.00711
Z-1. I-0.39906 J0.00711
G1 X-12.6144 Y-12.78644
X-12.75137 Y-12.58654
X-12.99066 Y-12.47596
X-13.27412 Y-12.50505
X-13.51223 Y-12.69197
G03 X-12.48777 Y-13.30803 I0.51223 J-0.30803
X-13.51223 Y-12.69197 I-0.51223 J0.30803
G1 X-12.60094 Y-13.00711
G3 Z-1.25 I-0.39906 J0.00711
Z-1.5 I-0.39906 J0.00711
G1 X-12.6144 Y-12.78644
X-12.75137 Y-12.58654
X-12.99066 Y-12.47596
X-13.27412 Y-12.50505
X-13.51223 Y-12.69197
G03 X-12.48777 Y-13.30803 I0.51223 J-0.30803
X-13.51223 Y-12.69197 I-0.51223 J0.30803
G1 X-12.60094 Y-13.00711
G3 Z-1.75 I-0.39906 J0.00711
Z-2. I-0.39906 J0.00711
G1 X-12.6144 Y-12.78644
X-12.75137 Y-12.58654
X-12.99066 Y-12.47596
X-13.27412 Y-12.50505
X-13.51223 Y-12.69197
G03 X-12.48777 Y-13.30803 I0.51223 J-0.30803
X-13.51223 Y-12.69197 I-0.51223 J0.30803
G1 X-12.60094 Y-13.00711
G3 Z-2.25 I-0.39906 J0.00711
Z-2.5 I-0.39906 J0.00711
G1 X-12.6144 Y-12.78644
X-12.75137 Y-12.58654
X-12.99066 Y-12.47596
X-13.27412 Y-12.50505
X-13.51223 Y-12.69197
G03 X-12.48777 Y-13.30803 I0.51223 J-0.30803
X-13.51223 Y-12.69197 I-0.51223 J0.30803
G1 X-12.60094 Y-13.00711
G3 Z-2.75 I-0.39906 J0.00711
Z-3. I-0.39906 J0.00711
G1 X-12.6144 Y-12.78644
X-12.75137 Y-12.58654
X-12.99066 Y-12.47596
X-13.27412 Y-12.50505
X-13.51223 Y-12.69197
G03 X-12.48777 Y-13.30803 I0.51223 J-0.30803
X-13.51223 Y-12.69197 I-0.51223 J0.30803
G1 X-12.60094 Y-13.00711
G3 Z-3.25 I-0.39906 J0.00711
Z-3.5 I-0.39906 J0.00711
G1 X-12.6144 Y-12.78644
X-12.75137 Y-12.58654
X-12.99066 Y-12.47596
X-13.27412 Y-12.50505
X-13.51223 Y-12.69197
G03 X-12.48777 Y-13.30803 I0.51223 J-0.30803
X-13.51223 Y-12.69197 I-0.51223 J0.30803
G1 X-12.60094 Y-13.00711
G3 Z-3.75 I-0.39906 J0.00711
Z-4. I-0.39906 J0.00711
G1 X-12.6144 Y-12.78644
X-12.75137 Y-12.58654
X-12.99066 Y-12.47596
X-13.27412 Y-12.50505
X-13.51223 Y-12.69197
G03 X-12.48777 Y-13.30803 I0.51223 J-0.30803
X-13.51223 Y-12.69197 I-0.51223 J0.30803
G1 X-12.60094 Y-13.00711
X-13. Y-13.
G0 Z1.
X13.39906 Y-13.00711
G1 Z0.635 F120.
G3 Z0.408 I-0.39906 J0.00711 F480.
Z0.181 I-0.39906 J0.00711
Z-0.046 I-0.39906 J0.00711
Z-0.273 I-0.39906 J0.00711
Z-0.5 I-0.39906 J0.00711
G1 X13.3856 Y-12.78644
X13.24864 Y-12.58654
X13.00934 Y-12.47596
X12.72588 Y-12.50505
X12.48777 Y-12.69197
G03 X13.51223 Y-13.30803 I0.51223 J-0.30803
X12.48777 Y-12.69197 I-0.51223 J0.30803
G1 X13.39906 Y-13.00711
G3 Z-0.75 I-0.39906 J0.00711
Z-1. I-0.39906 J0.00711
G1 X13.3856 Y-12.78644
X13.24864 Y-12.58654
X13.00934 Y-12.47596
X12.72588 Y-12.50505
X12.48777 Y-12.69197
G03 X13.51223 Y-13.30803 I0.51223 J-0.30803
X12.48777 Y-12.69197 I-0.51223 J0.30803
G1 X13.39906 Y-13.00711
G3 Z-1.25 I-0.39906 J0.00711
Z-1.5 I-0.39906 J0.00711
G1 X13.3856 Y-12.78644
X13.24864 Y-12.58654
X13.00934 Y-12.47596
X12.72588 Y-12.50505
X12.48777 Y-12.69197
G03 X13.51223 Y-13.30803 I0.51223 J-0.30803
X12.48777 Y-12.69197 I-0.51223 J0.30803
G1 X13.39906 Y-13.00711
G3 Z-1.75 I-0.39906 J0.00711
Z-2. I-0.39906 J0.00711
G1 X13.3856 Y-12.78644
X13.24864 Y-12.58654
X13.00934 Y-12.47596
X12.72588 Y-12.50505
X12.48777 Y-12.69197
G03 X13.51223 Y-13.30803 I0.51223 J-0.30803
X12.48777 Y-12.69197 I-0.51223 J0.30803
G1 X13.39906 Y-13.00711
G3 Z-2.25 I-0.39906 J0.00711
Z-2.5 I-0.39906 J0.00711
G1 X13.3856 Y-12.78644
X13.24864 Y-12.58654
X13.00934 Y-12.47596
X12.72588 Y-12.50505
X12.48777 Y-12.69197
G03 X13.51223 Y-13.30803 I0.51223 J-0.30803
X12.48777 Y-12.69197 I-0.51223 J0.30803
G1 X13.39906 Y-13.00711
G3 Z-2.75 I-0.39906 J0.00711
Z-3. I-0.39906 J0.00711
G1 X13.3856 Y-12.78644
X13.24864 Y-12.58654
X13.00934 Y-12.47596
X12.72588 Y-12.50505
X12.48777 Y-12.69197
G03 X13.51223 Y-13.30803 I0.51223 J-0.30803
X12.48777 Y-12.69197 I-0.51223 J0.30803
G1 X13.39906 Y-13.00711
G3 Z-3.25 I-0.39906 J0.00711
Z-3.5 I-0.39906 J0.00711
G1 X13.3856 Y-12.78644
X13.24864 Y-12.58654
X13.00934 Y-12.47596
X12.72588 Y-12.50505
X12.48777 Y-12.69197
G03 X13.51223 Y-13.30803 I0.51223 J-0.30803
X12.48777 Y-12.69197 I-0.51223 J0.30803
G1 X13.39906 Y-13.00711
G3 Z-3.75 I-0.39906 J0.00711
Z-4. I-0.39906 J0.00711
G1 X13.3856 Y-12.78644
X13.24864 Y-12.58654
X13.00934 Y-12.47596
X12.72588 Y-12.50505
X12.48777 Y-12.69197
G03 X13.51223 Y-13.30803 I0.51223 J-0.30803
X12.48777 Y-12.69197 I-0.51223 J0.30803
G1 X13.39906 Y-13.00711
X13. Y-13.
G0 Z1.
M30
%
