%
G17 G21 G40 G90 G64 P0.1
(2 1/2 Axis Profiling)
(SlotDrill 2mm Carbide)
T12 M06
S24000 M3
G0 Z1.
X-7.95223 Y7.9894
G1 Z0.27 F240.2
X-7.95004 Y7.9979 Z0.26845 F720.7
X-7.95351 Y8.0184 Z0.26479
X-7.96502 Y8.03572 Z0.26112
X-7.98257 Y8.04686 Z0.25745
X-8.00314 Y8.0499 Z0.25379
X-8.02316 Y8.04431 Z0.25012
X-8.03918 Y8.03106 Z0.24645
X-8.04843 Y8.01244 Z0.24279
X-8.0493 Y7.99166 Z0.23912
X-8.04165 Y7.97233 Z0.23546
X-8.02679 Y7.95778 Z0.23179
X-8.00731 Y7.95054 Z0.22812
X-7.98656 Y7.95184 Z0.22446
X-7.96813 Y7.96147 Z0.22079
X-7.95522 Y7.97777 Z0.21713
X-7.95004 Y7.9979 Z0.21346
X-7.95351 Y8.0184 Z0.2098
X-7.96502 Y8.03572 Z0.20613
X-7.98257 Y8.04686 Z0.20246
X-8.00314 Y8.0499 Z0.1988
X-8.02316 Y8.04431 Z0.19513
X-8.03918 Y8.03106 Z0.19146
X-8.04843 Y8.01244 Z0.1878
X-8.0493 Y7.99166 Z0.18413
X-8.04165 Y7.97233 Z0.18047
X-8.02679 Y7.95778 Z0.1768
X-8.00731 Y7.95054 Z0.17313
X-7.98656 Y7.95184 Z0.16947
X-7.96813 Y7.96147 Z0.1658
X-7.95522 Y7.97777 Z0.16214
X-7.95004 Y7.9979 Z0.15847
X-7.95351 Y8.0184 Z0.1548
X-7.96502 Y8.03572 Z0.15114
X-7.98257 Y8.04686 Z0.14747
X-8.00314 Y8.0499 Z0.14381
X-8.02316 Y8.04431 Z0.14014
X-8.03918 Y8.03106 Z0.13647
X-8.04843 Y8.01244 Z0.13281
X-8.0493 Y7.99166 Z0.12914
X-8.04165 Y7.97233 Z0.12548
X-8.02679 Y7.95778 Z0.12181
X-8.00731 Y7.95054 Z0.11814
X-7.98656 Y7.95184 Z0.11448
X-7.96813 Y7.96147 Z0.11081
X-7.95522 Y7.97777 Z0.10714
X-7.95004 Y7.9979 Z0.10348
X-7.95351 Y8.0184 Z0.09981
X-7.96502 Y8.03572 Z0.09615
X-7.98257 Y8.04686 Z0.09248
X-8.00314 Y8.0499 Z0.08881
X-8.02316 Y8.04431 Z0.08515
X-8.03918 Y8.03106 Z0.08148
X-8.04843 Y8.01244 Z0.07782
X-8.0493 Y7.99166 Z0.07415
X-8.04165 Y7.97233 Z0.07049
X-8.02679 Y7.95778 Z0.06682
X-8.00731 Y7.95054 Z0.06315
X-7.98656 Y7.95184 Z0.05949
X-7.96813 Y7.96147 Z0.05582
X-7.95522 Y7.97777 Z0.05215
X-7.95004 Y7.9979 Z0.04849
X-7.95351 Y8.0184 Z0.04482
X-7.96502 Y8.03572 Z0.04116
X-7.98257 Y8.04686 Z0.03749
X-8.00314 Y8.0499 Z0.03382
X-8.02316 Y8.04431 Z0.03016
X-8.03918 Y8.03106 Z0.02649
X-8.04843 Y8.01244 Z0.02283
X-8.0493 Y7.99166 Z0.01916
X-8.04165 Y7.97233 Z0.01549
X-8.02679 Y7.95778 Z0.01183
X-8.00731 Y7.95054 Z0.00816
X-7.98656 Y7.95184 Z0.0045
X-7.96813 Y7.96147 Z0.00083
X-7.95522 Y7.97777 Z-0.00284
X-7.95004 Y7.9979 Z-0.0065
X-7.95351 Y8.0184 Z-0.01017
X-7.96502 Y8.03572 Z-0.01383
X-7.98257 Y8.04686 Z-0.0175
X-8.00314 Y8.0499 Z-0.02117
X-8.02316 Y8.04431 Z-0.02483
X-8.03918 Y8.03106 Z-0.0285
X-8.04843 Y8.01244 Z-0.03216
X-8.0493 Y7.99166 Z-0.03583
X-8.04165 Y7.97233 Z-0.0395
X-8.02679 Y7.95778 Z-0.04316
X-8.00731 Y7.95054 Z-0.04683
X-7.98656 Y7.95184 Z-0.0505
X-7.96813 Y7.96147 Z-0.05416
X-7.95522 Y7.97777 Z-0.05783
X-7.95004 Y7.9979 Z-0.06149
X-7.95351 Y8.0184 Z-0.06516
X-7.96502 Y8.03572 Z-0.06883
X-7.98257 Y8.04686 Z-0.07249
X-8.00314 Y8.0499 Z-0.07616
X-8.02316 Y8.04431 Z-0.07982
X-8.03918 Y8.03106 Z-0.08349
X-8.04843 Y8.01244 Z-0.08715
X-8.0493 Y7.99166 Z-0.09082
X-8.04165 Y7.97233 Z-0.09449
X-8.02679 Y7.95778 Z-0.09815
X-8.00731 Y7.95054 Z-0.10182
X-7.98656 Y7.95184 Z-0.10549
X-7.96813 Y7.96147 Z-0.10915
X-7.95522 Y7.97777 Z-0.11282
X-7.95004 Y7.9979 Z-0.11648
X-7.95351 Y8.0184 Z-0.12015
X-7.96502 Y8.03572 Z-0.12382
X-7.98257 Y8.04686 Z-0.12748
X-8.00314 Y8.0499 Z-0.13115
X-8.02316 Y8.04431 Z-0.13481
X-8.03918 Y8.03106 Z-0.13848
X-8.04843 Y8.01244 Z-0.14215
X-8.0493 Y7.99166 Z-0.14581
X-8.04165 Y7.97233 Z-0.14948
X-8.02679 Y7.95778 Z-0.15314
X-8.00731 Y7.95054 Z-0.15681
X-7.98656 Y7.95184 Z-0.16048
X-7.96813 Y7.96147 Z-0.16414
X-7.95522 Y7.97777 Z-0.16781
X-7.95004 Y7.9979 Z-0.17147
X-7.95351 Y8.0184 Z-0.17514
X-7.96502 Y8.03572 Z-0.17881
X-7.98257 Y8.04686 Z-0.18247
X-8.00314 Y8.0499 Z-0.18614
X-8.02316 Y8.04431 Z-0.1898
X-8.03918 Y8.03106 Z-0.19347
X-8.04843 Y8.01244 Z-0.19714
X-8.0493 Y7.99166 Z-0.2008
X-8.04165 Y7.97233 Z-0.20447
X-8.02679 Y7.95778 Z-0.20813
X-8.00731 Y7.95054 Z-0.2118
X-7.98656 Y7.95184 Z-0.21547
X-7.96813 Y7.96147 Z-0.21913
X-7.95522 Y7.97777 Z-0.2228
X-7.95004 Y7.9979 Z-0.22647
X-7.95351 Y8.0184 Z-0.23013
X-7.96502 Y8.03572 Z-0.2338
X-7.98257 Y8.04686 Z-0.23746
X-8.00314 Y8.0499 Z-0.24113
X-8.02316 Y8.04431 Z-0.2448
X-8.03918 Y8.03106 Z-0.24846
X-8.04843 Y8.01244 Z-0.25213
X-8.0493 Y7.99166 Z-0.25579
X-8.04165 Y7.97233 Z-0.25946
X-8.02679 Y7.95778 Z-0.26313
X-8.00731 Y7.95054 Z-0.26679
X-7.98656 Y7.95184 Z-0.27046
X-7.96813 Y7.96147 Z-0.27412
X-7.95522 Y7.97777 Z-0.27779
X-7.95004 Y7.9979 Z-0.28146
X-7.95351 Y8.0184 Z-0.28512
X-7.96502 Y8.03572 Z-0.28879
X-7.98257 Y8.04686 Z-0.29245
X-8.00314 Y8.0499 Z-0.29612
X-8.02316 Y8.04431 Z-0.29979
X-8.03918 Y8.03106 Z-0.30345
X-8.04843 Y8.01244 Z-0.30712
X-8.0493 Y7.99166 Z-0.31078
X-8.04165 Y7.97233 Z-0.31445
X-8.02679 Y7.95778 Z-0.31812
X-8.00731 Y7.95054 Z-0.32178
X-7.98656 Y7.95184 Z-0.32545
X-7.96813 Y7.96147 Z-0.32911
X-7.95522 Y7.97777 Z-0.33278
X-7.95004 Y7.9979 Z-0.33645
X-7.95351 Y8.0184 Z-0.34011
X-7.96502 Y8.03572 Z-0.34378
X-7.98257 Y8.04686 Z-0.34744
X-8.00314 Y8.0499 Z-0.35111
X-8.02316 Y8.04431 Z-0.35478
X-8.03918 Y8.03106 Z-0.35844
X-8.04843 Y8.01244 Z-0.36211
X-8.0493 Y7.99166 Z-0.36577
X-8.04165 Y7.97233 Z-0.36944
X-8.02679 Y7.95778 Z-0.37311
X-8.00731 Y7.95054 Z-0.37677
X-7.98656 Y7.95184 Z-0.38044
X-7.96813 Y7.96147 Z-0.38411
X-7.95522 Y7.97777 Z-0.38777
X-7.95004 Y7.9979 Z-0.39144
X-7.95351 Y8.0184 Z-0.3951
X-7.96502 Y8.03572 Z-0.39877
X-7.98257 Y8.04686 Z-0.40243
X-8.00314 Y8.0499 Z-0.4061
X-8.02316 Y8.04431 Z-0.40977
X-8.03918 Y8.03106 Z-0.41343
X-8.04843 Y8.01244 Z-0.4171
X-8.0493 Y7.99166 Z-0.42077
X-8.04165 Y7.97233 Z-0.42443
X-8.02679 Y7.95778 Z-0.4281
X-8.00731 Y7.95054 Z-0.43176
X-7.98656 Y7.95184 Z-0.43543
X-7.96813 Y7.96147 Z-0.4391
X-7.95522 Y7.97777 Z-0.44276
X-7.95004 Y7.9979 Z-0.44643
X-7.95351 Y8.0184 Z-0.45009
X-7.96502 Y8.03572 Z-0.45376
X-7.98257 Y8.04686 Z-0.45743
X-8.00314 Y8.0499 Z-0.46109
X-8.02316 Y8.04431 Z-0.46476
X-8.03918 Y8.03106 Z-0.46842
X-8.04843 Y8.01244 Z-0.47209
X-8.0493 Y7.99166 Z-0.47576
X-8.04165 Y7.97233 Z-0.47942
X-8.02679 Y7.95778 Z-0.48309
X-8.00731 Y7.95054 Z-0.48675
X-7.98656 Y7.95184 Z-0.49042
X-7.96813 Y7.96147 Z-0.49409
X-7.95522 Y7.97777 Z-0.49775
X-7.95004 Y7.9979 Z-0.50142
X-7.95351 Y8.0184 Z-0.50508
X-7.96502 Y8.03572 Z-0.50875
X-7.98257 Y8.04686 Z-0.51242
X-8.00314 Y8.0499 Z-0.51608
X-8.02316 Y8.04431 Z-0.51975
X-8.03918 Y8.03106 Z-0.52341
X-8.04843 Y8.01244 Z-0.52708
X-8.0493 Y7.99166 Z-0.53075
X-8.04165 Y7.97233 Z-0.53441
X-8.02679 Y7.95778 Z-0.53808
X-8.00731 Y7.95054 Z-0.54174
X-7.98656 Y7.95184 Z-0.54541
X-7.96813 Y7.96147 Z-0.54908
X-7.95522 Y7.97777 Z-0.55274
X-7.95004 Y7.9979 Z-0.55641
X-7.95351 Y8.0184 Z-0.56007
X-7.96502 Y8.03572 Z-0.56374
X-7.98257 Y8.04686 Z-0.56741
X-8.00314 Y8.0499 Z-0.57107
X-8.02316 Y8.04431 Z-0.57474
X-8.03918 Y8.03106 Z-0.5784
X-8.04843 Y8.01244 Z-0.58207
X-8.0493 Y7.99166 Z-0.58574
X-8.04165 Y7.97233 Z-0.5894
X-8.02679 Y7.95778 Z-0.59307
X-8.00731 Y7.95054 Z-0.59674
X-7.98656 Y7.95184 Z-0.6004
X-7.96813 Y7.96147 Z-0.60407
X-7.95522 Y7.97777 Z-0.60773
X-7.95004 Y7.9979 Z-0.6114
X-7.95351 Y8.0184 Z-0.61507
X-7.96502 Y8.03572 Z-0.61873
X-7.98257 Y8.04686 Z-0.6224
X-8.00314 Y8.0499 Z-0.62606
X-8.02316 Y8.04431 Z-0.62973
X-8.03918 Y8.03106 Z-0.6334
X-8.04843 Y8.01244 Z-0.63706
X-8.0493 Y7.99166 Z-0.64073
X-8.04165 Y7.97233 Z-0.64439
X-8.02679 Y7.95778 Z-0.64806
X-8.00731 Y7.95054 Z-0.65173
X-7.98656 Y7.95184 Z-0.65539
X-7.96813 Y7.96147 Z-0.65906
X-7.95522 Y7.97777 Z-0.66272
X-7.95004 Y7.9979 Z-0.66639
X-7.95351 Y8.0184 Z-0.67006
X-7.96502 Y8.03572 Z-0.67372
X-7.98257 Y8.04686 Z-0.67739
X-8.00314 Y8.0499 Z-0.68105
X-8.02316 Y8.04431 Z-0.68472
X-8.03918 Y8.03106 Z-0.68839
X-8.04843 Y8.01244 Z-0.69205
X-8.0493 Y7.99166 Z-0.69572
X-8.04165 Y7.97233 Z-0.69938
X-8.02679 Y7.95778 Z-0.70305
X-8.00731 Y7.95054 Z-0.70672
X-7.98656 Y7.95184 Z-0.71038
X-7.96813 Y7.96147 Z-0.71405
X-7.95522 Y7.97777 Z-0.71772
X-7.95004 Y7.9979 Z-0.72138
X-7.95351 Y8.0184 Z-0.72505
X-7.96502 Y8.03572 Z-0.72871
X-7.98257 Y8.04686 Z-0.73238
X-8.00314 Y8.0499 Z-0.73604
X-8.02316 Y8.04431 Z-0.73971
X-8.03918 Y8.03106 Z-0.74338
X-8.04843 Y8.01244 Z-0.74704
X-8.0493 Y7.99166 Z-0.75071
X-8.04165 Y7.97233 Z-0.75438
X-8.02679 Y7.95778 Z-0.75804
X-8.00731 Y7.95054 Z-0.76171
X-7.98656 Y7.95184 Z-0.76537
X-7.96813 Y7.96147 Z-0.76904
X-7.95522 Y7.97777 Z-0.77271
X-7.95004 Y7.9979 Z-0.77637
X-7.95351 Y8.0184 Z-0.78004
X-7.96502 Y8.03572 Z-0.7837
X-7.98257 Y8.04686 Z-0.78737
X-8.00314 Y8.0499 Z-0.79104
X-8.02316 Y8.04431 Z-0.7947
X-8.03918 Y8.03106 Z-0.79837
X-8.04843 Y8.01244 Z-0.80203
X-8.0493 Y7.99166 Z-0.8057
X-8.04165 Y7.97233 Z-0.80937
X-8.02679 Y7.95778 Z-0.81303
X-8.00731 Y7.95054 Z-0.8167
X-7.98656 Y7.95184 Z-0.82036
X-7.96813 Y7.96147 Z-0.82403
X-7.95522 Y7.97777 Z-0.8277
X-7.95004 Y7.9979 Z-0.83136
X-7.95351 Y8.0184 Z-0.83503
X-7.96502 Y8.03572 Z-0.83869
X-7.98257 Y8.04686 Z-0.84236
X-8.00314 Y8.0499 Z-0.84603
X-8.02316 Y8.04431 Z-0.84969
X-8.03918 Y8.03106 Z-0.85336
X-8.04843 Y8.01244 Z-0.85702
X-8.0493 Y7.99166 Z-0.86069
X-8.04165 Y7.97233 Z-0.86436
X-8.02679 Y7.95778 Z-0.86802
X-8.00731 Y7.95054 Z-0.87169
X-7.98656 Y7.95184 Z-0.87536
X-7.96813 Y7.96147 Z-0.87902
X-7.95522 Y7.97777 Z-0.88269
X-7.95004 Y7.9979 Z-0.88635
X-7.95351 Y8.0184 Z-0.89002
X-7.96502 Y8.03572 Z-0.89368
X-7.98257 Y8.04686 Z-0.89735
X-8.00314 Y8.0499 Z-0.90102
X-8.02316 Y8.04431 Z-0.90468
X-8.03918 Y8.03106 Z-0.90835
X-8.04843 Y8.01244 Z-0.91202
X-8.0493 Y7.99166 Z-0.91568
X-8.04165 Y7.97233 Z-0.91935
X-8.02679 Y7.95778 Z-0.92301
X-8.00731 Y7.95054 Z-0.92668
X-7.98656 Y7.95184 Z-0.93034
X-7.96813 Y7.96147 Z-0.93401
X-7.95522 Y7.97777 Z-0.93768
X-7.95004 Y7.9979 Z-0.94134
X-7.95351 Y8.0184 Z-0.94501
X-7.96502 Y8.03572 Z-0.94868
X-7.98257 Y8.04686 Z-0.95234
X-8.00314 Y8.0499 Z-0.95601
X-8.02316 Y8.04431 Z-0.95967
X-8.03918 Y8.03106 Z-0.96334
X-8.04843 Y8.01244 Z-0.96701
X-8.0493 Y7.99166 Z-0.97067
X-8.04165 Y7.97233 Z-0.97434
X-8.02679 Y7.95778 Z-0.978
X-8.00731 Y7.95054 Z-0.98167
X-7.98656 Y7.95184 Z-0.98534
X-7.96813 Y7.96147 Z-0.989
X-7.95522 Y7.97777 Z-0.99267
X-7.95004 Y7.9979 Z-0.99633
X-7.95351 Y8.0184 Z-1.
G17
G03 X-8.04649 Y7.98159 I-0.04649 J-0.0184 F961.
X-7.95351 Y8.0184 I0.04649 J0.01841
G0 Z1.
X-7.95223 Y7.9894
G1 Z-0.73 F240.2
X-7.95004 Y7.9979 Z-0.73155 F720.7
X-7.95351 Y8.0184 Z-0.73522
X-7.96502 Y8.03572 Z-0.73888
X-7.98257 Y8.04686 Z-0.74255
X-8.00314 Y8.0499 Z-0.74621
X-8.02316 Y8.04431 Z-0.74988
X-8.03918 Y8.03106 Z-0.75355
X-8.04843 Y8.01244 Z-0.75721
X-8.0493 Y7.99166 Z-0.76088
X-8.04165 Y7.97233 Z-0.76454
X-8.02679 Y7.95778 Z-0.76821
X-8.00731 Y7.95054 Z-0.77188
X-7.98656 Y7.95184 Z-0.77554
X-7.96813 Y7.96147 Z-0.77921
X-7.95522 Y7.97777 Z-0.78287
X-7.95004 Y7.9979 Z-0.78654
X-7.95351 Y8.0184 Z-0.79021
X-7.96502 Y8.03572 Z-0.79387
X-7.98257 Y8.04686 Z-0.79754
X-8.00314 Y8.0499 Z-0.8012
X-8.02316 Y8.04431 Z-0.80487
X-8.03918 Y8.03106 Z-0.80854
X-8.04843 Y8.01244 Z-0.8122
X-8.0493 Y7.99166 Z-0.81587
X-8.04165 Y7.97233 Z-0.81953
X-8.02679 Y7.95778 Z-0.8232
X-8.00731 Y7.95054 Z-0.82687
X-7.98656 Y7.95184 Z-0.83053
X-7.96813 Y7.96147 Z-0.8342
X-7.95522 Y7.97777 Z-0.83786
X-7.95004 Y7.9979 Z-0.84153
X-7.95351 Y8.0184 Z-0.8452
X-7.96502 Y8.03572 Z-0.84886
X-7.98257 Y8.04686 Z-0.85253
X-8.00314 Y8.0499 Z-0.85619
X-8.02316 Y8.04431 Z-0.85986
X-8.03918 Y8.03106 Z-0.86353
X-8.04843 Y8.01244 Z-0.86719
X-8.0493 Y7.99166 Z-0.87086
X-8.04165 Y7.97233 Z-0.87452
X-8.02679 Y7.95778 Z-0.87819
X-8.00731 Y7.95054 Z-0.88186
X-7.98656 Y7.95184 Z-0.88552
X-7.96813 Y7.96147 Z-0.88919
X-7.95522 Y7.97777 Z-0.89286
X-7.95004 Y7.9979 Z-0.89652
X-7.95351 Y8.0184 Z-0.90019
X-7.96502 Y8.03572 Z-0.90385
X-7.98257 Y8.04686 Z-0.90752
X-8.00314 Y8.0499 Z-0.91119
X-8.02316 Y8.04431 Z-0.91485
X-8.03918 Y8.03106 Z-0.91852
X-8.04843 Y8.01244 Z-0.92218
X-8.0493 Y7.99166 Z-0.92585
X-8.04165 Y7.97233 Z-0.92952
X-8.02679 Y7.95778 Z-0.93318
X-8.00731 Y7.95054 Z-0.93685
X-7.98656 Y7.95184 Z-0.94051
X-7.96813 Y7.96147 Z-0.94418
X-7.95522 Y7.97777 Z-0.94785
X-7.95004 Y7.9979 Z-0.95151
X-7.95351 Y8.0184 Z-0.95518
X-7.96502 Y8.03572 Z-0.95884
X-7.98257 Y8.04686 Z-0.96251
X-8.00314 Y8.0499 Z-0.96618
X-8.02316 Y8.04431 Z-0.96984
X-8.03918 Y8.03106 Z-0.97351
X-8.04843 Y8.01244 Z-0.97717
X-8.0493 Y7.99166 Z-0.98084
X-8.04165 Y7.97233 Z-0.98451
X-8.02679 Y7.95778 Z-0.98817
X-8.00731 Y7.95054 Z-0.99184
X-7.98656 Y7.95184 Z-0.9955
X-7.96813 Y7.96147 Z-0.99917
X-7.95522 Y7.97777 Z-1.00284
X-7.95004 Y7.9979 Z-1.0065
X-7.95351 Y8.0184 Z-1.01017
X-7.96502 Y8.03572 Z-1.01383
X-7.98257 Y8.04686 Z-1.0175
X-8.00314 Y8.0499 Z-1.02117
X-8.02316 Y8.04431 Z-1.02483
X-8.03918 Y8.03106 Z-1.0285
X-8.04843 Y8.01244 Z-1.03216
X-8.0493 Y7.99166 Z-1.03583
X-8.04165 Y7.97233 Z-1.0395
X-8.02679 Y7.95778 Z-1.04316
X-8.00731 Y7.95054 Z-1.04683
X-7.98656 Y7.95184 Z-1.05049
X-7.96813 Y7.96147 Z-1.05416
X-7.95522 Y7.97777 Z-1.05783
X-7.95004 Y7.9979 Z-1.06149
X-7.95351 Y8.0184 Z-1.06516
X-7.96502 Y8.03572 Z-1.06882
X-7.98257 Y8.04686 Z-1.07249
X-8.00314 Y8.0499 Z-1.07616
X-8.02316 Y8.04431 Z-1.07982
X-8.03918 Y8.03106 Z-1.08349
X-8.04843 Y8.01244 Z-1.08716
X-8.0493 Y7.99166 Z-1.09082
X-8.04165 Y7.97233 Z-1.09449
X-8.02679 Y7.95778 Z-1.09815
X-8.00731 Y7.95054 Z-1.10182
X-7.98656 Y7.95184 Z-1.10549
X-7.96813 Y7.96147 Z-1.10915
X-7.95522 Y7.97777 Z-1.11282
X-7.95004 Y7.9979 Z-1.11648
X-7.95351 Y8.0184 Z-1.12015
X-7.96502 Y8.03572 Z-1.12382
X-7.98257 Y8.04686 Z-1.12748
X-8.00314 Y8.0499 Z-1.13115
X-8.02316 Y8.04431 Z-1.13481
X-8.03918 Y8.03106 Z-1.13848
X-8.04843 Y8.01244 Z-1.14215
X-8.0493 Y7.99166 Z-1.14581
X-8.04165 Y7.97233 Z-1.14948
X-8.02679 Y7.95778 Z-1.15314
X-8.00731 Y7.95054 Z-1.15681
X-7.98656 Y7.95184 Z-1.16048
X-7.96813 Y7.96147 Z-1.16414
X-7.95522 Y7.97777 Z-1.16781
X-7.95004 Y7.9979 Z-1.17147
X-7.95351 Y8.0184 Z-1.17514
X-7.96502 Y8.03572 Z-1.17881
X-7.98257 Y8.04686 Z-1.18247
X-8.00314 Y8.0499 Z-1.18614
X-8.02316 Y8.04431 Z-1.1898
X-8.03918 Y8.03106 Z-1.19347
X-8.04843 Y8.01244 Z-1.19714
X-8.0493 Y7.99166 Z-1.2008
X-8.04165 Y7.97233 Z-1.20447
X-8.02679 Y7.95778 Z-1.20813
X-8.00731 Y7.95054 Z-1.2118
X-7.98656 Y7.95184 Z-1.21547
X-7.96813 Y7.96147 Z-1.21913
X-7.95522 Y7.97777 Z-1.2228
X-7.95004 Y7.9979 Z-1.22647
X-7.95351 Y8.0184 Z-1.23013
X-7.96502 Y8.03572 Z-1.2338
X-7.98257 Y8.04686 Z-1.23746
X-8.00314 Y8.0499 Z-1.24113
X-8.02316 Y8.04431 Z-1.2448
X-8.03918 Y8.03106 Z-1.24846
X-8.04843 Y8.01244 Z-1.25213
X-8.0493 Y7.99166 Z-1.25579
X-8.04165 Y7.97233 Z-1.25946
X-8.02679 Y7.95778 Z-1.26313
X-8.00731 Y7.95054 Z-1.26679
X-7.98656 Y7.95184 Z-1.27046
X-7.96813 Y7.96147 Z-1.27412
X-7.95522 Y7.97777 Z-1.27779
X-7.95004 Y7.9979 Z-1.28146
X-7.95351 Y8.0184 Z-1.28512
X-7.96502 Y8.03572 Z-1.28879
X-7.98257 Y8.04686 Z-1.29245
X-8.00314 Y8.0499 Z-1.29612
X-8.02316 Y8.04431 Z-1.29979
X-8.03918 Y8.03106 Z-1.30345
X-8.04843 Y8.01244 Z-1.30712
X-8.0493 Y7.99166 Z-1.31078
X-8.04165 Y7.97233 Z-1.31445
X-8.02679 Y7.95778 Z-1.31812
X-8.00731 Y7.95054 Z-1.32178
X-7.98656 Y7.95184 Z-1.32545
X-7.96813 Y7.96147 Z-1.32911
X-7.95522 Y7.97777 Z-1.33278
X-7.95004 Y7.9979 Z-1.33645
X-7.95351 Y8.0184 Z-1.34011
X-7.96502 Y8.03572 Z-1.34378
X-7.98257 Y8.04686 Z-1.34744
X-8.00314 Y8.0499 Z-1.35111
X-8.02316 Y8.04431 Z-1.35478
X-8.03918 Y8.03106 Z-1.35844
X-8.04843 Y8.01244 Z-1.36211
X-8.0493 Y7.99166 Z-1.36577
X-8.04165 Y7.97233 Z-1.36944
X-8.02679 Y7.95778 Z-1.37311
X-8.00731 Y7.95054 Z-1.37677
X-7.98656 Y7.95184 Z-1.38044
X-7.96813 Y7.96147 Z-1.3841
X-7.95522 Y7.97777 Z-1.38777
X-7.95004 Y7.9979 Z-1.39144
X-7.95351 Y8.0184 Z-1.3951
X-7.96502 Y8.03572 Z-1.39877
X-7.98257 Y8.04686 Z-1.40244
X-8.00314 Y8.0499 Z-1.4061
X-8.02316 Y8.04431 Z-1.40977
X-8.03918 Y8.03106 Z-1.41343
X-8.04843 Y8.01244 Z-1.4171
X-8.0493 Y7.99166 Z-1.42077
X-8.04165 Y7.97233 Z-1.42443
X-8.02679 Y7.95778 Z-1.4281
X-8.00731 Y7.95054 Z-1.43176
X-7.98656 Y7.95184 Z-1.43543
X-7.96813 Y7.96147 Z-1.4391
X-7.95522 Y7.97777 Z-1.44276
X-7.95004 Y7.9979 Z-1.44643
X-7.95351 Y8.0184 Z-1.45009
X-7.96502 Y8.03572 Z-1.45376
X-7.98257 Y8.04686 Z-1.45743
X-8.00314 Y8.0499 Z-1.46109
X-8.02316 Y8.04431 Z-1.46476
X-8.03918 Y8.03106 Z-1.46842
X-8.04843 Y8.01244 Z-1.47209
X-8.0493 Y7.99166 Z-1.47576
X-8.04165 Y7.97233 Z-1.47942
X-8.02679 Y7.95778 Z-1.48309
X-8.00731 Y7.95054 Z-1.48675
X-7.98656 Y7.95184 Z-1.49042
X-7.96813 Y7.96147 Z-1.49409
X-7.95522 Y7.97777 Z-1.49775
X-7.95004 Y7.9979 Z-1.50142
X-7.95351 Y8.0184 Z-1.50508
X-7.96502 Y8.03572 Z-1.50875
X-7.98257 Y8.04686 Z-1.51242
X-8.00314 Y8.0499 Z-1.51608
X-8.02316 Y8.04431 Z-1.51975
X-8.03918 Y8.03106 Z-1.52341
X-8.04843 Y8.01244 Z-1.52708
X-8.0493 Y7.99166 Z-1.53075
X-8.04165 Y7.97233 Z-1.53441
X-8.02679 Y7.95778 Z-1.53808
X-8.00731 Y7.95054 Z-1.54174
X-7.98656 Y7.95184 Z-1.54541
X-7.96813 Y7.96147 Z-1.54908
X-7.95522 Y7.97777 Z-1.55274
X-7.95004 Y7.9979 Z-1.55641
X-7.95351 Y8.0184 Z-1.56008
X-7.96502 Y8.03572 Z-1.56374
X-7.98257 Y8.04686 Z-1.56741
X-8.00314 Y8.0499 Z-1.57107
X-8.02316 Y8.04431 Z-1.57474
X-8.03918 Y8.03106 Z-1.57841
X-8.04843 Y8.01244 Z-1.58207
X-8.0493 Y7.99166 Z-1.58574
X-8.04165 Y7.97233 Z-1.5894
X-8.02679 Y7.95778 Z-1.59307
X-8.00731 Y7.95054 Z-1.59674
X-7.98656 Y7.95184 Z-1.6004
X-7.96813 Y7.96147 Z-1.60407
X-7.95522 Y7.97777 Z-1.60773
X-7.95004 Y7.9979 Z-1.6114
X-7.95351 Y8.0184 Z-1.61506
X-7.96502 Y8.03572 Z-1.61873
X-7.98257 Y8.04686 Z-1.6224
X-8.00314 Y8.0499 Z-1.62606
X-8.02316 Y8.04431 Z-1.62973
X-8.03918 Y8.03106 Z-1.6334
X-8.04843 Y8.01244 Z-1.63706
X-8.0493 Y7.99166 Z-1.64073
X-8.04165 Y7.97233 Z-1.64439
X-8.02679 Y7.95778 Z-1.64806
X-8.00731 Y7.95054 Z-1.65173
X-7.98656 Y7.95184 Z-1.65539
X-7.96813 Y7.96147 Z-1.65906
X-7.95522 Y7.97777 Z-1.66272
X-7.95004 Y7.9979 Z-1.66639
X-7.95351 Y8.0184 Z-1.67006
X-7.96502 Y8.03572 Z-1.67372
X-7.98257 Y8.04686 Z-1.67739
X-8.00314 Y8.0499 Z-1.68105
X-8.02316 Y8.04431 Z-1.68472
X-8.03918 Y8.03106 Z-1.68839
X-8.04843 Y8.01244 Z-1.69205
X-8.0493 Y7.99166 Z-1.69572
X-8.04165 Y7.97233 Z-1.69938
X-8.02679 Y7.95778 Z-1.70305
X-8.00731 Y7.95054 Z-1.70672
X-7.98656 Y7.95184 Z-1.71038
X-7.96813 Y7.96147 Z-1.71405
X-7.95522 Y7.97777 Z-1.71772
X-7.95004 Y7.9979 Z-1.72138
X-7.95351 Y8.0184 Z-1.72505
X-7.96502 Y8.03572 Z-1.72871
X-7.98257 Y8.04686 Z-1.73238
X-8.00314 Y8.0499 Z-1.73605
X-8.02316 Y8.04431 Z-1.73971
X-8.03918 Y8.03106 Z-1.74338
X-8.04843 Y8.01244 Z-1.74704
X-8.0493 Y7.99166 Z-1.75071
X-8.04165 Y7.97233 Z-1.75438
X-8.02679 Y7.95778 Z-1.75804
X-8.00731 Y7.95054 Z-1.76171
X-7.98656 Y7.95184 Z-1.76537
X-7.96813 Y7.96147 Z-1.76904
X-7.95522 Y7.97777 Z-1.7727
X-7.95004 Y7.9979 Z-1.77637
X-7.95351 Y8.0184 Z-1.78004
X-7.96502 Y8.03572 Z-1.7837
X-7.98257 Y8.04686 Z-1.78737
X-8.00314 Y8.0499 Z-1.79104
X-8.02316 Y8.04431 Z-1.7947
X-8.03918 Y8.03106 Z-1.79837
X-8.04843 Y8.01244 Z-1.80203
X-8.0493 Y7.99166 Z-1.8057
X-8.04165 Y7.97233 Z-1.80937
X-8.02679 Y7.95778 Z-1.81303
X-8.00731 Y7.95054 Z-1.8167
X-7.98656 Y7.95184 Z-1.82036
X-7.96813 Y7.96147 Z-1.82403
X-7.95522 Y7.97777 Z-1.8277
X-7.95004 Y7.9979 Z-1.83136
X-7.95351 Y8.0184 Z-1.83503
X-7.96502 Y8.03572 Z-1.83869
X-7.98257 Y8.04686 Z-1.84236
X-8.00314 Y8.0499 Z-1.84603
X-8.02316 Y8.04431 Z-1.84969
X-8.03918 Y8.03106 Z-1.85336
X-8.04843 Y8.01244 Z-1.85702
X-8.0493 Y7.99166 Z-1.86069
X-8.04165 Y7.97233 Z-1.86436
X-8.02679 Y7.95778 Z-1.86802
X-8.00731 Y7.95054 Z-1.87169
X-7.98656 Y7.95184 Z-1.87536
X-7.96813 Y7.96147 Z-1.87902
X-7.95522 Y7.97777 Z-1.88269
X-7.95004 Y7.9979 Z-1.88635
X-7.95351 Y8.0184 Z-1.89002
X-7.96502 Y8.03572 Z-1.89369
X-7.98257 Y8.04686 Z-1.89735
X-8.00314 Y8.0499 Z-1.90102
X-8.02316 Y8.04431 Z-1.90468
X-8.03918 Y8.03106 Z-1.90835
X-8.04843 Y8.01244 Z-1.91201
X-8.0493 Y7.99166 Z-1.91568
X-8.04165 Y7.97233 Z-1.91935
X-8.02679 Y7.95778 Z-1.92301
X-8.00731 Y7.95054 Z-1.92668
X-7.98656 Y7.95184 Z-1.93034
X-7.96813 Y7.96147 Z-1.93401
X-7.95522 Y7.97777 Z-1.93768
X-7.95004 Y7.9979 Z-1.94134
X-7.95351 Y8.0184 Z-1.94501
X-7.96502 Y8.03572 Z-1.94868
X-7.98257 Y8.04686 Z-1.95234
X-8.00314 Y8.0499 Z-1.95601
X-8.02316 Y8.04431 Z-1.95967
X-8.03918 Y8.03106 Z-1.96334
X-8.04843 Y8.01244 Z-1.96701
X-8.0493 Y7.99166 Z-1.97067
X-8.04165 Y7.97233 Z-1.97434
X-8.02679 Y7.95778 Z-1.978
X-8.00731 Y7.95054 Z-1.98167
X-7.98656 Y7.95184 Z-1.98534
X-7.96813 Y7.96147 Z-1.989
X-7.95522 Y7.97777 Z-1.99267
X-7.95004 Y7.9979 Z-1.99633
X-7.95351 Y8.0184 Z-2.
G03 X-8.04649 Y7.98159 I-0.04649 J-0.0184 F961.
X-7.95351 Y8.0184 I0.04649 J0.01841
G0 Z1.
X-7.95223 Y7.9894
G1 Z-1.73 F240.2
X-7.95004 Y7.9979 Z-1.73155 F720.7
X-7.95351 Y8.0184 Z-1.73521
X-7.96502 Y8.03572 Z-1.73888
X-7.98257 Y8.04686 Z-1.74255
X-8.00314 Y8.0499 Z-1.74621
X-8.02316 Y8.04431 Z-1.74988
X-8.03918 Y8.03106 Z-1.75354
X-8.04843 Y8.01244 Z-1.75721
X-8.0493 Y7.99166 Z-1.76088
X-8.04165 Y7.97233 Z-1.76454
X-8.02679 Y7.95778 Z-1.76821
X-8.00731 Y7.95054 Z-1.77188
X-7.98656 Y7.95184 Z-1.77554
X-7.96813 Y7.96147 Z-1.77921
X-7.95522 Y7.97777 Z-1.78287
X-7.95004 Y7.9979 Z-1.78654
X-7.95351 Y8.0184 Z-1.79021
X-7.96502 Y8.03572 Z-1.79387
X-7.98257 Y8.04686 Z-1.79754
X-8.00314 Y8.0499 Z-1.8012
X-8.02316 Y8.04431 Z-1.80487
X-8.03918 Y8.03106 Z-1.80854
X-8.04843 Y8.01244 Z-1.8122
X-8.0493 Y7.99166 Z-1.81587
X-8.04165 Y7.97233 Z-1.81953
X-8.02679 Y7.95778 Z-1.8232
X-8.00731 Y7.95054 Z-1.82687
X-7.98656 Y7.95184 Z-1.83053
X-7.96813 Y7.96147 Z-1.8342
X-7.95522 Y7.97777 Z-1.83786
X-7.95004 Y7.9979 Z-1.84153
X-7.95351 Y8.0184 Z-1.8452
X-7.96502 Y8.03572 Z-1.84886
X-7.98257 Y8.04686 Z-1.85253
X-8.00314 Y8.0499 Z-1.85619
X-8.02316 Y8.04431 Z-1.85986
X-8.03918 Y8.03106 Z-1.86353
X-8.04843 Y8.01244 Z-1.86719
X-8.0493 Y7.99166 Z-1.87086
X-8.04165 Y7.97233 Z-1.87452
X-8.02679 Y7.95778 Z-1.87819
X-8.00731 Y7.95054 Z-1.88186
X-7.98656 Y7.95184 Z-1.88552
X-7.96813 Y7.96147 Z-1.88919
X-7.95522 Y7.97777 Z-1.89286
X-7.95004 Y7.9979 Z-1.89652
X-7.95351 Y8.0184 Z-1.90019
X-7.96502 Y8.03572 Z-1.90385
X-7.98257 Y8.04686 Z-1.90752
X-8.00314 Y8.0499 Z-1.91119
X-8.02316 Y8.04431 Z-1.91485
X-8.03918 Y8.03106 Z-1.91852
X-8.04843 Y8.01244 Z-1.92218
X-8.0493 Y7.99166 Z-1.92585
X-8.04165 Y7.97233 Z-1.92952
X-8.02679 Y7.95778 Z-1.93318
X-8.00731 Y7.95054 Z-1.93685
X-7.98656 Y7.95184 Z-1.94051
X-7.96813 Y7.96147 Z-1.94418
X-7.95522 Y7.97777 Z-1.94785
X-7.95004 Y7.9979 Z-1.95151
X-7.95351 Y8.0184 Z-1.95518
X-7.96502 Y8.03572 Z-1.95884
X-7.98257 Y8.04686 Z-1.96251
X-8.00314 Y8.0499 Z-1.96618
X-8.02316 Y8.04431 Z-1.96984
X-8.03918 Y8.03106 Z-1.97351
X-8.04843 Y8.01244 Z-1.97717
X-8.0493 Y7.99166 Z-1.98084
X-8.04165 Y7.97233 Z-1.98451
X-8.02679 Y7.95778 Z-1.98817
X-8.00731 Y7.95054 Z-1.99184
X-7.98656 Y7.95184 Z-1.9955
X-7.96813 Y7.96147 Z-1.99917
X-7.95522 Y7.97777 Z-2.00284
X-7.95004 Y7.9979 Z-2.0065
X-7.95351 Y8.0184 Z-2.01017
X-7.96502 Y8.03572 Z-2.01383
X-7.98257 Y8.04686 Z-2.0175
X-8.00314 Y8.0499 Z-2.02117
X-8.02316 Y8.04431 Z-2.02483
X-8.03918 Y8.03106 Z-2.0285
X-8.04843 Y8.01244 Z-2.03216
X-8.0493 Y7.99166 Z-2.03583
X-8.04165 Y7.97233 Z-2.0395
X-8.02679 Y7.95778 Z-2.04316
X-8.00731 Y7.95054 Z-2.04683
X-7.98656 Y7.95184 Z-2.0505
X-7.96813 Y7.96147 Z-2.05416
X-7.95522 Y7.97777 Z-2.05783
X-7.95004 Y7.9979 Z-2.06149
X-7.95351 Y8.0184 Z-2.06516
X-7.96502 Y8.03572 Z-2.06883
X-7.98257 Y8.04686 Z-2.07249
X-8.00314 Y8.0499 Z-2.07616
X-8.02316 Y8.04431 Z-2.07982
X-8.03918 Y8.03106 Z-2.08349
X-8.04843 Y8.01244 Z-2.08715
X-8.0493 Y7.99166 Z-2.09082
X-8.04165 Y7.97233 Z-2.09449
X-8.02679 Y7.95778 Z-2.09815
X-8.00731 Y7.95054 Z-2.10182
X-7.98656 Y7.95184 Z-2.10549
X-7.96813 Y7.96147 Z-2.10915
X-7.95522 Y7.97777 Z-2.11282
X-7.95004 Y7.9979 Z-2.11648
X-7.95351 Y8.0184 Z-2.12015
X-7.96502 Y8.03572 Z-2.12382
X-7.98257 Y8.04686 Z-2.12748
X-8.00314 Y8.0499 Z-2.13115
X-8.02316 Y8.04431 Z-2.13481
X-8.03918 Y8.03106 Z-2.13848
X-8.04843 Y8.01244 Z-2.14215
X-8.0493 Y7.99166 Z-2.14581
X-8.04165 Y7.97233 Z-2.14948
X-8.02679 Y7.95778 Z-2.15314
X-8.00731 Y7.95054 Z-2.15681
X-7.98656 Y7.95184 Z-2.16048
X-7.96813 Y7.96147 Z-2.16414
X-7.95522 Y7.97777 Z-2.16781
X-7.95004 Y7.9979 Z-2.17147
X-7.95351 Y8.0184 Z-2.17514
X-7.96502 Y8.03572 Z-2.17881
X-7.98257 Y8.04686 Z-2.18247
X-8.00314 Y8.0499 Z-2.18614
X-8.02316 Y8.04431 Z-2.1898
X-8.03918 Y8.03106 Z-2.19347
X-8.04843 Y8.01244 Z-2.19714
X-8.0493 Y7.99166 Z-2.2008
X-8.04165 Y7.97233 Z-2.20447
X-8.02679 Y7.95778 Z-2.20813
X-8.00731 Y7.95054 Z-2.2118
X-7.98656 Y7.95184 Z-2.21547
X-7.96813 Y7.96147 Z-2.21913
X-7.95522 Y7.97777 Z-2.2228
X-7.95004 Y7.9979 Z-2.22647
X-7.95351 Y8.0184 Z-2.23013
X-7.96502 Y8.03572 Z-2.2338
X-7.98257 Y8.04686 Z-2.23746
X-8.00314 Y8.0499 Z-2.24113
X-8.02316 Y8.04431 Z-2.24479
X-8.03918 Y8.03106 Z-2.24846
X-8.04843 Y8.01244 Z-2.25213
X-8.0493 Y7.99166 Z-2.25579
X-8.04165 Y7.97233 Z-2.25946
X-8.02679 Y7.95778 Z-2.26313
X-8.00731 Y7.95054 Z-2.26679
X-7.98656 Y7.95184 Z-2.27046
X-7.96813 Y7.96147 Z-2.27412
X-7.95522 Y7.97777 Z-2.27779
X-7.95004 Y7.9979 Z-2.28146
X-7.95351 Y8.0184 Z-2.28512
X-7.96502 Y8.03572 Z-2.28879
X-7.98257 Y8.04686 Z-2.29245
X-8.00314 Y8.0499 Z-2.29612
X-8.02316 Y8.04431 Z-2.29979
X-8.03918 Y8.03106 Z-2.30345
X-8.04843 Y8.01244 Z-2.30712
X-8.0493 Y7.99166 Z-2.31078
X-8.04165 Y7.97233 Z-2.31445
X-8.02679 Y7.95778 Z-2.31812
X-8.00731 Y7.95054 Z-2.32178
X-7.98656 Y7.95184 Z-2.32545
X-7.96813 Y7.96147 Z-2.32911
X-7.95522 Y7.97777 Z-2.33278
X-7.95004 Y7.9979 Z-2.33645
X-7.95351 Y8.0184 Z-2.34011
X-7.96502 Y8.03572 Z-2.34378
X-7.98257 Y8.04686 Z-2.34744
X-8.00314 Y8.0499 Z-2.35111
X-8.02316 Y8.04431 Z-2.35478
X-8.03918 Y8.03106 Z-2.35844
X-8.04843 Y8.01244 Z-2.36211
X-8.0493 Y7.99166 Z-2.36577
X-8.04165 Y7.97233 Z-2.36944
X-8.02679 Y7.95778 Z-2.37311
X-8.00731 Y7.95054 Z-2.37677
X-7.98656 Y7.95184 Z-2.38044
X-7.96813 Y7.96147 Z-2.38411
X-7.95522 Y7.97777 Z-2.38777
X-7.95004 Y7.9979 Z-2.39144
X-7.95351 Y8.0184 Z-2.3951
X-7.96502 Y8.03572 Z-2.39877
X-7.98257 Y8.04686 Z-2.40244
X-8.00314 Y8.0499 Z-2.4061
X-8.02316 Y8.04431 Z-2.40977
X-8.03918 Y8.03106 Z-2.41343
X-8.04843 Y8.01244 Z-2.4171
X-8.0493 Y7.99166 Z-2.42076
X-8.04165 Y7.97233 Z-2.42443
X-8.02679 Y7.95778 Z-2.4281
X-8.00731 Y7.95054 Z-2.43176
X-7.98656 Y7.95184 Z-2.43543
X-7.96813 Y7.96147 Z-2.4391
X-7.95522 Y7.97777 Z-2.44276
X-7.95004 Y7.9979 Z-2.44643
X-7.95351 Y8.0184 Z-2.45009
X-7.96502 Y8.03572 Z-2.45376
X-7.98257 Y8.04686 Z-2.45743
X-8.00314 Y8.0499 Z-2.46109
X-8.02316 Y8.04431 Z-2.46476
X-8.03918 Y8.03106 Z-2.46842
X-8.04843 Y8.01244 Z-2.47209
X-8.0493 Y7.99166 Z-2.47576
X-8.04165 Y7.97233 Z-2.47942
X-8.02679 Y7.95778 Z-2.48309
X-8.00731 Y7.95054 Z-2.48675
X-7.98656 Y7.95184 Z-2.49042
X-7.96813 Y7.96147 Z-2.49409
X-7.95522 Y7.97777 Z-2.49775
X-7.95004 Y7.9979 Z-2.50142
X-7.95351 Y8.0184 Z-2.50508
X-7.96502 Y8.03572 Z-2.50875
X-7.98257 Y8.04686 Z-2.51242
X-8.00314 Y8.0499 Z-2.51608
X-8.02316 Y8.04431 Z-2.51975
X-8.03918 Y8.03106 Z-2.52341
X-8.04843 Y8.01244 Z-2.52708
X-8.0493 Y7.99166 Z-2.53075
X-8.04165 Y7.97233 Z-2.53441
X-8.02679 Y7.95778 Z-2.53808
X-8.00731 Y7.95054 Z-2.54174
X-7.98656 Y7.95184 Z-2.54541
X-7.96813 Y7.96147 Z-2.54908
X-7.95522 Y7.97777 Z-2.55274
X-7.95004 Y7.9979 Z-2.55641
X-7.95351 Y8.0184 Z-2.56008
X-7.96502 Y8.03572 Z-2.56374
X-7.98257 Y8.04686 Z-2.56741
X-8.00314 Y8.0499 Z-2.57107
X-8.02316 Y8.04431 Z-2.57474
X-8.03918 Y8.03106 Z-2.57841
X-8.04843 Y8.01244 Z-2.58207
X-8.0493 Y7.99166 Z-2.58574
X-8.04165 Y7.97233 Z-2.5894
X-8.02679 Y7.95778 Z-2.59307
X-8.00731 Y7.95054 Z-2.59674
X-7.98656 Y7.95184 Z-2.6004
X-7.96813 Y7.96147 Z-2.60407
X-7.95522 Y7.97777 Z-2.60773
X-7.95004 Y7.9979 Z-2.6114
X-7.95351 Y8.0184 Z-2.61506
X-7.96502 Y8.03572 Z-2.61873
X-7.98257 Y8.04686 Z-2.6224
X-8.00314 Y8.0499 Z-2.62606
X-8.02316 Y8.04431 Z-2.62973
X-8.03918 Y8.03106 Z-2.6334
X-8.04843 Y8.01244 Z-2.63706
X-8.0493 Y7.99166 Z-2.64073
X-8.04165 Y7.97233 Z-2.64439
X-8.02679 Y7.95778 Z-2.64806
X-8.00731 Y7.95054 Z-2.65173
X-7.98656 Y7.95184 Z-2.65539
X-7.96813 Y7.96147 Z-2.65906
X-7.95522 Y7.97777 Z-2.66272
X-7.95004 Y7.9979 Z-2.66639
X-7.95351 Y8.0184 Z-2.67006
X-7.96502 Y8.03572 Z-2.67372
X-7.98257 Y8.04686 Z-2.67739
X-8.00314 Y8.0499 Z-2.68105
X-8.02316 Y8.04431 Z-2.68472
X-8.03918 Y8.03106 Z-2.68839
X-8.04843 Y8.01244 Z-2.69205
X-8.0493 Y7.99166 Z-2.69572
X-8.04165 Y7.97233 Z-2.69938
X-8.02679 Y7.95778 Z-2.70305
X-8.00731 Y7.95054 Z-2.70672
X-7.98656 Y7.95184 Z-2.71038
X-7.96813 Y7.96147 Z-2.71405
X-7.95522 Y7.97777 Z-2.71772
X-7.95004 Y7.9979 Z-2.72138
X-7.95351 Y8.0184 Z-2.72505
X-7.96502 Y8.03572 Z-2.72871
X-7.98257 Y8.04686 Z-2.73238
X-8.00314 Y8.0499 Z-2.73605
X-8.02316 Y8.04431 Z-2.73971
X-8.03918 Y8.03106 Z-2.74338
X-8.04843 Y8.01244 Z-2.74704
X-8.0493 Y7.99166 Z-2.75071
X-8.04165 Y7.97233 Z-2.75438
X-8.02679 Y7.95778 Z-2.75804
X-8.00731 Y7.95054 Z-2.76171
X-7.98656 Y7.95184 Z-2.76537
X-7.96813 Y7.96147 Z-2.76904
X-7.95522 Y7.97777 Z-2.77271
X-7.95004 Y7.9979 Z-2.77637
X-7.95351 Y8.0184 Z-2.78004
X-7.96502 Y8.03572 Z-2.7837
X-7.98257 Y8.04686 Z-2.78737
X-8.00314 Y8.0499 Z-2.79104
X-8.02316 Y8.04431 Z-2.7947
X-8.03918 Y8.03106 Z-2.79837
X-8.04843 Y8.01244 Z-2.80203
X-8.0493 Y7.99166 Z-2.8057
X-8.04165 Y7.97233 Z-2.80937
X-8.02679 Y7.95778 Z-2.81303
X-8.00731 Y7.95054 Z-2.8167
X-7.98656 Y7.95184 Z-2.82036
X-7.96813 Y7.96147 Z-2.82403
X-7.95522 Y7.97777 Z-2.8277
X-7.95004 Y7.9979 Z-2.83136
X-7.95351 Y8.0184 Z-2.83503
X-7.96502 Y8.03572 Z-2.83869
X-7.98257 Y8.04686 Z-2.84236
X-8.00314 Y8.0499 Z-2.84603
X-8.02316 Y8.04431 Z-2.84969
X-8.03918 Y8.03106 Z-2.85336
X-8.04843 Y8.01244 Z-2.85702
X-8.0493 Y7.99166 Z-2.86069
X-8.04165 Y7.97233 Z-2.86436
X-8.02679 Y7.95778 Z-2.86802
X-8.00731 Y7.95054 Z-2.87169
X-7.98656 Y7.95184 Z-2.87535
X-7.96813 Y7.96147 Z-2.87902
X-7.95522 Y7.97777 Z-2.88269
X-7.95004 Y7.9979 Z-2.88635
X-7.95351 Y8.0184 Z-2.89002
X-7.96502 Y8.03572 Z-2.89369
X-7.98257 Y8.04686 Z-2.89735
X-8.00314 Y8.0499 Z-2.90102
X-8.02316 Y8.04431 Z-2.90468
X-8.03918 Y8.03106 Z-2.90835
X-8.04843 Y8.01244 Z-2.91202
X-8.0493 Y7.99166 Z-2.91568
X-8.04165 Y7.97233 Z-2.91935
X-8.02679 Y7.95778 Z-2.92301
X-8.00731 Y7.95054 Z-2.92668
X-7.98656 Y7.95184 Z-2.93035
X-7.96813 Y7.96147 Z-2.93401
X-7.95522 Y7.97777 Z-2.93768
X-7.95004 Y7.9979 Z-2.94134
X-7.95351 Y8.0184 Z-2.94501
X-7.96502 Y8.03572 Z-2.94868
X-7.98257 Y8.04686 Z-2.95234
X-8.00314 Y8.0499 Z-2.95601
X-8.02316 Y8.04431 Z-2.95967
X-8.03918 Y8.03106 Z-2.96334
X-8.04843 Y8.01244 Z-2.96701
X-8.0493 Y7.99166 Z-2.97067
X-8.04165 Y7.97233 Z-2.97434
X-8.02679 Y7.95778 Z-2.978
X-8.00731 Y7.95054 Z-2.98167
X-7.98656 Y7.95184 Z-2.98534
X-7.96813 Y7.96147 Z-2.989
X-7.95522 Y7.97777 Z-2.99267
X-7.95004 Y7.9979 Z-2.99633
X-7.95351 Y8.0184 Z-3.
G03 X-8.04649 Y7.98159 I-0.04649 J-0.0184 F961.
X-7.95351 Y8.0184 I0.04649 J0.01841
G0 Z1.
X-7.95223 Y7.9894
G1 Z-2.73 F240.2
X-7.95004 Y7.9979 Z-2.73155 F720.7
X-7.95351 Y8.0184 Z-2.73522
X-7.96502 Y8.03572 Z-2.73888
X-7.98257 Y8.04686 Z-2.74255
X-8.00314 Y8.0499 Z-2.74621
X-8.02316 Y8.04431 Z-2.74988
X-8.03918 Y8.03106 Z-2.75355
X-8.04843 Y8.01244 Z-2.75721
X-8.0493 Y7.99166 Z-2.76088
X-8.04165 Y7.97233 Z-2.76454
X-8.02679 Y7.95778 Z-2.76821
X-8.00731 Y7.95054 Z-2.77188
X-7.98656 Y7.95184 Z-2.77554
X-7.96813 Y7.96147 Z-2.77921
X-7.95522 Y7.97777 Z-2.78287
X-7.95004 Y7.9979 Z-2.78654
X-7.95351 Y8.0184 Z-2.79021
X-7.96502 Y8.03572 Z-2.79387
X-7.98257 Y8.04686 Z-2.79754
X-8.00314 Y8.0499 Z-2.8012
X-8.02316 Y8.04431 Z-2.80487
X-8.03918 Y8.03106 Z-2.80854
X-8.04843 Y8.01244 Z-2.8122
X-8.0493 Y7.99166 Z-2.81587
X-8.04165 Y7.97233 Z-2.81953
X-8.02679 Y7.95778 Z-2.8232
X-8.00731 Y7.95054 Z-2.82687
X-7.98656 Y7.95184 Z-2.83053
X-7.96813 Y7.96147 Z-2.8342
X-7.95522 Y7.97777 Z-2.83786
X-7.95004 Y7.9979 Z-2.84153
X-7.95351 Y8.0184 Z-2.8452
X-7.96502 Y8.03572 Z-2.84886
X-7.98257 Y8.04686 Z-2.85253
X-8.00314 Y8.0499 Z-2.85619
X-8.02316 Y8.04431 Z-2.85986
X-8.03918 Y8.03106 Z-2.86353
X-8.04843 Y8.01244 Z-2.86719
X-8.0493 Y7.99166 Z-2.87086
X-8.04165 Y7.97233 Z-2.87452
X-8.02679 Y7.95778 Z-2.87819
X-8.00731 Y7.95054 Z-2.88186
X-7.98656 Y7.95184 Z-2.88552
X-7.96813 Y7.96147 Z-2.88919
X-7.95522 Y7.97777 Z-2.89286
X-7.95004 Y7.9979 Z-2.89652
X-7.95351 Y8.0184 Z-2.90019
X-7.96502 Y8.03572 Z-2.90385
X-7.98257 Y8.04686 Z-2.90752
X-8.00314 Y8.0499 Z-2.91119
X-8.02316 Y8.04431 Z-2.91485
X-8.03918 Y8.03106 Z-2.91852
X-8.04843 Y8.01244 Z-2.92218
X-8.0493 Y7.99166 Z-2.92585
X-8.04165 Y7.97233 Z-2.92952
X-8.02679 Y7.95778 Z-2.93318
X-8.00731 Y7.95054 Z-2.93685
X-7.98656 Y7.95184 Z-2.94051
X-7.96813 Y7.96147 Z-2.94418
X-7.95522 Y7.97777 Z-2.94785
X-7.95004 Y7.9979 Z-2.95151
X-7.95351 Y8.0184 Z-2.95518
X-7.96502 Y8.03572 Z-2.95884
X-7.98257 Y8.04686 Z-2.96251
X-8.00314 Y8.0499 Z-2.96618
X-8.02316 Y8.04431 Z-2.96984
X-8.03918 Y8.03106 Z-2.97351
X-8.04843 Y8.01244 Z-2.97717
X-8.0493 Y7.99166 Z-2.98084
X-8.04165 Y7.97233 Z-2.98451
X-8.02679 Y7.95778 Z-2.98817
X-8.00731 Y7.95054 Z-2.99184
X-7.98656 Y7.95184 Z-2.9955
X-7.96813 Y7.96147 Z-2.99917
X-7.95522 Y7.97777 Z-3.00284
X-7.95004 Y7.9979 Z-3.0065
X-7.95351 Y8.0184 Z-3.01017
X-7.96502 Y8.03572 Z-3.01383
X-7.98257 Y8.04686 Z-3.0175
X-8.00314 Y8.0499 Z-3.02117
X-8.02316 Y8.04431 Z-3.02483
X-8.03918 Y8.03106 Z-3.0285
X-8.04843 Y8.01244 Z-3.03216
X-8.0493 Y7.99166 Z-3.03583
X-8.04165 Y7.97233 Z-3.0395
X-8.02679 Y7.95778 Z-3.04316
X-8.00731 Y7.95054 Z-3.04683
X-7.98656 Y7.95184 Z-3.0505
X-7.96813 Y7.96147 Z-3.05416
X-7.95522 Y7.97777 Z-3.05783
X-7.95004 Y7.9979 Z-3.06149
X-7.95351 Y8.0184 Z-3.06516
X-7.96502 Y8.03572 Z-3.06883
X-7.98257 Y8.04686 Z-3.07249
X-8.00314 Y8.0499 Z-3.07616
X-8.02316 Y8.04431 Z-3.07982
X-8.03918 Y8.03106 Z-3.08349
X-8.04843 Y8.01244 Z-3.08716
X-8.0493 Y7.99166 Z-3.09082
X-8.04165 Y7.97233 Z-3.09449
X-8.02679 Y7.95778 Z-3.09815
X-8.00731 Y7.95054 Z-3.10182
X-7.98656 Y7.95184 Z-3.10549
X-7.96813 Y7.96147 Z-3.10915
X-7.95522 Y7.97777 Z-3.11282
X-7.95004 Y7.9979 Z-3.11648
X-7.95351 Y8.0184 Z-3.12015
X-7.96502 Y8.03572 Z-3.12382
X-7.98257 Y8.04686 Z-3.12748
X-8.00314 Y8.0499 Z-3.13115
X-8.02316 Y8.04431 Z-3.13481
X-8.03918 Y8.03106 Z-3.13848
X-8.04843 Y8.01244 Z-3.14215
X-8.0493 Y7.99166 Z-3.14581
X-8.04165 Y7.97233 Z-3.14948
X-8.02679 Y7.95778 Z-3.15314
X-8.00731 Y7.95054 Z-3.15681
X-7.98656 Y7.95184 Z-3.16048
X-7.96813 Y7.96147 Z-3.16414
X-7.95522 Y7.97777 Z-3.16781
X-7.95004 Y7.9979 Z-3.17147
X-7.95351 Y8.0184 Z-3.17514
X-7.96502 Y8.03572 Z-3.17881
X-7.98257 Y8.04686 Z-3.18247
X-8.00314 Y8.0499 Z-3.18614
X-8.02316 Y8.04431 Z-3.1898
X-8.03918 Y8.03106 Z-3.19347
X-8.04843 Y8.01244 Z-3.19714
X-8.0493 Y7.99166 Z-3.2008
X-8.04165 Y7.97233 Z-3.20447
X-8.02679 Y7.95778 Z-3.20813
X-8.00731 Y7.95054 Z-3.2118
X-7.98656 Y7.95184 Z-3.21547
X-7.96813 Y7.96147 Z-3.21913
X-7.95522 Y7.97777 Z-3.2228
X-7.95004 Y7.9979 Z-3.22647
X-7.95351 Y8.0184 Z-3.23013
X-7.96502 Y8.03572 Z-3.2338
X-7.98257 Y8.04686 Z-3.23746
X-8.00314 Y8.0499 Z-3.24113
X-8.02316 Y8.04431 Z-3.2448
X-8.03918 Y8.03106 Z-3.24846
X-8.04843 Y8.01244 Z-3.25213
X-8.0493 Y7.99166 Z-3.25579
X-8.04165 Y7.97233 Z-3.25946
X-8.02679 Y7.95778 Z-3.26313
X-8.00731 Y7.95054 Z-3.26679
X-7.98656 Y7.95184 Z-3.27046
X-7.96813 Y7.96147 Z-3.27412
X-7.95522 Y7.97777 Z-3.27779
X-7.95004 Y7.9979 Z-3.28146
X-7.95351 Y8.0184 Z-3.28512
X-7.96502 Y8.03572 Z-3.28879
X-7.98257 Y8.04686 Z-3.29245
X-8.00314 Y8.0499 Z-3.29612
X-8.02316 Y8.04431 Z-3.29979
X-8.03918 Y8.03106 Z-3.30345
X-8.04843 Y8.01244 Z-3.30712
X-8.0493 Y7.99166 Z-3.31078
X-8.04165 Y7.97233 Z-3.31445
X-8.02679 Y7.95778 Z-3.31812
X-8.00731 Y7.95054 Z-3.32178
X-7.98656 Y7.95184 Z-3.32545
X-7.96813 Y7.96147 Z-3.32911
X-7.95522 Y7.97777 Z-3.33278
X-7.95004 Y7.9979 Z-3.33645
X-7.95351 Y8.0184 Z-3.34011
X-7.96502 Y8.03572 Z-3.34378
X-7.98257 Y8.04686 Z-3.34744
X-8.00314 Y8.0499 Z-3.35111
X-8.02316 Y8.04431 Z-3.35478
X-8.03918 Y8.03106 Z-3.35844
X-8.04843 Y8.01244 Z-3.36211
X-8.0493 Y7.99166 Z-3.36577
X-8.04165 Y7.97233 Z-3.36944
X-8.02679 Y7.95778 Z-3.37311
X-8.00731 Y7.95054 Z-3.37677
X-7.98656 Y7.95184 Z-3.38044
X-7.96813 Y7.96147 Z-3.3841
X-7.95522 Y7.97777 Z-3.38777
X-7.95004 Y7.9979 Z-3.39144
X-7.95351 Y8.0184 Z-3.3951
X-7.96502 Y8.03572 Z-3.39877
X-7.98257 Y8.04686 Z-3.40244
X-8.00314 Y8.0499 Z-3.4061
X-8.02316 Y8.04431 Z-3.40977
X-8.03918 Y8.03106 Z-3.41343
X-8.04843 Y8.01244 Z-3.4171
X-8.0493 Y7.99166 Z-3.42077
X-8.04165 Y7.97233 Z-3.42443
X-8.02679 Y7.95778 Z-3.4281
X-8.00731 Y7.95054 Z-3.43176
X-7.98656 Y7.95184 Z-3.43543
X-7.96813 Y7.96147 Z-3.4391
X-7.95522 Y7.97777 Z-3.44276
X-7.95004 Y7.9979 Z-3.44643
X-7.95351 Y8.0184 Z-3.45009
X-7.96502 Y8.03572 Z-3.45376
X-7.98257 Y8.04686 Z-3.45743
X-8.00314 Y8.0499 Z-3.46109
X-8.02316 Y8.04431 Z-3.46476
X-8.03918 Y8.03106 Z-3.46842
X-8.04843 Y8.01244 Z-3.47209
X-8.0493 Y7.99166 Z-3.47576
X-8.04165 Y7.97233 Z-3.47942
X-8.02679 Y7.95778 Z-3.48309
X-8.00731 Y7.95054 Z-3.48675
X-7.98656 Y7.95184 Z-3.49042
X-7.96813 Y7.96147 Z-3.49409
X-7.95522 Y7.97777 Z-3.49775
X-7.95004 Y7.9979 Z-3.50142
X-7.95351 Y8.0184 Z-3.50508
X-7.96502 Y8.03572 Z-3.50875
X-7.98257 Y8.04686 Z-3.51242
X-8.00314 Y8.0499 Z-3.51608
X-8.02316 Y8.04431 Z-3.51975
X-8.03918 Y8.03106 Z-3.52341
X-8.04843 Y8.01244 Z-3.52708
X-8.0493 Y7.99166 Z-3.53075
X-8.04165 Y7.97233 Z-3.53441
X-8.02679 Y7.95778 Z-3.53808
X-8.00731 Y7.95054 Z-3.54174
X-7.98656 Y7.95184 Z-3.54541
X-7.96813 Y7.96147 Z-3.54908
X-7.95522 Y7.97777 Z-3.55274
X-7.95004 Y7.9979 Z-3.55641
X-7.95351 Y8.0184 Z-3.56008
X-7.96502 Y8.03572 Z-3.56374
X-7.98257 Y8.04686 Z-3.56741
X-8.00314 Y8.0499 Z-3.57107
X-8.02316 Y8.04431 Z-3.57474
X-8.03918 Y8.03106 Z-3.57841
X-8.04843 Y8.01244 Z-3.58207
X-8.0493 Y7.99166 Z-3.58574
X-8.04165 Y7.97233 Z-3.5894
X-8.02679 Y7.95778 Z-3.59307
X-8.00731 Y7.95054 Z-3.59674
X-7.98656 Y7.95184 Z-3.6004
X-7.96813 Y7.96147 Z-3.60407
X-7.95522 Y7.97777 Z-3.60773
X-7.95004 Y7.9979 Z-3.6114
X-7.95351 Y8.0184 Z-3.61506
X-7.96502 Y8.03572 Z-3.61873
X-7.98257 Y8.04686 Z-3.6224
X-8.00314 Y8.0499 Z-3.62606
X-8.02316 Y8.04431 Z-3.62973
X-8.03918 Y8.03106 Z-3.6334
X-8.04843 Y8.01244 Z-3.63706
X-8.0493 Y7.99166 Z-3.64073
X-8.04165 Y7.97233 Z-3.64439
X-8.02679 Y7.95778 Z-3.64806
X-8.00731 Y7.95054 Z-3.65173
X-7.98656 Y7.95184 Z-3.65539
X-7.96813 Y7.96147 Z-3.65906
X-7.95522 Y7.97777 Z-3.66272
X-7.95004 Y7.9979 Z-3.66639
X-7.95351 Y8.0184 Z-3.67006
X-7.96502 Y8.03572 Z-3.67372
X-7.98257 Y8.04686 Z-3.67739
X-8.00314 Y8.0499 Z-3.68105
X-8.02316 Y8.04431 Z-3.68472
X-8.03918 Y8.03106 Z-3.68839
X-8.04843 Y8.01244 Z-3.69205
X-8.0493 Y7.99166 Z-3.69572
X-8.04165 Y7.97233 Z-3.69938
X-8.02679 Y7.95778 Z-3.70305
X-8.00731 Y7.95054 Z-3.70672
X-7.98656 Y7.95184 Z-3.71038
X-7.96813 Y7.96147 Z-3.71405
X-7.95522 Y7.97777 Z-3.71771
X-7.95004 Y7.9979 Z-3.72138
X-7.95351 Y8.0184 Z-3.72505
X-7.96502 Y8.03572 Z-3.72871
X-7.98257 Y8.04686 Z-3.73238
X-8.00314 Y8.0499 Z-3.73605
X-8.02316 Y8.04431 Z-3.73971
X-8.03918 Y8.03106 Z-3.74338
X-8.04843 Y8.01244 Z-3.74704
X-8.0493 Y7.99166 Z-3.75071
X-8.04165 Y7.97233 Z-3.75438
X-8.02679 Y7.95778 Z-3.75804
X-8.00731 Y7.95054 Z-3.76171
X-7.98656 Y7.95184 Z-3.76537
X-7.96813 Y7.96147 Z-3.76904
X-7.95522 Y7.97777 Z-3.77271
X-7.95004 Y7.9979 Z-3.77637
X-7.95351 Y8.0184 Z-3.78004
X-7.96502 Y8.03572 Z-3.7837
X-7.98257 Y8.04686 Z-3.78737
X-8.00314 Y8.0499 Z-3.79104
X-8.02316 Y8.04431 Z-3.7947
X-8.03918 Y8.03106 Z-3.79837
X-8.04843 Y8.01244 Z-3.80203
X-8.0493 Y7.99166 Z-3.8057
X-8.04165 Y7.97233 Z-3.80937
X-8.02679 Y7.95778 Z-3.81303
X-8.00731 Y7.95054 Z-3.8167
X-7.98656 Y7.95184 Z-3.82036
X-7.96813 Y7.96147 Z-3.82403
X-7.95522 Y7.97777 Z-3.8277
X-7.95004 Y7.9979 Z-3.83136
X-7.95351 Y8.0184 Z-3.83503
X-7.96502 Y8.03572 Z-3.83869
X-7.98257 Y8.04686 Z-3.84236
X-8.00314 Y8.0499 Z-3.84603
X-8.02316 Y8.04431 Z-3.84969
X-8.03918 Y8.03106 Z-3.85336
X-8.04843 Y8.01244 Z-3.85702
X-8.0493 Y7.99166 Z-3.86069
X-8.04165 Y7.97233 Z-3.86436
X-8.02679 Y7.95778 Z-3.86802
X-8.00731 Y7.95054 Z-3.87169
X-7.98656 Y7.95184 Z-3.87535
X-7.96813 Y7.96147 Z-3.87902
X-7.95522 Y7.97777 Z-3.88269
X-7.95004 Y7.9979 Z-3.88635
X-7.95351 Y8.0184 Z-3.89002
X-7.96502 Y8.03572 Z-3.89369
X-7.98257 Y8.04686 Z-3.89735
X-8.00314 Y8.0499 Z-3.90102
X-8.02316 Y8.04431 Z-3.90468
X-8.03918 Y8.03106 Z-3.90835
X-8.04843 Y8.01244 Z-3.91201
X-8.0493 Y7.99166 Z-3.91568
X-8.04165 Y7.97233 Z-3.91935
X-8.02679 Y7.95778 Z-3.92301
X-8.00731 Y7.95054 Z-3.92668
X-7.98656 Y7.95184 Z-3.93035
X-7.96813 Y7.96147 Z-3.93401
X-7.95522 Y7.97777 Z-3.93768
X-7.95004 Y7.9979 Z-3.94134
X-7.95351 Y8.0184 Z-3.94501
X-7.96502 Y8.03572 Z-3.94868
X-7.98257 Y8.04686 Z-3.95234
X-8.00314 Y8.0499 Z-3.95601
X-8.02316 Y8.04431 Z-3.95967
X-8.03918 Y8.03106 Z-3.96334
X-8.04843 Y8.01244 Z-3.96701
X-8.0493 Y7.99166 Z-3.97067
X-8.04165 Y7.97233 Z-3.97434
X-8.02679 Y7.95778 Z-3.978
X-8.00731 Y7.95054 Z-3.98167
X-7.98656 Y7.95184 Z-3.98534
X-7.96813 Y7.96147 Z-3.989
X-7.95522 Y7.97777 Z-3.99267
X-7.95004 Y7.9979 Z-3.99633
X-7.95351 Y8.0184 Z-4.
G03 X-8.04649 Y7.98159 I-0.04649 J-0.0184 F961.
X-7.95351 Y8.0184 I0.04649 J0.01841
G0 Z1.
X7.94985 Y8.06936
G1 Z0.27 F240.2
X7.9381 Y8.06025 Z0.26738 F720.7
X7.92945 Y8.04796 Z0.26473
X7.92481 Y8.03367 Z0.26208
X7.92457 Y8.01865 Z0.25943
X7.92876 Y8.00422 Z0.25678
X7.93701 Y7.99166 Z0.25413
X7.94859 Y7.98208 Z0.25148
X7.96247 Y7.97634 Z0.24883
X7.97743 Y7.97493 Z0.24618
X7.99214 Y7.97798 Z0.24353
X8.0053 Y7.98522 Z0.24089
X8.01575 Y7.99602 Z0.23824
X8.02256 Y8.00941 Z0.23559
X7.97903 Y8.07569 Z0.2216
X7.96403 Y8.07475 Z0.21895
X7.94997 Y8.06945 Z0.21631
X7.9381 Y8.06025 Z0.21366
X7.92945 Y8.04796 Z0.21101
X7.92481 Y8.03367 Z0.20836
X7.92457 Y8.01865 Z0.20571
X7.92876 Y8.00422 Z0.20306
X7.93701 Y7.99166 Z0.20041
X7.94859 Y7.98208 Z0.19776
X7.96247 Y7.97634 Z0.19511
X7.97743 Y7.97493 Z0.19246
X7.99214 Y7.97798 Z0.18981
X8.0053 Y7.98522 Z0.18716
X8.01575 Y7.99602 Z0.18451
X8.02256 Y8.00941 Z0.18187
X7.97903 Y8.07569 Z0.16788
X7.96403 Y8.07475 Z0.16523
X7.94997 Y8.06945 Z0.16259
X7.9381 Y8.06025 Z0.15994
X7.92945 Y8.04796 Z0.15729
X7.92481 Y8.03367 Z0.15464
X7.92457 Y8.01865 Z0.15199
X7.92876 Y8.00422 Z0.14934
X7.93701 Y7.99166 Z0.14669
X7.94859 Y7.98208 Z0.14404
X7.96247 Y7.97634 Z0.14139
X7.97743 Y7.97493 Z0.13874
X7.99214 Y7.97798 Z0.13609
X8.0053 Y7.98522 Z0.13344
X8.01575 Y7.99602 Z0.13079
X8.02256 Y8.00941 Z0.12814
X7.97903 Y8.07569 Z0.11416
X7.96403 Y8.07475 Z0.11151
X7.94997 Y8.06945 Z0.10886
X7.9381 Y8.06025 Z0.10621
X7.92945 Y8.04796 Z0.10356
X7.92481 Y8.03367 Z0.10092
X7.92457 Y8.01865 Z0.09827
X7.92876 Y8.00422 Z0.09562
X7.93701 Y7.99166 Z0.09297
X7.94859 Y7.98208 Z0.09032
X7.96247 Y7.97634 Z0.08767
X7.97743 Y7.97493 Z0.08502
X7.99214 Y7.97798 Z0.08237
X8.0053 Y7.98522 Z0.07972
X8.01575 Y7.99602 Z0.07707
X8.02256 Y8.00941 Z0.07442
X7.97903 Y8.07569 Z0.06044
X7.96403 Y8.07475 Z0.05779
X7.94997 Y8.06945 Z0.05514
X7.9381 Y8.06025 Z0.05249
X7.92945 Y8.04796 Z0.04984
X7.92481 Y8.03367 Z0.04719
X7.92457 Y8.01865 Z0.04455
X7.92876 Y8.00422 Z0.0419
X7.93701 Y7.99166 Z0.03925
X7.94859 Y7.98208 Z0.0366
X7.96247 Y7.97634 Z0.03395
X7.97743 Y7.97493 Z0.0313
X7.99214 Y7.97798 Z0.02865
X8.0053 Y7.98522 Z0.026
X8.01575 Y7.99602 Z0.02335
X8.02256 Y8.00941 Z0.0207
X7.97903 Y8.07569 Z0.00672
X7.96403 Y8.07475 Z0.00407
X7.94997 Y8.06945 Z0.00142
X7.9381 Y8.06025 Z-0.00123
X7.92945 Y8.04796 Z-0.00388
X7.92481 Y8.03367 Z-0.00653
X7.92457 Y8.01865 Z-0.00918
X7.92876 Y8.00422 Z-0.01183
X7.93701 Y7.99166 Z-0.01447
X7.94859 Y7.98208 Z-0.01712
X7.96247 Y7.97634 Z-0.01977
X7.97743 Y7.97493 Z-0.02242
X7.99214 Y7.97798 Z-0.02507
X8.0053 Y7.98522 Z-0.02772
X8.01575 Y7.99602 Z-0.03037
X8.02256 Y8.00941 Z-0.03302
X7.97903 Y8.07569 Z-0.047
X7.96403 Y8.07475 Z-0.04965
X7.94997 Y8.06945 Z-0.0523
X7.9381 Y8.06025 Z-0.05495
X7.92945 Y8.04796 Z-0.0576
X7.92481 Y8.03367 Z-0.06025
X7.92457 Y8.01865 Z-0.0629
X7.92876 Y8.00422 Z-0.06555
X7.93701 Y7.99166 Z-0.0682
X7.94859 Y7.98208 Z-0.07085
X7.96247 Y7.97634 Z-0.07349
X7.97743 Y7.97493 Z-0.07614
X7.99214 Y7.97798 Z-0.07879
X8.0053 Y7.98522 Z-0.08144
X8.01575 Y7.99602 Z-0.08409
X8.02256 Y8.00941 Z-0.08674
X7.97903 Y8.07569 Z-0.10072
X7.96403 Y8.07475 Z-0.10337
X7.94997 Y8.06945 Z-0.10602
X7.9381 Y8.06025 Z-0.10867
X7.92945 Y8.04796 Z-0.11132
X7.92481 Y8.03367 Z-0.11397
X7.92457 Y8.01865 Z-0.11662
X7.92876 Y8.00422 Z-0.11927
X7.93701 Y7.99166 Z-0.12192
X7.94859 Y7.98208 Z-0.12457
X7.96247 Y7.97634 Z-0.12721
X7.97743 Y7.97493 Z-0.12986
X7.99214 Y7.97798 Z-0.13251
X8.0053 Y7.98522 Z-0.13516
X8.01575 Y7.99602 Z-0.13781
X8.02256 Y8.00941 Z-0.14046
X7.97903 Y8.07569 Z-0.15444
X7.96403 Y8.07475 Z-0.15709
X7.94997 Y8.06945 Z-0.15974
X7.9381 Y8.06025 Z-0.16239
X7.92945 Y8.04796 Z-0.16504
X7.92481 Y8.03367 Z-0.16769
X7.92457 Y8.01865 Z-0.17034
X7.92876 Y8.00422 Z-0.17299
X7.93701 Y7.99166 Z-0.17564
X7.94859 Y7.98208 Z-0.17829
X7.96247 Y7.97634 Z-0.18094
X7.97743 Y7.97493 Z-0.18359
X7.99214 Y7.97798 Z-0.18624
X8.0053 Y7.98522 Z-0.18888
X8.01575 Y7.99602 Z-0.19153
X8.02256 Y8.00941 Z-0.19418
X7.97903 Y8.07569 Z-0.20816
X7.96403 Y8.07475 Z-0.21081
X7.94997 Y8.06945 Z-0.21346
X7.9381 Y8.06025 Z-0.21611
X7.92945 Y8.04796 Z-0.21876
X7.92481 Y8.03367 Z-0.22141
X7.92457 Y8.01865 Z-0.22406
X7.92876 Y8.00422 Z-0.22671
X7.93701 Y7.99166 Z-0.22936
X7.94859 Y7.98208 Z-0.23201
X7.96247 Y7.97634 Z-0.23466
X7.97743 Y7.97493 Z-0.23731
X7.99214 Y7.97798 Z-0.23996
X8.0053 Y7.98522 Z-0.24261
X8.01575 Y7.99602 Z-0.24525
X8.02256 Y8.00941 Z-0.2479
X7.97903 Y8.07569 Z-0.26189
X7.96403 Y8.07475 Z-0.26454
X7.94997 Y8.06945 Z-0.26719
X7.9381 Y8.06025 Z-0.26983
X7.92945 Y8.04796 Z-0.27248
X7.92481 Y8.03367 Z-0.27513
X7.92457 Y8.01865 Z-0.27778
X7.92876 Y8.00422 Z-0.28043
X7.93701 Y7.99166 Z-0.28308
X7.94859 Y7.98208 Z-0.28573
X7.96247 Y7.97634 Z-0.28838
X7.97743 Y7.97493 Z-0.29103
X7.99214 Y7.97798 Z-0.29368
X8.0053 Y7.98522 Z-0.29633
X8.01575 Y7.99602 Z-0.29898
X8.02256 Y8.00941 Z-0.30163
X7.97903 Y8.07569 Z-0.31561
X7.96403 Y8.07475 Z-0.31826
X7.94997 Y8.06945 Z-0.32091
X7.9381 Y8.06025 Z-0.32356
X7.92945 Y8.04796 Z-0.3262
X7.92481 Y8.03367 Z-0.32885
X7.92457 Y8.01865 Z-0.3315
X7.92876 Y8.00422 Z-0.33415
X7.93701 Y7.99166 Z-0.3368
X7.94859 Y7.98208 Z-0.33945
X7.96247 Y7.97634 Z-0.3421
X7.97743 Y7.97493 Z-0.34475
X7.99214 Y7.97798 Z-0.3474
X8.0053 Y7.98522 Z-0.35005
X8.01575 Y7.99602 Z-0.3527
X8.02256 Y8.00941 Z-0.35535
X7.97903 Y8.07569 Z-0.36933
X7.96403 Y8.07475 Z-0.37198
X7.94997 Y8.06945 Z-0.37463
X7.9381 Y8.06025 Z-0.37728
X7.92945 Y8.04796 Z-0.37993
X7.92481 Y8.03367 Z-0.38258
X7.92457 Y8.01865 Z-0.38522
X7.92876 Y8.00422 Z-0.38787
X7.93701 Y7.99166 Z-0.39052
X7.94859 Y7.98208 Z-0.39317
X7.96247 Y7.97634 Z-0.39582
X7.97743 Y7.97493 Z-0.39847
X7.99214 Y7.97798 Z-0.40112
X8.0053 Y7.98522 Z-0.40377
X8.01575 Y7.99602 Z-0.40642
X8.02256 Y8.00941 Z-0.40907
X7.97903 Y8.07569 Z-0.42305
X7.96403 Y8.07475 Z-0.4257
X7.94997 Y8.06945 Z-0.42835
X7.9381 Y8.06025 Z-0.431
X7.92945 Y8.04796 Z-0.43365
X7.92481 Y8.03367 Z-0.4363
X7.92457 Y8.01865 Z-0.43895
X7.92876 Y8.00422 Z-0.44159
X7.93701 Y7.99166 Z-0.44424
X7.94859 Y7.98208 Z-0.44689
X7.96247 Y7.97634 Z-0.44954
X7.97743 Y7.97493 Z-0.45219
X7.99214 Y7.97798 Z-0.45484
X8.0053 Y7.98522 Z-0.45749
X8.01575 Y7.99602 Z-0.46014
X8.02256 Y8.00941 Z-0.46279
X7.97903 Y8.07569 Z-0.47677
X7.96403 Y8.07475 Z-0.47942
X7.94997 Y8.06945 Z-0.48207
X7.9381 Y8.06025 Z-0.48472
X7.92945 Y8.04796 Z-0.48737
X7.92481 Y8.03367 Z-0.49002
X7.92457 Y8.01865 Z-0.49267
X7.92876 Y8.00422 Z-0.49532
X7.93701 Y7.99166 Z-0.49797
X7.94859 Y7.98208 Z-0.50061
X7.96247 Y7.97634 Z-0.50326
X7.97743 Y7.97493 Z-0.50591
X7.99214 Y7.97798 Z-0.50856
X8.0053 Y7.98522 Z-0.51121
X8.01575 Y7.99602 Z-0.51386
X8.02256 Y8.00941 Z-0.51651
X7.97903 Y8.07569 Z-0.53049
X7.96403 Y8.07475 Z-0.53314
X7.94997 Y8.06945 Z-0.53579
X7.9381 Y8.06025 Z-0.53844
X7.92945 Y8.04796 Z-0.54109
X7.92481 Y8.03367 Z-0.54374
X7.92457 Y8.01865 Z-0.54639
X7.92876 Y8.00422 Z-0.54904
X7.93701 Y7.99166 Z-0.55169
X7.94859 Y7.98208 Z-0.55434
X7.96247 Y7.97634 Z-0.55698
X7.97743 Y7.97493 Z-0.55963
X7.99214 Y7.97798 Z-0.56228
X8.0053 Y7.98522 Z-0.56493
X8.01575 Y7.99602 Z-0.56758
X8.02256 Y8.00941 Z-0.57023
X7.97903 Y8.07569 Z-0.58421
X7.96403 Y8.07475 Z-0.58686
X7.94997 Y8.06945 Z-0.58951
X7.9381 Y8.06025 Z-0.59216
X7.92945 Y8.04796 Z-0.59481
X7.92481 Y8.03367 Z-0.59746
X7.92457 Y8.01865 Z-0.60011
X7.92876 Y8.00422 Z-0.60276
X7.93701 Y7.99166 Z-0.60541
X7.94859 Y7.98208 Z-0.60806
X7.96247 Y7.97634 Z-0.61071
X7.97743 Y7.97493 Z-0.61336
X7.99214 Y7.97798 Z-0.616
X8.0053 Y7.98522 Z-0.61865
X8.01575 Y7.99602 Z-0.6213
X8.02256 Y8.00941 Z-0.62395
X7.97903 Y8.07569 Z-0.63793
X7.96403 Y8.07475 Z-0.64058
X7.94997 Y8.06945 Z-0.64323
X7.9381 Y8.06025 Z-0.64588
X7.92945 Y8.04796 Z-0.64853
X7.92481 Y8.03367 Z-0.65118
X7.92457 Y8.01865 Z-0.65383
X7.92876 Y8.00422 Z-0.65648
X7.93701 Y7.99166 Z-0.65913
X7.94859 Y7.98208 Z-0.66178
X7.96247 Y7.97634 Z-0.66443
X7.97743 Y7.97493 Z-0.66708
X7.99214 Y7.97798 Z-0.66972
X8.0053 Y7.98522 Z-0.67237
X8.01575 Y7.99602 Z-0.67502
X8.02256 Y8.00941 Z-0.67767
X7.97903 Y8.07569 Z-0.69166
X7.96403 Y8.07475 Z-0.69431
X7.94997 Y8.06945 Z-0.69695
X7.9381 Y8.06025 Z-0.6996
X7.92945 Y8.04796 Z-0.70225
X7.92481 Y8.03367 Z-0.7049
X7.92457 Y8.01865 Z-0.70755
X7.92876 Y8.00422 Z-0.7102
X7.93701 Y7.99166 Z-0.71285
X7.94859 Y7.98208 Z-0.7155
X7.96247 Y7.97634 Z-0.71815
X7.97743 Y7.97493 Z-0.7208
X7.99214 Y7.97798 Z-0.72345
X8.0053 Y7.98522 Z-0.7261
X8.01575 Y7.99602 Z-0.72875
X8.02256 Y8.00941 Z-0.73139
X7.97903 Y8.07569 Z-0.74538
X7.96403 Y8.07475 Z-0.74803
X7.94997 Y8.06945 Z-0.75068
X7.9381 Y8.06025 Z-0.75332
X7.92945 Y8.04796 Z-0.75597
X7.92481 Y8.03367 Z-0.75862
X7.92457 Y8.01865 Z-0.76127
X7.92876 Y8.00422 Z-0.76392
X7.93701 Y7.99166 Z-0.76657
X7.94859 Y7.98208 Z-0.76922
X7.96247 Y7.97634 Z-0.77187
X7.97743 Y7.97493 Z-0.77452
X7.99214 Y7.97798 Z-0.77717
X8.0053 Y7.98522 Z-0.77982
X8.01575 Y7.99602 Z-0.78247
X8.02256 Y8.00941 Z-0.78512
X7.97903 Y8.07569 Z-0.7991
X7.96403 Y8.07475 Z-0.80175
X7.94997 Y8.06945 Z-0.8044
X7.9381 Y8.06025 Z-0.80705
X7.92945 Y8.04796 Z-0.80969
X7.92481 Y8.03367 Z-0.81234
X7.92457 Y8.01865 Z-0.81499
X7.92876 Y8.00422 Z-0.81764
X7.93701 Y7.99166 Z-0.82029
X7.94859 Y7.98208 Z-0.82294
X7.96247 Y7.97634 Z-0.82559
X7.97743 Y7.97493 Z-0.82824
X7.99214 Y7.97798 Z-0.83089
X8.0053 Y7.98522 Z-0.83354
X8.01575 Y7.99602 Z-0.83619
X8.02256 Y8.00941 Z-0.83884
X7.97903 Y8.07569 Z-0.85282
X7.96403 Y8.07475 Z-0.85547
X7.94997 Y8.06945 Z-0.85812
X7.9381 Y8.06025 Z-0.86077
X7.92945 Y8.04796 Z-0.86342
X7.92481 Y8.03367 Z-0.86607
X7.92457 Y8.01865 Z-0.86871
X7.92876 Y8.00422 Z-0.87136
X7.93701 Y7.99166 Z-0.87401
X7.94859 Y7.98208 Z-0.87666
X7.96247 Y7.97634 Z-0.87931
X7.97743 Y7.97493 Z-0.88196
X7.99214 Y7.97798 Z-0.88461
X8.0053 Y7.98522 Z-0.88726
X8.01575 Y7.99602 Z-0.88991
X8.02256 Y8.00941 Z-0.89256
X7.97903 Y8.07569 Z-0.90654
X7.96403 Y8.07475 Z-0.90919
X7.94997 Y8.06945 Z-0.91184
X7.9381 Y8.06025 Z-0.91449
X7.92945 Y8.04796 Z-0.91714
X7.92481 Y8.03367 Z-0.91979
X7.92457 Y8.01865 Z-0.92244
X7.92876 Y8.00422 Z-0.92509
X7.93701 Y7.99166 Z-0.92773
X7.94859 Y7.98208 Z-0.93038
X7.96247 Y7.97634 Z-0.93303
X7.97743 Y7.97493 Z-0.93568
X7.99214 Y7.97798 Z-0.93833
X8.0053 Y7.98522 Z-0.94098
X8.01575 Y7.99602 Z-0.94363
X8.02256 Y8.00941 Z-0.94628
X7.97903 Y8.07569 Z-0.96026
X7.96403 Y8.07475 Z-0.96291
X7.94997 Y8.06945 Z-0.96556
X7.9381 Y8.06025 Z-0.96821
X7.92945 Y8.04796 Z-0.97086
X7.92481 Y8.03367 Z-0.97351
X7.92457 Y8.01865 Z-0.97616
X7.92876 Y8.00422 Z-0.97881
X7.93701 Y7.99166 Z-0.98146
X7.94859 Y7.98208 Z-0.9841
X7.96247 Y7.97634 Z-0.98675
X7.97743 Y7.97493 Z-0.9894
X7.99214 Y7.97798 Z-0.99205
X8.0053 Y7.98522 Z-0.9947
X8.01575 Y7.99602 Z-0.99735
X8.02256 Y8.00941 Z-1.
X7.97903 Y8.07569 F961.
G03 X8.02256 Y8.00941 I-0.00439 J-0.05033
G0 Z1.
X7.94985 Y8.06936
G1 Z-0.73 F240.2
X7.9381 Y8.06025 Z-0.73262 F720.7
X7.92945 Y8.04796 Z-0.73527
X7.92481 Y8.03367 Z-0.73792
X7.92457 Y8.01865 Z-0.74057
X7.92876 Y8.00422 Z-0.74322
X7.93701 Y7.99166 Z-0.74587
X7.94859 Y7.98208 Z-0.74852
X7.96247 Y7.97634 Z-0.75117
X7.97743 Y7.97493 Z-0.75382
X7.99214 Y7.97798 Z-0.75647
X8.0053 Y7.98522 Z-0.75911
X8.01575 Y7.99602 Z-0.76176
X8.02256 Y8.00941 Z-0.76441
X7.97903 Y8.07569 Z-0.77839
X7.96403 Y8.07475 Z-0.78105
X7.94997 Y8.06945 Z-0.78369
X7.9381 Y8.06025 Z-0.78634
X7.92945 Y8.04796 Z-0.78899
X7.92481 Y8.03367 Z-0.79164
X7.92457 Y8.01865 Z-0.79429
X7.92876 Y8.00422 Z-0.79694
X7.93701 Y7.99166 Z-0.79959
X7.94859 Y7.98208 Z-0.80224
X7.96247 Y7.97634 Z-0.80489
X7.97743 Y7.97493 Z-0.80754
X7.99214 Y7.97798 Z-0.81019
X8.0053 Y7.98522 Z-0.81284
X8.01575 Y7.99602 Z-0.81548
X8.02256 Y8.00941 Z-0.81813
X7.97903 Y8.07569 Z-0.83212
X7.96403 Y8.07475 Z-0.83477
X7.94997 Y8.06945 Z-0.83742
X7.9381 Y8.06025 Z-0.84006
X7.92945 Y8.04796 Z-0.84271
X7.92481 Y8.03367 Z-0.84536
X7.92457 Y8.01865 Z-0.84801
X7.92876 Y8.00422 Z-0.85066
X7.93701 Y7.99166 Z-0.85331
X7.94859 Y7.98208 Z-0.85596
X7.96247 Y7.97634 Z-0.85861
X7.97743 Y7.97493 Z-0.86126
X7.99214 Y7.97798 Z-0.86391
X8.0053 Y7.98522 Z-0.86656
X8.01575 Y7.99602 Z-0.86921
X8.02256 Y8.00941 Z-0.87186
X7.97903 Y8.07569 Z-0.88584
X7.96403 Y8.07475 Z-0.88849
X7.94997 Y8.06945 Z-0.89114
X7.9381 Y8.06025 Z-0.89379
X7.92945 Y8.04796 Z-0.89643
X7.92481 Y8.03367 Z-0.89908
X7.92457 Y8.01865 Z-0.90173
X7.92876 Y8.00422 Z-0.90438
X7.93701 Y7.99166 Z-0.90703
X7.94859 Y7.98208 Z-0.90968
X7.96247 Y7.97634 Z-0.91233
X7.97743 Y7.97493 Z-0.91498
X7.99214 Y7.97798 Z-0.91763
X8.0053 Y7.98522 Z-0.92028
X8.01575 Y7.99602 Z-0.92293
X8.02256 Y8.00941 Z-0.92558
X7.97903 Y8.07569 Z-0.93956
X7.96403 Y8.07475 Z-0.94221
X7.94997 Y8.06945 Z-0.94486
X7.9381 Y8.06025 Z-0.94751
X7.92945 Y8.04796 Z-0.95016
X7.92481 Y8.03367 Z-0.95281
X7.92457 Y8.01865 Z-0.95545
X7.92876 Y8.00422 Z-0.9581
X7.93701 Y7.99166 Z-0.96075
X7.94859 Y7.98208 Z-0.9634
X7.96247 Y7.97634 Z-0.96605
X7.97743 Y7.97493 Z-0.9687
X7.99214 Y7.97798 Z-0.97135
X8.0053 Y7.98522 Z-0.974
X8.01575 Y7.99602 Z-0.97665
X8.02256 Y8.00941 Z-0.9793
X7.97903 Y8.07569 Z-0.99328
X7.96403 Y8.07475 Z-0.99593
X7.94997 Y8.06945 Z-0.99858
X7.9381 Y8.06025 Z-1.00123
X7.92945 Y8.04796 Z-1.00388
X7.92481 Y8.03367 Z-1.00653
X7.92457 Y8.01865 Z-1.00918
X7.92876 Y8.00422 Z-1.01183
X7.93701 Y7.99166 Z-1.01447
X7.94859 Y7.98208 Z-1.01712
X7.96247 Y7.97634 Z-1.01977
X7.97743 Y7.97493 Z-1.02242
X7.99214 Y7.97798 Z-1.02507
X8.0053 Y7.98522 Z-1.02772
X8.01575 Y7.99602 Z-1.03037
X8.02256 Y8.00941 Z-1.03302
X7.97903 Y8.07569 Z-1.047
X7.96403 Y8.07475 Z-1.04965
X7.94997 Y8.06945 Z-1.0523
X7.9381 Y8.06025 Z-1.05495
X7.92945 Y8.04796 Z-1.0576
X7.92481 Y8.03367 Z-1.06025
X7.92457 Y8.01865 Z-1.0629
X7.92876 Y8.00422 Z-1.06555
X7.93701 Y7.99166 Z-1.0682
X7.94859 Y7.98208 Z-1.07085
X7.96247 Y7.97634 Z-1.07349
X7.97743 Y7.97493 Z-1.07614
X7.99214 Y7.97798 Z-1.07879
X8.0053 Y7.98522 Z-1.08144
X8.01575 Y7.99602 Z-1.08409
X8.02256 Y8.00941 Z-1.08674
X7.97903 Y8.07569 Z-1.10072
X7.96403 Y8.07475 Z-1.10337
X7.94997 Y8.06945 Z-1.10602
X7.9381 Y8.06025 Z-1.10867
X7.92945 Y8.04796 Z-1.11132
X7.92481 Y8.03367 Z-1.11397
X7.92457 Y8.01865 Z-1.11662
X7.92876 Y8.00422 Z-1.11927
X7.93701 Y7.99166 Z-1.12192
X7.94859 Y7.98208 Z-1.12457
X7.96247 Y7.97634 Z-1.12722
X7.97743 Y7.97493 Z-1.12986
X7.99214 Y7.97798 Z-1.13251
X8.0053 Y7.98522 Z-1.13516
X8.01575 Y7.99602 Z-1.13781
X8.02256 Y8.00941 Z-1.14046
X7.97903 Y8.07569 Z-1.15444
X7.96403 Y8.07475 Z-1.15709
X7.94997 Y8.06945 Z-1.15974
X7.9381 Y8.06025 Z-1.16239
X7.92945 Y8.04796 Z-1.16504
X7.92481 Y8.03367 Z-1.16769
X7.92457 Y8.01865 Z-1.17034
X7.92876 Y8.00422 Z-1.17299
X7.93701 Y7.99166 Z-1.17564
X7.94859 Y7.98208 Z-1.17829
X7.96247 Y7.97634 Z-1.18094
X7.97743 Y7.97493 Z-1.18359
X7.99214 Y7.97798 Z-1.18623
X8.0053 Y7.98522 Z-1.18888
X8.01575 Y7.99602 Z-1.19153
X8.02256 Y8.00941 Z-1.19418
X7.97903 Y8.07569 Z-1.20817
X7.96403 Y8.07475 Z-1.21081
X7.94997 Y8.06945 Z-1.21346
X7.9381 Y8.06025 Z-1.21611
X7.92945 Y8.04796 Z-1.21876
X7.92481 Y8.03367 Z-1.22141
X7.92457 Y8.01865 Z-1.22406
X7.92876 Y8.00422 Z-1.22671
X7.93701 Y7.99166 Z-1.22936
X7.94859 Y7.98208 Z-1.23201
X7.96247 Y7.97634 Z-1.23466
X7.97743 Y7.97493 Z-1.23731
X7.99214 Y7.97798 Z-1.23996
X8.0053 Y7.98522 Z-1.24261
X8.01575 Y7.99602 Z-1.24525
X8.02256 Y8.00941 Z-1.2479
X7.97903 Y8.07569 Z-1.26189
X7.96403 Y8.07475 Z-1.26454
X7.94997 Y8.06945 Z-1.26718
X7.9381 Y8.06025 Z-1.26983
X7.92945 Y8.04796 Z-1.27248
X7.92481 Y8.03367 Z-1.27513
X7.92457 Y8.01865 Z-1.27778
X7.92876 Y8.00422 Z-1.28043
X7.93701 Y7.99166 Z-1.28308
X7.94859 Y7.98208 Z-1.28573
X7.96247 Y7.97634 Z-1.28838
X7.97743 Y7.97493 Z-1.29103
X7.99214 Y7.97798 Z-1.29368
X8.0053 Y7.98522 Z-1.29633
X8.01575 Y7.99602 Z-1.29898
X8.02256 Y8.00941 Z-1.30163
X7.97903 Y8.07569 Z-1.31561
X7.96403 Y8.07475 Z-1.31826
X7.94997 Y8.06945 Z-1.32091
X7.9381 Y8.06025 Z-1.32356
X7.92945 Y8.04796 Z-1.3262
X7.92481 Y8.03367 Z-1.32885
X7.92457 Y8.01865 Z-1.3315
X7.92876 Y8.00422 Z-1.33415
X7.93701 Y7.99166 Z-1.3368
X7.94859 Y7.98208 Z-1.33945
X7.96247 Y7.97634 Z-1.3421
X7.97743 Y7.97493 Z-1.34475
X7.99214 Y7.97798 Z-1.3474
X8.0053 Y7.98522 Z-1.35005
X8.01575 Y7.99602 Z-1.3527
X8.02256 Y8.00941 Z-1.35535
X7.97903 Y8.07569 Z-1.36933
X7.96403 Y8.07475 Z-1.37198
X7.94997 Y8.06945 Z-1.37463
X7.9381 Y8.06025 Z-1.37728
X7.92945 Y8.04796 Z-1.37993
X7.92481 Y8.03367 Z-1.38258
X7.92457 Y8.01865 Z-1.38522
X7.92876 Y8.00422 Z-1.38787
X7.93701 Y7.99166 Z-1.39052
X7.94859 Y7.98208 Z-1.39317
X7.96247 Y7.97634 Z-1.39582
X7.97743 Y7.97493 Z-1.39847
X7.99214 Y7.97798 Z-1.40112
X8.0053 Y7.98522 Z-1.40377
X8.01575 Y7.99602 Z-1.40642
X8.02256 Y8.00941 Z-1.40907
X7.97903 Y8.07569 Z-1.42305
X7.96403 Y8.07475 Z-1.4257
X7.94997 Y8.06945 Z-1.42835
X7.9381 Y8.06025 Z-1.431
X7.92945 Y8.04796 Z-1.43365
X7.92481 Y8.03367 Z-1.4363
X7.92457 Y8.01865 Z-1.43895
X7.92876 Y8.00422 Z-1.44159
X7.93701 Y7.99166 Z-1.44424
X7.94859 Y7.98208 Z-1.44689
X7.96247 Y7.97634 Z-1.44954
X7.97743 Y7.97493 Z-1.45219
X7.99214 Y7.97798 Z-1.45484
X8.0053 Y7.98522 Z-1.45749
X8.01575 Y7.99602 Z-1.46014
X8.02256 Y8.00941 Z-1.46279
X7.97903 Y8.07569 Z-1.47677
X7.96403 Y8.07475 Z-1.47942
X7.94997 Y8.06945 Z-1.48207
X7.9381 Y8.06025 Z-1.48472
X7.92945 Y8.04796 Z-1.48737
X7.92481 Y8.03367 Z-1.49002
X7.92457 Y8.01865 Z-1.49267
X7.92876 Y8.00422 Z-1.49532
X7.93701 Y7.99166 Z-1.49796
X7.94859 Y7.98208 Z-1.50061
X7.96247 Y7.97634 Z-1.50326
X7.97743 Y7.97493 Z-1.50591
X7.99214 Y7.97798 Z-1.50856
X8.0053 Y7.98522 Z-1.51121
X8.01575 Y7.99602 Z-1.51386
X8.02256 Y8.00941 Z-1.51651
X7.97903 Y8.07569 Z-1.53049
X7.96403 Y8.07475 Z-1.53314
X7.94997 Y8.06945 Z-1.53579
X7.9381 Y8.06025 Z-1.53844
X7.92945 Y8.04796 Z-1.54109
X7.92481 Y8.03367 Z-1.54374
X7.92457 Y8.01865 Z-1.54639
X7.92876 Y8.00422 Z-1.54904
X7.93701 Y7.99166 Z-1.55169
X7.94859 Y7.98208 Z-1.55434
X7.96247 Y7.97634 Z-1.55698
X7.97743 Y7.97493 Z-1.55963
X7.99214 Y7.97798 Z-1.56228
X8.0053 Y7.98522 Z-1.56493
X8.01575 Y7.99602 Z-1.56758
X8.02256 Y8.00941 Z-1.57023
X7.97903 Y8.07569 Z-1.58421
X7.96403 Y8.07475 Z-1.58686
X7.94997 Y8.06945 Z-1.58951
X7.9381 Y8.06025 Z-1.59216
X7.92945 Y8.04796 Z-1.59481
X7.92481 Y8.03367 Z-1.59746
X7.92457 Y8.01865 Z-1.60011
X7.92876 Y8.00422 Z-1.60276
X7.93701 Y7.99166 Z-1.60541
X7.94859 Y7.98208 Z-1.60806
X7.96247 Y7.97634 Z-1.61071
X7.97743 Y7.97493 Z-1.61336
X7.99214 Y7.97798 Z-1.616
X8.0053 Y7.98522 Z-1.61865
X8.01575 Y7.99602 Z-1.6213
X8.02256 Y8.00941 Z-1.62395
X7.97903 Y8.07569 Z-1.63793
X7.96403 Y8.07475 Z-1.64058
X7.94997 Y8.06945 Z-1.64323
X7.9381 Y8.06025 Z-1.64588
X7.92945 Y8.04796 Z-1.64853
X7.92481 Y8.03367 Z-1.65118
X7.92457 Y8.01865 Z-1.65383
X7.92876 Y8.00422 Z-1.65648
X7.93701 Y7.99166 Z-1.65913
X7.94859 Y7.98208 Z-1.66178
X7.96247 Y7.97634 Z-1.66443
X7.97743 Y7.97493 Z-1.66708
X7.99214 Y7.97798 Z-1.66973
X8.0053 Y7.98522 Z-1.67237
X8.01575 Y7.99602 Z-1.67502
X8.02256 Y8.00941 Z-1.67767
X7.97903 Y8.07569 Z-1.69166
X7.96403 Y8.07475 Z-1.69431
X7.94997 Y8.06945 Z-1.69695
X7.9381 Y8.06025 Z-1.6996
X7.92945 Y8.04796 Z-1.70225
X7.92481 Y8.03367 Z-1.7049
X7.92457 Y8.01865 Z-1.70755
X7.92876 Y8.00422 Z-1.7102
X7.93701 Y7.99166 Z-1.71285
X7.94859 Y7.98208 Z-1.7155
X7.96247 Y7.97634 Z-1.71815
X7.97743 Y7.97493 Z-1.7208
X7.99214 Y7.97798 Z-1.72345
X8.0053 Y7.98522 Z-1.7261
X8.01575 Y7.99602 Z-1.72875
X8.02256 Y8.00941 Z-1.73139
X7.97903 Y8.07569 Z-1.74538
X7.96403 Y8.07475 Z-1.74803
X7.94997 Y8.06945 Z-1.75068
X7.9381 Y8.06025 Z-1.75332
X7.92945 Y8.04796 Z-1.75597
X7.92481 Y8.03367 Z-1.75862
X7.92457 Y8.01865 Z-1.76127
X7.92876 Y8.00422 Z-1.76392
X7.93701 Y7.99166 Z-1.76657
X7.94859 Y7.98208 Z-1.76922
X7.96247 Y7.97634 Z-1.77187
X7.97743 Y7.97493 Z-1.77452
X7.99214 Y7.97798 Z-1.77717
X8.0053 Y7.98522 Z-1.77982
X8.01575 Y7.99602 Z-1.78247
X8.02256 Y8.00941 Z-1.78512
X7.97903 Y8.07569 Z-1.7991
X7.96403 Y8.07475 Z-1.80175
X7.94997 Y8.06945 Z-1.8044
X7.9381 Y8.06025 Z-1.80705
X7.92945 Y8.04796 Z-1.80969
X7.92481 Y8.03367 Z-1.81234
X7.92457 Y8.01865 Z-1.81499
X7.92876 Y8.00422 Z-1.81764
X7.93701 Y7.99166 Z-1.82029
X7.94859 Y7.98208 Z-1.82294
X7.96247 Y7.97634 Z-1.82559
X7.97743 Y7.97493 Z-1.82824
X7.99214 Y7.97798 Z-1.83089
X8.0053 Y7.98522 Z-1.83354
X8.01575 Y7.99602 Z-1.83619
X8.02256 Y8.00941 Z-1.83884
X7.97903 Y8.07569 Z-1.85282
X7.96403 Y8.07475 Z-1.85547
X7.94997 Y8.06945 Z-1.85812
X7.9381 Y8.06025 Z-1.86077
X7.92945 Y8.04796 Z-1.86342
X7.92481 Y8.03367 Z-1.86607
X7.92457 Y8.01865 Z-1.86871
X7.92876 Y8.00422 Z-1.87136
X7.93701 Y7.99166 Z-1.87401
X7.94859 Y7.98208 Z-1.87666
X7.96247 Y7.97634 Z-1.87931
X7.97743 Y7.97493 Z-1.88196
X7.99214 Y7.97798 Z-1.88461
X8.0053 Y7.98522 Z-1.88726
X8.01575 Y7.99602 Z-1.88991
X8.02256 Y8.00941 Z-1.89256
X7.97903 Y8.07569 Z-1.90654
X7.96403 Y8.07475 Z-1.90919
X7.94997 Y8.06945 Z-1.91184
X7.9381 Y8.06025 Z-1.91449
X7.92945 Y8.04796 Z-1.91714
X7.92481 Y8.03367 Z-1.91979
X7.92457 Y8.01865 Z-1.92244
X7.92876 Y8.00422 Z-1.92509
X7.93701 Y7.99166 Z-1.92773
X7.94859 Y7.98208 Z-1.93038
X7.96247 Y7.97634 Z-1.93303
X7.97743 Y7.97493 Z-1.93568
X7.99214 Y7.97798 Z-1.93833
X8.0053 Y7.98522 Z-1.94098
X8.01575 Y7.99602 Z-1.94363
X8.02256 Y8.00941 Z-1.94628
X7.97903 Y8.07569 Z-1.96026
X7.96403 Y8.07475 Z-1.96291
X7.94997 Y8.06945 Z-1.96556
X7.9381 Y8.06025 Z-1.96821
X7.92945 Y8.04796 Z-1.97086
X7.92481 Y8.03367 Z-1.97351
X7.92457 Y8.01865 Z-1.97616
X7.92876 Y8.00422 Z-1.97881
X7.93701 Y7.99166 Z-1.98146
X7.94859 Y7.98208 Z-1.98411
X7.96247 Y7.97634 Z-1.98675
X7.97743 Y7.97493 Z-1.9894
X7.99214 Y7.97798 Z-1.99205
X8.0053 Y7.98522 Z-1.9947
X8.01575 Y7.99602 Z-1.99735
X8.02256 Y8.00941 Z-2.
X7.97903 Y8.07569 F961.
G03 X8.02256 Y8.00941 I-0.00439 J-0.05033
G0 Z1.
X7.94985 Y8.06936
G1 Z-1.73 F240.2
X7.9381 Y8.06025 Z-1.73262 F720.7
X7.92945 Y8.04796 Z-1.73527
X7.92481 Y8.03367 Z-1.73792
X7.92457 Y8.01865 Z-1.74057
X7.92876 Y8.00422 Z-1.74322
X7.93701 Y7.99166 Z-1.74587
X7.94859 Y7.98208 Z-1.74852
X7.96247 Y7.97634 Z-1.75117
X7.97743 Y7.97493 Z-1.75382
X7.99214 Y7.97798 Z-1.75647
X8.0053 Y7.98522 Z-1.75911
X8.01575 Y7.99602 Z-1.76176
X8.02256 Y8.00941 Z-1.76441
X7.97903 Y8.07569 Z-1.7784
X7.96403 Y8.07475 Z-1.78105
X7.94997 Y8.06945 Z-1.78369
X7.9381 Y8.06025 Z-1.78634
X7.92945 Y8.04796 Z-1.78899
X7.92481 Y8.03367 Z-1.79164
X7.92457 Y8.01865 Z-1.79429
X7.92876 Y8.00422 Z-1.79694
X7.93701 Y7.99166 Z-1.79959
X7.94859 Y7.98208 Z-1.80224
X7.96247 Y7.97634 Z-1.80489
X7.97743 Y7.97493 Z-1.80754
X7.99214 Y7.97798 Z-1.81019
X8.0053 Y7.98522 Z-1.81284
X8.01575 Y7.99602 Z-1.81549
X8.02256 Y8.00941 Z-1.81813
X7.97903 Y8.07569 Z-1.83212
X7.96403 Y8.07475 Z-1.83477
X7.94997 Y8.06945 Z-1.83742
X7.9381 Y8.06025 Z-1.84006
X7.92945 Y8.04796 Z-1.84271
X7.92481 Y8.03367 Z-1.84536
X7.92457 Y8.01865 Z-1.84801
X7.92876 Y8.00422 Z-1.85066
X7.93701 Y7.99166 Z-1.85331
X7.94859 Y7.98208 Z-1.85596
X7.96247 Y7.97634 Z-1.85861
X7.97743 Y7.97493 Z-1.86126
X7.99214 Y7.97798 Z-1.86391
X8.0053 Y7.98522 Z-1.86656
X8.01575 Y7.99602 Z-1.86921
X8.02256 Y8.00941 Z-1.87186
X7.97903 Y8.07569 Z-1.88584
X7.96403 Y8.07475 Z-1.88849
X7.94997 Y8.06945 Z-1.89114
X7.9381 Y8.06025 Z-1.89379
X7.92945 Y8.04796 Z-1.89644
X7.92481 Y8.03367 Z-1.89908
X7.92457 Y8.01865 Z-1.90173
X7.92876 Y8.00422 Z-1.90438
X7.93701 Y7.99166 Z-1.90703
X7.94859 Y7.98208 Z-1.90968
X7.96247 Y7.97634 Z-1.91233
X7.97743 Y7.97493 Z-1.91498
X7.99214 Y7.97798 Z-1.91763
X8.0053 Y7.98522 Z-1.92028
X8.01575 Y7.99602 Z-1.92293
X8.02256 Y8.00941 Z-1.92558
X7.97903 Y8.07569 Z-1.93956
X7.96403 Y8.07475 Z-1.94221
X7.94997 Y8.06945 Z-1.94486
X7.9381 Y8.06025 Z-1.94751
X7.92945 Y8.04796 Z-1.95016
X7.92481 Y8.03367 Z-1.95281
X7.92457 Y8.01865 Z-1.95545
X7.92876 Y8.00422 Z-1.9581
X7.93701 Y7.99166 Z-1.96075
X7.94859 Y7.98208 Z-1.9634
X7.96247 Y7.97634 Z-1.96605
X7.97743 Y7.97493 Z-1.9687
X7.99214 Y7.97798 Z-1.97135
X8.0053 Y7.98522 Z-1.974
X8.01575 Y7.99602 Z-1.97665
X8.02256 Y8.00941 Z-1.9793
X7.97903 Y8.07569 Z-1.99328
X7.96403 Y8.07475 Z-1.99593
X7.94997 Y8.06945 Z-1.99858
X7.9381 Y8.06025 Z-2.00123
X7.92945 Y8.04796 Z-2.00388
X7.92481 Y8.03367 Z-2.00653
X7.92457 Y8.01865 Z-2.00918
X7.92876 Y8.00422 Z-2.01183
X7.93701 Y7.99166 Z-2.01447
X7.94859 Y7.98208 Z-2.01712
X7.96247 Y7.97634 Z-2.01977
X7.97743 Y7.97493 Z-2.02242
X7.99214 Y7.97798 Z-2.02507
X8.0053 Y7.98522 Z-2.02772
X8.01575 Y7.99602 Z-2.03037
X8.02256 Y8.00941 Z-2.03302
X7.97903 Y8.07569 Z-2.047
X7.96403 Y8.07475 Z-2.04965
X7.94997 Y8.06945 Z-2.0523
X7.9381 Y8.06025 Z-2.05495
X7.92945 Y8.04796 Z-2.0576
X7.92481 Y8.03367 Z-2.06025
X7.92457 Y8.01865 Z-2.0629
X7.92876 Y8.00422 Z-2.06555
X7.93701 Y7.99166 Z-2.06819
X7.94859 Y7.98208 Z-2.07084
X7.96247 Y7.97634 Z-2.07349
X7.97743 Y7.97493 Z-2.07614
X7.99214 Y7.97798 Z-2.07879
X8.0053 Y7.98522 Z-2.08144
X8.01575 Y7.99602 Z-2.08409
X8.02256 Y8.00941 Z-2.08674
X7.97903 Y8.07569 Z-2.10072
X7.96403 Y8.07475 Z-2.10337
X7.94997 Y8.06945 Z-2.10602
X7.9381 Y8.06025 Z-2.10867
X7.92945 Y8.04796 Z-2.11132
X7.92481 Y8.03367 Z-2.11397
X7.92457 Y8.01865 Z-2.11662
X7.92876 Y8.00422 Z-2.11927
X7.93701 Y7.99166 Z-2.12192
X7.94859 Y7.98208 Z-2.12457
X7.96247 Y7.97634 Z-2.12722
X7.97743 Y7.97493 Z-2.12986
X7.99214 Y7.97798 Z-2.13251
X8.0053 Y7.98522 Z-2.13516
X8.01575 Y7.99602 Z-2.13781
X8.02256 Y8.00941 Z-2.14046
X7.97903 Y8.07569 Z-2.15444
X7.96403 Y8.07475 Z-2.15709
X7.94997 Y8.06945 Z-2.15974
X7.9381 Y8.06025 Z-2.16239
X7.92945 Y8.04796 Z-2.16504
X7.92481 Y8.03367 Z-2.16769
X7.92457 Y8.01865 Z-2.17034
X7.92876 Y8.00422 Z-2.17299
X7.93701 Y7.99166 Z-2.17564
X7.94859 Y7.98208 Z-2.17829
X7.96247 Y7.97634 Z-2.18094
X7.97743 Y7.97493 Z-2.18359
X7.99214 Y7.97798 Z-2.18624
X8.0053 Y7.98522 Z-2.18888
X8.01575 Y7.99602 Z-2.19153
X8.02256 Y8.00941 Z-2.19418
X7.97903 Y8.07569 Z-2.20817
X7.96403 Y8.07475 Z-2.21081
X7.94997 Y8.06945 Z-2.21346
X7.9381 Y8.06025 Z-2.21611
X7.92945 Y8.04796 Z-2.21876
X7.92481 Y8.03367 Z-2.22141
X7.92457 Y8.01865 Z-2.22406
X7.92876 Y8.00422 Z-2.22671
X7.93701 Y7.99166 Z-2.22936
X7.94859 Y7.98208 Z-2.23201
X7.96247 Y7.97634 Z-2.23466
X7.97743 Y7.97493 Z-2.23731
X7.99214 Y7.97798 Z-2.23996
X8.0053 Y7.98522 Z-2.24261
X8.01575 Y7.99602 Z-2.24525
X8.02256 Y8.00941 Z-2.2479
X7.97903 Y8.07569 Z-2.26189
X7.96403 Y8.07475 Z-2.26454
X7.94997 Y8.06945 Z-2.26719
X7.9381 Y8.06025 Z-2.26983
X7.92945 Y8.04796 Z-2.27248
X7.92481 Y8.03367 Z-2.27513
X7.92457 Y8.01865 Z-2.27778
X7.92876 Y8.00422 Z-2.28043
X7.93701 Y7.99166 Z-2.28308
X7.94859 Y7.98208 Z-2.28573
X7.96247 Y7.97634 Z-2.28838
X7.97743 Y7.97493 Z-2.29103
X7.99214 Y7.97798 Z-2.29368
X8.0053 Y7.98522 Z-2.29633
X8.01575 Y7.99602 Z-2.29898
X8.02256 Y8.00941 Z-2.30163
X7.97903 Y8.07569 Z-2.31561
X7.96403 Y8.07475 Z-2.31826
X7.94997 Y8.06945 Z-2.32091
X7.9381 Y8.06025 Z-2.32355
X7.92945 Y8.04796 Z-2.3262
X7.92481 Y8.03367 Z-2.32885
X7.92457 Y8.01865 Z-2.3315
X7.92876 Y8.00422 Z-2.33415
X7.93701 Y7.99166 Z-2.3368
X7.94859 Y7.98208 Z-2.33945
X7.96247 Y7.97634 Z-2.3421
X7.97743 Y7.97493 Z-2.34475
X7.99214 Y7.97798 Z-2.3474
X8.0053 Y7.98522 Z-2.35005
X8.01575 Y7.99602 Z-2.3527
X8.02256 Y8.00941 Z-2.35535
X7.97903 Y8.07569 Z-2.36933
X7.96403 Y8.07475 Z-2.37198
X7.94997 Y8.06945 Z-2.37463
X7.9381 Y8.06025 Z-2.37728
X7.92945 Y8.04796 Z-2.37993
X7.92481 Y8.03367 Z-2.38258
X7.92457 Y8.01865 Z-2.38522
X7.92876 Y8.00422 Z-2.38787
X7.93701 Y7.99166 Z-2.39052
X7.94859 Y7.98208 Z-2.39317
X7.96247 Y7.97634 Z-2.39582
X7.97743 Y7.97493 Z-2.39847
X7.99214 Y7.97798 Z-2.40112
X8.0053 Y7.98522 Z-2.40377
X8.01575 Y7.99602 Z-2.40642
X8.02256 Y8.00941 Z-2.40907
X7.97903 Y8.07569 Z-2.42305
X7.96403 Y8.07475 Z-2.4257
X7.94997 Y8.06945 Z-2.42835
X7.9381 Y8.06025 Z-2.431
X7.92945 Y8.04796 Z-2.43365
X7.92481 Y8.03367 Z-2.4363
X7.92457 Y8.01865 Z-2.43894
X7.92876 Y8.00422 Z-2.44159
X7.93701 Y7.99166 Z-2.44424
X7.94859 Y7.98208 Z-2.44689
X7.96247 Y7.97634 Z-2.44954
X7.97743 Y7.97493 Z-2.45219
X7.99214 Y7.97798 Z-2.45484
X8.0053 Y7.98522 Z-2.45749
X8.01575 Y7.99602 Z-2.46014
X8.02256 Y8.00941 Z-2.46279
X7.97903 Y8.07569 Z-2.47677
X7.96403 Y8.07475 Z-2.47942
X7.94997 Y8.06945 Z-2.48207
X7.9381 Y8.06025 Z-2.48472
X7.92945 Y8.04796 Z-2.48737
X7.92481 Y8.03367 Z-2.49002
X7.92457 Y8.01865 Z-2.49267
X7.92876 Y8.00422 Z-2.49532
X7.93701 Y7.99166 Z-2.49797
X7.94859 Y7.98208 Z-2.50061
X7.96247 Y7.97634 Z-2.50326
X7.97743 Y7.97493 Z-2.50591
X7.99214 Y7.97798 Z-2.50856
X8.0053 Y7.98522 Z-2.51121
X8.01575 Y7.99602 Z-2.51386
X8.02256 Y8.00941 Z-2.51651
X7.97903 Y8.07569 Z-2.53049
X7.96403 Y8.07475 Z-2.53314
X7.94997 Y8.06945 Z-2.53579
X7.9381 Y8.06025 Z-2.53844
X7.92945 Y8.04796 Z-2.54109
X7.92481 Y8.03367 Z-2.54374
X7.92457 Y8.01865 Z-2.54639
X7.92876 Y8.00422 Z-2.54904
X7.93701 Y7.99166 Z-2.55169
X7.94859 Y7.98208 Z-2.55434
X7.96247 Y7.97634 Z-2.55698
X7.97743 Y7.97493 Z-2.55963
X7.99214 Y7.97798 Z-2.56228
X8.0053 Y7.98522 Z-2.56493
X8.01575 Y7.99602 Z-2.56758
X8.02256 Y8.00941 Z-2.57023
X7.97903 Y8.07569 Z-2.58421
X7.96403 Y8.07475 Z-2.58686
X7.94997 Y8.06945 Z-2.58951
X7.9381 Y8.06025 Z-2.59216
X7.92945 Y8.04796 Z-2.59481
X7.92481 Y8.03367 Z-2.59746
X7.92457 Y8.01865 Z-2.60011
X7.92876 Y8.00422 Z-2.60276
X7.93701 Y7.99166 Z-2.60541
X7.94859 Y7.98208 Z-2.60806
X7.96247 Y7.97634 Z-2.61071
X7.97743 Y7.97493 Z-2.61336
X7.99214 Y7.97798 Z-2.616
X8.0053 Y7.98522 Z-2.61865
X8.01575 Y7.99602 Z-2.6213
X8.02256 Y8.00941 Z-2.62395
X7.97903 Y8.07569 Z-2.63793
X7.96403 Y8.07475 Z-2.64058
X7.94997 Y8.06945 Z-2.64323
X7.9381 Y8.06025 Z-2.64588
X7.92945 Y8.04796 Z-2.64853
X7.92481 Y8.03367 Z-2.65118
X7.92457 Y8.01865 Z-2.65383
X7.92876 Y8.00422 Z-2.65648
X7.93701 Y7.99166 Z-2.65913
X7.94859 Y7.98208 Z-2.66178
X7.96247 Y7.97634 Z-2.66443
X7.97743 Y7.97493 Z-2.66708
X7.99214 Y7.97798 Z-2.66973
X8.0053 Y7.98522 Z-2.67237
X8.01575 Y7.99602 Z-2.67502
X8.02256 Y8.00941 Z-2.67767
X7.97903 Y8.07569 Z-2.69166
X7.96403 Y8.07475 Z-2.69431
X7.94997 Y8.06945 Z-2.69695
X7.9381 Y8.06025 Z-2.6996
X7.92945 Y8.04796 Z-2.70225
X7.92481 Y8.03367 Z-2.7049
X7.92457 Y8.01865 Z-2.70755
X7.92876 Y8.00422 Z-2.7102
X7.93701 Y7.99166 Z-2.71285
X7.94859 Y7.98208 Z-2.7155
X7.96247 Y7.97634 Z-2.71815
X7.97743 Y7.97493 Z-2.7208
X7.99214 Y7.97798 Z-2.72345
X8.0053 Y7.98522 Z-2.7261
X8.01575 Y7.99602 Z-2.72875
X8.02256 Y8.00941 Z-2.73139
X7.97903 Y8.07569 Z-2.74538
X7.96403 Y8.07475 Z-2.74803
X7.94997 Y8.06945 Z-2.75068
X7.9381 Y8.06025 Z-2.75332
X7.92945 Y8.04796 Z-2.75597
X7.92481 Y8.03367 Z-2.75862
X7.92457 Y8.01865 Z-2.76127
X7.92876 Y8.00422 Z-2.76392
X7.93701 Y7.99166 Z-2.76657
X7.94859 Y7.98208 Z-2.76922
X7.96247 Y7.97634 Z-2.77187
X7.97743 Y7.97493 Z-2.77452
X7.99214 Y7.97798 Z-2.77717
X8.0053 Y7.98522 Z-2.77982
X8.01575 Y7.99602 Z-2.78247
X8.02256 Y8.00941 Z-2.78512
X7.97903 Y8.07569 Z-2.7991
X7.96403 Y8.07475 Z-2.80175
X7.94997 Y8.06945 Z-2.8044
X7.9381 Y8.06025 Z-2.80705
X7.92945 Y8.04796 Z-2.8097
X7.92481 Y8.03367 Z-2.81234
X7.92457 Y8.01865 Z-2.81499
X7.92876 Y8.00422 Z-2.81764
X7.93701 Y7.99166 Z-2.82029
X7.94859 Y7.98208 Z-2.82294
X7.96247 Y7.97634 Z-2.82559
X7.97743 Y7.97493 Z-2.82824
X7.99214 Y7.97798 Z-2.83089
X8.0053 Y7.98522 Z-2.83354
X8.01575 Y7.99602 Z-2.83619
X8.02256 Y8.00941 Z-2.83884
X7.97903 Y8.07569 Z-2.85282
X7.96403 Y8.07475 Z-2.85547
X7.94997 Y8.06945 Z-2.85812
X7.9381 Y8.06025 Z-2.86077
X7.92945 Y8.04796 Z-2.86342
X7.92481 Y8.03367 Z-2.86606
X7.92457 Y8.01865 Z-2.86871
X7.92876 Y8.00422 Z-2.87136
X7.93701 Y7.99166 Z-2.87401
X7.94859 Y7.98208 Z-2.87666
X7.96247 Y7.97634 Z-2.87931
X7.97743 Y7.97493 Z-2.88196
X7.99214 Y7.97798 Z-2.88461
X8.0053 Y7.98522 Z-2.88726
X8.01575 Y7.99602 Z-2.88991
X8.02256 Y8.00941 Z-2.89256
X7.97903 Y8.07569 Z-2.90654
X7.96403 Y8.07475 Z-2.90919
X7.94997 Y8.06945 Z-2.91184
X7.9381 Y8.06025 Z-2.91449
X7.92945 Y8.04796 Z-2.91714
X7.92481 Y8.03367 Z-2.91979
X7.92457 Y8.01865 Z-2.92244
X7.92876 Y8.00422 Z-2.92509
X7.93701 Y7.99166 Z-2.92773
X7.94859 Y7.98208 Z-2.93038
X7.96247 Y7.97634 Z-2.93303
X7.97743 Y7.97493 Z-2.93568
X7.99214 Y7.97798 Z-2.93833
X8.0053 Y7.98522 Z-2.94098
X8.01575 Y7.99602 Z-2.94363
X8.02256 Y8.00941 Z-2.94628
X7.97903 Y8.07569 Z-2.96026
X7.96403 Y8.07475 Z-2.96291
X7.94997 Y8.06945 Z-2.96556
X7.9381 Y8.06025 Z-2.96821
X7.92945 Y8.04796 Z-2.97086
X7.92481 Y8.03367 Z-2.97351
X7.92457 Y8.01865 Z-2.97616
X7.92876 Y8.00422 Z-2.97881
X7.93701 Y7.99166 Z-2.98146
X7.94859 Y7.98208 Z-2.98411
X7.96247 Y7.97634 Z-2.98675
X7.97743 Y7.97493 Z-2.9894
X7.99214 Y7.97798 Z-2.99205
X8.0053 Y7.98522 Z-2.9947
X8.01575 Y7.99602 Z-2.99735
X8.02256 Y8.00941 Z-3.
X7.97903 Y8.07569 F961.
G03 X8.02256 Y8.00941 I-0.00439 J-0.05033
G0 Z1.
X7.94985 Y8.06936
G1 Z-2.73 F240.2
X7.9381 Y8.06025 Z-2.73262 F720.7
X7.92945 Y8.04796 Z-2.73527
X7.92481 Y8.03367 Z-2.73792
X7.92457 Y8.01865 Z-2.74057
X7.92876 Y8.00422 Z-2.74322
X7.93701 Y7.99166 Z-2.74587
X7.94859 Y7.98208 Z-2.74852
X7.96247 Y7.97634 Z-2.75117
X7.97743 Y7.97493 Z-2.75382
X7.99214 Y7.97798 Z-2.75647
X8.0053 Y7.98522 Z-2.75911
X8.01575 Y7.99602 Z-2.76176
X8.02256 Y8.00941 Z-2.76441
X7.97903 Y8.07569 Z-2.7784
X7.96403 Y8.07475 Z-2.78105
X7.94997 Y8.06945 Z-2.78369
X7.9381 Y8.06025 Z-2.78634
X7.92945 Y8.04796 Z-2.78899
X7.92481 Y8.03367 Z-2.79164
X7.92457 Y8.01865 Z-2.79429
X7.92876 Y8.00422 Z-2.79694
X7.93701 Y7.99166 Z-2.79959
X7.94859 Y7.98208 Z-2.80224
X7.96247 Y7.97634 Z-2.80489
X7.97743 Y7.97493 Z-2.80754
X7.99214 Y7.97798 Z-2.81019
X8.0053 Y7.98522 Z-2.81284
X8.01575 Y7.99602 Z-2.81549
X8.02256 Y8.00941 Z-2.81813
X7.97903 Y8.07569 Z-2.83212
X7.96403 Y8.07475 Z-2.83477
X7.94997 Y8.06945 Z-2.83742
X7.9381 Y8.06025 Z-2.84006
X7.92945 Y8.04796 Z-2.84271
X7.92481 Y8.03367 Z-2.84536
X7.92457 Y8.01865 Z-2.84801
X7.92876 Y8.00422 Z-2.85066
X7.93701 Y7.99166 Z-2.85331
X7.94859 Y7.98208 Z-2.85596
X7.96247 Y7.97634 Z-2.85861
X7.97743 Y7.97493 Z-2.86126
X7.99214 Y7.97798 Z-2.86391
X8.0053 Y7.98522 Z-2.86656
X8.01575 Y7.99602 Z-2.86921
X8.02256 Y8.00941 Z-2.87186
X7.97903 Y8.07569 Z-2.88584
X7.96403 Y8.07475 Z-2.88849
X7.94997 Y8.06945 Z-2.89114
X7.9381 Y8.06025 Z-2.89379
X7.92945 Y8.04796 Z-2.89644
X7.92481 Y8.03367 Z-2.89908
X7.92457 Y8.01865 Z-2.90173
X7.92876 Y8.00422 Z-2.90438
X7.93701 Y7.99166 Z-2.90703
X7.94859 Y7.98208 Z-2.90968
X7.96247 Y7.97634 Z-2.91233
X7.97743 Y7.97493 Z-2.91498
X7.99214 Y7.97798 Z-2.91763
X8.0053 Y7.98522 Z-2.92028
X8.01575 Y7.99602 Z-2.92293
X8.02256 Y8.00941 Z-2.92558
X7.97903 Y8.07569 Z-2.93956
X7.96403 Y8.07475 Z-2.94221
X7.94997 Y8.06945 Z-2.94486
X7.9381 Y8.06025 Z-2.94751
X7.92945 Y8.04796 Z-2.95016
X7.92481 Y8.03367 Z-2.95281
X7.92457 Y8.01865 Z-2.95545
X7.92876 Y8.00422 Z-2.9581
X7.93701 Y7.99166 Z-2.96075
X7.94859 Y7.98208 Z-2.9634
X7.96247 Y7.97634 Z-2.96605
X7.97743 Y7.97493 Z-2.9687
X7.99214 Y7.97798 Z-2.97135
X8.0053 Y7.98522 Z-2.974
X8.01575 Y7.99602 Z-2.97665
X8.02256 Y8.00941 Z-2.9793
X7.97903 Y8.07569 Z-2.99328
X7.96403 Y8.07475 Z-2.99593
X7.94997 Y8.06945 Z-2.99858
X7.9381 Y8.06025 Z-3.00123
X7.92945 Y8.04796 Z-3.00388
X7.92481 Y8.03367 Z-3.00653
X7.92457 Y8.01865 Z-3.00918
X7.92876 Y8.00422 Z-3.01183
X7.93701 Y7.99166 Z-3.01447
X7.94859 Y7.98208 Z-3.01712
X7.96247 Y7.97634 Z-3.01977
X7.97743 Y7.97493 Z-3.02242
X7.99214 Y7.97798 Z-3.02507
X8.0053 Y7.98522 Z-3.02772
X8.01575 Y7.99602 Z-3.03037
X8.02256 Y8.00941 Z-3.03302
X7.97903 Y8.07569 Z-3.047
X7.96403 Y8.07475 Z-3.04965
X7.94997 Y8.06945 Z-3.0523
X7.9381 Y8.06025 Z-3.05495
X7.92945 Y8.04796 Z-3.0576
X7.92481 Y8.03367 Z-3.06025
X7.92457 Y8.01865 Z-3.0629
X7.92876 Y8.00422 Z-3.06555
X7.93701 Y7.99166 Z-3.0682
X7.94859 Y7.98208 Z-3.07085
X7.96247 Y7.97634 Z-3.07349
X7.97743 Y7.97493 Z-3.07614
X7.99214 Y7.97798 Z-3.07879
X8.0053 Y7.98522 Z-3.08144
X8.01575 Y7.99602 Z-3.08409
X8.02256 Y8.00941 Z-3.08674
X7.97903 Y8.07569 Z-3.10072
X7.96403 Y8.07475 Z-3.10337
X7.94997 Y8.06945 Z-3.10602
X7.9381 Y8.06025 Z-3.10867
X7.92945 Y8.04796 Z-3.11132
X7.92481 Y8.03367 Z-3.11397
X7.92457 Y8.01865 Z-3.11662
X7.92876 Y8.00422 Z-3.11927
X7.93701 Y7.99166 Z-3.12192
X7.94859 Y7.98208 Z-3.12457
X7.96247 Y7.97634 Z-3.12722
X7.97743 Y7.97493 Z-3.12986
X7.99214 Y7.97798 Z-3.13251
X8.0053 Y7.98522 Z-3.13516
X8.01575 Y7.99602 Z-3.13781
X8.02256 Y8.00941 Z-3.14046
X7.97903 Y8.07569 Z-3.15444
X7.96403 Y8.07475 Z-3.15709
X7.94997 Y8.06945 Z-3.15974
X7.9381 Y8.06025 Z-3.16239
X7.92945 Y8.04796 Z-3.16504
X7.92481 Y8.03367 Z-3.16769
X7.92457 Y8.01865 Z-3.17034
X7.92876 Y8.00422 Z-3.17299
X7.93701 Y7.99166 Z-3.17564
X7.94859 Y7.98208 Z-3.17829
X7.96247 Y7.97634 Z-3.18094
X7.97743 Y7.97493 Z-3.18359
X7.99214 Y7.97798 Z-3.18624
X8.0053 Y7.98522 Z-3.18888
X8.01575 Y7.99602 Z-3.19153
X8.02256 Y8.00941 Z-3.19418
X7.97903 Y8.07569 Z-3.20817
X7.96403 Y8.07475 Z-3.21081
X7.94997 Y8.06945 Z-3.21346
X7.9381 Y8.06025 Z-3.21611
X7.92945 Y8.04796 Z-3.21876
X7.92481 Y8.03367 Z-3.22141
X7.92457 Y8.01865 Z-3.22406
X7.92876 Y8.00422 Z-3.22671
X7.93701 Y7.99166 Z-3.22936
X7.94859 Y7.98208 Z-3.23201
X7.96247 Y7.97634 Z-3.23466
X7.97743 Y7.97493 Z-3.23731
X7.99214 Y7.97798 Z-3.23996
X8.0053 Y7.98522 Z-3.24261
X8.01575 Y7.99602 Z-3.24525
X8.02256 Y8.00941 Z-3.2479
X7.97903 Y8.07569 Z-3.26189
X7.96403 Y8.07475 Z-3.26454
X7.94997 Y8.06945 Z-3.26719
X7.9381 Y8.06025 Z-3.26983
X7.92945 Y8.04796 Z-3.27248
X7.92481 Y8.03367 Z-3.27513
X7.92457 Y8.01865 Z-3.27778
X7.92876 Y8.00422 Z-3.28043
X7.93701 Y7.99166 Z-3.28308
X7.94859 Y7.98208 Z-3.28573
X7.96247 Y7.97634 Z-3.28838
X7.97743 Y7.97493 Z-3.29103
X7.99214 Y7.97798 Z-3.29368
X8.0053 Y7.98522 Z-3.29633
X8.01575 Y7.99602 Z-3.29898
X8.02256 Y8.00941 Z-3.30163
X7.97903 Y8.07569 Z-3.31561
X7.96403 Y8.07475 Z-3.31826
X7.94997 Y8.06945 Z-3.32091
X7.9381 Y8.06025 Z-3.32355
X7.92945 Y8.04796 Z-3.3262
X7.92481 Y8.03367 Z-3.32885
X7.92457 Y8.01865 Z-3.3315
X7.92876 Y8.00422 Z-3.33415
X7.93701 Y7.99166 Z-3.3368
X7.94859 Y7.98208 Z-3.33945
X7.96247 Y7.97634 Z-3.3421
X7.97743 Y7.97493 Z-3.34475
X7.99214 Y7.97798 Z-3.3474
X8.0053 Y7.98522 Z-3.35005
X8.01575 Y7.99602 Z-3.3527
X8.02256 Y8.00941 Z-3.35535
X7.97903 Y8.07569 Z-3.36933
X7.96403 Y8.07475 Z-3.37198
X7.94997 Y8.06945 Z-3.37463
X7.9381 Y8.06025 Z-3.37728
X7.92945 Y8.04796 Z-3.37993
X7.92481 Y8.03367 Z-3.38258
X7.92457 Y8.01865 Z-3.38522
X7.92876 Y8.00422 Z-3.38787
X7.93701 Y7.99166 Z-3.39052
X7.94859 Y7.98208 Z-3.39317
X7.96247 Y7.97634 Z-3.39582
X7.97743 Y7.97493 Z-3.39847
X7.99214 Y7.97798 Z-3.40112
X8.0053 Y7.98522 Z-3.40377
X8.01575 Y7.99602 Z-3.40642
X8.02256 Y8.00941 Z-3.40907
X7.97903 Y8.07569 Z-3.42305
X7.96403 Y8.07475 Z-3.4257
X7.94997 Y8.06945 Z-3.42835
X7.9381 Y8.06025 Z-3.431
X7.92945 Y8.04796 Z-3.43365
X7.92481 Y8.03367 Z-3.4363
X7.92457 Y8.01865 Z-3.43895
X7.92876 Y8.00422 Z-3.44159
X7.93701 Y7.99166 Z-3.44424
X7.94859 Y7.98208 Z-3.44689
X7.96247 Y7.97634 Z-3.44954
X7.97743 Y7.97493 Z-3.45219
X7.99214 Y7.97798 Z-3.45484
X8.0053 Y7.98522 Z-3.45749
X8.01575 Y7.99602 Z-3.46014
X8.02256 Y8.00941 Z-3.46279
X7.97903 Y8.07569 Z-3.47677
X7.96403 Y8.07475 Z-3.47942
X7.94997 Y8.06945 Z-3.48207
X7.9381 Y8.06025 Z-3.48472
X7.92945 Y8.04796 Z-3.48737
X7.92481 Y8.03367 Z-3.49002
X7.92457 Y8.01865 Z-3.49267
X7.92876 Y8.00422 Z-3.49532
X7.93701 Y7.99166 Z-3.49796
X7.94859 Y7.98208 Z-3.50061
X7.96247 Y7.97634 Z-3.50326
X7.97743 Y7.97493 Z-3.50591
X7.99214 Y7.97798 Z-3.50856
X8.0053 Y7.98522 Z-3.51121
X8.01575 Y7.99602 Z-3.51386
X8.02256 Y8.00941 Z-3.51651
X7.97903 Y8.07569 Z-3.53049
X7.96403 Y8.07475 Z-3.53314
X7.94997 Y8.06945 Z-3.53579
X7.9381 Y8.06025 Z-3.53844
X7.92945 Y8.04796 Z-3.54109
X7.92481 Y8.03367 Z-3.54374
X7.92457 Y8.01865 Z-3.54639
X7.92876 Y8.00422 Z-3.54904
X7.93701 Y7.99166 Z-3.55169
X7.94859 Y7.98208 Z-3.55434
X7.96247 Y7.97634 Z-3.55698
X7.97743 Y7.97493 Z-3.55963
X7.99214 Y7.97798 Z-3.56228
X8.0053 Y7.98522 Z-3.56493
X8.01575 Y7.99602 Z-3.56758
X8.02256 Y8.00941 Z-3.57023
X7.97903 Y8.07569 Z-3.58421
X7.96403 Y8.07475 Z-3.58686
X7.94997 Y8.06945 Z-3.58951
X7.9381 Y8.06025 Z-3.59216
X7.92945 Y8.04796 Z-3.59481
X7.92481 Y8.03367 Z-3.59746
X7.92457 Y8.01865 Z-3.60011
X7.92876 Y8.00422 Z-3.60276
X7.93701 Y7.99166 Z-3.60541
X7.94859 Y7.98208 Z-3.60806
X7.96247 Y7.97634 Z-3.61071
X7.97743 Y7.97493 Z-3.61336
X7.99214 Y7.97798 Z-3.616
X8.0053 Y7.98522 Z-3.61865
X8.01575 Y7.99602 Z-3.6213
X8.02256 Y8.00941 Z-3.62395
X7.97903 Y8.07569 Z-3.63793
X7.96403 Y8.07475 Z-3.64058
X7.94997 Y8.06945 Z-3.64323
X7.9381 Y8.06025 Z-3.64588
X7.92945 Y8.04796 Z-3.64853
X7.92481 Y8.03367 Z-3.65118
X7.92457 Y8.01865 Z-3.65383
X7.92876 Y8.00422 Z-3.65648
X7.93701 Y7.99166 Z-3.65913
X7.94859 Y7.98208 Z-3.66178
X7.96247 Y7.97634 Z-3.66443
X7.97743 Y7.97493 Z-3.66708
X7.99214 Y7.97798 Z-3.66973
X8.0053 Y7.98522 Z-3.67237
X8.01575 Y7.99602 Z-3.67502
X8.02256 Y8.00941 Z-3.67767
X7.97903 Y8.07569 Z-3.69166
X7.96403 Y8.07475 Z-3.6943
X7.94997 Y8.06945 Z-3.69695
X7.9381 Y8.06025 Z-3.6996
X7.92945 Y8.04796 Z-3.70225
X7.92481 Y8.03367 Z-3.7049
X7.92457 Y8.01865 Z-3.70755
X7.92876 Y8.00422 Z-3.7102
X7.93701 Y7.99166 Z-3.71285
X7.94859 Y7.98208 Z-3.7155
X7.96247 Y7.97634 Z-3.71815
X7.97743 Y7.97493 Z-3.7208
X7.99214 Y7.97798 Z-3.72345
X8.0053 Y7.98522 Z-3.7261
X8.01575 Y7.99602 Z-3.72875
X8.02256 Y8.00941 Z-3.73139
X7.97903 Y8.07569 Z-3.74538
X7.96403 Y8.07475 Z-3.74803
X7.94997 Y8.06945 Z-3.75068
X7.9381 Y8.06025 Z-3.75332
X7.92945 Y8.04796 Z-3.75597
X7.92481 Y8.03367 Z-3.75862
X7.92457 Y8.01865 Z-3.76127
X7.92876 Y8.00422 Z-3.76392
X7.93701 Y7.99166 Z-3.76657
X7.94859 Y7.98208 Z-3.76922
X7.96247 Y7.97634 Z-3.77187
X7.97743 Y7.97493 Z-3.77452
X7.99214 Y7.97798 Z-3.77717
X8.0053 Y7.98522 Z-3.77982
X8.01575 Y7.99602 Z-3.78247
X8.02256 Y8.00941 Z-3.78511
X7.97903 Y8.07569 Z-3.7991
X7.96403 Y8.07475 Z-3.80175
X7.94997 Y8.06945 Z-3.8044
X7.9381 Y8.06025 Z-3.80705
X7.92945 Y8.04796 Z-3.8097
X7.92481 Y8.03367 Z-3.81234
X7.92457 Y8.01865 Z-3.81499
X7.92876 Y8.00422 Z-3.81764
X7.93701 Y7.99166 Z-3.82029
X7.94859 Y7.98208 Z-3.82294
X7.96247 Y7.97634 Z-3.82559
X7.97743 Y7.97493 Z-3.82824
X7.99214 Y7.97798 Z-3.83089
X8.0053 Y7.98522 Z-3.83354
X8.01575 Y7.99602 Z-3.83619
X8.02256 Y8.00941 Z-3.83884
X7.97903 Y8.07569 Z-3.85282
X7.96403 Y8.07475 Z-3.85547
X7.94997 Y8.06945 Z-3.85812
X7.9381 Y8.06025 Z-3.86077
X7.92945 Y8.04796 Z-3.86342
X7.92481 Y8.03367 Z-3.86606
X7.92457 Y8.01865 Z-3.86871
X7.92876 Y8.00422 Z-3.87136
X7.93701 Y7.99166 Z-3.87401
X7.94859 Y7.98208 Z-3.87666
X7.96247 Y7.97634 Z-3.87931
X7.97743 Y7.97493 Z-3.88196
X7.99214 Y7.97798 Z-3.88461
X8.0053 Y7.98522 Z-3.88726
X8.01575 Y7.99602 Z-3.88991
X8.02256 Y8.00941 Z-3.89256
X7.97903 Y8.07569 Z-3.90654
X7.96403 Y8.07475 Z-3.90919
X7.94997 Y8.06945 Z-3.91184
X7.9381 Y8.06025 Z-3.91449
X7.92945 Y8.04796 Z-3.91714
X7.92481 Y8.03367 Z-3.91979
X7.92457 Y8.01865 Z-3.92244
X7.92876 Y8.00422 Z-3.92509
X7.93701 Y7.99166 Z-3.92773
X7.94859 Y7.98208 Z-3.93038
X7.96247 Y7.97634 Z-3.93303
X7.97743 Y7.97493 Z-3.93568
X7.99214 Y7.97798 Z-3.93833
X8.0053 Y7.98522 Z-3.94098
X8.01575 Y7.99602 Z-3.94363
X8.02256 Y8.00941 Z-3.94628
X7.97903 Y8.07569 Z-3.96026
X7.96403 Y8.07475 Z-3.96291
X7.94997 Y8.06945 Z-3.96556
X7.9381 Y8.06025 Z-3.96821
X7.92945 Y8.04796 Z-3.97086
X7.92481 Y8.03367 Z-3.97351
X7.92457 Y8.01865 Z-3.97616
X7.92876 Y8.00422 Z-3.97881
X7.93701 Y7.99166 Z-3.98146
X7.94859 Y7.98208 Z-3.98411
X7.96247 Y7.97634 Z-3.98675
X7.97743 Y7.97493 Z-3.9894
X7.99214 Y7.97798 Z-3.99205
X8.0053 Y7.98522 Z-3.9947
X8.01575 Y7.99602 Z-3.99735
X8.02256 Y8.00941 Z-4.
X7.97903 Y8.07569 F961.
G03 X8.02256 Y8.00941 I-0.00439 J-0.05033
G0 Z1.
X7.92361 Y-8.00753
G1 Z0.27 F240.2
X7.92307 Y-8.01408 Z0.26884 F720.7
X7.92638 Y-8.02882 Z0.26618
X7.93391 Y-8.04193 Z0.26351
X7.94499 Y-8.0522 Z0.26085
X7.95862 Y-8.05872 Z0.25818
X7.97357 Y-8.06091 Z0.25552
X7.98849 Y-8.05855 Z0.25285
X8.00205 Y-8.05188 Z0.25019
X8.01301 Y-8.04148 Z0.24753
X8.02039 Y-8.02829 Z0.24486
X8.02353 Y-8.01351 Z0.2422
X8.02213 Y-7.99846 Z0.23953
X8.01634 Y-7.98451 Z0.23687
X8.00666 Y-7.97291 Z0.2342
X7.92994 Y-7.985 Z0.22051
X7.9243 Y-7.99902 Z0.21784
X7.92307 Y-8.01408 Z0.21518
X7.92638 Y-8.02882 Z0.21252
X7.93391 Y-8.04193 Z0.20985
X7.94499 Y-8.0522 Z0.20719
X7.95862 Y-8.05872 Z0.20452
X7.97357 Y-8.06091 Z0.20186
X7.98849 Y-8.05855 Z0.19919
X8.00205 Y-8.05188 Z0.19653
X8.01301 Y-8.04148 Z0.19386
X8.02039 Y-8.02829 Z0.1912
X8.02353 Y-8.01351 Z0.18854
X8.02213 Y-7.99846 Z0.18587
X8.01634 Y-7.98451 Z0.18321
X8.00666 Y-7.97291 Z0.18054
X7.92994 Y-7.985 Z0.16685
X7.9243 Y-7.99902 Z0.16418
X7.92307 Y-8.01408 Z0.16152
X7.92638 Y-8.02882 Z0.15885
X7.93391 Y-8.04193 Z0.15619
X7.94499 Y-8.0522 Z0.15353
X7.95862 Y-8.05872 Z0.15086
X7.97357 Y-8.06091 Z0.1482
X7.98849 Y-8.05855 Z0.14553
X8.00205 Y-8.05188 Z0.14287
X8.01301 Y-8.04148 Z0.1402
X8.02039 Y-8.02829 Z0.13754
X8.02353 Y-8.01351 Z0.13487
X8.02213 Y-7.99846 Z0.13221
X8.01634 Y-7.98451 Z0.12955
X8.00666 Y-7.97291 Z0.12688
X7.92994 Y-7.985 Z0.11319
X7.9243 Y-7.99902 Z0.11052
X7.92307 Y-8.01408 Z0.10786
X7.92638 Y-8.02882 Z0.10519
X7.93391 Y-8.04193 Z0.10253
X7.94499 Y-8.0522 Z0.09986
X7.95862 Y-8.05872 Z0.0972
X7.97357 Y-8.06091 Z0.09454
X7.98849 Y-8.05855 Z0.09187
X8.00205 Y-8.05188 Z0.08921
X8.01301 Y-8.04148 Z0.08654
X8.02039 Y-8.02829 Z0.08388
X8.02353 Y-8.01351 Z0.08121
X8.02213 Y-7.99846 Z0.07855
X8.01634 Y-7.98451 Z0.07588
X8.00666 Y-7.97291 Z0.07322
X7.92994 Y-7.985 Z0.05953
X7.9243 Y-7.99902 Z0.05686
X7.92307 Y-8.01408 Z0.0542
X7.92638 Y-8.02882 Z0.05153
X7.93391 Y-8.04193 Z0.04887
X7.94499 Y-8.0522 Z0.0462
X7.95862 Y-8.05872 Z0.04354
X7.97357 Y-8.06091 Z0.04087
X7.98849 Y-8.05855 Z0.03821
X8.00205 Y-8.05188 Z0.03555
X8.01301 Y-8.04148 Z0.03288
X8.02039 Y-8.02829 Z0.03022
X8.02353 Y-8.01351 Z0.02755
X8.02213 Y-7.99846 Z0.02489
X8.01634 Y-7.98451 Z0.02222
X8.00666 Y-7.97291 Z0.01956
X7.92994 Y-7.985 Z0.00586
X7.9243 Y-7.99902 Z0.0032
X7.92307 Y-8.01408 Z0.00054
X7.92638 Y-8.02882 Z-0.00213
X7.93391 Y-8.04193 Z-0.00479
X7.94499 Y-8.0522 Z-0.00746
X7.95862 Y-8.05872 Z-0.01012
X7.97357 Y-8.06091 Z-0.01279
X7.98849 Y-8.05855 Z-0.01545
X8.00205 Y-8.05188 Z-0.01811
X8.01301 Y-8.04148 Z-0.02078
X8.02039 Y-8.02829 Z-0.02344
X8.02353 Y-8.01351 Z-0.02611
X8.02213 Y-7.99846 Z-0.02877
X8.01634 Y-7.98451 Z-0.03144
X8.00666 Y-7.97291 Z-0.0341
X7.92994 Y-7.985 Z-0.0478
X7.9243 Y-7.99902 Z-0.05046
X7.92307 Y-8.01408 Z-0.05313
X7.92638 Y-8.02882 Z-0.05579
X7.93391 Y-8.04193 Z-0.05845
X7.94499 Y-8.0522 Z-0.06112
X7.95862 Y-8.05872 Z-0.06378
X7.97357 Y-8.06091 Z-0.06645
X7.98849 Y-8.05855 Z-0.06911
X8.00205 Y-8.05188 Z-0.07178
X8.01301 Y-8.04148 Z-0.07444
X8.02039 Y-8.02829 Z-0.07711
X8.02353 Y-8.01351 Z-0.07977
X8.02213 Y-7.99846 Z-0.08243
X8.01634 Y-7.98451 Z-0.0851
X8.00666 Y-7.97291 Z-0.08776
X7.92994 Y-7.985 Z-0.10146
X7.9243 Y-7.99902 Z-0.10412
X7.92307 Y-8.01408 Z-0.10679
X7.92638 Y-8.02882 Z-0.10945
X7.93391 Y-8.04193 Z-0.11212
X7.94499 Y-8.0522 Z-0.11478
X7.95862 Y-8.05872 Z-0.11744
X7.97357 Y-8.06091 Z-0.12011
X7.98849 Y-8.05855 Z-0.12277
X8.00205 Y-8.05188 Z-0.12544
X8.01301 Y-8.04148 Z-0.1281
X8.02039 Y-8.02829 Z-0.13077
X8.02353 Y-8.01351 Z-0.13343
X8.02213 Y-7.99846 Z-0.1361
X8.01634 Y-7.98451 Z-0.13876
X8.00666 Y-7.97291 Z-0.14142
X7.92994 Y-7.985 Z-0.15512
X7.9243 Y-7.99902 Z-0.15778
X7.92307 Y-8.01408 Z-0.16045
X7.92638 Y-8.02882 Z-0.16311
X7.93391 Y-8.04193 Z-0.16578
X7.94499 Y-8.0522 Z-0.16844
X7.95862 Y-8.05872 Z-0.17111
X7.97357 Y-8.06091 Z-0.17377
X7.98849 Y-8.05855 Z-0.17643
X8.00205 Y-8.05188 Z-0.1791
X8.01301 Y-8.04148 Z-0.18176
X8.02039 Y-8.02829 Z-0.18443
X8.02353 Y-8.01351 Z-0.18709
X8.02213 Y-7.99846 Z-0.18976
X8.01634 Y-7.98451 Z-0.19242
X8.00666 Y-7.97291 Z-0.19508
X7.92994 Y-7.985 Z-0.20878
X7.9243 Y-7.99902 Z-0.21144
X7.92307 Y-8.01408 Z-0.21411
X7.92638 Y-8.02882 Z-0.21677
X7.93391 Y-8.04193 Z-0.21944
X7.94499 Y-8.0522 Z-0.2221
X7.95862 Y-8.05872 Z-0.22477
X7.97357 Y-8.06091 Z-0.22743
X7.98849 Y-8.05855 Z-0.2301
X8.00205 Y-8.05188 Z-0.23276
X8.01301 Y-8.04148 Z-0.23542
X8.02039 Y-8.02829 Z-0.23809
X8.02353 Y-8.01351 Z-0.24075
X8.02213 Y-7.99846 Z-0.24342
X8.01634 Y-7.98451 Z-0.24608
X8.00666 Y-7.97291 Z-0.24875
X7.92994 Y-7.985 Z-0.26244
X7.9243 Y-7.99902 Z-0.2651
X7.92307 Y-8.01408 Z-0.26777
X7.92638 Y-8.02882 Z-0.27043
X7.93391 Y-8.04193 Z-0.2731
X7.94499 Y-8.0522 Z-0.27576
X7.95862 Y-8.05872 Z-0.27843
X7.97357 Y-8.06091 Z-0.28109
X7.98849 Y-8.05855 Z-0.28376
X8.00205 Y-8.05188 Z-0.28642
X8.01301 Y-8.04148 Z-0.28909
X8.02039 Y-8.02829 Z-0.29175
X8.02353 Y-8.01351 Z-0.29441
X8.02213 Y-7.99846 Z-0.29708
X8.01634 Y-7.98451 Z-0.29974
X8.00666 Y-7.97291 Z-0.30241
X7.92994 Y-7.985 Z-0.3161
X7.9243 Y-7.99902 Z-0.31877
X7.92307 Y-8.01408 Z-0.32143
X7.92638 Y-8.02882 Z-0.3241
X7.93391 Y-8.04193 Z-0.32676
X7.94499 Y-8.0522 Z-0.32942
X7.95862 Y-8.05872 Z-0.33209
X7.97357 Y-8.06091 Z-0.33475
X7.98849 Y-8.05855 Z-0.33742
X8.00205 Y-8.05188 Z-0.34008
X8.01301 Y-8.04148 Z-0.34275
X8.02039 Y-8.02829 Z-0.34541
X8.02353 Y-8.01351 Z-0.34807
X8.02213 Y-7.99846 Z-0.35074
X8.01634 Y-7.98451 Z-0.3534
X8.00666 Y-7.97291 Z-0.35607
X7.92994 Y-7.985 Z-0.36976
X7.9243 Y-7.99902 Z-0.37243
X7.92307 Y-8.01408 Z-0.37509
X7.92638 Y-8.02882 Z-0.37776
X7.93391 Y-8.04193 Z-0.38042
X7.94499 Y-8.0522 Z-0.38308
X7.95862 Y-8.05872 Z-0.38575
X7.97357 Y-8.06091 Z-0.38841
X7.98849 Y-8.05855 Z-0.39108
X8.00205 Y-8.05188 Z-0.39374
X8.01301 Y-8.04148 Z-0.39641
X8.02039 Y-8.02829 Z-0.39907
X8.02353 Y-8.01351 Z-0.40174
X8.02213 Y-7.99846 Z-0.4044
X8.01634 Y-7.98451 Z-0.40706
X8.00666 Y-7.97291 Z-0.40973
X7.92994 Y-7.985 Z-0.42342
X7.9243 Y-7.99902 Z-0.42609
X7.92307 Y-8.01408 Z-0.42875
X7.92638 Y-8.02882 Z-0.43142
X7.93391 Y-8.04193 Z-0.43408
X7.94499 Y-8.0522 Z-0.43675
X7.95862 Y-8.05872 Z-0.43941
X7.97357 Y-8.06091 Z-0.44207
X7.98849 Y-8.05855 Z-0.44474
X8.00205 Y-8.05188 Z-0.4474
X8.01301 Y-8.04148 Z-0.45007
X8.02039 Y-8.02829 Z-0.45273
X8.02353 Y-8.01351 Z-0.4554
X8.02213 Y-7.99846 Z-0.45806
X8.01634 Y-7.98451 Z-0.46073
X8.00666 Y-7.97291 Z-0.46339
X7.92994 Y-7.985 Z-0.47708
X7.9243 Y-7.99902 Z-0.47975
X7.92307 Y-8.01408 Z-0.48241
X7.92638 Y-8.02882 Z-0.48508
X7.93391 Y-8.04193 Z-0.48774
X7.94499 Y-8.0522 Z-0.49041
X7.95862 Y-8.05872 Z-0.49307
X7.97357 Y-8.06091 Z-0.49574
X7.98849 Y-8.05855 Z-0.4984
X8.00205 Y-8.05188 Z-0.50106
X8.01301 Y-8.04148 Z-0.50373
X8.02039 Y-8.02829 Z-0.50639
X8.02353 Y-8.01351 Z-0.50906
X8.02213 Y-7.99846 Z-0.51172
X8.01634 Y-7.98451 Z-0.51439
X8.00666 Y-7.97291 Z-0.51705
X7.92994 Y-7.985 Z-0.53075
X7.9243 Y-7.99902 Z-0.53341
X7.92307 Y-8.01408 Z-0.53607
X7.92638 Y-8.02882 Z-0.53874
X7.93391 Y-8.04193 Z-0.5414
X7.94499 Y-8.0522 Z-0.54407
X7.95862 Y-8.05872 Z-0.54673
X7.97357 Y-8.06091 Z-0.5494
X7.98849 Y-8.05855 Z-0.55206
X8.00205 Y-8.05188 Z-0.55472
X8.01301 Y-8.04148 Z-0.55739
X8.02039 Y-8.02829 Z-0.56005
X8.02353 Y-8.01351 Z-0.56272
X8.02213 Y-7.99846 Z-0.56538
X8.01634 Y-7.98451 Z-0.56805
X8.00666 Y-7.97291 Z-0.57071
X7.92994 Y-7.985 Z-0.58441
X7.9243 Y-7.99902 Z-0.58707
X7.92307 Y-8.01408 Z-0.58974
X7.92638 Y-8.02882 Z-0.5924
X7.93391 Y-8.04193 Z-0.59506
X7.94499 Y-8.0522 Z-0.59773
X7.95862 Y-8.05872 Z-0.60039
X7.97357 Y-8.06091 Z-0.60306
X7.98849 Y-8.05855 Z-0.60572
X8.00205 Y-8.05188 Z-0.60839
X8.01301 Y-8.04148 Z-0.61105
X8.02039 Y-8.02829 Z-0.61372
X8.02353 Y-8.01351 Z-0.61638
X8.02213 Y-7.99846 Z-0.61904
X8.01634 Y-7.98451 Z-0.62171
X8.00666 Y-7.97291 Z-0.62437
X7.92994 Y-7.985 Z-0.63807
X7.9243 Y-7.99902 Z-0.64073
X7.92307 Y-8.01408 Z-0.6434
X7.92638 Y-8.02882 Z-0.64606
X7.93391 Y-8.04193 Z-0.64873
X7.94499 Y-8.0522 Z-0.65139
X7.95862 Y-8.05872 Z-0.65405
X7.97357 Y-8.06091 Z-0.65672
X7.98849 Y-8.05855 Z-0.65938
X8.00205 Y-8.05188 Z-0.66205
X8.01301 Y-8.04148 Z-0.66471
X8.02039 Y-8.02829 Z-0.66738
X8.02353 Y-8.01351 Z-0.67004
X8.02213 Y-7.99846 Z-0.67271
X8.01634 Y-7.98451 Z-0.67537
X8.00666 Y-7.97291 Z-0.67803
X7.92994 Y-7.985 Z-0.69173
X7.9243 Y-7.99902 Z-0.69439
X7.92307 Y-8.01408 Z-0.69706
X7.92638 Y-8.02882 Z-0.69972
X7.93391 Y-8.04193 Z-0.70239
X7.94499 Y-8.0522 Z-0.70505
X7.95862 Y-8.05872 Z-0.70772
X7.97357 Y-8.06091 Z-0.71038
X7.98849 Y-8.05855 Z-0.71304
X8.00205 Y-8.05188 Z-0.71571
X8.01301 Y-8.04148 Z-0.71837
X8.02039 Y-8.02829 Z-0.72104
X8.02353 Y-8.01351 Z-0.7237
X8.02213 Y-7.99846 Z-0.72637
X8.01634 Y-7.98451 Z-0.72903
X8.00666 Y-7.97291 Z-0.73169
X7.92994 Y-7.985 Z-0.74539
X7.9243 Y-7.99902 Z-0.74805
X7.92307 Y-8.01408 Z-0.75072
X7.92638 Y-8.02882 Z-0.75338
X7.93391 Y-8.04193 Z-0.75605
X7.94499 Y-8.0522 Z-0.75871
X7.95862 Y-8.05872 Z-0.76138
X7.97357 Y-8.06091 Z-0.76404
X7.98849 Y-8.05855 Z-0.76671
X8.00205 Y-8.05188 Z-0.76937
X8.01301 Y-8.04148 Z-0.77203
X8.02039 Y-8.02829 Z-0.7747
X8.02353 Y-8.01351 Z-0.77736
X8.02213 Y-7.99846 Z-0.78003
X8.01634 Y-7.98451 Z-0.78269
X8.00666 Y-7.97291 Z-0.78536
X7.92994 Y-7.985 Z-0.79905
X7.9243 Y-7.99902 Z-0.80172
X7.92307 Y-8.01408 Z-0.80438
X7.92638 Y-8.02882 Z-0.80704
X7.93391 Y-8.04193 Z-0.80971
X7.94499 Y-8.0522 Z-0.81237
X7.95862 Y-8.05872 Z-0.81504
X7.97357 Y-8.06091 Z-0.8177
X7.98849 Y-8.05855 Z-0.82037
X8.00205 Y-8.05188 Z-0.82303
X8.01301 Y-8.04148 Z-0.8257
X8.02039 Y-8.02829 Z-0.82836
X8.02353 Y-8.01351 Z-0.83102
X8.02213 Y-7.99846 Z-0.83369
X8.01634 Y-7.98451 Z-0.83635
X8.00666 Y-7.97291 Z-0.83902
X7.92994 Y-7.985 Z-0.85271
X7.9243 Y-7.99902 Z-0.85538
X7.92307 Y-8.01408 Z-0.85804
X7.92638 Y-8.02882 Z-0.86071
X7.93391 Y-8.04193 Z-0.86337
X7.94499 Y-8.0522 Z-0.86603
X7.95862 Y-8.05872 Z-0.8687
X7.97357 Y-8.06091 Z-0.87136
X7.98849 Y-8.05855 Z-0.87403
X8.00205 Y-8.05188 Z-0.87669
X8.01301 Y-8.04148 Z-0.87936
X8.02039 Y-8.02829 Z-0.88202
X8.02353 Y-8.01351 Z-0.88469
X8.02213 Y-7.99846 Z-0.88735
X8.01634 Y-7.98451 Z-0.89001
X8.00666 Y-7.97291 Z-0.89268
X7.92994 Y-7.985 Z-0.90637
X7.9243 Y-7.99902 Z-0.90904
X7.92307 Y-8.01408 Z-0.9117
X7.92638 Y-8.02882 Z-0.91437
X7.93391 Y-8.04193 Z-0.91703
X7.94499 Y-8.0522 Z-0.9197
X7.95862 Y-8.05872 Z-0.92236
X7.97357 Y-8.06091 Z-0.92502
X7.98849 Y-8.05855 Z-0.92769
X8.00205 Y-8.05188 Z-0.93035
X8.01301 Y-8.04148 Z-0.93302
X8.02039 Y-8.02829 Z-0.93568
X8.02353 Y-8.01351 Z-0.93835
X8.02213 Y-7.99846 Z-0.94101
X8.01634 Y-7.98451 Z-0.94368
X8.00666 Y-7.97291 Z-0.94634
X7.92994 Y-7.985 Z-0.96003
X7.9243 Y-7.99902 Z-0.9627
X7.92307 Y-8.01408 Z-0.96536
X7.92638 Y-8.02882 Z-0.96803
X7.93391 Y-8.04193 Z-0.97069
X7.94499 Y-8.0522 Z-0.97336
X7.95862 Y-8.05872 Z-0.97602
X7.97357 Y-8.06091 Z-0.97869
X7.98849 Y-8.05855 Z-0.98135
X8.00205 Y-8.05188 Z-0.98401
X8.01301 Y-8.04148 Z-0.98668
X8.02039 Y-8.02829 Z-0.98934
X8.02353 Y-8.01351 Z-0.99201
X8.02213 Y-7.99846 Z-0.99467
X8.01634 Y-7.98451 Z-0.99734
X8.00666 Y-7.97291 Z-1.
X7.92994 Y-7.985 F961.
G03 X8.00666 Y-7.97291 I0.04334 J-0.02558
G0 Z1.
X7.92361 Y-8.00753
G1 Z-0.73 F240.2
X7.92307 Y-8.01408 Z-0.73116 F720.7
X7.92638 Y-8.02882 Z-0.73382
X7.93391 Y-8.04193 Z-0.73649
X7.94499 Y-8.0522 Z-0.73915
X7.95862 Y-8.05872 Z-0.74182
X7.97357 Y-8.06091 Z-0.74448
X7.98849 Y-8.05855 Z-0.74714
X8.00205 Y-8.05188 Z-0.74981
X8.01301 Y-8.04148 Z-0.75247
X8.02039 Y-8.02829 Z-0.75514
X8.02353 Y-8.01351 Z-0.7578
X8.02213 Y-7.99846 Z-0.76047
X8.01634 Y-7.98451 Z-0.76313
X8.00666 Y-7.97291 Z-0.7658
X7.92994 Y-7.985 Z-0.77949
X7.9243 Y-7.99902 Z-0.78216
X7.92307 Y-8.01408 Z-0.78482
X7.92638 Y-8.02882 Z-0.78748
X7.93391 Y-8.04193 Z-0.79015
X7.94499 Y-8.0522 Z-0.79281
X7.95862 Y-8.05872 Z-0.79548
X7.97357 Y-8.06091 Z-0.79814
X7.98849 Y-8.05855 Z-0.80081
X8.00205 Y-8.05188 Z-0.80347
X8.01301 Y-8.04148 Z-0.80614
X8.02039 Y-8.02829 Z-0.8088
X8.02353 Y-8.01351 Z-0.81146
X8.02213 Y-7.99846 Z-0.81413
X8.01634 Y-7.98451 Z-0.81679
X8.00666 Y-7.97291 Z-0.81946
X7.92994 Y-7.985 Z-0.83315
X7.9243 Y-7.99902 Z-0.83582
X7.92307 Y-8.01408 Z-0.83848
X7.92638 Y-8.02882 Z-0.84115
X7.93391 Y-8.04193 Z-0.84381
X7.94499 Y-8.0522 Z-0.84647
X7.95862 Y-8.05872 Z-0.84914
X7.97357 Y-8.06091 Z-0.8518
X7.98849 Y-8.05855 Z-0.85447
X8.00205 Y-8.05188 Z-0.85713
X8.01301 Y-8.04148 Z-0.8598
X8.02039 Y-8.02829 Z-0.86246
X8.02353 Y-8.01351 Z-0.86513
X8.02213 Y-7.99846 Z-0.86779
X8.01634 Y-7.98451 Z-0.87045
X8.00666 Y-7.97291 Z-0.87312
X7.92994 Y-7.985 Z-0.88681
X7.9243 Y-7.99902 Z-0.88948
X7.92307 Y-8.01408 Z-0.89214
X7.92638 Y-8.02882 Z-0.89481
X7.93391 Y-8.04193 Z-0.89747
X7.94499 Y-8.0522 Z-0.90014
X7.95862 Y-8.05872 Z-0.9028
X7.97357 Y-8.06091 Z-0.90546
X7.98849 Y-8.05855 Z-0.90813
X8.00205 Y-8.05188 Z-0.91079
X8.01301 Y-8.04148 Z-0.91346
X8.02039 Y-8.02829 Z-0.91612
X8.02353 Y-8.01351 Z-0.91879
X8.02213 Y-7.99846 Z-0.92145
X8.01634 Y-7.98451 Z-0.92412
X8.00666 Y-7.97291 Z-0.92678
X7.92994 Y-7.985 Z-0.94047
X7.9243 Y-7.99902 Z-0.94314
X7.92307 Y-8.01408 Z-0.9458
X7.92638 Y-8.02882 Z-0.94847
X7.93391 Y-8.04193 Z-0.95113
X7.94499 Y-8.0522 Z-0.9538
X7.95862 Y-8.05872 Z-0.95646
X7.97357 Y-8.06091 Z-0.95913
X7.98849 Y-8.05855 Z-0.96179
X8.00205 Y-8.05188 Z-0.96445
X8.01301 Y-8.04148 Z-0.96712
X8.02039 Y-8.02829 Z-0.96978
X8.02353 Y-8.01351 Z-0.97245
X8.02213 Y-7.99846 Z-0.97511
X8.01634 Y-7.98451 Z-0.97778
X8.00666 Y-7.97291 Z-0.98044
X7.92994 Y-7.985 Z-0.99414
X7.9243 Y-7.99902 Z-0.9968
X7.92307 Y-8.01408 Z-0.99946
X7.92638 Y-8.02882 Z-1.00213
X7.93391 Y-8.04193 Z-1.00479
X7.94499 Y-8.0522 Z-1.00746
X7.95862 Y-8.05872 Z-1.01012
X7.97357 Y-8.06091 Z-1.01279
X7.98849 Y-8.05855 Z-1.01545
X8.00205 Y-8.05188 Z-1.01812
X8.01301 Y-8.04148 Z-1.02078
X8.02039 Y-8.02829 Z-1.02344
