%
G17 G21 G40 G90 G64 P0.1
(2 1/2 Axis Profiling)
(SlotDrill 1/8in 3.175mm Carbide Aluminium Cut)
T6 M06
S16542 M3
G0 Z1.5875
X-21.76592 Y-18.0125
G1 Z0.1 F105.
X-18.36315 Z-0.5 F315.
X-17.59948 F420.
G17
G03 X-14.69182 Y-15.32371 I-2.40052 J5.5125
X-17.59948 Y-6.9875 I-5.30818 J2.82371
G1 X-22.40052
G03 Y-18.0125 I2.40052 J-5.5125
G1 X-18.36315
G0 Z1.5875
X-21.76592
G1 Z-0.4 F105.
X-18.36315 Z-1. F315.
X-17.59948 F420.
G03 X-14.69182 Y-15.32371 I-2.40052 J5.5125
X-17.59948 Y-6.9875 I-5.30818 J2.82371
G1 X-22.40052
G03 Y-18.0125 I2.40052 J-5.5125
G1 X-18.36315
G0 Z1.5875
X-21.76592
G1 Z-0.9 F105.
X-18.36315 Z-1.5 F315.
X-17.59948 F420.
G03 X-14.69182 Y-15.32371 I-2.40052 J5.5125
X-17.59948 Y-6.9875 I-5.30818 J2.82371
G1 X-22.40052
G03 Y-18.0125 I2.40052 J-5.5125
G1 X-18.36315
G0 Z1.5875
X-21.76592
G1 Z-1.4 F105.
X-18.36315 Z-2. F315.
X-17.59948 F420.
G03 X-14.69182 Y-15.32371 I-2.40052 J5.5125
X-17.59948 Y-6.9875 I-5.30818 J2.82371
G1 X-22.40052
G03 Y-18.0125 I2.40052 J-5.5125
G1 X-18.36315
G0 Z1.5875
X-21.76592
G1 Z-1.9 F105.
X-18.36315 Z-2.5 F315.
X-17.59948 F420.
G03 X-14.69182 Y-15.32371 I-2.40052 J5.5125
X-17.59948 Y-6.9875 I-5.30818 J2.82371
G1 X-22.40052
G03 Y-18.0125 I2.40052 J-5.5125
G1 X-18.36315
G0 Z1.5875
X-21.76592
G1 Z-2.4 F105.
X-18.36315 Z-3. F315.
X-17.59948 F420.
G03 X-14.69182 Y-15.32371 I-2.40052 J5.5125
X-17.59948 Y-6.9875 I-5.30818 J2.82371
G1 X-22.40052
G03 Y-18.0125 I2.40052 J-5.5125
G1 X-18.36315
G0 Z1.5875
X-21.76592
G1 Z-2.9 F105.
X-18.36315 Z-3.5 F315.
X-17.59948 F420.
G03 X-14.69182 Y-15.32371 I-2.40052 J5.5125
X-17.59948 Y-6.9875 I-5.30818 J2.82371
G1 X-22.40052
G03 Y-18.0125 I2.40052 J-5.5125
G1 X-18.36315
G0 Z1.5875
X-21.76592
G1 Z-3.4 F105.
X-18.36315 Z-4. F315.
X-17.59948 F420.
G03 X-14.69182 Y-15.32371 I-2.40052 J5.5125
X-17.59948 Y-6.9875 I-5.30818 J2.82371
G1 X-22.40052
G03 Y-18.0125 I2.40052 J-5.5125
G1 X-18.36315
G0 Z1.5875
X-18.47681 Y-31.9875
G1 Z0.1 F105.
X-21.87958 Z-0.5 F315.
X-22.40052 F420.
G03 Y-43.0125 I2.40052 J-5.5125
G1 X-17.59945
G03 X-14.9031 Y-34.31136 I-2.40015 J5.51212
G1 X-14.90337 Y-34.31094
G03 X-17.59942 Y-31.9875 I-5.09499 J-3.18616
G1 X-21.87958
G0 Z1.5875
X-18.47681
G1 Z-0.4 F105.
X-21.87958 Z-1. F315.
X-22.40052 F420.
G03 Y-43.0125 I2.40052 J-5.5125
G1 X-17.59945
G03 X-14.9031 Y-34.31136 I-2.40015 J5.51212
G1 X-14.90337 Y-34.31094
G03 X-17.59942 Y-31.9875 I-5.09499 J-3.18616
G1 X-21.87958
G0 Z1.5875
X-18.47681
G1 Z-0.9 F105.
X-21.87958 Z-1.5 F315.
X-22.40052 F420.
G03 Y-43.0125 I2.40052 J-5.5125
G1 X-17.59945
G03 X-14.9031 Y-34.31136 I-2.40015 J5.51212
G1 X-14.90337 Y-34.31094
G03 X-17.59942 Y-31.9875 I-5.09499 J-3.18616
G1 X-21.87958
G0 Z1.5875
X-18.47681
G1 Z-1.4 F105.
X-21.87958 Z-2. F315.
X-22.40052 F420.
G03 Y-43.0125 I2.40052 J-5.5125
G1 X-17.59945
G03 X-14.9031 Y-34.31136 I-2.40015 J5.51212
G1 X-14.90337 Y-34.31094
G03 X-17.59942 Y-31.9875 I-5.09499 J-3.18616
G1 X-21.87958
G0 Z1.5875
X-18.47681
G1 Z-1.9 F105.
X-21.87958 Z-2.5 F315.
X-22.40052 F420.
G03 Y-43.0125 I2.40052 J-5.5125
G1 X-17.59945
G03 X-14.9031 Y-34.31136 I-2.40015 J5.51212
G1 X-14.90337 Y-34.31094
G03 X-17.59942 Y-31.9875 I-5.09499 J-3.18616
G1 X-21.87958
G0 Z1.5875
X-18.47681
G1 Z-2.4 F105.
X-21.87958 Z-3. F315.
X-22.40052 F420.
G03 Y-43.0125 I2.40052 J-5.5125
G1 X-17.59945
G03 X-14.9031 Y-34.31136 I-2.40015 J5.51212
G1 X-14.90337 Y-34.31094
G03 X-17.59942 Y-31.9875 I-5.09499 J-3.18616
G1 X-21.87958
G0 Z1.5875
X-18.47681
G1 Z-2.9 F105.
X-21.87958 Z-3.5 F315.
X-22.40052 F420.
G03 Y-43.0125 I2.40052 J-5.5125
G1 X-17.59945
G03 X-14.9031 Y-34.31136 I-2.40015 J5.51212
G1 X-14.90337 Y-34.31094
G03 X-17.59942 Y-31.9875 I-5.09499 J-3.18616
G1 X-21.87958
G0 Z1.5875
X-18.47681
G1 Z-3.4 F105.
X-21.87958 Z-4. F315.
X-22.40052 F420.
G03 Y-43.0125 I2.40052 J-5.5125
G1 X-17.59945
G03 X-14.9031 Y-34.31136 I-2.40015 J5.51212
G1 X-14.90337 Y-34.31094
G03 X-17.59942 Y-31.9875 I-5.09499 J-3.18616
G1 X-21.87958
G0 Z1.5875
(2 1/2 Axis Profiling-Finish)
(SlotDrill 1/8in 3.175mm Carbide Aluminium Cut)
S20652 M3
X-18.71315 Y-17.7875
G1 Z-4. F96.
G03 X-18.36315 Y-18.1375 I0.35 J0. F288.
G1 X-17.57358 F384.
G03 X-14.58146 Y-15.38241 I-2.42642 J5.6375
X-17.57358 Y-6.8625 I-5.41854 J2.88241
G1 X-22.42642
G03 Y-18.1375 I2.42642 J-5.6375
G1 X-18.36315
X-18.33609 Y-18.15313
Y-18.18438
X-18.36315 Y-18.2
X-18.39021 Y-18.21563
Y-18.24688
X-18.36315 Y-18.2625
X-17.54796
G03 X-14.4711 Y-15.44112 I-2.45204 J5.7625
X-17.54796 Y-6.7375 I-5.5289 J2.94112
G1 X-22.45204
G03 Y-18.2625 I2.45204 J-5.7625
G1 X-18.36315
G03 X-18.01315 Y-17.9125 I0. J0.35 F576.
G0 Z1.5875
X-21.52958 Y-32.2125
G1 Z-4. F96.
G03 X-21.87958 Y-31.8625 I-0.35 J0. F288.
G1 X-22.42642 F384.
G03 Y-43.1375 I2.42642 J-5.6375
G1 X-17.57356
G03 X-14.79714 Y-34.24505 I-2.42604 J5.63712
G1 X-14.79738 Y-34.24466
G03 X-17.57353 Y-31.8625 I-5.20098 J-3.25244
G1 X-21.87958
X-21.90664 Y-31.84688
Y-31.81563
X-21.87958 Y-31.8
X-21.85251 Y-31.78438
Y-31.75313
X-21.87958 Y-31.7375
X-22.45204
G03 Y-43.2625 I2.45204 J-5.7625
G1 X-17.54793
G03 X-14.69117 Y-34.17874 I-2.45167 J5.76212
G1 X-14.6914 Y-34.17838
G03 X-17.54791 Y-31.7375 I-5.30696 J-3.31872
G1 X-21.87958
G03 X-22.22958 Y-32.0875 I0. J-0.35 F576.
G0 Z1.5875
(2 1/2 Axis Profiling)
(SlotDrill 1/8in 3.175mm Carbide Aluminium Cut)
S16542 M3
X9.525 Y-51.5875
G1 Z-0.5 F105.
X3.175 F315.
X0.
X-40. F420.
G02 X-41.5875 Y-50. I0. J1.5875
G1 Y0.
G02 X-40. Y1.5875 I1.5875 J0.
G1 X0.
X6.35 F630.
X12.7
G0 Z1.5875
X9.525 Y-51.5875
G1 Z-1. F105.
X3.175 F315.
X0.
X-40. F420.
G02 X-41.5875 Y-50. I0. J1.5875
G1 Y0.
G02 X-40. Y1.5875 I1.5875 J0.
G1 X0.
X6.35 F630.
X12.7
G0 Z1.5875
X9.525 Y-51.5875
G1 Z-1.5 F105.
X3.175 F315.
X0.
X-40. F420.
G02 X-41.5875 Y-50. I0. J1.5875
G1 Y0.
G02 X-40. Y1.5875 I1.5875 J0.
G1 X0.
X6.35 F630.
X12.7
G0 Z1.5875
X9.525 Y-51.5875
G1 Z-2. F105.
X3.175 F315.
X0.
X-40. F420.
G02 X-41.5875 Y-50. I0. J1.5875
G1 Y0.
G02 X-40. Y1.5875 I1.5875 J0.
G1 X0.
X6.35 F630.
X12.7
G0 Z1.5875
X9.525 Y-51.5875
G1 Z-2.5 F105.
X3.175 F315.
X0.
X-40. F420.
G02 X-41.5875 Y-50. I0. J1.5875
G1 Y0.
G02 X-40. Y1.5875 I1.5875 J0.
G1 X0.
X6.35 F630.
X12.7
G0 Z1.5875
X9.525 Y-51.5875
G1 Z-3. F105.
X3.175 F315.
X0.
X-40. F420.
G02 X-41.5875 Y-50. I0. J1.5875
G1 Y0.
G02 X-40. Y1.5875 I1.5875 J0.
G1 X0.
X6.35 F630.
X12.7
G0 Z1.5875
X9.525 Y-51.5875
G1 Z-3.5 F105.
X3.175 F315.
X0.
X-40. F420.
G02 X-41.5875 Y-50. I0. J1.5875
G1 Y0.
G02 X-40. Y1.5875 I1.5875 J0.
G1 X0.
X6.35 F630.
X12.7
G0 Z1.5875
X9.525 Y-51.5875
G1 Z-4. F105.
X3.175 F315.
X0.
X-40. F420.
G02 X-41.5875 Y-50. I0. J1.5875
G1 Y0.
G02 X-40. Y1.5875 I1.5875 J0.
G1 X0.
X6.35 F630.
X12.7
G0 Z1.5875
M30
%
