%
G17 G21 G40 G90 G64 P0.1
(2 1/2 Axis Pocketing)
(SlotDrill 2mm Carbide)
T12 M06
S24000 M3
G0 Z1.
X-0.0393 Y-0.35999
G1 Z0.6 F120.
Z0. F360.
X0.02847 Y-0.37989 Z-0.01245
X0.14788 Y-0.37678 Z-0.03352
X0.26721 Y-0.33507 Z-0.05581
X0.37377 Y-0.25483 Z-0.07933
X0.45503 Y-0.14036 Z-0.10408
X0.37377 Y-0.25483 Z-0.12883
X0.26721 Y-0.33507 Z-0.15236
X0.14788 Y-0.37678 Z-0.17465
X0.02847 Y-0.37989 Z-0.19571
X-0.07947 Y-0.34819 Z-0.21554
X-0.16667 Y-0.28868 Z-0.23416
X-0.2269 Y-0.21053 Z-0.25155
X-0.25742 Y-0.12397 Z-0.26774
X-0.25898 Y-0.03903 Z-0.28272
X-0.23544 Y0.03549 Z-0.2965
X-0.19307 Y0.09298 Z-0.30909
X-0.13963 Y0.12956 Z-0.32051
X-0.08333 Y0.14434 Z-0.33077
X-0.03179 Y0.13928 Z-0.33991
X0.0089 Y0.11871 Z-0.34794
X0.03479 Y0.08865 Z-0.35494
X0.04453 Y0.05584 Z-0.36097
X0.03934 Y0.02682 Z-0.36617
X0.02275 Y0.00702 Z-0.37073
X0. Y0. Z-0.37493
X0.02275 Y0.00702 Z-0.37912
X0.03934 Y0.02682 Z-0.38368
X0.04453 Y0.05584 Z-0.38888
X0.03479 Y0.08865 Z-0.39491
X0.0089 Y0.11871 Z-0.40191
X-0.03179 Y0.13928 Z-0.40995
X-0.08333 Y0.14434 Z-0.41908
X-0.13963 Y0.12956 Z-0.42934
X-0.19307 Y0.09298 Z-0.44076
X-0.23544 Y0.03549 Z-0.45335
X-0.25898 Y-0.03903 Z-0.46714
X-0.25742 Y-0.12397 Z-0.48211
X-0.2269 Y-0.21053 Z-0.4983
X-0.16667 Y-0.28868 Z-0.51569
X-0.07947 Y-0.34819 Z-0.53431
X0.02847 Y-0.37989 Z-0.55415
X0.14788 Y-0.37678 Z-0.57521
X0.26721 Y-0.33507 Z-0.5975
X0.37377 Y-0.25483 Z-0.62102
X0.45503 Y-0.14036 Z-0.64577
X0.37377 Y-0.25483 Z-0.67053
X0.26721 Y-0.33507 Z-0.69405
X0.14788 Y-0.37678 Z-0.71634
X0.02847 Y-0.37989 Z-0.7374
X-0.07947 Y-0.34819 Z-0.75724
X-0.16667 Y-0.28868 Z-0.77585
X-0.2269 Y-0.21053 Z-0.79325
X-0.25742 Y-0.12397 Z-0.80943
X-0.25898 Y-0.03903 Z-0.82441
X-0.23544 Y0.03549 Z-0.83819
X-0.19307 Y0.09298 Z-0.85078
X-0.13963 Y0.12956 Z-0.8622
X-0.08333 Y0.14434 Z-0.87246
X-0.03179 Y0.13928 Z-0.8816
X0.0089 Y0.11871 Z-0.88963
X0.03479 Y0.08865 Z-0.89663
X0.04453 Y0.05584 Z-0.90267
X0.03934 Y0.02682 Z-0.90786
X0.02275 Y0.00702 Z-0.91242
X0. Y0. Z-0.91662
X0.02275 Y0.00702 Z-0.92082
X0.03934 Y0.02682 Z-0.92537
X0.04453 Y0.05584 Z-0.93057
X0.03479 Y0.08865 Z-0.93661
X0.0089 Y0.11871 Z-0.9436
X-0.03179 Y0.13928 Z-0.95164
X-0.08333 Y0.14434 Z-0.96077
X-0.13963 Y0.12956 Z-0.97103
X-0.19307 Y0.09298 Z-0.98245
X-0.23544 Y0.03549 Z-0.99505
X-0.25898 Y-0.03903 Z-1.00883
X-0.25742 Y-0.12397 Z-1.0238
X-0.2269 Y-0.21053 Z-1.03999
X-0.16667 Y-0.28868 Z-1.05739
X-0.07947 Y-0.34819 Z-1.076
X0.02847 Y-0.37989 Z-1.09584
X0.14788 Y-0.37678 Z-1.1169
X0.26721 Y-0.33507 Z-1.13919
X0.37377 Y-0.25483 Z-1.16271
X0.45503 Y-0.14036 Z-1.18746
X0.37377 Y-0.25483 Z-1.21222
X0.26721 Y-0.33507 Z-1.23574
X0.14788 Y-0.37678 Z-1.25803
X0.02847 Y-0.37989 Z-1.27909
X-0.07947 Y-0.34819 Z-1.29893
X-0.16667 Y-0.28868 Z-1.31754
X-0.2269 Y-0.21053 Z-1.33494
X-0.25742 Y-0.12397 Z-1.35112
X-0.25898 Y-0.03903 Z-1.3661
X-0.23544 Y0.03549 Z-1.37988
X-0.19307 Y0.09298 Z-1.39247
X-0.13963 Y0.12956 Z-1.40389
X-0.08333 Y0.14434 Z-1.41416
X-0.03179 Y0.13928 Z-1.42329
X0.0089 Y0.11871 Z-1.43132
X0.03479 Y0.08865 Z-1.43832
X0.04453 Y0.05584 Z-1.44436
X0.03934 Y0.02682 Z-1.44956
X0.02275 Y0.00702 Z-1.45411
X0. Y0. Z-1.45831
X0.02275 Y0.00702 Z-1.46251
X0.03934 Y0.02682 Z-1.46706
X0.04453 Y0.05584 Z-1.47226
X0.03479 Y0.08865 Z-1.4783
X0.0089 Y0.11871 Z-1.48529
X-0.03179 Y0.13928 Z-1.49333
X-0.08333 Y0.14434 Z-1.50246
X-0.13963 Y0.12956 Z-1.51273
X-0.19307 Y0.09298 Z-1.52414
X-0.23544 Y0.03549 Z-1.53674
X-0.25898 Y-0.03903 Z-1.55052
X-0.25742 Y-0.12397 Z-1.5655
X-0.2269 Y-0.21053 Z-1.58168
X-0.16667 Y-0.28868 Z-1.59908
X-0.07947 Y-0.34819 Z-1.61769
X0.02847 Y-0.37989 Z-1.63753
X0.14788 Y-0.37678 Z-1.65859
X0.26721 Y-0.33507 Z-1.68088
X0.37377 Y-0.25483 Z-1.7044
X0.45503 Y-0.14036 Z-1.72916
X0.37377 Y-0.25483 Z-1.75391
X0.26721 Y-0.33507 Z-1.77743
X0.14788 Y-0.37678 Z-1.79972
X0.02847 Y-0.37989 Z-1.82078
X-0.07947 Y-0.34819 Z-1.84062
X-0.16667 Y-0.28868 Z-1.85923
X-0.2269 Y-0.21053 Z-1.87663
X-0.25742 Y-0.12397 Z-1.89281
X-0.25898 Y-0.03903 Z-1.90779
X-0.23544 Y0.03549 Z-1.92157
X-0.19307 Y0.09298 Z-1.93417
X-0.13963 Y0.12956 Z-1.94558
X-0.08333 Y0.14434 Z-1.95585
X-0.03179 Y0.13928 Z-1.96498
X0.0089 Y0.11871 Z-1.97302
X0.03479 Y0.08865 Z-1.98001
X0.04453 Y0.05584 Z-1.98605
X0.03934 Y0.02682 Z-1.99125
X0.02275 Y0.00702 Z-1.9958
X0. Y0. Z-2.
X0.02275 Y0.00702 F480.
X0.03934 Y0.02682
X0.04453 Y0.05584
X0.03479 Y0.08865
X0.0089 Y0.11871
X-0.03179 Y0.13928
X-0.08333 Y0.14434
X-0.13963 Y0.12956
X-0.19307 Y0.09298
X-0.23544 Y0.03549
X-0.25898 Y-0.03903
X-0.25742 Y-0.12397
X-0.2269 Y-0.21053
X-0.16667 Y-0.28868
X-0.07947 Y-0.34819
X0.02847 Y-0.37989
G17
G03 X-0.62218 Y0.34204 I-0.1486 J0.52024
X0.82654 Y0.65272 I0.82671 J-0.32193
X0.2001 Y-1.37201 I-0.90502 J-0.82927
X-1.6832 Y0.40491 I-0.34162 J1.52441
X1.21191 Y1.68477 I1.8766 J-0.33058
X1.15186 Y-2.12212 I-1.22999 J-1.88451
X-2.74445 Y-0.27153 I-1.33384 J2.21871
X0.86709 Y2.97883 I2.90328 J0.40571
X2.58586 Y-2.27266 I-0.81349 J-3.17327
X-3.42145 Y-1.61901 I-2.78856 J2.3036
X-0.25379 Y4.12209 I3.52541 J1.79928
X4.18841 Y-1.56583 I0.37323 J-4.28713
X-3.32286 Y-3.4838 I-4.38931 J1.52266
X-2.02689 Y4.74214 I3.35703 J3.68616
X5.50052 Y0.10474 I2.20077 J-4.85566
X-2.22352 Y-5.4044 I-5.67053 J-0.21897
X-4.42539 Y4.32577 I2.18044 J5.60763
X5.96548 Y2.66435 I4.63072 J-4.36254
X0.09025 Y-6.87545 I-6.07714 J-2.83638
X-6.72765 Y2.62169 I-0.20871 J7.04599
X5.18305 Y5.51037 I6.93039 J-2.576
X3.16719 Y-7.24583 I-5.21929 J-5.71258
X-8.25023 Y-0.13026 I-3.34056 J7.35764
X3.02935 Y8.04488 I8.42029 J0.2512
X6.53588 Y-6.10002 I-2.98325 J-8.24663
X-8.43225 Y-3.88542 I-6.74039 J6.13372
X-0.4877 Y9.61667 I8.5392 J4.06389
X9.37642 Y-3.39567 I0.6095 J-9.78292
X-6.99229 Y-7.58434 I-9.57701 J3.34793
X-4.54947 Y9.64053 I7.02259 J7.78972
X10.98829 Y0.59321 I4.72714 J-9.74751
X-3.82516 Y-10.6835 I-11.15408 J-0.7157
X-8.80702 Y7.69154 I3.77264 J10.8857
X10.76178 Y5.3919 I9.01259 J-7.71759
X0.91764 Y-12.34685 I-10.86507 J-5.5713
X-12.11981 Y3.87876 I-1.04582 J12.51034
X8.32865 Y10.07269 I12.31948 J-3.82025
X6.34402 Y-11.81923 I-8.3504 J-10.27891
X-13.66758 Y-1.58504 I-6.52871 J11.91609
X3.58268 Y13.64196 I13.82502 J1.72268
X11.54556 Y-8.687 I-3.51528 J-13.83794
X-12.73034 Y-7.53374 I-11.75208 J8.69913
X14.99803 Y-0.17615 I12.83413 J7.56076
G0 Z1.
X14.99897 Y-0.17616
G1 Z-2. F120.
G03 X-14.99897 Y0.17616 I-14.99897 J0.17616 F480.
X14.99897 Y-0.17616 I14.99897 J-0.17616
G1 Z-1.4 F720.
G0 Z1.
(2 1/2 Axis Pocketing-1)
(SlotDrill 2mm Carbide)
X-0.0393 Y-0.35999
G1 Z-1.4 F120.
Z-2. F360.
X0.02847 Y-0.37989 Z-2.01245
X0.14788 Y-0.37678 Z-2.03352
X0.26721 Y-0.33507 Z-2.05581
X0.37377 Y-0.25483 Z-2.07933
X0.45503 Y-0.14036 Z-2.10408
X0.37377 Y-0.25483 Z-2.12883
X0.26721 Y-0.33507 Z-2.15236
X0.14788 Y-0.37678 Z-2.17465
X0.02847 Y-0.37989 Z-2.19571
X-0.07947 Y-0.34819 Z-2.21554
X-0.16667 Y-0.28868 Z-2.23416
X-0.2269 Y-0.21053 Z-2.25156
X-0.25742 Y-0.12397 Z-2.26774
X-0.25898 Y-0.03903 Z-2.28272
X-0.23544 Y0.03549 Z-2.2965
X-0.19307 Y0.09298 Z-2.30909
X-0.13963 Y0.12956 Z-2.32051
X-0.08333 Y0.14434 Z-2.33077
X-0.03179 Y0.13928 Z-2.3399
X0.0089 Y0.11871 Z-2.34794
X0.03479 Y0.08865 Z-2.35494
X0.04453 Y0.05584 Z-2.36097
X0.03934 Y0.02682 Z-2.36617
X0.02275 Y0.00702 Z-2.37073
X0. Y0. Z-2.37493
X0.02275 Y0.00702 Z-2.37913
X0.03934 Y0.02682 Z-2.38368
X0.04453 Y0.05584 Z-2.38888
X0.03479 Y0.08865 Z-2.39491
X0.0089 Y0.11871 Z-2.40191
X-0.03179 Y0.13928 Z-2.40995
X-0.08333 Y0.14434 Z-2.41908
X-0.13963 Y0.12956 Z-2.42934
X-0.19307 Y0.09298 Z-2.44076
X-0.23544 Y0.03549 Z-2.45335
X-0.25898 Y-0.03903 Z-2.46713
X-0.25742 Y-0.12397 Z-2.48211
X-0.2269 Y-0.21053 Z-2.4983
X-0.16667 Y-0.28868 Z-2.51569
X-0.07947 Y-0.34819 Z-2.53431
X0.02847 Y-0.37989 Z-2.55415
X0.14788 Y-0.37678 Z-2.57521
X0.26721 Y-0.33507 Z-2.5975
X0.37377 Y-0.25483 Z-2.62102
X0.45503 Y-0.14036 Z-2.64577
X0.37377 Y-0.25483 Z-2.67053
X0.26721 Y-0.33507 Z-2.69405
X0.14788 Y-0.37678 Z-2.71634
X0.02847 Y-0.37989 Z-2.7374
X-0.07947 Y-0.34819 Z-2.75724
X-0.16667 Y-0.28868 Z-2.77585
X-0.2269 Y-0.21053 Z-2.79325
X-0.25742 Y-0.12397 Z-2.80943
X-0.25898 Y-0.03903 Z-2.82441
X-0.23544 Y0.03549 Z-2.83819
X-0.19307 Y0.09298 Z-2.85078
X-0.13963 Y0.12956 Z-2.8622
X-0.08333 Y0.14434 Z-2.87246
X-0.03179 Y0.13928 Z-2.8816
X0.0089 Y0.11871 Z-2.88963
X0.03479 Y0.08865 Z-2.89663
X0.04453 Y0.05584 Z-2.90266
X0.03934 Y0.02682 Z-2.90786
X0.02275 Y0.00702 Z-2.91242
X0. Y0. Z-2.91662
X0.02275 Y0.00702 Z-2.92082
X0.03934 Y0.02682 Z-2.92537
X0.04453 Y0.05584 Z-2.93057
X0.03479 Y0.08865 Z-2.93661
X0.0089 Y0.11871 Z-2.9436
X-0.03179 Y0.13928 Z-2.95164
X-0.08333 Y0.14434 Z-2.96077
X-0.13963 Y0.12956 Z-2.97103
X-0.19307 Y0.09298 Z-2.98245
X-0.23544 Y0.03549 Z-2.99505
X-0.25898 Y-0.03903 Z-3.00883
X-0.25742 Y-0.12397 Z-3.0238
X-0.2269 Y-0.21053 Z-3.03999
X-0.16667 Y-0.28868 Z-3.05739
X-0.07947 Y-0.34819 Z-3.076
X0.02847 Y-0.37989 Z-3.09584
X0.14788 Y-0.37678 Z-3.1169
X0.26721 Y-0.33507 Z-3.13919
X0.37377 Y-0.25483 Z-3.16271
X0.45503 Y-0.14036 Z-3.18746
X0.37377 Y-0.25483 Z-3.21222
X0.26721 Y-0.33507 Z-3.23574
X0.14788 Y-0.37678 Z-3.25803
X0.02847 Y-0.37989 Z-3.27909
X-0.07947 Y-0.34819 Z-3.29893
X-0.16667 Y-0.28868 Z-3.31754
X-0.2269 Y-0.21053 Z-3.33494
X-0.25742 Y-0.12397 Z-3.35112
X-0.25898 Y-0.03903 Z-3.3661
X-0.23544 Y0.03549 Z-3.37988
X-0.19307 Y0.09298 Z-3.39247
X-0.13963 Y0.12956 Z-3.40389
X-0.08333 Y0.14434 Z-3.41416
X-0.03179 Y0.13928 Z-3.42329
X0.0089 Y0.11871 Z-3.43133
X0.03479 Y0.08865 Z-3.43832
X0.04453 Y0.05584 Z-3.44436
X0.03934 Y0.02682 Z-3.44956
X0.02275 Y0.00702 Z-3.45411
X0. Y0. Z-3.45831
X0.02275 Y0.00702 Z-3.46251
X0.03934 Y0.02682 Z-3.46706
X0.04453 Y0.05584 Z-3.47226
X0.03479 Y0.08865 Z-3.4783
X0.0089 Y0.11871 Z-3.48529
X-0.03179 Y0.13928 Z-3.49333
X-0.08333 Y0.14434 Z-3.50246
X-0.13963 Y0.12956 Z-3.51273
X-0.19307 Y0.09298 Z-3.52414
X-0.23544 Y0.03549 Z-3.53674
X-0.25898 Y-0.03903 Z-3.55052
X-0.25742 Y-0.12397 Z-3.5655
X-0.2269 Y-0.21053 Z-3.58168
X-0.16667 Y-0.28868 Z-3.59908
X-0.07947 Y-0.34819 Z-3.61769
X0.02847 Y-0.37989 Z-3.63753
X0.14788 Y-0.37678 Z-3.65859
X0.26721 Y-0.33507 Z-3.68088
X0.37377 Y-0.25483 Z-3.7044
X0.45503 Y-0.14036 Z-3.72916
X0.37377 Y-0.25483 Z-3.75391
X0.26721 Y-0.33507 Z-3.77743
X0.14788 Y-0.37678 Z-3.79972
X0.02847 Y-0.37989 Z-3.82078
X-0.07947 Y-0.34819 Z-3.84062
X-0.16667 Y-0.28868 Z-3.85923
X-0.2269 Y-0.21053 Z-3.87663
X-0.25742 Y-0.12397 Z-3.89281
X-0.25898 Y-0.03903 Z-3.90779
X-0.23544 Y0.03549 Z-3.92157
X-0.19307 Y0.09298 Z-3.93417
X-0.13963 Y0.12956 Z-3.94558
X-0.08333 Y0.14434 Z-3.95585
X-0.03179 Y0.13928 Z-3.96498
X0.0089 Y0.11871 Z-3.97302
X0.03479 Y0.08865 Z-3.98001
X0.04453 Y0.05584 Z-3.98605
X0.03934 Y0.02682 Z-3.99125
X0.02275 Y0.00702 Z-3.9958
X0. Y0. Z-4.
X0.02275 Y0.00702 F480.
X0.03934 Y0.02682
X0.04453 Y0.05584
X0.03479 Y0.08865
X0.0089 Y0.11871
X-0.03179 Y0.13928
X-0.08333 Y0.14434
X-0.13963 Y0.12956
X-0.19307 Y0.09298
X-0.23544 Y0.03549
X-0.25898 Y-0.03903
X-0.25742 Y-0.12397
X-0.2269 Y-0.21053
X-0.16667 Y-0.28868
X-0.07947 Y-0.34819
X0.02847 Y-0.37989
G03 X-0.62218 Y0.34204 I-0.1486 J0.52024
X0.82654 Y0.65272 I0.82671 J-0.32193
X0.2001 Y-1.37201 I-0.90502 J-0.82927
X-1.6832 Y0.40491 I-0.34162 J1.52441
X1.21191 Y1.68477 I1.8766 J-0.33058
X1.15186 Y-2.12212 I-1.22999 J-1.88451
X-2.74445 Y-0.27153 I-1.33384 J2.21871
X0.86709 Y2.97883 I2.90328 J0.40571
X2.58586 Y-2.27266 I-0.81349 J-3.17327
X-3.42145 Y-1.61901 I-2.78856 J2.3036
X-0.25379 Y4.12209 I3.52541 J1.79928
X4.18841 Y-1.56583 I0.37323 J-4.28713
X-3.32286 Y-3.4838 I-4.38931 J1.52266
X-2.02689 Y4.74214 I3.35703 J3.68616
X5.50052 Y0.10474 I2.20077 J-4.85566
X-2.22352 Y-5.4044 I-5.67053 J-0.21897
X-4.42539 Y4.32577 I2.18044 J5.60763
X5.96548 Y2.66435 I4.63072 J-4.36254
X0.09025 Y-6.87545 I-6.07714 J-2.83638
X-6.72765 Y2.62169 I-0.20871 J7.04599
X5.18305 Y5.51037 I6.93039 J-2.576
X3.16719 Y-7.24583 I-5.21929 J-5.71258
X-8.25023 Y-0.13026 I-3.34056 J7.35764
X3.02935 Y8.04488 I8.42029 J0.2512
X6.53588 Y-6.10002 I-2.98325 J-8.24663
X8.99772 Y-0.1379 I-6.50479 J6.17525
G0 Z1.
X8.99894 Y-0.13792
G1 Z-4. F120.
G03 X-8.99894 Y0.13792 I-8.99894 J0.13792 F480.
X8.99894 Y-0.13792 I8.99894 J-0.13792
G1 Z-3.4 F720.
G0 Z1.
X-0.0393 Y-0.35999
G1 Z-3.4 F120.
Z-4. F360.
X0.02847 Y-0.37989 Z-4.01245
X0.14788 Y-0.37678 Z-4.03352
X0.26721 Y-0.33507 Z-4.05581
X0.37377 Y-0.25483 Z-4.07933
X0.45503 Y-0.14036 Z-4.10408
X0.37377 Y-0.25483 Z-4.12883
X0.26721 Y-0.33507 Z-4.15235
X0.14788 Y-0.37678 Z-4.17465
X0.02847 Y-0.37989 Z-4.19571
X-0.07947 Y-0.34819 Z-4.21554
X-0.16667 Y-0.28868 Z-4.23416
X-0.2269 Y-0.21053 Z-4.25155
X-0.25742 Y-0.12397 Z-4.26774
X-0.25898 Y-0.03903 Z-4.28272
X-0.23544 Y0.03549 Z-4.2965
X-0.19307 Y0.09298 Z-4.30909
X-0.13963 Y0.12956 Z-4.32051
X-0.08333 Y0.14434 Z-4.33077
X-0.03179 Y0.13928 Z-4.3399
X0.0089 Y0.11871 Z-4.34794
X0.03479 Y0.08865 Z-4.35494
X0.04453 Y0.05584 Z-4.36097
X0.03934 Y0.02682 Z-4.36617
X0.02275 Y0.00702 Z-4.37073
X0. Y0. Z-4.37493
X0.02275 Y0.00702 Z-4.37913
X0.03934 Y0.02682 Z-4.38368
X0.04453 Y0.05584 Z-4.38888
X0.03479 Y0.08865 Z-4.39491
X0.0089 Y0.11871 Z-4.40191
X-0.03179 Y0.13928 Z-4.40995
X-0.08333 Y0.14434 Z-4.41908
X-0.13963 Y0.12956 Z-4.42934
X-0.19307 Y0.09298 Z-4.44076
X-0.23544 Y0.03549 Z-4.45335
X-0.25898 Y-0.03903 Z-4.46713
X-0.25742 Y-0.12397 Z-4.48211
X-0.2269 Y-0.21053 Z-4.4983
X-0.16667 Y-0.28868 Z-4.51569
X-0.07947 Y-0.34819 Z-4.53431
X0.02847 Y-0.37989 Z-4.55415
X0.14788 Y-0.37678 Z-4.57521
X0.26721 Y-0.33507 Z-4.5975
X0.37377 Y-0.25483 Z-4.62102
X0.45503 Y-0.14036 Z-4.64577
X0.37377 Y-0.25483 Z-4.67053
X0.26721 Y-0.33507 Z-4.69405
X0.14788 Y-0.37678 Z-4.71634
X0.02847 Y-0.37989 Z-4.7374
X-0.07947 Y-0.34819 Z-4.75724
X-0.16667 Y-0.28868 Z-4.77585
X-0.2269 Y-0.21053 Z-4.79325
X-0.25742 Y-0.12397 Z-4.80943
X-0.25898 Y-0.03903 Z-4.82441
X-0.23544 Y0.03549 Z-4.83819
X-0.19307 Y0.09298 Z-4.85078
X-0.13963 Y0.12956 Z-4.8622
X-0.08333 Y0.14434 Z-4.87246
X-0.03179 Y0.13928 Z-4.8816
X0.0089 Y0.11871 Z-4.88963
X0.03479 Y0.08865 Z-4.89663
X0.04453 Y0.05584 Z-4.90266
X0.03934 Y0.02682 Z-4.90786
X0.02275 Y0.00702 Z-4.91242
X0. Y0. Z-4.91662
X0.02275 Y0.00702 Z-4.92082
X0.03934 Y0.02682 Z-4.92537
X0.04453 Y0.05584 Z-4.93057
X0.03479 Y0.08865 Z-4.93661
X0.0089 Y0.11871 Z-4.9436
X-0.03179 Y0.13928 Z-4.95164
X-0.08333 Y0.14434 Z-4.96077
X-0.13963 Y0.12956 Z-4.97103
X-0.19307 Y0.09298 Z-4.98245
X-0.23544 Y0.03549 Z-4.99505
X-0.25898 Y-0.03903 Z-5.00883
X-0.25742 Y-0.12397 Z-5.0238
X-0.2269 Y-0.21053 Z-5.03999
X-0.16667 Y-0.28868 Z-5.05739
X-0.07947 Y-0.34819 Z-5.076
X0.02847 Y-0.37989 Z-5.09584
X0.14788 Y-0.37678 Z-5.1169
X0.26721 Y-0.33507 Z-5.13919
X0.37377 Y-0.25483 Z-5.16271
X0.45503 Y-0.14036 Z-5.18746
X0.37377 Y-0.25483 Z-5.21222
X0.26721 Y-0.33507 Z-5.23574
X0.14788 Y-0.37678 Z-5.25803
X0.02847 Y-0.37989 Z-5.27909
X-0.07947 Y-0.34819 Z-5.29893
X-0.16667 Y-0.28868 Z-5.31754
X-0.2269 Y-0.21053 Z-5.33494
X-0.25742 Y-0.12397 Z-5.35112
X-0.25898 Y-0.03903 Z-5.3661
X-0.23544 Y0.03549 Z-5.37988
X-0.19307 Y0.09298 Z-5.39247
X-0.13963 Y0.12956 Z-5.40389
X-0.08333 Y0.14434 Z-5.41416
X-0.03179 Y0.13928 Z-5.42329
X0.0089 Y0.11871 Z-5.43133
X0.03479 Y0.08865 Z-5.43832
X0.04453 Y0.05584 Z-5.44436
X0.03934 Y0.02682 Z-5.44956
X0.02275 Y0.00702 Z-5.45411
X0. Y0. Z-5.45831
X0.02275 Y0.00702 Z-5.46251
X0.03934 Y0.02682 Z-5.46706
X0.04453 Y0.05584 Z-5.47226
X0.03479 Y0.08865 Z-5.4783
X0.0089 Y0.11871 Z-5.48529
X-0.03179 Y0.13928 Z-5.49333
X-0.08333 Y0.14434 Z-5.50246
X-0.13963 Y0.12956 Z-5.51273
X-0.19307 Y0.09298 Z-5.52414
X-0.23544 Y0.03549 Z-5.53674
X-0.25898 Y-0.03903 Z-5.55052
X-0.25742 Y-0.12397 Z-5.5655
X-0.2269 Y-0.21053 Z-5.58168
X-0.16667 Y-0.28868 Z-5.59908
X-0.07947 Y-0.34819 Z-5.61769
X0.02847 Y-0.37989 Z-5.63753
X0.14788 Y-0.37678 Z-5.65859
X0.26721 Y-0.33507 Z-5.68088
X0.37377 Y-0.25483 Z-5.7044
X0.45503 Y-0.14036 Z-5.72916
X0.37377 Y-0.25483 Z-5.75391
X0.26721 Y-0.33507 Z-5.77743
X0.14788 Y-0.37678 Z-5.79972
X0.02847 Y-0.37989 Z-5.82078
X-0.07947 Y-0.34819 Z-5.84062
X-0.16667 Y-0.28868 Z-5.85923
X-0.2269 Y-0.21053 Z-5.87663
X-0.25742 Y-0.12397 Z-5.89281
X-0.25898 Y-0.03903 Z-5.90779
X-0.23544 Y0.03549 Z-5.92157
X-0.19307 Y0.09298 Z-5.93417
X-0.13963 Y0.12956 Z-5.94558
X-0.08333 Y0.14434 Z-5.95585
X-0.03179 Y0.13928 Z-5.96498
X0.0089 Y0.11871 Z-5.97302
X0.03479 Y0.08865 Z-5.98001
X0.04453 Y0.05584 Z-5.98605
X0.03934 Y0.02682 Z-5.99125
X0.02275 Y0.00702 Z-5.9958
X0. Y0. Z-6.
X0.02275 Y0.00702 F480.
X0.03934 Y0.02682
X0.04453 Y0.05584
X0.03479 Y0.08865
X0.0089 Y0.11871
X-0.03179 Y0.13928
X-0.08333 Y0.14434
X-0.13963 Y0.12956
X-0.19307 Y0.09298
X-0.23544 Y0.03549
X-0.25898 Y-0.03903
X-0.25742 Y-0.12397
X-0.2269 Y-0.21053
X-0.16667 Y-0.28868
X-0.07947 Y-0.34819
X0.02847 Y-0.37989
G03 X-0.62218 Y0.34204 I-0.1486 J0.52024
X0.82654 Y0.65272 I0.82671 J-0.32193
X0.2001 Y-1.37201 I-0.90502 J-0.82927
X-1.6832 Y0.40491 I-0.34162 J1.52441
X1.21191 Y1.68477 I1.8766 J-0.33058
X1.15186 Y-2.12212 I-1.22999 J-1.88451
X-2.74445 Y-0.27153 I-1.33384 J2.21871
X0.86709 Y2.97883 I2.90328 J0.40571
X2.58586 Y-2.27266 I-0.81349 J-3.17327
X-3.42145 Y-1.61901 I-2.78856 J2.3036
X-0.25379 Y4.12209 I3.52541 J1.79928
X4.18841 Y-1.56583 I0.37323 J-4.28713
X-3.32286 Y-3.4838 I-4.38931 J1.52266
X-2.02689 Y4.74214 I3.35703 J3.68616
X5.50052 Y0.10474 I2.20077 J-4.85566
X-2.22352 Y-5.4044 I-5.67053 J-0.21897
X-4.42539 Y4.32577 I2.18044 J5.60763
X5.96548 Y2.66435 I4.63072 J-4.36254
X0.09025 Y-6.87545 I-6.07714 J-2.83638
X-6.72765 Y2.62169 I-0.20871 J7.04599
X5.18305 Y5.51037 I6.93039 J-2.576
X3.16719 Y-7.24583 I-5.21929 J-5.71258
X-8.25023 Y-0.13026 I-3.34056 J7.35764
X3.02935 Y8.04488 I8.42029 J0.2512
X6.53588 Y-6.10002 I-2.98325 J-8.24663
X8.99772 Y-0.1379 I-6.50479 J6.17525
G0 Z1.
X8.99894 Y-0.13792
G1 Z-6. F120.
G03 X-8.99894 Y0.13792 I-8.99894 J0.13792 F480.
X8.99894 Y-0.13792 I8.99894 J-0.13792
G1 Z-5.4 F720.
G0 Z1.
(2 1/2 Axis Pocketing-2)
(SlotDrill 2mm Carbide)
X-9.23169 Y8.8324
G1 Z-1.4 F120.
Z-2. F360.
X-9.16392 Y8.8125 Z-2.01245
X-9.04451 Y8.81561 Z-2.03352
X-8.92518 Y8.85732 Z-2.05581
X-8.81861 Y8.93755 Z-2.07933
X-8.73735 Y9.05203 Z-2.10408
X-8.81861 Y8.93755 Z-2.12883
X-8.92518 Y8.85732 Z-2.15236
X-9.04451 Y8.81561 Z-2.17465
X-9.16392 Y8.8125 Z-2.19571
X-9.27186 Y8.8442 Z-2.21554
X-9.35906 Y8.90371 Z-2.23416
X-9.41929 Y8.98186 Z-2.25156
X-9.44981 Y9.06842 Z-2.26774
X-9.45137 Y9.15335 Z-2.28272
X-9.42783 Y9.22787 Z-2.2965
X-9.38545 Y9.28536 Z-2.30909
X-9.33202 Y9.32194 Z-2.32051
X-9.27572 Y9.33673 Z-2.33077
X-9.22418 Y9.33166 Z-2.3399
X-9.18349 Y9.3111 Z-2.34794
X-9.15759 Y9.28104 Z-2.35494
X-9.14785 Y9.24823 Z-2.36097
X-9.15304 Y9.21921 Z-2.36617
X-9.16964 Y9.19941 Z-2.37073
X-9.19239 Y9.19239 Z-2.37493
X-9.16964 Y9.19941 Z-2.37913
X-9.15304 Y9.21921 Z-2.38368
X-9.14785 Y9.24823 Z-2.38888
X-9.15759 Y9.28104 Z-2.39491
X-9.18349 Y9.3111 Z-2.40191
X-9.22418 Y9.33166 Z-2.40995
X-9.27572 Y9.33673 Z-2.41908
X-9.33202 Y9.32194 Z-2.42934
X-9.38545 Y9.28536 Z-2.44076
X-9.42783 Y9.22787 Z-2.45335
X-9.45137 Y9.15335 Z-2.46713
X-9.44981 Y9.06842 Z-2.48211
X-9.41929 Y8.98186 Z-2.4983
X-9.35906 Y8.90371 Z-2.51569
X-9.27186 Y8.8442 Z-2.53431
X-9.16392 Y8.8125 Z-2.55415
X-9.04451 Y8.81561 Z-2.57521
X-8.92518 Y8.85732 Z-2.5975
X-8.81861 Y8.93755 Z-2.62102
X-8.73735 Y9.05203 Z-2.64577
X-8.81861 Y8.93755 Z-2.67053
X-8.92518 Y8.85732 Z-2.69405
X-9.04451 Y8.81561 Z-2.71634
X-9.16392 Y8.8125 Z-2.7374
X-9.27186 Y8.8442 Z-2.75724
X-9.35906 Y8.90371 Z-2.77585
X-9.41929 Y8.98186 Z-2.79325
X-9.44981 Y9.06842 Z-2.80943
X-9.45137 Y9.15335 Z-2.82441
X-9.42783 Y9.22787 Z-2.83819
X-9.38545 Y9.28536 Z-2.85078
X-9.33202 Y9.32194 Z-2.8622
X-9.27572 Y9.33673 Z-2.87246
X-9.22418 Y9.33166 Z-2.8816
X-9.18349 Y9.3111 Z-2.88963
X-9.15759 Y9.28104 Z-2.89663
X-9.14785 Y9.24823 Z-2.90266
X-9.15304 Y9.21921 Z-2.90786
X-9.16964 Y9.19941 Z-2.91242
X-9.19239 Y9.19239 Z-2.91662
X-9.16964 Y9.19941 Z-2.92082
X-9.15304 Y9.21921 Z-2.92537
X-9.14785 Y9.24823 Z-2.93057
X-9.15759 Y9.28104 Z-2.93661
X-9.18349 Y9.3111 Z-2.9436
X-9.22418 Y9.33166 Z-2.95164
X-9.27572 Y9.33673 Z-2.96077
X-9.33202 Y9.32194 Z-2.97103
X-9.38545 Y9.28536 Z-2.98245
X-9.42783 Y9.22787 Z-2.99505
X-9.45137 Y9.15335 Z-3.00883
X-9.44981 Y9.06842 Z-3.0238
X-9.41929 Y8.98186 Z-3.03999
X-9.35906 Y8.90371 Z-3.05739
X-9.27186 Y8.8442 Z-3.076
X-9.16392 Y8.8125 Z-3.09584
X-9.04451 Y8.81561 Z-3.1169
X-8.92518 Y8.85732 Z-3.13919
X-8.81861 Y8.93755 Z-3.16271
X-8.73735 Y9.05203 Z-3.18746
X-8.81861 Y8.93755 Z-3.21222
X-8.92518 Y8.85732 Z-3.23574
X-9.04451 Y8.81561 Z-3.25803
X-9.16392 Y8.8125 Z-3.27909
X-9.27186 Y8.8442 Z-3.29893
X-9.35906 Y8.90371 Z-3.31754
X-9.41929 Y8.98186 Z-3.33494
X-9.44981 Y9.06842 Z-3.35112
X-9.45137 Y9.15335 Z-3.3661
X-9.42783 Y9.22787 Z-3.37988
X-9.38545 Y9.28536 Z-3.39247
X-9.33202 Y9.32194 Z-3.40389
X-9.27572 Y9.33673 Z-3.41416
X-9.22418 Y9.33166 Z-3.42329
X-9.18349 Y9.3111 Z-3.43133
X-9.15759 Y9.28104 Z-3.43832
X-9.14785 Y9.24823 Z-3.44436
X-9.15304 Y9.21921 Z-3.44956
X-9.16964 Y9.19941 Z-3.45411
X-9.19239 Y9.19239 Z-3.45831
X-9.16964 Y9.19941 Z-3.46251
X-9.15304 Y9.21921 Z-3.46706
X-9.14785 Y9.24823 Z-3.47226
X-9.15759 Y9.28104 Z-3.4783
X-9.18349 Y9.3111 Z-3.48529
X-9.22418 Y9.33166 Z-3.49333
X-9.27572 Y9.33673 Z-3.50246
X-9.33202 Y9.32194 Z-3.51273
X-9.38545 Y9.28536 Z-3.52414
X-9.42783 Y9.22787 Z-3.53674
X-9.45137 Y9.15335 Z-3.55052
X-9.44981 Y9.06842 Z-3.5655
X-9.41929 Y8.98186 Z-3.58168
X-9.35906 Y8.90371 Z-3.59908
X-9.27186 Y8.8442 Z-3.61769
X-9.16392 Y8.8125 Z-3.63753
X-9.04451 Y8.81561 Z-3.65859
X-8.92518 Y8.85732 Z-3.68088
X-8.81861 Y8.93755 Z-3.7044
X-8.73735 Y9.05203 Z-3.72916
X-8.81861 Y8.93755 Z-3.75391
X-8.92518 Y8.85732 Z-3.77743
X-9.04451 Y8.81561 Z-3.79972
X-9.16392 Y8.8125 Z-3.82078
X-9.27186 Y8.8442 Z-3.84062
X-9.35906 Y8.90371 Z-3.85923
X-9.41929 Y8.98186 Z-3.87663
X-9.44981 Y9.06842 Z-3.89281
X-9.45137 Y9.15335 Z-3.90779
X-9.42783 Y9.22787 Z-3.92157
X-9.38545 Y9.28536 Z-3.93417
X-9.33202 Y9.32194 Z-3.94558
X-9.27572 Y9.33673 Z-3.95585
X-9.22418 Y9.33166 Z-3.96498
X-9.18349 Y9.3111 Z-3.97302
X-9.15759 Y9.28104 Z-3.98001
X-9.14785 Y9.24823 Z-3.98605
X-9.15304 Y9.21921 Z-3.99125
X-9.16964 Y9.19941 Z-3.9958
X-9.19239 Y9.19239 Z-4.
X-9.16964 Y9.19941 F480.
X-9.15304 Y9.21921
X-9.14785 Y9.24823
X-9.15759 Y9.28104
X-9.18349 Y9.3111
X-9.22418 Y9.33166
X-9.27572 Y9.33673
X-9.33202 Y9.32194
X-9.38545 Y9.28536
X-9.42783 Y9.22787
X-9.45137 Y9.15335
X-9.44981 Y9.06842
X-9.41929 Y8.98186
X-9.35906 Y8.90371
X-9.27186 Y8.8442
X-9.16392 Y8.8125
X-9.04451 Y8.81561
X-8.92518 Y8.85732
X-8.81861 Y8.93755
X-8.73735 Y9.05203
G0 Z1.
X-8.66683 Y9.03027
G1 Z-4. F120.
G03 X-9.71795 Y9.3545 I-0.52556 J0.16212 F480.
X-8.66683 Y9.03027 I0.52556 J-0.16211
G1 Z-3.4 F720.
G0 Z1.
X-9.23169 Y8.8324
G1 Z-3.4 F120.
Z-4. F360.
X-9.16392 Y8.8125 Z-4.01245
X-9.04451 Y8.81561 Z-4.03352
X-8.92518 Y8.85732 Z-4.05581
X-8.81861 Y8.93755 Z-4.07933
X-8.73735 Y9.05203 Z-4.10408
X-8.81861 Y8.93755 Z-4.12883
X-8.92518 Y8.85732 Z-4.15235
X-9.04451 Y8.81561 Z-4.17465
X-9.16392 Y8.8125 Z-4.19571
X-9.27186 Y8.8442 Z-4.21554
X-9.35906 Y8.90371 Z-4.23416
X-9.41929 Y8.98186 Z-4.25155
X-9.44981 Y9.06842 Z-4.26774
X-9.45137 Y9.15335 Z-4.28272
X-9.42783 Y9.22787 Z-4.2965
X-9.38545 Y9.28536 Z-4.30909
X-9.33202 Y9.32194 Z-4.32051
X-9.27572 Y9.33673 Z-4.33077
X-9.22418 Y9.33166 Z-4.3399
X-9.18349 Y9.3111 Z-4.34794
X-9.15759 Y9.28104 Z-4.35494
X-9.14785 Y9.24823 Z-4.36097
X-9.15304 Y9.21921 Z-4.36617
X-9.16964 Y9.19941 Z-4.37073
X-9.19239 Y9.19239 Z-4.37493
X-9.16964 Y9.19941 Z-4.37913
X-9.15304 Y9.21921 Z-4.38368
X-9.14785 Y9.24823 Z-4.38888
X-9.15759 Y9.28104 Z-4.39491
X-9.18349 Y9.3111 Z-4.40191
X-9.22418 Y9.33166 Z-4.40995
X-9.27572 Y9.33673 Z-4.41908
X-9.33202 Y9.32194 Z-4.42934
X-9.38545 Y9.28536 Z-4.44076
X-9.42783 Y9.22787 Z-4.45335
X-9.45137 Y9.15335 Z-4.46713
X-9.44981 Y9.06842 Z-4.48211
X-9.41929 Y8.98186 Z-4.4983
X-9.35906 Y8.90371 Z-4.51569
X-9.27186 Y8.8442 Z-4.53431
X-9.16392 Y8.8125 Z-4.55415
X-9.04451 Y8.81561 Z-4.57521
X-8.92518 Y8.85732 Z-4.5975
X-8.81861 Y8.93755 Z-4.62102
X-8.73735 Y9.05203 Z-4.64577
X-8.81861 Y8.93755 Z-4.67053
X-8.92518 Y8.85732 Z-4.69405
X-9.04451 Y8.81561 Z-4.71634
X-9.16392 Y8.8125 Z-4.7374
X-9.27186 Y8.8442 Z-4.75724
X-9.35906 Y8.90371 Z-4.77585
X-9.41929 Y8.98186 Z-4.79325
X-9.44981 Y9.06842 Z-4.80943
X-9.45137 Y9.15335 Z-4.82441
X-9.42783 Y9.22787 Z-4.83819
X-9.38545 Y9.28536 Z-4.85078
X-9.33202 Y9.32194 Z-4.8622
X-9.27572 Y9.33673 Z-4.87246
X-9.22418 Y9.33166 Z-4.8816
X-9.18349 Y9.3111 Z-4.88963
X-9.15759 Y9.28104 Z-4.89663
X-9.14785 Y9.24823 Z-4.90266
X-9.15304 Y9.21921 Z-4.90786
X-9.16964 Y9.19941 Z-4.91242
X-9.19239 Y9.19239 Z-4.91662
X-9.16964 Y9.19941 Z-4.92082
X-9.15304 Y9.21921 Z-4.92537
X-9.14785 Y9.24823 Z-4.93057
X-9.15759 Y9.28104 Z-4.93661
X-9.18349 Y9.3111 Z-4.9436
X-9.22418 Y9.33166 Z-4.95164
X-9.27572 Y9.33673 Z-4.96077
X-9.33202 Y9.32194 Z-4.97103
X-9.38545 Y9.28536 Z-4.98245
X-9.42783 Y9.22787 Z-4.99505
X-9.45137 Y9.15335 Z-5.00883
X-9.44981 Y9.06842 Z-5.0238
X-9.41929 Y8.98186 Z-5.03999
X-9.35906 Y8.90371 Z-5.05739
X-9.27186 Y8.8442 Z-5.076
X-9.16392 Y8.8125 Z-5.09584
X-9.04451 Y8.81561 Z-5.1169
X-8.92518 Y8.85732 Z-5.13919
X-8.81861 Y8.93755 Z-5.16271
X-8.73735 Y9.05203 Z-5.18746
X-8.81861 Y8.93755 Z-5.21222
X-8.92518 Y8.85732 Z-5.23574
X-9.04451 Y8.81561 Z-5.25803
X-9.16392 Y8.8125 Z-5.27909
X-9.27186 Y8.8442 Z-5.29893
X-9.35906 Y8.90371 Z-5.31754
X-9.41929 Y8.98186 Z-5.33494
X-9.44981 Y9.06842 Z-5.35112
X-9.45137 Y9.15335 Z-5.3661
X-9.42783 Y9.22787 Z-5.37988
X-9.38545 Y9.28536 Z-5.39247
X-9.33202 Y9.32194 Z-5.40389
X-9.27572 Y9.33673 Z-5.41416
X-9.22418 Y9.33166 Z-5.42329
X-9.18349 Y9.3111 Z-5.43133
X-9.15759 Y9.28104 Z-5.43832
X-9.14785 Y9.24823 Z-5.44436
X-9.15304 Y9.21921 Z-5.44956
X-9.16964 Y9.19941 Z-5.45411
X-9.19239 Y9.19239 Z-5.45831
X-9.16964 Y9.19941 Z-5.46251
X-9.15304 Y9.21921 Z-5.46706
X-9.14785 Y9.24823 Z-5.47226
X-9.15759 Y9.28104 Z-5.4783
X-9.18349 Y9.3111 Z-5.48529
X-9.22418 Y9.33166 Z-5.49333
X-9.27572 Y9.33673 Z-5.50246
X-9.33202 Y9.32194 Z-5.51273
X-9.38545 Y9.28536 Z-5.52414
X-9.42783 Y9.22787 Z-5.53674
X-9.45137 Y9.15335 Z-5.55052
X-9.44981 Y9.06842 Z-5.5655
X-9.41929 Y8.98186 Z-5.58168
X-9.35906 Y8.90371 Z-5.59908
X-9.27186 Y8.8442 Z-5.61769
X-9.16392 Y8.8125 Z-5.63753
X-9.04451 Y8.81561 Z-5.65859
X-8.92518 Y8.85732 Z-5.68088
X-8.81861 Y8.93755 Z-5.7044
X-8.73735 Y9.05203 Z-5.72916
X-8.81861 Y8.93755 Z-5.75391
X-8.92518 Y8.85732 Z-5.77743
X-9.04451 Y8.81561 Z-5.79972
X-9.16392 Y8.8125 Z-5.82078
X-9.27186 Y8.8442 Z-5.84062
X-9.35906 Y8.90371 Z-5.85923
X-9.41929 Y8.98186 Z-5.87663
X-9.44981 Y9.06842 Z-5.89281
X-9.45137 Y9.15335 Z-5.90779
X-9.42783 Y9.22787 Z-5.92157
X-9.38545 Y9.28536 Z-5.93417
X-9.33202 Y9.32194 Z-5.94558
X-9.27572 Y9.33673 Z-5.95585
X-9.22418 Y9.33166 Z-5.96498
X-9.18349 Y9.3111 Z-5.97302
X-9.15759 Y9.28104 Z-5.98001
X-9.14785 Y9.24823 Z-5.98605
X-9.15304 Y9.21921 Z-5.99125
X-9.16964 Y9.19941 Z-5.9958
X-9.19239 Y9.19239 Z-6.
X-9.16964 Y9.19941 F480.
X-9.15304 Y9.21921
X-9.14785 Y9.24823
X-9.15759 Y9.28104
X-9.18349 Y9.3111
X-9.22418 Y9.33166
X-9.27572 Y9.33673
X-9.33202 Y9.32194
X-9.38545 Y9.28536
X-9.42783 Y9.22787
X-9.45137 Y9.15335
X-9.44981 Y9.06842
X-9.41929 Y8.98186
X-9.35906 Y8.90371
X-9.27186 Y8.8442
X-9.16392 Y8.8125
X-9.04451 Y8.81561
X-8.92518 Y8.85732
X-8.81861 Y8.93755
X-8.73735 Y9.05203
G0 Z1.
X-8.66683 Y9.03027
G1 Z-6. F120.
G03 X-9.71795 Y9.3545 I-0.52556 J0.16212 F480.
X-8.66683 Y9.03027 I0.52556 J-0.16211
G1 Z-5.4 F720.
G0 Z1.
X-9.23169 Y8.8324
G1 Z-5.4 F120.
Z-6. F360.
X-9.16392 Y8.8125 Z-6.01245
X-9.04451 Y8.81561 Z-6.03352
X-8.92518 Y8.85732 Z-6.05581
X-8.81861 Y8.93755 Z-6.07933
X-8.73735 Y9.05203 Z-6.10408
X-8.81861 Y8.93755 Z-6.12883
X-8.92518 Y8.85732 Z-6.15236
X-9.04451 Y8.81561 Z-6.17465
X-9.16392 Y8.8125 Z-6.19571
X-9.27186 Y8.8442 Z-6.21554
X-9.35906 Y8.90371 Z-6.23416
X-9.41929 Y8.98186 Z-6.25156
X-9.44981 Y9.06842 Z-6.26774
X-9.45137 Y9.15335 Z-6.28272
X-9.42783 Y9.22787 Z-6.2965
X-9.38545 Y9.28536 Z-6.30909
X-9.33202 Y9.32194 Z-6.32051
X-9.27572 Y9.33673 Z-6.33077
X-9.22418 Y9.33166 Z-6.33991
X-9.18349 Y9.3111 Z-6.34794
X-9.15759 Y9.28104 Z-6.35494
X-9.14785 Y9.24823 Z-6.36097
X-9.15304 Y9.21921 Z-6.36617
X-9.16964 Y9.19941 Z-6.37073
X-9.19239 Y9.19239 Z-6.37493
X-9.16964 Y9.19941 Z-6.37913
X-9.15304 Y9.21921 Z-6.38368
X-9.14785 Y9.24823 Z-6.38888
X-9.15759 Y9.28104 Z-6.39491
X-9.18349 Y9.3111 Z-6.40191
X-9.22418 Y9.33166 Z-6.40995
X-9.27572 Y9.33673 Z-6.41908
X-9.33202 Y9.32194 Z-6.42934
X-9.38545 Y9.28536 Z-6.44076
X-9.42783 Y9.22787 Z-6.45335
X-9.45137 Y9.15335 Z-6.46714
X-9.44981 Y9.06842 Z-6.48211
X-9.41929 Y8.98186 Z-6.4983
X-9.35906 Y8.90371 Z-6.51569
X-9.27186 Y8.8442 Z-6.53431
X-9.16392 Y8.8125 Z-6.55415
X-9.04451 Y8.81561 Z-6.57521
X-8.92518 Y8.85732 Z-6.5975
X-8.81861 Y8.93755 Z-6.62102
X-8.73735 Y9.05203 Z-6.64577
X-8.81861 Y8.93755 Z-6.67053
X-8.92518 Y8.85732 Z-6.69405
X-9.04451 Y8.81561 Z-6.71634
X-9.16392 Y8.8125 Z-6.7374
X-9.27186 Y8.8442 Z-6.75724
X-9.35906 Y8.90371 Z-6.77585
X-9.41929 Y8.98186 Z-6.79325
X-9.44981 Y9.06842 Z-6.80943
X-9.45137 Y9.15335 Z-6.82441
X-9.42783 Y9.22787 Z-6.83819
X-9.38545 Y9.28536 Z-6.85078
X-9.33202 Y9.32194 Z-6.8622
X-9.27572 Y9.33673 Z-6.87246
X-9.22418 Y9.33166 Z-6.8816
X-9.18349 Y9.3111 Z-6.88963
X-9.15759 Y9.28104 Z-6.89663
X-9.14785 Y9.24823 Z-6.90267
X-9.15304 Y9.21921 Z-6.90786
X-9.16964 Y9.19941 Z-6.91242
X-9.19239 Y9.19239 Z-6.91662
X-9.16964 Y9.19941 Z-6.92082
X-9.15304 Y9.21921 Z-6.92537
X-9.14785 Y9.24823 Z-6.93057
X-9.15759 Y9.28104 Z-6.9366
X-9.18349 Y9.3111 Z-6.9436
X-9.22418 Y9.33166 Z-6.95164
X-9.27572 Y9.33673 Z-6.96077
X-9.33202 Y9.32194 Z-6.97103
X-9.38545 Y9.28536 Z-6.98245
X-9.42783 Y9.22787 Z-6.99505
X-9.45137 Y9.15335 Z-7.00883
X-9.44981 Y9.06842 Z-7.0238
X-9.41929 Y8.98186 Z-7.03999
X-9.35906 Y8.90371 Z-7.05739
X-9.27186 Y8.8442 Z-7.076
X-9.16392 Y8.8125 Z-7.09584
X-9.04451 Y8.81561 Z-7.1169
X-8.92518 Y8.85732 Z-7.13919
X-8.81861 Y8.93755 Z-7.16271
X-8.73735 Y9.05203 Z-7.18746
X-8.81861 Y8.93755 Z-7.21222
X-8.92518 Y8.85732 Z-7.23574
X-9.04451 Y8.81561 Z-7.25803
X-9.16392 Y8.8125 Z-7.27909
X-9.27186 Y8.8442 Z-7.29893
X-9.35906 Y8.90371 Z-7.31754
X-9.41929 Y8.98186 Z-7.33494
X-9.44981 Y9.06842 Z-7.35112
X-9.45137 Y9.15335 Z-7.3661
X-9.42783 Y9.22787 Z-7.37988
X-9.38545 Y9.28536 Z-7.39247
X-9.33202 Y9.32194 Z-7.40389
X-9.27572 Y9.33673 Z-7.41416
X-9.22418 Y9.33166 Z-7.42329
X-9.18349 Y9.3111 Z-7.43132
X-9.15759 Y9.28104 Z-7.43832
X-9.14785 Y9.24823 Z-7.44436
X-9.15304 Y9.21921 Z-7.44956
X-9.16964 Y9.19941 Z-7.45411
X-9.19239 Y9.19239 Z-7.45831
X-9.16964 Y9.19941 Z-7.46251
X-9.15304 Y9.21921 Z-7.46706
X-9.14785 Y9.24823 Z-7.47226
X-9.15759 Y9.28104 Z-7.4783
X-9.18349 Y9.3111 Z-7.48529
X-9.22418 Y9.33166 Z-7.49333
X-9.27572 Y9.33673 Z-7.50246
X-9.33202 Y9.32194 Z-7.51273
X-9.38545 Y9.28536 Z-7.52414
X-9.42783 Y9.22787 Z-7.53674
X-9.45137 Y9.15335 Z-7.55052
X-9.44981 Y9.06842 Z-7.5655
X-9.41929 Y8.98186 Z-7.58168
X-9.35906 Y8.90371 Z-7.59908
X-9.27186 Y8.8442 Z-7.61769
X-9.16392 Y8.8125 Z-7.63753
X-9.04451 Y8.81561 Z-7.65859
X-8.92518 Y8.85732 Z-7.68088
X-8.81861 Y8.93755 Z-7.7044
X-8.73735 Y9.05203 Z-7.72916
X-8.81861 Y8.93755 Z-7.75391
X-8.92518 Y8.85732 Z-7.77743
X-9.04451 Y8.81561 Z-7.79972
X-9.16392 Y8.8125 Z-7.82078
X-9.27186 Y8.8442 Z-7.84062
X-9.35906 Y8.90371 Z-7.85923
X-9.41929 Y8.98186 Z-7.87663
X-9.44981 Y9.06842 Z-7.89281
X-9.45137 Y9.15335 Z-7.90779
X-9.42783 Y9.22787 Z-7.92157
X-9.38545 Y9.28536 Z-7.93417
X-9.33202 Y9.32194 Z-7.94558
X-9.27572 Y9.33673 Z-7.95585
X-9.22418 Y9.33166 Z-7.96498
X-9.18349 Y9.3111 Z-7.97302
X-9.15759 Y9.28104 Z-7.98001
X-9.14785 Y9.24823 Z-7.98605
X-9.15304 Y9.21921 Z-7.99125
X-9.16964 Y9.19941 Z-7.9958
X-9.19239 Y9.19239 Z-8.
X-9.16964 Y9.19941 F480.
X-9.15304 Y9.21921
X-9.14785 Y9.24823
X-9.15759 Y9.28104
X-9.18349 Y9.3111
X-9.22418 Y9.33166
X-9.27572 Y9.33673
X-9.33202 Y9.32194
X-9.38545 Y9.28536
X-9.42783 Y9.22787
X-9.45137 Y9.15335
X-9.44981 Y9.06842
X-9.41929 Y8.98186
X-9.35906 Y8.90371
X-9.27186 Y8.8442
X-9.16392 Y8.8125
X-9.04451 Y8.81561
X-8.92518 Y8.85732
X-8.81861 Y8.93755
X-8.73735 Y9.05203
G0 Z1.
X-8.66683 Y9.03027
G1 Z-8. F120.
G03 X-9.71795 Y9.3545 I-0.52556 J0.16212 F480.
X-8.66683 Y9.03027 I0.52556 J-0.16211
G1 Z-7.4 F720.
G0 Z1.
X-9.23169 Y8.8324
G1 Z-7.4 F120.
Z-8. F360.
X-9.16392 Y8.8125 Z-8.01245
X-9.04451 Y8.81561 Z-8.03352
X-8.92518 Y8.85732 Z-8.05581
X-8.81861 Y8.93755 Z-8.07933
X-8.73735 Y9.05203 Z-8.10408
X-8.81861 Y8.93755 Z-8.12883
X-8.92518 Y8.85732 Z-8.15235
X-9.04451 Y8.81561 Z-8.17465
X-9.16392 Y8.8125 Z-8.19571
X-9.27186 Y8.8442 Z-8.21554
X-9.35906 Y8.90371 Z-8.23416
X-9.41929 Y8.98186 Z-8.25155
X-9.44981 Y9.06842 Z-8.26774
X-9.45137 Y9.15335 Z-8.28272
X-9.42783 Y9.22787 Z-8.2965
X-9.38545 Y9.28536 Z-8.30909
X-9.33202 Y9.32194 Z-8.32051
X-9.27572 Y9.33673 Z-8.33077
X-9.22418 Y9.33166 Z-8.33991
X-9.18349 Y9.3111 Z-8.34794
X-9.15759 Y9.28104 Z-8.35494
X-9.14785 Y9.24823 Z-8.36097
X-9.15304 Y9.21921 Z-8.36617
X-9.16964 Y9.19941 Z-8.37073
X-9.19239 Y9.19239 Z-8.37493
X-9.16964 Y9.19941 Z-8.37913
X-9.15304 Y9.21921 Z-8.38368
X-9.14785 Y9.24823 Z-8.38888
X-9.15759 Y9.28104 Z-8.39491
X-9.18349 Y9.3111 Z-8.40191
X-9.22418 Y9.33166 Z-8.40995
X-9.27572 Y9.33673 Z-8.41908
X-9.33202 Y9.32194 Z-8.42934
X-9.38545 Y9.28536 Z-8.44076
X-9.42783 Y9.22787 Z-8.45335
X-9.45137 Y9.15335 Z-8.46714
X-9.44981 Y9.06842 Z-8.48211
X-9.41929 Y8.98186 Z-8.4983
X-9.35906 Y8.90371 Z-8.51569
X-9.27186 Y8.8442 Z-8.53431
X-9.16392 Y8.8125 Z-8.55415
X-9.04451 Y8.81561 Z-8.57521
X-8.92518 Y8.85732 Z-8.5975
X-8.81861 Y8.93755 Z-8.62102
X-8.73735 Y9.05203 Z-8.64577
X-8.81861 Y8.93755 Z-8.67053
X-8.92518 Y8.85732 Z-8.69405
X-9.04451 Y8.81561 Z-8.71634
X-9.16392 Y8.8125 Z-8.7374
X-9.27186 Y8.8442 Z-8.75724
X-9.35906 Y8.90371 Z-8.77585
X-9.41929 Y8.98186 Z-8.79325
X-9.44981 Y9.06842 Z-8.80943
X-9.45137 Y9.15335 Z-8.82441
X-9.42783 Y9.22787 Z-8.83819
X-9.38545 Y9.28536 Z-8.85078
X-9.33202 Y9.32194 Z-8.8622
X-9.27572 Y9.33673 Z-8.87246
X-9.22418 Y9.33166 Z-8.8816
X-9.18349 Y9.3111 Z-8.88963
X-9.15759 Y9.28104 Z-8.89663
X-9.14785 Y9.24823 Z-8.90267
X-9.15304 Y9.21921 Z-8.90786
X-9.16964 Y9.19941 Z-8.91242
X-9.19239 Y9.19239 Z-8.91662
X-9.16964 Y9.19941 Z-8.92082
X-9.15304 Y9.21921 Z-8.92537
X-9.14785 Y9.24823 Z-8.93057
X-9.15759 Y9.28104 Z-8.9366
X-9.18349 Y9.3111 Z-8.9436
X-9.22418 Y9.33166 Z-8.95164
X-9.27572 Y9.33673 Z-8.96077
X-9.33202 Y9.32194 Z-8.97103
X-9.38545 Y9.28536 Z-8.98245
X-9.42783 Y9.22787 Z-8.99505
X-9.45137 Y9.15335 Z-9.00883
X-9.44981 Y9.06842 Z-9.0238
X-9.41929 Y8.98186 Z-9.03999
X-9.35906 Y8.90371 Z-9.05739
X-9.27186 Y8.8442 Z-9.076
X-9.16392 Y8.8125 Z-9.09584
X-9.04451 Y8.81561 Z-9.1169
X-8.92518 Y8.85732 Z-9.13919
X-8.81861 Y8.93755 Z-9.16271
X-8.73735 Y9.05203 Z-9.18746
X-8.81861 Y8.93755 Z-9.21222
X-8.92518 Y8.85732 Z-9.23574
X-9.04451 Y8.81561 Z-9.25803
X-9.16392 Y8.8125 Z-9.27909
X-9.27186 Y8.8442 Z-9.29893
X-9.35906 Y8.90371 Z-9.31754
X-9.41929 Y8.98186 Z-9.33494
X-9.44981 Y9.06842 Z-9.35112
X-9.45137 Y9.15335 Z-9.3661
X-9.42783 Y9.22787 Z-9.37988
X-9.38545 Y9.28536 Z-9.39247
X-9.33202 Y9.32194 Z-9.40389
X-9.27572 Y9.33673 Z-9.41415
X-9.22418 Y9.33166 Z-9.42329
X-9.18349 Y9.3111 Z-9.43132
X-9.15759 Y9.28104 Z-9.43832
X-9.14785 Y9.24823 Z-9.44436
X-9.15304 Y9.21921 Z-9.44956
X-9.16964 Y9.19941 Z-9.45411
X-9.19239 Y9.19239 Z-9.45831
X-9.16964 Y9.19941 Z-9.46251
X-9.15304 Y9.21921 Z-9.46706
X-9.14785 Y9.24823 Z-9.47226
X-9.15759 Y9.28104 Z-9.4783
X-9.18349 Y9.3111 Z-9.48529
X-9.22418 Y9.33166 Z-9.49333
X-9.27572 Y9.33673 Z-9.50246
X-9.33202 Y9.32194 Z-9.51273
X-9.38545 Y9.28536 Z-9.52414
X-9.42783 Y9.22787 Z-9.53674
X-9.45137 Y9.15335 Z-9.55052
X-9.44981 Y9.06842 Z-9.56549
X-9.41929 Y8.98186 Z-9.58168
X-9.35906 Y8.90371 Z-9.59908
X-9.27186 Y8.8442 Z-9.61769
X-9.16392 Y8.8125 Z-9.63753
X-9.04451 Y8.81561 Z-9.65859
X-8.92518 Y8.85732 Z-9.68088
X-8.81861 Y8.93755 Z-9.7044
X-8.73735 Y9.05203 Z-9.72916
X-8.81861 Y8.93755 Z-9.75391
X-8.92518 Y8.85732 Z-9.77743
X-9.04451 Y8.81561 Z-9.79972
X-9.16392 Y8.8125 Z-9.82078
X-9.27186 Y8.8442 Z-9.84062
X-9.35906 Y8.90371 Z-9.85923
X-9.41929 Y8.98186 Z-9.87663
X-9.44981 Y9.06842 Z-9.89281
X-9.45137 Y9.15335 Z-9.90779
X-9.42783 Y9.22787 Z-9.92157
X-9.38545 Y9.28536 Z-9.93417
X-9.33202 Y9.32194 Z-9.94558
X-9.27572 Y9.33673 Z-9.95585
X-9.22418 Y9.33166 Z-9.96498
X-9.18349 Y9.3111 Z-9.97302
X-9.15759 Y9.28104 Z-9.98001
X-9.14785 Y9.24823 Z-9.98605
X-9.15304 Y9.21921 Z-9.99125
X-9.16964 Y9.19941 Z-9.9958
X-9.19239 Y9.19239 Z-10.
X-9.16964 Y9.19941 F480.
X-9.15304 Y9.21921
X-9.14785 Y9.24823
X-9.15759 Y9.28104
X-9.18349 Y9.3111
X-9.22418 Y9.33166
X-9.27572 Y9.33673
X-9.33202 Y9.32194
X-9.38545 Y9.28536
X-9.42783 Y9.22787
X-9.45137 Y9.15335
X-9.44981 Y9.06842
X-9.41929 Y8.98186
X-9.35906 Y8.90371
X-9.27186 Y8.8442
X-9.16392 Y8.8125
X-9.04451 Y8.81561
X-8.92518 Y8.85732
X-8.81861 Y8.93755
X-8.73735 Y9.05203
G0 Z1.
X-8.66683 Y9.03027
G1 Z-10. F120.
G03 X-9.71795 Y9.3545 I-0.52556 J0.16212 F480.
X-8.66683 Y9.03027 I0.52556 J-0.16211
G1 Z-9.4 F720.
G0 Z1.
X9.15309 Y8.8324
G1 Z-1.4 F120.
Z-2. F360.
X9.22086 Y8.8125 Z-2.01245
X9.34027 Y8.81561 Z-2.03352
X9.4596 Y8.85732 Z-2.05581
X9.56616 Y8.93755 Z-2.07933
X9.64742 Y9.05203 Z-2.10408
X9.56616 Y8.93755 Z-2.12883
X9.4596 Y8.85732 Z-2.15236
X9.34027 Y8.81561 Z-2.17465
X9.22086 Y8.8125 Z-2.19571
X9.11292 Y8.8442 Z-2.21554
X9.02572 Y8.90371 Z-2.23416
X8.96549 Y8.98186 Z-2.25156
X8.93497 Y9.06842 Z-2.26774
X8.93341 Y9.15335 Z-2.28272
X8.95695 Y9.22787 Z-2.2965
X8.99932 Y9.28536 Z-2.30909
X9.05276 Y9.32194 Z-2.32051
X9.10906 Y9.33673 Z-2.33077
X9.1606 Y9.33166 Z-2.3399
X9.20128 Y9.3111 Z-2.34794
X9.22718 Y9.28104 Z-2.35494
X9.23692 Y9.24823 Z-2.36097
X9.23173 Y9.21921 Z-2.36617
X9.21514 Y9.19941 Z-2.37073
X9.19239 Y9.19239 Z-2.37493
X9.21514 Y9.19941 Z-2.37913
X9.23173 Y9.21921 Z-2.38368
X9.23692 Y9.24823 Z-2.38888
X9.22718 Y9.28104 Z-2.39491
X9.20128 Y9.3111 Z-2.40191
X9.1606 Y9.33166 Z-2.40995
X9.10906 Y9.33673 Z-2.41908
X9.05276 Y9.32194 Z-2.42934
X8.99932 Y9.28536 Z-2.44076
X8.95695 Y9.22787 Z-2.45335
X8.93341 Y9.15335 Z-2.46713
X8.93497 Y9.06842 Z-2.48211
X8.96549 Y8.98186 Z-2.4983
X9.02572 Y8.90371 Z-2.51569
X9.11292 Y8.8442 Z-2.53431
X9.22086 Y8.8125 Z-2.55415
X9.34027 Y8.81561 Z-2.57521
X9.4596 Y8.85732 Z-2.5975
X9.56616 Y8.93755 Z-2.62102
X9.64742 Y9.05203 Z-2.64577
X9.56616 Y8.93755 Z-2.67053
X9.4596 Y8.85732 Z-2.69405
X9.34027 Y8.81561 Z-2.71634
X9.22086 Y8.8125 Z-2.7374
X9.11292 Y8.8442 Z-2.75724
X9.02572 Y8.90371 Z-2.77585
X8.96549 Y8.98186 Z-2.79325
X8.93497 Y9.06842 Z-2.80943
X8.93341 Y9.15335 Z-2.82441
X8.95695 Y9.22787 Z-2.83819
X8.99932 Y9.28536 Z-2.85078
X9.05276 Y9.32194 Z-2.8622
X9.10906 Y9.33673 Z-2.87246
X9.1606 Y9.33166 Z-2.8816
X9.20128 Y9.3111 Z-2.88963
X9.22718 Y9.28104 Z-2.89663
X9.23692 Y9.24823 Z-2.90266
X9.23173 Y9.21921 Z-2.90786
X9.21514 Y9.19941 Z-2.91242
X9.19239 Y9.19239 Z-2.91662
X9.21514 Y9.19941 Z-2.92082
X9.23173 Y9.21921 Z-2.92537
X9.23692 Y9.24823 Z-2.93057
X9.22718 Y9.28104 Z-2.93661
X9.20128 Y9.3111 Z-2.9436
X9.1606 Y9.33166 Z-2.95164
X9.10906 Y9.33673 Z-2.96077
X9.05276 Y9.32194 Z-2.97103
X8.99932 Y9.28536 Z-2.98245
X8.95695 Y9.22787 Z-2.99505
X8.93341 Y9.15335 Z-3.00883
X8.93497 Y9.06842 Z-3.0238
X8.96549 Y8.98186 Z-3.03999
X9.02572 Y8.90371 Z-3.05739
X9.11292 Y8.8442 Z-3.076
X9.22086 Y8.8125 Z-3.09584
X9.34027 Y8.81561 Z-3.1169
X9.4596 Y8.85732 Z-3.13919
X9.56616 Y8.93755 Z-3.16271
X9.64742 Y9.05203 Z-3.18746
X9.56616 Y8.93755 Z-3.21222
X9.4596 Y8.85732 Z-3.23574
X9.34027 Y8.81561 Z-3.25803
X9.22086 Y8.8125 Z-3.27909
X9.11292 Y8.8442 Z-3.29893
X9.02572 Y8.90371 Z-3.31754
X8.96549 Y8.98186 Z-3.33494
X8.93497 Y9.06842 Z-3.35112
X8.93341 Y9.15335 Z-3.3661
X8.95695 Y9.22787 Z-3.37988
X8.99932 Y9.28536 Z-3.39247
X9.05276 Y9.32194 Z-3.40389
X9.10906 Y9.33673 Z-3.41416
X9.1606 Y9.33166 Z-3.42329
X9.20128 Y9.3111 Z-3.43133
X9.22718 Y9.28104 Z-3.43832
X9.23692 Y9.24823 Z-3.44436
X9.23173 Y9.21921 Z-3.44956
X9.21514 Y9.19941 Z-3.45411
X9.19239 Y9.19239 Z-3.45831
X9.21514 Y9.19941 Z-3.46251
X9.23173 Y9.21921 Z-3.46706
X9.23692 Y9.24823 Z-3.47226
X9.22718 Y9.28104 Z-3.4783
X9.20128 Y9.3111 Z-3.48529
X9.1606 Y9.33166 Z-3.49333
X9.10906 Y9.33673 Z-3.50246
X9.05276 Y9.32194 Z-3.51273
X8.99932 Y9.28536 Z-3.52414
X8.95695 Y9.22787 Z-3.53674
X8.93341 Y9.15335 Z-3.55052
X8.93497 Y9.06842 Z-3.5655
X8.96549 Y8.98186 Z-3.58168
X9.02572 Y8.90371 Z-3.59908
X9.11292 Y8.8442 Z-3.61769
X9.22086 Y8.8125 Z-3.63753
X9.34027 Y8.81561 Z-3.65859
X9.4596 Y8.85732 Z-3.68088
X9.56616 Y8.93755 Z-3.7044
X9.64742 Y9.05203 Z-3.72916
X9.56616 Y8.93755 Z-3.75391
X9.4596 Y8.85732 Z-3.77743
X9.34027 Y8.81561 Z-3.79972
X9.22086 Y8.8125 Z-3.82078
X9.11292 Y8.8442 Z-3.84062
X9.02572 Y8.90371 Z-3.85923
X8.96549 Y8.98186 Z-3.87663
X8.93497 Y9.06842 Z-3.89281
X8.93341 Y9.15335 Z-3.90779
X8.95695 Y9.22787 Z-3.92157
X8.99932 Y9.28536 Z-3.93417
X9.05276 Y9.32194 Z-3.94558
X9.10906 Y9.33673 Z-3.95585
X9.1606 Y9.33166 Z-3.96498
X9.20128 Y9.3111 Z-3.97302
X9.22718 Y9.28104 Z-3.98001
X9.23692 Y9.24823 Z-3.98605
X9.23173 Y9.21921 Z-3.99125
X9.21514 Y9.19941 Z-3.9958
X9.19239 Y9.19239 Z-4.
X9.21514 Y9.19941 F480.
X9.23173 Y9.21921
X9.23692 Y9.24823
X9.22718 Y9.28104
X9.20128 Y9.3111
X9.1606 Y9.33166
X9.10906 Y9.33673
X9.05276 Y9.32194
X8.99932 Y9.28536
X8.95695 Y9.22787
X8.93341 Y9.15335
X8.93497 Y9.06842
X8.96549 Y8.98186
X9.02572 Y8.90371
X9.11292 Y8.8442
X9.22086 Y8.8125
X9.34027 Y8.81561
X9.4596 Y8.85732
X9.56616 Y8.93755
X9.64742 Y9.05203
X9.69239 Y9.19239
X9.69639 Y9.2241
X9.69837 Y9.25631
X9.69827 Y9.28889
X9.69605 Y9.32171
X9.69169 Y9.35462
X9.68517 Y9.38749
X9.67647 Y9.42018
X9.66559 Y9.45253
X9.65255 Y9.48441
X9.63735 Y9.51567
G0 Z1.
X8.69174 Y8.96468
G1 Z-4. F120.
G03 X9.69304 Y9.42009 I0.50065 J0.22771 F480.
X8.69174 Y8.96468 I-0.50065 J-0.2277
G1 Z-3.4 F720.
G0 Z1.
X9.15309 Y8.8324
G1 Z-3.4 F120.
Z-4. F360.
X9.22086 Y8.8125 Z-4.01245
X9.34027 Y8.81561 Z-4.03352
X9.4596 Y8.85732 Z-4.05581
X9.56616 Y8.93755 Z-4.07933
X9.64742 Y9.05203 Z-4.10408
X9.56616 Y8.93755 Z-4.12883
X9.4596 Y8.85732 Z-4.15235
X9.34027 Y8.81561 Z-4.17465
X9.22086 Y8.8125 Z-4.19571
X9.11292 Y8.8442 Z-4.21554
X9.02572 Y8.90371 Z-4.23416
X8.96549 Y8.98186 Z-4.25155
X8.93497 Y9.06842 Z-4.26774
X8.93341 Y9.15335 Z-4.28272
X8.95695 Y9.22787 Z-4.2965
X8.99932 Y9.28536 Z-4.30909
X9.05276 Y9.32194 Z-4.32051
X9.10906 Y9.33673 Z-4.33077
X9.1606 Y9.33166 Z-4.3399
X9.20128 Y9.3111 Z-4.34794
X9.22718 Y9.28104 Z-4.35494
X9.23692 Y9.24823 Z-4.36097
X9.23173 Y9.21921 Z-4.36617
X9.21514 Y9.19941 Z-4.37073
X9.19239 Y9.19239 Z-4.37493
X9.21514 Y9.19941 Z-4.37913
X9.23173 Y9.21921 Z-4.38368
X9.23692 Y9.24823 Z-4.38888
X9.22718 Y9.28104 Z-4.39491
X9.20128 Y9.3111 Z-4.40191
X9.1606 Y9.33166 Z-4.40995
X9.10906 Y9.33673 Z-4.41908
X9.05276 Y9.32194 Z-4.42934
X8.99932 Y9.28536 Z-4.44076
X8.95695 Y9.22787 Z-4.45335
X8.93341 Y9.15335 Z-4.46713
X8.93497 Y9.06842 Z-4.48211
X8.96549 Y8.98186 Z-4.4983
X9.02572 Y8.90371 Z-4.51569
X9.11292 Y8.8442 Z-4.53431
X9.22086 Y8.8125 Z-4.55415
X9.34027 Y8.81561 Z-4.57521
X9.4596 Y8.85732 Z-4.5975
X9.56616 Y8.93755 Z-4.62102
X9.64742 Y9.05203 Z-4.64577
X9.56616 Y8.93755 Z-4.67053
X9.4596 Y8.85732 Z-4.69405
X9.34027 Y8.81561 Z-4.71634
X9.22086 Y8.8125 Z-4.7374
X9.11292 Y8.8442 Z-4.75724
X9.02572 Y8.90371 Z-4.77585
X8.96549 Y8.98186 Z-4.79325
X8.93497 Y9.06842 Z-4.80943
X8.93341 Y9.15335 Z-4.82441
X8.95695 Y9.22787 Z-4.83819
X8.99932 Y9.28536 Z-4.85078
X9.05276 Y9.32194 Z-4.8622
X9.10906 Y9.33673 Z-4.87246
X9.1606 Y9.33166 Z-4.8816
X9.20128 Y9.3111 Z-4.88963
X9.22718 Y9.28104 Z-4.89663
X9.23692 Y9.24823 Z-4.90266
X9.23173 Y9.21921 Z-4.90786
X9.21514 Y9.19941 Z-4.91242
X9.19239 Y9.19239 Z-4.91662
X9.21514 Y9.19941 Z-4.92082
X9.23173 Y9.21921 Z-4.92537
X9.23692 Y9.24823 Z-4.93057
X9.22718 Y9.28104 Z-4.93661
X9.20128 Y9.3111 Z-4.9436
X9.1606 Y9.33166 Z-4.95164
X9.10906 Y9.33673 Z-4.96077
X9.05276 Y9.32194 Z-4.97103
X8.99932 Y9.28536 Z-4.98245
X8.95695 Y9.22787 Z-4.99505
X8.93341 Y9.15335 Z-5.00883
X8.93497 Y9.06842 Z-5.0238
X8.96549 Y8.98186 Z-5.03999
X9.02572 Y8.90371 Z-5.05739
X9.11292 Y8.8442 Z-5.076
X9.22086 Y8.8125 Z-5.09584
X9.34027 Y8.81561 Z-5.1169
X9.4596 Y8.85732 Z-5.13919
X9.56616 Y8.93755 Z-5.16271
X9.64742 Y9.05203 Z-5.18746
X9.56616 Y8.93755 Z-5.21222
X9.4596 Y8.85732 Z-5.23574
X9.34027 Y8.81561 Z-5.25803
X9.22086 Y8.8125 Z-5.27909
X9.11292 Y8.8442 Z-5.29893
X9.02572 Y8.90371 Z-5.31754
X8.96549 Y8.98186 Z-5.33494
X8.93497 Y9.06842 Z-5.35112
X8.93341 Y9.15335 Z-5.3661
X8.95695 Y9.22787 Z-5.37988
X8.99932 Y9.28536 Z-5.39247
X9.05276 Y9.32194 Z-5.40389
X9.10906 Y9.33673 Z-5.41416
X9.1606 Y9.33166 Z-5.42329
X9.20128 Y9.3111 Z-5.43133
X9.22718 Y9.28104 Z-5.43832
X9.23692 Y9.24823 Z-5.44436
X9.23173 Y9.21921 Z-5.44956
X9.21514 Y9.19941 Z-5.45411
X9.19239 Y9.19239 Z-5.45831
X9.21514 Y9.19941 Z-5.46251
X9.23173 Y9.21921 Z-5.46706
X9.23692 Y9.24823 Z-5.47226
X9.22718 Y9.28104 Z-5.4783
X9.20128 Y9.3111 Z-5.48529
X9.1606 Y9.33166 Z-5.49333
X9.10906 Y9.33673 Z-5.50246
X9.05276 Y9.32194 Z-5.51273
X8.99932 Y9.28536 Z-5.52414
X8.95695 Y9.22787 Z-5.53674
X8.93341 Y9.15335 Z-5.55052
X8.93497 Y9.06842 Z-5.5655
X8.96549 Y8.98186 Z-5.58168
X9.02572 Y8.90371 Z-5.59908
X9.11292 Y8.8442 Z-5.61769
X9.22086 Y8.8125 Z-5.63753
X9.34027 Y8.81561 Z-5.65859
X9.4596 Y8.85732 Z-5.68088
X9.56616 Y8.93755 Z-5.7044
X9.64742 Y9.05203 Z-5.72916
X9.56616 Y8.93755 Z-5.75391
X9.4596 Y8.85732 Z-5.77743
X9.34027 Y8.81561 Z-5.79972
X9.22086 Y8.8125 Z-5.82078
X9.11292 Y8.8442 Z-5.84062
X9.02572 Y8.90371 Z-5.85923
X8.96549 Y8.98186 Z-5.87663
X8.93497 Y9.06842 Z-5.89281
X8.93341 Y9.15335 Z-5.90779
X8.95695 Y9.22787 Z-5.92157
X8.99932 Y9.28536 Z-5.93417
X9.05276 Y9.32194 Z-5.94558
X9.10906 Y9.33673 Z-5.95585
X9.1606 Y9.33166 Z-5.96498
X9.20128 Y9.3111 Z-5.97302
X9.22718 Y9.28104 Z-5.98001
X9.23692 Y9.24823 Z-5.98605
X9.23173 Y9.21921 Z-5.99125
X9.21514 Y9.19941 Z-5.9958
X9.19239 Y9.19239 Z-6.
X9.21514 Y9.19941 F480.
X9.23173 Y9.21921
X9.23692 Y9.24823
X9.22718 Y9.28104
X9.20128 Y9.3111
X9.1606 Y9.33166
X9.10906 Y9.33673
X9.05276 Y9.32194
X8.99932 Y9.28536
X8.95695 Y9.22787
X8.93341 Y9.15335
X8.93497 Y9.06842
X8.96549 Y8.98186
X9.02572 Y8.90371
X9.11292 Y8.8442
X9.22086 Y8.8125
X9.34027 Y8.81561
X9.4596 Y8.85732
X9.56616 Y8.93755
X9.64742 Y9.05203
X9.69239 Y9.19239
X9.69639 Y9.2241
X9.69837 Y9.25631
X9.69827 Y9.28889
X9.69605 Y9.32171
X9.69169 Y9.35462
X9.68517 Y9.38749
X9.67647 Y9.42018
X9.66559 Y9.45253
X9.65255 Y9.48441
X9.63735 Y9.51567
G0 Z1.
X8.69174 Y8.96468
G1 Z-6. F120.
G03 X9.69304 Y9.42009 I0.50065 J0.22771 F480.
X8.69174 Y8.96468 I-0.50065 J-0.2277
G1 Z-5.4 F720.
G0 Z1.
X9.15309 Y8.8324
G1 Z-5.4 F120.
Z-6. F360.
X9.22086 Y8.8125 Z-6.01245
X9.34027 Y8.81561 Z-6.03352
X9.4596 Y8.85732 Z-6.05581
X9.56616 Y8.93755 Z-6.07933
X9.64742 Y9.05203 Z-6.10408
X9.56616 Y8.93755 Z-6.12883
X9.4596 Y8.85732 Z-6.15236
X9.34027 Y8.81561 Z-6.17465
X9.22086 Y8.8125 Z-6.19571
X9.11292 Y8.8442 Z-6.21554
X9.02572 Y8.90371 Z-6.23416
X8.96549 Y8.98186 Z-6.25156
X8.93497 Y9.06842 Z-6.26774
X8.93341 Y9.15335 Z-6.28272
X8.95695 Y9.22787 Z-6.2965
X8.99932 Y9.28536 Z-6.30909
X9.05276 Y9.32194 Z-6.32051
X9.10906 Y9.33673 Z-6.33077
X9.1606 Y9.33166 Z-6.33991
X9.20128 Y9.3111 Z-6.34794
X9.22718 Y9.28104 Z-6.35494
X9.23692 Y9.24823 Z-6.36097
X9.23173 Y9.21921 Z-6.36617
X9.21514 Y9.19941 Z-6.37073
X9.19239 Y9.19239 Z-6.37493
X9.21514 Y9.19941 Z-6.37913
X9.23173 Y9.21921 Z-6.38368
X9.23692 Y9.24823 Z-6.38888
X9.22718 Y9.28104 Z-6.39491
X9.20128 Y9.3111 Z-6.40191
X9.1606 Y9.33166 Z-6.40995
X9.10906 Y9.33673 Z-6.41908
X9.05276 Y9.32194 Z-6.42934
X8.99932 Y9.28536 Z-6.44076
X8.95695 Y9.22787 Z-6.45335
X8.93341 Y9.15335 Z-6.46714
X8.93497 Y9.06842 Z-6.48211
X8.96549 Y8.98186 Z-6.4983
X9.02572 Y8.90371 Z-6.51569
X9.11292 Y8.8442 Z-6.53431
X9.22086 Y8.8125 Z-6.55415
X9.34027 Y8.81561 Z-6.57521
X9.4596 Y8.85732 Z-6.5975
X9.56616 Y8.93755 Z-6.62102
X9.64742 Y9.05203 Z-6.64577
X9.56616 Y8.93755 Z-6.67053
X9.4596 Y8.85732 Z-6.69405
X9.34027 Y8.81561 Z-6.71634
X9.22086 Y8.8125 Z-6.7374
X9.11292 Y8.8442 Z-6.75724
X9.02572 Y8.90371 Z-6.77585
X8.96549 Y8.98186 Z-6.79325
X8.93497 Y9.06842 Z-6.80943
X8.93341 Y9.15335 Z-6.82441
X8.95695 Y9.22787 Z-6.83819
X8.99932 Y9.28536 Z-6.85078
X9.05276 Y9.32194 Z-6.8622
X9.10906 Y9.33673 Z-6.87246
X9.1606 Y9.33166 Z-6.8816
X9.20128 Y9.3111 Z-6.88963
X9.22718 Y9.28104 Z-6.89663
X9.23692 Y9.24823 Z-6.90267
X9.23173 Y9.21921 Z-6.90786
X9.21514 Y9.19941 Z-6.91242
X9.19239 Y9.19239 Z-6.91662
X9.21514 Y9.19941 Z-6.92082
X9.23173 Y9.21921 Z-6.92537
X9.23692 Y9.24823 Z-6.93057
X9.22718 Y9.28104 Z-6.9366
X9.20128 Y9.3111 Z-6.9436
X9.1606 Y9.33166 Z-6.95164
X9.10906 Y9.33673 Z-6.96077
X9.05276 Y9.32194 Z-6.97103
X8.99932 Y9.28536 Z-6.98245
X8.95695 Y9.22787 Z-6.99505
X8.93341 Y9.15335 Z-7.00883
X8.93497 Y9.06842 Z-7.0238
X8.96549 Y8.98186 Z-7.03999
X9.02572 Y8.90371 Z-7.05739
X9.11292 Y8.8442 Z-7.076
X9.22086 Y8.8125 Z-7.09584
X9.34027 Y8.81561 Z-7.1169
X9.4596 Y8.85732 Z-7.13919
X9.56616 Y8.93755 Z-7.16271
X9.64742 Y9.05203 Z-7.18746
X9.56616 Y8.93755 Z-7.21222
X9.4596 Y8.85732 Z-7.23574
X9.34027 Y8.81561 Z-7.25803
X9.22086 Y8.8125 Z-7.27909
X9.11292 Y8.8442 Z-7.29893
X9.02572 Y8.90371 Z-7.31754
X8.96549 Y8.98186 Z-7.33494
X8.93497 Y9.06842 Z-7.35112
X8.93341 Y9.15335 Z-7.3661
X8.95695 Y9.22787 Z-7.37988
X8.99932 Y9.28536 Z-7.39247
X9.05276 Y9.32194 Z-7.40389
X9.10906 Y9.33673 Z-7.41416
X9.1606 Y9.33166 Z-7.42329
X9.20128 Y9.3111 Z-7.43132
X9.22718 Y9.28104 Z-7.43832
X9.23692 Y9.24823 Z-7.44436
X9.23173 Y9.21921 Z-7.44956
X9.21514 Y9.19941 Z-7.45411
X9.19239 Y9.19239 Z-7.45831
X9.21514 Y9.19941 Z-7.46251
X9.23173 Y9.21921 Z-7.46706
X9.23692 Y9.24823 Z-7.47226
X9.22718 Y9.28104 Z-7.4783
X9.20128 Y9.3111 Z-7.48529
X9.1606 Y9.33166 Z-7.49333
X9.10906 Y9.33673 Z-7.50246
X9.05276 Y9.32194 Z-7.51273
X8.99932 Y9.28536 Z-7.52414
X8.95695 Y9.22787 Z-7.53674
X8.93341 Y9.15335 Z-7.55052
X8.93497 Y9.06842 Z-7.5655
X8.96549 Y8.98186 Z-7.58168
X9.02572 Y8.90371 Z-7.59908
X9.11292 Y8.8442 Z-7.61769
X9.22086 Y8.8125 Z-7.63753
X9.34027 Y8.81561 Z-7.65859
X9.4596 Y8.85732 Z-7.68088
X9.56616 Y8.93755 Z-7.7044
X9.64742 Y9.05203 Z-7.72916
X9.56616 Y8.93755 Z-7.75391
X9.4596 Y8.85732 Z-7.77743
X9.34027 Y8.81561 Z-7.79972
X9.22086 Y8.8125 Z-7.82078
X9.11292 Y8.8442 Z-7.84062
X9.02572 Y8.90371 Z-7.85923
X8.96549 Y8.98186 Z-7.87663
X8.93497 Y9.06842 Z-7.89281
X8.93341 Y9.15335 Z-7.90779
X8.95695 Y9.22787 Z-7.92157
X8.99932 Y9.28536 Z-7.93417
X9.05276 Y9.32194 Z-7.94558
X9.10906 Y9.33673 Z-7.95585
X9.1606 Y9.33166 Z-7.96498
X9.20128 Y9.3111 Z-7.97302
X9.22718 Y9.28104 Z-7.98001
X9.23692 Y9.24823 Z-7.98605
X9.23173 Y9.21921 Z-7.99125
X9.21514 Y9.19941 Z-7.9958
X9.19239 Y9.19239 Z-8.
X9.21514 Y9.19941 F480.
X9.23173 Y9.21921
X9.23692 Y9.24823
X9.22718 Y9.28104
X9.20128 Y9.3111
X9.1606 Y9.33166
X9.10906 Y9.33673
X9.05276 Y9.32194
X8.99932 Y9.28536
X8.95695 Y9.22787
X8.93341 Y9.15335
X8.93497 Y9.06842
X8.96549 Y8.98186
X9.02572 Y8.90371
X9.11292 Y8.8442
X9.22086 Y8.8125
X9.34027 Y8.81561
X9.4596 Y8.85732
X9.56616 Y8.93755
X9.64742 Y9.05203
X9.69239 Y9.19239
X9.69639 Y9.2241
X9.69837 Y9.25631
X9.69827 Y9.28889
X9.69605 Y9.32171
X9.69169 Y9.35462
X9.68517 Y9.38749
X9.67647 Y9.42018
X9.66559 Y9.45253
X9.65255 Y9.48441
X9.63735 Y9.51567
G0 Z1.
X8.69174 Y8.96468
G1 Z-8. F120.
G03 X9.69304 Y9.42009 I0.50065 J0.22771 F480.
X8.69174 Y8.96468 I-0.50065 J-0.2277
G1 Z-7.4 F720.
G0 Z1.
X9.15309 Y8.8324
G1 Z-7.4 F120.
Z-8. F360.
X9.22086 Y8.8125 Z-8.01245
X9.34027 Y8.81561 Z-8.03352
X9.4596 Y8.85732 Z-8.05581
X9.56616 Y8.93755 Z-8.07933
X9.64742 Y9.05203 Z-8.10408
X9.56616 Y8.93755 Z-8.12883
X9.4596 Y8.85732 Z-8.15235
X9.34027 Y8.81561 Z-8.17465
X9.22086 Y8.8125 Z-8.19571
X9.11292 Y8.8442 Z-8.21554
X9.02572 Y8.90371 Z-8.23416
X8.96549 Y8.98186 Z-8.25155
X8.93497 Y9.06842 Z-8.26774
X8.93341 Y9.15335 Z-8.28272
X8.95695 Y9.22787 Z-8.2965
X8.99932 Y9.28536 Z-8.30909
X9.05276 Y9.32194 Z-8.32051
X9.10906 Y9.33673 Z-8.33077
X9.1606 Y9.33166 Z-8.33991
X9.20128 Y9.3111 Z-8.34794
X9.22718 Y9.28104 Z-8.35494
X9.23692 Y9.24823 Z-8.36097
X9.23173 Y9.21921 Z-8.36617
X9.21514 Y9.19941 Z-8.37073
X9.19239 Y9.19239 Z-8.37493
X9.21514 Y9.19941 Z-8.37913
X9.23173 Y9.21921 Z-8.38368
X9.23692 Y9.24823 Z-8.38888
X9.22718 Y9.28104 Z-8.39491
X9.20128 Y9.3111 Z-8.40191
X9.1606 Y9.33166 Z-8.40995
X9.10906 Y9.33673 Z-8.41908
X9.05276 Y9.32194 Z-8.42934
X8.99932 Y9.28536 Z-8.44076
X8.95695 Y9.22787 Z-8.45335
X8.93341 Y9.15335 Z-8.46714
X8.93497 Y9.06842 Z-8.48211
X8.96549 Y8.98186 Z-8.4983
X9.02572 Y8.90371 Z-8.51569
X9.11292 Y8.8442 Z-8.53431
X9.22086 Y8.8125 Z-8.55415
X9.34027 Y8.81561 Z-8.57521
X9.4596 Y8.85732 Z-8.5975
X9.56616 Y8.93755 Z-8.62102
X9.64742 Y9.05203 Z-8.64577
X9.56616 Y8.93755 Z-8.67053
X9.4596 Y8.85732 Z-8.69405
X9.34027 Y8.81561 Z-8.71634
X9.22086 Y8.8125 Z-8.7374
X9.11292 Y8.8442 Z-8.75724
X9.02572 Y8.90371 Z-8.77585
X8.96549 Y8.98186 Z-8.79325
X8.93497 Y9.06842 Z-8.80943
X8.93341 Y9.15335 Z-8.82441
X8.95695 Y9.22787 Z-8.83819
X8.99932 Y9.28536 Z-8.85078
X9.05276 Y9.32194 Z-8.8622
X9.10906 Y9.33673 Z-8.87246
X9.1606 Y9.33166 Z-8.8816
X9.20128 Y9.3111 Z-8.88963
X9.22718 Y9.28104 Z-8.89663
X9.23692 Y9.24823 Z-8.90267
X9.23173 Y9.21921 Z-8.90786
X9.21514 Y9.19941 Z-8.91242
X9.19239 Y9.19239 Z-8.91662
X9.21514 Y9.19941 Z-8.92082
X9.23173 Y9.21921 Z-8.92537
X9.23692 Y9.24823 Z-8.93057
X9.22718 Y9.28104 Z-8.9366
X9.20128 Y9.3111 Z-8.9436
X9.1606 Y9.33166 Z-8.95164
X9.10906 Y9.33673 Z-8.96077
X9.05276 Y9.32194 Z-8.97103
X8.99932 Y9.28536 Z-8.98245
X8.95695 Y9.22787 Z-8.99505
X8.93341 Y9.15335 Z-9.00883
X8.93497 Y9.06842 Z-9.0238
X8.96549 Y8.98186 Z-9.03999
X9.02572 Y8.90371 Z-9.05739
X9.11292 Y8.8442 Z-9.076
X9.22086 Y8.8125 Z-9.09584
X9.34027 Y8.81561 Z-9.1169
X9.4596 Y8.85732 Z-9.13919
X9.56616 Y8.93755 Z-9.16271
X9.64742 Y9.05203 Z-9.18746
X9.56616 Y8.93755 Z-9.21222
X9.4596 Y8.85732 Z-9.23574
X9.34027 Y8.81561 Z-9.25803
X9.22086 Y8.8125 Z-9.27909
X9.11292 Y8.8442 Z-9.29893
X9.02572 Y8.90371 Z-9.31754
X8.96549 Y8.98186 Z-9.33494
X8.93497 Y9.06842 Z-9.35112
X8.93341 Y9.15335 Z-9.3661
X8.95695 Y9.22787 Z-9.37988
X8.99932 Y9.28536 Z-9.39247
X9.05276 Y9.32194 Z-9.40389
X9.10906 Y9.33673 Z-9.41415
X9.1606 Y9.33166 Z-9.42329
X9.20128 Y9.3111 Z-9.43132
X9.22718 Y9.28104 Z-9.43832
X9.23692 Y9.24823 Z-9.44436
X9.23173 Y9.21921 Z-9.44956
X9.21514 Y9.19941 Z-9.45411
X9.19239 Y9.19239 Z-9.45831
X9.21514 Y9.19941 Z-9.46251
X9.23173 Y9.21921 Z-9.46706
X9.23692 Y9.24823 Z-9.47226
X9.22718 Y9.28104 Z-9.4783
X9.20128 Y9.3111 Z-9.48529
X9.1606 Y9.33166 Z-9.49333
X9.10906 Y9.33673 Z-9.50246
X9.05276 Y9.32194 Z-9.51273
X8.99932 Y9.28536 Z-9.52414
X8.95695 Y9.22787 Z-9.53674
X8.93341 Y9.15335 Z-9.55052
X8.93497 Y9.06842 Z-9.56549
X8.96549 Y8.98186 Z-9.58168
X9.02572 Y8.90371 Z-9.59908
X9.11292 Y8.8442 Z-9.61769
X9.22086 Y8.8125 Z-9.63753
X9.34027 Y8.81561 Z-9.65859
X9.4596 Y8.85732 Z-9.68088
X9.56616 Y8.93755 Z-9.7044
X9.64742 Y9.05203 Z-9.72916
X9.56616 Y8.93755 Z-9.75391
X9.4596 Y8.85732 Z-9.77743
X9.34027 Y8.81561 Z-9.79972
X9.22086 Y8.8125 Z-9.82078
X9.11292 Y8.8442 Z-9.84062
X9.02572 Y8.90371 Z-9.85923
X8.96549 Y8.98186 Z-9.87663
X8.93497 Y9.06842 Z-9.89281
X8.93341 Y9.15335 Z-9.90779
X8.95695 Y9.22787 Z-9.92157
X8.99932 Y9.28536 Z-9.93417
X9.05276 Y9.32194 Z-9.94558
X9.10906 Y9.33673 Z-9.95585
X9.1606 Y9.33166 Z-9.96498
X9.20128 Y9.3111 Z-9.97302
X9.22718 Y9.28104 Z-9.98001
X9.23692 Y9.24823 Z-9.98605
X9.23173 Y9.21921 Z-9.99125
X9.21514 Y9.19941 Z-9.9958
X9.19239 Y9.19239 Z-10.
X9.21514 Y9.19941 F480.
X9.23173 Y9.21921
X9.23692 Y9.24823
X9.22718 Y9.28104
X9.20128 Y9.3111
X9.1606 Y9.33166
X9.10906 Y9.33673
X9.05276 Y9.32194
X8.99932 Y9.28536
X8.95695 Y9.22787
X8.93341 Y9.15335
X8.93497 Y9.06842
X8.96549 Y8.98186
X9.02572 Y8.90371
X9.11292 Y8.8442
X9.22086 Y8.8125
X9.34027 Y8.81561
X9.4596 Y8.85732
X9.56616 Y8.93755
X9.64742 Y9.05203
X9.69239 Y9.19239
X9.69639 Y9.2241
X9.69837 Y9.25631
X9.69827 Y9.28889
X9.69605 Y9.32171
X9.69169 Y9.35462
X9.68517 Y9.38749
X9.67647 Y9.42018
X9.66559 Y9.45253
X9.65255 Y9.48441
X9.63735 Y9.51567
G0 Z1.
X8.69174 Y8.96468
G1 Z-10. F120.
G03 X9.69304 Y9.42009 I0.50065 J0.22771 F480.
X8.69174 Y8.96468 I-0.50065 J-0.2277
G1 Z-9.4 F720.
G0 Z1.
X9.15309 Y-9.55237
G1 Z-1.4 F120.
Z-2. F360.
X9.22086 Y-9.57228 Z-2.01245
X9.34026 Y-9.56917 Z-2.03352
X9.4596 Y-9.52746 Z-2.05581
X9.56616 Y-9.44722 Z-2.07933
X9.64742 Y-9.33275 Z-2.10408
X9.56616 Y-9.44722 Z-2.12883
X9.4596 Y-9.52746 Z-2.15236
X9.34026 Y-9.56917 Z-2.17465
X9.22086 Y-9.57228 Z-2.19571
X9.11292 Y-9.54058 Z-2.21554
X9.02572 Y-9.48106 Z-2.23416
X8.96549 Y-9.40292 Z-2.25156
X8.93497 Y-9.31635 Z-2.26774
X8.93341 Y-9.23142 Z-2.28272
X8.95695 Y-9.1569 Z-2.2965
X8.99932 Y-9.09941 Z-2.30909
X9.05276 Y-9.06283 Z-2.32051
X9.10905 Y-9.04805 Z-2.33077
X9.1606 Y-9.05311 Z-2.3399
X9.20128 Y-9.07367 Z-2.34794
X9.22718 Y-9.10373 Z-2.35494
X9.23692 Y-9.13654 Z-2.36097
X9.23173 Y-9.16556 Z-2.36617
X9.21514 Y-9.18537 Z-2.37073
X9.19239 Y-9.19239 Z-2.37493
X9.21514 Y-9.18537 Z-2.37913
X9.23173 Y-9.16556 Z-2.38368
X9.23692 Y-9.13654 Z-2.38888
X9.22718 Y-9.10373 Z-2.39491
X9.20128 Y-9.07367 Z-2.40191
X9.1606 Y-9.05311 Z-2.40995
X9.10905 Y-9.04805 Z-2.41908
X9.05276 Y-9.06283 Z-2.42934
X8.99932 Y-9.09941 Z-2.44076
X8.95695 Y-9.1569 Z-2.45335
X8.93341 Y-9.23142 Z-2.46713
X8.93497 Y-9.31635 Z-2.48211
X8.96549 Y-9.40292 Z-2.4983
X9.02572 Y-9.48106 Z-2.51569
X9.11292 Y-9.54058 Z-2.53431
X9.22086 Y-9.57228 Z-2.55415
X9.34026 Y-9.56917 Z-2.57521
X9.4596 Y-9.52746 Z-2.5975
X9.56616 Y-9.44722 Z-2.62102
X9.64742 Y-9.33275 Z-2.64577
X9.56616 Y-9.44722 Z-2.67053
X9.4596 Y-9.52746 Z-2.69405
X9.34026 Y-9.56917 Z-2.71634
X9.22086 Y-9.57228 Z-2.7374
X9.11292 Y-9.54058 Z-2.75724
X9.02572 Y-9.48106 Z-2.77585
X8.96549 Y-9.40292 Z-2.79325
X8.93497 Y-9.31635 Z-2.80943
X8.93341 Y-9.23142 Z-2.82441
X8.95695 Y-9.1569 Z-2.83819
X8.99932 Y-9.09941 Z-2.85078
X9.05276 Y-9.06283 Z-2.8622
X9.10905 Y-9.04805 Z-2.87246
X9.1606 Y-9.05311 Z-2.8816
X9.20128 Y-9.07367 Z-2.88963
X9.22718 Y-9.10373 Z-2.89663
X9.23692 Y-9.13654 Z-2.90266
X9.23173 Y-9.16556 Z-2.90786
X9.21514 Y-9.18537 Z-2.91242
X9.19239 Y-9.19239 Z-2.91662
X9.21514 Y-9.18537 Z-2.92082
X9.23173 Y-9.16556 Z-2.92537
X9.23692 Y-9.13654 Z-2.93057
X9.22718 Y-9.10373 Z-2.93661
X9.20128 Y-9.07367 Z-2.9436
X9.1606 Y-9.05311 Z-2.95164
X9.10905 Y-9.04805 Z-2.96077
X9.05276 Y-9.06283 Z-2.97103
X8.99932 Y-9.09941 Z-2.98245
X8.95695 Y-9.1569 Z-2.99505
X8.93341 Y-9.23142 Z-3.00883
X8.93497 Y-9.31635 Z-3.0238
X8.96549 Y-9.40292 Z-3.03999
X9.02572 Y-9.48106 Z-3.05739
X9.11292 Y-9.54058 Z-3.076
X9.22086 Y-9.57228 Z-3.09584
X9.34026 Y-9.56917 Z-3.1169
X9.4596 Y-9.52746 Z-3.13919
X9.56616 Y-9.44722 Z-3.16271
X9.64742 Y-9.33275 Z-3.18746
X9.56616 Y-9.44722 Z-3.21222
X9.4596 Y-9.52746 Z-3.23574
X9.34026 Y-9.56917 Z-3.25803
X9.22086 Y-9.57228 Z-3.27909
X9.11292 Y-9.54058 Z-3.29893
X9.02572 Y-9.48106 Z-3.31754
X8.96549 Y-9.40292 Z-3.33494
X8.93497 Y-9.31635 Z-3.35112
X8.93341 Y-9.23142 Z-3.3661
X8.95695 Y-9.1569 Z-3.37988
X8.99932 Y-9.09941 Z-3.39247
X9.05276 Y-9.06283 Z-3.40389
X9.10905 Y-9.04805 Z-3.41416
X9.1606 Y-9.05311 Z-3.42329
X9.20128 Y-9.07367 Z-3.43133
X9.22718 Y-9.10373 Z-3.43832
X9.23692 Y-9.13654 Z-3.44436
X9.23173 Y-9.16556 Z-3.44956
X9.21514 Y-9.18537 Z-3.45411
X9.19239 Y-9.19239 Z-3.45831
X9.21514 Y-9.18537 Z-3.46251
X9.23173 Y-9.16556 Z-3.46706
X9.23692 Y-9.13654 Z-3.47226
X9.22718 Y-9.10373 Z-3.4783
X9.20128 Y-9.07367 Z-3.48529
X9.1606 Y-9.05311 Z-3.49333
X9.10905 Y-9.04805 Z-3.50246
X9.05276 Y-9.06283 Z-3.51273
X8.99932 Y-9.09941 Z-3.52414
X8.95695 Y-9.1569 Z-3.53674
X8.93341 Y-9.23142 Z-3.55052
X8.93497 Y-9.31635 Z-3.5655
X8.96549 Y-9.40292 Z-3.58168
X9.02572 Y-9.48106 Z-3.59908
X9.11292 Y-9.54058 Z-3.61769
X9.22086 Y-9.57228 Z-3.63753
X9.34026 Y-9.56917 Z-3.65859
X9.4596 Y-9.52746 Z-3.68088
X9.56616 Y-9.44722 Z-3.7044
X9.64742 Y-9.33275 Z-3.72916
X9.56616 Y-9.44722 Z-3.75391
X9.4596 Y-9.52746 Z-3.77743
X9.34026 Y-9.56917 Z-3.79972
X9.22086 Y-9.57228 Z-3.82078
X9.11292 Y-9.54058 Z-3.84062
X9.02572 Y-9.48106 Z-3.85923
X8.96549 Y-9.40292 Z-3.87663
X8.93497 Y-9.31635 Z-3.89281
X8.93341 Y-9.23142 Z-3.90779
X8.95695 Y-9.1569 Z-3.92157
X8.99932 Y-9.09941 Z-3.93417
X9.05276 Y-9.06283 Z-3.94558
X9.10905 Y-9.04805 Z-3.95585
X9.1606 Y-9.05311 Z-3.96498
X9.20128 Y-9.07367 Z-3.97302
X9.22718 Y-9.10373 Z-3.98001
X9.23692 Y-9.13654 Z-3.98605
X9.23173 Y-9.16556 Z-3.99125
X9.21514 Y-9.18537 Z-3.9958
X9.19239 Y-9.19239 Z-4.
X9.21514 Y-9.18537 F480.
X9.23173 Y-9.16556
X9.23692 Y-9.13654
X9.22718 Y-9.10373
X9.20128 Y-9.07367
X9.1606 Y-9.05311
X9.10905 Y-9.04805
X9.05276 Y-9.06283
X8.99932 Y-9.09941
X8.95695 Y-9.1569
X8.93341 Y-9.23142
X8.93497 Y-9.31635
X8.96549 Y-9.40292
X9.02572 Y-9.48106
X9.11292 Y-9.54058
X9.22086 Y-9.57228
X9.34026 Y-9.56917
X9.4596 Y-9.52746
X9.56616 Y-9.44722
X9.64742 Y-9.33275
X9.69239 Y-9.19239
X9.69639 Y-9.16068
X9.69837 Y-9.12847
X9.69827 Y-9.09589
X9.69605 Y-9.06307
X9.69169 Y-9.03015
X9.68517 Y-8.99728
X9.67647 Y-8.9646
X9.66559 Y-8.93224
X9.65255 Y-8.90036
X9.63735 Y-8.86911
G0 Z1.
X8.76539 Y-8.84572
G1 Z-4. F120.
G03 X9.61938 Y-9.53905 I0.427 J-0.34667 F480.
X8.76539 Y-8.84572 I-0.42699 J0.34666
G1 Z-3.4 F720.
G0 Z1.
X9.15309 Y-9.55237
G1 Z-3.4 F120.
Z-4. F360.
X9.22086 Y-9.57228 Z-4.01245
X9.34026 Y-9.56917 Z-4.03352
X9.4596 Y-9.52746 Z-4.05581
X9.56616 Y-9.44722 Z-4.07933
X9.64742 Y-9.33275 Z-4.10408
X9.56616 Y-9.44722 Z-4.12883
X9.4596 Y-9.52746 Z-4.15235
X9.34026 Y-9.56917 Z-4.17465
X9.22086 Y-9.57228 Z-4.19571
X9.11292 Y-9.54058 Z-4.21554
X9.02572 Y-9.48106 Z-4.23416
X8.96549 Y-9.40292 Z-4.25155
X8.93497 Y-9.31635 Z-4.26774
X8.93341 Y-9.23142 Z-4.28272
X8.95695 Y-9.1569 Z-4.2965
X8.99932 Y-9.09941 Z-4.30909
X9.05276 Y-9.06283 Z-4.32051
X9.10905 Y-9.04805 Z-4.33077
X9.1606 Y-9.05311 Z-4.3399
X9.20128 Y-9.07367 Z-4.34794
X9.22718 Y-9.10373 Z-4.35494
X9.23692 Y-9.13654 Z-4.36097
X9.23173 Y-9.16556 Z-4.36617
X9.21514 Y-9.18537 Z-4.37073
X9.19239 Y-9.19239 Z-4.37493
X9.21514 Y-9.18537 Z-4.37913
X9.23173 Y-9.16556 Z-4.38368
X9.23692 Y-9.13654 Z-4.38888
X9.22718 Y-9.10373 Z-4.39491
X9.20128 Y-9.07367 Z-4.40191
X9.1606 Y-9.05311 Z-4.40995
X9.10905 Y-9.04805 Z-4.41908
X9.05276 Y-9.06283 Z-4.42934
X8.99932 Y-9.09941 Z-4.44076
X8.95695 Y-9.1569 Z-4.45335
X8.93341 Y-9.23142 Z-4.46713
X8.93497 Y-9.31635 Z-4.48211
X8.96549 Y-9.40292 Z-4.4983
X9.02572 Y-9.48106 Z-4.51569
X9.11292 Y-9.54058 Z-4.53431
X9.22086 Y-9.57228 Z-4.55415
X9.34026 Y-9.56917 Z-4.57521
X9.4596 Y-9.52746 Z-4.5975
X9.56616 Y-9.44722 Z-4.62102
X9.64742 Y-9.33275 Z-4.64577
X9.56616 Y-9.44722 Z-4.67053
X9.4596 Y-9.52746 Z-4.69405
X9.34026 Y-9.56917 Z-4.71634
X9.22086 Y-9.57228 Z-4.7374
X9.11292 Y-9.54058 Z-4.75724
X9.02572 Y-9.48106 Z-4.77585
X8.96549 Y-9.40292 Z-4.79325
X8.93497 Y-9.31635 Z-4.80943
X8.93341 Y-9.23142 Z-4.82441
X8.95695 Y-9.1569 Z-4.83819
X8.99932 Y-9.09941 Z-4.85078
X9.05276 Y-9.06283 Z-4.8622
X9.10905 Y-9.04805 Z-4.87246
X9.1606 Y-9.05311 Z-4.8816
X9.20128 Y-9.07367 Z-4.88963
X9.22718 Y-9.10373 Z-4.89663
X9.23692 Y-9.13654 Z-4.90266
X9.23173 Y-9.16556 Z-4.90786
X9.21514 Y-9.18537 Z-4.91242
X9.19239 Y-9.19239 Z-4.91662
X9.21514 Y-9.18537 Z-4.92082
X9.23173 Y-9.16556 Z-4.92537
X9.23692 Y-9.13654 Z-4.93057
X9.22718 Y-9.10373 Z-4.93661
X9.20128 Y-9.07367 Z-4.9436
X9.1606 Y-9.05311 Z-4.95164
X9.10905 Y-9.04805 Z-4.96077
X9.05276 Y-9.06283 Z-4.97103
X8.99932 Y-9.09941 Z-4.98245
X8.95695 Y-9.1569 Z-4.99505
X8.93341 Y-9.23142 Z-5.00883
X8.93497 Y-9.31635 Z-5.0238
X8.96549 Y-9.40292 Z-5.03999
X9.02572 Y-9.48106 Z-5.05739
X9.11292 Y-9.54058 Z-5.076
X9.22086 Y-9.57228 Z-5.09584
X9.34026 Y-9.56917 Z-5.1169
X9.4596 Y-9.52746 Z-5.13919
X9.56616 Y-9.44722 Z-5.16271
X9.64742 Y-9.33275 Z-5.18746
X9.56616 Y-9.44722 Z-5.21222
X9.4596 Y-9.52746 Z-5.23574
X9.34026 Y-9.56917 Z-5.25803
X9.22086 Y-9.57228 Z-5.27909
X9.11292 Y-9.54058 Z-5.29893
X9.02572 Y-9.48106 Z-5.31754
X8.96549 Y-9.40292 Z-5.33494
X8.93497 Y-9.31635 Z-5.35112
X8.93341 Y-9.23142 Z-5.3661
X8.95695 Y-9.1569 Z-5.37988
X8.99932 Y-9.09941 Z-5.39247
X9.05276 Y-9.06283 Z-5.40389
X9.10905 Y-9.04805 Z-5.41416
X9.1606 Y-9.05311 Z-5.42329
X9.20128 Y-9.07367 Z-5.43133
X9.22718 Y-9.10373 Z-5.43832
X9.23692 Y-9.13654 Z-5.44436
X9.23173 Y-9.16556 Z-5.44956
X9.21514 Y-9.18537 Z-5.45411
X9.19239 Y-9.19239 Z-5.45831
X9.21514 Y-9.18537 Z-5.46251
X9.23173 Y-9.16556 Z-5.46706
X9.23692 Y-9.13654 Z-5.47226
X9.22718 Y-9.10373 Z-5.4783
X9.20128 Y-9.07367 Z-5.48529
X9.1606 Y-9.05311 Z-5.49333
X9.10905 Y-9.04805 Z-5.50246
X9.05276 Y-9.06283 Z-5.51273
X8.99932 Y-9.09941 Z-5.52414
X8.95695 Y-9.1569 Z-5.53674
X8.93341 Y-9.23142 Z-5.55052
X8.93497 Y-9.31635 Z-5.5655
X8.96549 Y-9.40292 Z-5.58168
X9.02572 Y-9.48106 Z-5.59908
X9.11292 Y-9.54058 Z-5.61769
X9.22086 Y-9.57228 Z-5.63753
X9.34026 Y-9.56917 Z-5.65859
X9.4596 Y-9.52746 Z-5.68088
X9.56616 Y-9.44722 Z-5.7044
X9.64742 Y-9.33275 Z-5.72916
X9.56616 Y-9.44722 Z-5.75391
X9.4596 Y-9.52746 Z-5.77743
X9.34026 Y-9.56917 Z-5.79972
X9.22086 Y-9.57228 Z-5.82078
X9.11292 Y-9.54058 Z-5.84062
X9.02572 Y-9.48106 Z-5.85923
X8.96549 Y-9.40292 Z-5.87663
X8.93497 Y-9.31635 Z-5.89281
X8.93341 Y-9.23142 Z-5.90779
X8.95695 Y-9.1569 Z-5.92157
X8.99932 Y-9.09941 Z-5.93417
X9.05276 Y-9.06283 Z-5.94558
X9.10905 Y-9.04805 Z-5.95585
X9.1606 Y-9.05311 Z-5.96498
X9.20128 Y-9.07367 Z-5.97302
X9.22718 Y-9.10373 Z-5.98001
X9.23692 Y-9.13654 Z-5.98605
X9.23173 Y-9.16556 Z-5.99125
X9.21514 Y-9.18537 Z-5.9958
X9.19239 Y-9.19239 Z-6.
X9.21514 Y-9.18537 F480.
X9.23173 Y-9.16556
X9.23692 Y-9.13654
X9.22718 Y-9.10373
X9.20128 Y-9.07367
X9.1606 Y-9.05311
X9.10905 Y-9.04805
X9.05276 Y-9.06283
X8.99932 Y-9.09941
X8.95695 Y-9.1569
X8.93341 Y-9.23142
X8.93497 Y-9.31635
X8.96549 Y-9.40292
X9.02572 Y-9.48106
X9.11292 Y-9.54058
X9.22086 Y-9.57228
X9.34026 Y-9.56917
X9.4596 Y-9.52746
X9.56616 Y-9.44722
X9.64742 Y-9.33275
X9.69239 Y-9.19239
X9.69639 Y-9.16068
X9.69837 Y-9.12847
X9.69827 Y-9.09589
X9.69605 Y-9.06307
X9.69169 Y-9.03015
X9.68517 Y-8.99728
X9.67647 Y-8.9646
X9.66559 Y-8.93224
X9.65255 Y-8.90036
X9.63735 Y-8.86911
G0 Z1.
X8.76539 Y-8.84572
G1 Z-6. F120.
G03 X9.61938 Y-9.53905 I0.427 J-0.34667 F480.
X8.76539 Y-8.84572 I-0.42699 J0.34666
G1 Z-5.4 F720.
G0 Z1.
X9.15309 Y-9.55237
G1 Z-5.4 F120.
Z-6. F360.
X9.22086 Y-9.57228 Z-6.01245
X9.34026 Y-9.56917 Z-6.03352
X9.4596 Y-9.52746 Z-6.05581
X9.56616 Y-9.44722 Z-6.07933
X9.64742 Y-9.33275 Z-6.10408
X9.56616 Y-9.44722 Z-6.12883
X9.4596 Y-9.52746 Z-6.15236
X9.34026 Y-9.56917 Z-6.17465
X9.22086 Y-9.57228 Z-6.19571
X9.11292 Y-9.54058 Z-6.21554
X9.02572 Y-9.48106 Z-6.23416
X8.96549 Y-9.40292 Z-6.25156
X8.93497 Y-9.31635 Z-6.26774
X8.93341 Y-9.23142 Z-6.28272
X8.95695 Y-9.1569 Z-6.2965
X8.99932 Y-9.09941 Z-6.30909
X9.05276 Y-9.06283 Z-6.32051
X9.10905 Y-9.04805 Z-6.33077
X9.1606 Y-9.05311 Z-6.33991
X9.20128 Y-9.07367 Z-6.34794
X9.22718 Y-9.10373 Z-6.35494
X9.23692 Y-9.13654 Z-6.36097
X9.23173 Y-9.16556 Z-6.36617
X9.21514 Y-9.18537 Z-6.37073
X9.19239 Y-9.19239 Z-6.37493
X9.21514 Y-9.18537 Z-6.37913
X9.23173 Y-9.16556 Z-6.38368
X9.23692 Y-9.13654 Z-6.38888
X9.22718 Y-9.10373 Z-6.39491
X9.20128 Y-9.07367 Z-6.40191
X9.1606 Y-9.05311 Z-6.40995
X9.10905 Y-9.04805 Z-6.41908
X9.05276 Y-9.06283 Z-6.42934
X8.99932 Y-9.09941 Z-6.44076
X8.95695 Y-9.1569 Z-6.45335
X8.93341 Y-9.23142 Z-6.46714
X8.93497 Y-9.31635 Z-6.48211
X8.96549 Y-9.40292 Z-6.4983
X9.02572 Y-9.48106 Z-6.51569
X9.11292 Y-9.54058 Z-6.53431
X9.22086 Y-9.57228 Z-6.55415
X9.34026 Y-9.56917 Z-6.57521
X9.4596 Y-9.52746 Z-6.5975
X9.56616 Y-9.44722 Z-6.62102
X9.64742 Y-9.33275 Z-6.64577
X9.56616 Y-9.44722 Z-6.67053
X9.4596 Y-9.52746 Z-6.69405
X9.34026 Y-9.56917 Z-6.71634
X9.22086 Y-9.57228 Z-6.7374
X9.11292 Y-9.54058 Z-6.75724
X9.02572 Y-9.48106 Z-6.77585
X8.96549 Y-9.40292 Z-6.79325
X8.93497 Y-9.31635 Z-6.80943
X8.93341 Y-9.23142 Z-6.82441
X8.95695 Y-9.1569 Z-6.83819
X8.99932 Y-9.09941 Z-6.85078
X9.05276 Y-9.06283 Z-6.8622
X9.10905 Y-9.04805 Z-6.87246
X9.1606 Y-9.05311 Z-6.8816
X9.20128 Y-9.07367 Z-6.88963
X9.22718 Y-9.10373 Z-6.89663
X9.23692 Y-9.13654 Z-6.90267
X9.23173 Y-9.16556 Z-6.90786
X9.21514 Y-9.18537 Z-6.91242
X9.19239 Y-9.19239 Z-6.91662
X9.21514 Y-9.18537 Z-6.92082
X9.23173 Y-9.16556 Z-6.92537
X9.23692 Y-9.13654 Z-6.93057
X9.22718 Y-9.10373 Z-6.9366
X9.20128 Y-9.07367 Z-6.9436
X9.1606 Y-9.05311 Z-6.95164
X9.10905 Y-9.04805 Z-6.96077
X9.05276 Y-9.06283 Z-6.97103
X8.99932 Y-9.09941 Z-6.98245
X8.95695 Y-9.1569 Z-6.99505
X8.93341 Y-9.23142 Z-7.00883
X8.93497 Y-9.31635 Z-7.0238
X8.96549 Y-9.40292 Z-7.03999
X9.02572 Y-9.48106 Z-7.05739
X9.11292 Y-9.54058 Z-7.076
X9.22086 Y-9.57228 Z-7.09584
X9.34026 Y-9.56917 Z-7.1169
X9.4596 Y-9.52746 Z-7.13919
X9.56616 Y-9.44722 Z-7.16271
X9.64742 Y-9.33275 Z-7.18746
X9.56616 Y-9.44722 Z-7.21222
X9.4596 Y-9.52746 Z-7.23574
X9.34026 Y-9.56917 Z-7.25803
X9.22086 Y-9.57228 Z-7.27909
X9.11292 Y-9.54058 Z-7.29893
X9.02572 Y-9.48106 Z-7.31754
X8.96549 Y-9.40292 Z-7.33494
X8.93497 Y-9.31635 Z-7.35112
X8.93341 Y-9.23142 Z-7.3661
X8.95695 Y-9.1569 Z-7.37988
X8.99932 Y-9.09941 Z-7.39247
X9.05276 Y-9.06283 Z-7.40389
X9.10905 Y-9.04805 Z-7.41416
X9.1606 Y-9.05311 Z-7.42329
X9.20128 Y-9.07367 Z-7.43132
X9.22718 Y-9.10373 Z-7.43832
X9.23692 Y-9.13654 Z-7.44436
X9.23173 Y-9.16556 Z-7.44956
X9.21514 Y-9.18537 Z-7.45411
X9.19239 Y-9.19239 Z-7.45831
X9.21514 Y-9.18537 Z-7.46251
X9.23173 Y-9.16556 Z-7.46706
X9.23692 Y-9.13654 Z-7.47226
X9.22718 Y-9.10373 Z-7.4783
X9.20128 Y-9.07367 Z-7.48529
X9.1606 Y-9.05311 Z-7.49333
X9.10905 Y-9.04805 Z-7.50246
X9.05276 Y-9.06283 Z-7.51273
X8.99932 Y-9.09941 Z-7.52414
X8.95695 Y-9.1569 Z-7.53674
X8.93341 Y-9.23142 Z-7.55052
X8.93497 Y-9.31635 Z-7.5655
X8.96549 Y-9.40292 Z-7.58168
X9.02572 Y-9.48106 Z-7.59908
X9.11292 Y-9.54058 Z-7.61769
X9.22086 Y-9.57228 Z-7.63753
X9.34026 Y-9.56917 Z-7.65859
X9.4596 Y-9.52746 Z-7.68088
X9.56616 Y-9.44722 Z-7.7044
X9.64742 Y-9.33275 Z-7.72916
X9.56616 Y-9.44722 Z-7.75391
X9.4596 Y-9.52746 Z-7.77743
X9.34026 Y-9.56917 Z-7.79972
X9.22086 Y-9.57228 Z-7.82078
X9.11292 Y-9.54058 Z-7.84062
X9.02572 Y-9.48106 Z-7.85923
X8.96549 Y-9.40292 Z-7.87663
X8.93497 Y-9.31635 Z-7.89281
X8.93341 Y-9.23142 Z-7.90779
X8.95695 Y-9.1569 Z-7.92157
X8.99932 Y-9.09941 Z-7.93417
X9.05276 Y-9.06283 Z-7.94558
X9.10905 Y-9.04805 Z-7.95585
X9.1606 Y-9.05311 Z-7.96498
X9.20128 Y-9.07367 Z-7.97302
X9.22718 Y-9.10373 Z-7.98001
X9.23692 Y-9.13654 Z-7.98605
X9.23173 Y-9.16556 Z-7.99125
X9.21514 Y-9.18537 Z-7.9958
X9.19239 Y-9.19239 Z-8.
X9.21514 Y-9.18537 F480.
X9.23173 Y-9.16556
X9.23692 Y-9.13654
X9.22718 Y-9.10373
X9.20128 Y-9.07367
X9.1606 Y-9.05311
X9.10905 Y-9.04805
X9.05276 Y-9.06283
X8.99932 Y-9.09941
X8.95695 Y-9.1569
X8.93341 Y-9.23142
X8.93497 Y-9.31635
X8.96549 Y-9.40292
X9.02572 Y-9.48106
X9.11292 Y-9.54058
X9.22086 Y-9.57228
X9.34026 Y-9.56917
X9.4596 Y-9.52746
X9.56616 Y-9.44722
X9.64742 Y-9.33275
X9.69239 Y-9.19239
X9.69639 Y-9.16068
X9.69837 Y-9.12847
X9.69827 Y-9.09589
X9.69605 Y-9.06307
X9.69169 Y-9.03015
X9.68517 Y-8.99728
X9.67647 Y-8.9646
X9.66559 Y-8.93224
X9.65255 Y-8.90036
X9.63735 Y-8.86911
G0 Z1.
X8.76539 Y-8.84572
G1 Z-8. F120.
G03 X9.61938 Y-9.53905 I0.427 J-0.34667 F480.
X8.76539 Y-8.84572 I-0.42699 J0.34666
G1 Z-7.4 F720.
G0 Z1.
X9.15309 Y-9.55237
G1 Z-7.4 F120.
Z-8. F360.
X9.22086 Y-9.57228 Z-8.01245
X9.34026 Y-9.56917 Z-8.03352
X9.4596 Y-9.52746 Z-8.05581
X9.56616 Y-9.44722 Z-8.07933
X9.64742 Y-9.33275 Z-8.10408
X9.56616 Y-9.44722 Z-8.12883
X9.4596 Y-9.52746 Z-8.15235
X9.34026 Y-9.56917 Z-8.17465
X9.22086 Y-9.57228 Z-8.19571
X9.11292 Y-9.54058 Z-8.21554
X9.02572 Y-9.48106 Z-8.23416
X8.96549 Y-9.40292 Z-8.25155
X8.93497 Y-9.31635 Z-8.26774
X8.93341 Y-9.23142 Z-8.28272
X8.95695 Y-9.1569 Z-8.2965
X8.99932 Y-9.09941 Z-8.30909
X9.05276 Y-9.06283 Z-8.32051
X9.10905 Y-9.04805 Z-8.33077
X9.1606 Y-9.05311 Z-8.33991
X9.20128 Y-9.07367 Z-8.34794
X9.22718 Y-9.10373 Z-8.35494
X9.23692 Y-9.13654 Z-8.36097
X9.23173 Y-9.16556 Z-8.36617
X9.21514 Y-9.18537 Z-8.37073
X9.19239 Y-9.19239 Z-8.37493
X9.21514 Y-9.18537 Z-8.37913
X9.23173 Y-9.16556 Z-8.38368
X9.23692 Y-9.13654 Z-8.38888
X9.22718 Y-9.10373 Z-8.39491
X9.20128 Y-9.07367 Z-8.40191
X9.1606 Y-9.05311 Z-8.40995
X9.10905 Y-9.04805 Z-8.41908
X9.05276 Y-9.06283 Z-8.42934
X8.99932 Y-9.09941 Z-8.44076
X8.95695 Y-9.1569 Z-8.45335
X8.93341 Y-9.23142 Z-8.46714
X8.93497 Y-9.31635 Z-8.48211
X8.96549 Y-9.40292 Z-8.4983
X9.02572 Y-9.48106 Z-8.51569
X9.11292 Y-9.54058 Z-8.53431
X9.22086 Y-9.57228 Z-8.55415
X9.34026 Y-9.56917 Z-8.57521
X9.4596 Y-9.52746 Z-8.5975
X9.56616 Y-9.44722 Z-8.62102
X9.64742 Y-9.33275 Z-8.64577
X9.56616 Y-9.44722 Z-8.67053
X9.4596 Y-9.52746 Z-8.69405
X9.34026 Y-9.56917 Z-8.71634
X9.22086 Y-9.57228 Z-8.7374
X9.11292 Y-9.54058 Z-8.75724
X9.02572 Y-9.48106 Z-8.77585
X8.96549 Y-9.40292 Z-8.79325
X8.93497 Y-9.31635 Z-8.80943
X8.93341 Y-9.23142 Z-8.82441
X8.95695 Y-9.1569 Z-8.83819
X8.99932 Y-9.09941 Z-8.85078
X9.05276 Y-9.06283 Z-8.8622
X9.10905 Y-9.04805 Z-8.87246
X9.1606 Y-9.05311 Z-8.8816
X9.20128 Y-9.07367 Z-8.88963
X9.22718 Y-9.10373 Z-8.89663
X9.23692 Y-9.13654 Z-8.90267
X9.23173 Y-9.16556 Z-8.90786
X9.21514 Y-9.18537 Z-8.91242
X9.19239 Y-9.19239 Z-8.91662
X9.21514 Y-9.18537 Z-8.92082
X9.23173 Y-9.16556 Z-8.92537
X9.23692 Y-9.13654 Z-8.93057
X9.22718 Y-9.10373 Z-8.9366
X9.20128 Y-9.07367 Z-8.9436
X9.1606 Y-9.05311 Z-8.95164
X9.10905 Y-9.04805 Z-8.96077
X9.05276 Y-9.06283 Z-8.97103
X8.99932 Y-9.09941 Z-8.98245
X8.95695 Y-9.1569 Z-8.99505
X8.93341 Y-9.23142 Z-9.00883
X8.93497 Y-9.31635 Z-9.0238
X8.96549 Y-9.40292 Z-9.03999
X9.02572 Y-9.48106 Z-9.05739
X9.11292 Y-9.54058 Z-9.076
X9.22086 Y-9.57228 Z-9.09584
X9.34026 Y-9.56917 Z-9.1169
X9.4596 Y-9.52746 Z-9.13919
X9.56616 Y-9.44722 Z-9.16271
X9.64742 Y-9.33275 Z-9.18746
X9.56616 Y-9.44722 Z-9.21222
X9.4596 Y-9.52746 Z-9.23574
X9.34026 Y-9.56917 Z-9.25803
X9.22086 Y-9.57228 Z-9.27909
X9.11292 Y-9.54058 Z-9.29893
X9.02572 Y-9.48106 Z-9.31754
X8.96549 Y-9.40292 Z-9.33494
X8.93497 Y-9.31635 Z-9.35112
X8.93341 Y-9.23142 Z-9.3661
X8.95695 Y-9.1569 Z-9.37988
X8.99932 Y-9.09941 Z-9.39247
X9.05276 Y-9.06283 Z-9.40389
X9.10905 Y-9.04805 Z-9.41415
X9.1606 Y-9.05311 Z-9.42329
X9.20128 Y-9.07367 Z-9.43132
X9.22718 Y-9.10373 Z-9.43832
X9.23692 Y-9.13654 Z-9.44436
X9.23173 Y-9.16556 Z-9.44956
X9.21514 Y-9.18537 Z-9.45411
X9.19239 Y-9.19239 Z-9.45831
X9.21514 Y-9.18537 Z-9.46251
X9.23173 Y-9.16556 Z-9.46706
X9.23692 Y-9.13654 Z-9.47226
X9.22718 Y-9.10373 Z-9.4783
X9.20128 Y-9.07367 Z-9.48529
X9.1606 Y-9.05311 Z-9.49333
X9.10905 Y-9.04805 Z-9.50246
X9.05276 Y-9.06283 Z-9.51273
X8.99932 Y-9.09941 Z-9.52414
X8.95695 Y-9.1569 Z-9.53674
X8.93341 Y-9.23142 Z-9.55052
X8.93497 Y-9.31635 Z-9.56549
X8.96549 Y-9.40292 Z-9.58168
X9.02572 Y-9.48106 Z-9.59908
X9.11292 Y-9.54058 Z-9.61769
X9.22086 Y-9.57228 Z-9.63753
X9.34026 Y-9.56917 Z-9.65859
X9.4596 Y-9.52746 Z-9.68088
X9.56616 Y-9.44722 Z-9.7044
X9.64742 Y-9.33275 Z-9.72916
X9.56616 Y-9.44722 Z-9.75391
X9.4596 Y-9.52746 Z-9.77743
X9.34026 Y-9.56917 Z-9.79972
X9.22086 Y-9.57228 Z-9.82078
X9.11292 Y-9.54058 Z-9.84062
X9.02572 Y-9.48106 Z-9.85923
X8.96549 Y-9.40292 Z-9.87663
X8.93497 Y-9.31635 Z-9.89281
X8.93341 Y-9.23142 Z-9.90779
X8.95695 Y-9.1569 Z-9.92157
X8.99932 Y-9.09941 Z-9.93417
X9.05276 Y-9.06283 Z-9.94558
X9.10905 Y-9.04805 Z-9.95585
X9.1606 Y-9.05311 Z-9.96498
X9.20128 Y-9.07367 Z-9.97302
X9.22718 Y-9.10373 Z-9.98001
X9.23692 Y-9.13654 Z-9.98605
X9.23173 Y-9.16556 Z-9.99125
X9.21514 Y-9.18537 Z-9.9958
X9.19239 Y-9.19239 Z-10.
X9.21514 Y-9.18537 F480.
X9.23173 Y-9.16556
X9.23692 Y-9.13654
X9.22718 Y-9.10373
X9.20128 Y-9.07367
X9.1606 Y-9.05311
X9.10905 Y-9.04805
X9.05276 Y-9.06283
X8.99932 Y-9.09941
X8.95695 Y-9.1569
X8.93341 Y-9.23142
X8.93497 Y-9.31635
X8.96549 Y-9.40292
X9.02572 Y-9.48106
X9.11292 Y-9.54058
X9.22086 Y-9.57228
X9.34026 Y-9.56917
X9.4596 Y-9.52746
X9.56616 Y-9.44722
X9.64742 Y-9.33275
X9.69239 Y-9.19239
X9.69639 Y-9.16068
X9.69837 Y-9.12847
X9.69827 Y-9.09589
X9.69605 Y-9.06307
X9.69169 Y-9.03015
X9.68517 Y-8.99728
X9.67647 Y-8.9646
X9.66559 Y-8.93224
X9.65255 Y-8.90036
X9.63735 Y-8.86911
G0 Z1.
X8.76539 Y-8.84572
G1 Z-10. F120.
G03 X9.61938 Y-9.53905 I0.427 J-0.34667 F480.
X8.76539 Y-8.84572 I-0.42699 J0.34666
G1 Z-9.4 F720.
G0 Z1.
X-9.23169 Y-9.55238
G1 Z-1.4 F120.
Z-2. F360.
X-9.16392 Y-9.57228 Z-2.01245
X-9.04451 Y-9.56917 Z-2.03352
X-8.92518 Y-9.52746 Z-2.05581
X-8.81861 Y-9.44722 Z-2.07933
X-8.73735 Y-9.33275 Z-2.10408
X-8.81861 Y-9.44722 Z-2.12883
X-8.92518 Y-9.52746 Z-2.15236
X-9.04451 Y-9.56917 Z-2.17465
X-9.16392 Y-9.57228 Z-2.19571
X-9.27186 Y-9.54058 Z-2.21554
X-9.35906 Y-9.48106 Z-2.23416
X-9.41929 Y-9.40292 Z-2.25156
X-9.44981 Y-9.31636 Z-2.26774
X-9.45137 Y-9.23142 Z-2.28272
X-9.42782 Y-9.1569 Z-2.2965
X-9.38545 Y-9.09941 Z-2.30909
X-9.33202 Y-9.06283 Z-2.32051
X-9.27572 Y-9.04805 Z-2.33077
X-9.22418 Y-9.05311 Z-2.3399
X-9.18349 Y-9.07367 Z-2.34794
X-9.15759 Y-9.10373 Z-2.35494
X-9.14785 Y-9.13654 Z-2.36097
X-9.15304 Y-9.16556 Z-2.36617
X-9.16964 Y-9.18537 Z-2.37073
X-9.19239 Y-9.19239 Z-2.37493
X-9.16964 Y-9.18537 Z-2.37913
X-9.15304 Y-9.16556 Z-2.38368
X-9.14785 Y-9.13654 Z-2.38888
X-9.15759 Y-9.10373 Z-2.39491
X-9.18349 Y-9.07367 Z-2.40191
X-9.22418 Y-9.05311 Z-2.40995
X-9.27572 Y-9.04805 Z-2.41908
X-9.33202 Y-9.06283 Z-2.42934
X-9.38545 Y-9.09941 Z-2.44076
X-9.42782 Y-9.1569 Z-2.45335
X-9.45137 Y-9.23142 Z-2.46713
X-9.44981 Y-9.31636 Z-2.48211
X-9.41929 Y-9.40292 Z-2.4983
X-9.35906 Y-9.48106 Z-2.51569
X-9.27186 Y-9.54058 Z-2.53431
X-9.16392 Y-9.57228 Z-2.55415
X-9.04451 Y-9.56917 Z-2.57521
X-8.92518 Y-9.52746 Z-2.5975
X-8.81861 Y-9.44722 Z-2.62102
X-8.73735 Y-9.33275 Z-2.64577
X-8.81861 Y-9.44722 Z-2.67053
X-8.92518 Y-9.52746 Z-2.69405
X-9.04451 Y-9.56917 Z-2.71634
X-9.16392 Y-9.57228 Z-2.7374
X-9.27186 Y-9.54058 Z-2.75724
X-9.35906 Y-9.48106 Z-2.77585
X-9.41929 Y-9.40292 Z-2.79325
X-9.44981 Y-9.31636 Z-2.80943
X-9.45137 Y-9.23142 Z-2.82441
X-9.42782 Y-9.1569 Z-2.83819
X-9.38545 Y-9.09941 Z-2.85078
X-9.33202 Y-9.06283 Z-2.8622
X-9.27572 Y-9.04805 Z-2.87246
X-9.22418 Y-9.05311 Z-2.8816
X-9.18349 Y-9.07367 Z-2.88963
X-9.15759 Y-9.10373 Z-2.89663
X-9.14785 Y-9.13654 Z-2.90266
X-9.15304 Y-9.16556 Z-2.90786
X-9.16964 Y-9.18537 Z-2.91242
X-9.19239 Y-9.19239 Z-2.91662
X-9.16964 Y-9.18537 Z-2.92082
X-9.15304 Y-9.16556 Z-2.92537
X-9.14785 Y-9.13654 Z-2.93057
X-9.15759 Y-9.10373 Z-2.93661
X-9.18349 Y-9.07367 Z-2.9436
X-9.22418 Y-9.05311 Z-2.95164
X-9.27572 Y-9.04805 Z-2.96077
X-9.33202 Y-9.06283 Z-2.97103
X-9.38545 Y-9.09941 Z-2.98245
X-9.42782 Y-9.1569 Z-2.99505
X-9.45137 Y-9.23142 Z-3.00883
X-9.44981 Y-9.31636 Z-3.0238
X-9.41929 Y-9.40292 Z-3.03999
X-9.35906 Y-9.48106 Z-3.05739
X-9.27186 Y-9.54058 Z-3.076
X-9.16392 Y-9.57228 Z-3.09584
X-9.04451 Y-9.56917 Z-3.1169
X-8.92518 Y-9.52746 Z-3.13919
X-8.81861 Y-9.44722 Z-3.16271
X-8.73735 Y-9.33275 Z-3.18746
X-8.81861 Y-9.44722 Z-3.21222
X-8.92518 Y-9.52746 Z-3.23574
X-9.04451 Y-9.56917 Z-3.25803
X-9.16392 Y-9.57228 Z-3.27909
X-9.27186 Y-9.54058 Z-3.29893
X-9.35906 Y-9.48106 Z-3.31754
X-9.41929 Y-9.40292 Z-3.33494
X-9.44981 Y-9.31636 Z-3.35112
X-9.45137 Y-9.23142 Z-3.3661
X-9.42782 Y-9.1569 Z-3.37988
X-9.38545 Y-9.09941 Z-3.39247
X-9.33202 Y-9.06283 Z-3.40389
X-9.27572 Y-9.04805 Z-3.41416
X-9.22418 Y-9.05311 Z-3.42329
X-9.18349 Y-9.07367 Z-3.43133
X-9.15759 Y-9.10373 Z-3.43832
X-9.14785 Y-9.13654 Z-3.44436
X-9.15304 Y-9.16556 Z-3.44956
X-9.16964 Y-9.18537 Z-3.45411
X-9.19239 Y-9.19239 Z-3.45831
X-9.16964 Y-9.18537 Z-3.46251
X-9.15304 Y-9.16556 Z-3.46706
X-9.14785 Y-9.13654 Z-3.47226
X-9.15759 Y-9.10373 Z-3.4783
X-9.18349 Y-9.07367 Z-3.48529
X-9.22418 Y-9.05311 Z-3.49333
X-9.27572 Y-9.04805 Z-3.50246
X-9.33202 Y-9.06283 Z-3.51273
X-9.38545 Y-9.09941 Z-3.52414
X-9.42782 Y-9.1569 Z-3.53674
X-9.45137 Y-9.23142 Z-3.55052
X-9.44981 Y-9.31636 Z-3.5655
X-9.41929 Y-9.40292 Z-3.58168
X-9.35906 Y-9.48106 Z-3.59908
X-9.27186 Y-9.54058 Z-3.61769
X-9.16392 Y-9.57228 Z-3.63753
X-9.04451 Y-9.56917 Z-3.65859
X-8.92518 Y-9.52746 Z-3.68088
X-8.81861 Y-9.44722 Z-3.7044
X-8.73735 Y-9.33275 Z-3.72916
X-8.81861 Y-9.44722 Z-3.75391
X-8.92518 Y-9.52746 Z-3.77743
X-9.04451 Y-9.56917 Z-3.79972
X-9.16392 Y-9.57228 Z-3.82078
X-9.27186 Y-9.54058 Z-3.84062
X-9.35906 Y-9.48106 Z-3.85923
X-9.41929 Y-9.40292 Z-3.87663
X-9.44981 Y-9.31636 Z-3.89281
X-9.45137 Y-9.23142 Z-3.90779
X-9.42782 Y-9.1569 Z-3.92157
X-9.38545 Y-9.09941 Z-3.93417
X-9.33202 Y-9.06283 Z-3.94558
X-9.27572 Y-9.04805 Z-3.95585
X-9.22418 Y-9.05311 Z-3.96498
X-9.18349 Y-9.07367 Z-3.97302
X-9.15759 Y-9.10373 Z-3.98001
X-9.14785 Y-9.13654 Z-3.98605
X-9.15304 Y-9.16556 Z-3.99125
X-9.16964 Y-9.18537 Z-3.9958
X-9.19239 Y-9.19239 Z-4.
X-9.16964 Y-9.18537 F480.
X-9.15304 Y-9.16556
X-9.14785 Y-9.13654
X-9.15759 Y-9.10373
X-9.18349 Y-9.07367
X-9.22418 Y-9.05311
X-9.27572 Y-9.04805
X-9.33202 Y-9.06283
X-9.38545 Y-9.09941
X-9.42782 Y-9.1569
X-9.45137 Y-9.23142
X-9.44981 Y-9.31636
X-9.41929 Y-9.40292
X-9.35906 Y-9.48106
X-9.27186 Y-9.54058
X-9.16392 Y-9.57228
X-9.04451 Y-9.56917
X-8.92518 Y-9.52746
X-8.81861 Y-9.44722
X-8.73735 Y-9.33275
X-8.69239 Y-9.19239
X-8.68839 Y-9.16068
X-8.68641 Y-9.12847
X-8.68651 Y-9.09589
X-8.68872 Y-9.06307
X-8.69308 Y-9.03016
X-8.69961 Y-8.99728
X-8.70831 Y-8.9646
X-8.71918 Y-8.93224
X-8.73223 Y-8.90036
X-8.74743 Y-8.86911
G0 Z1.
X-9.74184 Y-9.21691
G1 Z-4. F120.
G03 X-8.64293 Y-9.16787 I0.54945 J0.02452 F480.
X-9.74184 Y-9.21691 I-0.54946 J-0.02452
G1 Z-3.4 F720.
G0 Z1.
X-9.23169 Y-9.55238
G1 Z-3.4 F120.
Z-4. F360.
X-9.16392 Y-9.57228 Z-4.01245
X-9.04451 Y-9.56917 Z-4.03352
X-8.92518 Y-9.52746 Z-4.05581
X-8.81861 Y-9.44722 Z-4.07933
X-8.73735 Y-9.33275 Z-4.10408
X-8.81861 Y-9.44722 Z-4.12883
X-8.92518 Y-9.52746 Z-4.15235
X-9.04451 Y-9.56917 Z-4.17465
X-9.16392 Y-9.57228 Z-4.19571
X-9.27186 Y-9.54058 Z-4.21554
X-9.35906 Y-9.48106 Z-4.23416
X-9.41929 Y-9.40292 Z-4.25155
X-9.44981 Y-9.31636 Z-4.26774
X-9.45137 Y-9.23142 Z-4.28272
X-9.42782 Y-9.1569 Z-4.2965
X-9.38545 Y-9.09941 Z-4.30909
X-9.33202 Y-9.06283 Z-4.32051
X-9.27572 Y-9.04805 Z-4.33077
X-9.22418 Y-9.05311 Z-4.3399
X-9.18349 Y-9.07367 Z-4.34794
X-9.15759 Y-9.10373 Z-4.35494
X-9.14785 Y-9.13654 Z-4.36097
X-9.15304 Y-9.16556 Z-4.36617
X-9.16964 Y-9.18537 Z-4.37073
X-9.19239 Y-9.19239 Z-4.37493
X-9.16964 Y-9.18537 Z-4.37913
X-9.15304 Y-9.16556 Z-4.38368
X-9.14785 Y-9.13654 Z-4.38888
X-9.15759 Y-9.10373 Z-4.39491
X-9.18349 Y-9.07367 Z-4.40191
X-9.22418 Y-9.05311 Z-4.40995
X-9.27572 Y-9.04805 Z-4.41908
X-9.33202 Y-9.06283 Z-4.42934
X-9.38545 Y-9.09941 Z-4.44076
X-9.42782 Y-9.1569 Z-4.45335
X-9.45137 Y-9.23142 Z-4.46713
X-9.44981 Y-9.31636 Z-4.48211
X-9.41929 Y-9.40292 Z-4.4983
X-9.35906 Y-9.48106 Z-4.51569
X-9.27186 Y-9.54058 Z-4.53431
X-9.16392 Y-9.57228 Z-4.55415
X-9.04451 Y-9.56917 Z-4.57521
X-8.92518 Y-9.52746 Z-4.5975
X-8.81861 Y-9.44722 Z-4.62102
X-8.73735 Y-9.33275 Z-4.64577
X-8.81861 Y-9.44722 Z-4.67053
X-8.92518 Y-9.52746 Z-4.69405
X-9.04451 Y-9.56917 Z-4.71634
X-9.16392 Y-9.57228 Z-4.7374
X-9.27186 Y-9.54058 Z-4.75724
X-9.35906 Y-9.48106 Z-4.77585
X-9.41929 Y-9.40292 Z-4.79325
X-9.44981 Y-9.31636 Z-4.80943
X-9.45137 Y-9.23142 Z-4.82441
X-9.42782 Y-9.1569 Z-4.83819
X-9.38545 Y-9.09941 Z-4.85078
X-9.33202 Y-9.06283 Z-4.8622
X-9.27572 Y-9.04805 Z-4.87246
X-9.22418 Y-9.05311 Z-4.8816
X-9.18349 Y-9.07367 Z-4.88963
X-9.15759 Y-9.10373 Z-4.89663
X-9.14785 Y-9.13654 Z-4.90266
X-9.15304 Y-9.16556 Z-4.90786
X-9.16964 Y-9.18537 Z-4.91242
X-9.19239 Y-9.19239 Z-4.91662
X-9.16964 Y-9.18537 Z-4.92082
X-9.15304 Y-9.16556 Z-4.92537
X-9.14785 Y-9.13654 Z-4.93057
X-9.15759 Y-9.10373 Z-4.93661
X-9.18349 Y-9.07367 Z-4.9436
X-9.22418 Y-9.05311 Z-4.95164
X-9.27572 Y-9.04805 Z-4.96077
X-9.33202 Y-9.06283 Z-4.97103
X-9.38545 Y-9.09941 Z-4.98245
X-9.42782 Y-9.1569 Z-4.99505
X-9.45137 Y-9.23142 Z-5.00883
X-9.44981 Y-9.31636 Z-5.0238
X-9.41929 Y-9.40292 Z-5.03999
X-9.35906 Y-9.48106 Z-5.05739
X-9.27186 Y-9.54058 Z-5.076
X-9.16392 Y-9.57228 Z-5.09584
X-9.04451 Y-9.56917 Z-5.1169
X-8.92518 Y-9.52746 Z-5.13919
X-8.81861 Y-9.44722 Z-5.16271
X-8.73735 Y-9.33275 Z-5.18746
X-8.81861 Y-9.44722 Z-5.21222
X-8.92518 Y-9.52746 Z-5.23574
X-9.04451 Y-9.56917 Z-5.25803
X-9.16392 Y-9.57228 Z-5.27909
X-9.27186 Y-9.54058 Z-5.29893
X-9.35906 Y-9.48106 Z-5.31754
X-9.41929 Y-9.40292 Z-5.33494
X-9.44981 Y-9.31636 Z-5.35112
X-9.45137 Y-9.23142 Z-5.3661
X-9.42782 Y-9.1569 Z-5.37988
X-9.38545 Y-9.09941 Z-5.39247
X-9.33202 Y-9.06283 Z-5.40389
X-9.27572 Y-9.04805 Z-5.41416
X-9.22418 Y-9.05311 Z-5.42329
X-9.18349 Y-9.07367 Z-5.43133
X-9.15759 Y-9.10373 Z-5.43832
X-9.14785 Y-9.13654 Z-5.44436
X-9.15304 Y-9.16556 Z-5.44956
X-9.16964 Y-9.18537 Z-5.45411
X-9.19239 Y-9.19239 Z-5.45831
X-9.16964 Y-9.18537 Z-5.46251
X-9.15304 Y-9.16556 Z-5.46706
X-9.14785 Y-9.13654 Z-5.47226
X-9.15759 Y-9.10373 Z-5.4783
X-9.18349 Y-9.07367 Z-5.48529
X-9.22418 Y-9.05311 Z-5.49333
X-9.27572 Y-9.04805 Z-5.50246
X-9.33202 Y-9.06283 Z-5.51273
X-9.38545 Y-9.09941 Z-5.52414
X-9.42782 Y-9.1569 Z-5.53674
X-9.45137 Y-9.23142 Z-5.55052
X-9.44981 Y-9.31636 Z-5.5655
X-9.41929 Y-9.40292 Z-5.58168
X-9.35906 Y-9.48106 Z-5.59908
X-9.27186 Y-9.54058 Z-5.61769
X-9.16392 Y-9.57228 Z-5.63753
X-9.04451 Y-9.56917 Z-5.65859
X-8.92518 Y-9.52746 Z-5.68088
X-8.81861 Y-9.44722 Z-5.7044
X-8.73735 Y-9.33275 Z-5.72916
X-8.81861 Y-9.44722 Z-5.75391
X-8.92518 Y-9.52746 Z-5.77743
X-9.04451 Y-9.56917 Z-5.79972
X-9.16392 Y-9.57228 Z-5.82078
X-9.27186 Y-9.54058 Z-5.84062
X-9.35906 Y-9.48106 Z-5.85923
X-9.41929 Y-9.40292 Z-5.87663
X-9.44981 Y-9.31636 Z-5.89281
X-9.45137 Y-9.23142 Z-5.90779
X-9.42782 Y-9.1569 Z-5.92157
X-9.38545 Y-9.09941 Z-5.93417
X-9.33202 Y-9.06283 Z-5.94558
X-9.27572 Y-9.04805 Z-5.95585
X-9.22418 Y-9.05311 Z-5.96498
X-9.18349 Y-9.07367 Z-5.97302
X-9.15759 Y-9.10373 Z-5.98001
X-9.14785 Y-9.13654 Z-5.98605
X-9.15304 Y-9.16556 Z-5.99125
X-9.16964 Y-9.18537 Z-5.9958
X-9.19239 Y-9.19239 Z-6.
X-9.16964 Y-9.18537 F480.
X-9.15304 Y-9.16556
X-9.14785 Y-9.13654
X-9.15759 Y-9.10373
X-9.18349 Y-9.07367
X-9.22418 Y-9.05311
X-9.27572 Y-9.04805
X-9.33202 Y-9.06283
X-9.38545 Y-9.09941
X-9.42782 Y-9.1569
X-9.45137 Y-9.23142
X-9.44981 Y-9.31636
X-9.41929 Y-9.40292
X-9.35906 Y-9.48106
X-9.27186 Y-9.54058
X-9.16392 Y-9.57228
X-9.04451 Y-9.56917
X-8.92518 Y-9.52746
X-8.81861 Y-9.44722
X-8.73735 Y-9.33275
X-8.69239 Y-9.19239
X-8.68839 Y-9.16068
X-8.68641 Y-9.12847
X-8.68651 Y-9.09589
X-8.68872 Y-9.06307
X-8.69308 Y-9.03016
X-8.69961 Y-8.99728
X-8.70831 Y-8.9646
X-8.71918 Y-8.93224
X-8.73223 Y-8.90036
X-8.74743 Y-8.86911
G0 Z1.
X-9.74184 Y-9.21691
G1 Z-6. F120.
G03 X-8.64293 Y-9.16787 I0.54945 J0.02452 F480.
X-9.74184 Y-9.21691 I-0.54946 J-0.02452
G1 Z-5.4 F720.
G0 Z1.
X-9.23169 Y-9.55238
G1 Z-5.4 F120.
Z-6. F360.
X-9.16392 Y-9.57228 Z-6.01245
X-9.04451 Y-9.56917 Z-6.03352
X-8.92518 Y-9.52746 Z-6.05581
X-8.81861 Y-9.44722 Z-6.07933
X-8.73735 Y-9.33275 Z-6.10408
X-8.81861 Y-9.44722 Z-6.12883
X-8.92518 Y-9.52746 Z-6.15236
X-9.04451 Y-9.56917 Z-6.17465
X-9.16392 Y-9.57228 Z-6.19571
X-9.27186 Y-9.54058 Z-6.21554
X-9.35906 Y-9.48106 Z-6.23416
X-9.41929 Y-9.40292 Z-6.25156
X-9.44981 Y-9.31636 Z-6.26774
X-9.45137 Y-9.23142 Z-6.28272
X-9.42782 Y-9.1569 Z-6.2965
X-9.38545 Y-9.09941 Z-6.30909
X-9.33202 Y-9.06283 Z-6.32051
X-9.27572 Y-9.04805 Z-6.33077
X-9.22418 Y-9.05311 Z-6.33991
X-9.18349 Y-9.07367 Z-6.34794
X-9.15759 Y-9.10373 Z-6.35494
X-9.14785 Y-9.13654 Z-6.36097
X-9.15304 Y-9.16556 Z-6.36617
X-9.16964 Y-9.18537 Z-6.37073
X-9.19239 Y-9.19239 Z-6.37493
X-9.16964 Y-9.18537 Z-6.37913
X-9.15304 Y-9.16556 Z-6.38368
X-9.14785 Y-9.13654 Z-6.38888
X-9.15759 Y-9.10373 Z-6.39491
X-9.18349 Y-9.07367 Z-6.40191
X-9.22418 Y-9.05311 Z-6.40995
X-9.27572 Y-9.04805 Z-6.41908
X-9.33202 Y-9.06283 Z-6.42934
X-9.38545 Y-9.09941 Z-6.44076
X-9.42782 Y-9.1569 Z-6.45335
X-9.45137 Y-9.23142 Z-6.46714
X-9.44981 Y-9.31636 Z-6.48211
X-9.41929 Y-9.40292 Z-6.4983
X-9.35906 Y-9.48106 Z-6.51569
X-9.27186 Y-9.54058 Z-6.53431
X-9.16392 Y-9.57228 Z-6.55415
X-9.04451 Y-9.56917 Z-6.57521
X-8.92518 Y-9.52746 Z-6.5975
X-8.81861 Y-9.44722 Z-6.62102
X-8.73735 Y-9.33275 Z-6.64577
X-8.81861 Y-9.44722 Z-6.67053
X-8.92518 Y-9.52746 Z-6.69405
X-9.04451 Y-9.56917 Z-6.71634
X-9.16392 Y-9.57228 Z-6.7374
X-9.27186 Y-9.54058 Z-6.75724
X-9.35906 Y-9.48106 Z-6.77585
X-9.41929 Y-9.40292 Z-6.79325
X-9.44981 Y-9.31636 Z-6.80943
X-9.45137 Y-9.23142 Z-6.82441
X-9.42782 Y-9.1569 Z-6.83819
X-9.38545 Y-9.09941 Z-6.85078
X-9.33202 Y-9.06283 Z-6.8622
X-9.27572 Y-9.04805 Z-6.87246
X-9.22418 Y-9.05311 Z-6.8816
X-9.18349 Y-9.07367 Z-6.88963
X-9.15759 Y-9.10373 Z-6.89663
X-9.14785 Y-9.13654 Z-6.90267
X-9.15304 Y-9.16556 Z-6.90786
X-9.16964 Y-9.18537 Z-6.91242
X-9.19239 Y-9.19239 Z-6.91662
X-9.16964 Y-9.18537 Z-6.92082
X-9.15304 Y-9.16556 Z-6.92537
X-9.14785 Y-9.13654 Z-6.93057
X-9.15759 Y-9.10373 Z-6.9366
X-9.18349 Y-9.07367 Z-6.9436
X-9.22418 Y-9.05311 Z-6.95164
X-9.27572 Y-9.04805 Z-6.96077
X-9.33202 Y-9.06283 Z-6.97103
X-9.38545 Y-9.09941 Z-6.98245
X-9.42782 Y-9.1569 Z-6.99505
X-9.45137 Y-9.23142 Z-7.00883
X-9.44981 Y-9.31636 Z-7.0238
X-9.41929 Y-9.40292 Z-7.03999
X-9.35906 Y-9.48106 Z-7.05739
X-9.27186 Y-9.54058 Z-7.076
X-9.16392 Y-9.57228 Z-7.09584
X-9.04451 Y-9.56917 Z-7.1169
X-8.92518 Y-9.52746 Z-7.13919
X-8.81861 Y-9.44722 Z-7.16271
X-8.73735 Y-9.33275 Z-7.18746
X-8.81861 Y-9.44722 Z-7.21222
X-8.92518 Y-9.52746 Z-7.23574
X-9.04451 Y-9.56917 Z-7.25803
X-9.16392 Y-9.57228 Z-7.27909
X-9.27186 Y-9.54058 Z-7.29893
X-9.35906 Y-9.48106 Z-7.31754
X-9.41929 Y-9.40292 Z-7.33494
X-9.44981 Y-9.31636 Z-7.35112
X-9.45137 Y-9.23142 Z-7.3661
X-9.42782 Y-9.1569 Z-7.37988
X-9.38545 Y-9.09941 Z-7.39247
X-9.33202 Y-9.06283 Z-7.40389
X-9.27572 Y-9.04805 Z-7.41416
X-9.22418 Y-9.05311 Z-7.42329
X-9.18349 Y-9.07367 Z-7.43132
X-9.15759 Y-9.10373 Z-7.43832
X-9.14785 Y-9.13654 Z-7.44436
X-9.15304 Y-9.16556 Z-7.44956
X-9.16964 Y-9.18537 Z-7.45411
X-9.19239 Y-9.19239 Z-7.45831
X-9.16964 Y-9.18537 Z-7.46251
X-9.15304 Y-9.16556 Z-7.46706
X-9.14785 Y-9.13654 Z-7.47226
X-9.15759 Y-9.10373 Z-7.4783
X-9.18349 Y-9.07367 Z-7.48529
X-9.22418 Y-9.05311 Z-7.49333
X-9.27572 Y-9.04805 Z-7.50246
X-9.33202 Y-9.06283 Z-7.51273
X-9.38545 Y-9.09941 Z-7.52414
X-9.42782 Y-9.1569 Z-7.53674
X-9.45137 Y-9.23142 Z-7.55052
X-9.44981 Y-9.31636 Z-7.5655
X-9.41929 Y-9.40292 Z-7.58168
X-9.35906 Y-9.48106 Z-7.59908
X-9.27186 Y-9.54058 Z-7.61769
X-9.16392 Y-9.57228 Z-7.63753
X-9.04451 Y-9.56917 Z-7.65859
X-8.92518 Y-9.52746 Z-7.68088
X-8.81861 Y-9.44722 Z-7.7044
X-8.73735 Y-9.33275 Z-7.72916
X-8.81861 Y-9.44722 Z-7.75391
X-8.92518 Y-9.52746 Z-7.77743
X-9.04451 Y-9.56917 Z-7.79972
X-9.16392 Y-9.57228 Z-7.82078
X-9.27186 Y-9.54058 Z-7.84062
X-9.35906 Y-9.48106 Z-7.85923
X-9.41929 Y-9.40292 Z-7.87663
X-9.44981 Y-9.31636 Z-7.89281
X-9.45137 Y-9.23142 Z-7.90779
X-9.42782 Y-9.1569 Z-7.92157
X-9.38545 Y-9.09941 Z-7.93417
X-9.33202 Y-9.06283 Z-7.94558
X-9.27572 Y-9.04805 Z-7.95585
X-9.22418 Y-9.05311 Z-7.96498
X-9.18349 Y-9.07367 Z-7.97302
X-9.15759 Y-9.10373 Z-7.98001
X-9.14785 Y-9.13654 Z-7.98605
X-9.15304 Y-9.16556 Z-7.99125
X-9.16964 Y-9.18537 Z-7.9958
X-9.19239 Y-9.19239 Z-8.
X-9.16964 Y-9.18537 F480.
X-9.15304 Y-9.16556
X-9.14785 Y-9.13654
X-9.15759 Y-9.10373
X-9.18349 Y-9.07367
X-9.22418 Y-9.05311
X-9.27572 Y-9.04805
X-9.33202 Y-9.06283
X-9.38545 Y-9.09941
X-9.42782 Y-9.1569
X-9.45137 Y-9.23142
X-9.44981 Y-9.31636
X-9.41929 Y-9.40292
X-9.35906 Y-9.48106
X-9.27186 Y-9.54058
X-9.16392 Y-9.57228
X-9.04451 Y-9.56917
X-8.92518 Y-9.52746
X-8.81861 Y-9.44722
X-8.73735 Y-9.33275
X-8.69239 Y-9.19239
X-8.68839 Y-9.16068
X-8.68641 Y-9.12847
X-8.68651 Y-9.09589
X-8.68872 Y-9.06307
X-8.69308 Y-9.03016
X-8.69961 Y-8.99728
X-8.70831 Y-8.9646
X-8.71918 Y-8.93224
X-8.73223 Y-8.90036
X-8.74743 Y-8.86911
G0 Z1.
X-9.74184 Y-9.21691
G1 Z-8. F120.
G03 X-8.64293 Y-9.16787 I0.54945 J0.02452 F480.
X-9.74184 Y-9.21691 I-0.54946 J-0.02452
G1 Z-7.4 F720.
G0 Z1.
X-9.23169 Y-9.55238
G1 Z-7.4 F120.
Z-8. F360.
X-9.16392 Y-9.57228 Z-8.01245
X-9.04451 Y-9.56917 Z-8.03352
X-8.92518 Y-9.52746 Z-8.05581
X-8.81861 Y-9.44722 Z-8.07933
X-8.73735 Y-9.33275 Z-8.10408
X-8.81861 Y-9.44722 Z-8.12883
X-8.92518 Y-9.52746 Z-8.15235
X-9.04451 Y-9.56917 Z-8.17465
X-9.16392 Y-9.57228 Z-8.19571
X-9.27186 Y-9.54058 Z-8.21554
X-9.35906 Y-9.48106 Z-8.23416
X-9.41929 Y-9.40292 Z-8.25155
X-9.44981 Y-9.31636 Z-8.26774
X-9.45137 Y-9.23142 Z-8.28272
X-9.42782 Y-9.1569 Z-8.2965
X-9.38545 Y-9.09941 Z-8.30909
X-9.33202 Y-9.06283 Z-8.32051
X-9.27572 Y-9.04805 Z-8.33077
X-9.22418 Y-9.05311 Z-8.33991
X-9.18349 Y-9.07367 Z-8.34794
X-9.15759 Y-9.10373 Z-8.35494
X-9.14785 Y-9.13654 Z-8.36097
X-9.15304 Y-9.16556 Z-8.36617
X-9.16964 Y-9.18537 Z-8.37073
X-9.19239 Y-9.19239 Z-8.37493
X-9.16964 Y-9.18537 Z-8.37913
X-9.15304 Y-9.16556 Z-8.38368
X-9.14785 Y-9.13654 Z-8.38888
X-9.15759 Y-9.10373 Z-8.39491
X-9.18349 Y-9.07367 Z-8.40191
X-9.22418 Y-9.05311 Z-8.40995
X-9.27572 Y-9.04805 Z-8.41908
X-9.33202 Y-9.06283 Z-8.42934
X-9.38545 Y-9.09941 Z-8.44076
X-9.42782 Y-9.1569 Z-8.45335
X-9.45137 Y-9.23142 Z-8.46714
X-9.44981 Y-9.31636 Z-8.48211
X-9.41929 Y-9.40292 Z-8.4983
X-9.35906 Y-9.48106 Z-8.51569
X-9.27186 Y-9.54058 Z-8.53431
X-9.16392 Y-9.57228 Z-8.55415
X-9.04451 Y-9.56917 Z-8.57521
X-8.92518 Y-9.52746 Z-8.5975
X-8.81861 Y-9.44722 Z-8.62102
X-8.73735 Y-9.33275 Z-8.64577
X-8.81861 Y-9.44722 Z-8.67053
X-8.92518 Y-9.52746 Z-8.69405
X-9.04451 Y-9.56917 Z-8.71634
X-9.16392 Y-9.57228 Z-8.7374
X-9.27186 Y-9.54058 Z-8.75724
X-9.35906 Y-9.48106 Z-8.77585
X-9.41929 Y-9.40292 Z-8.79325
X-9.44981 Y-9.31636 Z-8.80943
X-9.45137 Y-9.23142 Z-8.82441
X-9.42782 Y-9.1569 Z-8.83819
X-9.38545 Y-9.09941 Z-8.85078
X-9.33202 Y-9.06283 Z-8.8622
X-9.27572 Y-9.04805 Z-8.87246
X-9.22418 Y-9.05311 Z-8.8816
X-9.18349 Y-9.07367 Z-8.88963
X-9.15759 Y-9.10373 Z-8.89663
X-9.14785 Y-9.13654 Z-8.90267
X-9.15304 Y-9.16556 Z-8.90786
X-9.16964 Y-9.18537 Z-8.91242
X-9.19239 Y-9.19239 Z-8.91662
X-9.16964 Y-9.18537 Z-8.92082
X-9.15304 Y-9.16556 Z-8.92537
X-9.14785 Y-9.13654 Z-8.93057
X-9.15759 Y-9.10373 Z-8.9366
X-9.18349 Y-9.07367 Z-8.9436
X-9.22418 Y-9.05311 Z-8.95164
X-9.27572 Y-9.04805 Z-8.96077
X-9.33202 Y-9.06283 Z-8.97103
X-9.38545 Y-9.09941 Z-8.98245
X-9.42782 Y-9.1569 Z-8.99505
X-9.45137 Y-9.23142 Z-9.00883
X-9.44981 Y-9.31636 Z-9.0238
X-9.41929 Y-9.40292 Z-9.03999
X-9.35906 Y-9.48106 Z-9.05739
X-9.27186 Y-9.54058 Z-9.076
X-9.16392 Y-9.57228 Z-9.09584
X-9.04451 Y-9.56917 Z-9.1169
X-8.92518 Y-9.52746 Z-9.13919
X-8.81861 Y-9.44722 Z-9.16271
X-8.73735 Y-9.33275 Z-9.18746
X-8.81861 Y-9.44722 Z-9.21222
X-8.92518 Y-9.52746 Z-9.23574
X-9.04451 Y-9.56917 Z-9.25803
X-9.16392 Y-9.57228 Z-9.27909
X-9.27186 Y-9.54058 Z-9.29893
X-9.35906 Y-9.48106 Z-9.31754
X-9.41929 Y-9.40292 Z-9.33494
X-9.44981 Y-9.31636 Z-9.35112
X-9.45137 Y-9.23142 Z-9.3661
X-9.42782 Y-9.1569 Z-9.37988
X-9.38545 Y-9.09941 Z-9.39247
X-9.33202 Y-9.06283 Z-9.40389
X-9.27572 Y-9.04805 Z-9.41415
X-9.22418 Y-9.05311 Z-9.42329
X-9.18349 Y-9.07367 Z-9.43132
X-9.15759 Y-9.10373 Z-9.43832
X-9.14785 Y-9.13654 Z-9.44436
X-9.15304 Y-9.16556 Z-9.44956
X-9.16964 Y-9.18537 Z-9.45411
X-9.19239 Y-9.19239 Z-9.45831
X-9.16964 Y-9.18537 Z-9.46251
X-9.15304 Y-9.16556 Z-9.46706
X-9.14785 Y-9.13654 Z-9.47226
X-9.15759 Y-9.10373 Z-9.4783
X-9.18349 Y-9.07367 Z-9.48529
X-9.22418 Y-9.05311 Z-9.49333
X-9.27572 Y-9.04805 Z-9.50246
X-9.33202 Y-9.06283 Z-9.51273
X-9.38545 Y-9.09941 Z-9.52414
X-9.42782 Y-9.1569 Z-9.53674
X-9.45137 Y-9.23142 Z-9.55052
X-9.44981 Y-9.31636 Z-9.56549
X-9.41929 Y-9.40292 Z-9.58168
X-9.35906 Y-9.48106 Z-9.59908
X-9.27186 Y-9.54058 Z-9.61769
X-9.16392 Y-9.57228 Z-9.63753
X-9.04451 Y-9.56917 Z-9.65859
X-8.92518 Y-9.52746 Z-9.68088
X-8.81861 Y-9.44722 Z-9.7044
X-8.73735 Y-9.33275 Z-9.72916
X-8.81861 Y-9.44722 Z-9.75391
X-8.92518 Y-9.52746 Z-9.77743
X-9.04451 Y-9.56917 Z-9.79972
X-9.16392 Y-9.57228 Z-9.82078
X-9.27186 Y-9.54058 Z-9.84062
X-9.35906 Y-9.48106 Z-9.85923
X-9.41929 Y-9.40292 Z-9.87663
X-9.44981 Y-9.31636 Z-9.89281
X-9.45137 Y-9.23142 Z-9.90779
X-9.42782 Y-9.1569 Z-9.92157
X-9.38545 Y-9.09941 Z-9.93417
X-9.33202 Y-9.06283 Z-9.94558
X-9.27572 Y-9.04805 Z-9.95585
X-9.22418 Y-9.05311 Z-9.96498
X-9.18349 Y-9.07367 Z-9.97302
X-9.15759 Y-9.10373 Z-9.98001
X-9.14785 Y-9.13654 Z-9.98605
X-9.15304 Y-9.16556 Z-9.99125
X-9.16964 Y-9.18537 Z-9.9958
X-9.19239 Y-9.19239 Z-10.
X-9.16964 Y-9.18537 F480.
X-9.15304 Y-9.16556
X-9.14785 Y-9.13654
X-9.15759 Y-9.10373
X-9.18349 Y-9.07367
X-9.22418 Y-9.05311
X-9.27572 Y-9.04805
X-9.33202 Y-9.06283
X-9.38545 Y-9.09941
X-9.42782 Y-9.1569
X-9.45137 Y-9.23142
X-9.44981 Y-9.31636
X-9.41929 Y-9.40292
X-9.35906 Y-9.48106
X-9.27186 Y-9.54058
X-9.16392 Y-9.57228
X-9.04451 Y-9.56917
X-8.92518 Y-9.52746
X-8.81861 Y-9.44722
X-8.73735 Y-9.33275
X-8.69239 Y-9.19239
X-8.68839 Y-9.16068
X-8.68641 Y-9.12847
X-8.68651 Y-9.09589
X-8.68872 Y-9.06307
X-8.69308 Y-9.03016
X-8.69961 Y-8.99728
X-8.70831 Y-8.9646
X-8.71918 Y-8.93224
X-8.73223 Y-8.90036
X-8.74743 Y-8.86911
G0 Z1.
X-9.74184 Y-9.21691
G1 Z-10. F120.
G03 X-8.64293 Y-9.16787 I0.54945 J0.02452 F480.
X-9.74184 Y-9.21691 I-0.54946 J-0.02452
G1 Z-9.4 F720.
G0 Z1.
M30
%
