%
G17 G21 G40 G90 G64 P0.1
(2 1/2 Axis Profiling)
(SlotDrill 1/8in 3.175mm Carbide Aluminium Cut)
T6 M06
S18246 M3
G0 Z1.5875
X8.46355 Y-3.62822
G1 Z0.27 F442.2
X8.53938 Y-3.45676 Z0.23694 F1326.7
X8.74143 Y-2.9082 Z0.13386
X8.90828 Y-2.34793 Z0.03078
X9.03926 Y-1.7782 Z-0.07229
X9.13384 Y-1.20132 Z-0.17537
X9.19164 Y-0.61959 Z-0.27845
X9.21243 Y-0.03538 Z-0.38153
X9.19613 Y0.54898 Z-0.48461
X9.14279 Y1.13113 Z-0.58769
X9.05265 Y1.70873 Z-0.69077
X8.92605 Y2.27944 Z-0.79384
X8.7635 Y2.84098 Z-0.89692
X8.56567 Y3.39107 Z-1.
G17
G03 X-8.56568 Y-3.39107 I-8.56567 J-3.39107 F1769.
X8.56567 Y3.39107 I8.56568 J3.39107
G0 Z1.5875
X8.46355 Y-3.62822
G1 Z-0.73 F442.2
X8.53938 Y-3.45676 Z-0.76306 F1326.7
X8.74143 Y-2.9082 Z-0.86614
X8.90828 Y-2.34793 Z-0.96922
X9.03926 Y-1.7782 Z-1.07229
X9.13384 Y-1.20132 Z-1.17537
X9.19164 Y-0.61959 Z-1.27845
X9.21243 Y-0.03538 Z-1.38153
X9.19613 Y0.54898 Z-1.48461
X9.14279 Y1.13113 Z-1.58769
X9.05265 Y1.70873 Z-1.69077
X8.92605 Y2.27944 Z-1.79384
X8.7635 Y2.84098 Z-1.89692
X8.56567 Y3.39107 Z-2.
G03 X-8.56568 Y-3.39107 I-8.56567 J-3.39107 F1769.
X8.56567 Y3.39107 I8.56568 J3.39107
G0 Z1.5875
X8.46355 Y-3.62822
G1 Z-1.73 F442.2
X8.53938 Y-3.45676 Z-1.76306 F1326.7
X8.74143 Y-2.9082 Z-1.86614
X8.90828 Y-2.34793 Z-1.96921
X9.03926 Y-1.7782 Z-2.07229
X9.13384 Y-1.20132 Z-2.17537
X9.19164 Y-0.61959 Z-2.27845
X9.21243 Y-0.03538 Z-2.38153
X9.19613 Y0.54898 Z-2.48461
X9.14279 Y1.13113 Z-2.58769
X9.05265 Y1.70873 Z-2.69076
X8.92605 Y2.27944 Z-2.79384
X8.7635 Y2.84098 Z-2.89692
X8.56567 Y3.39107 Z-3.
G03 X-8.56568 Y-3.39107 I-8.56567 J-3.39107 F1769.
X8.56567 Y3.39107 I8.56568 J3.39107
G0 Z1.5875
X8.46355 Y-3.62822
G1 Z-2.73 F442.2
X8.53938 Y-3.45676 Z-2.76306 F1326.7
X8.74143 Y-2.9082 Z-2.86614
X8.90828 Y-2.34793 Z-2.96922
X9.03926 Y-1.7782 Z-3.07229
X9.13384 Y-1.20132 Z-3.17537
X9.19164 Y-0.61959 Z-3.27845
X9.21243 Y-0.03538 Z-3.38153
X9.19613 Y0.54898 Z-3.48461
X9.14279 Y1.13113 Z-3.58769
X9.05265 Y1.70873 Z-3.69076
X8.92605 Y2.27944 Z-3.79384
X8.7635 Y2.84098 Z-3.89692
X8.56567 Y3.39107 Z-4.
G03 X-8.56568 Y-3.39107 I-8.56567 J-3.39107 F1769.
X8.56567 Y3.39107 I8.56568 J3.39107
G0 Z1.5875
(2 1/2 Axis Profiling-1)
(SlotDrill 1/8in 3.175mm Carbide Aluminium Cut)
S18847 M3
X3.92966 Y-5.27379
G1 Z-4. F1014.7
X5.18488 Y-4.77687 F3044.2
G03 X8.75163 Y3.46469 I-2.3374 J5.90416
X-8.75163 Y-3.46469 I-8.75163 J-3.46469 F4059.
X8.75163 Y3.46469 I8.75163 J3.46469
X0.51007 Y7.03145 I-5.90415 J-2.3374 F5000.
G1 X-0.74514 Y6.53452
G0 Z1.5875
(Deep Drill )
(1/8in Carbide Drill)
T13 M06
S24000 M3
Z4.0875
X15.5 Y-15.5
G21 S24000 M3
G83 X15.5 Y-15.5 Z-5.91654 R2.5 Q1.45 F961.0
X-15.5Y-15.5
X-15.5Y15.5
X15.5Y15.5
G80
G0 Z4.0875
M30
%
