%
G17 G21 G40 G90 G64 P0.1
(2 1/2 Axis Profiling)
(SlotDrill 1/8in 3.175mm Carbide Aluminium Cut)
T6 M06
S16542 M3
G0 Z1.5875
X14.63524 Y-5.18526
G1 Z0.1 F105.
X14.66598 Y-5.24204 Z0.08862 F315.
X14.74 Y-5.32025 Z0.06963
X14.83175 Y-5.37663 Z0.05064
X14.93496 Y-5.40734 Z0.03165
X15.0426 Y-5.41029 Z0.01266
X15.14734 Y-5.38529 Z-0.00632
X15.24204 Y-5.33403 Z-0.02531
X15.32024 Y-5.26 Z-0.0443
X15.37663 Y-5.16825 Z-0.06328
X15.40734 Y-5.06504 Z-0.08227
X15.41029 Y-4.9574 Z-0.10126
X15.38529 Y-4.85266 Z-0.12025
X15.33402 Y-4.75796 Z-0.13924
X15.26 Y-4.67976 Z-0.15822
X15.16825 Y-4.62338 Z-0.17721
X15.06504 Y-4.59266 Z-0.1962
X14.9574 Y-4.58971 Z-0.21519
X14.85266 Y-4.61471 Z-0.23417
X14.75796 Y-4.66598 Z-0.25316
X14.67975 Y-4.74 Z-0.27215
X14.62337 Y-4.83175 Z-0.29114
X14.59266 Y-4.93496 Z-0.31012
X14.58971 Y-5.0426 Z-0.32911
X14.61471 Y-5.14734 Z-0.3481
X14.66598 Y-5.24204 Z-0.36709
X14.74 Y-5.32025 Z-0.38607
X14.83175 Y-5.37663 Z-0.40506
X14.93496 Y-5.40734 Z-0.42405
X15.0426 Y-5.41029 Z-0.44304
X15.14734 Y-5.38529 Z-0.46203
X15.24204 Y-5.33403 Z-0.48101
X15.32024 Y-5.26 Z-0.5
G17
G03 X14.67975 Y-4.74 I-0.32024 J0.26 F420.
X15.32024 Y-5.26 I0.32025 J-0.26
G0 Z1.5875
X14.63524 Y-5.18526
G1 Z-0.4 F105.
X14.66598 Y-5.24204 Z-0.41138 F315.
X14.74 Y-5.32025 Z-0.43037
X14.83175 Y-5.37663 Z-0.44936
X14.93496 Y-5.40734 Z-0.46835
X15.0426 Y-5.41029 Z-0.48734
X15.14734 Y-5.38529 Z-0.50632
X15.24204 Y-5.33403 Z-0.52531
X15.32024 Y-5.26 Z-0.5443
X15.37663 Y-5.16825 Z-0.56329
X15.40734 Y-5.06504 Z-0.58227
X15.41029 Y-4.9574 Z-0.60126
X15.38529 Y-4.85266 Z-0.62025
X15.33402 Y-4.75796 Z-0.63924
X15.26 Y-4.67976 Z-0.65822
X15.16825 Y-4.62338 Z-0.67721
X15.06504 Y-4.59266 Z-0.6962
X14.9574 Y-4.58971 Z-0.71519
X14.85266 Y-4.61471 Z-0.73417
X14.75796 Y-4.66598 Z-0.75316
X14.67975 Y-4.74 Z-0.77215
X14.62337 Y-4.83175 Z-0.79114
X14.59266 Y-4.93496 Z-0.81012
X14.58971 Y-5.0426 Z-0.82911
X14.61471 Y-5.14734 Z-0.8481
X14.66598 Y-5.24204 Z-0.86709
X14.74 Y-5.32025 Z-0.88607
X14.83175 Y-5.37663 Z-0.90506
X14.93496 Y-5.40734 Z-0.92405
X15.0426 Y-5.41029 Z-0.94304
X15.14734 Y-5.38529 Z-0.96203
X15.24204 Y-5.33403 Z-0.98101
X15.32024 Y-5.26 Z-1.
G03 X14.67975 Y-4.74 I-0.32024 J0.26 F420.
X15.32024 Y-5.26 I0.32025 J-0.26
G0 Z1.5875
X14.63524 Y-5.18526
G1 Z-0.9 F105.
X14.66598 Y-5.24204 Z-0.91138 F315.
X14.74 Y-5.32025 Z-0.93037
X14.83175 Y-5.37663 Z-0.94936
X14.93496 Y-5.40734 Z-0.96835
X15.0426 Y-5.41029 Z-0.98734
X15.14734 Y-5.38529 Z-1.00632
X15.24204 Y-5.33403 Z-1.02531
X15.32024 Y-5.26 Z-1.0443
X15.37663 Y-5.16825 Z-1.06329
X15.40734 Y-5.06504 Z-1.08227
X15.41029 Y-4.9574 Z-1.10126
X15.38529 Y-4.85266 Z-1.12025
X15.33402 Y-4.75796 Z-1.13924
X15.26 Y-4.67976 Z-1.15822
X15.16825 Y-4.62338 Z-1.17721
X15.06504 Y-4.59266 Z-1.1962
X14.9574 Y-4.58971 Z-1.21519
X14.85266 Y-4.61471 Z-1.23417
X14.75796 Y-4.66598 Z-1.25316
X14.67975 Y-4.74 Z-1.27215
X14.62337 Y-4.83175 Z-1.29114
X14.59266 Y-4.93496 Z-1.31012
X14.58971 Y-5.0426 Z-1.32911
X14.61471 Y-5.14734 Z-1.3481
X14.66598 Y-5.24204 Z-1.36709
X14.74 Y-5.32025 Z-1.38607
X14.83175 Y-5.37663 Z-1.40506
X14.93496 Y-5.40734 Z-1.42405
X15.0426 Y-5.41029 Z-1.44304
X15.14734 Y-5.38529 Z-1.46202
X15.24204 Y-5.33403 Z-1.48101
X15.32024 Y-5.26 Z-1.5
G03 X14.67975 Y-4.74 I-0.32024 J0.26 F420.
X15.32024 Y-5.26 I0.32025 J-0.26
G0 Z1.5875
X14.63524 Y-5.18526
G1 Z-1.4 F105.
X14.66598 Y-5.24204 Z-1.41138 F315.
X14.74 Y-5.32025 Z-1.43037
X14.83175 Y-5.37663 Z-1.44936
X14.93496 Y-5.40734 Z-1.46835
X15.0426 Y-5.41029 Z-1.48734
X15.14734 Y-5.38529 Z-1.50632
X15.24204 Y-5.33403 Z-1.52531
X15.32024 Y-5.26 Z-1.5443
X15.37663 Y-5.16825 Z-1.56329
X15.40734 Y-5.06504 Z-1.58227
X15.41029 Y-4.9574 Z-1.60126
X15.38529 Y-4.85266 Z-1.62025
X15.33402 Y-4.75796 Z-1.63924
X15.26 Y-4.67976 Z-1.65822
X15.16825 Y-4.62338 Z-1.67721
X15.06504 Y-4.59266 Z-1.6962
X14.9574 Y-4.58971 Z-1.71519
X14.85266 Y-4.61471 Z-1.73417
X14.75796 Y-4.66598 Z-1.75316
X14.67975 Y-4.74 Z-1.77215
X14.62337 Y-4.83175 Z-1.79114
X14.59266 Y-4.93496 Z-1.81012
X14.58971 Y-5.0426 Z-1.82911
X14.61471 Y-5.14734 Z-1.8481
X14.66598 Y-5.24204 Z-1.86709
X14.74 Y-5.32025 Z-1.88607
X14.83175 Y-5.37663 Z-1.90506
X14.93496 Y-5.40734 Z-1.92405
X15.0426 Y-5.41029 Z-1.94304
X15.14734 Y-5.38529 Z-1.96203
X15.24204 Y-5.33403 Z-1.98101
X15.32024 Y-5.26 Z-2.
G03 X14.67975 Y-4.74 I-0.32024 J0.26 F420.
X15.32024 Y-5.26 I0.32025 J-0.26
G0 Z1.5875
X14.63524 Y-5.18526
G1 Z-1.9 F105.
X14.66598 Y-5.24204 Z-1.91138 F315.
X14.74 Y-5.32025 Z-1.93037
X14.83175 Y-5.37663 Z-1.94936
X14.93496 Y-5.40734 Z-1.96835
X15.0426 Y-5.41029 Z-1.98734
X15.14734 Y-5.38529 Z-2.00632
X15.24204 Y-5.33403 Z-2.02531
X15.32024 Y-5.26 Z-2.0443
X15.37663 Y-5.16825 Z-2.06329
X15.40734 Y-5.06504 Z-2.08227
X15.41029 Y-4.9574 Z-2.10126
X15.38529 Y-4.85266 Z-2.12025
X15.33402 Y-4.75796 Z-2.13924
X15.26 Y-4.67976 Z-2.15822
X15.16825 Y-4.62338 Z-2.17721
X15.06504 Y-4.59266 Z-2.1962
X14.9574 Y-4.58971 Z-2.21519
X14.85266 Y-4.61471 Z-2.23417
X14.75796 Y-4.66598 Z-2.25316
X14.67975 Y-4.74 Z-2.27215
X14.62337 Y-4.83175 Z-2.29114
X14.59266 Y-4.93496 Z-2.31012
X14.58971 Y-5.0426 Z-2.32911
X14.61471 Y-5.14734 Z-2.3481
X14.66598 Y-5.24204 Z-2.36709
X14.74 Y-5.32025 Z-2.38607
X14.83175 Y-5.37663 Z-2.40506
X14.93496 Y-5.40734 Z-2.42405
X15.0426 Y-5.41029 Z-2.44304
X15.14734 Y-5.38529 Z-2.46203
X15.24204 Y-5.33403 Z-2.48101
X15.32024 Y-5.26 Z-2.5
G03 X14.67975 Y-4.74 I-0.32024 J0.26 F420.
X15.32024 Y-5.26 I0.32025 J-0.26
G0 Z1.5875
X14.63524 Y-5.18526
G1 Z-2.4 F105.
X14.66598 Y-5.24204 Z-2.41138 F315.
X14.74 Y-5.32025 Z-2.43037
X14.83175 Y-5.37663 Z-2.44936
X14.93496 Y-5.40734 Z-2.46835
X15.0426 Y-5.41029 Z-2.48734
X15.14734 Y-5.38529 Z-2.50632
X15.24204 Y-5.33403 Z-2.52531
X15.32024 Y-5.26 Z-2.5443
X15.37663 Y-5.16825 Z-2.56329
X15.40734 Y-5.06504 Z-2.58227
X15.41029 Y-4.9574 Z-2.60126
X15.38529 Y-4.85266 Z-2.62025
X15.33402 Y-4.75796 Z-2.63924
X15.26 Y-4.67976 Z-2.65822
X15.16825 Y-4.62338 Z-2.67721
X15.06504 Y-4.59266 Z-2.6962
X14.9574 Y-4.58971 Z-2.71519
X14.85266 Y-4.61471 Z-2.73417
X14.75796 Y-4.66598 Z-2.75316
X14.67975 Y-4.74 Z-2.77215
X14.62337 Y-4.83175 Z-2.79114
X14.59266 Y-4.93496 Z-2.81012
X14.58971 Y-5.0426 Z-2.82911
X14.61471 Y-5.14734 Z-2.8481
X14.66598 Y-5.24204 Z-2.86709
X14.74 Y-5.32025 Z-2.88607
X14.83175 Y-5.37663 Z-2.90506
X14.93496 Y-5.40734 Z-2.92405
X15.0426 Y-5.41029 Z-2.94304
X15.14734 Y-5.38529 Z-2.96203
X15.24204 Y-5.33403 Z-2.98101
X15.32024 Y-5.26 Z-3.
G03 X14.67975 Y-4.74 I-0.32024 J0.26 F420.
X15.32024 Y-5.26 I0.32025 J-0.26
G0 Z1.5875
X14.63524 Y-5.18526
G1 Z-2.9 F105.
X14.66598 Y-5.24204 Z-2.91138 F315.
X14.74 Y-5.32025 Z-2.93037
X14.83175 Y-5.37663 Z-2.94936
X14.93496 Y-5.40734 Z-2.96835
X15.0426 Y-5.41029 Z-2.98734
X15.14734 Y-5.38529 Z-3.00632
X15.24204 Y-5.33403 Z-3.02531
X15.32024 Y-5.26 Z-3.0443
X15.37663 Y-5.16825 Z-3.06329
X15.40734 Y-5.06504 Z-3.08227
X15.41029 Y-4.9574 Z-3.10126
X15.38529 Y-4.85266 Z-3.12025
X15.33402 Y-4.75796 Z-3.13924
X15.26 Y-4.67976 Z-3.15822
X15.16825 Y-4.62338 Z-3.17721
X15.06504 Y-4.59266 Z-3.1962
X14.9574 Y-4.58971 Z-3.21519
X14.85266 Y-4.61471 Z-3.23417
X14.75796 Y-4.66598 Z-3.25316
X14.67975 Y-4.74 Z-3.27215
X14.62337 Y-4.83175 Z-3.29114
X14.59266 Y-4.93496 Z-3.31012
X14.58971 Y-5.0426 Z-3.32911
X14.61471 Y-5.14734 Z-3.3481
X14.66598 Y-5.24204 Z-3.36709
X14.74 Y-5.32025 Z-3.38607
X14.83175 Y-5.37663 Z-3.40506
X14.93496 Y-5.40734 Z-3.42405
X15.0426 Y-5.41029 Z-3.44304
X15.14734 Y-5.38529 Z-3.46203
X15.24204 Y-5.33403 Z-3.48101
X15.32024 Y-5.26 Z-3.5
G03 X14.67975 Y-4.74 I-0.32024 J0.26 F420.
X15.32024 Y-5.26 I0.32025 J-0.26
G0 Z1.5875
X14.63524 Y-5.18526
G1 Z-3.4 F105.
X14.66598 Y-5.24204 Z-3.41138 F315.
X14.74 Y-5.32025 Z-3.43037
X14.83175 Y-5.37663 Z-3.44936
X14.93496 Y-5.40734 Z-3.46835
X15.0426 Y-5.41029 Z-3.48734
X15.14734 Y-5.38529 Z-3.50632
X15.24204 Y-5.33403 Z-3.52531
X15.32024 Y-5.26 Z-3.5443
X15.37663 Y-5.16825 Z-3.56329
X15.40734 Y-5.06504 Z-3.58227
X15.41029 Y-4.9574 Z-3.60126
X15.38529 Y-4.85266 Z-3.62025
X15.33402 Y-4.75796 Z-3.63924
X15.26 Y-4.67976 Z-3.65822
X15.16825 Y-4.62338 Z-3.67721
X15.06504 Y-4.59266 Z-3.6962
X14.9574 Y-4.58971 Z-3.71519
X14.85266 Y-4.61471 Z-3.73417
X14.75796 Y-4.66598 Z-3.75316
X14.67975 Y-4.74 Z-3.77215
X14.62337 Y-4.83175 Z-3.79114
X14.59266 Y-4.93496 Z-3.81012
X14.58971 Y-5.0426 Z-3.82911
X14.61471 Y-5.14734 Z-3.8481
X14.66598 Y-5.24204 Z-3.86709
X14.74 Y-5.32025 Z-3.88607
X14.83175 Y-5.37663 Z-3.90506
X14.93496 Y-5.40734 Z-3.92405
X15.0426 Y-5.41029 Z-3.94304
X15.14734 Y-5.38529 Z-3.96203
X15.24204 Y-5.33403 Z-3.98101
X15.32024 Y-5.26 Z-4.
G03 X14.67975 Y-4.74 I-0.32024 J0.26 F420.
X15.32024 Y-5.26 I0.32025 J-0.26
G0 Z1.5875
X15.12663 Y-45.38902
G1 Z0.1 F105.
X15.18749 Y-45.36743 Z0.08861 F315.
X15.2762 Y-45.30638 Z0.06963
X15.34608 Y-45.22446 Z0.05064
X15.39238 Y-45.12724 Z0.03165
X15.41194 Y-45.02134 Z0.01266
X15.40343 Y-44.914 Z-0.00632
X15.36743 Y-44.81251 Z-0.02531
X15.30638 Y-44.7238 Z-0.0443
X15.22446 Y-44.65392 Z-0.06329
X15.12723 Y-44.60762 Z-0.08227
X15.02134 Y-44.58805 Z-0.10126
X14.914 Y-44.59657 Z-0.12025
X14.81251 Y-44.63257 Z-0.13924
X14.7238 Y-44.69362 Z-0.15822
X14.65392 Y-44.77554 Z-0.17721
X14.60761 Y-44.87276 Z-0.1962
X14.58805 Y-44.97866 Z-0.21519
X14.59656 Y-45.086 Z-0.23417
X14.63257 Y-45.18749 Z-0.25316
X14.69362 Y-45.2762 Z-0.27215
X14.77554 Y-45.34608 Z-0.29114
X14.87276 Y-45.39239 Z-0.31012
X14.97866 Y-45.41195 Z-0.32911
X15.086 Y-45.40343 Z-0.3481
X15.18749 Y-45.36743 Z-0.36709
X15.2762 Y-45.30638 Z-0.38608
X15.34608 Y-45.22446 Z-0.40506
X15.39238 Y-45.12724 Z-0.42405
X15.41194 Y-45.02134 Z-0.44304
X15.40343 Y-44.914 Z-0.46203
X15.36743 Y-44.81251 Z-0.48101
X15.30638 Y-44.7238 Z-0.5
G03 X14.69362 Y-45.2762 I-0.30638 J-0.2762 F420.
X15.30638 Y-44.7238 I0.30638 J0.2762
G0 Z1.5875
X15.12663 Y-45.38902
G1 Z-0.4 F105.
X15.18749 Y-45.36743 Z-0.41139 F315.
X15.2762 Y-45.30638 Z-0.43037
X15.34608 Y-45.22446 Z-0.44936
X15.39238 Y-45.12724 Z-0.46835
X15.41194 Y-45.02134 Z-0.48734
X15.40343 Y-44.914 Z-0.50632
X15.36743 Y-44.81251 Z-0.52531
X15.30638 Y-44.7238 Z-0.5443
X15.22446 Y-44.65392 Z-0.56329
X15.12723 Y-44.60762 Z-0.58227
X15.02134 Y-44.58805 Z-0.60126
X14.914 Y-44.59657 Z-0.62025
X14.81251 Y-44.63257 Z-0.63924
X14.7238 Y-44.69362 Z-0.65822
X14.65392 Y-44.77554 Z-0.67721
X14.60761 Y-44.87276 Z-0.6962
X14.58805 Y-44.97866 Z-0.71519
X14.59656 Y-45.086 Z-0.73417
X14.63257 Y-45.18749 Z-0.75316
X14.69362 Y-45.2762 Z-0.77215
X14.77554 Y-45.34608 Z-0.79114
X14.87276 Y-45.39239 Z-0.81012
X14.97866 Y-45.41195 Z-0.82911
X15.086 Y-45.40343 Z-0.8481
X15.18749 Y-45.36743 Z-0.86709
X15.2762 Y-45.30638 Z-0.88607
X15.34608 Y-45.22446 Z-0.90506
X15.39238 Y-45.12724 Z-0.92405
X15.41194 Y-45.02134 Z-0.94304
X15.40343 Y-44.914 Z-0.96203
X15.36743 Y-44.81251 Z-0.98101
X15.30638 Y-44.7238 Z-1.
G03 X14.69362 Y-45.2762 I-0.30638 J-0.2762 F420.
X15.30638 Y-44.7238 I0.30638 J0.2762
G0 Z1.5875
X15.12663 Y-45.38902
G1 Z-0.9 F105.
X15.18749 Y-45.36743 Z-0.91139 F315.
X15.2762 Y-45.30638 Z-0.93037
X15.34608 Y-45.22446 Z-0.94936
X15.39238 Y-45.12724 Z-0.96835
X15.41194 Y-45.02134 Z-0.98734
X15.40343 Y-44.914 Z-1.00632
X15.36743 Y-44.81251 Z-1.02531
X15.30638 Y-44.7238 Z-1.0443
X15.22446 Y-44.65392 Z-1.06329
X15.12723 Y-44.60762 Z-1.08227
X15.02134 Y-44.58805 Z-1.10126
X14.914 Y-44.59657 Z-1.12025
X14.81251 Y-44.63257 Z-1.13924
X14.7238 Y-44.69362 Z-1.15822
X14.65392 Y-44.77554 Z-1.17721
X14.60761 Y-44.87276 Z-1.1962
X14.58805 Y-44.97866 Z-1.21519
X14.59656 Y-45.086 Z-1.23417
X14.63257 Y-45.18749 Z-1.25316
X14.69362 Y-45.2762 Z-1.27215
X14.77554 Y-45.34608 Z-1.29114
X14.87276 Y-45.39239 Z-1.31012
X14.97866 Y-45.41195 Z-1.32911
X15.086 Y-45.40343 Z-1.3481
X15.18749 Y-45.36743 Z-1.36709
X15.2762 Y-45.30638 Z-1.38607
X15.34608 Y-45.22446 Z-1.40506
X15.39238 Y-45.12724 Z-1.42405
X15.41194 Y-45.02134 Z-1.44304
X15.40343 Y-44.914 Z-1.46202
X15.36743 Y-44.81251 Z-1.48101
X15.30638 Y-44.7238 Z-1.5
G03 X14.69362 Y-45.2762 I-0.30638 J-0.2762 F420.
X15.30638 Y-44.7238 I0.30638 J0.2762
G0 Z1.5875
X15.12663 Y-45.38902
G1 Z-1.4 F105.
X15.18749 Y-45.36743 Z-1.41139 F315.
X15.2762 Y-45.30638 Z-1.43037
X15.34608 Y-45.22446 Z-1.44936
X15.39238 Y-45.12724 Z-1.46835
X15.41194 Y-45.02134 Z-1.48734
X15.40343 Y-44.914 Z-1.50632
X15.36743 Y-44.81251 Z-1.52531
X15.30638 Y-44.7238 Z-1.5443
X15.22446 Y-44.65392 Z-1.56329
X15.12723 Y-44.60762 Z-1.58227
X15.02134 Y-44.58805 Z-1.60126
X14.914 Y-44.59657 Z-1.62025
X14.81251 Y-44.63257 Z-1.63924
X14.7238 Y-44.69362 Z-1.65822
X14.65392 Y-44.77554 Z-1.67721
X14.60761 Y-44.87276 Z-1.6962
X14.58805 Y-44.97866 Z-1.71519
X14.59656 Y-45.086 Z-1.73417
X14.63257 Y-45.18749 Z-1.75316
X14.69362 Y-45.2762 Z-1.77215
X14.77554 Y-45.34608 Z-1.79114
X14.87276 Y-45.39239 Z-1.81012
X14.97866 Y-45.41195 Z-1.82911
X15.086 Y-45.40343 Z-1.8481
X15.18749 Y-45.36743 Z-1.86709
X15.2762 Y-45.30638 Z-1.88608
X15.34608 Y-45.22446 Z-1.90506
X15.39238 Y-45.12724 Z-1.92405
X15.41194 Y-45.02134 Z-1.94304
X15.40343 Y-44.914 Z-1.96203
X15.36743 Y-44.81251 Z-1.98101
X15.30638 Y-44.7238 Z-2.
G03 X14.69362 Y-45.2762 I-0.30638 J-0.2762 F420.
X15.30638 Y-44.7238 I0.30638 J0.2762
G0 Z1.5875
X15.12663 Y-45.38902
G1 Z-1.9 F105.
X15.18749 Y-45.36743 Z-1.91139 F315.
X15.2762 Y-45.30638 Z-1.93037
X15.34608 Y-45.22446 Z-1.94936
X15.39238 Y-45.12724 Z-1.96835
X15.41194 Y-45.02134 Z-1.98734
X15.40343 Y-44.914 Z-2.00632
X15.36743 Y-44.81251 Z-2.02531
X15.30638 Y-44.7238 Z-2.0443
X15.22446 Y-44.65392 Z-2.06329
X15.12723 Y-44.60762 Z-2.08227
X15.02134 Y-44.58805 Z-2.10126
X14.914 Y-44.59657 Z-2.12025
X14.81251 Y-44.63257 Z-2.13924
X14.7238 Y-44.69362 Z-2.15822
X14.65392 Y-44.77554 Z-2.17721
X14.60761 Y-44.87276 Z-2.1962
X14.58805 Y-44.97866 Z-2.21519
X14.59656 Y-45.086 Z-2.23417
X14.63257 Y-45.18749 Z-2.25316
X14.69362 Y-45.2762 Z-2.27215
X14.77554 Y-45.34608 Z-2.29114
X14.87276 Y-45.39239 Z-2.31012
X14.97866 Y-45.41195 Z-2.32911
X15.086 Y-45.40343 Z-2.3481
X15.18749 Y-45.36743 Z-2.36709
X15.2762 Y-45.30638 Z-2.38608
X15.34608 Y-45.22446 Z-2.40506
X15.39238 Y-45.12724 Z-2.42405
X15.41194 Y-45.02134 Z-2.44304
X15.40343 Y-44.914 Z-2.46203
X15.36743 Y-44.81251 Z-2.48101
X15.30638 Y-44.7238 Z-2.5
G03 X14.69362 Y-45.2762 I-0.30638 J-0.2762 F420.
X15.30638 Y-44.7238 I0.30638 J0.2762
G0 Z1.5875
X15.12663 Y-45.38902
G1 Z-2.4 F105.
X15.18749 Y-45.36743 Z-2.41139 F315.
X15.2762 Y-45.30638 Z-2.43037
X15.34608 Y-45.22446 Z-2.44936
X15.39238 Y-45.12724 Z-2.46835
X15.41194 Y-45.02134 Z-2.48734
X15.40343 Y-44.914 Z-2.50632
X15.36743 Y-44.81251 Z-2.52531
X15.30638 Y-44.7238 Z-2.5443
X15.22446 Y-44.65392 Z-2.56329
X15.12723 Y-44.60762 Z-2.58227
X15.02134 Y-44.58805 Z-2.60126
X14.914 Y-44.59657 Z-2.62025
X14.81251 Y-44.63257 Z-2.63924
X14.7238 Y-44.69362 Z-2.65822
X14.65392 Y-44.77554 Z-2.67721
X14.60761 Y-44.87276 Z-2.6962
X14.58805 Y-44.97866 Z-2.71519
X14.59656 Y-45.086 Z-2.73417
X14.63257 Y-45.18749 Z-2.75316
X14.69362 Y-45.2762 Z-2.77215
X14.77554 Y-45.34608 Z-2.79114
X14.87276 Y-45.39239 Z-2.81012
X14.97866 Y-45.41195 Z-2.82911
X15.086 Y-45.40343 Z-2.8481
X15.18749 Y-45.36743 Z-2.86709
X15.2762 Y-45.30638 Z-2.88608
X15.34608 Y-45.22446 Z-2.90506
X15.39238 Y-45.12724 Z-2.92405
X15.41194 Y-45.02134 Z-2.94304
X15.40343 Y-44.914 Z-2.96203
X15.36743 Y-44.81251 Z-2.98101
X15.30638 Y-44.7238 Z-3.
G03 X14.69362 Y-45.2762 I-0.30638 J-0.2762 F420.
X15.30638 Y-44.7238 I0.30638 J0.2762
G0 Z1.5875
X15.12663 Y-45.38902
G1 Z-2.9 F105.
X15.18749 Y-45.36743 Z-2.91139 F315.
X15.2762 Y-45.30638 Z-2.93037
X15.34608 Y-45.22446 Z-2.94936
X15.39238 Y-45.12724 Z-2.96835
X15.41194 Y-45.02134 Z-2.98734
X15.40343 Y-44.914 Z-3.00632
X15.36743 Y-44.81251 Z-3.02531
X15.30638 Y-44.7238 Z-3.0443
X15.22446 Y-44.65392 Z-3.06329
X15.12723 Y-44.60762 Z-3.08227
X15.02134 Y-44.58805 Z-3.10126
X14.914 Y-44.59657 Z-3.12025
X14.81251 Y-44.63257 Z-3.13924
X14.7238 Y-44.69362 Z-3.15822
X14.65392 Y-44.77554 Z-3.17721
X14.60761 Y-44.87276 Z-3.1962
X14.58805 Y-44.97866 Z-3.21519
X14.59656 Y-45.086 Z-3.23417
X14.63257 Y-45.18749 Z-3.25316
X14.69362 Y-45.2762 Z-3.27215
X14.77554 Y-45.34608 Z-3.29114
X14.87276 Y-45.39239 Z-3.31012
X14.97866 Y-45.41195 Z-3.32911
X15.086 Y-45.40343 Z-3.3481
X15.18749 Y-45.36743 Z-3.36709
X15.2762 Y-45.30638 Z-3.38608
X15.34608 Y-45.22446 Z-3.40506
X15.39238 Y-45.12724 Z-3.42405
X15.41194 Y-45.02134 Z-3.44304
X15.40343 Y-44.914 Z-3.46203
X15.36743 Y-44.81251 Z-3.48101
X15.30638 Y-44.7238 Z-3.5
G03 X14.69362 Y-45.2762 I-0.30638 J-0.2762 F420.
X15.30638 Y-44.7238 I0.30638 J0.2762
G0 Z1.5875
X15.12663 Y-45.38902
G1 Z-3.4 F105.
X15.18749 Y-45.36743 Z-3.41139 F315.
X15.2762 Y-45.30638 Z-3.43037
X15.34608 Y-45.22446 Z-3.44936
X15.39238 Y-45.12724 Z-3.46835
X15.41194 Y-45.02134 Z-3.48734
X15.40343 Y-44.914 Z-3.50632
X15.36743 Y-44.81251 Z-3.52531
X15.30638 Y-44.7238 Z-3.5443
X15.22446 Y-44.65392 Z-3.56329
X15.12723 Y-44.60762 Z-3.58227
X15.02134 Y-44.58805 Z-3.60126
X14.914 Y-44.59657 Z-3.62025
X14.81251 Y-44.63257 Z-3.63924
X14.7238 Y-44.69362 Z-3.65822
X14.65392 Y-44.77554 Z-3.67721
X14.60761 Y-44.87276 Z-3.6962
X14.58805 Y-44.97866 Z-3.71519
X14.59656 Y-45.086 Z-3.73417
X14.63257 Y-45.18749 Z-3.75316
X14.69362 Y-45.2762 Z-3.77215
X14.77554 Y-45.34608 Z-3.79114
X14.87276 Y-45.39239 Z-3.81012
X14.97866 Y-45.41195 Z-3.82911
X15.086 Y-45.40343 Z-3.8481
X15.18749 Y-45.36743 Z-3.86709
X15.2762 Y-45.30638 Z-3.88608
X15.34608 Y-45.22446 Z-3.90506
X15.39238 Y-45.12724 Z-3.92405
X15.41194 Y-45.02134 Z-3.94304
X15.40343 Y-44.914 Z-3.96203
X15.36743 Y-44.81251 Z-3.98101
X15.30638 Y-44.7238 Z-4.
G03 X14.69362 Y-45.2762 I-0.30638 J-0.2762 F420.
X15.30638 Y-44.7238 I0.30638 J0.2762
G0 Z1.5875
(2 1/2 Axis Profiling-Finish)
(SlotDrill 1/8in 3.175mm Carbide Aluminium Cut)
S20652 M3
X14.92496 Y-5.38991
G1 Z-4. F96.
G03 X15.41729 Y-5.33879 I0.22061 J0.27173 F288.
X14.58271 Y-4.66122 I-0.41729 J0.33879 F384.
X15.41729 Y-5.33879 I0.41729 J-0.33878
G1 X15.44648 Y-5.32762
X15.47074 Y-5.34732
X15.46581 Y-5.37818
X15.46088 Y-5.40904
X15.48514 Y-5.42873
X15.51433 Y-5.41757
G03 X14.48567 Y-4.58243 I-0.51433 J0.41757
X15.51433 Y-5.41757 I0.51433 J-0.41757
X15.46321 Y-4.92525 I-0.27172 J0.2206 F576.
G0 Z1.5875
X15.37361 Y-45.13442
G1 Z-4. F96.
G03 X15.39922 Y-44.64011 I-0.23435 J0.25996 F288.
X14.60077 Y-45.3599 I-0.39922 J-0.35989 F384.
X15.39922 Y-44.64011 I0.39923 J0.3599
G1 X15.39271 Y-44.60954
X15.41592 Y-44.58862
X15.44565 Y-44.59826
X15.47537 Y-44.6079
X15.49858 Y-44.58697
X15.49207 Y-44.55641
G03 X14.50793 Y-45.44359 I-0.49207 J-0.44359
X15.49207 Y-44.55641 I0.49207 J0.44359
X14.99776 Y-44.5308 I-0.25996 J-0.23435 F576.
G0 Z1.5875
(2 1/2 Axis Profiling)
(SlotDrill 1/8in 3.175mm Carbide Aluminium Cut)
S16542 M3
Z25.
X-2.525 Y1.5875
G1 Z-0.5 F105.
X-1.175 F315.
X0.
X30. F420.
G02 X31.5875 Y0. I0. J-1.5875
G1 Y-50.
G02 X30. Y-51.5875 I-1.5875 J0.
G1 X0.
X-1.35 F630.
X-2.7
G0 Z25.
X-2.525 Y1.5875
G1 Z-1. F105.
X-1.175 F315.
X0.
X30. F420.
G02 X31.5875 Y0. I0. J-1.5875
G1 Y-50.
G02 X30. Y-51.5875 I-1.5875 J0.
G1 X0.
X-1.35 F630.
X-2.7
G0 Z25.
X-2.525 Y1.5875
G1 Z-1.5 F105.
X-1.175 F315.
X0.
X30. F420.
G02 X31.5875 Y0. I0. J-1.5875
G1 Y-50.
G02 X30. Y-51.5875 I-1.5875 J0.
G1 X0.
X-1.35 F630.
X-2.7
G0 Z25.
X-2.525 Y1.5875
G1 Z-2. F105.
X-1.175 F315.
X0.
X30. F420.
G02 X31.5875 Y0. I0. J-1.5875
G1 Y-50.
G02 X30. Y-51.5875 I-1.5875 J0.
G1 X0.
X-1.35 F630.
X-2.7
G0 Z25.
X-2.525 Y1.5875
G1 Z-2.5 F105.
X-1.175 F315.
X0.
X30. F420.
G02 X31.5875 Y0. I0. J-1.5875
G1 Y-50.
G02 X30. Y-51.5875 I-1.5875 J0.
G1 X0.
X-1.35 F630.
X-2.7
G0 Z25.
X-2.525 Y1.5875
G1 Z-3. F105.
X-1.175 F315.
X0.
X30. F420.
G02 X31.5875 Y0. I0. J-1.5875
G1 Y-50.
G02 X30. Y-51.5875 I-1.5875 J0.
G1 X0.
X-1.35 F630.
X-2.7
G0 Z25.
X-2.525 Y1.5875
G1 Z-3.5 F105.
X-1.175 F315.
X0.
X30. F420.
G02 X31.5875 Y0. I0. J-1.5875
G1 Y-50.
G02 X30. Y-51.5875 I-1.5875 J0.
G1 X0.
X-1.35 F630.
X-2.7
G0 Z25.
X-2.525 Y1.5875
G1 Z-4. F105.
X-1.175 F315.
X0.
X30. F420.
G02 X31.5875 Y0. I0. J-1.5875
G1 Y-50.
G02 X30. Y-51.5875 I-1.5875 J0.
G1 X0.
X-1.35 F630.
X-2.7
G0 Z25.
M30
%
