%
G17 G21 G40 G90 G64 P0.1
(2 1/2 Axis Profiling)
(SlotDrill 2mm Carbide)
T12 M06
S24000 M3
G0 Z1.
X-27.48862 Y0.20245
G1 Z-2.5 F390.
G17
G02 X-28.51138 Y-0.20245 I-0.51138 J-0.20245
X-27.48862 Y0.20245 I0.51138 J0.20245
G1 X-27.30266 Y0.27607
G03 X-28.69734 Y-0.27607 I-0.69734 J-0.27607
X-27.30266 Y0.27607 I0.69734 J0.27607
G0 Z1.
X0.51138 Y0.20245
G1 Z-2.5 F390.
G02 X-0.51138 Y-0.20245 I-0.51138 J-0.20245
X0.51138 Y0.20245 I0.51138 J0.20245
G1 X0.69734 Y0.27607
G03 X-0.69734 Y-0.27607 I-0.69734 J-0.27607
X0.69734 Y0.27607 I0.69734 J0.27607
G0 Z1.
X28.51138 Y0.20245
G1 Z-2.5 F390.
G02 X27.48862 Y-0.20245 I-0.51138 J-0.20245
X28.51138 Y0.20245 I0.51138 J0.20245
G1 X28.69734 Y0.27607
G03 X27.30266 Y-0.27607 I-0.69734 J-0.27607
X28.69734 Y0.27607 I0.69734 J0.27607
G0 Z1.
(2 1/2 Axis Profiling)
(SlotDrill 2mm Carbide)
X-13.48338 Y8.34968
G1 Z-2.5 F390.
G03 X-15.29111 Y4.51152 I1.01529 J-2.82298
G02 X-21.4892 Y-11.88158 I-12.69856 J-4.56705
G1 Z-0.5
G02 X-25.52624 Y-13.32082 I-6.39375 J11.55283
G1 Z-2.5
G02 X-34.51743 Y11.75266 I-2.47232 J13.26227
G1 Z-0.5
G02 X-30.48572 Y13.20574 I6.40627 J-11.45503
G1 Z-2.5
G02 X-15.29111 Y4.51152 I2.49943 J-13.25651
G0 Z1.
X14.50983 Y8.36837
G1 Z-2.5 F390.
G03 X12.70889 Y4.51152 I1.01529 J-2.82298
G02 X6.5108 Y-11.88158 I-12.69856 J-4.56705
G1 Z-0.5
G02 X2.47376 Y-13.32082 I-6.39375 J11.55283
G1 Z-2.5
G02 X-6.51743 Y11.75266 I-2.47232 J13.26227
G1 Z-0.5
G02 X-2.48572 Y13.20574 I6.40627 J-11.45503
G1 Z-2.5
G02 X12.70889 Y4.51152 I2.49943 J-13.25651
G0 Z1.
X42.51602 Y8.34946
G1 Z-2.5 F390.
G03 X40.70889 Y4.51152 I1.01589 J-2.82276
G02 X21.48257 Y11.75266 I-12.6979 J-4.5699
G1 Z-0.5
G02 X25.51428 Y13.20574 I6.40627 J-11.45503
G1 Z-2.5
G02 X40.70889 Y4.51152 I2.49943 J-13.25651
G1 Z-0.5
Z-2.5
G0 Z1.
M30
%
