%
G17 G21 G40 G90 G64 P0.1
(2 1/2 Axis Profiling)
(SlotDrill 2mm Carbide)
T12 M06
S24000 M3
G0 Z1.
X-5.22157 Y-42.77977
G1 Z-0.5 F390.5
G17
G03 X-8.77843 Y-48.22024 I-1.77843 J-2.72023 F1562.
X-5.22157 Y-42.77977 I1.77843 J2.72024
G1 Z-1.
G03 X-8.77843 Y-48.22024 I-1.77843 J-2.72023
X-5.22157 Y-42.77977 I1.77843 J2.72024
G1 Z-1.5
G03 X-8.77843 Y-48.22024 I-1.77843 J-2.72023
X-5.22157 Y-42.77977 I1.77843 J2.72024
G1 Z-2.
G03 X-8.77843 Y-48.22024 I-1.77843 J-2.72023
X-5.22157 Y-42.77977 I1.77843 J2.72024
G1 Z-2.5
G03 X-8.77843 Y-48.22024 I-1.77843 J-2.72023
X-5.22157 Y-42.77977 I1.77843 J2.72024
G1 Z-3.
G03 X-8.77843 Y-48.22024 I-1.77843 J-2.72023
X-5.22157 Y-42.77977 I1.77843 J2.72024
G1 Z-3.5
G03 X-8.77843 Y-48.22024 I-1.77843 J-2.72023
X-5.22157 Y-42.77977 I1.77843 J2.72024
G0 Z1.
X7.79709 Y-40.67308
G1 Z-0.5 F390.5
G03 X7.80697 Y-40.66833 I-1.39446 J2.91383 F1562.
X6.69962 Y-34.51176 I-1.37135 J2.93122
G1 X6.69654 Y-34.5115
G02 X4.74872 Y-31.56514 I0.1891 J2.24204
G03 Y-28.43486 I-4.74872 J1.56514
G02 X6.69654 Y-25.4885 I2.13692 J0.70432
G03 X3.19045 Y-22.58257 I-0.27315 J3.2385
G02 X0.65673 Y-25.04332 I-2.23818 J-0.23024
G03 Y-34.95668 I-0.65673 J-4.95668
G02 X3.19045 Y-37.41743 I0.29554 J-2.23051
G1 X3.19013 Y-37.42058
G03 X7.79709 Y-40.67308 I3.2125 J-0.33867
G1 Z-1.
G03 X7.80697 Y-40.66833 I-1.39446 J2.91383
X6.69962 Y-34.51176 I-1.37135 J2.93122
G1 X6.69654 Y-34.5115
G02 X4.74872 Y-31.56514 I0.1891 J2.24204
G03 Y-28.43486 I-4.74872 J1.56514
G02 X6.69654 Y-25.4885 I2.13692 J0.70432
G03 X3.19045 Y-22.58257 I-0.27315 J3.2385
G02 X0.65673 Y-25.04332 I-2.23818 J-0.23024
G03 Y-34.95668 I-0.65673 J-4.95668
G02 X3.19045 Y-37.41743 I0.29554 J-2.23051
G1 X3.19013 Y-37.42058
G03 X7.79709 Y-40.67308 I3.2125 J-0.33867
G1 Z-1.5
G03 X7.80697 Y-40.66833 I-1.39446 J2.91383
X6.69962 Y-34.51176 I-1.37135 J2.93122
G1 X6.69654 Y-34.5115
G02 X4.74872 Y-31.56514 I0.1891 J2.24204
G03 Y-28.43486 I-4.74872 J1.56514
G02 X6.69654 Y-25.4885 I2.13692 J0.70432
G03 X3.19045 Y-22.58257 I-0.27315 J3.2385
G02 X0.65673 Y-25.04332 I-2.23818 J-0.23024
G03 Y-34.95668 I-0.65673 J-4.95668
G02 X3.19045 Y-37.41743 I0.29554 J-2.23051
G1 X3.19013 Y-37.42058
G03 X7.79709 Y-40.67308 I3.2125 J-0.33867
G1 Z-2.
G03 X7.80697 Y-40.66833 I-1.39446 J2.91383
X6.69962 Y-34.51176 I-1.37135 J2.93122
G1 X6.69654 Y-34.5115
G02 X4.74872 Y-31.56514 I0.1891 J2.24204
G03 Y-28.43486 I-4.74872 J1.56514
G02 X6.69654 Y-25.4885 I2.13692 J0.70432
G03 X3.19045 Y-22.58257 I-0.27315 J3.2385
G02 X0.65673 Y-25.04332 I-2.23818 J-0.23024
G03 Y-34.95668 I-0.65673 J-4.95668
G02 X3.19045 Y-37.41743 I0.29554 J-2.23051
G1 X3.19013 Y-37.42058
G03 X7.79709 Y-40.67308 I3.2125 J-0.33867
G1 Z-2.5
G03 X7.80697 Y-40.66833 I-1.39446 J2.91383
X6.69962 Y-34.51176 I-1.37135 J2.93122
G1 X6.69654 Y-34.5115
G02 X4.74872 Y-31.56514 I0.1891 J2.24204
G03 Y-28.43486 I-4.74872 J1.56514
G02 X6.69654 Y-25.4885 I2.13692 J0.70432
G03 X3.19045 Y-22.58257 I-0.27315 J3.2385
G02 X0.65673 Y-25.04332 I-2.23818 J-0.23024
G03 Y-34.95668 I-0.65673 J-4.95668
G02 X3.19045 Y-37.41743 I0.29554 J-2.23051
G1 X3.19013 Y-37.42058
G03 X7.79709 Y-40.67308 I3.2125 J-0.33867
G1 Z-3.
G03 X7.80697 Y-40.66833 I-1.39446 J2.91383
X6.69962 Y-34.51176 I-1.37135 J2.93122
G1 X6.69654 Y-34.5115
G02 X4.74872 Y-31.56514 I0.1891 J2.24204
G03 Y-28.43486 I-4.74872 J1.56514
G02 X6.69654 Y-25.4885 I2.13692 J0.70432
G03 X3.19045 Y-22.58257 I-0.27315 J3.2385
G02 X0.65673 Y-25.04332 I-2.23818 J-0.23024
G03 Y-34.95668 I-0.65673 J-4.95668
G02 X3.19045 Y-37.41743 I0.29554 J-2.23051
G1 X3.19013 Y-37.42058
G03 X7.79709 Y-40.67308 I3.2125 J-0.33867
G1 Z-3.5
G03 X7.80697 Y-40.66833 I-1.39446 J2.91383
X6.69962 Y-34.51176 I-1.37135 J2.93122
G1 X6.69654 Y-34.5115
G02 X4.74872 Y-31.56514 I0.1891 J2.24204
G03 Y-28.43486 I-4.74872 J1.56514
G02 X6.69654 Y-25.4885 I2.13692 J0.70432
G03 X3.19045 Y-22.58257 I-0.27315 J3.2385
G02 X0.65673 Y-25.04332 I-2.23818 J-0.23024
G03 Y-34.95668 I-0.65673 J-4.95668
G02 X3.19045 Y-37.41743 I0.29554 J-2.23051
G1 X3.19013 Y-37.42058
G03 X7.79709 Y-40.67308 I3.2125 J-0.33867
G0 Z1.
X-4.7019 Y-16.7981
G1 Z-0.5 F390.5
G03 X-9.2981 Y-12.2019 I-2.2981 J2.2981 F1562.
X-4.7019 Y-16.7981 I2.2981 J-2.2981
G1 Z-1.
G03 X-9.2981 Y-12.2019 I-2.2981 J2.2981
X-4.7019 Y-16.7981 I2.2981 J-2.2981
G1 Z-1.5
G03 X-9.2981 Y-12.2019 I-2.2981 J2.2981
X-4.7019 Y-16.7981 I2.2981 J-2.2981
G1 Z-2.
G03 X-9.2981 Y-12.2019 I-2.2981 J2.2981
X-4.7019 Y-16.7981 I2.2981 J-2.2981
G1 Z-2.5
G03 X-9.2981 Y-12.2019 I-2.2981 J2.2981
X-4.7019 Y-16.7981 I2.2981 J-2.2981
G1 Z-3.
G03 X-9.2981 Y-12.2019 I-2.2981 J2.2981
X-4.7019 Y-16.7981 I2.2981 J-2.2981
G1 Z-3.5
G03 X-9.2981 Y-12.2019 I-2.2981 J2.2981
X-4.7019 Y-16.7981 I2.2981 J-2.2981
G0 Z1.
X-5.22157 Y17.22023
G1 Z-0.5 F390.5
G03 X-8.77843 Y11.77976 I-1.77843 J-2.72023 F1562.
X-5.22157 Y17.22023 I1.77843 J2.72024
G1 Z-1.
G03 X-8.77843 Y11.77976 I-1.77843 J-2.72023
X-5.22157 Y17.22023 I1.77843 J2.72024
G1 Z-1.5
G03 X-8.77843 Y11.77976 I-1.77843 J-2.72023
X-5.22157 Y17.22023 I1.77843 J2.72024
G1 Z-2.
G03 X-8.77843 Y11.77976 I-1.77843 J-2.72023
X-5.22157 Y17.22023 I1.77843 J2.72024
G1 Z-2.5
G03 X-8.77843 Y11.77976 I-1.77843 J-2.72023
X-5.22157 Y17.22023 I1.77843 J2.72024
G1 Z-3.
G03 X-8.77843 Y11.77976 I-1.77843 J-2.72023
X-5.22157 Y17.22023 I1.77843 J2.72024
G1 Z-3.5
G03 X-8.77843 Y11.77976 I-1.77843 J-2.72023
X-5.22157 Y17.22023 I1.77843 J2.72024
G0 Z1.
X7.79709 Y19.32692
G1 Z-0.5 F390.5
G03 X7.80697 Y19.33167 I-1.39446 J2.91383 F1562.
X6.69962 Y25.48824 I-1.37135 J2.93122
G1 X6.69654 Y25.4885
G02 X4.74872 Y28.43486 I0.1891 J2.24204
G03 Y31.56514 I-4.74872 J1.56514
G02 X6.69654 Y34.5115 I2.13692 J0.70432
G03 X3.19045 Y37.41743 I-0.27315 J3.2385
G02 X0.65673 Y34.95668 I-2.23818 J-0.23024
G03 Y25.04332 I-0.65673 J-4.95668
G02 X3.19045 Y22.58257 I0.29554 J-2.23051
G1 X3.19013 Y22.57942
G03 X7.79709 Y19.32692 I3.2125 J-0.33867
G1 Z-1.
G03 X7.80697 Y19.33167 I-1.39446 J2.91383
X6.69962 Y25.48824 I-1.37135 J2.93122
G1 X6.69654 Y25.4885
G02 X4.74872 Y28.43486 I0.1891 J2.24204
G03 Y31.56514 I-4.74872 J1.56514
G02 X6.69654 Y34.5115 I2.13692 J0.70432
G03 X3.19045 Y37.41743 I-0.27315 J3.2385
G02 X0.65673 Y34.95668 I-2.23818 J-0.23024
G03 Y25.04332 I-0.65673 J-4.95668
G02 X3.19045 Y22.58257 I0.29554 J-2.23051
G1 X3.19013 Y22.57942
G03 X7.79709 Y19.32692 I3.2125 J-0.33867
G1 Z-1.5
G03 X7.80697 Y19.33167 I-1.39446 J2.91383
X6.69962 Y25.48824 I-1.37135 J2.93122
G1 X6.69654 Y25.4885
G02 X4.74872 Y28.43486 I0.1891 J2.24204
G03 Y31.56514 I-4.74872 J1.56514
G02 X6.69654 Y34.5115 I2.13692 J0.70432
G03 X3.19045 Y37.41743 I-0.27315 J3.2385
G02 X0.65673 Y34.95668 I-2.23818 J-0.23024
G03 Y25.04332 I-0.65673 J-4.95668
G02 X3.19045 Y22.58257 I0.29554 J-2.23051
G1 X3.19013 Y22.57942
G03 X7.79709 Y19.32692 I3.2125 J-0.33867
G1 Z-2.
G03 X7.80697 Y19.33167 I-1.39446 J2.91383
X6.69962 Y25.48824 I-1.37135 J2.93122
G1 X6.69654 Y25.4885
G02 X4.74872 Y28.43486 I0.1891 J2.24204
G03 Y31.56514 I-4.74872 J1.56514
G02 X6.69654 Y34.5115 I2.13692 J0.70432
G03 X3.19045 Y37.41743 I-0.27315 J3.2385
G02 X0.65673 Y34.95668 I-2.23818 J-0.23024
G03 Y25.04332 I-0.65673 J-4.95668
G02 X3.19045 Y22.58257 I0.29554 J-2.23051
G1 X3.19013 Y22.57942
G03 X7.79709 Y19.32692 I3.2125 J-0.33867
G1 Z-2.5
G03 X7.80697 Y19.33167 I-1.39446 J2.91383
X6.69962 Y25.48824 I-1.37135 J2.93122
G1 X6.69654 Y25.4885
G02 X4.74872 Y28.43486 I0.1891 J2.24204
G03 Y31.56514 I-4.74872 J1.56514
G02 X6.69654 Y34.5115 I2.13692 J0.70432
G03 X3.19045 Y37.41743 I-0.27315 J3.2385
G02 X0.65673 Y34.95668 I-2.23818 J-0.23024
G03 Y25.04332 I-0.65673 J-4.95668
G02 X3.19045 Y22.58257 I0.29554 J-2.23051
G1 X3.19013 Y22.57942
G03 X7.79709 Y19.32692 I3.2125 J-0.33867
G1 Z-3.
G03 X7.80697 Y19.33167 I-1.39446 J2.91383
X6.69962 Y25.48824 I-1.37135 J2.93122
G1 X6.69654 Y25.4885
G02 X4.74872 Y28.43486 I0.1891 J2.24204
G03 Y31.56514 I-4.74872 J1.56514
G02 X6.69654 Y34.5115 I2.13692 J0.70432
G03 X3.19045 Y37.41743 I-0.27315 J3.2385
G02 X0.65673 Y34.95668 I-2.23818 J-0.23024
G03 Y25.04332 I-0.65673 J-4.95668
G02 X3.19045 Y22.58257 I0.29554 J-2.23051
G1 X3.19013 Y22.57942
G03 X7.79709 Y19.32692 I3.2125 J-0.33867
G1 Z-3.5
G03 X7.80697 Y19.33167 I-1.39446 J2.91383
X6.69962 Y25.48824 I-1.37135 J2.93122
G1 X6.69654 Y25.4885
G02 X4.74872 Y28.43486 I0.1891 J2.24204
G03 Y31.56514 I-4.74872 J1.56514
G02 X6.69654 Y34.5115 I2.13692 J0.70432
G03 X3.19045 Y37.41743 I-0.27315 J3.2385
G02 X0.65673 Y34.95668 I-2.23818 J-0.23024
G03 Y25.04332 I-0.65673 J-4.95668
G02 X3.19045 Y22.58257 I0.29554 J-2.23051
G1 X3.19013 Y22.57942
G03 X7.79709 Y19.32692 I3.2125 J-0.33867
G0 Z1.
X-4.7019 Y43.2019
G1 Z-0.5 F390.5
G03 X-9.2981 Y47.7981 I-2.2981 J2.2981 F1562.
X-4.7019 Y43.2019 I2.2981 J-2.2981
G1 Z-1.
G03 X-9.2981 Y47.7981 I-2.2981 J2.2981
X-4.7019 Y43.2019 I2.2981 J-2.2981
G1 Z-1.5
G03 X-9.2981 Y47.7981 I-2.2981 J2.2981
X-4.7019 Y43.2019 I2.2981 J-2.2981
G1 Z-2.
G03 X-9.2981 Y47.7981 I-2.2981 J2.2981
X-4.7019 Y43.2019 I2.2981 J-2.2981
G1 Z-2.5
G03 X-9.2981 Y47.7981 I-2.2981 J2.2981
X-4.7019 Y43.2019 I2.2981 J-2.2981
G1 Z-3.
G03 X-9.2981 Y47.7981 I-2.2981 J2.2981
X-4.7019 Y43.2019 I2.2981 J-2.2981
G1 Z-3.5
G03 X-9.2981 Y47.7981 I-2.2981 J2.2981
X-4.7019 Y43.2019 I2.2981 J-2.2981
G0 Z1.
(2 1/2 Axis Profiling-Finish)
(SlotDrill 2mm Carbide)
X-4.79498 Y-43.95472
G1 Z-3.5 F132.
G03 X-5.08477 Y-42.57052 I-0.837 J0.54721 F396.
X-8.91523 Y-48.42948 I-1.91523 J-2.92948 F528.
X-5.08477 Y-42.57052 I1.91523 J2.92948
X-6.46897 Y-42.8603 I-0.54721 J-0.83699 F792.
G0 Z1.
X6.57129 Y-40.42823
G1 Z-3.5 F132.
G03 X7.905 Y-40.89857 I0.90203 J0.43168 F396.
X7.91291 Y-40.89478 I-1.50238 J3.13931 F528.
X6.72002 Y-34.26259 I-1.47729 J3.15767
G1 X6.71755 Y-34.26238
G02 X4.98615 Y-31.6434 I0.16809 J1.99292
G03 Y-28.3566 I-4.98615 J1.6434
G02 X6.71755 Y-25.73762 I1.89949 J0.62606
G03 X2.94177 Y-22.60815 I-0.29416 J3.48762
G02 X0.68957 Y-24.79548 I-1.9895 J-0.20466
G03 Y-35.20452 I-0.68957 J-5.20452
G02 X2.94177 Y-37.39185 I0.2627 J-1.98267
G1 X2.9415 Y-37.39437
G03 X7.905 Y-40.89857 I3.46112 J-0.36489
X8.37534 Y-39.56486 I-0.43168 J0.90202 F792.
G0 Z1.
X-5.93934 Y-16.97487
G1 Z-3.5 F132.
G03 X-4.52513 I0.70711 J0.7071 F396.
X-9.47487 Y-12.02513 I-2.47487 J2.47487 F528.
X-4.52513 Y-16.97487 I2.47487 J-2.47487
Y-15.56066 I-0.7071 J0.7071 F792.
G0 Z1.
X-4.79498 Y16.04528
G1 Z-3.5 F132.
G03 X-5.08477 Y17.42948 I-0.837 J0.54721 F396.
X-8.91523 Y11.57052 I-1.91523 J-2.92948 F528.
X-5.08477 Y17.42948 I1.91523 J2.92948
X-6.46897 Y17.1397 I-0.54721 J-0.83699 F792.
G0 Z1.
X6.57129 Y19.57177
G1 Z-3.5 F132.
G03 X7.905 Y19.10143 I0.90203 J0.43168 F396.
X7.91291 Y19.10522 I-1.50238 J3.13931 F528.
X6.72002 Y25.73741 I-1.47729 J3.15767
G1 X6.71755 Y25.73762
G02 X4.98615 Y28.3566 I0.16809 J1.99292
G03 Y31.6434 I-4.98615 J1.6434
G02 X6.71755 Y34.26238 I1.89949 J0.62606
G03 X2.94177 Y37.39185 I-0.29416 J3.48762
G02 X0.68957 Y35.20452 I-1.9895 J-0.20466
G03 Y24.79548 I-0.68957 J-5.20452
G02 X2.94177 Y22.60815 I0.2627 J-1.98267
G1 X2.9415 Y22.60563
G03 X7.905 Y19.10143 I3.46112 J-0.36489
X8.37534 Y20.43514 I-0.43168 J0.90202 F792.
G0 Z1.
X-5.93934 Y43.02513
G1 Z-3.5 F132.
G03 X-4.52513 I0.70711 J0.7071 F396.
X-9.47487 Y47.97487 I-2.47487 J2.47487 F528.
X-4.52513 Y43.02513 I2.47487 J-2.47487
Y44.43934 I-0.7071 J0.7071 F792.
G0 Z1.
(2 1/2 Axis Profiling)
(SlotDrill 2mm Carbide)
X15.03963 Y-51.18891
G1 Z0.77 F390.5
X14.46812 Y-51.59179 Z0.64671 F1171.5
X13.86514 Y-51.98996 Z0.51929
X13.25032 Y-52.36961 Z0.39188
X12.62424 Y-52.73038 Z0.26447
X11.98747 Y-53.07194 Z0.13706
X11.34061 Y-53.39397 Z0.00965
X10.68425 Y-53.69618 Z-0.11776
X10.01901 Y-53.97828 Z-0.24518
X9.34548 Y-54.24001 Z-0.37259
X8.66431 Y-54.48113 Z-0.5
G02 X-21.6894 Y-44.33771 I-8.7106 J24.42168 F1562.
X-20.16713 Y-41.24061 I1.6687 J1.10247
G03 X-22.54734 Y-34.96812 I-0.25626 J3.49061
G02 X-25.7411 Y-33.66001 I-1.21368 J1.58965
Y-26.33999 I25.7411 J3.66001
X-22.54734 Y-25.03188 I1.98008 J-0.28154
G03 X-20.16713 Y-18.75939 I2.12395 J2.78188
G02 X-21.68909 Y-15.66183 I0.14643 J1.99463
X17.53953 Y-10.80716 I21.68909 J-14.33817
X17.57584 Y-13.72589 I-1.3492 J-1.47638
G03 X21.4889 Y-19.41774 I2.42463 J-2.52411
G02 X23.75682 Y-19.81686 I0.85053 J-1.81014
G1 X23.91027 Y-20.01571
X23.96708 Y-20.128
G02 X24.38672 Y-38.97328 I-23.16947 J-9.94324
X21.51211 Y-40.59281 I-2.04523 J0.26928
G1 X21.4889 Y-40.58226
G03 X17.1408 Y-45.76799 I-1.48843 J-3.16774
G02 X18.05496 Y-48.43124 I-1.32637 J-1.9438
G1 X17.91096 Y-48.71454
X17.8071 Y-48.83546
G02 X8.66431 Y-54.48113 I-16.72685 J16.86212
G1 Z-1.
G02 X-21.6894 Y-44.33771 I-8.7106 J24.42168
X-20.16713 Y-41.24061 I1.6687 J1.10247
G03 X-22.54734 Y-34.96812 I-0.25626 J3.49061
G02 X-25.7411 Y-33.66001 I-1.21368 J1.58965
Y-26.33999 I25.7411 J3.66001
X-22.54734 Y-25.03188 I1.98008 J-0.28154
G03 X-20.16713 Y-18.75939 I2.12395 J2.78188
G02 X-21.68909 Y-15.66183 I0.14643 J1.99463
X17.53953 Y-10.80716 I21.68909 J-14.33817
X17.57584 Y-13.72589 I-1.3492 J-1.47638
G03 X21.4889 Y-19.41774 I2.42463 J-2.52411
G02 X23.75682 Y-19.81686 I0.85053 J-1.81014
G1 X23.91027 Y-20.01571
X23.96708 Y-20.128
G02 X24.38672 Y-38.97328 I-23.16947 J-9.94324
X21.51211 Y-40.59281 I-2.04523 J0.26928
G1 X21.4889 Y-40.58226
G03 X17.1408 Y-45.76799 I-1.48843 J-3.16774
G02 X18.05496 Y-48.43124 I-1.32637 J-1.9438
G1 X17.91096 Y-48.71454
X17.8071 Y-48.83546
G02 X8.66431 Y-54.48113 I-16.72685 J16.86212
G1 Z-1.5
G02 X-21.6894 Y-44.33771 I-8.7106 J24.42168
X-20.16713 Y-41.24061 I1.6687 J1.10247
G03 X-22.54734 Y-34.96812 I-0.25626 J3.49061
G02 X-25.7411 Y-33.66001 I-1.21368 J1.58965
Y-26.33999 I25.7411 J3.66001
X-22.54734 Y-25.03188 I1.98008 J-0.28154
G03 X-20.16713 Y-18.75939 I2.12395 J2.78188
G02 X-21.68909 Y-15.66183 I0.14643 J1.99463
X17.53953 Y-10.80716 I21.68909 J-14.33817
X17.57584 Y-13.72589 I-1.3492 J-1.47638
G03 X21.4889 Y-19.41774 I2.42463 J-2.52411
G02 X23.75682 Y-19.81686 I0.85053 J-1.81014
G1 X23.91027 Y-20.01571
X23.96708 Y-20.128
G02 X24.38672 Y-38.97328 I-23.16947 J-9.94324
X21.51211 Y-40.59281 I-2.04523 J0.26928
G1 X21.4889 Y-40.58226
G03 X17.1408 Y-45.76799 I-1.48843 J-3.16774
G02 X18.05496 Y-48.43124 I-1.32637 J-1.9438
G1 X17.91096 Y-48.71454
X17.8071 Y-48.83546
G02 X8.66431 Y-54.48113 I-16.72685 J16.86212
G1 Z-2.
G02 X-21.6894 Y-44.33771 I-8.7106 J24.42168
X-20.16713 Y-41.24061 I1.6687 J1.10247
G03 X-22.54734 Y-34.96812 I-0.25626 J3.49061
G02 X-25.7411 Y-33.66001 I-1.21368 J1.58965
Y-26.33999 I25.7411 J3.66001
X-22.54734 Y-25.03188 I1.98008 J-0.28154
G03 X-20.16713 Y-18.75939 I2.12395 J2.78188
G02 X-21.68909 Y-15.66183 I0.14643 J1.99463
X17.53953 Y-10.80716 I21.68909 J-14.33817
X17.57584 Y-13.72589 I-1.3492 J-1.47638
G03 X21.4889 Y-19.41774 I2.42463 J-2.52411
G02 X23.75682 Y-19.81686 I0.85053 J-1.81014
G1 X23.91027 Y-20.01571
X23.96708 Y-20.128
G02 X24.38672 Y-38.97328 I-23.16947 J-9.94324
X21.51211 Y-40.59281 I-2.04523 J0.26928
G1 X21.4889 Y-40.58226
G03 X17.1408 Y-45.76799 I-1.48843 J-3.16774
G02 X18.05496 Y-48.43124 I-1.32637 J-1.9438
G1 X17.91096 Y-48.71454
X17.8071 Y-48.83546
G02 X8.66431 Y-54.48113 I-16.72685 J16.86212
G1 Z-2.5
G02 X-21.6894 Y-44.33771 I-8.7106 J24.42168
X-20.16713 Y-41.24061 I1.6687 J1.10247
G03 X-22.54734 Y-34.96812 I-0.25626 J3.49061
G02 X-25.7411 Y-33.66001 I-1.21368 J1.58965
Y-26.33999 I25.7411 J3.66001
X-22.54734 Y-25.03188 I1.98008 J-0.28154
G03 X-20.16713 Y-18.75939 I2.12395 J2.78188
G02 X-21.68909 Y-15.66183 I0.14643 J1.99463
X17.53953 Y-10.80716 I21.68909 J-14.33817
X17.57584 Y-13.72589 I-1.3492 J-1.47638
G03 X21.4889 Y-19.41774 I2.42463 J-2.52411
G02 X23.75682 Y-19.81686 I0.85053 J-1.81014
G1 X23.91027 Y-20.01571
X23.96708 Y-20.128
G02 X24.38672 Y-38.97328 I-23.16947 J-9.94324
X21.51211 Y-40.59281 I-2.04523 J0.26928
G1 X21.4889 Y-40.58226
G03 X17.1408 Y-45.76799 I-1.48843 J-3.16774
G02 X18.05496 Y-48.43124 I-1.32637 J-1.9438
G1 X17.91096 Y-48.71454
X17.8071 Y-48.83546
G02 X8.66431 Y-54.48113 I-16.72685 J16.86212
G1 Z-3.
G02 X-21.6894 Y-44.33771 I-8.7106 J24.42168
X-20.16713 Y-41.24061 I1.6687 J1.10247
G03 X-22.54734 Y-34.96812 I-0.25626 J3.49061
G02 X-25.7411 Y-33.66001 I-1.21368 J1.58965
Y-26.33999 I25.7411 J3.66001
X-22.54734 Y-25.03188 I1.98008 J-0.28154
G03 X-20.16713 Y-18.75939 I2.12395 J2.78188
G02 X-21.68909 Y-15.66183 I0.14643 J1.99463
X17.53953 Y-10.80716 I21.68909 J-14.33817
X17.57584 Y-13.72589 I-1.3492 J-1.47638
G03 X21.4889 Y-19.41774 I2.42463 J-2.52411
G02 X23.75682 Y-19.81686 I0.85053 J-1.81014
G1 X23.91027 Y-20.01571
X23.96708 Y-20.128
G02 X24.38672 Y-38.97328 I-23.16947 J-9.94324
X21.51211 Y-40.59281 I-2.04523 J0.26928
G1 X21.4889 Y-40.58226
G03 X17.1408 Y-45.76799 I-1.48843 J-3.16774
G02 X18.05496 Y-48.43124 I-1.32637 J-1.9438
G1 X17.91096 Y-48.71454
X17.8071 Y-48.83546
G02 X8.66431 Y-54.48113 I-16.72685 J16.86212
G1 Z-3.5
G02 X-21.6894 Y-44.33771 I-8.7106 J24.42168
X-20.16713 Y-41.24061 I1.6687 J1.10247
G03 X-22.54734 Y-34.96812 I-0.25626 J3.49061
G02 X-25.7411 Y-33.66001 I-1.21368 J1.58965
Y-26.33999 I25.7411 J3.66001
X-22.54734 Y-25.03188 I1.98008 J-0.28154
G03 X-20.16713 Y-18.75939 I2.12395 J2.78188
G02 X-21.68909 Y-15.66183 I0.14643 J1.99463
X17.53953 Y-10.80716 I21.68909 J-14.33817
X17.57584 Y-13.72589 I-1.3492 J-1.47638
G03 X21.4889 Y-19.41774 I2.42463 J-2.52411
G02 X23.75682 Y-19.81686 I0.85053 J-1.81014
G1 X23.91027 Y-20.01571
X23.96708 Y-20.128
G02 X24.38672 Y-38.97328 I-23.16947 J-9.94324
X21.51211 Y-40.59281 I-2.04523 J0.26928
G1 X21.4889 Y-40.58226
G03 X17.1408 Y-45.76799 I-1.48843 J-3.16774
G02 X18.05496 Y-48.43124 I-1.32637 J-1.9438
G1 X17.91096 Y-48.71454
X17.8071 Y-48.83546
G02 X8.66431 Y-54.48113 I-16.72685 J16.86212
G0 Z1.
X15.03963 Y8.81109
G1 Z0.77 F390.5
X14.46812 Y8.40821 Z0.64671 F1171.5
X13.86514 Y8.01004 Z0.51929
X13.25032 Y7.63039 Z0.39188
X12.62424 Y7.26962 Z0.26447
X11.98747 Y6.92806 Z0.13706
X11.34061 Y6.60603 Z0.00965
X10.68425 Y6.30382 Z-0.11776
X10.01901 Y6.02172 Z-0.24518
X9.34548 Y5.75999 Z-0.37259
X8.66431 Y5.51887 Z-0.5
G02 X-21.6894 Y15.66229 I-8.7106 J24.42168 F1562.
X-20.16713 Y18.75939 I1.6687 J1.10247
G03 X-22.54734 Y25.03188 I-0.25626 J3.49061
G02 X-25.7411 Y26.33999 I-1.21368 J1.58965
Y33.66001 I25.7411 J3.66001
X-22.54734 Y34.96812 I1.98008 J-0.28154
G03 X-20.16713 Y41.24061 I2.12395 J2.78188
G02 X-21.68909 Y44.33817 I0.14643 J1.99463
X17.53953 Y49.19284 I21.68909 J-14.33817
X17.57584 Y46.27411 I-1.3492 J-1.47638
G03 X21.4889 Y40.58226 I2.42463 J-2.52411
G02 X23.75682 Y40.18314 I0.85053 J-1.81014
G1 X23.91027 Y39.98429
X23.96708 Y39.872
G02 X24.38672 Y21.02672 I-23.16947 J-9.94324
X21.51211 Y19.40719 I-2.04523 J0.26928
G1 X21.4889 Y19.41774
G03 X17.1408 Y14.23201 I-1.48843 J-3.16774
G02 X18.05496 Y11.56876 I-1.32637 J-1.9438
G1 X17.91096 Y11.28546
X17.8071 Y11.16454
G02 X8.66431 Y5.51887 I-16.72685 J16.86212
G1 Z-1.
G02 X-21.6894 Y15.66229 I-8.7106 J24.42168
X-20.16713 Y18.75939 I1.6687 J1.10247
G03 X-22.54734 Y25.03188 I-0.25626 J3.49061
G02 X-25.7411 Y26.33999 I-1.21368 J1.58965
Y33.66001 I25.7411 J3.66001
X-22.54734 Y34.96812 I1.98008 J-0.28154
G03 X-20.16713 Y41.24061 I2.12395 J2.78188
G02 X-21.68909 Y44.33817 I0.14643 J1.99463
X17.53953 Y49.19284 I21.68909 J-14.33817
X17.57584 Y46.27411 I-1.3492 J-1.47638
G03 X21.4889 Y40.58226 I2.42463 J-2.52411
G02 X23.75682 Y40.18314 I0.85053 J-1.81014
G1 X23.91027 Y39.98429
X23.96708 Y39.872
G02 X24.38672 Y21.02672 I-23.16947 J-9.94324
X21.51211 Y19.40719 I-2.04523 J0.26928
G1 X21.4889 Y19.41774
G03 X17.1408 Y14.23201 I-1.48843 J-3.16774
G02 X18.05496 Y11.56876 I-1.32637 J-1.9438
G1 X17.91096 Y11.28546
X17.8071 Y11.16454
G02 X8.66431 Y5.51887 I-16.72685 J16.86212
G1 Z-1.5
G02 X-21.6894 Y15.66229 I-8.7106 J24.42168
X-20.16713 Y18.75939 I1.6687 J1.10247
G03 X-22.54734 Y25.03188 I-0.25626 J3.49061
G02 X-25.7411 Y26.33999 I-1.21368 J1.58965
Y33.66001 I25.7411 J3.66001
X-22.54734 Y34.96812 I1.98008 J-0.28154
G03 X-20.16713 Y41.24061 I2.12395 J2.78188
G02 X-21.68909 Y44.33817 I0.14643 J1.99463
X17.53953 Y49.19284 I21.68909 J-14.33817
X17.57584 Y46.27411 I-1.3492 J-1.47638
G03 X21.4889 Y40.58226 I2.42463 J-2.52411
G02 X23.75682 Y40.18314 I0.85053 J-1.81014
G1 X23.91027 Y39.98429
X23.96708 Y39.872
G02 X24.38672 Y21.02672 I-23.16947 J-9.94324
X21.51211 Y19.40719 I-2.04523 J0.26928
G1 X21.4889 Y19.41774
G03 X17.1408 Y14.23201 I-1.48843 J-3.16774
G02 X18.05496 Y11.56876 I-1.32637 J-1.9438
G1 X17.91096 Y11.28546
X17.8071 Y11.16454
G02 X8.66431 Y5.51887 I-16.72685 J16.86212
G1 Z-2.
G02 X-21.6894 Y15.66229 I-8.7106 J24.42168
X-20.16713 Y18.75939 I1.6687 J1.10247
G03 X-22.54734 Y25.03188 I-0.25626 J3.49061
G02 X-25.7411 Y26.33999 I-1.21368 J1.58965
Y33.66001 I25.7411 J3.66001
X-22.54734 Y34.96812 I1.98008 J-0.28154
G03 X-20.16713 Y41.24061 I2.12395 J2.78188
G02 X-21.68909 Y44.33817 I0.14643 J1.99463
X17.53953 Y49.19284 I21.68909 J-14.33817
X17.57584 Y46.27411 I-1.3492 J-1.47638
G03 X21.4889 Y40.58226 I2.42463 J-2.52411
G02 X23.75682 Y40.18314 I0.85053 J-1.81014
G1 X23.91027 Y39.98429
X23.96708 Y39.872
G02 X24.38672 Y21.02672 I-23.16947 J-9.94324
X21.51211 Y19.40719 I-2.04523 J0.26928
G1 X21.4889 Y19.41774
G03 X17.1408 Y14.23201 I-1.48843 J-3.16774
G02 X18.05496 Y11.56876 I-1.32637 J-1.9438
G1 X17.91096 Y11.28546
X17.8071 Y11.16454
G02 X8.66431 Y5.51887 I-16.72685 J16.86212
G1 Z-2.5
G02 X-21.6894 Y15.66229 I-8.7106 J24.42168
X-20.16713 Y18.75939 I1.6687 J1.10247
G03 X-22.54734 Y25.03188 I-0.25626 J3.49061
G02 X-25.7411 Y26.33999 I-1.21368 J1.58965
Y33.66001 I25.7411 J3.66001
X-22.54734 Y34.96812 I1.98008 J-0.28154
G03 X-20.16713 Y41.24061 I2.12395 J2.78188
G02 X-21.68909 Y44.33817 I0.14643 J1.99463
X17.53953 Y49.19284 I21.68909 J-14.33817
X17.57584 Y46.27411 I-1.3492 J-1.47638
G03 X21.4889 Y40.58226 I2.42463 J-2.52411
G02 X23.75682 Y40.18314 I0.85053 J-1.81014
G1 X23.91027 Y39.98429
X23.96708 Y39.872
G02 X24.38672 Y21.02672 I-23.16947 J-9.94324
X21.51211 Y19.40719 I-2.04523 J0.26928
G1 X21.4889 Y19.41774
G03 X17.1408 Y14.23201 I-1.48843 J-3.16774
G02 X18.05496 Y11.56876 I-1.32637 J-1.9438
G1 X17.91096 Y11.28546
X17.8071 Y11.16454
G02 X8.66431 Y5.51887 I-16.72685 J16.86212
G1 Z-3.
G02 X-21.6894 Y15.66229 I-8.7106 J24.42168
X-20.16713 Y18.75939 I1.6687 J1.10247
G03 X-22.54734 Y25.03188 I-0.25626 J3.49061
G02 X-25.7411 Y26.33999 I-1.21368 J1.58965
Y33.66001 I25.7411 J3.66001
X-22.54734 Y34.96812 I1.98008 J-0.28154
G03 X-20.16713 Y41.24061 I2.12395 J2.78188
G02 X-21.68909 Y44.33817 I0.14643 J1.99463
X17.53953 Y49.19284 I21.68909 J-14.33817
X17.57584 Y46.27411 I-1.3492 J-1.47638
G03 X21.4889 Y40.58226 I2.42463 J-2.52411
G02 X23.75682 Y40.18314 I0.85053 J-1.81014
G1 X23.91027 Y39.98429
X23.96708 Y39.872
G02 X24.38672 Y21.02672 I-23.16947 J-9.94324
X21.51211 Y19.40719 I-2.04523 J0.26928
G1 X21.4889 Y19.41774
G03 X17.1408 Y14.23201 I-1.48843 J-3.16774
G02 X18.05496 Y11.56876 I-1.32637 J-1.9438
G1 X17.91096 Y11.28546
X17.8071 Y11.16454
G02 X8.66431 Y5.51887 I-16.72685 J16.86212
G1 Z-3.5
G02 X-21.6894 Y15.66229 I-8.7106 J24.42168
X-20.16713 Y18.75939 I1.6687 J1.10247
G03 X-22.54734 Y25.03188 I-0.25626 J3.49061
G02 X-25.7411 Y26.33999 I-1.21368 J1.58965
Y33.66001 I25.7411 J3.66001
X-22.54734 Y34.96812 I1.98008 J-0.28154
G03 X-20.16713 Y41.24061 I2.12395 J2.78188
G02 X-21.68909 Y44.33817 I0.14643 J1.99463
X17.53953 Y49.19284 I21.68909 J-14.33817
X17.57584 Y46.27411 I-1.3492 J-1.47638
G03 X21.4889 Y40.58226 I2.42463 J-2.52411
G02 X23.75682 Y40.18314 I0.85053 J-1.81014
G1 X23.91027 Y39.98429
X23.96708 Y39.872
G02 X24.38672 Y21.02672 I-23.16947 J-9.94324
X21.51211 Y19.40719 I-2.04523 J0.26928
G1 X21.4889 Y19.41774
G03 X17.1408 Y14.23201 I-1.48843 J-3.16774
G02 X18.05496 Y11.56876 I-1.32637 J-1.9438
G1 X17.91096 Y11.28546
X17.8071 Y11.16454
G02 X8.66431 Y5.51887 I-16.72685 J16.86212
G0 Z1.
M30
%
