%
G17 G21 G40 G90 G64 P0.1
(Hole Pocketing)
(SlotDrill 2mm Carbide)
T12 M06
S23873 M3
G0 Z1.
X24.17362 Y8.99308
G1 Z0.635 F596.7
G17
G3 Z0.25125 I-0.17362 J0.00692 F2387.
Z-0.1325 I-0.17362 J0.00692
Z-0.51625 I-0.17362 J0.00692
Z-0.9 I-0.17362 J0.00692
G1 X24.17358 Y9.16028
X24.01189 Y9.29852
X23.75492 Y9.26542
X23.57657 Y9.01687
X23.64275 Y8.67012
X23.97816 Y8.45167
X24.41468 Y8.55091
X24.67323 Y8.97318
X24.6569 Y9.26166
X24.51695 Y9.53009
X24.25917 Y9.70134
G03 X23.74083 Y8.29866 I-0.25917 J-0.70134
X24.25917 Y9.70134 I0.25917 J0.70134
G1 X24.17362 Y8.99308
G3 Z-1.35 I-0.17362 J0.00692
Z-1.8 I-0.17362 J0.00692
G1 X24.17358 Y9.16028
X24.01189 Y9.29852
X23.75492 Y9.26542
X23.57657 Y9.01687
X23.64275 Y8.67012
X23.97816 Y8.45167
X24.41468 Y8.55091
X24.67323 Y8.97318
X24.6569 Y9.26166
X24.51695 Y9.53009
X24.25917 Y9.70134
G03 X23.74083 Y8.29866 I-0.25917 J-0.70134
X24.25917 Y9.70134 I0.25917 J0.70134
G1 X24.17362 Y8.99308
G3 Z-2.25 I-0.17362 J0.00692
Z-2.7 I-0.17362 J0.00692
G1 X24.17358 Y9.16028
X24.01189 Y9.29852
X23.75492 Y9.26542
X23.57657 Y9.01687
X23.64275 Y8.67012
X23.97816 Y8.45167
X24.41468 Y8.55091
X24.67323 Y8.97318
X24.6569 Y9.26166
X24.51695 Y9.53009
X24.25917 Y9.70134
G03 X23.74083 Y8.29866 I-0.25917 J-0.70134
X24.25917 Y9.70134 I0.25917 J0.70134
G1 X24.17362 Y8.99308
G3 Z-3.15 I-0.17362 J0.00692
Z-3.6 I-0.17362 J0.00692
G1 X24.17358 Y9.16028
X24.01189 Y9.29852
X23.75492 Y9.26542
X23.57657 Y9.01687
X23.64275 Y8.67012
X23.97816 Y8.45167
X24.41468 Y8.55091
X24.67323 Y8.97318
X24.6569 Y9.26166
X24.51695 Y9.53009
X24.25917 Y9.70134
G03 X23.74083 Y8.29866 I-0.25917 J-0.70134
X24.25917 Y9.70134 I0.25917 J0.70134
G1 X24.17362 Y8.99308
G3 Z-4.05 I-0.17362 J0.00692
Z-4.5 I-0.17362 J0.00692
G1 X24.17358 Y9.16028
X24.01189 Y9.29852
X23.75492 Y9.26542
X23.57657 Y9.01687
X23.64275 Y8.67012
X23.97816 Y8.45167
X24.41468 Y8.55091
X24.67323 Y8.97318
X24.6569 Y9.26166
X24.51695 Y9.53009
X24.25917 Y9.70134
G03 X23.74083 Y8.29866 I-0.25917 J-0.70134
X24.25917 Y9.70134 I0.25917 J0.70134
G1 X24.17362 Y8.99308
X24. Y9.
G0 Z1.
X27.41862 Y40.55808
G1 Z0.635 F596.7
G3 Z0.25125 I-0.17362 J0.00692 F2387.
Z-0.1325 I-0.17362 J0.00692
Z-0.51625 I-0.17362 J0.00692
Z-0.9 I-0.17362 J0.00692
G1 X27.41858 Y40.72528
X27.25689 Y40.86352
X26.99992 Y40.83042
X26.82157 Y40.58187
X26.88775 Y40.23512
X27.22316 Y40.01667
X27.65968 Y40.11591
X27.91823 Y40.53818
X27.9019 Y40.82666
X27.76195 Y41.09509
X27.51321 Y41.29079
X27.19265 Y41.3704
X26.85409 Y41.30898
X26.55911 Y41.10631
X26.36594 Y40.78876
X26.31807 Y40.40624
X26.43505 Y40.02445
X26.70714 Y39.71356
X27.09515 Y39.53542
X27.5359 Y39.53139
X27.95246 Y39.71343
X28.26754 Y40.06005
X28.41783 Y40.51828
X28.39893 Y40.88977
X28.26289 Y41.24433
X28.01863 Y41.54525
X27.68652 Y41.75979
X27.29669 Y41.86273
X26.88637 Y41.83926
X26.49628 Y41.68686
X26.16662 Y41.41607
X25.93296 Y41.04985
X25.82237 Y40.62167
X25.85042 Y40.1725
X26.01917 Y39.74689
X26.31649 Y39.3885
X26.71682 Y39.13571
X27.18336 Y39.01746
X27.67136 Y39.05009
X28.1325 Y39.2352
X28.51962 Y39.55905
X28.79154 Y39.9935
X28.91744 Y40.49838
X28.89801 Y40.93809
X28.76357 Y41.3629
X28.52062 Y41.74288
X28.18342 Y42.05051
X27.77315 Y42.26267
X27.31659 Y42.36234
X26.84438 Y42.33995
X26.38895 Y42.19422
X25.98232 Y41.93245
X25.6538 Y41.57018
X25.42797 Y41.13028
X25.32276 Y40.64157
X25.34812 Y40.13686
X25.50512 Y39.65081
X25.78571 Y39.21752
X26.17806 Y38.87604
G03 X28.31194 Y42.25396 I1.06694 J1.68896
X26.17806 Y38.87604 I-1.06694 J-1.68896
G1 X27.41862 Y40.55808
G3 Z-1.35 I-0.17362 J0.00692
Z-1.8 I-0.17362 J0.00692
G1 X27.41858 Y40.72528
X27.25689 Y40.86352
X26.99992 Y40.83042
X26.82157 Y40.58187
X26.88775 Y40.23512
X27.22316 Y40.01667
X27.65968 Y40.11591
X27.91823 Y40.53818
X27.9019 Y40.82666
X27.76195 Y41.09509
X27.51321 Y41.29079
X27.19265 Y41.3704
X26.85409 Y41.30898
X26.55911 Y41.10631
X26.36594 Y40.78876
X26.31807 Y40.40624
X26.43505 Y40.02445
X26.70714 Y39.71356
X27.09515 Y39.53542
X27.5359 Y39.53139
X27.95246 Y39.71343
X28.26754 Y40.06005
X28.41783 Y40.51828
X28.39893 Y40.88977
X28.26289 Y41.24433
X28.01863 Y41.54525
X27.68652 Y41.75979
X27.29669 Y41.86273
X26.88637 Y41.83926
X26.49628 Y41.68686
X26.16662 Y41.41607
X25.93296 Y41.04985
X25.82237 Y40.62167
X25.85042 Y40.1725
X26.01917 Y39.74689
X26.31649 Y39.3885
X26.71682 Y39.13571
X27.18336 Y39.01746
X27.67136 Y39.05009
X28.1325 Y39.2352
X28.51962 Y39.55905
X28.79154 Y39.9935
X28.91744 Y40.49838
X28.89801 Y40.93809
X28.76357 Y41.3629
X28.52062 Y41.74288
X28.18342 Y42.05051
X27.77315 Y42.26267
X27.31659 Y42.36234
X26.84438 Y42.33995
X26.38895 Y42.19422
X25.98232 Y41.93245
X25.6538 Y41.57018
X25.42797 Y41.13028
X25.32276 Y40.64157
X25.34812 Y40.13686
X25.50512 Y39.65081
X25.78571 Y39.21752
X26.17806 Y38.87604
G03 X28.31194 Y42.25396 I1.06694 J1.68896
X26.17806 Y38.87604 I-1.06694 J-1.68896
G1 X27.41862 Y40.55808
G3 Z-2.25 I-0.17362 J0.00692
Z-2.7 I-0.17362 J0.00692
G1 X27.41858 Y40.72528
X27.25689 Y40.86352
X26.99992 Y40.83042
X26.82157 Y40.58187
X26.88775 Y40.23512
X27.22316 Y40.01667
X27.65968 Y40.11591
X27.91823 Y40.53818
X27.9019 Y40.82666
X27.76195 Y41.09509
X27.51321 Y41.29079
X27.19265 Y41.3704
X26.85409 Y41.30898
X26.55911 Y41.10631
X26.36594 Y40.78876
X26.31807 Y40.40624
X26.43505 Y40.02445
X26.70714 Y39.71356
X27.09515 Y39.53542
X27.5359 Y39.53139
X27.95246 Y39.71343
X28.26754 Y40.06005
X28.41783 Y40.51828
X28.39893 Y40.88977
X28.26289 Y41.24433
X28.01863 Y41.54525
X27.68652 Y41.75979
X27.29669 Y41.86273
X26.88637 Y41.83926
X26.49628 Y41.68686
X26.16662 Y41.41607
X25.93296 Y41.04985
X25.82237 Y40.62167
X25.85042 Y40.1725
X26.01917 Y39.74689
X26.31649 Y39.3885
X26.71682 Y39.13571
X27.18336 Y39.01746
X27.67136 Y39.05009
X28.1325 Y39.2352
X28.51962 Y39.55905
X28.79154 Y39.9935
X28.91744 Y40.49838
X28.89801 Y40.93809
X28.76357 Y41.3629
X28.52062 Y41.74288
X28.18342 Y42.05051
X27.77315 Y42.26267
X27.31659 Y42.36234
X26.84438 Y42.33995
X26.38895 Y42.19422
X25.98232 Y41.93245
X25.6538 Y41.57018
X25.42797 Y41.13028
X25.32276 Y40.64157
X25.34812 Y40.13686
X25.50512 Y39.65081
X25.78571 Y39.21752
X26.17806 Y38.87604
G03 X28.31194 Y42.25396 I1.06694 J1.68896
X26.17806 Y38.87604 I-1.06694 J-1.68896
G1 X27.41862 Y40.55808
G3 Z-3.15 I-0.17362 J0.00692
Z-3.6 I-0.17362 J0.00692
G1 X27.41858 Y40.72528
X27.25689 Y40.86352
X26.99992 Y40.83042
X26.82157 Y40.58187
X26.88775 Y40.23512
X27.22316 Y40.01667
X27.65968 Y40.11591
X27.91823 Y40.53818
X27.9019 Y40.82666
X27.76195 Y41.09509
X27.51321 Y41.29079
X27.19265 Y41.3704
X26.85409 Y41.30898
X26.55911 Y41.10631
X26.36594 Y40.78876
X26.31807 Y40.40624
X26.43505 Y40.02445
X26.70714 Y39.71356
X27.09515 Y39.53542
X27.5359 Y39.53139
X27.95246 Y39.71343
X28.26754 Y40.06005
X28.41783 Y40.51828
X28.39893 Y40.88977
X28.26289 Y41.24433
X28.01863 Y41.54525
X27.68652 Y41.75979
X27.29669 Y41.86273
X26.88637 Y41.83926
X26.49628 Y41.68686
X26.16662 Y41.41607
X25.93296 Y41.04985
X25.82237 Y40.62167
X25.85042 Y40.1725
X26.01917 Y39.74689
X26.31649 Y39.3885
X26.71682 Y39.13571
X27.18336 Y39.01746
X27.67136 Y39.05009
X28.1325 Y39.2352
X28.51962 Y39.55905
X28.79154 Y39.9935
X28.91744 Y40.49838
X28.89801 Y40.93809
X28.76357 Y41.3629
X28.52062 Y41.74288
X28.18342 Y42.05051
X27.77315 Y42.26267
X27.31659 Y42.36234
X26.84438 Y42.33995
X26.38895 Y42.19422
X25.98232 Y41.93245
X25.6538 Y41.57018
X25.42797 Y41.13028
X25.32276 Y40.64157
X25.34812 Y40.13686
X25.50512 Y39.65081
X25.78571 Y39.21752
X26.17806 Y38.87604
G03 X28.31194 Y42.25396 I1.06694 J1.68896
X26.17806 Y38.87604 I-1.06694 J-1.68896
G1 X27.41862 Y40.55808
G3 Z-4.05 I-0.17362 J0.00692
Z-4.5 I-0.17362 J0.00692
G1 X27.41858 Y40.72528
X27.25689 Y40.86352
X26.99992 Y40.83042
X26.82157 Y40.58187
X26.88775 Y40.23512
X27.22316 Y40.01667
X27.65968 Y40.11591
X27.91823 Y40.53818
X27.9019 Y40.82666
X27.76195 Y41.09509
X27.51321 Y41.29079
X27.19265 Y41.3704
X26.85409 Y41.30898
X26.55911 Y41.10631
X26.36594 Y40.78876
X26.31807 Y40.40624
X26.43505 Y40.02445
X26.70714 Y39.71356
X27.09515 Y39.53542
X27.5359 Y39.53139
X27.95246 Y39.71343
X28.26754 Y40.06005
X28.41783 Y40.51828
X28.39893 Y40.88977
X28.26289 Y41.24433
X28.01863 Y41.54525
X27.68652 Y41.75979
X27.29669 Y41.86273
X26.88637 Y41.83926
X26.49628 Y41.68686
X26.16662 Y41.41607
X25.93296 Y41.04985
X25.82237 Y40.62167
X25.85042 Y40.1725
X26.01917 Y39.74689
X26.31649 Y39.3885
X26.71682 Y39.13571
X27.18336 Y39.01746
X27.67136 Y39.05009
X28.1325 Y39.2352
X28.51962 Y39.55905
X28.79154 Y39.9935
X28.91744 Y40.49838
X28.89801 Y40.93809
X28.76357 Y41.3629
X28.52062 Y41.74288
X28.18342 Y42.05051
X27.77315 Y42.26267
X27.31659 Y42.36234
X26.84438 Y42.33995
X26.38895 Y42.19422
X25.98232 Y41.93245
X25.6538 Y41.57018
X25.42797 Y41.13028
X25.32276 Y40.64157
X25.34812 Y40.13686
X25.50512 Y39.65081
X25.78571 Y39.21752
X26.17806 Y38.87604
G03 X28.31194 Y42.25396 I1.06694 J1.68896
X26.17806 Y38.87604 I-1.06694 J-1.68896
G1 X27.41862 Y40.55808
X27.245 Y40.565
G0 Z1.
X34.13362 Y60.61308
G1 Z0.635 F596.7
G3 Z0.25125 I-0.17362 J0.00692 F2387.
Z-0.1325 I-0.17362 J0.00692
Z-0.51625 I-0.17362 J0.00692
Z-0.9 I-0.17362 J0.00692
G1 X34.13358 Y60.78028
X33.97189 Y60.91852
X33.71492 Y60.88542
X33.53657 Y60.63687
X33.60275 Y60.29012
X33.93816 Y60.07167
X34.37468 Y60.17091
X34.63323 Y60.59318
X34.6169 Y60.88166
X34.47695 Y61.15009
X34.22821 Y61.34579
X33.90765 Y61.4254
X33.56909 Y61.36398
X33.27411 Y61.16131
X33.08094 Y60.84376
X33.03307 Y60.46124
X33.15005 Y60.07945
X33.42214 Y59.76856
X33.81015 Y59.59042
X34.2509 Y59.58639
X34.66746 Y59.76843
X34.98255 Y60.11505
X35.13283 Y60.57328
X35.11393 Y60.94477
X34.97789 Y61.29933
X34.73363 Y61.60025
X34.40152 Y61.81479
X34.01169 Y61.91773
X33.60137 Y61.89426
X33.21128 Y61.74186
X32.88162 Y61.47107
X32.64796 Y61.10485
X32.53737 Y60.67667
X32.56542 Y60.2275
X32.73417 Y59.80189
X33.03149 Y59.4435
X33.43182 Y59.19071
X33.89836 Y59.07246
X34.38636 Y59.10509
X34.8475 Y59.2902
X35.23462 Y59.61405
X35.50654 Y60.0485
X35.63244 Y60.55338
X35.61301 Y60.99309
X35.47857 Y61.4179
X35.23562 Y61.79788
X34.89842 Y62.10551
X34.48815 Y62.31767
X34.0316 Y62.41734
X33.55938 Y62.39495
X33.10395 Y62.24922
X32.69732 Y61.98745
X32.3688 Y61.62518
X32.14297 Y61.18528
X32.03776 Y60.69657
X32.06312 Y60.19186
X32.22012 Y59.70581
X32.50071 Y59.27252
X32.89306 Y58.93104
G03 X35.02694 Y62.30896 I1.06694 J1.68896
X32.89306 Y58.93104 I-1.06694 J-1.68896
G1 X34.13362 Y60.61308
G3 Z-1.35 I-0.17362 J0.00692
Z-1.8 I-0.17362 J0.00692
G1 X34.13358 Y60.78028
X33.97189 Y60.91852
X33.71492 Y60.88542
X33.53657 Y60.63687
X33.60275 Y60.29012
X33.93816 Y60.07167
X34.37468 Y60.17091
X34.63323 Y60.59318
X34.6169 Y60.88166
X34.47695 Y61.15009
X34.22821 Y61.34579
X33.90765 Y61.4254
X33.56909 Y61.36398
X33.27411 Y61.16131
X33.08094 Y60.84376
X33.03307 Y60.46124
X33.15005 Y60.07945
X33.42214 Y59.76856
X33.81015 Y59.59042
X34.2509 Y59.58639
X34.66746 Y59.76843
X34.98255 Y60.11505
X35.13283 Y60.57328
X35.11393 Y60.94477
X34.97789 Y61.29933
X34.73363 Y61.60025
X34.40152 Y61.81479
X34.01169 Y61.91773
X33.60137 Y61.89426
X33.21128 Y61.74186
X32.88162 Y61.47107
X32.64796 Y61.10485
X32.53737 Y60.67667
X32.56542 Y60.2275
X32.73417 Y59.80189
X33.03149 Y59.4435
X33.43182 Y59.19071
X33.89836 Y59.07246
X34.38636 Y59.10509
X34.8475 Y59.2902
X35.23462 Y59.61405
X35.50654 Y60.0485
X35.63244 Y60.55338
X35.61301 Y60.99309
X35.47857 Y61.4179
X35.23562 Y61.79788
X34.89842 Y62.10551
X34.48815 Y62.31767
X34.0316 Y62.41734
X33.55938 Y62.39495
X33.10395 Y62.24922
X32.69732 Y61.98745
X32.3688 Y61.62518
X32.14297 Y61.18528
X32.03776 Y60.69657
X32.06312 Y60.19186
X32.22012 Y59.70581
X32.50071 Y59.27252
X32.89306 Y58.93104
G03 X35.02694 Y62.30896 I1.06694 J1.68896
X32.89306 Y58.93104 I-1.06694 J-1.68896
G1 X34.13362 Y60.61308
G3 Z-2.25 I-0.17362 J0.00692
Z-2.7 I-0.17362 J0.00692
G1 X34.13358 Y60.78028
X33.97189 Y60.91852
X33.71492 Y60.88542
X33.53657 Y60.63687
X33.60275 Y60.29012
X33.93816 Y60.07167
X34.37468 Y60.17091
X34.63323 Y60.59318
X34.6169 Y60.88166
X34.47695 Y61.15009
X34.22821 Y61.34579
X33.90765 Y61.4254
X33.56909 Y61.36398
X33.27411 Y61.16131
X33.08094 Y60.84376
X33.03307 Y60.46124
X33.15005 Y60.07945
X33.42214 Y59.76856
X33.81015 Y59.59042
X34.2509 Y59.58639
X34.66746 Y59.76843
X34.98255 Y60.11505
X35.13283 Y60.57328
X35.11393 Y60.94477
X34.97789 Y61.29933
X34.73363 Y61.60025
X34.40152 Y61.81479
X34.01169 Y61.91773
X33.60137 Y61.89426
X33.21128 Y61.74186
X32.88162 Y61.47107
X32.64796 Y61.10485
X32.53737 Y60.67667
X32.56542 Y60.2275
X32.73417 Y59.80189
X33.03149 Y59.4435
X33.43182 Y59.19071
X33.89836 Y59.07246
X34.38636 Y59.10509
X34.8475 Y59.2902
X35.23462 Y59.61405
X35.50654 Y60.0485
X35.63244 Y60.55338
X35.61301 Y60.99309
X35.47857 Y61.4179
X35.23562 Y61.79788
X34.89842 Y62.10551
X34.48815 Y62.31767
X34.0316 Y62.41734
X33.55938 Y62.39495
X33.10395 Y62.24922
X32.69732 Y61.98745
X32.3688 Y61.62518
X32.14297 Y61.18528
X32.03776 Y60.69657
X32.06312 Y60.19186
X32.22012 Y59.70581
X32.50071 Y59.27252
X32.89306 Y58.93104
G03 X35.02694 Y62.30896 I1.06694 J1.68896
X32.89306 Y58.93104 I-1.06694 J-1.68896
G1 X34.13362 Y60.61308
G3 Z-3.15 I-0.17362 J0.00692
Z-3.6 I-0.17362 J0.00692
G1 X34.13358 Y60.78028
X33.97189 Y60.91852
X33.71492 Y60.88542
X33.53657 Y60.63687
X33.60275 Y60.29012
X33.93816 Y60.07167
X34.37468 Y60.17091
X34.63323 Y60.59318
X34.6169 Y60.88166
X34.47695 Y61.15009
X34.22821 Y61.34579
X33.90765 Y61.4254
X33.56909 Y61.36398
X33.27411 Y61.16131
X33.08094 Y60.84376
X33.03307 Y60.46124
X33.15005 Y60.07945
X33.42214 Y59.76856
X33.81015 Y59.59042
X34.2509 Y59.58639
X34.66746 Y59.76843
X34.98255 Y60.11505
X35.13283 Y60.57328
X35.11393 Y60.94477
X34.97789 Y61.29933
X34.73363 Y61.60025
X34.40152 Y61.81479
X34.01169 Y61.91773
X33.60137 Y61.89426
X33.21128 Y61.74186
X32.88162 Y61.47107
X32.64796 Y61.10485
X32.53737 Y60.67667
X32.56542 Y60.2275
X32.73417 Y59.80189
X33.03149 Y59.4435
X33.43182 Y59.19071
X33.89836 Y59.07246
X34.38636 Y59.10509
X34.8475 Y59.2902
X35.23462 Y59.61405
X35.50654 Y60.0485
X35.63244 Y60.55338
X35.61301 Y60.99309
X35.47857 Y61.4179
X35.23562 Y61.79788
X34.89842 Y62.10551
X34.48815 Y62.31767
X34.0316 Y62.41734
X33.55938 Y62.39495
X33.10395 Y62.24922
X32.69732 Y61.98745
X32.3688 Y61.62518
X32.14297 Y61.18528
X32.03776 Y60.69657
X32.06312 Y60.19186
X32.22012 Y59.70581
X32.50071 Y59.27252
X32.89306 Y58.93104
G03 X35.02694 Y62.30896 I1.06694 J1.68896
X32.89306 Y58.93104 I-1.06694 J-1.68896
G1 X34.13362 Y60.61308
G3 Z-4.05 I-0.17362 J0.00692
Z-4.5 I-0.17362 J0.00692
G1 X34.13358 Y60.78028
X33.97189 Y60.91852
X33.71492 Y60.88542
X33.53657 Y60.63687
X33.60275 Y60.29012
X33.93816 Y60.07167
X34.37468 Y60.17091
X34.63323 Y60.59318
X34.6169 Y60.88166
X34.47695 Y61.15009
X34.22821 Y61.34579
X33.90765 Y61.4254
X33.56909 Y61.36398
X33.27411 Y61.16131
X33.08094 Y60.84376
X33.03307 Y60.46124
X33.15005 Y60.07945
X33.42214 Y59.76856
X33.81015 Y59.59042
X34.2509 Y59.58639
X34.66746 Y59.76843
X34.98255 Y60.11505
X35.13283 Y60.57328
X35.11393 Y60.94477
X34.97789 Y61.29933
X34.73363 Y61.60025
X34.40152 Y61.81479
X34.01169 Y61.91773
X33.60137 Y61.89426
X33.21128 Y61.74186
X32.88162 Y61.47107
X32.64796 Y61.10485
X32.53737 Y60.67667
X32.56542 Y60.2275
X32.73417 Y59.80189
X33.03149 Y59.4435
X33.43182 Y59.19071
X33.89836 Y59.07246
X34.38636 Y59.10509
X34.8475 Y59.2902
X35.23462 Y59.61405
X35.50654 Y60.0485
X35.63244 Y60.55338
X35.61301 Y60.99309
X35.47857 Y61.4179
X35.23562 Y61.79788
X34.89842 Y62.10551
X34.48815 Y62.31767
X34.0316 Y62.41734
X33.55938 Y62.39495
X33.10395 Y62.24922
X32.69732 Y61.98745
X32.3688 Y61.62518
X32.14297 Y61.18528
X32.03776 Y60.69657
X32.06312 Y60.19186
X32.22012 Y59.70581
X32.50071 Y59.27252
X32.89306 Y58.93104
G03 X35.02694 Y62.30896 I1.06694 J1.68896
X32.89306 Y58.93104 I-1.06694 J-1.68896
G1 X34.13362 Y60.61308
X33.96 Y60.62
G0 Z1.
X34.13362 Y88.55308
G1 Z0.635 F596.7
G3 Z0.25125 I-0.17362 J0.00692 F2387.
Z-0.1325 I-0.17362 J0.00692
Z-0.51625 I-0.17362 J0.00692
Z-0.9 I-0.17362 J0.00692
G1 X34.13358 Y88.72028
X33.97189 Y88.85852
X33.71492 Y88.82542
X33.53657 Y88.57687
X33.60275 Y88.23012
X33.93816 Y88.01167
X34.37468 Y88.11091
X34.63323 Y88.53318
X34.6169 Y88.82166
X34.47695 Y89.09009
X34.22821 Y89.28579
X33.90765 Y89.3654
X33.56909 Y89.30398
X33.27411 Y89.10131
X33.08094 Y88.78376
X33.03307 Y88.40124
X33.15005 Y88.01945
X33.42214 Y87.70856
X33.81015 Y87.53042
X34.2509 Y87.52639
X34.66746 Y87.70843
X34.98255 Y88.05505
X35.13283 Y88.51328
X35.11393 Y88.88477
X34.97789 Y89.23933
X34.73363 Y89.54025
X34.40152 Y89.75479
X34.01169 Y89.85773
X33.60137 Y89.83426
X33.21128 Y89.68186
X32.88162 Y89.41107
X32.64796 Y89.04485
X32.53737 Y88.61667
X32.56542 Y88.1675
X32.73417 Y87.74189
X33.03149 Y87.3835
X33.43182 Y87.13071
X33.89836 Y87.01247
X34.38636 Y87.04509
X34.8475 Y87.2302
X35.23462 Y87.55405
X35.50654 Y87.9885
X35.63244 Y88.49338
X35.61301 Y88.93309
X35.47857 Y89.3579
X35.23562 Y89.73788
X34.89842 Y90.04551
X34.48815 Y90.25767
X34.0316 Y90.35734
X33.55938 Y90.33495
X33.10395 Y90.18922
X32.69732 Y89.92745
X32.3688 Y89.56518
X32.14297 Y89.12528
X32.03776 Y88.63657
X32.06312 Y88.13186
X32.22012 Y87.64581
X32.50071 Y87.21252
X32.89306 Y86.87104
G03 X35.02694 Y90.24896 I1.06694 J1.68896
X32.89306 Y86.87104 I-1.06694 J-1.68896
G1 X34.13362 Y88.55308
G3 Z-1.35 I-0.17362 J0.00692
Z-1.8 I-0.17362 J0.00692
G1 X34.13358 Y88.72028
X33.97189 Y88.85852
X33.71492 Y88.82542
X33.53657 Y88.57687
X33.60275 Y88.23012
X33.93816 Y88.01167
X34.37468 Y88.11091
X34.63323 Y88.53318
X34.6169 Y88.82166
X34.47695 Y89.09009
X34.22821 Y89.28579
X33.90765 Y89.3654
X33.56909 Y89.30398
X33.27411 Y89.10131
X33.08094 Y88.78376
X33.03307 Y88.40124
X33.15005 Y88.01945
X33.42214 Y87.70856
X33.81015 Y87.53042
X34.2509 Y87.52639
X34.66746 Y87.70843
X34.98255 Y88.05505
X35.13283 Y88.51328
X35.11393 Y88.88477
X34.97789 Y89.23933
X34.73363 Y89.54025
X34.40152 Y89.75479
X34.01169 Y89.85773
X33.60137 Y89.83426
X33.21128 Y89.68186
X32.88162 Y89.41107
X32.64796 Y89.04485
X32.53737 Y88.61667
X32.56542 Y88.1675
X32.73417 Y87.74189
X33.03149 Y87.3835
X33.43182 Y87.13071
X33.89836 Y87.01247
X34.38636 Y87.04509
X34.8475 Y87.2302
X35.23462 Y87.55405
X35.50654 Y87.9885
X35.63244 Y88.49338
X35.61301 Y88.93309
X35.47857 Y89.3579
X35.23562 Y89.73788
X34.89842 Y90.04551
X34.48815 Y90.25767
X34.0316 Y90.35734
X33.55938 Y90.33495
X33.10395 Y90.18922
X32.69732 Y89.92745
X32.3688 Y89.56518
X32.14297 Y89.12528
X32.03776 Y88.63657
X32.06312 Y88.13186
X32.22012 Y87.64581
X32.50071 Y87.21252
X32.89306 Y86.87104
G03 X35.02694 Y90.24896 I1.06694 J1.68896
X32.89306 Y86.87104 I-1.06694 J-1.68896
G1 X34.13362 Y88.55308
G3 Z-2.25 I-0.17362 J0.00692
Z-2.7 I-0.17362 J0.00692
G1 X34.13358 Y88.72028
X33.97189 Y88.85852
X33.71492 Y88.82542
X33.53657 Y88.57687
X33.60275 Y88.23012
X33.93816 Y88.01167
X34.37468 Y88.11091
X34.63323 Y88.53318
X34.6169 Y88.82166
X34.47695 Y89.09009
X34.22821 Y89.28579
X33.90765 Y89.3654
X33.56909 Y89.30398
X33.27411 Y89.10131
X33.08094 Y88.78376
X33.03307 Y88.40124
X33.15005 Y88.01945
X33.42214 Y87.70856
X33.81015 Y87.53042
X34.2509 Y87.52639
X34.66746 Y87.70843
X34.98255 Y88.05505
X35.13283 Y88.51328
X35.11393 Y88.88477
X34.97789 Y89.23933
X34.73363 Y89.54025
X34.40152 Y89.75479
X34.01169 Y89.85773
X33.60137 Y89.83426
X33.21128 Y89.68186
X32.88162 Y89.41107
X32.64796 Y89.04485
X32.53737 Y88.61667
X32.56542 Y88.1675
X32.73417 Y87.74189
X33.03149 Y87.3835
X33.43182 Y87.13071
X33.89836 Y87.01247
X34.38636 Y87.04509
X34.8475 Y87.2302
X35.23462 Y87.55405
X35.50654 Y87.9885
X35.63244 Y88.49338
X35.61301 Y88.93309
X35.47857 Y89.3579
X35.23562 Y89.73788
X34.89842 Y90.04551
X34.48815 Y90.25767
X34.0316 Y90.35734
X33.55938 Y90.33495
X33.10395 Y90.18922
X32.69732 Y89.92745
X32.3688 Y89.56518
X32.14297 Y89.12528
X32.03776 Y88.63657
X32.06312 Y88.13186
X32.22012 Y87.64581
X32.50071 Y87.21252
X32.89306 Y86.87104
G03 X35.02694 Y90.24896 I1.06694 J1.68896
X32.89306 Y86.87104 I-1.06694 J-1.68896
G1 X34.13362 Y88.55308
G3 Z-3.15 I-0.17362 J0.00692
Z-3.6 I-0.17362 J0.00692
G1 X34.13358 Y88.72028
X33.97189 Y88.85852
X33.71492 Y88.82542
X33.53657 Y88.57687
X33.60275 Y88.23012
X33.93816 Y88.01167
X34.37468 Y88.11091
X34.63323 Y88.53318
X34.6169 Y88.82166
X34.47695 Y89.09009
X34.22821 Y89.28579
X33.90765 Y89.3654
X33.56909 Y89.30398
X33.27411 Y89.10131
X33.08094 Y88.78376
X33.03307 Y88.40124
X33.15005 Y88.01945
X33.42214 Y87.70856
X33.81015 Y87.53042
X34.2509 Y87.52639
X34.66746 Y87.70843
X34.98255 Y88.05505
X35.13283 Y88.51328
X35.11393 Y88.88477
X34.97789 Y89.23933
X34.73363 Y89.54025
X34.40152 Y89.75479
X34.01169 Y89.85773
X33.60137 Y89.83426
X33.21128 Y89.68186
X32.88162 Y89.41107
X32.64796 Y89.04485
X32.53737 Y88.61667
X32.56542 Y88.1675
X32.73417 Y87.74189
X33.03149 Y87.3835
X33.43182 Y87.13071
X33.89836 Y87.01247
X34.38636 Y87.04509
X34.8475 Y87.2302
X35.23462 Y87.55405
X35.50654 Y87.9885
X35.63244 Y88.49338
X35.61301 Y88.93309
X35.47857 Y89.3579
X35.23562 Y89.73788
X34.89842 Y90.04551
X34.48815 Y90.25767
X34.0316 Y90.35734
X33.55938 Y90.33495
X33.10395 Y90.18922
X32.69732 Y89.92745
X32.3688 Y89.56518
X32.14297 Y89.12528
X32.03776 Y88.63657
X32.06312 Y88.13186
X32.22012 Y87.64581
X32.50071 Y87.21252
X32.89306 Y86.87104
G03 X35.02694 Y90.24896 I1.06694 J1.68896
X32.89306 Y86.87104 I-1.06694 J-1.68896
G1 X34.13362 Y88.55308
G3 Z-4.05 I-0.17362 J0.00692
Z-4.5 I-0.17362 J0.00692
G1 X34.13358 Y88.72028
X33.97189 Y88.85852
X33.71492 Y88.82542
X33.53657 Y88.57687
X33.60275 Y88.23012
X33.93816 Y88.01167
X34.37468 Y88.11091
X34.63323 Y88.53318
X34.6169 Y88.82166
X34.47695 Y89.09009
X34.22821 Y89.28579
X33.90765 Y89.3654
X33.56909 Y89.30398
X33.27411 Y89.10131
X33.08094 Y88.78376
X33.03307 Y88.40124
X33.15005 Y88.01945
X33.42214 Y87.70856
X33.81015 Y87.53042
X34.2509 Y87.52639
X34.66746 Y87.70843
X34.98255 Y88.05505
X35.13283 Y88.51328
X35.11393 Y88.88477
X34.97789 Y89.23933
X34.73363 Y89.54025
X34.40152 Y89.75479
X34.01169 Y89.85773
X33.60137 Y89.83426
X33.21128 Y89.68186
X32.88162 Y89.41107
X32.64796 Y89.04485
X32.53737 Y88.61667
X32.56542 Y88.1675
X32.73417 Y87.74189
X33.03149 Y87.3835
X33.43182 Y87.13071
X33.89836 Y87.01247
X34.38636 Y87.04509
X34.8475 Y87.2302
X35.23462 Y87.55405
X35.50654 Y87.9885
X35.63244 Y88.49338
X35.61301 Y88.93309
X35.47857 Y89.3579
X35.23562 Y89.73788
X34.89842 Y90.04551
X34.48815 Y90.25767
X34.0316 Y90.35734
X33.55938 Y90.33495
X33.10395 Y90.18922
X32.69732 Y89.92745
X32.3688 Y89.56518
X32.14297 Y89.12528
X32.03776 Y88.63657
X32.06312 Y88.13186
X32.22012 Y87.64581
X32.50071 Y87.21252
X32.89306 Y86.87104
G03 X35.02694 Y90.24896 I1.06694 J1.68896
X32.89306 Y86.87104 I-1.06694 J-1.68896
G1 X34.13362 Y88.55308
X33.96 Y88.56
G0 Z1.
X27.37502 Y88.81805
G1 Z0.635 F596.7
G3 Z0.25125 I-0.17363 J0.00692 F2387.
Z-0.1325 I-0.17363 J0.00692
Z-0.51625 I-0.17363 J0.00692
Z-0.9 I-0.17363 J0.00692
G1 X27.37497 Y88.98525
X27.21328 Y89.12349
X26.95631 Y89.09038
X26.77797 Y88.84184
X26.84414 Y88.49509
X27.17955 Y88.27664
X27.61607 Y88.37588
X27.87462 Y88.79815
X27.85829 Y89.08663
X27.71834 Y89.35506
X27.4696 Y89.55076
X27.14904 Y89.63036
X26.81048 Y89.56895
X26.51551 Y89.36628
X26.32233 Y89.04873
X26.27446 Y88.66621
X26.39144 Y88.28442
X26.66353 Y87.97353
X27.05154 Y87.79539
X27.49229 Y87.79136
X27.90885 Y87.9734
X28.22394 Y88.32001
X28.37422 Y88.77825
X28.35532 Y89.14973
X28.21928 Y89.5043
X27.97502 Y89.80522
X27.64291 Y90.01976
X27.25308 Y90.1227
X26.84276 Y90.09923
X26.45267 Y89.94683
X26.12301 Y89.67604
X25.88935 Y89.30982
X25.77876 Y88.88164
X25.80681 Y88.43247
X25.97556 Y88.00686
X26.27288 Y87.64847
X26.67322 Y87.39567
X27.13975 Y87.27743
X27.62775 Y87.31006
X28.08889 Y87.49516
X28.47601 Y87.81902
X28.74794 Y88.25346
X28.87383 Y88.75835
X28.8544 Y89.19806
X28.71996 Y89.62287
X28.47701 Y90.00285
X28.13981 Y90.31048
X27.72954 Y90.52264
X27.27299 Y90.62231
X26.80077 Y90.59992
X26.34535 Y90.45419
X25.93871 Y90.19242
X25.6102 Y89.83015
X25.38436 Y89.39025
X25.27915 Y88.90154
X25.30451 Y88.39683
X25.46151 Y87.91078
X25.7421 Y87.47748
X26.13428 Y87.13574
G03 X28.2685 Y90.5142 I1.06711 J1.68923
X26.13428 Y87.13574 I-1.06711 J-1.68923
G1 X27.37502 Y88.81805
G3 Z-1.35 I-0.17363 J0.00692
Z-1.8 I-0.17363 J0.00692
G1 X27.37497 Y88.98525
X27.21328 Y89.12349
X26.95631 Y89.09038
X26.77797 Y88.84184
X26.84414 Y88.49509
X27.17955 Y88.27664
X27.61607 Y88.37588
X27.87462 Y88.79815
X27.85829 Y89.08663
X27.71834 Y89.35506
X27.4696 Y89.55076
X27.14904 Y89.63036
X26.81048 Y89.56895
X26.51551 Y89.36628
X26.32233 Y89.04873
X26.27446 Y88.66621
X26.39144 Y88.28442
X26.66353 Y87.97353
X27.05154 Y87.79539
X27.49229 Y87.79136
X27.90885 Y87.9734
X28.22394 Y88.32001
X28.37422 Y88.77825
X28.35532 Y89.14973
X28.21928 Y89.5043
X27.97502 Y89.80522
X27.64291 Y90.01976
X27.25308 Y90.1227
X26.84276 Y90.09923
X26.45267 Y89.94683
X26.12301 Y89.67604
X25.88935 Y89.30982
X25.77876 Y88.88164
X25.80681 Y88.43247
X25.97556 Y88.00686
X26.27288 Y87.64847
X26.67322 Y87.39567
X27.13975 Y87.27743
X27.62775 Y87.31006
X28.08889 Y87.49516
X28.47601 Y87.81902
X28.74794 Y88.25346
X28.87383 Y88.75835
X28.8544 Y89.19806
X28.71996 Y89.62287
X28.47701 Y90.00285
X28.13981 Y90.31048
X27.72954 Y90.52264
X27.27299 Y90.62231
X26.80077 Y90.59992
X26.34535 Y90.45419
X25.93871 Y90.19242
X25.6102 Y89.83015
X25.38436 Y89.39025
X25.27915 Y88.90154
X25.30451 Y88.39683
X25.46151 Y87.91078
X25.7421 Y87.47748
X26.13428 Y87.13574
G03 X28.2685 Y90.5142 I1.06711 J1.68923
X26.13428 Y87.13574 I-1.06711 J-1.68923
G1 X27.37502 Y88.81805
G3 Z-2.25 I-0.17363 J0.00692
Z-2.7 I-0.17363 J0.00692
G1 X27.37497 Y88.98525
X27.21328 Y89.12349
X26.95631 Y89.09038
X26.77797 Y88.84184
X26.84414 Y88.49509
X27.17955 Y88.27664
X27.61607 Y88.37588
X27.87462 Y88.79815
X27.85829 Y89.08663
X27.71834 Y89.35506
X27.4696 Y89.55076
X27.14904 Y89.63036
X26.81048 Y89.56895
X26.51551 Y89.36628
X26.32233 Y89.04873
X26.27446 Y88.66621
X26.39144 Y88.28442
X26.66353 Y87.97353
X27.05154 Y87.79539
X27.49229 Y87.79136
X27.90885 Y87.9734
X28.22394 Y88.32001
X28.37422 Y88.77825
X28.35532 Y89.14973
X28.21928 Y89.5043
X27.97502 Y89.80522
X27.64291 Y90.01976
X27.25308 Y90.1227
X26.84276 Y90.09923
X26.45267 Y89.94683
X26.12301 Y89.67604
X25.88935 Y89.30982
X25.77876 Y88.88164
X25.80681 Y88.43247
X25.97556 Y88.00686
X26.27288 Y87.64847
X26.67322 Y87.39567
X27.13975 Y87.27743
X27.62775 Y87.31006
X28.08889 Y87.49516
X28.47601 Y87.81902
X28.74794 Y88.25346
X28.87383 Y88.75835
X28.8544 Y89.19806
X28.71996 Y89.62287
X28.47701 Y90.00285
X28.13981 Y90.31048
X27.72954 Y90.52264
X27.27299 Y90.62231
X26.80077 Y90.59992
X26.34535 Y90.45419
X25.93871 Y90.19242
X25.6102 Y89.83015
X25.38436 Y89.39025
X25.27915 Y88.90154
X25.30451 Y88.39683
X25.46151 Y87.91078
X25.7421 Y87.47748
X26.13428 Y87.13574
G03 X28.2685 Y90.5142 I1.06711 J1.68923
X26.13428 Y87.13574 I-1.06711 J-1.68923
G1 X27.37502 Y88.81805
G3 Z-3.15 I-0.17363 J0.00692
Z-3.6 I-0.17363 J0.00692
G1 X27.37497 Y88.98525
X27.21328 Y89.12349
X26.95631 Y89.09038
X26.77797 Y88.84184
X26.84414 Y88.49509
X27.17955 Y88.27664
X27.61607 Y88.37588
X27.87462 Y88.79815
X27.85829 Y89.08663
X27.71834 Y89.35506
X27.4696 Y89.55076
X27.14904 Y89.63036
X26.81048 Y89.56895
X26.51551 Y89.36628
X26.32233 Y89.04873
X26.27446 Y88.66621
X26.39144 Y88.28442
X26.66353 Y87.97353
X27.05154 Y87.79539
X27.49229 Y87.79136
X27.90885 Y87.9734
X28.22394 Y88.32001
X28.37422 Y88.77825
X28.35532 Y89.14973
X28.21928 Y89.5043
X27.97502 Y89.80522
X27.64291 Y90.01976
X27.25308 Y90.1227
X26.84276 Y90.09923
X26.45267 Y89.94683
X26.12301 Y89.67604
X25.88935 Y89.30982
X25.77876 Y88.88164
X25.80681 Y88.43247
X25.97556 Y88.00686
X26.27288 Y87.64847
X26.67322 Y87.39567
X27.13975 Y87.27743
X27.62775 Y87.31006
X28.08889 Y87.49516
X28.47601 Y87.81902
X28.74794 Y88.25346
X28.87383 Y88.75835
X28.8544 Y89.19806
X28.71996 Y89.62287
X28.47701 Y90.00285
X28.13981 Y90.31048
X27.72954 Y90.52264
X27.27299 Y90.62231
X26.80077 Y90.59992
X26.34535 Y90.45419
X25.93871 Y90.19242
X25.6102 Y89.83015
X25.38436 Y89.39025
X25.27915 Y88.90154
X25.30451 Y88.39683
X25.46151 Y87.91078
X25.7421 Y87.47748
X26.13428 Y87.13574
G03 X28.2685 Y90.5142 I1.06711 J1.68923
X26.13428 Y87.13574 I-1.06711 J-1.68923
G1 X27.37502 Y88.81805
G3 Z-4.05 I-0.17363 J0.00692
Z-4.5 I-0.17363 J0.00692
G1 X27.37497 Y88.98525
X27.21328 Y89.12349
X26.95631 Y89.09038
X26.77797 Y88.84184
X26.84414 Y88.49509
X27.17955 Y88.27664
X27.61607 Y88.37588
X27.87462 Y88.79815
X27.85829 Y89.08663
X27.71834 Y89.35506
X27.4696 Y89.55076
X27.14904 Y89.63036
X26.81048 Y89.56895
X26.51551 Y89.36628
X26.32233 Y89.04873
X26.27446 Y88.66621
X26.39144 Y88.28442
X26.66353 Y87.97353
X27.05154 Y87.79539
X27.49229 Y87.79136
X27.90885 Y87.9734
X28.22394 Y88.32001
X28.37422 Y88.77825
X28.35532 Y89.14973
X28.21928 Y89.5043
X27.97502 Y89.80522
X27.64291 Y90.01976
X27.25308 Y90.1227
X26.84276 Y90.09923
X26.45267 Y89.94683
X26.12301 Y89.67604
X25.88935 Y89.30982
X25.77876 Y88.88164
X25.80681 Y88.43247
X25.97556 Y88.00686
X26.27288 Y87.64847
X26.67322 Y87.39567
X27.13975 Y87.27743
X27.62775 Y87.31006
X28.08889 Y87.49516
X28.47601 Y87.81902
X28.74794 Y88.25346
X28.87383 Y88.75835
X28.8544 Y89.19806
X28.71996 Y89.62287
X28.47701 Y90.00285
X28.13981 Y90.31048
X27.72954 Y90.52264
X27.27299 Y90.62231
X26.80077 Y90.59992
X26.34535 Y90.45419
X25.93871 Y90.19242
X25.6102 Y89.83015
X25.38436 Y89.39025
X25.27915 Y88.90154
X25.30451 Y88.39683
X25.46151 Y87.91078
X25.7421 Y87.47748
X26.13428 Y87.13574
G03 X28.2685 Y90.5142 I1.06711 J1.68923
X26.13428 Y87.13574 I-1.06711 J-1.68923
G1 X27.37502 Y88.81805
X27.20139 Y88.82497
G0 Z1.
X10.00362 Y103.79308
G1 Z0.635 F596.7
G3 Z0.25125 I-0.17362 J0.00692 F2387.
Z-0.1325 I-0.17362 J0.00692
Z-0.51625 I-0.17362 J0.00692
Z-0.9 I-0.17362 J0.00692
G1 X10.00358 Y103.96028
X9.84189 Y104.09852
X9.58492 Y104.06542
X9.40657 Y103.81687
X9.47275 Y103.47012
X9.80816 Y103.25167
X10.24468 Y103.35091
X10.50323 Y103.77318
X10.4869 Y104.06166
X10.34695 Y104.33009
X10.09821 Y104.52579
X9.77765 Y104.6054
X9.43909 Y104.54398
X9.14411 Y104.34131
X8.95094 Y104.02376
X8.90307 Y103.64124
X9.02005 Y103.25945
X9.29214 Y102.94856
X9.68015 Y102.77042
X10.1209 Y102.76639
X10.53746 Y102.94843
X10.85254 Y103.29505
X11.00283 Y103.75328
X10.98393 Y104.12477
X10.84789 Y104.47933
X10.60363 Y104.78025
X10.27152 Y104.99479
X9.88169 Y105.09773
X9.47137 Y105.07426
X9.08128 Y104.92186
X8.75162 Y104.65107
X8.51796 Y104.28485
X8.40737 Y103.85667
X8.43542 Y103.4075
X8.60417 Y102.98189
X8.90149 Y102.6235
X9.30182 Y102.37071
X9.76836 Y102.25247
X10.25636 Y102.28509
X10.7175 Y102.4702
X11.10462 Y102.79405
X11.37654 Y103.2285
X11.50244 Y103.73338
X11.48301 Y104.1731
X11.34857 Y104.5979
X11.10562 Y104.97788
X10.76842 Y105.28552
X10.35815 Y105.49767
X9.90159 Y105.59734
X9.42938 Y105.57495
X8.97395 Y105.42922
X8.56732 Y105.16745
X8.2388 Y104.80518
X8.01297 Y104.36528
X7.90776 Y103.87657
X7.93312 Y103.37186
X8.09012 Y102.88581
X8.37071 Y102.45252
X8.76306 Y102.11104
G03 X10.89694 Y105.48896 I1.06694 J1.68896
X8.76306 Y102.11104 I-1.06694 J-1.68896
G1 X10.00362 Y103.79308
G3 Z-1.35 I-0.17362 J0.00692
Z-1.8 I-0.17362 J0.00692
G1 X10.00358 Y103.96028
X9.84189 Y104.09852
X9.58492 Y104.06542
X9.40657 Y103.81687
X9.47275 Y103.47012
X9.80816 Y103.25167
X10.24468 Y103.35091
X10.50323 Y103.77318
X10.4869 Y104.06166
X10.34695 Y104.33009
X10.09821 Y104.52579
X9.77765 Y104.6054
X9.43909 Y104.54398
X9.14411 Y104.34131
X8.95094 Y104.02376
X8.90307 Y103.64124
X9.02005 Y103.25945
X9.29214 Y102.94856
X9.68015 Y102.77042
X10.1209 Y102.76639
X10.53746 Y102.94843
X10.85254 Y103.29505
X11.00283 Y103.75328
X10.98393 Y104.12477
X10.84789 Y104.47933
X10.60363 Y104.78025
X10.27152 Y104.99479
X9.88169 Y105.09773
X9.47137 Y105.07426
X9.08128 Y104.92186
X8.75162 Y104.65107
X8.51796 Y104.28485
X8.40737 Y103.85667
X8.43542 Y103.4075
X8.60417 Y102.98189
X8.90149 Y102.6235
X9.30182 Y102.37071
X9.76836 Y102.25247
X10.25636 Y102.28509
X10.7175 Y102.4702
X11.10462 Y102.79405
X11.37654 Y103.2285
X11.50244 Y103.73338
X11.48301 Y104.1731
X11.34857 Y104.5979
X11.10562 Y104.97788
X10.76842 Y105.28552
X10.35815 Y105.49767
X9.90159 Y105.59734
X9.42938 Y105.57495
X8.97395 Y105.42922
X8.56732 Y105.16745
X8.2388 Y104.80518
X8.01297 Y104.36528
X7.90776 Y103.87657
X7.93312 Y103.37186
X8.09012 Y102.88581
X8.37071 Y102.45252
X8.76306 Y102.11104
G03 X10.89694 Y105.48896 I1.06694 J1.68896
X8.76306 Y102.11104 I-1.06694 J-1.68896
G1 X10.00362 Y103.79308
G3 Z-2.25 I-0.17362 J0.00692
Z-2.7 I-0.17362 J0.00692
G1 X10.00358 Y103.96028
X9.84189 Y104.09852
X9.58492 Y104.06542
X9.40657 Y103.81687
X9.47275 Y103.47012
X9.80816 Y103.25167
X10.24468 Y103.35091
X10.50323 Y103.77318
X10.4869 Y104.06166
X10.34695 Y104.33009
X10.09821 Y104.52579
X9.77765 Y104.6054
X9.43909 Y104.54398
X9.14411 Y104.34131
X8.95094 Y104.02376
X8.90307 Y103.64124
X9.02005 Y103.25945
X9.29214 Y102.94856
X9.68015 Y102.77042
X10.1209 Y102.76639
X10.53746 Y102.94843
X10.85254 Y103.29505
X11.00283 Y103.75328
X10.98393 Y104.12477
X10.84789 Y104.47933
X10.60363 Y104.78025
X10.27152 Y104.99479
X9.88169 Y105.09773
X9.47137 Y105.07426
X9.08128 Y104.92186
X8.75162 Y104.65107
X8.51796 Y104.28485
X8.40737 Y103.85667
X8.43542 Y103.4075
X8.60417 Y102.98189
X8.90149 Y102.6235
X9.30182 Y102.37071
X9.76836 Y102.25247
X10.25636 Y102.28509
X10.7175 Y102.4702
X11.10462 Y102.79405
X11.37654 Y103.2285
X11.50244 Y103.73338
X11.48301 Y104.1731
X11.34857 Y104.5979
X11.10562 Y104.97788
X10.76842 Y105.28552
X10.35815 Y105.49767
X9.90159 Y105.59734
X9.42938 Y105.57495
X8.97395 Y105.42922
X8.56732 Y105.16745
X8.2388 Y104.80518
X8.01297 Y104.36528
X7.90776 Y103.87657
X7.93312 Y103.37186
X8.09012 Y102.88581
X8.37071 Y102.45252
X8.76306 Y102.11104
G03 X10.89694 Y105.48896 I1.06694 J1.68896
X8.76306 Y102.11104 I-1.06694 J-1.68896
G1 X10.00362 Y103.79308
G3 Z-3.15 I-0.17362 J0.00692
Z-3.6 I-0.17362 J0.00692
G1 X10.00358 Y103.96028
X9.84189 Y104.09852
X9.58492 Y104.06542
X9.40657 Y103.81687
X9.47275 Y103.47012
X9.80816 Y103.25167
X10.24468 Y103.35091
X10.50323 Y103.77318
X10.4869 Y104.06166
X10.34695 Y104.33009
X10.09821 Y104.52579
X9.77765 Y104.6054
X9.43909 Y104.54398
X9.14411 Y104.34131
X8.95094 Y104.02376
X8.90307 Y103.64124
X9.02005 Y103.25945
X9.29214 Y102.94856
X9.68015 Y102.77042
X10.1209 Y102.76639
X10.53746 Y102.94843
X10.85254 Y103.29505
X11.00283 Y103.75328
X10.98393 Y104.12477
X10.84789 Y104.47933
X10.60363 Y104.78025
X10.27152 Y104.99479
X9.88169 Y105.09773
X9.47137 Y105.07426
X9.08128 Y104.92186
X8.75162 Y104.65107
X8.51796 Y104.28485
X8.40737 Y103.85667
X8.43542 Y103.4075
X8.60417 Y102.98189
X8.90149 Y102.6235
X9.30182 Y102.37071
X9.76836 Y102.25247
X10.25636 Y102.28509
X10.7175 Y102.4702
X11.10462 Y102.79405
X11.37654 Y103.2285
X11.50244 Y103.73338
X11.48301 Y104.1731
X11.34857 Y104.5979
X11.10562 Y104.97788
X10.76842 Y105.28552
X10.35815 Y105.49767
X9.90159 Y105.59734
X9.42938 Y105.57495
X8.97395 Y105.42922
X8.56732 Y105.16745
X8.2388 Y104.80518
X8.01297 Y104.36528
X7.90776 Y103.87657
X7.93312 Y103.37186
X8.09012 Y102.88581
X8.37071 Y102.45252
X8.76306 Y102.11104
G03 X10.89694 Y105.48896 I1.06694 J1.68896
X8.76306 Y102.11104 I-1.06694 J-1.68896
G1 X10.00362 Y103.79308
G3 Z-4.05 I-0.17362 J0.00692
Z-4.5 I-0.17362 J0.00692
G1 X10.00358 Y103.96028
X9.84189 Y104.09852
X9.58492 Y104.06542
X9.40657 Y103.81687
X9.47275 Y103.47012
X9.80816 Y103.25167
X10.24468 Y103.35091
X10.50323 Y103.77318
X10.4869 Y104.06166
X10.34695 Y104.33009
X10.09821 Y104.52579
X9.77765 Y104.6054
X9.43909 Y104.54398
X9.14411 Y104.34131
X8.95094 Y104.02376
X8.90307 Y103.64124
X9.02005 Y103.25945
X9.29214 Y102.94856
X9.68015 Y102.77042
X10.1209 Y102.76639
X10.53746 Y102.94843
X10.85254 Y103.29505
X11.00283 Y103.75328
X10.98393 Y104.12477
X10.84789 Y104.47933
X10.60363 Y104.78025
X10.27152 Y104.99479
X9.88169 Y105.09773
X9.47137 Y105.07426
X9.08128 Y104.92186
X8.75162 Y104.65107
X8.51796 Y104.28485
X8.40737 Y103.85667
X8.43542 Y103.4075
X8.60417 Y102.98189
X8.90149 Y102.6235
X9.30182 Y102.37071
X9.76836 Y102.25247
X10.25636 Y102.28509
X10.7175 Y102.4702
X11.10462 Y102.79405
X11.37654 Y103.2285
X11.50244 Y103.73338
X11.48301 Y104.1731
X11.34857 Y104.5979
X11.10562 Y104.97788
X10.76842 Y105.28552
X10.35815 Y105.49767
X9.90159 Y105.59734
X9.42938 Y105.57495
X8.97395 Y105.42922
X8.56732 Y105.16745
X8.2388 Y104.80518
X8.01297 Y104.36528
X7.90776 Y103.87657
X7.93312 Y103.37186
X8.09012 Y102.88581
X8.37071 Y102.45252
X8.76306 Y102.11104
G03 X10.89694 Y105.48896 I1.06694 J1.68896
X8.76306 Y102.11104 I-1.06694 J-1.68896
G1 X10.00362 Y103.79308
X9.83 Y103.8
G0 Z1.
X3.65362 Y55.53308
G1 Z0.635 F596.7
G3 Z0.25125 I-0.17362 J0.00692 F2387.
Z-0.1325 I-0.17362 J0.00692
Z-0.51625 I-0.17362 J0.00692
Z-0.9 I-0.17362 J0.00692
G1 X3.65358 Y55.70028
X3.49189 Y55.83852
X3.23492 Y55.80542
X3.05657 Y55.55687
X3.12275 Y55.21012
X3.45816 Y54.99167
X3.89468 Y55.09091
X4.15323 Y55.51318
X4.1369 Y55.80166
X3.99695 Y56.07009
X3.74821 Y56.26579
X3.42765 Y56.3454
X3.08909 Y56.28398
X2.79411 Y56.08131
X2.60094 Y55.76376
X2.55307 Y55.38124
X2.67005 Y54.99945
X2.94214 Y54.68856
X3.33015 Y54.51042
X3.7709 Y54.50639
X4.18746 Y54.68844
X4.50254 Y55.03505
X4.65283 Y55.49328
X4.63393 Y55.86477
X4.49789 Y56.21933
X4.25363 Y56.52025
X3.92152 Y56.73479
X3.53169 Y56.83773
X3.12137 Y56.81426
X2.73128 Y56.66186
X2.40162 Y56.39107
X2.16796 Y56.02485
X2.05737 Y55.59667
X2.08542 Y55.1475
X2.25417 Y54.72189
X2.55149 Y54.3635
X2.95182 Y54.11071
X3.41836 Y53.99246
X3.90636 Y54.02509
X4.3675 Y54.2102
X4.75462 Y54.53405
X5.02654 Y54.9685
X5.15244 Y55.47338
X5.13301 Y55.91309
X4.99857 Y56.3379
X4.75562 Y56.71788
X4.41842 Y57.02551
X4.00815 Y57.23767
X3.55159 Y57.33734
X3.07938 Y57.31495
X2.62395 Y57.16922
X2.21732 Y56.90745
X1.8888 Y56.54518
X1.66297 Y56.10528
X1.55776 Y55.61657
X1.58312 Y55.11186
X1.74012 Y54.62581
X2.02071 Y54.19252
X2.41306 Y53.85104
G03 X4.54694 Y57.22896 I1.06694 J1.68896
X2.41306 Y53.85104 I-1.06694 J-1.68896
G1 X3.65362 Y55.53308
G3 Z-1.35 I-0.17362 J0.00692
Z-1.8 I-0.17362 J0.00692
G1 X3.65358 Y55.70028
X3.49189 Y55.83852
X3.23492 Y55.80542
X3.05657 Y55.55687
X3.12275 Y55.21012
X3.45816 Y54.99167
X3.89468 Y55.09091
X4.15323 Y55.51318
X4.1369 Y55.80166
X3.99695 Y56.07009
X3.74821 Y56.26579
X3.42765 Y56.3454
X3.08909 Y56.28398
X2.79411 Y56.08131
X2.60094 Y55.76376
X2.55307 Y55.38124
X2.67005 Y54.99945
X2.94214 Y54.68856
X3.33015 Y54.51042
X3.7709 Y54.50639
X4.18746 Y54.68844
X4.50254 Y55.03505
X4.65283 Y55.49328
X4.63393 Y55.86477
X4.49789 Y56.21933
X4.25363 Y56.52025
X3.92152 Y56.73479
X3.53169 Y56.83773
X3.12137 Y56.81426
X2.73128 Y56.66186
X2.40162 Y56.39107
X2.16796 Y56.02485
X2.05737 Y55.59667
X2.08542 Y55.1475
X2.25417 Y54.72189
X2.55149 Y54.3635
X2.95182 Y54.11071
X3.41836 Y53.99246
X3.90636 Y54.02509
X4.3675 Y54.2102
X4.75462 Y54.53405
X5.02654 Y54.9685
X5.15244 Y55.47338
X5.13301 Y55.91309
X4.99857 Y56.3379
X4.75562 Y56.71788
X4.41842 Y57.02551
X4.00815 Y57.23767
X3.55159 Y57.33734
X3.07938 Y57.31495
X2.62395 Y57.16922
X2.21732 Y56.90745
X1.8888 Y56.54518
X1.66297 Y56.10528
X1.55776 Y55.61657
X1.58312 Y55.11186
X1.74012 Y54.62581
X2.02071 Y54.19252
X2.41306 Y53.85104
G03 X4.54694 Y57.22896 I1.06694 J1.68896
X2.41306 Y53.85104 I-1.06694 J-1.68896
G1 X3.65362 Y55.53308
G3 Z-2.25 I-0.17362 J0.00692
Z-2.7 I-0.17362 J0.00692
G1 X3.65358 Y55.70028
X3.49189 Y55.83852
X3.23492 Y55.80542
X3.05657 Y55.55687
X3.12275 Y55.21012
X3.45816 Y54.99167
X3.89468 Y55.09091
X4.15323 Y55.51318
X4.1369 Y55.80166
X3.99695 Y56.07009
X3.74821 Y56.26579
X3.42765 Y56.3454
X3.08909 Y56.28398
X2.79411 Y56.08131
X2.60094 Y55.76376
X2.55307 Y55.38124
X2.67005 Y54.99945
X2.94214 Y54.68856
X3.33015 Y54.51042
X3.7709 Y54.50639
X4.18746 Y54.68844
X4.50254 Y55.03505
X4.65283 Y55.49328
X4.63393 Y55.86477
X4.49789 Y56.21933
X4.25363 Y56.52025
X3.92152 Y56.73479
X3.53169 Y56.83773
X3.12137 Y56.81426
X2.73128 Y56.66186
X2.40162 Y56.39107
X2.16796 Y56.02485
X2.05737 Y55.59667
X2.08542 Y55.1475
X2.25417 Y54.72189
X2.55149 Y54.3635
X2.95182 Y54.11071
X3.41836 Y53.99246
X3.90636 Y54.02509
X4.3675 Y54.2102
X4.75462 Y54.53405
X5.02654 Y54.9685
X5.15244 Y55.47338
X5.13301 Y55.91309
X4.99857 Y56.3379
X4.75562 Y56.71788
X4.41842 Y57.02551
X4.00815 Y57.23767
X3.55159 Y57.33734
X3.07938 Y57.31495
X2.62395 Y57.16922
X2.21732 Y56.90745
X1.8888 Y56.54518
X1.66297 Y56.10528
X1.55776 Y55.61657
X1.58312 Y55.11186
X1.74012 Y54.62581
X2.02071 Y54.19252
X2.41306 Y53.85104
G03 X4.54694 Y57.22896 I1.06694 J1.68896
X2.41306 Y53.85104 I-1.06694 J-1.68896
G1 X3.65362 Y55.53308
G3 Z-3.15 I-0.17362 J0.00692
Z-3.6 I-0.17362 J0.00692
G1 X3.65358 Y55.70028
X3.49189 Y55.83852
X3.23492 Y55.80542
X3.05657 Y55.55687
X3.12275 Y55.21012
X3.45816 Y54.99167
X3.89468 Y55.09091
X4.15323 Y55.51318
X4.1369 Y55.80166
X3.99695 Y56.07009
X3.74821 Y56.26579
X3.42765 Y56.3454
X3.08909 Y56.28398
X2.79411 Y56.08131
X2.60094 Y55.76376
X2.55307 Y55.38124
X2.67005 Y54.99945
X2.94214 Y54.68856
X3.33015 Y54.51042
X3.7709 Y54.50639
X4.18746 Y54.68844
X4.50254 Y55.03505
X4.65283 Y55.49328
X4.63393 Y55.86477
X4.49789 Y56.21933
X4.25363 Y56.52025
X3.92152 Y56.73479
X3.53169 Y56.83773
X3.12137 Y56.81426
X2.73128 Y56.66186
X2.40162 Y56.39107
X2.16796 Y56.02485
X2.05737 Y55.59667
X2.08542 Y55.1475
X2.25417 Y54.72189
X2.55149 Y54.3635
X2.95182 Y54.11071
X3.41836 Y53.99246
X3.90636 Y54.02509
X4.3675 Y54.2102
X4.75462 Y54.53405
X5.02654 Y54.9685
X5.15244 Y55.47338
X5.13301 Y55.91309
X4.99857 Y56.3379
X4.75562 Y56.71788
X4.41842 Y57.02551
X4.00815 Y57.23767
X3.55159 Y57.33734
X3.07938 Y57.31495
X2.62395 Y57.16922
X2.21732 Y56.90745
X1.8888 Y56.54518
X1.66297 Y56.10528
X1.55776 Y55.61657
X1.58312 Y55.11186
X1.74012 Y54.62581
X2.02071 Y54.19252
X2.41306 Y53.85104
G03 X4.54694 Y57.22896 I1.06694 J1.68896
X2.41306 Y53.85104 I-1.06694 J-1.68896
G1 X3.65362 Y55.53308
G3 Z-4.05 I-0.17362 J0.00692
Z-4.5 I-0.17362 J0.00692
G1 X3.65358 Y55.70028
X3.49189 Y55.83852
X3.23492 Y55.80542
X3.05657 Y55.55687
X3.12275 Y55.21012
X3.45816 Y54.99167
X3.89468 Y55.09091
X4.15323 Y55.51318
X4.1369 Y55.80166
X3.99695 Y56.07009
X3.74821 Y56.26579
X3.42765 Y56.3454
X3.08909 Y56.28398
X2.79411 Y56.08131
X2.60094 Y55.76376
X2.55307 Y55.38124
X2.67005 Y54.99945
X2.94214 Y54.68856
X3.33015 Y54.51042
X3.7709 Y54.50639
X4.18746 Y54.68844
X4.50254 Y55.03505
X4.65283 Y55.49328
X4.63393 Y55.86477
X4.49789 Y56.21933
X4.25363 Y56.52025
X3.92152 Y56.73479
X3.53169 Y56.83773
X3.12137 Y56.81426
X2.73128 Y56.66186
X2.40162 Y56.39107
X2.16796 Y56.02485
X2.05737 Y55.59667
X2.08542 Y55.1475
X2.25417 Y54.72189
X2.55149 Y54.3635
X2.95182 Y54.11071
X3.41836 Y53.99246
X3.90636 Y54.02509
X4.3675 Y54.2102
X4.75462 Y54.53405
X5.02654 Y54.9685
X5.15244 Y55.47338
X5.13301 Y55.91309
X4.99857 Y56.3379
X4.75562 Y56.71788
X4.41842 Y57.02551
X4.00815 Y57.23767
X3.55159 Y57.33734
X3.07938 Y57.31495
X2.62395 Y57.16922
X2.21732 Y56.90745
X1.8888 Y56.54518
X1.66297 Y56.10528
X1.55776 Y55.61657
X1.58312 Y55.11186
X1.74012 Y54.62581
X2.02071 Y54.19252
X2.41306 Y53.85104
G03 X4.54694 Y57.22896 I1.06694 J1.68896
X2.41306 Y53.85104 I-1.06694 J-1.68896
G1 X3.65362 Y55.53308
X3.48 Y55.54
G0 Z1.
X86.20362 Y55.53308
G1 Z0.635 F596.7
G3 Z0.25125 I-0.17362 J0.00692 F2387.
Z-0.1325 I-0.17362 J0.00692
Z-0.51625 I-0.17362 J0.00692
Z-0.9 I-0.17362 J0.00692
G1 X86.20358 Y55.70028
X86.04189 Y55.83852
X85.78492 Y55.80542
X85.60657 Y55.55687
X85.67275 Y55.21012
X86.00816 Y54.99167
X86.44468 Y55.09091
X86.70323 Y55.51318
X86.6869 Y55.80166
X86.54695 Y56.07009
X86.29821 Y56.26579
X85.97765 Y56.3454
X85.63909 Y56.28398
X85.34411 Y56.08131
X85.15094 Y55.76376
X85.10307 Y55.38124
X85.22005 Y54.99945
X85.49214 Y54.68856
X85.88015 Y54.51042
X86.3209 Y54.50639
X86.73746 Y54.68844
X87.05254 Y55.03505
X87.20283 Y55.49328
X87.18393 Y55.86477
X87.04789 Y56.21933
X86.80363 Y56.52025
X86.47152 Y56.73479
X86.08169 Y56.83773
X85.67137 Y56.81426
X85.28128 Y56.66186
X84.95162 Y56.39107
X84.71796 Y56.02485
X84.60737 Y55.59667
X84.63542 Y55.1475
X84.80417 Y54.72189
X85.10149 Y54.3635
X85.50182 Y54.11071
X85.96836 Y53.99246
X86.45636 Y54.02509
X86.9175 Y54.2102
X87.30462 Y54.53405
X87.57654 Y54.9685
X87.70244 Y55.47338
X87.68301 Y55.91309
X87.54857 Y56.3379
X87.30562 Y56.71788
X86.96842 Y57.02551
X86.55815 Y57.23767
X86.10159 Y57.33734
X85.62938 Y57.31495
X85.17395 Y57.16922
X84.76732 Y56.90745
X84.4388 Y56.54518
X84.21297 Y56.10528
X84.10776 Y55.61657
X84.13312 Y55.11186
X84.29012 Y54.62581
X84.57071 Y54.19252
X84.96306 Y53.85104
G03 X87.09694 Y57.22896 I1.06694 J1.68896
X84.96306 Y53.85104 I-1.06694 J-1.68896
G1 X86.20362 Y55.53308
G3 Z-1.35 I-0.17362 J0.00692
Z-1.8 I-0.17362 J0.00692
G1 X86.20358 Y55.70028
X86.04189 Y55.83852
X85.78492 Y55.80542
X85.60657 Y55.55687
X85.67275 Y55.21012
X86.00816 Y54.99167
X86.44468 Y55.09091
X86.70323 Y55.51318
X86.6869 Y55.80166
X86.54695 Y56.07009
X86.29821 Y56.26579
X85.97765 Y56.3454
X85.63909 Y56.28398
X85.34411 Y56.08131
X85.15094 Y55.76376
X85.10307 Y55.38124
X85.22005 Y54.99945
X85.49214 Y54.68856
X85.88015 Y54.51042
X86.3209 Y54.50639
X86.73746 Y54.68844
X87.05254 Y55.03505
X87.20283 Y55.49328
X87.18393 Y55.86477
X87.04789 Y56.21933
X86.80363 Y56.52025
X86.47152 Y56.73479
X86.08169 Y56.83773
X85.67137 Y56.81426
X85.28128 Y56.66186
X84.95162 Y56.39107
X84.71796 Y56.02485
X84.60737 Y55.59667
X84.63542 Y55.1475
X84.80417 Y54.72189
X85.10149 Y54.3635
X85.50182 Y54.11071
X85.96836 Y53.99246
X86.45636 Y54.02509
X86.9175 Y54.2102
X87.30462 Y54.53405
X87.57654 Y54.9685
X87.70244 Y55.47338
X87.68301 Y55.91309
X87.54857 Y56.3379
X87.30562 Y56.71788
X86.96842 Y57.02551
X86.55815 Y57.23767
X86.10159 Y57.33734
X85.62938 Y57.31495
X85.17395 Y57.16922
X84.76732 Y56.90745
X84.4388 Y56.54518
X84.21297 Y56.10528
X84.10776 Y55.61657
X84.13312 Y55.11186
X84.29012 Y54.62581
X84.57071 Y54.19252
X84.96306 Y53.85104
G03 X87.09694 Y57.22896 I1.06694 J1.68896
X84.96306 Y53.85104 I-1.06694 J-1.68896
G1 X86.20362 Y55.53308
G3 Z-2.25 I-0.17362 J0.00692
Z-2.7 I-0.17362 J0.00692
G1 X86.20358 Y55.70028
X86.04189 Y55.83852
X85.78492 Y55.80542
X85.60657 Y55.55687
X85.67275 Y55.21012
X86.00816 Y54.99167
X86.44468 Y55.09091
X86.70323 Y55.51318
X86.6869 Y55.80166
X86.54695 Y56.07009
X86.29821 Y56.26579
X85.97765 Y56.3454
X85.63909 Y56.28398
X85.34411 Y56.08131
X85.15094 Y55.76376
X85.10307 Y55.38124
X85.22005 Y54.99945
X85.49214 Y54.68856
X85.88015 Y54.51042
X86.3209 Y54.50639
X86.73746 Y54.68844
X87.05254 Y55.03505
X87.20283 Y55.49328
X87.18393 Y55.86477
X87.04789 Y56.21933
X86.80363 Y56.52025
X86.47152 Y56.73479
X86.08169 Y56.83773
X85.67137 Y56.81426
X85.28128 Y56.66186
X84.95162 Y56.39107
X84.71796 Y56.02485
X84.60737 Y55.59667
X84.63542 Y55.1475
X84.80417 Y54.72189
X85.10149 Y54.3635
X85.50182 Y54.11071
X85.96836 Y53.99246
X86.45636 Y54.02509
X86.9175 Y54.2102
X87.30462 Y54.53405
X87.57654 Y54.9685
X87.70244 Y55.47338
X87.68301 Y55.91309
X87.54857 Y56.3379
X87.30562 Y56.71788
X86.96842 Y57.02551
X86.55815 Y57.23767
X86.10159 Y57.33734
X85.62938 Y57.31495
X85.17395 Y57.16922
X84.76732 Y56.90745
X84.4388 Y56.54518
X84.21297 Y56.10528
X84.10776 Y55.61657
X84.13312 Y55.11186
X84.29012 Y54.62581
X84.57071 Y54.19252
X84.96306 Y53.85104
G03 X87.09694 Y57.22896 I1.06694 J1.68896
X84.96306 Y53.85104 I-1.06694 J-1.68896
G1 X86.20362 Y55.53308
G3 Z-3.15 I-0.17362 J0.00692
Z-3.6 I-0.17362 J0.00692
G1 X86.20358 Y55.70028
X86.04189 Y55.83852
X85.78492 Y55.80542
X85.60657 Y55.55687
X85.67275 Y55.21012
X86.00816 Y54.99167
X86.44468 Y55.09091
X86.70323 Y55.51318
X86.6869 Y55.80166
X86.54695 Y56.07009
X86.29821 Y56.26579
X85.97765 Y56.3454
X85.63909 Y56.28398
X85.34411 Y56.08131
X85.15094 Y55.76376
X85.10307 Y55.38124
X85.22005 Y54.99945
X85.49214 Y54.68856
X85.88015 Y54.51042
X86.3209 Y54.50639
X86.73746 Y54.68844
X87.05254 Y55.03505
X87.20283 Y55.49328
X87.18393 Y55.86477
X87.04789 Y56.21933
X86.80363 Y56.52025
X86.47152 Y56.73479
X86.08169 Y56.83773
X85.67137 Y56.81426
X85.28128 Y56.66186
X84.95162 Y56.39107
X84.71796 Y56.02485
X84.60737 Y55.59667
X84.63542 Y55.1475
X84.80417 Y54.72189
X85.10149 Y54.3635
X85.50182 Y54.11071
X85.96836 Y53.99246
X86.45636 Y54.02509
X86.9175 Y54.2102
X87.30462 Y54.53405
X87.57654 Y54.9685
X87.70244 Y55.47338
X87.68301 Y55.91309
X87.54857 Y56.3379
X87.30562 Y56.71788
X86.96842 Y57.02551
X86.55815 Y57.23767
X86.10159 Y57.33734
X85.62938 Y57.31495
X85.17395 Y57.16922
X84.76732 Y56.90745
X84.4388 Y56.54518
X84.21297 Y56.10528
X84.10776 Y55.61657
X84.13312 Y55.11186
X84.29012 Y54.62581
X84.57071 Y54.19252
X84.96306 Y53.85104
G03 X87.09694 Y57.22896 I1.06694 J1.68896
X84.96306 Y53.85104 I-1.06694 J-1.68896
G1 X86.20362 Y55.53308
G3 Z-4.05 I-0.17362 J0.00692
Z-4.5 I-0.17362 J0.00692
G1 X86.20358 Y55.70028
X86.04189 Y55.83852
X85.78492 Y55.80542
X85.60657 Y55.55687
X85.67275 Y55.21012
X86.00816 Y54.99167
X86.44468 Y55.09091
X86.70323 Y55.51318
X86.6869 Y55.80166
X86.54695 Y56.07009
X86.29821 Y56.26579
X85.97765 Y56.3454
X85.63909 Y56.28398
X85.34411 Y56.08131
X85.15094 Y55.76376
X85.10307 Y55.38124
X85.22005 Y54.99945
X85.49214 Y54.68856
X85.88015 Y54.51042
X86.3209 Y54.50639
X86.73746 Y54.68844
X87.05254 Y55.03505
X87.20283 Y55.49328
X87.18393 Y55.86477
X87.04789 Y56.21933
X86.80363 Y56.52025
X86.47152 Y56.73479
X86.08169 Y56.83773
X85.67137 Y56.81426
X85.28128 Y56.66186
X84.95162 Y56.39107
X84.71796 Y56.02485
X84.60737 Y55.59667
X84.63542 Y55.1475
X84.80417 Y54.72189
X85.10149 Y54.3635
X85.50182 Y54.11071
X85.96836 Y53.99246
X86.45636 Y54.02509
X86.9175 Y54.2102
X87.30462 Y54.53405
X87.57654 Y54.9685
X87.70244 Y55.47338
X87.68301 Y55.91309
X87.54857 Y56.3379
X87.30562 Y56.71788
X86.96842 Y57.02551
X86.55815 Y57.23767
X86.10159 Y57.33734
X85.62938 Y57.31495
X85.17395 Y57.16922
X84.76732 Y56.90745
X84.4388 Y56.54518
X84.21297 Y56.10528
X84.10776 Y55.61657
X84.13312 Y55.11186
X84.29012 Y54.62581
X84.57071 Y54.19252
X84.96306 Y53.85104
G03 X87.09694 Y57.22896 I1.06694 J1.68896
X84.96306 Y53.85104 I-1.06694 J-1.68896
G1 X86.20362 Y55.53308
X86.03 Y55.54
G0 Z1.
X93.44412 Y43.74206
G1 Z0.635 F596.7
G3 Z0.25125 I-0.17362 J0.00692 F2387.
Z-0.1325 I-0.17362 J0.00692
Z-0.51625 I-0.17362 J0.00692
Z-0.9 I-0.17362 J0.00692
G1 X93.44408 Y43.90926
X93.28239 Y44.04751
X93.02542 Y44.0144
X92.84707 Y43.76585
X92.91325 Y43.4191
X93.24866 Y43.20065
X93.68518 Y43.29989
X93.94373 Y43.72216
X93.9274 Y44.01064
X93.78745 Y44.27907
X93.53871 Y44.47477
X93.21815 Y44.55438
X92.87959 Y44.49296
X92.58461 Y44.29029
X92.39144 Y43.97274
X92.34357 Y43.59022
X92.46055 Y43.20843
X92.73264 Y42.89754
X93.12065 Y42.7194
X93.5614 Y42.71537
X93.97796 Y42.89741
X94.29305 Y43.24403
X94.44333 Y43.70226
X94.42443 Y44.07375
X94.28839 Y44.42831
X94.04413 Y44.72924
X93.71202 Y44.94377
X93.32219 Y45.04671
X92.91187 Y45.02324
X92.52178 Y44.87084
X92.19212 Y44.60005
X91.95846 Y44.23383
X91.84787 Y43.80565
X91.87592 Y43.35648
X92.04467 Y42.93087
X92.34199 Y42.57248
X92.74232 Y42.31969
X93.20886 Y42.20145
X93.69686 Y42.23407
X94.158 Y42.41918
X94.54512 Y42.74303
X94.81704 Y43.17748
X94.94294 Y43.68236
X94.92351 Y44.12208
X94.78907 Y44.54688
X94.54612 Y44.92686
X94.20892 Y45.2345
X93.79865 Y45.44665
X93.34209 Y45.54632
X92.86988 Y45.52393
X92.41445 Y45.3782
X92.00782 Y45.11643
X91.6793 Y44.75416
X91.45347 Y44.31426
X91.34826 Y43.82555
X91.37362 Y43.32084
X91.53062 Y42.83479
X91.81121 Y42.4015
X92.20364 Y42.06014
G03 X94.33736 Y45.43782 I1.06686 J1.68884
X92.20364 Y42.06014 I-1.06686 J-1.68884
G1 X93.44412 Y43.74206
G3 Z-1.35 I-0.17362 J0.00692
Z-1.8 I-0.17362 J0.00692
G1 X93.44408 Y43.90926
X93.28239 Y44.04751
X93.02542 Y44.0144
X92.84707 Y43.76585
X92.91325 Y43.4191
X93.24866 Y43.20065
X93.68518 Y43.29989
X93.94373 Y43.72216
X93.9274 Y44.01064
X93.78745 Y44.27907
X93.53871 Y44.47477
X93.21815 Y44.55438
X92.87959 Y44.49296
X92.58461 Y44.29029
X92.39144 Y43.97274
X92.34357 Y43.59022
X92.46055 Y43.20843
X92.73264 Y42.89754
X93.12065 Y42.7194
X93.5614 Y42.71537
X93.97796 Y42.89741
X94.29305 Y43.24403
X94.44333 Y43.70226
X94.42443 Y44.07375
X94.28839 Y44.42831
X94.04413 Y44.72924
X93.71202 Y44.94377
X93.32219 Y45.04671
X92.91187 Y45.02324
X92.52178 Y44.87084
X92.19212 Y44.60005
X91.95846 Y44.23383
X91.84787 Y43.80565
X91.87592 Y43.35648
X92.04467 Y42.93087
X92.34199 Y42.57248
X92.74232 Y42.31969
X93.20886 Y42.20145
X93.69686 Y42.23407
X94.158 Y42.41918
X94.54512 Y42.74303
X94.81704 Y43.17748
X94.94294 Y43.68236
X94.92351 Y44.12208
X94.78907 Y44.54688
X94.54612 Y44.92686
X94.20892 Y45.2345
X93.79865 Y45.44665
X93.34209 Y45.54632
X92.86988 Y45.52393
X92.41445 Y45.3782
X92.00782 Y45.11643
X91.6793 Y44.75416
X91.45347 Y44.31426
X91.34826 Y43.82555
X91.37362 Y43.32084
X91.53062 Y42.83479
X91.81121 Y42.4015
X92.20364 Y42.06014
G03 X94.33736 Y45.43782 I1.06686 J1.68884
X92.20364 Y42.06014 I-1.06686 J-1.68884
G1 X93.44412 Y43.74206
G3 Z-2.25 I-0.17362 J0.00692
Z-2.7 I-0.17362 J0.00692
G1 X93.44408 Y43.90926
X93.28239 Y44.04751
X93.02542 Y44.0144
X92.84707 Y43.76585
X92.91325 Y43.4191
X93.24866 Y43.20065
X93.68518 Y43.29989
X93.94373 Y43.72216
X93.9274 Y44.01064
X93.78745 Y44.27907
X93.53871 Y44.47477
X93.21815 Y44.55438
X92.87959 Y44.49296
X92.58461 Y44.29029
X92.39144 Y43.97274
X92.34357 Y43.59022
X92.46055 Y43.20843
X92.73264 Y42.89754
X93.12065 Y42.7194
X93.5614 Y42.71537
X93.97796 Y42.89741
X94.29305 Y43.24403
X94.44333 Y43.70226
X94.42443 Y44.07375
X94.28839 Y44.42831
X94.04413 Y44.72924
X93.71202 Y44.94377
X93.32219 Y45.04671
X92.91187 Y45.02324
X92.52178 Y44.87084
X92.19212 Y44.60005
X91.95846 Y44.23383
X91.84787 Y43.80565
X91.87592 Y43.35648
X92.04467 Y42.93087
X92.34199 Y42.57248
X92.74232 Y42.31969
X93.20886 Y42.20145
X93.69686 Y42.23407
X94.158 Y42.41918
X94.54512 Y42.74303
X94.81704 Y43.17748
X94.94294 Y43.68236
X94.92351 Y44.12208
X94.78907 Y44.54688
X94.54612 Y44.92686
X94.20892 Y45.2345
X93.79865 Y45.44665
X93.34209 Y45.54632
X92.86988 Y45.52393
X92.41445 Y45.3782
X92.00782 Y45.11643
X91.6793 Y44.75416
X91.45347 Y44.31426
X91.34826 Y43.82555
X91.37362 Y43.32084
X91.53062 Y42.83479
X91.81121 Y42.4015
X92.20364 Y42.06014
G03 X94.33736 Y45.43782 I1.06686 J1.68884
X92.20364 Y42.06014 I-1.06686 J-1.68884
G1 X93.44412 Y43.74206
G3 Z-3.15 I-0.17362 J0.00692
Z-3.6 I-0.17362 J0.00692
G1 X93.44408 Y43.90926
X93.28239 Y44.04751
X93.02542 Y44.0144
X92.84707 Y43.76585
X92.91325 Y43.4191
X93.24866 Y43.20065
X93.68518 Y43.29989
X93.94373 Y43.72216
X93.9274 Y44.01064
X93.78745 Y44.27907
X93.53871 Y44.47477
X93.21815 Y44.55438
X92.87959 Y44.49296
X92.58461 Y44.29029
X92.39144 Y43.97274
X92.34357 Y43.59022
X92.46055 Y43.20843
X92.73264 Y42.89754
X93.12065 Y42.7194
X93.5614 Y42.71537
X93.97796 Y42.89741
X94.29305 Y43.24403
X94.44333 Y43.70226
X94.42443 Y44.07375
X94.28839 Y44.42831
X94.04413 Y44.72924
X93.71202 Y44.94377
X93.32219 Y45.04671
X92.91187 Y45.02324
X92.52178 Y44.87084
X92.19212 Y44.60005
X91.95846 Y44.23383
X91.84787 Y43.80565
X91.87592 Y43.35648
X92.04467 Y42.93087
X92.34199 Y42.57248
X92.74232 Y42.31969
X93.20886 Y42.20145
X93.69686 Y42.23407
X94.158 Y42.41918
X94.54512 Y42.74303
X94.81704 Y43.17748
X94.94294 Y43.68236
X94.92351 Y44.12208
X94.78907 Y44.54688
X94.54612 Y44.92686
X94.20892 Y45.2345
X93.79865 Y45.44665
X93.34209 Y45.54632
X92.86988 Y45.52393
X92.41445 Y45.3782
X92.00782 Y45.11643
X91.6793 Y44.75416
X91.45347 Y44.31426
X91.34826 Y43.82555
X91.37362 Y43.32084
X91.53062 Y42.83479
X91.81121 Y42.4015
X92.20364 Y42.06014
G03 X94.33736 Y45.43782 I1.06686 J1.68884
X92.20364 Y42.06014 I-1.06686 J-1.68884
G1 X93.44412 Y43.74206
G3 Z-4.05 I-0.17362 J0.00692
Z-4.5 I-0.17362 J0.00692
G1 X93.44408 Y43.90926
X93.28239 Y44.04751
X93.02542 Y44.0144
X92.84707 Y43.76585
X92.91325 Y43.4191
X93.24866 Y43.20065
X93.68518 Y43.29989
X93.94373 Y43.72216
X93.9274 Y44.01064
X93.78745 Y44.27907
X93.53871 Y44.47477
X93.21815 Y44.55438
X92.87959 Y44.49296
X92.58461 Y44.29029
X92.39144 Y43.97274
X92.34357 Y43.59022
X92.46055 Y43.20843
X92.73264 Y42.89754
X93.12065 Y42.7194
X93.5614 Y42.71537
X93.97796 Y42.89741
X94.29305 Y43.24403
X94.44333 Y43.70226
X94.42443 Y44.07375
X94.28839 Y44.42831
X94.04413 Y44.72924
X93.71202 Y44.94377
X93.32219 Y45.04671
X92.91187 Y45.02324
X92.52178 Y44.87084
X92.19212 Y44.60005
X91.95846 Y44.23383
X91.84787 Y43.80565
X91.87592 Y43.35648
X92.04467 Y42.93087
X92.34199 Y42.57248
X92.74232 Y42.31969
X93.20886 Y42.20145
X93.69686 Y42.23407
X94.158 Y42.41918
X94.54512 Y42.74303
X94.81704 Y43.17748
X94.94294 Y43.68236
X94.92351 Y44.12208
X94.78907 Y44.54688
X94.54612 Y44.92686
X94.20892 Y45.2345
X93.79865 Y45.44665
X93.34209 Y45.54632
X92.86988 Y45.52393
X92.41445 Y45.3782
X92.00782 Y45.11643
X91.6793 Y44.75416
X91.45347 Y44.31426
X91.34826 Y43.82555
X91.37362 Y43.32084
X91.53062 Y42.83479
X91.81121 Y42.4015
X92.20364 Y42.06014
G03 X94.33736 Y45.43782 I1.06686 J1.68884
X92.20364 Y42.06014 I-1.06686 J-1.68884
G1 X93.44412 Y43.74206
X93.2705 Y43.74898
G0 Z1.
X93.45862 Y85.64308
G1 Z0.635 F596.7
G3 Z0.25125 I-0.17362 J0.00692 F2387.
Z-0.1325 I-0.17362 J0.00692
Z-0.51625 I-0.17362 J0.00692
Z-0.9 I-0.17362 J0.00692
G1 X93.45858 Y85.81028
X93.29689 Y85.94853
X93.03992 Y85.91542
X92.86157 Y85.66687
X92.92775 Y85.32012
X93.26316 Y85.10167
X93.69968 Y85.20091
X93.95823 Y85.62318
X93.9419 Y85.91166
X93.80195 Y86.18009
X93.55321 Y86.37579
X93.23265 Y86.4554
X92.89409 Y86.39398
X92.59911 Y86.19131
X92.40594 Y85.87376
X92.35807 Y85.49124
X92.47505 Y85.10945
X92.74714 Y84.79856
X93.13515 Y84.62042
X93.5759 Y84.61639
X93.99246 Y84.79843
X94.30755 Y85.14505
X94.45783 Y85.60328
X94.43893 Y85.97477
X94.30289 Y86.32933
X94.05863 Y86.63025
X93.72652 Y86.84479
X93.33669 Y86.94773
X92.92637 Y86.92426
X92.53628 Y86.77186
X92.20662 Y86.50107
X91.97296 Y86.13485
X91.86237 Y85.70667
X91.89042 Y85.2575
X92.05917 Y84.83189
X92.35649 Y84.4735
X92.75682 Y84.22071
X93.22336 Y84.10246
X93.71136 Y84.13509
X94.1725 Y84.3202
X94.55962 Y84.64405
X94.83154 Y85.0785
X94.95744 Y85.58338
X94.93801 Y86.02309
X94.80357 Y86.4479
X94.56062 Y86.82788
X94.22342 Y87.13551
X93.81315 Y87.34767
X93.35659 Y87.44734
X92.88438 Y87.42495
X92.42895 Y87.27922
X92.02232 Y87.01745
X91.6938 Y86.65518
X91.46797 Y86.21528
X91.36276 Y85.72657
X91.38812 Y85.22186
X91.54512 Y84.73581
X91.82571 Y84.30252
X92.21806 Y83.96104
G03 X94.35194 Y87.33896 I1.06694 J1.68896
X92.21806 Y83.96104 I-1.06694 J-1.68896
G1 X93.45862 Y85.64308
G3 Z-1.35 I-0.17362 J0.00692
Z-1.8 I-0.17362 J0.00692
G1 X93.45858 Y85.81028
X93.29689 Y85.94853
X93.03992 Y85.91542
X92.86157 Y85.66687
X92.92775 Y85.32012
X93.26316 Y85.10167
X93.69968 Y85.20091
X93.95823 Y85.62318
X93.9419 Y85.91166
X93.80195 Y86.18009
X93.55321 Y86.37579
X93.23265 Y86.4554
X92.89409 Y86.39398
X92.59911 Y86.19131
X92.40594 Y85.87376
X92.35807 Y85.49124
X92.47505 Y85.10945
X92.74714 Y84.79856
X93.13515 Y84.62042
X93.5759 Y84.61639
X93.99246 Y84.79843
X94.30755 Y85.14505
X94.45783 Y85.60328
X94.43893 Y85.97477
X94.30289 Y86.32933
X94.05863 Y86.63025
X93.72652 Y86.84479
X93.33669 Y86.94773
X92.92637 Y86.92426
X92.53628 Y86.77186
X92.20662 Y86.50107
X91.97296 Y86.13485
X91.86237 Y85.70667
X91.89042 Y85.2575
X92.05917 Y84.83189
X92.35649 Y84.4735
X92.75682 Y84.22071
X93.22336 Y84.10246
X93.71136 Y84.13509
X94.1725 Y84.3202
X94.55962 Y84.64405
X94.83154 Y85.0785
X94.95744 Y85.58338
X94.93801 Y86.02309
X94.80357 Y86.4479
X94.56062 Y86.82788
X94.22342 Y87.13551
X93.81315 Y87.34767
X93.35659 Y87.44734
X92.88438 Y87.42495
X92.42895 Y87.27922
X92.02232 Y87.01745
X91.6938 Y86.65518
X91.46797 Y86.21528
X91.36276 Y85.72657
X91.38812 Y85.22186
X91.54512 Y84.73581
X91.82571 Y84.30252
X92.21806 Y83.96104
G03 X94.35194 Y87.33896 I1.06694 J1.68896
X92.21806 Y83.96104 I-1.06694 J-1.68896
G1 X93.45862 Y85.64308
G3 Z-2.25 I-0.17362 J0.00692
Z-2.7 I-0.17362 J0.00692
G1 X93.45858 Y85.81028
X93.29689 Y85.94853
X93.03992 Y85.91542
X92.86157 Y85.66687
X92.92775 Y85.32012
X93.26316 Y85.10167
X93.69968 Y85.20091
X93.95823 Y85.62318
X93.9419 Y85.91166
X93.80195 Y86.18009
X93.55321 Y86.37579
X93.23265 Y86.4554
X92.89409 Y86.39398
X92.59911 Y86.19131
X92.40594 Y85.87376
X92.35807 Y85.49124
X92.47505 Y85.10945
X92.74714 Y84.79856
X93.13515 Y84.62042
X93.5759 Y84.61639
X93.99246 Y84.79843
X94.30755 Y85.14505
X94.45783 Y85.60328
X94.43893 Y85.97477
X94.30289 Y86.32933
X94.05863 Y86.63025
X93.72652 Y86.84479
X93.33669 Y86.94773
X92.92637 Y86.92426
X92.53628 Y86.77186
X92.20662 Y86.50107
X91.97296 Y86.13485
X91.86237 Y85.70667
X91.89042 Y85.2575
X92.05917 Y84.83189
X92.35649 Y84.4735
X92.75682 Y84.22071
X93.22336 Y84.10246
X93.71136 Y84.13509
X94.1725 Y84.3202
X94.55962 Y84.64405
X94.83154 Y85.0785
X94.95744 Y85.58338
X94.93801 Y86.02309
X94.80357 Y86.4479
X94.56062 Y86.82788
X94.22342 Y87.13551
X93.81315 Y87.34767
X93.35659 Y87.44734
X92.88438 Y87.42495
X92.42895 Y87.27922
X92.02232 Y87.01745
X91.6938 Y86.65518
X91.46797 Y86.21528
X91.36276 Y85.72657
X91.38812 Y85.22186
X91.54512 Y84.73581
X91.82571 Y84.30252
X92.21806 Y83.96104
G03 X94.35194 Y87.33896 I1.06694 J1.68896
X92.21806 Y83.96104 I-1.06694 J-1.68896
G1 X93.45862 Y85.64308
G3 Z-3.15 I-0.17362 J0.00692
Z-3.6 I-0.17362 J0.00692
G1 X93.45858 Y85.81028
X93.29689 Y85.94853
X93.03992 Y85.91542
X92.86157 Y85.66687
X92.92775 Y85.32012
X93.26316 Y85.10167
X93.69968 Y85.20091
X93.95823 Y85.62318
X93.9419 Y85.91166
X93.80195 Y86.18009
X93.55321 Y86.37579
X93.23265 Y86.4554
X92.89409 Y86.39398
X92.59911 Y86.19131
X92.40594 Y85.87376
X92.35807 Y85.49124
X92.47505 Y85.10945
X92.74714 Y84.79856
X93.13515 Y84.62042
X93.5759 Y84.61639
X93.99246 Y84.79843
X94.30755 Y85.14505
X94.45783 Y85.60328
X94.43893 Y85.97477
X94.30289 Y86.32933
X94.05863 Y86.63025
X93.72652 Y86.84479
X93.33669 Y86.94773
X92.92637 Y86.92426
X92.53628 Y86.77186
X92.20662 Y86.50107
X91.97296 Y86.13485
X91.86237 Y85.70667
X91.89042 Y85.2575
X92.05917 Y84.83189
X92.35649 Y84.4735
X92.75682 Y84.22071
X93.22336 Y84.10246
X93.71136 Y84.13509
X94.1725 Y84.3202
X94.55962 Y84.64405
X94.83154 Y85.0785
X94.95744 Y85.58338
X94.93801 Y86.02309
X94.80357 Y86.4479
X94.56062 Y86.82788
X94.22342 Y87.13551
X93.81315 Y87.34767
X93.35659 Y87.44734
X92.88438 Y87.42495
X92.42895 Y87.27922
X92.02232 Y87.01745
X91.6938 Y86.65518
X91.46797 Y86.21528
X91.36276 Y85.72657
X91.38812 Y85.22186
X91.54512 Y84.73581
X91.82571 Y84.30252
X92.21806 Y83.96104
G03 X94.35194 Y87.33896 I1.06694 J1.68896
X92.21806 Y83.96104 I-1.06694 J-1.68896
G1 X93.45862 Y85.64308
G3 Z-4.05 I-0.17362 J0.00692
Z-4.5 I-0.17362 J0.00692
G1 X93.45858 Y85.81028
X93.29689 Y85.94853
X93.03992 Y85.91542
X92.86157 Y85.66687
X92.92775 Y85.32012
X93.26316 Y85.10167
X93.69968 Y85.20091
X93.95823 Y85.62318
X93.9419 Y85.91166
X93.80195 Y86.18009
X93.55321 Y86.37579
X93.23265 Y86.4554
X92.89409 Y86.39398
X92.59911 Y86.19131
X92.40594 Y85.87376
X92.35807 Y85.49124
X92.47505 Y85.10945
X92.74714 Y84.79856
X93.13515 Y84.62042
X93.5759 Y84.61639
X93.99246 Y84.79843
X94.30755 Y85.14505
X94.45783 Y85.60328
X94.43893 Y85.97477
X94.30289 Y86.32933
X94.05863 Y86.63025
X93.72652 Y86.84479
X93.33669 Y86.94773
X92.92637 Y86.92426
X92.53628 Y86.77186
X92.20662 Y86.50107
X91.97296 Y86.13485
X91.86237 Y85.70667
X91.89042 Y85.2575
X92.05917 Y84.83189
X92.35649 Y84.4735
X92.75682 Y84.22071
X93.22336 Y84.10246
X93.71136 Y84.13509
X94.1725 Y84.3202
X94.55962 Y84.64405
X94.83154 Y85.0785
X94.95744 Y85.58338
X94.93801 Y86.02309
X94.80357 Y86.4479
X94.56062 Y86.82788
X94.22342 Y87.13551
X93.81315 Y87.34767
X93.35659 Y87.44734
X92.88438 Y87.42495
X92.42895 Y87.27922
X92.02232 Y87.01745
X91.6938 Y86.65518
X91.46797 Y86.21528
X91.36276 Y85.72657
X91.38812 Y85.22186
X91.54512 Y84.73581
X91.82571 Y84.30252
X92.21806 Y83.96104
G03 X94.35194 Y87.33896 I1.06694 J1.68896
X92.21806 Y83.96104 I-1.06694 J-1.68896
G1 X93.45862 Y85.64308
X93.285 Y85.65
G0 Z1.
X84.93362 Y103.79308
G1 Z0.635 F596.7
G3 Z0.25125 I-0.17362 J0.00692 F2387.
Z-0.1325 I-0.17362 J0.00692
Z-0.51625 I-0.17362 J0.00692
Z-0.9 I-0.17362 J0.00692
G1 X84.93358 Y103.96028
X84.77189 Y104.09852
X84.51492 Y104.06542
X84.33657 Y103.81687
X84.40275 Y103.47012
X84.73816 Y103.25167
X85.17468 Y103.35091
X85.43323 Y103.77318
X85.4169 Y104.06166
X85.27695 Y104.33009
X85.02821 Y104.52579
X84.70765 Y104.6054
X84.36909 Y104.54398
X84.07411 Y104.34131
X83.88094 Y104.02376
X83.83307 Y103.64124
X83.95005 Y103.25945
X84.22214 Y102.94856
X84.61015 Y102.77042
X85.0509 Y102.76639
X85.46746 Y102.94843
X85.78255 Y103.29505
X85.93283 Y103.75328
X85.91393 Y104.12477
X85.77789 Y104.47933
X85.53363 Y104.78025
X85.20152 Y104.99479
X84.81169 Y105.09773
X84.40137 Y105.07426
X84.01128 Y104.92186
X83.68162 Y104.65107
X83.44796 Y104.28485
X83.33737 Y103.85667
X83.36542 Y103.4075
X83.53417 Y102.98189
X83.83149 Y102.6235
X84.23182 Y102.37071
X84.69836 Y102.25247
X85.18636 Y102.28509
X85.6475 Y102.4702
X86.03462 Y102.79405
X86.30654 Y103.2285
X86.43244 Y103.73338
X86.41301 Y104.1731
X86.27857 Y104.5979
X86.03562 Y104.97788
X85.69842 Y105.28552
X85.28815 Y105.49767
X84.83159 Y105.59734
X84.35938 Y105.57495
X83.90395 Y105.42922
X83.49732 Y105.16745
X83.1688 Y104.80518
X82.94297 Y104.36528
X82.83776 Y103.87657
X82.86312 Y103.37186
X83.02012 Y102.88581
X83.30071 Y102.45252
X83.69306 Y102.11104
G03 X85.82694 Y105.48896 I1.06694 J1.68896
X83.69306 Y102.11104 I-1.06694 J-1.68896
G1 X84.93362 Y103.79308
G3 Z-1.35 I-0.17362 J0.00692
Z-1.8 I-0.17362 J0.00692
G1 X84.93358 Y103.96028
X84.77189 Y104.09852
X84.51492 Y104.06542
X84.33657 Y103.81687
X84.40275 Y103.47012
X84.73816 Y103.25167
X85.17468 Y103.35091
X85.43323 Y103.77318
X85.4169 Y104.06166
X85.27695 Y104.33009
X85.02821 Y104.52579
X84.70765 Y104.6054
X84.36909 Y104.54398
X84.07411 Y104.34131
X83.88094 Y104.02376
X83.83307 Y103.64124
X83.95005 Y103.25945
X84.22214 Y102.94856
X84.61015 Y102.77042
X85.0509 Y102.76639
X85.46746 Y102.94843
X85.78255 Y103.29505
X85.93283 Y103.75328
X85.91393 Y104.12477
X85.77789 Y104.47933
X85.53363 Y104.78025
X85.20152 Y104.99479
X84.81169 Y105.09773
X84.40137 Y105.07426
X84.01128 Y104.92186
X83.68162 Y104.65107
X83.44796 Y104.28485
X83.33737 Y103.85667
X83.36542 Y103.4075
X83.53417 Y102.98189
X83.83149 Y102.6235
X84.23182 Y102.37071
X84.69836 Y102.25247
X85.18636 Y102.28509
X85.6475 Y102.4702
X86.03462 Y102.79405
X86.30654 Y103.2285
X86.43244 Y103.73338
X86.41301 Y104.1731
X86.27857 Y104.5979
X86.03562 Y104.97788
X85.69842 Y105.28552
X85.28815 Y105.49767
X84.83159 Y105.59734
X84.35938 Y105.57495
X83.90395 Y105.42922
X83.49732 Y105.16745
X83.1688 Y104.80518
X82.94297 Y104.36528
X82.83776 Y103.87657
X82.86312 Y103.37186
X83.02012 Y102.88581
X83.30071 Y102.45252
X83.69306 Y102.11104
G03 X85.82694 Y105.48896 I1.06694 J1.68896
X83.69306 Y102.11104 I-1.06694 J-1.68896
G1 X84.93362 Y103.79308
G3 Z-2.25 I-0.17362 J0.00692
Z-2.7 I-0.17362 J0.00692
G1 X84.93358 Y103.96028
X84.77189 Y104.09852
X84.51492 Y104.06542
X84.33657 Y103.81687
X84.40275 Y103.47012
X84.73816 Y103.25167
X85.17468 Y103.35091
X85.43323 Y103.77318
X85.4169 Y104.06166
X85.27695 Y104.33009
X85.02821 Y104.52579
X84.70765 Y104.6054
X84.36909 Y104.54398
X84.07411 Y104.34131
X83.88094 Y104.02376
X83.83307 Y103.64124
X83.95005 Y103.25945
X84.22214 Y102.94856
X84.61015 Y102.77042
X85.0509 Y102.76639
X85.46746 Y102.94843
X85.78255 Y103.29505
X85.93283 Y103.75328
X85.91393 Y104.12477
X85.77789 Y104.47933
X85.53363 Y104.78025
X85.20152 Y104.99479
X84.81169 Y105.09773
X84.40137 Y105.07426
X84.01128 Y104.92186
X83.68162 Y104.65107
X83.44796 Y104.28485
X83.33737 Y103.85667
X83.36542 Y103.4075
X83.53417 Y102.98189
X83.83149 Y102.6235
X84.23182 Y102.37071
X84.69836 Y102.25247
X85.18636 Y102.28509
X85.6475 Y102.4702
X86.03462 Y102.79405
X86.30654 Y103.2285
X86.43244 Y103.73338
X86.41301 Y104.1731
X86.27857 Y104.5979
X86.03562 Y104.97788
X85.69842 Y105.28552
X85.28815 Y105.49767
X84.83159 Y105.59734
X84.35938 Y105.57495
X83.90395 Y105.42922
X83.49732 Y105.16745
X83.1688 Y104.80518
X82.94297 Y104.36528
X82.83776 Y103.87657
X82.86312 Y103.37186
X83.02012 Y102.88581
X83.30071 Y102.45252
X83.69306 Y102.11104
G03 X85.82694 Y105.48896 I1.06694 J1.68896
X83.69306 Y102.11104 I-1.06694 J-1.68896
G1 X84.93362 Y103.79308
G3 Z-3.15 I-0.17362 J0.00692
Z-3.6 I-0.17362 J0.00692
G1 X84.93358 Y103.96028
X84.77189 Y104.09852
X84.51492 Y104.06542
X84.33657 Y103.81687
X84.40275 Y103.47012
X84.73816 Y103.25167
X85.17468 Y103.35091
X85.43323 Y103.77318
X85.4169 Y104.06166
X85.27695 Y104.33009
X85.02821 Y104.52579
X84.70765 Y104.6054
X84.36909 Y104.54398
X84.07411 Y104.34131
X83.88094 Y104.02376
X83.83307 Y103.64124
X83.95005 Y103.25945
X84.22214 Y102.94856
X84.61015 Y102.77042
X85.0509 Y102.76639
X85.46746 Y102.94843
X85.78255 Y103.29505
X85.93283 Y103.75328
X85.91393 Y104.12477
X85.77789 Y104.47933
X85.53363 Y104.78025
X85.20152 Y104.99479
X84.81169 Y105.09773
X84.40137 Y105.07426
X84.01128 Y104.92186
X83.68162 Y104.65107
X83.44796 Y104.28485
X83.33737 Y103.85667
X83.36542 Y103.4075
X83.53417 Y102.98189
X83.83149 Y102.6235
X84.23182 Y102.37071
X84.69836 Y102.25247
X85.18636 Y102.28509
X85.6475 Y102.4702
X86.03462 Y102.79405
X86.30654 Y103.2285
X86.43244 Y103.73338
X86.41301 Y104.1731
X86.27857 Y104.5979
X86.03562 Y104.97788
X85.69842 Y105.28552
X85.28815 Y105.49767
X84.83159 Y105.59734
X84.35938 Y105.57495
X83.90395 Y105.42922
X83.49732 Y105.16745
X83.1688 Y104.80518
X82.94297 Y104.36528
X82.83776 Y103.87657
X82.86312 Y103.37186
X83.02012 Y102.88581
X83.30071 Y102.45252
X83.69306 Y102.11104
G03 X85.82694 Y105.48896 I1.06694 J1.68896
X83.69306 Y102.11104 I-1.06694 J-1.68896
G1 X84.93362 Y103.79308
G3 Z-4.05 I-0.17362 J0.00692
Z-4.5 I-0.17362 J0.00692
G1 X84.93358 Y103.96028
X84.77189 Y104.09852
X84.51492 Y104.06542
X84.33657 Y103.81687
X84.40275 Y103.47012
X84.73816 Y103.25167
X85.17468 Y103.35091
X85.43323 Y103.77318
X85.4169 Y104.06166
X85.27695 Y104.33009
X85.02821 Y104.52579
X84.70765 Y104.6054
X84.36909 Y104.54398
X84.07411 Y104.34131
X83.88094 Y104.02376
X83.83307 Y103.64124
X83.95005 Y103.25945
X84.22214 Y102.94856
X84.61015 Y102.77042
X85.0509 Y102.76639
X85.46746 Y102.94843
X85.78255 Y103.29505
X85.93283 Y103.75328
X85.91393 Y104.12477
X85.77789 Y104.47933
X85.53363 Y104.78025
X85.20152 Y104.99479
X84.81169 Y105.09773
X84.40137 Y105.07426
X84.01128 Y104.92186
X83.68162 Y104.65107
X83.44796 Y104.28485
X83.33737 Y103.85667
X83.36542 Y103.4075
X83.53417 Y102.98189
X83.83149 Y102.6235
X84.23182 Y102.37071
X84.69836 Y102.25247
X85.18636 Y102.28509
X85.6475 Y102.4702
X86.03462 Y102.79405
X86.30654 Y103.2285
X86.43244 Y103.73338
X86.41301 Y104.1731
X86.27857 Y104.5979
X86.03562 Y104.97788
X85.69842 Y105.28552
X85.28815 Y105.49767
X84.83159 Y105.59734
X84.35938 Y105.57495
X83.90395 Y105.42922
X83.49732 Y105.16745
X83.1688 Y104.80518
X82.94297 Y104.36528
X82.83776 Y103.87657
X82.86312 Y103.37186
X83.02012 Y102.88581
X83.30071 Y102.45252
X83.69306 Y102.11104
G03 X85.82694 Y105.48896 I1.06694 J1.68896
X83.69306 Y102.11104 I-1.06694 J-1.68896
G1 X84.93362 Y103.79308
X84.76 Y103.8
G0 Z1.
X84.17362 Y8.99308
G1 Z0.635 F596.7
G3 Z0.25125 I-0.17362 J0.00692 F2387.
Z-0.1325 I-0.17362 J0.00692
Z-0.51625 I-0.17362 J0.00692
Z-0.9 I-0.17362 J0.00692
G1 X84.17358 Y9.16028
X84.01189 Y9.29852
X83.75492 Y9.26542
X83.57657 Y9.01687
X83.64275 Y8.67012
X83.97816 Y8.45167
X84.41468 Y8.55091
X84.67323 Y8.97318
X84.6569 Y9.26166
X84.51695 Y9.53009
X84.25917 Y9.70134
G03 X83.74083 Y8.29866 I-0.25917 J-0.70134
X84.25917 Y9.70134 I0.25917 J0.70134
G1 X84.17362 Y8.99308
G3 Z-1.35 I-0.17362 J0.00692
Z-1.8 I-0.17362 J0.00692
G1 X84.17358 Y9.16028
X84.01189 Y9.29852
X83.75492 Y9.26542
X83.57657 Y9.01687
X83.64275 Y8.67012
X83.97816 Y8.45167
X84.41468 Y8.55091
X84.67323 Y8.97318
X84.6569 Y9.26166
X84.51695 Y9.53009
X84.25917 Y9.70134
G03 X83.74083 Y8.29866 I-0.25917 J-0.70134
X84.25917 Y9.70134 I0.25917 J0.70134
G1 X84.17362 Y8.99308
G3 Z-2.25 I-0.17362 J0.00692
Z-2.7 I-0.17362 J0.00692
G1 X84.17358 Y9.16028
X84.01189 Y9.29852
X83.75492 Y9.26542
X83.57657 Y9.01687
X83.64275 Y8.67012
X83.97816 Y8.45167
X84.41468 Y8.55091
X84.67323 Y8.97318
X84.6569 Y9.26166
X84.51695 Y9.53009
X84.25917 Y9.70134
G03 X83.74083 Y8.29866 I-0.25917 J-0.70134
X84.25917 Y9.70134 I0.25917 J0.70134
G1 X84.17362 Y8.99308
G3 Z-3.15 I-0.17362 J0.00692
Z-3.6 I-0.17362 J0.00692
G1 X84.17358 Y9.16028
X84.01189 Y9.29852
X83.75492 Y9.26542
X83.57657 Y9.01687
X83.64275 Y8.67012
X83.97816 Y8.45167
X84.41468 Y8.55091
X84.67323 Y8.97318
X84.6569 Y9.26166
X84.51695 Y9.53009
X84.25917 Y9.70134
G03 X83.74083 Y8.29866 I-0.25917 J-0.70134
X84.25917 Y9.70134 I0.25917 J0.70134
G1 X84.17362 Y8.99308
G3 Z-4.05 I-0.17362 J0.00692
Z-4.5 I-0.17362 J0.00692
G1 X84.17358 Y9.16028
X84.01189 Y9.29852
X83.75492 Y9.26542
X83.57657 Y9.01687
X83.64275 Y8.67012
X83.97816 Y8.45167
X84.41468 Y8.55091
X84.67323 Y8.97318
X84.6569 Y9.26166
X84.51695 Y9.53009
X84.25917 Y9.70134
G03 X83.74083 Y8.29866 I-0.25917 J-0.70134
X84.25917 Y9.70134 I0.25917 J0.70134
G1 X84.17362 Y8.99308
X84. Y9.
G0 Z1.
(2 1/2 Axis Pocketing)
(SlotDrill 2mm Carbide)
X24.28298 Y8.58794
G1 Z0.7 F596.7
Z0.1 F1790.2
X24.287 Y8.59057 Z0.09958
X24.31239 Y8.6096 Z0.0968
X24.33652 Y8.6302 Z0.09403
X24.3593 Y8.65229 Z0.09125
X24.38063 Y8.67577 Z0.08848
X24.40042 Y8.70057 Z0.0857
X24.41861 Y8.72657 Z0.08293
X24.43511 Y8.75367 Z0.08015
X24.44986 Y8.78176 Z0.07737
X24.46279 Y8.81073 Z0.0746
X24.47386 Y8.84046 Z0.07182
X24.48303 Y8.87084 Z0.06905
X24.49025 Y8.90173 Z0.06627
X24.49549 Y8.93303 Z0.06349
X24.49874 Y8.96459 Z0.06072
X24.49999 Y8.99629 Z0.05794
X24.49921 Y9.02801 Z0.05517
X24.49643 Y9.05962 Z0.05239
X24.49165 Y9.09098 Z0.04961
X24.48489 Y9.12198 Z0.04684
X24.47618 Y9.15249 Z0.04406
X24.46555 Y9.18238 Z0.04129
X24.45304 Y9.21154 Z0.03851
X24.43872 Y9.23985 Z0.03574
X24.42262 Y9.26719 Z0.03296
X24.40482 Y9.29346 Z0.03018
X24.38539 Y9.31854 Z0.02741
X24.36442 Y9.34235 Z0.02463
X24.34197 Y9.36477 Z0.02186
X24.31815 Y9.38572 Z0.01908
X24.29304 Y9.40513 Z0.0163
X24.26676 Y9.4229 Z0.01353
X24.2394 Y9.43896 Z0.01075
X24.21107 Y9.45326 Z0.00798
X24.1819 Y9.46574 Z0.0052
X24.152 Y9.47634 Z0.00243
X24.12148 Y9.48502 Z-0.00035
X24.09047 Y9.49175 Z-0.00313
X24.0591 Y9.49649 Z-0.0059
X24.02749 Y9.49924 Z-0.00868
X23.99577 Y9.49998 Z-0.01145
X23.96407 Y9.49871 Z-0.01423
X23.93251 Y9.49542 Z-0.017
X23.90123 Y9.49015 Z-0.01978
X23.87034 Y9.4829 Z-0.02256
X23.83997 Y9.4737 Z-0.02533
X23.81025 Y9.4626 Z-0.02811
X23.7813 Y9.44963 Z-0.03088
X23.75322 Y9.43485 Z-0.03366
X23.72613 Y9.41833 Z-0.03644
X23.70015 Y9.40012 Z-0.03921
X23.67538 Y9.38029 Z-0.04199
X23.65191 Y9.35894 Z-0.04476
X23.62985 Y9.33614 Z-0.04754
X23.60928 Y9.31199 Z-0.05032
X23.59028 Y9.28658 Z-0.05309
X23.57292 Y9.26001 Z-0.05587
X23.55729 Y9.2324 Z-0.05864
X23.54344 Y9.20386 Z-0.06142
X23.53143 Y9.17449 Z-0.06419
X23.52131 Y9.14442 Z-0.06697
X23.51312 Y9.11377 Z-0.06975
X23.50688 Y9.08266 Z-0.07252
X23.50263 Y9.05122 Z-0.0753
X23.50038 Y9.01957 Z-0.07807
X23.50015 Y8.98784 Z-0.08085
X23.50193 Y8.95616 Z-0.08363
X23.50571 Y8.92466 Z-0.0864
X23.51148 Y8.89346 Z-0.08918
X23.51922 Y8.8627 Z-0.09195
X23.5289 Y8.83248 Z-0.09473
X23.54047 Y8.80294 Z-0.0975
X23.5539 Y8.77419 Z-0.10028
X23.56911 Y8.74635 Z-0.10306
X23.58607 Y8.71953 Z-0.10583
X23.60469 Y8.69384 Z-0.10861
X23.6249 Y8.66939 Z-0.11138
X23.64663 Y8.64626 Z-0.11416
X23.66978 Y8.62456 Z-0.11694
X23.69425 Y8.60438 Z-0.11971
X23.71996 Y8.58578 Z-0.12249
X23.74679 Y8.56885 Z-0.12526
X23.77465 Y8.55366 Z-0.12804
X23.80341 Y8.54027 Z-0.13081
X23.83297 Y8.52873 Z-0.13359
X23.86319 Y8.51908 Z-0.13637
X23.89397 Y8.51137 Z-0.13914
X23.92517 Y8.50563 Z-0.14192
X23.95668 Y8.50188 Z-0.14469
X23.98836 Y8.50014 Z-0.14747
X24.02009 Y8.5004 Z-0.15024
X24.05173 Y8.50268 Z-0.15302
X24.08317 Y8.50697 Z-0.1558
X24.11427 Y8.51323 Z-0.15857
X24.14491 Y8.52146 Z-0.16135
X24.17497 Y8.53161 Z-0.16412
X24.20433 Y8.54366 Z-0.1669
X24.23286 Y8.55753 Z-0.16968
X24.26045 Y8.57319 Z-0.17245
X24.287 Y8.59057 Z-0.17523
X24.31239 Y8.6096 Z-0.178
X24.33652 Y8.6302 Z-0.18078
X24.3593 Y8.65229 Z-0.18356
X24.38063 Y8.67577 Z-0.18633
X24.40042 Y8.70057 Z-0.18911
X24.41861 Y8.72657 Z-0.19188
X24.43511 Y8.75367 Z-0.19466
X24.44986 Y8.78176 Z-0.19743
X24.46279 Y8.81073 Z-0.20021
X24.47386 Y8.84046 Z-0.20299
X24.48303 Y8.87084 Z-0.20576
X24.49025 Y8.90173 Z-0.20854
X24.49549 Y8.93303 Z-0.21131
X24.49874 Y8.96459 Z-0.21409
X24.49999 Y8.99629 Z-0.21686
X24.49921 Y9.02801 Z-0.21964
X24.49643 Y9.05962 Z-0.22242
X24.49165 Y9.09098 Z-0.22519
X24.48489 Y9.12198 Z-0.22797
X24.47618 Y9.15249 Z-0.23074
X24.46555 Y9.18238 Z-0.23352
X24.45304 Y9.21154 Z-0.2363
X24.43872 Y9.23985 Z-0.23907
X24.42262 Y9.26719 Z-0.24185
X24.40482 Y9.29346 Z-0.24462
X24.38539 Y9.31854 Z-0.2474
X24.36442 Y9.34235 Z-0.25018
X24.34197 Y9.36477 Z-0.25295
X24.31815 Y9.38572 Z-0.25573
X24.29304 Y9.40513 Z-0.2585
X24.26676 Y9.4229 Z-0.26128
X24.2394 Y9.43896 Z-0.26405
X24.21107 Y9.45326 Z-0.26683
X24.1819 Y9.46574 Z-0.26961
X24.152 Y9.47634 Z-0.27238
X24.12148 Y9.48502 Z-0.27516
X24.09047 Y9.49175 Z-0.27793
X24.0591 Y9.49649 Z-0.28071
X24.02749 Y9.49924 Z-0.28348
X23.99577 Y9.49998 Z-0.28626
X23.96407 Y9.49871 Z-0.28904
X23.93251 Y9.49542 Z-0.29181
X23.90123 Y9.49015 Z-0.29459
X23.87034 Y9.4829 Z-0.29736
X23.83997 Y9.4737 Z-0.30014
X23.81025 Y9.4626 Z-0.30292
X23.7813 Y9.44963 Z-0.30569
X23.75322 Y9.43485 Z-0.30847
X23.72613 Y9.41833 Z-0.31124
X23.70015 Y9.40012 Z-0.31402
X23.67538 Y9.38029 Z-0.3168
X23.65191 Y9.35894 Z-0.31957
X23.62985 Y9.33614 Z-0.32235
X23.60928 Y9.31199 Z-0.32512
X23.59028 Y9.28658 Z-0.3279
X23.57292 Y9.26001 Z-0.33067
X23.55729 Y9.2324 Z-0.33345
X23.54344 Y9.20386 Z-0.33623
X23.53143 Y9.17449 Z-0.339
X23.52131 Y9.14442 Z-0.34178
X23.51312 Y9.11377 Z-0.34455
X23.50688 Y9.08266 Z-0.34733
X23.50263 Y9.05122 Z-0.35011
X23.50038 Y9.01957 Z-0.35288
X23.50015 Y8.98784 Z-0.35566
X23.50193 Y8.95616 Z-0.35843
X23.50571 Y8.92466 Z-0.36121
X23.51148 Y8.89346 Z-0.36398
X23.51922 Y8.8627 Z-0.36676
X23.5289 Y8.83248 Z-0.36954
X23.54047 Y8.80294 Z-0.37231
X23.5539 Y8.77419 Z-0.37509
X23.56911 Y8.74635 Z-0.37786
X23.58607 Y8.71953 Z-0.38064
X23.60469 Y8.69384 Z-0.38342
X23.6249 Y8.66939 Z-0.38619
X23.64663 Y8.64626 Z-0.38897
X23.66978 Y8.62456 Z-0.39174
X23.69425 Y8.60438 Z-0.39452
X23.71996 Y8.58578 Z-0.39729
X23.74679 Y8.56885 Z-0.40007
X23.77465 Y8.55366 Z-0.40285
X23.80341 Y8.54027 Z-0.40562
X23.83297 Y8.52873 Z-0.4084
X23.86319 Y8.51908 Z-0.41117
X23.89397 Y8.51137 Z-0.41395
X23.92517 Y8.50563 Z-0.41673
X23.95668 Y8.50188 Z-0.4195
X23.98836 Y8.50014 Z-0.42228
X24.02009 Y8.5004 Z-0.42505
X24.05173 Y8.50268 Z-0.42783
X24.08317 Y8.50697 Z-0.4306
X24.11427 Y8.51323 Z-0.43338
X24.14491 Y8.52146 Z-0.43616
X24.17497 Y8.53161 Z-0.43893
X24.20433 Y8.54366 Z-0.44171
X24.23286 Y8.55753 Z-0.44448
X24.26045 Y8.57319 Z-0.44726
X24.287 Y8.59057 Z-0.45004
X24.31239 Y8.6096 Z-0.45281
X24.33652 Y8.6302 Z-0.45559
X24.3593 Y8.65229 Z-0.45836
X24.38063 Y8.67577 Z-0.46114
X24.40042 Y8.70057 Z-0.46391
X24.41861 Y8.72657 Z-0.46669
X24.43511 Y8.75367 Z-0.46947
X24.44986 Y8.78176 Z-0.47224
X24.46279 Y8.81073 Z-0.47502
X24.47386 Y8.84046 Z-0.47779
X24.48303 Y8.87084 Z-0.48057
X24.49025 Y8.90173 Z-0.48335
X24.49549 Y8.93303 Z-0.48612
X24.49874 Y8.96459 Z-0.4889
X24.49999 Y8.99629 Z-0.49167
X24.49921 Y9.02801 Z-0.49445
X24.49643 Y9.05962 Z-0.49722
X24.49165 Y9.09098 Z-0.5
X24.16703 Y9.47127 F2387.
X23.67538 Y9.38029
X23.50835 Y8.90902
X23.83297 Y8.52873
X24.32462 Y8.61971
X24.49165 Y9.09098
X24.9833 Y9.18196
G03 X23.01669 Y8.81804 I-0.9833 J-0.18196
X24.9833 Y9.18196 I0.98331 J0.18196
G1 X25.47496 Y9.27294
G03 X22.52504 Y8.72705 I-1.47496 J-0.27294
X25.47496 Y9.27294 I1.47496 J0.27295
G1 X25.96661 Y9.36393
G03 X22.03339 Y8.63607 I-1.96661 J-0.36393
X25.96661 Y9.36393 I1.96661 J0.36393
G1 X26.45826 Y9.45491
G03 X21.54174 Y8.54509 I-2.45826 J-0.45491
X26.45826 Y9.45491 I2.45826 J0.45491
G1 X26.94992 Y9.54589
G03 X21.05008 Y8.45411 I-2.94992 J-0.54589
X26.94992 Y9.54589 I2.94992 J0.54589
G0 Z1.
X24.49165 Y9.09098
G1 Z-1. F596.7
X24.16703 Y9.47127 F2387.
X23.67538 Y9.38029
X23.50835 Y8.90902
X23.83297 Y8.52873
X24.32462 Y8.61971
X24.49165 Y9.09098
X24.9833 Y9.18196
G03 X23.01669 Y8.81804 I-0.9833 J-0.18196
X24.9833 Y9.18196 I0.98331 J0.18196
G1 X25.47496 Y9.27294
G03 X22.52504 Y8.72705 I-1.47496 J-0.27294
X25.47496 Y9.27294 I1.47496 J0.27295
G1 X25.96661 Y9.36393
G03 X22.03339 Y8.63607 I-1.96661 J-0.36393
X25.96661 Y9.36393 I1.96661 J0.36393
G1 X26.45826 Y9.45491
G03 X21.54174 Y8.54509 I-2.45826 J-0.45491
X26.45826 Y9.45491 I2.45826 J0.45491
G1 X26.94992 Y9.54589
G03 X21.05008 Y8.45411 I-2.94992 J-0.54589
X26.94992 Y9.54589 I2.94992 J0.54589
G0 Z1.
X24.49165 Y9.09098
G1 Z-1.5 F596.7
X24.16703 Y9.47127 F2387.
X23.67538 Y9.38029
X23.50835 Y8.90902
X23.83297 Y8.52873
X24.32462 Y8.61971
X24.49165 Y9.09098
X24.9833 Y9.18196
G03 X23.01669 Y8.81804 I-0.9833 J-0.18196
X24.9833 Y9.18196 I0.98331 J0.18196
G1 X25.47496 Y9.27294
G03 X22.52504 Y8.72705 I-1.47496 J-0.27294
X25.47496 Y9.27294 I1.47496 J0.27295
G1 X25.96661 Y9.36393
G03 X22.03339 Y8.63607 I-1.96661 J-0.36393
X25.96661 Y9.36393 I1.96661 J0.36393
G1 X26.45826 Y9.45491
G03 X21.54174 Y8.54509 I-2.45826 J-0.45491
X26.45826 Y9.45491 I2.45826 J0.45491
G1 X26.94992 Y9.54589
G03 X21.05008 Y8.45411 I-2.94992 J-0.54589
X26.94992 Y9.54589 I2.94992 J0.54589
G0 Z1.
X24.49165 Y9.09098
G1 Z-2. F596.7
X24.16703 Y9.47127 F2387.
X23.67538 Y9.38029
X23.50835 Y8.90902
X23.83297 Y8.52873
X24.32462 Y8.61971
X24.49165 Y9.09098
X24.9833 Y9.18196
G03 X23.01669 Y8.81804 I-0.9833 J-0.18196
X24.9833 Y9.18196 I0.98331 J0.18196
G1 X25.47496 Y9.27294
G03 X22.52504 Y8.72705 I-1.47496 J-0.27294
X25.47496 Y9.27294 I1.47496 J0.27295
G1 X25.96661 Y9.36393
G03 X22.03339 Y8.63607 I-1.96661 J-0.36393
X25.96661 Y9.36393 I1.96661 J0.36393
G1 X26.45826 Y9.45491
G03 X21.54174 Y8.54509 I-2.45826 J-0.45491
X26.45826 Y9.45491 I2.45826 J0.45491
G1 X26.94992 Y9.54589
G03 X21.05008 Y8.45411 I-2.94992 J-0.54589
X26.94992 Y9.54589 I2.94992 J0.54589
G0 Z1.
X24.49165 Y9.09098
G1 Z-2.5 F596.7
X24.16703 Y9.47127 F2387.
X23.67538 Y9.38029
X23.50835 Y8.90902
X23.83297 Y8.52873
X24.32462 Y8.61971
X24.49165 Y9.09098
X24.9833 Y9.18196
G03 X23.01669 Y8.81804 I-0.9833 J-0.18196
X24.9833 Y9.18196 I0.98331 J0.18196
G1 X25.47496 Y9.27294
G03 X22.52504 Y8.72705 I-1.47496 J-0.27294
X25.47496 Y9.27294 I1.47496 J0.27295
G1 X25.96661 Y9.36393
G03 X22.03339 Y8.63607 I-1.96661 J-0.36393
X25.96661 Y9.36393 I1.96661 J0.36393
G1 X26.45826 Y9.45491
G03 X21.54174 Y8.54509 I-2.45826 J-0.45491
X26.45826 Y9.45491 I2.45826 J0.45491
G1 X26.94992 Y9.54589
G03 X21.05008 Y8.45411 I-2.94992 J-0.54589
X26.94992 Y9.54589 I2.94992 J0.54589
G0 Z1.
X84.46666 Y8.82083
G1 Z0.7 F596.7
Z0.1 F1790.2
X84.46847 Y8.82527 Z0.09958
X84.47861 Y8.85533 Z0.0968
X84.48683 Y8.88598 Z0.09403
X84.49308 Y8.91708 Z0.09125
X84.49734 Y8.94853 Z0.08848
X84.49961 Y8.98017 Z0.0857
X84.49986 Y9.0119 Z0.08293
X84.4981 Y9.04358 Z0.08015
X84.49433 Y9.07508 Z0.07737
X84.48857 Y9.10628 Z0.0746
X84.48085 Y9.13706 Z0.07182
X84.47119 Y9.16728 Z0.06905
X84.45963 Y9.19682 Z0.06627
X84.44622 Y9.22558 Z0.06349
X84.43102 Y9.25343 Z0.06072
X84.41408 Y9.28025 Z0.05794
X84.39547 Y9.30595 Z0.05517
X84.37526 Y9.33042 Z0.05239
X84.35355 Y9.35355 Z0.04961
X84.33042 Y9.37527 Z0.04684
X84.30595 Y9.39547 Z0.04406
X84.28025 Y9.41407 Z0.04129
X84.25343 Y9.43102 Z0.03851
X84.22558 Y9.44622 Z0.03574
X84.19683 Y9.45963 Z0.03296
X84.16728 Y9.47119 Z0.03018
X84.13706 Y9.48085 Z0.02741
X84.10628 Y9.48857 Z0.02463
X84.07508 Y9.49433 Z0.02186
X84.04358 Y9.4981 Z0.01908
X84.0119 Y9.49986 Z0.0163
X83.98017 Y9.49961 Z0.01353
X83.94853 Y9.49734 Z0.01075
X83.91708 Y9.49308 Z0.00798
X83.88598 Y9.48683 Z0.0052
X83.85533 Y9.47861 Z0.00243
X83.82527 Y9.46847 Z-0.00035
X83.79591 Y9.45645 Z-0.00313
X83.76737 Y9.44259 Z-0.0059
X83.73977 Y9.42694 Z-0.00868
X83.71321 Y9.40958 Z-0.01145
X83.68781 Y9.39056 Z-0.01423
X83.66367 Y9.36998 Z-0.017
X83.64088 Y9.3479 Z-0.01978
X83.61954 Y9.32442 Z-0.02256
X83.59973 Y9.29964 Z-0.02533
X83.58153 Y9.27365 Z-0.02811
X83.56502 Y9.24656 Z-0.03088
X83.55026 Y9.21847 Z-0.03366
X83.5373 Y9.18951 Z-0.03644
X83.52622 Y9.15978 Z-0.03921
X83.51704 Y9.12941 Z-0.04199
X83.5098 Y9.09852 Z-0.04476
X83.50454 Y9.06723 Z-0.04754
X83.50127 Y9.03567 Z-0.05032
X83.50002 Y9.00397 Z-0.05309
X83.50077 Y8.97225 Z-0.05587
X83.50354 Y8.94064 Z-0.05864
X83.5083 Y8.90927 Z-0.06142
X83.51504 Y8.87827 Z-0.06419
X83.52374 Y8.84776 Z-0.06697
X83.53436 Y8.81786 Z-0.06975
X83.54685 Y8.78869 Z-0.07252
X83.56116 Y8.76038 Z-0.0753
X83.57724 Y8.73302 Z-0.07807
X83.59503 Y8.70675 Z-0.08085
X83.61444 Y8.68165 Z-0.08363
X83.63541 Y8.65784 Z-0.0864
X83.65784 Y8.63541 Z-0.08918
X83.68165 Y8.61444 Z-0.09195
X83.70675 Y8.59503 Z-0.09473
X83.73302 Y8.57724 Z-0.0975
X83.76038 Y8.56116 Z-0.10028
X83.78869 Y8.54685 Z-0.10306
X83.81786 Y8.53436 Z-0.10583
X83.84776 Y8.52374 Z-0.10861
X83.87827 Y8.51504 Z-0.11138
X83.90927 Y8.5083 Z-0.11416
X83.94064 Y8.50354 Z-0.11694
X83.97225 Y8.50077 Z-0.11971
X84.00397 Y8.50002 Z-0.12249
X84.03567 Y8.50127 Z-0.12526
X84.06723 Y8.50454 Z-0.12804
X84.09852 Y8.5098 Z-0.13081
X84.12941 Y8.51704 Z-0.13359
X84.15978 Y8.52622 Z-0.13637
X84.18951 Y8.5373 Z-0.13914
X84.21847 Y8.55026 Z-0.14192
X84.24656 Y8.56502 Z-0.14469
X84.27365 Y8.58153 Z-0.14747
X84.29964 Y8.59973 Z-0.15024
X84.32442 Y8.61954 Z-0.15302
X84.3479 Y8.64088 Z-0.1558
X84.36998 Y8.66367 Z-0.15857
X84.39056 Y8.68781 Z-0.16135
X84.40958 Y8.71321 Z-0.16412
X84.42694 Y8.73977 Z-0.1669
X84.44259 Y8.76737 Z-0.16968
X84.45645 Y8.79591 Z-0.17245
X84.46847 Y8.82527 Z-0.17523
X84.47861 Y8.85533 Z-0.178
X84.48683 Y8.88598 Z-0.18078
X84.49308 Y8.91708 Z-0.18356
X84.49734 Y8.94853 Z-0.18633
X84.49961 Y8.98017 Z-0.18911
X84.49986 Y9.0119 Z-0.19188
X84.4981 Y9.04358 Z-0.19466
X84.49433 Y9.07508 Z-0.19743
X84.48857 Y9.10628 Z-0.20021
X84.48085 Y9.13706 Z-0.20299
X84.47119 Y9.16728 Z-0.20576
X84.45963 Y9.19682 Z-0.20854
X84.44622 Y9.22558 Z-0.21131
X84.43102 Y9.25343 Z-0.21409
X84.41408 Y9.28025 Z-0.21686
X84.39547 Y9.30595 Z-0.21964
X84.37526 Y9.33042 Z-0.22242
X84.35355 Y9.35355 Z-0.22519
X84.33042 Y9.37527 Z-0.22797
X84.30595 Y9.39547 Z-0.23074
X84.28025 Y9.41407 Z-0.23352
X84.25343 Y9.43102 Z-0.2363
X84.22558 Y9.44622 Z-0.23907
X84.19683 Y9.45963 Z-0.24185
X84.16728 Y9.47119 Z-0.24462
X84.13706 Y9.48085 Z-0.2474
X84.10628 Y9.48857 Z-0.25018
X84.07508 Y9.49433 Z-0.25295
X84.04358 Y9.4981 Z-0.25573
X84.0119 Y9.49986 Z-0.2585
X83.98017 Y9.49961 Z-0.26128
X83.94853 Y9.49734 Z-0.26405
X83.91708 Y9.49308 Z-0.26683
X83.88598 Y9.48683 Z-0.26961
X83.85533 Y9.47861 Z-0.27238
X83.82527 Y9.46847 Z-0.27516
X83.79591 Y9.45645 Z-0.27793
X83.76737 Y9.44259 Z-0.28071
X83.73977 Y9.42694 Z-0.28348
X83.71321 Y9.40958 Z-0.28626
X83.68781 Y9.39056 Z-0.28904
X83.66367 Y9.36998 Z-0.29181
X83.64088 Y9.3479 Z-0.29459
X83.61954 Y9.32442 Z-0.29736
X83.59973 Y9.29964 Z-0.30014
X83.58153 Y9.27365 Z-0.30292
X83.56502 Y9.24656 Z-0.30569
X83.55026 Y9.21847 Z-0.30847
X83.5373 Y9.18951 Z-0.31124
X83.52622 Y9.15978 Z-0.31402
X83.51704 Y9.12941 Z-0.3168
X83.5098 Y9.09852 Z-0.31957
X83.50454 Y9.06723 Z-0.32235
X83.50127 Y9.03567 Z-0.32512
X83.50002 Y9.00397 Z-0.3279
X83.50077 Y8.97225 Z-0.33067
X83.50354 Y8.94064 Z-0.33345
X83.5083 Y8.90927 Z-0.33623
X83.51504 Y8.87827 Z-0.339
X83.52374 Y8.84776 Z-0.34178
X83.53436 Y8.81786 Z-0.34455
X83.54685 Y8.78869 Z-0.34733
X83.56116 Y8.76038 Z-0.35011
X83.57724 Y8.73302 Z-0.35288
X83.59503 Y8.70675 Z-0.35566
X83.61444 Y8.68165 Z-0.35843
X83.63541 Y8.65784 Z-0.36121
X83.65784 Y8.63541 Z-0.36398
X83.68165 Y8.61444 Z-0.36676
X83.70675 Y8.59503 Z-0.36954
X83.73302 Y8.57724 Z-0.37231
X83.76038 Y8.56116 Z-0.37509
X83.78869 Y8.54685 Z-0.37786
X83.81786 Y8.53436 Z-0.38064
X83.84776 Y8.52374 Z-0.38342
X83.87827 Y8.51504 Z-0.38619
X83.90927 Y8.5083 Z-0.38897
X83.94064 Y8.50354 Z-0.39174
X83.97225 Y8.50077 Z-0.39452
X84.00397 Y8.50002 Z-0.39729
X84.03567 Y8.50127 Z-0.40007
X84.06723 Y8.50454 Z-0.40285
X84.09852 Y8.5098 Z-0.40562
X84.12941 Y8.51704 Z-0.4084
X84.15978 Y8.52622 Z-0.41117
X84.18951 Y8.5373 Z-0.41395
X84.21847 Y8.55026 Z-0.41673
X84.24656 Y8.56502 Z-0.4195
X84.27365 Y8.58153 Z-0.42228
X84.29964 Y8.59973 Z-0.42505
X84.32442 Y8.61954 Z-0.42783
X84.3479 Y8.64088 Z-0.4306
X84.36998 Y8.66367 Z-0.43338
X84.39056 Y8.68781 Z-0.43616
X84.40958 Y8.71321 Z-0.43893
X84.42694 Y8.73977 Z-0.44171
X84.44259 Y8.76737 Z-0.44448
X84.45645 Y8.79591 Z-0.44726
X84.46847 Y8.82527 Z-0.45004
X84.47861 Y8.85533 Z-0.45281
X84.48683 Y8.88598 Z-0.45559
X84.49308 Y8.91708 Z-0.45836
X84.49734 Y8.94853 Z-0.46114
X84.49961 Y8.98017 Z-0.46391
X84.49986 Y9.0119 Z-0.46669
X84.4981 Y9.04358 Z-0.46947
X84.49433 Y9.07508 Z-0.47224
X84.48857 Y9.10628 Z-0.47502
X84.48085 Y9.13706 Z-0.47779
X84.47119 Y9.16728 Z-0.48057
X84.45963 Y9.19682 Z-0.48335
X84.44622 Y9.22558 Z-0.48612
X84.43102 Y9.25343 Z-0.4889
X84.41408 Y9.28025 Z-0.49167
X84.39547 Y9.30595 Z-0.49445
X84.37526 Y9.33042 Z-0.49722
X84.35355 Y9.35355 Z-0.5
X83.87059 Y9.48296 F2387.
X83.51704 Y9.12941
X83.64645 Y8.64645
X84.12941 Y8.51704
X84.48296 Y8.87059
X84.35355 Y9.35355
X84.70711 Y9.70711
G03 X83.29289 Y8.29289 I-0.70711 J-0.70711
X84.70711 Y9.70711 I0.70711 J0.70711
G1 X85.06066 Y10.06066
G03 X82.93934 Y7.93934 I-1.06066 J-1.06066
X85.06066 Y10.06066 I1.06066 J1.06066
G1 X85.41421 Y10.41421
G03 X82.58579 Y7.58579 I-1.41421 J-1.41421
X85.41421 Y10.41421 I1.41421 J1.41421
G1 X85.76777 Y10.76777
G03 X82.23223 Y7.23223 I-1.76777 J-1.76777
X85.76777 Y10.76777 I1.76777 J1.76777
G1 X86.12132 Y11.12132
G03 X81.87868 Y6.87868 I-2.12132 J-2.12132
X86.12132 Y11.12132 I2.12132 J2.12132
G0 Z1.
X84.35355 Y9.35355
G1 Z-1. F596.7
X83.87059 Y9.48296 F2387.
X83.51704 Y9.12941
X83.64645 Y8.64645
X84.12941 Y8.51704
X84.48296 Y8.87059
X84.35355 Y9.35355
X84.70711 Y9.70711
G03 X83.29289 Y8.29289 I-0.70711 J-0.70711
X84.70711 Y9.70711 I0.70711 J0.70711
G1 X85.06066 Y10.06066
G03 X82.93934 Y7.93934 I-1.06066 J-1.06066
X85.06066 Y10.06066 I1.06066 J1.06066
G1 X85.41421 Y10.41421
G03 X82.58579 Y7.58579 I-1.41421 J-1.41421
X85.41421 Y10.41421 I1.41421 J1.41421
G1 X85.76777 Y10.76777
G03 X82.23223 Y7.23223 I-1.76777 J-1.76777
X85.76777 Y10.76777 I1.76777 J1.76777
G1 X86.12132 Y11.12132
G03 X81.87868 Y6.87868 I-2.12132 J-2.12132
X86.12132 Y11.12132 I2.12132 J2.12132
G0 Z1.
X84.35355 Y9.35355
G1 Z-1.5 F596.7
X83.87059 Y9.48296 F2387.
X83.51704 Y9.12941
X83.64645 Y8.64645
X84.12941 Y8.51704
X84.48296 Y8.87059
X84.35355 Y9.35355
X84.70711 Y9.70711
G03 X83.29289 Y8.29289 I-0.70711 J-0.70711
X84.70711 Y9.70711 I0.70711 J0.70711
G1 X85.06066 Y10.06066
G03 X82.93934 Y7.93934 I-1.06066 J-1.06066
X85.06066 Y10.06066 I1.06066 J1.06066
G1 X85.41421 Y10.41421
G03 X82.58579 Y7.58579 I-1.41421 J-1.41421
X85.41421 Y10.41421 I1.41421 J1.41421
G1 X85.76777 Y10.76777
G03 X82.23223 Y7.23223 I-1.76777 J-1.76777
X85.76777 Y10.76777 I1.76777 J1.76777
G1 X86.12132 Y11.12132
G03 X81.87868 Y6.87868 I-2.12132 J-2.12132
X86.12132 Y11.12132 I2.12132 J2.12132
G0 Z1.
X84.35355 Y9.35355
G1 Z-2. F596.7
X83.87059 Y9.48296 F2387.
X83.51704 Y9.12941
X83.64645 Y8.64645
X84.12941 Y8.51704
X84.48296 Y8.87059
X84.35355 Y9.35355
X84.70711 Y9.70711
G03 X83.29289 Y8.29289 I-0.70711 J-0.70711
X84.70711 Y9.70711 I0.70711 J0.70711
G1 X85.06066 Y10.06066
G03 X82.93934 Y7.93934 I-1.06066 J-1.06066
X85.06066 Y10.06066 I1.06066 J1.06066
G1 X85.41421 Y10.41421
G03 X82.58579 Y7.58579 I-1.41421 J-1.41421
X85.41421 Y10.41421 I1.41421 J1.41421
G1 X85.76777 Y10.76777
G03 X82.23223 Y7.23223 I-1.76777 J-1.76777
X85.76777 Y10.76777 I1.76777 J1.76777
G1 X86.12132 Y11.12132
G03 X81.87868 Y6.87868 I-2.12132 J-2.12132
X86.12132 Y11.12132 I2.12132 J2.12132
G0 Z1.
X84.35355 Y9.35355
G1 Z-2.5 F596.7
X83.87059 Y9.48296 F2387.
X83.51704 Y9.12941
X83.64645 Y8.64645
X84.12941 Y8.51704
X84.48296 Y8.87059
X84.35355 Y9.35355
X84.70711 Y9.70711
G03 X83.29289 Y8.29289 I-0.70711 J-0.70711
X84.70711 Y9.70711 I0.70711 J0.70711
G1 X85.06066 Y10.06066
G03 X82.93934 Y7.93934 I-1.06066 J-1.06066
X85.06066 Y10.06066 I1.06066 J1.06066
G1 X85.41421 Y10.41421
G03 X82.58579 Y7.58579 I-1.41421 J-1.41421
X85.41421 Y10.41421 I1.41421 J1.41421
G1 X85.76777 Y10.76777
G03 X82.23223 Y7.23223 I-1.76777 J-1.76777
X85.76777 Y10.76777 I1.76777 J1.76777
G1 X86.12132 Y11.12132
G03 X81.87868 Y6.87868 I-2.12132 J-2.12132
X86.12132 Y11.12132 I2.12132 J2.12132
G0 Z1.
(2 1/2 Axis Profiling)
(SlotDrill 2mm Carbide)
X49.00062 Y111.
G1 Z0.80125 F596.7
X56.20315 Z-0.46875 F1790.2
X108. F2387.
G02 X109. Y110. I0. J-1.
G1 Y0.
G02 X108. Y-1. I-1. J0.
G1 X0.
G02 X-1. Y0. I0. J1.
G1 Y110.
G02 X0. Y111. I1. J0.
G1 X56.20315
Z-0.9375
X108.
G02 X109. Y110. I0. J-1.
G1 Y0.
G02 X108. Y-1. I-1. J0.
G1 X0.
G02 X-1. Y0. I0. J1.
G1 Y110.
G02 X0. Y111. I1. J0.
G1 X56.20315
Z-1.40625
X108.
G02 X109. Y110. I0. J-1.
G1 Y0.
G02 X108. Y-1. I-1. J0.
G1 X0.
G02 X-1. Y0. I0. J1.
G1 Y110.
G02 X0. Y111. I1. J0.
G1 X56.20315
Z-1.875
X108.
G02 X109. Y110. I0. J-1.
G1 Y0.
G02 X108. Y-1. I-1. J0.
G1 X0.
G02 X-1. Y0. I0. J1.
G1 Y110.
G02 X0. Y111. I1. J0.
G1 X56.20315
Z-2.34375
X108.
G02 X109. Y110. I0. J-1.
G1 Y0.
G02 X108. Y-1. I-1. J0.
G1 X0.
G02 X-1. Y0. I0. J1.
G1 Y110.
G02 X0. Y111. I1. J0.
G1 X56.20315
Z-2.8125
X108.
G02 X109. Y110. I0. J-1.
G1 Y0.
G02 X108. Y-1. I-1. J0.
G1 X0.
G02 X-1. Y0. I0. J1.
G1 Y110.
G02 X0. Y111. I1. J0.
G1 X56.20315
Z-3.28125
X108.
G02 X109. Y110. I0. J-1.
G1 Y0.
G02 X108. Y-1. I-1. J0.
G1 X0.
G02 X-1. Y0. I0. J1.
G1 Y110.
G02 X0. Y111. I1. J0.
G1 X56.20315
Z-3.75
X108.
G02 X109. Y110. I0. J-1.
G1 Y0.
G02 X108. Y-1. I-1. J0.
G1 X0.
G02 X-1. Y0. I0. J1.
G1 Y110.
G02 X0. Y111. I1. J0.
G1 X56.20315
Z-4.25
X108.
G02 X109. Y110. I0. J-1.
G1 Y0.
G02 X108. Y-1. I-1. J0.
G1 X0.
G02 X-1. Y0. I0. J1.
G1 Y110.
G02 X0. Y111. I1. J0.
G1 X56.20315
G0 Z1.
M30
%
