%
G17 G21 G40 G90 G64 P0.1
(2 1/2 Axis Profiling)
(1/4in 6.35mm 2 Flute Carbide Router)
T30 M06
S18446 M3
G0 Z3.175
X-3.175 Y121.91319
G1 Z0.27 F1250.5
Y140.45828 Z-3. F3751.5
Y230. F5000.
G17
G02 X0. Y233.175 I3.175 J0.
G1 X65.
G02 X68.05533 Y229.13654 I0. J-3.175
G1 X3.05533 Y-0.86346
G02 X-3.175 Y0. I-3.05533 J0.86346
G1 Y140.45828
G0 Z3.175
Y121.91319
G1 Z-2.73 F1250.5
Y140.45828 Z-6. F3751.5
Y230. F5000.
G02 X0. Y233.175 I3.175 J0.
G1 X65.
G02 X68.05533 Y229.13654 I0. J-3.175
G1 X3.05533 Y-0.86346
G02 X-3.175 Y0. I-3.05533 J0.86346
G1 Y140.45828
G0 Z3.175
Y121.91319
G1 Z-5.73 F1250.5
Y140.45828 Z-9. F3751.5
Y230. F5000.
G02 X0. Y233.175 I3.175 J0.
G1 X65.
G02 X68.05533 Y229.13654 I0. J-3.175
G1 X3.05533 Y-0.86346
G02 X-3.175 Y0. I-3.05533 J0.86346
G1 Y140.45828
G0 Z3.175
Y121.91319
G1 Z-8.73 F1250.5
Y140.45828 Z-12. F3751.5
Y230. F5000.
G02 X0. Y233.175 I3.175 J0.
G1 X65.
G02 X68.05533 Y229.13654 I0. J-3.175
G1 X3.05533 Y-0.86346
G02 X-3.175 Y0. I-3.05533 J0.86346
G1 Y140.45828
G0 Z3.175
Y121.91319
G1 Z-11.73 F1250.5
Y140.45828 Z-15. F3751.5
Y230. F5000.
G02 X0. Y233.175 I3.175 J0.
G1 X65.
G02 X68.05533 Y229.13654 I0. J-3.175
G1 X3.05533 Y-0.86346
G02 X-3.175 Y0. I-3.05533 J0.86346
G1 Y140.45828
G0 Z3.175
Y121.91319
G1 Z-14.73 F1250.5
Y140.45828 Z-18. F3751.5
Y230. F5000.
G02 X0. Y233.175 I3.175 J0.
G1 X65.
G02 X68.05533 Y229.13654 I0. J-3.175
G1 X3.05533 Y-0.86346
G02 X-3.175 Y0. I-3.05533 J0.86346
G1 Y140.45828
G0 Z3.175
X81.825 Y108.90099
G1 Z0.27 F1250.5
Y127.44609 Z-3. F3751.5
Y230. F5000.
G02 X85. Y233.175 I3.175 J0.
G1 X150.
G02 X153.05533 Y229.13654 I0. J-3.175
G1 X88.05533 Y-0.86346
G02 X81.825 Y0. I-3.05533 J0.86346
G1 Y127.44609
G0 Z3.175
Y108.90099
G1 Z-2.73 F1250.5
Y127.44609 Z-6. F3751.5
Y230. F5000.
G02 X85. Y233.175 I3.175 J0.
G1 X150.
G02 X153.05533 Y229.13654 I0. J-3.175
G1 X88.05533 Y-0.86346
G02 X81.825 Y0. I-3.05533 J0.86346
G1 Y127.44609
G0 Z3.175
Y108.90099
G1 Z-5.73 F1250.5
Y127.44609 Z-9. F3751.5
Y230. F5000.
G02 X85. Y233.175 I3.175 J0.
G1 X150.
G02 X153.05533 Y229.13654 I0. J-3.175
G1 X88.05533 Y-0.86346
G02 X81.825 Y0. I-3.05533 J0.86346
G1 Y127.44609
G0 Z3.175
Y108.90099
G1 Z-8.73 F1250.5
Y127.44609 Z-12. F3751.5
Y230. F5000.
G02 X85. Y233.175 I3.175 J0.
G1 X150.
G02 X153.05533 Y229.13654 I0. J-3.175
G1 X88.05533 Y-0.86346
G02 X81.825 Y0. I-3.05533 J0.86346
G1 Y127.44609
G0 Z3.175
Y108.90099
G1 Z-11.73 F1250.5
Y127.44609 Z-15. F3751.5
Y230. F5000.
G02 X85. Y233.175 I3.175 J0.
G1 X150.
G02 X153.05533 Y229.13654 I0. J-3.175
G1 X88.05533 Y-0.86346
G02 X81.825 Y0. I-3.05533 J0.86346
G1 Y127.44609
G0 Z3.175
Y108.90099
G1 Z-14.73 F1250.5
Y127.44609 Z-18. F3751.5
Y230. F5000.
G02 X85. Y233.175 I3.175 J0.
G1 X150.
G02 X153.05533 Y229.13654 I0. J-3.175
G1 X88.05533 Y-0.86346
G02 X81.825 Y0. I-3.05533 J0.86346
G1 Y127.44609
G0 Z3.175
X78.175 Y95.20842
G1 Z0.27 F1250.5
Y76.66333 Z-3. F3751.5
Y0. F5000.
G02 X75. Y-3.175 I-3.175 J0.
G1 X10.
G02 X6.94467 Y0.86346 I0. J3.175
G1 X71.94467 Y230.86346
G02 X78.175 Y230. I3.05533 J-0.86346
G1 Y76.66333
G0 Z3.175
Y95.20842
G1 Z-2.73 F1250.5
Y76.66333 Z-6. F3751.5
Y0. F5000.
G02 X75. Y-3.175 I-3.175 J0.
G1 X10.
G02 X6.94467 Y0.86346 I0. J3.175
G1 X71.94467 Y230.86346
G02 X78.175 Y230. I3.05533 J-0.86346
G1 Y76.66333
G0 Z3.175
Y95.20842
G1 Z-5.73 F1250.5
Y76.66333 Z-9. F3751.5
Y0. F5000.
G02 X75. Y-3.175 I-3.175 J0.
G1 X10.
G02 X6.94467 Y0.86346 I0. J3.175
G1 X71.94467 Y230.86346
G02 X78.175 Y230. I3.05533 J-0.86346
G1 Y76.66333
G0 Z3.175
Y95.20842
G1 Z-8.73 F1250.5
Y76.66333 Z-12. F3751.5
Y0. F5000.
G02 X75. Y-3.175 I-3.175 J0.
G1 X10.
G02 X6.94467 Y0.86346 I0. J3.175
G1 X71.94467 Y230.86346
G02 X78.175 Y230. I3.05533 J-0.86346
G1 Y76.66333
G0 Z3.175
Y95.20842
G1 Z-11.73 F1250.5
Y76.66333 Z-15. F3751.5
Y0. F5000.
G02 X75. Y-3.175 I-3.175 J0.
G1 X10.
G02 X6.94467 Y0.86346 I0. J3.175
G1 X71.94467 Y230.86346
G02 X78.175 Y230. I3.05533 J-0.86346
G1 Y76.66333
G0 Z3.175
Y95.20842
G1 Z-14.73 F1250.5
Y76.66333 Z-18. F3751.5
Y0. F5000.
G02 X75. Y-3.175 I-3.175 J0.
G1 X10.
G02 X6.94467 Y0.86346 I0. J3.175
G1 X71.94467 Y230.86346
G02 X78.175 Y230. I3.05533 J-0.86346
G1 Y76.66333
G0 Z3.175
X163.175 Y95.20842
G1 Z0.27 F1250.5
Y76.66333 Z-3. F3751.5
Y0. F5000.
G02 X160. Y-3.175 I-3.175 J0.
G1 X95.
G02 X91.94467 Y0.86346 I0. J3.175
G1 X156.94467 Y230.86346
G02 X163.175 Y230. I3.05533 J-0.86346
G1 Y76.66333
G0 Z3.175
Y95.20842
G1 Z-2.73 F1250.5
Y76.66333 Z-6. F3751.5
Y0. F5000.
G02 X160. Y-3.175 I-3.175 J0.
G1 X95.
G02 X91.94467 Y0.86346 I0. J3.175
G1 X156.94467 Y230.86346
G02 X163.175 Y230. I3.05533 J-0.86346
G1 Y76.66333
G0 Z3.175
Y95.20842
G1 Z-5.73 F1250.5
Y76.66333 Z-9. F3751.5
Y0. F5000.
G02 X160. Y-3.175 I-3.175 J0.
G1 X95.
G02 X91.94467 Y0.86346 I0. J3.175
G1 X156.94467 Y230.86346
G02 X163.175 Y230. I3.05533 J-0.86346
G1 Y76.66333
G0 Z3.175
Y95.20842
G1 Z-8.73 F1250.5
Y76.66333 Z-12. F3751.5
Y0. F5000.
G02 X160. Y-3.175 I-3.175 J0.
G1 X95.
G02 X91.94467 Y0.86346 I0. J3.175
G1 X156.94467 Y230.86346
G02 X163.175 Y230. I3.05533 J-0.86346
G1 Y76.66333
G0 Z3.175
Y95.20842
G1 Z-11.73 F1250.5
Y76.66333 Z-15. F3751.5
Y0. F5000.
G02 X160. Y-3.175 I-3.175 J0.
G1 X95.
G02 X91.94467 Y0.86346 I0. J3.175
G1 X156.94467 Y230.86346
G02 X163.175 Y230. I3.05533 J-0.86346
G1 Y76.66333
G0 Z3.175
Y95.20842
G1 Z-14.73 F1250.5
Y76.66333 Z-18. F3751.5
Y0. F5000.
G02 X160. Y-3.175 I-3.175 J0.
G1 X95.
G02 X91.94467 Y0.86346 I0. J3.175
G1 X156.94467 Y230.86346
G02 X163.175 Y230. I3.05533 J-0.86346
G1 Y76.66333
G0 Z3.175
Y361.48156
G1 Z0.27 F1250.5
Y342.93647 Z-3. F3751.5
Y240. F5000.
G02 X160. Y236.825 I-3.175 J0.
G1 X95.
G02 X92.80922 Y242.29806 I0. J3.175
G03 X96.90044 Y246.51987 I-51.22869 J53.73737
X102.63648 Y253.66309 I-65.38696 J58.38071
G1 X102.63658 Y253.66323
G03 X107.82045 Y261.54565 I-89.83853 J64.7281
X112.97729 Y270.95356 I-122.59775 J73.31785
X118.08494 Y282.05469 I-167.7943 J83.92792
X123.12072 Y295.01306 I-228.89314 J96.40839
G1 X123.12073 Y295.0131
G03 X128.06278 Y309.99072 I-309.99264 J110.58996
G1 X128.0628 Y309.9908
G03 X132.89034 Y327.14876 I-415.86495 J126.26516
G1 X132.89057 Y327.14966
G03 X136.85239 Y343.40731 I-539.08026 J139.97968
X141.18165 Y363.80158 I-691.46867 J157.4404
X145.3605 Y386.55554 I-887.31054 J174.71867
X149.37373 Y411.80617 I-1127.5736 J192.15599
X153.20644 Y439.69075 I-1419.47119 J209.3111
X156.844 Y470.34684 I-1770.9259 J225.67649
G02 X163.175 Y470. I3.156 J-0.34684
G1 Y342.93647
G0 Z3.175
Y361.48156
G1 Z-2.73 F1250.5
Y342.93647 Z-6. F3751.5
Y240. F5000.
G02 X160. Y236.825 I-3.175 J0.
G1 X95.
G02 X92.80922 Y242.29806 I0. J3.175
G03 X96.90044 Y246.51987 I-51.22869 J53.73737
X102.63648 Y253.66309 I-65.38696 J58.38071
G1 X102.63658 Y253.66323
G03 X107.82045 Y261.54565 I-89.83853 J64.7281
X112.97729 Y270.95356 I-122.59775 J73.31785
X118.08494 Y282.05469 I-167.7943 J83.92792
X123.12072 Y295.01306 I-228.89314 J96.40839
G1 X123.12073 Y295.0131
G03 X128.06278 Y309.99072 I-309.99264 J110.58996
G1 X128.0628 Y309.9908
G03 X132.89034 Y327.14876 I-415.86495 J126.26516
G1 X132.89057 Y327.14966
G03 X136.85239 Y343.40731 I-539.08026 J139.97968
X141.18165 Y363.80158 I-691.46867 J157.4404
X145.3605 Y386.55554 I-887.31054 J174.71867
X149.37373 Y411.80617 I-1127.5736 J192.15599
X153.20644 Y439.69075 I-1419.47119 J209.3111
X156.844 Y470.34684 I-1770.9259 J225.67649
G02 X163.175 Y470. I3.156 J-0.34684
G1 Y342.93647
G0 Z3.175
Y361.48156
G1 Z-5.73 F1250.5
Y342.93647 Z-9. F3751.5
Y240. F5000.
G02 X160. Y236.825 I-3.175 J0.
G1 X95.
G02 X92.80922 Y242.29806 I0. J3.175
G03 X96.90044 Y246.51987 I-51.22869 J53.73737
X102.63648 Y253.66309 I-65.38696 J58.38071
G1 X102.63658 Y253.66323
G03 X107.82045 Y261.54565 I-89.83853 J64.7281
X112.97729 Y270.95356 I-122.59775 J73.31785
X118.08494 Y282.05469 I-167.7943 J83.92792
X123.12072 Y295.01306 I-228.89314 J96.40839
G1 X123.12073 Y295.0131
G03 X128.06278 Y309.99072 I-309.99264 J110.58996
G1 X128.0628 Y309.9908
G03 X132.89034 Y327.14876 I-415.86495 J126.26516
G1 X132.89057 Y327.14966
G03 X136.85239 Y343.40731 I-539.08026 J139.97968
X141.18165 Y363.80158 I-691.46867 J157.4404
X145.3605 Y386.55554 I-887.31054 J174.71867
X149.37373 Y411.80617 I-1127.5736 J192.15599
X153.20644 Y439.69075 I-1419.47119 J209.3111
X156.844 Y470.34684 I-1770.9259 J225.67649
G02 X163.175 Y470. I3.156 J-0.34684
G1 Y342.93647
G0 Z3.175
Y361.48156
G1 Z-8.73 F1250.5
Y342.93647 Z-12. F3751.5
Y240. F5000.
G02 X160. Y236.825 I-3.175 J0.
G1 X95.
G02 X92.80922 Y242.29806 I0. J3.175
G03 X96.90044 Y246.51987 I-51.22869 J53.73737
X102.63648 Y253.66309 I-65.38696 J58.38071
G1 X102.63658 Y253.66323
G03 X107.82045 Y261.54565 I-89.83853 J64.7281
X112.97729 Y270.95356 I-122.59775 J73.31785
X118.08494 Y282.05469 I-167.7943 J83.92792
X123.12072 Y295.01306 I-228.89314 J96.40839
G1 X123.12073 Y295.0131
G03 X128.06278 Y309.99072 I-309.99264 J110.58996
G1 X128.0628 Y309.9908
G03 X132.89034 Y327.14876 I-415.86495 J126.26516
G1 X132.89057 Y327.14966
G03 X136.85239 Y343.40731 I-539.08026 J139.97968
X141.18165 Y363.80158 I-691.46867 J157.4404
X145.3605 Y386.55554 I-887.31054 J174.71867
X149.37373 Y411.80617 I-1127.5736 J192.15599
X153.20644 Y439.69075 I-1419.47119 J209.3111
X156.844 Y470.34684 I-1770.9259 J225.67649
G02 X163.175 Y470. I3.156 J-0.34684
G1 Y342.93647
G0 Z3.175
Y361.48156
G1 Z-11.73 F1250.5
Y342.93647 Z-15. F3751.5
Y240. F5000.
G02 X160. Y236.825 I-3.175 J0.
G1 X95.
G02 X92.80922 Y242.29806 I0. J3.175
G03 X96.90044 Y246.51987 I-51.22869 J53.73737
X102.63648 Y253.66309 I-65.38696 J58.38071
G1 X102.63658 Y253.66323
G03 X107.82045 Y261.54565 I-89.83853 J64.7281
X112.97729 Y270.95356 I-122.59775 J73.31785
X118.08494 Y282.05469 I-167.7943 J83.92792
X123.12072 Y295.01306 I-228.89314 J96.40839
G1 X123.12073 Y295.0131
G03 X128.06278 Y309.99072 I-309.99264 J110.58996
G1 X128.0628 Y309.9908
G03 X132.89034 Y327.14876 I-415.86495 J126.26516
G1 X132.89057 Y327.14966
G03 X136.85239 Y343.40731 I-539.08026 J139.97968
X141.18165 Y363.80158 I-691.46867 J157.4404
X145.3605 Y386.55554 I-887.31054 J174.71867
X149.37373 Y411.80617 I-1127.5736 J192.15599
X153.20644 Y439.69075 I-1419.47119 J209.3111
X156.844 Y470.34684 I-1770.9259 J225.67649
G02 X163.175 Y470. I3.156 J-0.34684
G1 Y342.93647
G0 Z3.175
Y361.48156
G1 Z-14.73 F1250.5
Y342.93647 Z-18. F3751.5
Y240. F5000.
G02 X160. Y236.825 I-3.175 J0.
G1 X95.
G02 X92.80922 Y242.29806 I0. J3.175
G03 X96.90044 Y246.51987 I-51.22869 J53.73737
X102.63648 Y253.66309 I-65.38696 J58.38071
G1 X102.63658 Y253.66323
G03 X107.82045 Y261.54565 I-89.83853 J64.7281
X112.97729 Y270.95356 I-122.59775 J73.31785
X118.08494 Y282.05469 I-167.7943 J83.92792
X123.12072 Y295.01306 I-228.89314 J96.40839
G1 X123.12073 Y295.0131
G03 X128.06278 Y309.99072 I-309.99264 J110.58996
G1 X128.0628 Y309.9908
G03 X132.89034 Y327.14876 I-415.86495 J126.26516
G1 X132.89057 Y327.14966
G03 X136.85239 Y343.40731 I-539.08026 J139.97968
X141.18165 Y363.80158 I-691.46867 J157.4404
X145.3605 Y386.55554 I-887.31054 J174.71867
X149.37373 Y411.80617 I-1127.5736 J192.15599
X153.20644 Y439.69075 I-1419.47119 J209.3111
X156.844 Y470.34684 I-1770.9259 J225.67649
G02 X163.175 Y470. I3.156 J-0.34684
G1 Y342.93647
G0 Z3.175
X81.825 Y360.55492
G1 Z0.27 F1250.5
Y379.10002 Z-3. F3751.5
Y470. F5000.
G02 X85. Y473.175 I3.175 J0.
G1 X150.
G02 X152.19078 Y467.70193 I0. J-3.175
G03 X148.09956 Y463.48013 I51.22869 J-53.73736
X142.36352 Y456.33691 I65.38696 J-58.38071
G1 X142.36342 Y456.33677
G03 X137.17955 Y448.45435 I89.83853 J-64.7281
X132.02271 Y439.04644 I122.59775 J-73.31785
X126.91506 Y427.94531 I167.7943 J-83.92792
X121.87928 Y414.98694 I228.89314 J-96.40839
G1 X121.87927 Y414.98689
G03 X116.93722 Y400.00928 I309.99264 J-110.58996
G1 X116.9372 Y400.0092
G03 X112.10966 Y382.85124 I415.86495 J-126.26516
G1 X112.10943 Y382.85034
G03 X108.14761 Y366.59269 I539.08026 J-139.97968
X103.81835 Y346.19842 I691.46867 J-157.4404
X99.6395 Y323.44446 I887.31053 J-174.71867
X95.62627 Y298.19383 I1127.57359 J-192.15599
X91.79356 Y270.30925 I1419.47118 J-209.3111
X88.156 Y239.65316 I1770.9259 J-225.67649
G02 X81.825 Y240. I-3.156 J0.34684
G1 Y379.10002
G0 Z3.175
Y360.55492
G1 Z-2.73 F1250.5
Y379.10002 Z-6. F3751.5
Y470. F5000.
G02 X85. Y473.175 I3.175 J0.
G1 X150.
G02 X152.19078 Y467.70193 I0. J-3.175
G03 X148.09956 Y463.48013 I51.22869 J-53.73736
X142.36352 Y456.33691 I65.38696 J-58.38071
G1 X142.36342 Y456.33677
G03 X137.17955 Y448.45435 I89.83853 J-64.7281
X132.02271 Y439.04644 I122.59775 J-73.31785
X126.91506 Y427.94531 I167.7943 J-83.92792
X121.87928 Y414.98694 I228.89314 J-96.40839
G1 X121.87927 Y414.98689
G03 X116.93722 Y400.00928 I309.99264 J-110.58996
G1 X116.9372 Y400.0092
G03 X112.10966 Y382.85124 I415.86495 J-126.26516
G1 X112.10943 Y382.85034
G03 X108.14761 Y366.59269 I539.08026 J-139.97968
X103.81835 Y346.19842 I691.46867 J-157.4404
X99.6395 Y323.44446 I887.31053 J-174.71867
X95.62627 Y298.19383 I1127.57359 J-192.15599
X91.79356 Y270.30925 I1419.47118 J-209.3111
X88.156 Y239.65316 I1770.9259 J-225.67649
G02 X81.825 Y240. I-3.156 J0.34684
G1 Y379.10002
G0 Z3.175
Y360.55492
G1 Z-5.73 F1250.5
Y379.10002 Z-9. F3751.5
Y470. F5000.
G02 X85. Y473.175 I3.175 J0.
G1 X150.
G02 X152.19078 Y467.70193 I0. J-3.175
G03 X148.09956 Y463.48013 I51.22869 J-53.73736
X142.36352 Y456.33691 I65.38696 J-58.38071
G1 X142.36342 Y456.33677
G03 X137.17955 Y448.45435 I89.83853 J-64.7281
X132.02271 Y439.04644 I122.59775 J-73.31785
X126.91506 Y427.94531 I167.7943 J-83.92792
X121.87928 Y414.98694 I228.89314 J-96.40839
G1 X121.87927 Y414.98689
G03 X116.93722 Y400.00928 I309.99264 J-110.58996
G1 X116.9372 Y400.0092
G03 X112.10966 Y382.85124 I415.86495 J-126.26516
G1 X112.10943 Y382.85034
G03 X108.14761 Y366.59269 I539.08026 J-139.97968
X103.81835 Y346.19842 I691.46867 J-157.4404
X99.6395 Y323.44446 I887.31053 J-174.71867
X95.62627 Y298.19383 I1127.57359 J-192.15599
X91.79356 Y270.30925 I1419.47118 J-209.3111
X88.156 Y239.65316 I1770.9259 J-225.67649
G02 X81.825 Y240. I-3.156 J0.34684
G1 Y379.10002
G0 Z3.175
Y360.55492
G1 Z-8.73 F1250.5
Y379.10002 Z-12. F3751.5
Y470. F5000.
G02 X85. Y473.175 I3.175 J0.
G1 X150.
G02 X152.19078 Y467.70193 I0. J-3.175
G03 X148.09956 Y463.48013 I51.22869 J-53.73736
X142.36352 Y456.33691 I65.38696 J-58.38071
G1 X142.36342 Y456.33677
G03 X137.17955 Y448.45435 I89.83853 J-64.7281
X132.02271 Y439.04644 I122.59775 J-73.31785
X126.91506 Y427.94531 I167.7943 J-83.92792
X121.87928 Y414.98694 I228.89314 J-96.40839
G1 X121.87927 Y414.98689
G03 X116.93722 Y400.00928 I309.99264 J-110.58996
G1 X116.9372 Y400.0092
G03 X112.10966 Y382.85124 I415.86495 J-126.26516
G1 X112.10943 Y382.85034
G03 X108.14761 Y366.59269 I539.08026 J-139.97968
X103.81835 Y346.19842 I691.46867 J-157.4404
X99.6395 Y323.44446 I887.31053 J-174.71867
X95.62627 Y298.19383 I1127.57359 J-192.15599
X91.79356 Y270.30925 I1419.47118 J-209.3111
X88.156 Y239.65316 I1770.9259 J-225.67649
G02 X81.825 Y240. I-3.156 J0.34684
G1 Y379.10002
G0 Z3.175
Y360.55492
G1 Z-11.73 F1250.5
Y379.10002 Z-15. F3751.5
Y470. F5000.
G02 X85. Y473.175 I3.175 J0.
G1 X150.
G02 X152.19078 Y467.70193 I0. J-3.175
G03 X148.09956 Y463.48013 I51.22869 J-53.73736
X142.36352 Y456.33691 I65.38696 J-58.38071
G1 X142.36342 Y456.33677
G03 X137.17955 Y448.45435 I89.83853 J-64.7281
X132.02271 Y439.04644 I122.59775 J-73.31785
X126.91506 Y427.94531 I167.7943 J-83.92792
X121.87928 Y414.98694 I228.89314 J-96.40839
G1 X121.87927 Y414.98689
G03 X116.93722 Y400.00928 I309.99264 J-110.58996
G1 X116.9372 Y400.0092
G03 X112.10966 Y382.85124 I415.86495 J-126.26516
G1 X112.10943 Y382.85034
G03 X108.14761 Y366.59269 I539.08026 J-139.97968
X103.81835 Y346.19842 I691.46867 J-157.4404
X99.6395 Y323.44446 I887.31053 J-174.71867
X95.62627 Y298.19383 I1127.57359 J-192.15599
X91.79356 Y270.30925 I1419.47118 J-209.3111
X88.156 Y239.65316 I1770.9259 J-225.67649
G02 X81.825 Y240. I-3.156 J0.34684
G1 Y379.10002
G0 Z3.175
Y360.55492
G1 Z-14.73 F1250.5
Y379.10002 Z-18. F3751.5
Y470. F5000.
G02 X85. Y473.175 I3.175 J0.
G1 X150.
G02 X152.19078 Y467.70193 I0. J-3.175
G03 X148.09956 Y463.48013 I51.22869 J-53.73736
X142.36352 Y456.33691 I65.38696 J-58.38071
G1 X142.36342 Y456.33677
G03 X137.17955 Y448.45435 I89.83853 J-64.7281
X132.02271 Y439.04644 I122.59775 J-73.31785
X126.91506 Y427.94531 I167.7943 J-83.92792
X121.87928 Y414.98694 I228.89314 J-96.40839
G1 X121.87927 Y414.98689
G03 X116.93722 Y400.00928 I309.99264 J-110.58996
G1 X116.9372 Y400.0092
G03 X112.10966 Y382.85124 I415.86495 J-126.26516
G1 X112.10943 Y382.85034
G03 X108.14761 Y366.59269 I539.08026 J-139.97968
X103.81835 Y346.19842 I691.46867 J-157.4404
X99.6395 Y323.44446 I887.31053 J-174.71867
X95.62627 Y298.19383 I1127.57359 J-192.15599
X91.79356 Y270.30925 I1419.47118 J-209.3111
X88.156 Y239.65316 I1770.9259 J-225.67649
G02 X81.825 Y240. I-3.156 J0.34684
G1 Y379.10002
G0 Z3.175
X78.175 Y365.62166
G1 Z0.27 F1250.5
Y347.07657 Z-3. F3751.5
Y240. F5000.
G02 X75. Y236.825 I-3.175 J0.
G1 X10.
G02 X7.92062 Y242.51675 I0.04053 J3.24051
G1 X8.37253 Y243.12534
G03 X14.97321 Y253.16507 I-91.00296 J67.02015
X19.30811 Y261.20454 I-116.39308 J67.94779
X23.2176 Y269.64908 I-154.35232 J76.58626
X27.17174 Y279.45883 I-209.78486 J90.26258
X31.20491 Y290.84243 I-292.16157 J109.91802
X35.35109 Y304.00555 I-411.71082 J136.91712
X39.64475 Y319.15257 I-582.20937 J173.21817
X44.63113 Y338.55744 I-832.23733 J224.1993
X50.4353 Y363.35824 I-1243.54465 J304.1083
G1 X50.43531 Y363.35829
G03 X56.63784 Y392.14093 I-1863.15786 J416.56182
G1 X56.63785 Y392.14097
G03 X63.30551 Y425.27977 I-2759.64087 J572.4917
X71.87722 Y470.57349 I-4180.06819 J814.52402
G02 X78.175 Y470. I3.12278 J-0.57349
G1 Y347.07657
G0 Z3.175
Y365.62166
G1 Z-2.73 F1250.5
Y347.07657 Z-6. F3751.5
Y240. F5000.
G02 X75. Y236.825 I-3.175 J0.
G1 X10.
G02 X7.92062 Y242.51675 I0.04053 J3.24051
G1 X8.37253 Y243.12534
G03 X14.97321 Y253.16507 I-91.00296 J67.02015
X19.30811 Y261.20454 I-116.39308 J67.94779
X23.2176 Y269.64908 I-154.35232 J76.58626
X27.17174 Y279.45883 I-209.78486 J90.26258
X31.20491 Y290.84243 I-292.16157 J109.91802
X35.35109 Y304.00555 I-411.71082 J136.91712
X39.64475 Y319.15257 I-582.20937 J173.21817
X44.63113 Y338.55744 I-832.23733 J224.1993
X50.4353 Y363.35824 I-1243.54465 J304.1083
G1 X50.43531 Y363.35829
G03 X56.63784 Y392.14093 I-1863.15786 J416.56182
G1 X56.63785 Y392.14097
G03 X63.30551 Y425.27977 I-2759.64087 J572.4917
X71.87722 Y470.57349 I-4180.06819 J814.52402
G02 X78.175 Y470. I3.12278 J-0.57349
G1 Y347.07657
G0 Z3.175
Y365.62166
G1 Z-5.73 F1250.5
Y347.07657 Z-9. F3751.5
Y240. F5000.
G02 X75. Y236.825 I-3.175 J0.
G1 X10.
G02 X7.92062 Y242.51675 I0.04053 J3.24051
G1 X8.37253 Y243.12534
G03 X14.97321 Y253.16507 I-91.00296 J67.02015
X19.30811 Y261.20454 I-116.39308 J67.94779
X23.2176 Y269.64908 I-154.35232 J76.58626
X27.17174 Y279.45883 I-209.78486 J90.26258
X31.20491 Y290.84243 I-292.16157 J109.91802
X35.35109 Y304.00555 I-411.71082 J136.91712
X39.64475 Y319.15257 I-582.20937 J173.21817
X44.63113 Y338.55744 I-832.23733 J224.1993
X50.4353 Y363.35824 I-1243.54465 J304.1083
G1 X50.43531 Y363.35829
G03 X56.63784 Y392.14093 I-1863.15786 J416.56182
G1 X56.63785 Y392.14097
G03 X63.30551 Y425.27977 I-2759.64087 J572.4917
X71.87722 Y470.57349 I-4180.06819 J814.52402
G02 X78.175 Y470. I3.12278 J-0.57349
G1 Y347.07657
G0 Z3.175
Y365.62166
G1 Z-8.73 F1250.5
Y347.07657 Z-12. F3751.5
Y240. F5000.
G02 X75. Y236.825 I-3.175 J0.
G1 X10.
G02 X7.92062 Y242.51675 I0.04053 J3.24051
G1 X8.37253 Y243.12534
G03 X14.97321 Y253.16507 I-91.00296 J67.02015
X19.30811 Y261.20454 I-116.39308 J67.94779
X23.2176 Y269.64908 I-154.35232 J76.58626
X27.17174 Y279.45883 I-209.78486 J90.26258
X31.20491 Y290.84243 I-292.16157 J109.91802
X35.35109 Y304.00555 I-411.71082 J136.91712
X39.64475 Y319.15257 I-582.20937 J173.21817
X44.63113 Y338.55744 I-832.23733 J224.1993
X50.4353 Y363.35824 I-1243.54465 J304.1083
G1 X50.43531 Y363.35829
G03 X56.63784 Y392.14093 I-1863.15786 J416.56182
G1 X56.63785 Y392.14097
G03 X63.30551 Y425.27977 I-2759.64087 J572.4917
X71.87722 Y470.57349 I-4180.06819 J814.52402
G02 X78.175 Y470. I3.12278 J-0.57349
G1 Y347.07657
G0 Z3.175
Y365.62166
G1 Z-11.73 F1250.5
Y347.07657 Z-15. F3751.5
Y240. F5000.
G02 X75. Y236.825 I-3.175 J0.
G1 X10.
G02 X7.92062 Y242.51675 I0.04053 J3.24051
G1 X8.37253 Y243.12534
G03 X14.97321 Y253.16507 I-91.00296 J67.02015
X19.30811 Y261.20454 I-116.39308 J67.94779
X23.2176 Y269.64908 I-154.35232 J76.58626
X27.17174 Y279.45883 I-209.78486 J90.26258
X31.20491 Y290.84243 I-292.16157 J109.91802
X35.35109 Y304.00555 I-411.71082 J136.91712
X39.64475 Y319.15257 I-582.20937 J173.21817
X44.63113 Y338.55744 I-832.23733 J224.1993
X50.4353 Y363.35824 I-1243.54465 J304.1083
G1 X50.43531 Y363.35829
G03 X56.63784 Y392.14093 I-1863.15786 J416.56182
G1 X56.63785 Y392.14097
G03 X63.30551 Y425.27977 I-2759.64087 J572.4917
X71.87722 Y470.57349 I-4180.06819 J814.52402
G02 X78.175 Y470. I3.12278 J-0.57349
G1 Y347.07657
G0 Z3.175
Y365.62166
G1 Z-14.73 F1250.5
Y347.07657 Z-18. F3751.5
Y240. F5000.
G02 X75. Y236.825 I-3.175 J0.
G1 X10.
G02 X7.92062 Y242.51675 I0.04053 J3.24051
G1 X8.37253 Y243.12534
G03 X14.97321 Y253.16507 I-91.00296 J67.02015
X19.30811 Y261.20454 I-116.39308 J67.94779
X23.2176 Y269.64908 I-154.35232 J76.58626
X27.17174 Y279.45883 I-209.78486 J90.26258
X31.20491 Y290.84243 I-292.16157 J109.91802
X35.35109 Y304.00555 I-411.71082 J136.91712
X39.64475 Y319.15257 I-582.20937 J173.21817
X44.63113 Y338.55744 I-832.23733 J224.1993
X50.4353 Y363.35824 I-1243.54465 J304.1083
G1 X50.43531 Y363.35829
G03 X56.63784 Y392.14093 I-1863.15786 J416.56182
G1 X56.63785 Y392.14097
G03 X63.30551 Y425.27977 I-2759.64087 J572.4917
X71.87722 Y470.57349 I-4180.06819 J814.52402
G02 X78.175 Y470. I3.12278 J-0.57349
G1 Y347.07657
G0 Z3.175
X-3.175 Y369.03094
G1 Z0.27 F1250.5
Y387.57603 Z-3. F3751.5
Y470. F5000.
G02 X0. Y473.175 I3.175 J0.
G1 X65.
G02 X67.07938 Y467.48325 I-0.04053 J-3.24051
G1 X66.62747 Y466.87466
G03 X60.02679 Y456.83493 I91.00296 J-67.02015
X55.69189 Y448.79546 I116.39307 J-67.94779
X51.7824 Y440.35092 I154.35232 J-76.58626
X47.82825 Y430.54117 I209.78486 J-90.26258
X43.79509 Y419.15757 I292.16158 J-109.91802
X39.64891 Y405.99445 I411.71082 J-136.91713
X35.35525 Y390.84743 I582.20937 J-173.21817
X30.36887 Y371.44256 I832.23733 J-224.1993
X24.5647 Y346.64176 I1243.54465 J-304.10831
G1 X24.56469 Y346.64171
G03 X18.36216 Y317.85907 I1863.15786 J-416.56182
G1 X18.36215 Y317.85903
G03 X11.69449 Y284.72023 I2759.64087 J-572.4917
X3.12278 Y239.42651 I4180.06819 J-814.52402
G02 X-3.175 Y240. I-3.12278 J0.57349
G1 Y387.57603
G0 Z3.175
Y369.03094
G1 Z-2.73 F1250.5
Y387.57603 Z-6. F3751.5
Y470. F5000.
G02 X0. Y473.175 I3.175 J0.
G1 X65.
G02 X67.07938 Y467.48325 I-0.04053 J-3.24051
G1 X66.62747 Y466.87466
G03 X60.02679 Y456.83493 I91.00296 J-67.02015
X55.69189 Y448.79546 I116.39307 J-67.94779
X51.7824 Y440.35092 I154.35232 J-76.58626
X47.82825 Y430.54117 I209.78486 J-90.26258
X43.79509 Y419.15757 I292.16158 J-109.91802
X39.64891 Y405.99445 I411.71082 J-136.91713
X35.35525 Y390.84743 I582.20937 J-173.21817
X30.36887 Y371.44256 I832.23733 J-224.1993
X24.5647 Y346.64176 I1243.54465 J-304.10831
G1 X24.56469 Y346.64171
G03 X18.36216 Y317.85907 I1863.15786 J-416.56182
G1 X18.36215 Y317.85903
G03 X11.69449 Y284.72023 I2759.64087 J-572.4917
X3.12278 Y239.42651 I4180.06819 J-814.52402
G02 X-3.175 Y240. I-3.12278 J0.57349
G1 Y387.57603
G0 Z3.175
Y369.03094
G1 Z-5.73 F1250.5
Y387.57603 Z-9. F3751.5
Y470. F5000.
G02 X0. Y473.175 I3.175 J0.
G1 X65.
G02 X67.07938 Y467.48325 I-0.04053 J-3.24051
G1 X66.62747 Y466.87466
G03 X60.02679 Y456.83493 I91.00296 J-67.02015
X55.69189 Y448.79546 I116.39307 J-67.94779
X51.7824 Y440.35092 I154.35232 J-76.58626
X47.82825 Y430.54117 I209.78486 J-90.26258
X43.79509 Y419.15757 I292.16158 J-109.91802
X39.64891 Y405.99445 I411.71082 J-136.91713
X35.35525 Y390.84743 I582.20937 J-173.21817
X30.36887 Y371.44256 I832.23733 J-224.1993
X24.5647 Y346.64176 I1243.54465 J-304.10831
G1 X24.56469 Y346.64171
G03 X18.36216 Y317.85907 I1863.15786 J-416.56182
G1 X18.36215 Y317.85903
G03 X11.69449 Y284.72023 I2759.64087 J-572.4917
X3.12278 Y239.42651 I4180.06819 J-814.52402
G02 X-3.175 Y240. I-3.12278 J0.57349
G1 Y387.57603
G0 Z3.175
Y369.03094
G1 Z-8.73 F1250.5
Y387.57603 Z-12. F3751.5
Y470. F5000.
G02 X0. Y473.175 I3.175 J0.
G1 X65.
G02 X67.07938 Y467.48325 I-0.04053 J-3.24051
G1 X66.62747 Y466.87466
G03 X60.02679 Y456.83493 I91.00296 J-67.02015
X55.69189 Y448.79546 I116.39307 J-67.94779
X51.7824 Y440.35092 I154.35232 J-76.58626
X47.82825 Y430.54117 I209.78486 J-90.26258
X43.79509 Y419.15757 I292.16158 J-109.91802
X39.64891 Y405.99445 I411.71082 J-136.91713
X35.35525 Y390.84743 I582.20937 J-173.21817
X30.36887 Y371.44256 I832.23733 J-224.1993
X24.5647 Y346.64176 I1243.54465 J-304.10831
G1 X24.56469 Y346.64171
G03 X18.36216 Y317.85907 I1863.15786 J-416.56182
G1 X18.36215 Y317.85903
G03 X11.69449 Y284.72023 I2759.64087 J-572.4917
X3.12278 Y239.42651 I4180.06819 J-814.52402
G02 X-3.175 Y240. I-3.12278 J0.57349
G1 Y387.57603
G0 Z3.175
Y369.03094
G1 Z-11.73 F1250.5
Y387.57603 Z-15. F3751.5
Y470. F5000.
G02 X0. Y473.175 I3.175 J0.
G1 X65.
G02 X67.07938 Y467.48325 I-0.04053 J-3.24051
G1 X66.62747 Y466.87466
G03 X60.02679 Y456.83493 I91.00296 J-67.02015
X55.69189 Y448.79546 I116.39307 J-67.94779
X51.7824 Y440.35092 I154.35232 J-76.58626
X47.82825 Y430.54117 I209.78486 J-90.26258
X43.79509 Y419.15757 I292.16158 J-109.91802
X39.64891 Y405.99445 I411.71082 J-136.91713
X35.35525 Y390.84743 I582.20937 J-173.21817
X30.36887 Y371.44256 I832.23733 J-224.1993
X24.5647 Y346.64176 I1243.54465 J-304.10831
G1 X24.56469 Y346.64171
G03 X18.36216 Y317.85907 I1863.15786 J-416.56182
G1 X18.36215 Y317.85903
G03 X11.69449 Y284.72023 I2759.64087 J-572.4917
X3.12278 Y239.42651 I4180.06819 J-814.52402
G02 X-3.175 Y240. I-3.12278 J0.57349
G1 Y387.57603
G0 Z3.175
Y369.03094
G1 Z-14.73 F1250.5
Y387.57603 Z-18. F3751.5
Y470. F5000.
G02 X0. Y473.175 I3.175 J0.
G1 X65.
G02 X67.07938 Y467.48325 I-0.04053 J-3.24051
G1 X66.62747 Y466.87466
G03 X60.02679 Y456.83493 I91.00296 J-67.02015
X55.69189 Y448.79546 I116.39307 J-67.94779
X51.7824 Y440.35092 I154.35232 J-76.58626
X47.82825 Y430.54117 I209.78486 J-90.26258
X43.79509 Y419.15757 I292.16158 J-109.91802
X39.64891 Y405.99445 I411.71082 J-136.91713
X35.35525 Y390.84743 I582.20937 J-173.21817
X30.36887 Y371.44256 I832.23733 J-224.1993
X24.5647 Y346.64176 I1243.54465 J-304.10831
G1 X24.56469 Y346.64171
G03 X18.36216 Y317.85907 I1863.15786 J-416.56182
G1 X18.36215 Y317.85903
G03 X11.69449 Y284.72023 I2759.64087 J-572.4917
X3.12278 Y239.42651 I4180.06819 J-814.52402
G02 X-3.175 Y240. I-3.12278 J0.57349
G1 Y387.57603
G0 Z3.175
M30
%
