%
G17 G21 G40 G90 G64 P0.1
(2 1/2 Axis Profiling)
(SlotDrill 2mm Carbide)
T12 M06
S24000 M3
G0 Z1.
X-0.35211 Y13.35472
G1 Z0.27 F120.
X-0.35787 Y13.34918 Z0.26859 F360.
X-0.3793 Y13.32578 Z0.263
X-0.39919 Y13.30107 Z0.2574
X-0.41749 Y13.27515 Z0.25181
X-0.4341 Y13.24812 Z0.24621
X-0.44896 Y13.22008 Z0.24062
X-0.46201 Y13.19117 Z0.23502
X-0.47321 Y13.16148 Z0.22943
X-0.4825 Y13.13114 Z0.22384
X-0.48984 Y13.10027 Z0.21824
X-0.49522 Y13.06901 Z0.21265
X-0.4986 Y13.03746 Z0.20705
X-0.49997 Y13.00576 Z0.20146
X-0.49933 Y12.97404 Z0.19586
X-0.49667 Y12.94242 Z0.19027
X-0.49202 Y12.91104 Z0.18467
X-0.48539 Y12.88001 Z0.17908
X-0.4768 Y12.84946 Z0.17349
X-0.46629 Y12.81953 Z0.16789
X-0.45391 Y12.79032 Z0.1623
X-0.4397 Y12.76195 Z0.1567
X-0.42371 Y12.73454 Z0.15111
X-0.40602 Y12.7082 Z0.14551
X-0.3867 Y12.68304 Z0.13992
X-0.36582 Y12.65915 Z0.13432
X-0.34346 Y12.63664 Z0.12873
X-0.31973 Y12.61558 Z0.12313
X-0.2947 Y12.59608 Z0.11754
X-0.26849 Y12.5782 Z0.11195
X-0.2412 Y12.56202 Z0.10635
X-0.21293 Y12.54761 Z0.10076
X-0.18381 Y12.53501 Z0.09516
X-0.15395 Y12.52429 Z0.08957
X-0.12347 Y12.51548 Z0.08397
X-0.09249 Y12.50863 Z0.07838
X-0.06114 Y12.50375 Z0.07278
X-0.02954 Y12.50087 Z0.06719
X0.00217 Y12.50001 Z0.0616
X0.03388 Y12.50115 Z0.056
X0.06545 Y12.5043 Z0.05041
X0.09676 Y12.50945 Z0.04481
X0.12768 Y12.51658 Z0.03922
X0.15808 Y12.52565 Z0.03362
X0.18785 Y12.53663 Z0.02803
X0.21686 Y12.54948 Z0.02243
X0.24499 Y12.56414 Z0.01684
X0.27215 Y12.58055 Z0.01125
X0.2982 Y12.59866 Z0.00565
X0.32305 Y12.61838 Z0.00006
X0.34661 Y12.63964 Z-0.00554
X0.36877 Y12.66235 Z-0.01113
X0.38944 Y12.68641 Z-0.01673
X0.40854 Y12.71174 Z-0.02232
X0.426 Y12.73824 Z-0.02792
X0.44175 Y12.76578 Z-0.03351
X0.45571 Y12.79427 Z-0.0391
X0.46784 Y12.82359 Z-0.0447
X0.47809 Y12.85362 Z-0.05029
X0.48641 Y12.88423 Z-0.05589
X0.49277 Y12.91532 Z-0.06148
X0.49715 Y12.94674 Z-0.06708
X0.49953 Y12.97838 Z-0.07267
X0.4999 Y13.01011 Z-0.07827
X0.49825 Y13.04179 Z-0.08386
X0.49459 Y13.07331 Z-0.08946
X0.48895 Y13.10453 Z-0.09505
X0.48134 Y13.13533 Z-0.10064
X0.47178 Y13.16559 Z-0.10624
X0.46033 Y13.19517 Z-0.11183
X0.44703 Y13.22398 Z-0.11743
X0.43192 Y13.25188 Z-0.12302
X0.41508 Y13.27877 Z-0.12862
X0.39656 Y13.30453 Z-0.13421
X0.37645 Y13.32907 Z-0.13981
X0.35482 Y13.35228 Z-0.1454
X0.33176 Y13.37408 Z-0.151
X0.30737 Y13.39437 Z-0.15659
X0.28174 Y13.41307 Z-0.16218
X0.25497 Y13.4301 Z-0.16778
X0.22718 Y13.44541 Z-0.17337
X0.19847 Y13.45892 Z-0.17897
X0.16896 Y13.47058 Z-0.18456
X0.13878 Y13.48035 Z-0.19016
X0.10803 Y13.48819 Z-0.19575
X0.07685 Y13.49406 Z-0.20135
X0.04536 Y13.49794 Z-0.20694
X0.01369 Y13.49981 Z-0.21253
X-0.01804 Y13.49967 Z-0.21813
X-0.04969 Y13.49752 Z-0.22372
X-0.08115 Y13.49337 Z-0.22932
X-0.11228 Y13.48723 Z-0.23491
X-0.14295 Y13.47913 Z-0.24051
X-0.17305 Y13.4691 Z-0.2461
X-0.20245 Y13.45718 Z-0.2517
X-0.23104 Y13.44342 Z-0.25729
X-0.2587 Y13.42787 Z-0.26288
X-0.28532 Y13.4106 Z-0.26848
X-0.31079 Y13.39168 Z-0.27407
X-0.335 Y13.37118 Z-0.27967
X-0.35787 Y13.34918 Z-0.28526
X-0.3793 Y13.32578 Z-0.29086
X-0.39919 Y13.30107 Z-0.29645
X-0.41749 Y13.27515 Z-0.30205
X-0.4341 Y13.24812 Z-0.30764
X-0.44896 Y13.22008 Z-0.31323
X-0.46201 Y13.19117 Z-0.31883
X-0.47321 Y13.16148 Z-0.32442
X-0.4825 Y13.13114 Z-0.33002
X-0.48984 Y13.10027 Z-0.33561
X-0.49522 Y13.06901 Z-0.34121
X-0.4986 Y13.03746 Z-0.3468
X-0.49997 Y13.00576 Z-0.3524
X-0.49933 Y12.97404 Z-0.35799
X-0.49667 Y12.94242 Z-0.36359
X-0.49202 Y12.91104 Z-0.36918
X-0.48539 Y12.88001 Z-0.37477
X-0.4768 Y12.84946 Z-0.38037
X-0.46629 Y12.81953 Z-0.38596
X-0.45391 Y12.79032 Z-0.39156
X-0.4397 Y12.76195 Z-0.39715
X-0.42371 Y12.73454 Z-0.40275
X-0.40602 Y12.7082 Z-0.40834
X-0.3867 Y12.68304 Z-0.41394
X-0.36582 Y12.65915 Z-0.41953
X-0.34346 Y12.63664 Z-0.42512
X-0.31973 Y12.61558 Z-0.43072
X-0.2947 Y12.59608 Z-0.43631
X-0.26849 Y12.5782 Z-0.44191
X-0.2412 Y12.56202 Z-0.4475
X-0.21293 Y12.54761 Z-0.4531
X-0.18381 Y12.53501 Z-0.45869
X-0.15395 Y12.52429 Z-0.46429
X-0.12347 Y12.51548 Z-0.46988
X-0.09249 Y12.50863 Z-0.47548
X-0.06114 Y12.50375 Z-0.48107
X-0.02954 Y12.50087 Z-0.48666
X0.00217 Y12.50001 Z-0.49226
X0.03388 Y12.50115 Z-0.49785
X0.06545 Y12.5043 Z-0.50345
X0.09676 Y12.50945 Z-0.50904
X0.12768 Y12.51658 Z-0.51464
X0.15808 Y12.52565 Z-0.52023
X0.18785 Y12.53663 Z-0.52583
X0.21686 Y12.54948 Z-0.53142
X0.24499 Y12.56414 Z-0.53701
X0.27215 Y12.58055 Z-0.54261
X0.2982 Y12.59866 Z-0.5482
X0.32305 Y12.61838 Z-0.5538
X0.34661 Y12.63964 Z-0.55939
X0.36877 Y12.66235 Z-0.56499
X0.38944 Y12.68641 Z-0.57058
X0.40854 Y12.71174 Z-0.57618
X0.426 Y12.73824 Z-0.58177
X0.44175 Y12.76578 Z-0.58736
X0.45571 Y12.79427 Z-0.59296
X0.46784 Y12.82359 Z-0.59855
X0.47809 Y12.85362 Z-0.60415
X0.48641 Y12.88423 Z-0.60974
X0.49277 Y12.91532 Z-0.61534
X0.49715 Y12.94674 Z-0.62093
X0.49953 Y12.97838 Z-0.62653
X0.4999 Y13.01011 Z-0.63212
X0.49825 Y13.04179 Z-0.63772
X0.49459 Y13.07331 Z-0.64331
X0.48895 Y13.10453 Z-0.6489
X0.48134 Y13.13533 Z-0.6545
X0.47178 Y13.16559 Z-0.66009
X0.46033 Y13.19517 Z-0.66569
X0.44703 Y13.22398 Z-0.67128
X0.43192 Y13.25188 Z-0.67688
X0.41508 Y13.27877 Z-0.68247
X0.39656 Y13.30453 Z-0.68807
X0.37645 Y13.32907 Z-0.69366
X0.35482 Y13.35228 Z-0.69925
X0.33176 Y13.37408 Z-0.70485
X0.30737 Y13.39437 Z-0.71044
X0.28174 Y13.41307 Z-0.71604
X0.25497 Y13.4301 Z-0.72163
X0.22718 Y13.44541 Z-0.72723
X0.19847 Y13.45892 Z-0.73282
X0.16896 Y13.47058 Z-0.73842
X0.13878 Y13.48035 Z-0.74401
X0.10803 Y13.48819 Z-0.7496
X0.07685 Y13.49406 Z-0.7552
X0.04536 Y13.49794 Z-0.76079
X0.01369 Y13.49981 Z-0.76639
X-0.01804 Y13.49967 Z-0.77198
X-0.04969 Y13.49752 Z-0.77758
X-0.08115 Y13.49337 Z-0.78317
X-0.11228 Y13.48723 Z-0.78877
X-0.14295 Y13.47913 Z-0.79436
X-0.17305 Y13.4691 Z-0.79996
X-0.20245 Y13.45718 Z-0.80555
X-0.23104 Y13.44342 Z-0.81114
X-0.2587 Y13.42787 Z-0.81674
X-0.28532 Y13.4106 Z-0.82233
X-0.31079 Y13.39168 Z-0.82793
X-0.335 Y13.37118 Z-0.83352
X-0.35787 Y13.34918 Z-0.83912
X-0.3793 Y13.32578 Z-0.84471
X-0.39919 Y13.30107 Z-0.85031
X-0.41749 Y13.27515 Z-0.8559
X-0.4341 Y13.24812 Z-0.86149
X-0.44896 Y13.22008 Z-0.86709
X-0.46201 Y13.19117 Z-0.87268
X-0.47321 Y13.16148 Z-0.87828
X-0.4825 Y13.13114 Z-0.88387
X-0.48984 Y13.10027 Z-0.88947
X-0.49522 Y13.06901 Z-0.89506
X-0.4986 Y13.03746 Z-0.90066
X-0.49997 Y13.00576 Z-0.90625
X-0.49933 Y12.97404 Z-0.91184
X-0.49667 Y12.94242 Z-0.91744
X-0.49202 Y12.91104 Z-0.92303
X-0.48539 Y12.88001 Z-0.92863
X-0.4768 Y12.84946 Z-0.93422
X-0.46629 Y12.81953 Z-0.93982
X-0.45391 Y12.79032 Z-0.94541
X-0.4397 Y12.76195 Z-0.95101
X-0.42371 Y12.73454 Z-0.9566
X-0.40602 Y12.7082 Z-0.96219
X-0.3867 Y12.68304 Z-0.96779
X-0.36582 Y12.65915 Z-0.97338
X-0.34346 Y12.63664 Z-0.97898
X-0.31973 Y12.61558 Z-0.98457
X-0.2947 Y12.59608 Z-0.99017
X-0.26849 Y12.5782 Z-0.99576
X-0.2412 Y12.56202 Z-1.00136
X-0.21293 Y12.54761 Z-1.00695
X-0.18381 Y12.53501 Z-1.01255
X-0.15395 Y12.52429 Z-1.01814
X-0.12347 Y12.51548 Z-1.02373
X-0.09249 Y12.50863 Z-1.02933
X-0.06114 Y12.50375 Z-1.03492
X-0.02954 Y12.50087 Z-1.04052
X0.00217 Y12.50001 Z-1.04611
X0.03388 Y12.50115 Z-1.05171
X0.06545 Y12.5043 Z-1.0573
X0.09676 Y12.50945 Z-1.0629
X0.12768 Y12.51658 Z-1.06849
X0.15808 Y12.52565 Z-1.07409
X0.18785 Y12.53663 Z-1.07968
X0.21686 Y12.54948 Z-1.08527
X0.24499 Y12.56414 Z-1.09087
X0.27215 Y12.58055 Z-1.09646
X0.2982 Y12.59866 Z-1.10206
X0.32305 Y12.61838 Z-1.10765
X0.34661 Y12.63964 Z-1.11325
X0.36877 Y12.66235 Z-1.11884
X0.38944 Y12.68641 Z-1.12443
X0.40854 Y12.71174 Z-1.13003
X0.426 Y12.73824 Z-1.13562
X0.44175 Y12.76578 Z-1.14122
X0.45571 Y12.79427 Z-1.14681
X0.46784 Y12.82359 Z-1.15241
X0.47809 Y12.85362 Z-1.158
X0.48641 Y12.88423 Z-1.1636
X0.49277 Y12.91532 Z-1.16919
X0.49715 Y12.94674 Z-1.17478
X0.49953 Y12.97838 Z-1.18038
X0.4999 Y13.01011 Z-1.18597
X0.49825 Y13.04179 Z-1.19157
X0.49459 Y13.07331 Z-1.19716
X0.48895 Y13.10453 Z-1.20276
X0.48134 Y13.13533 Z-1.20835
X0.47178 Y13.16559 Z-1.21395
X0.46033 Y13.19517 Z-1.21954
X0.44703 Y13.22398 Z-1.22514
X0.43192 Y13.25188 Z-1.23073
X0.41508 Y13.27877 Z-1.23632
X0.39656 Y13.30453 Z-1.24192
X0.37645 Y13.32907 Z-1.24751
X0.35482 Y13.35228 Z-1.25311
X0.33176 Y13.37408 Z-1.2587
X0.30737 Y13.39437 Z-1.2643
X0.28174 Y13.41307 Z-1.26989
X0.25497 Y13.4301 Z-1.27549
X0.22718 Y13.44541 Z-1.28108
X0.19847 Y13.45892 Z-1.28668
X0.16896 Y13.47058 Z-1.29227
X0.13878 Y13.48035 Z-1.29786
X0.10803 Y13.48819 Z-1.30346
X0.07685 Y13.49406 Z-1.30905
X0.04536 Y13.49794 Z-1.31465
X0.01369 Y13.49981 Z-1.32024
X-0.01804 Y13.49967 Z-1.32584
X-0.04969 Y13.49752 Z-1.33143
X-0.08115 Y13.49337 Z-1.33702
X-0.11228 Y13.48723 Z-1.34262
X-0.14295 Y13.47913 Z-1.34821
X-0.17305 Y13.4691 Z-1.35381
X-0.20245 Y13.45718 Z-1.3594
X-0.23104 Y13.44342 Z-1.365
X-0.2587 Y13.42787 Z-1.37059
X-0.28532 Y13.4106 Z-1.37619
X-0.31079 Y13.39168 Z-1.38178
X-0.335 Y13.37118 Z-1.38738
X-0.35787 Y13.34918 Z-1.39297
X-0.3793 Y13.32578 Z-1.39856
X-0.39919 Y13.30107 Z-1.40416
X-0.41749 Y13.27515 Z-1.40975
X-0.4341 Y13.24812 Z-1.41535
X-0.44896 Y13.22008 Z-1.42094
X-0.46201 Y13.19117 Z-1.42654
X-0.47321 Y13.16148 Z-1.43213
X-0.4825 Y13.13114 Z-1.43773
X-0.48984 Y13.10027 Z-1.44332
X-0.49522 Y13.06901 Z-1.44891
X-0.4986 Y13.03746 Z-1.45451
X-0.49997 Y13.00576 Z-1.4601
X-0.49933 Y12.97404 Z-1.4657
X-0.49667 Y12.94242 Z-1.47129
X-0.49202 Y12.91104 Z-1.47689
X-0.48539 Y12.88001 Z-1.48248
X-0.4768 Y12.84946 Z-1.48808
X-0.46629 Y12.81953 Z-1.49367
X-0.45391 Y12.79032 Z-1.49927
X-0.4397 Y12.76195 Z-1.50486
X-0.42371 Y12.73454 Z-1.51045
X-0.40602 Y12.7082 Z-1.51605
X-0.3867 Y12.68304 Z-1.52164
X-0.36582 Y12.65915 Z-1.52724
X-0.34346 Y12.63664 Z-1.53283
X-0.31973 Y12.61558 Z-1.53843
X-0.2947 Y12.59608 Z-1.54402
X-0.26849 Y12.5782 Z-1.54962
X-0.2412 Y12.56202 Z-1.55521
X-0.21293 Y12.54761 Z-1.56081
X-0.18381 Y12.53501 Z-1.5664
X-0.15395 Y12.52429 Z-1.57199
X-0.12347 Y12.51548 Z-1.57759
X-0.09249 Y12.50863 Z-1.58318
X-0.06114 Y12.50375 Z-1.58878
X-0.02954 Y12.50087 Z-1.59437
X0.00217 Y12.50001 Z-1.59997
X0.03388 Y12.50115 Z-1.60556
X0.06545 Y12.5043 Z-1.61115
X0.09676 Y12.50945 Z-1.61675
X0.12768 Y12.51658 Z-1.62234
X0.15808 Y12.52565 Z-1.62794
X0.18785 Y12.53663 Z-1.63353
X0.21686 Y12.54948 Z-1.63913
X0.24499 Y12.56414 Z-1.64472
X0.27215 Y12.58055 Z-1.65032
X0.2982 Y12.59866 Z-1.65591
X0.32305 Y12.61838 Z-1.66151
X0.34661 Y12.63964 Z-1.6671
X0.36877 Y12.66235 Z-1.67269
X0.38944 Y12.68641 Z-1.67829
X0.40854 Y12.71174 Z-1.68388
X0.426 Y12.73824 Z-1.68948
X0.44175 Y12.76578 Z-1.69507
X0.45571 Y12.79427 Z-1.70067
X0.46784 Y12.82359 Z-1.70626
X0.47809 Y12.85362 Z-1.71186
X0.48641 Y12.88423 Z-1.71745
X0.49277 Y12.91532 Z-1.72304
X0.49715 Y12.94674 Z-1.72864
X0.49953 Y12.97838 Z-1.73423
X0.4999 Y13.01011 Z-1.73983
X0.49825 Y13.04179 Z-1.74542
X0.49459 Y13.07331 Z-1.75102
X0.48895 Y13.10453 Z-1.75661
X0.48134 Y13.13533 Z-1.76221
X0.47178 Y13.16559 Z-1.7678
X0.46033 Y13.19517 Z-1.7734
X0.44703 Y13.22398 Z-1.77899
X0.43192 Y13.25188 Z-1.78458
X0.41508 Y13.27877 Z-1.79018
X0.39656 Y13.30453 Z-1.79577
X0.37645 Y13.32907 Z-1.80137
X0.35482 Y13.35228 Z-1.80696
X0.33176 Y13.37408 Z-1.81256
X0.30737 Y13.39437 Z-1.81815
X0.28174 Y13.41307 Z-1.82374
X0.25497 Y13.4301 Z-1.82934
X0.22718 Y13.44541 Z-1.83493
X0.19847 Y13.45892 Z-1.84053
X0.16896 Y13.47058 Z-1.84612
X0.13878 Y13.48035 Z-1.85172
X0.10803 Y13.48819 Z-1.85731
X0.07685 Y13.49406 Z-1.86291
X0.04536 Y13.49794 Z-1.8685
X0.01369 Y13.49981 Z-1.8741
X-0.01804 Y13.49967 Z-1.87969
X-0.04969 Y13.49752 Z-1.88529
X-0.08115 Y13.49337 Z-1.89088
X-0.11228 Y13.48723 Z-1.89647
X-0.14295 Y13.47913 Z-1.90207
X-0.17305 Y13.4691 Z-1.90766
X-0.20245 Y13.45718 Z-1.91326
X-0.23104 Y13.44342 Z-1.91885
X-0.2587 Y13.42787 Z-1.92445
X-0.28532 Y13.4106 Z-1.93004
X-0.31079 Y13.39168 Z-1.93564
X-0.335 Y13.37118 Z-1.94123
X-0.35787 Y13.34918 Z-1.94682
X-0.3793 Y13.32578 Z-1.95242
X-0.39919 Y13.30107 Z-1.95801
X-0.41749 Y13.27515 Z-1.96361
X-0.4341 Y13.24812 Z-1.9692
X-0.44896 Y13.22008 Z-1.9748
X-0.46201 Y13.19117 Z-1.98039
X-0.47321 Y13.16148 Z-1.98599
X-0.4825 Y13.13114 Z-1.99158
X-0.48984 Y13.10027 Z-1.99717
X-0.49522 Y13.06901 Z-2.00277
X-0.4986 Y13.03746 Z-2.00836
X-0.49997 Y13.00576 Z-2.01396
X-0.49933 Y12.97404 Z-2.01955
X-0.49667 Y12.94242 Z-2.02515
X-0.49202 Y12.91104 Z-2.03074
X-0.48539 Y12.88001 Z-2.03634
X-0.4768 Y12.84946 Z-2.04193
X-0.46629 Y12.81953 Z-2.04753
X-0.45391 Y12.79032 Z-2.05312
X-0.4397 Y12.76195 Z-2.05871
X-0.42371 Y12.73454 Z-2.06431
X-0.40602 Y12.7082 Z-2.0699
X-0.3867 Y12.68304 Z-2.0755
X-0.36582 Y12.65915 Z-2.08109
X-0.34346 Y12.63664 Z-2.08669
X-0.31973 Y12.61558 Z-2.09228
X-0.2947 Y12.59608 Z-2.09788
X-0.26849 Y12.5782 Z-2.10347
X-0.2412 Y12.56202 Z-2.10906
X-0.21293 Y12.54761 Z-2.11466
X-0.18381 Y12.53501 Z-2.12025
X-0.15395 Y12.52429 Z-2.12585
X-0.12347 Y12.51548 Z-2.13144
X-0.09249 Y12.50863 Z-2.13704
X-0.06114 Y12.50375 Z-2.14263
X-0.02954 Y12.50087 Z-2.14823
X0.00217 Y12.50001 Z-2.15382
X0.03388 Y12.50115 Z-2.15942
X0.06545 Y12.5043 Z-2.16501
X0.09676 Y12.50945 Z-2.1706
X0.12768 Y12.51658 Z-2.1762
X0.15808 Y12.52565 Z-2.18179
X0.18785 Y12.53663 Z-2.18739
X0.21686 Y12.54948 Z-2.19298
X0.24499 Y12.56414 Z-2.19858
X0.27215 Y12.58055 Z-2.20417
X0.2982 Y12.59866 Z-2.20977
X0.32305 Y12.61838 Z-2.21536
X0.34661 Y12.63964 Z-2.22095
X0.36877 Y12.66235 Z-2.22655
X0.38944 Y12.68641 Z-2.23214
X0.40854 Y12.71174 Z-2.23774
X0.426 Y12.73824 Z-2.24333
X0.44175 Y12.76578 Z-2.24893
X0.45571 Y12.79427 Z-2.25452
X0.46784 Y12.82359 Z-2.26011
X0.47809 Y12.85362 Z-2.26571
X0.48641 Y12.88423 Z-2.2713
X0.49277 Y12.91532 Z-2.2769
X0.49715 Y12.94674 Z-2.28249
X0.49953 Y12.97838 Z-2.28809
X0.4999 Y13.01011 Z-2.29368
X0.49825 Y13.04179 Z-2.29928
X0.49459 Y13.07331 Z-2.30487
X0.48895 Y13.10453 Z-2.31047
X0.48134 Y13.13533 Z-2.31606
X0.47178 Y13.16559 Z-2.32165
X0.46033 Y13.19517 Z-2.32725
X0.44703 Y13.22398 Z-2.33284
X0.43192 Y13.25188 Z-2.33844
X0.41508 Y13.27877 Z-2.34403
X0.39656 Y13.30453 Z-2.34963
X0.37645 Y13.32907 Z-2.35522
X0.35482 Y13.35228 Z-2.36082
X0.33176 Y13.37408 Z-2.36641
X0.30737 Y13.39437 Z-2.37201
X0.28174 Y13.41307 Z-2.3776
X0.25497 Y13.4301 Z-2.38319
X0.22718 Y13.44541 Z-2.38879
X0.19847 Y13.45892 Z-2.39438
X0.16896 Y13.47058 Z-2.39998
X0.13878 Y13.48035 Z-2.40557
X0.10803 Y13.48819 Z-2.41117
X0.07685 Y13.49406 Z-2.41676
X0.04536 Y13.49794 Z-2.42236
X0.01369 Y13.49981 Z-2.42795
X-0.01804 Y13.49967 Z-2.43354
X-0.04969 Y13.49752 Z-2.43914
X-0.08115 Y13.49337 Z-2.44473
X-0.11228 Y13.48723 Z-2.45033
X-0.14295 Y13.47913 Z-2.45592
X-0.17305 Y13.4691 Z-2.46152
X-0.20245 Y13.45718 Z-2.46711
X-0.23104 Y13.44342 Z-2.47271
X-0.2587 Y13.42787 Z-2.4783
X-0.28532 Y13.4106 Z-2.4839
X-0.31079 Y13.39168 Z-2.48949
X-0.335 Y13.37118 Z-2.49508
X-0.35787 Y13.34918 Z-2.50068
X-0.3793 Y13.32578 Z-2.50627
X-0.39919 Y13.30107 Z-2.51187
X-0.41749 Y13.27515 Z-2.51746
X-0.4341 Y13.24812 Z-2.52306
X-0.44896 Y13.22008 Z-2.52865
X-0.46201 Y13.19117 Z-2.53424
X-0.47321 Y13.16148 Z-2.53984
X-0.4825 Y13.13114 Z-2.54543
X-0.48984 Y13.10027 Z-2.55103
X-0.49522 Y13.06901 Z-2.55662
X-0.4986 Y13.03746 Z-2.56222
X-0.49997 Y13.00576 Z-2.56781
X-0.49933 Y12.97404 Z-2.57341
X-0.49667 Y12.94242 Z-2.579
X-0.49202 Y12.91104 Z-2.5846
X-0.48539 Y12.88001 Z-2.59019
X-0.4768 Y12.84946 Z-2.59578
X-0.46629 Y12.81953 Z-2.60138
X-0.45391 Y12.79032 Z-2.60697
X-0.4397 Y12.76195 Z-2.61257
X-0.42371 Y12.73454 Z-2.61816
X-0.40602 Y12.7082 Z-2.62376
X-0.3867 Y12.68304 Z-2.62935
X-0.36582 Y12.65915 Z-2.63495
X-0.34346 Y12.63664 Z-2.64054
X-0.31973 Y12.61558 Z-2.64614
X-0.2947 Y12.59608 Z-2.65173
X-0.26849 Y12.5782 Z-2.65732
X-0.2412 Y12.56202 Z-2.66292
X-0.21293 Y12.54761 Z-2.66851
X-0.18381 Y12.53501 Z-2.67411
X-0.15395 Y12.52429 Z-2.6797
X-0.12347 Y12.51548 Z-2.6853
X-0.09249 Y12.50863 Z-2.69089
X-0.06114 Y12.50375 Z-2.69649
X-0.02954 Y12.50087 Z-2.70208
X0.00217 Y12.50001 Z-2.70767
X0.03388 Y12.50115 Z-2.71327
X0.06545 Y12.5043 Z-2.71886
X0.09676 Y12.50945 Z-2.72446
X0.12768 Y12.51658 Z-2.73005
X0.15808 Y12.52565 Z-2.73565
X0.18785 Y12.53663 Z-2.74124
X0.21686 Y12.54948 Z-2.74684
X0.24499 Y12.56414 Z-2.75243
X0.27215 Y12.58055 Z-2.75802
X0.2982 Y12.59866 Z-2.76362
X0.32305 Y12.61838 Z-2.76921
X0.34661 Y12.63964 Z-2.77481
X0.36877 Y12.66235 Z-2.7804
X0.38944 Y12.68641 Z-2.786
X0.40854 Y12.71174 Z-2.79159
X0.426 Y12.73824 Z-2.79719
X0.44175 Y12.76578 Z-2.80278
X0.45571 Y12.79427 Z-2.80838
X0.46784 Y12.82359 Z-2.81397
X0.47809 Y12.85362 Z-2.81956
X0.48641 Y12.88423 Z-2.82516
X0.49277 Y12.91532 Z-2.83075
X0.49715 Y12.94674 Z-2.83635
X0.49953 Y12.97838 Z-2.84194
X0.4999 Y13.01011 Z-2.84754
X0.49825 Y13.04179 Z-2.85313
X0.49459 Y13.07331 Z-2.85873
X0.48895 Y13.10453 Z-2.86432
X0.48134 Y13.13533 Z-2.86991
X0.47178 Y13.16559 Z-2.87551
X0.46033 Y13.19517 Z-2.8811
X0.44703 Y13.22398 Z-2.8867
X0.43192 Y13.25188 Z-2.89229
X0.41508 Y13.27877 Z-2.89789
X0.39656 Y13.30453 Z-2.90348
X0.37645 Y13.32907 Z-2.90908
X0.35482 Y13.35228 Z-2.91467
X0.33176 Y13.37408 Z-2.92026
X0.30737 Y13.39437 Z-2.92586
X0.28174 Y13.41307 Z-2.93145
X0.25497 Y13.4301 Z-2.93705
X0.22718 Y13.44541 Z-2.94264
X0.19847 Y13.45892 Z-2.94824
X0.16896 Y13.47058 Z-2.95383
X0.13878 Y13.48035 Z-2.95943
X0.10803 Y13.48819 Z-2.96502
X0.07685 Y13.49406 Z-2.97062
X0.04536 Y13.49794 Z-2.97621
X0.01369 Y13.49981 Z-2.9818
X-0.01804 Y13.49967 Z-2.9874
X-0.04969 Y13.49752 Z-2.99299
X-0.08115 Y13.49337 Z-2.99859
X-0.11228 Y13.48723 Z-3.00418
X-0.14295 Y13.47913 Z-3.00978
X-0.17305 Y13.4691 Z-3.01537
X-0.20245 Y13.45718 Z-3.02097
X-0.23104 Y13.44342 Z-3.02656
X-0.2587 Y13.42787 Z-3.03215
X-0.28532 Y13.4106 Z-3.03775
X-0.31079 Y13.39168 Z-3.04334
X-0.335 Y13.37118 Z-3.04894
X-0.35787 Y13.34918 Z-3.05453
X-0.3793 Y13.32578 Z-3.06013
X-0.39919 Y13.30107 Z-3.06572
X-0.41749 Y13.27515 Z-3.07132
X-0.4341 Y13.24812 Z-3.07691
X-0.44896 Y13.22008 Z-3.08251
X-0.46201 Y13.19117 Z-3.0881
X-0.47321 Y13.16148 Z-3.09369
X-0.4825 Y13.13114 Z-3.09929
X-0.48984 Y13.10027 Z-3.10488
X-0.49522 Y13.06901 Z-3.11048
X-0.4986 Y13.03746 Z-3.11607
X-0.49997 Y13.00576 Z-3.12167
X-0.49933 Y12.97404 Z-3.12726
X-0.49667 Y12.94242 Z-3.13286
X-0.49202 Y12.91104 Z-3.13845
X-0.48539 Y12.88001 Z-3.14404
X-0.4768 Y12.84946 Z-3.14964
X-0.46629 Y12.81953 Z-3.15523
X-0.45391 Y12.79032 Z-3.16083
X-0.4397 Y12.76195 Z-3.16642
X-0.42371 Y12.73454 Z-3.17202
X-0.40602 Y12.7082 Z-3.17761
X-0.3867 Y12.68304 Z-3.18321
X-0.36582 Y12.65915 Z-3.1888
X-0.34346 Y12.63664 Z-3.19439
X-0.31973 Y12.61558 Z-3.19999
X-0.2947 Y12.59608 Z-3.20558
X-0.26849 Y12.5782 Z-3.21118
X-0.2412 Y12.56202 Z-3.21677
X-0.21293 Y12.54761 Z-3.22237
X-0.18381 Y12.53501 Z-3.22796
X-0.15395 Y12.52429 Z-3.23356
X-0.12347 Y12.51548 Z-3.23915
X-0.09249 Y12.50863 Z-3.24475
X-0.06114 Y12.50375 Z-3.25034
X-0.02954 Y12.50087 Z-3.25593
X0.00217 Y12.50001 Z-3.26153
X0.03388 Y12.50115 Z-3.26712
X0.06545 Y12.5043 Z-3.27272
X0.09676 Y12.50945 Z-3.27831
X0.12768 Y12.51658 Z-3.28391
X0.15808 Y12.52565 Z-3.2895
X0.18785 Y12.53663 Z-3.2951
X0.21686 Y12.54948 Z-3.30069
X0.24499 Y12.56414 Z-3.30628
X0.27215 Y12.58055 Z-3.31188
X0.2982 Y12.59866 Z-3.31747
X0.32305 Y12.61838 Z-3.32307
X0.34661 Y12.63964 Z-3.32866
X0.36877 Y12.66235 Z-3.33426
X0.38944 Y12.68641 Z-3.33985
X0.40854 Y12.71174 Z-3.34545
X0.426 Y12.73824 Z-3.35104
X0.44175 Y12.76578 Z-3.35663
X0.45571 Y12.79427 Z-3.36223
X0.46784 Y12.82359 Z-3.36782
X0.47809 Y12.85362 Z-3.37342
X0.48641 Y12.88423 Z-3.37901
X0.49277 Y12.91532 Z-3.38461
X0.49715 Y12.94674 Z-3.3902
X0.49953 Y12.97838 Z-3.3958
X0.4999 Y13.01011 Z-3.40139
X0.49825 Y13.04179 Z-3.40699
X0.49459 Y13.07331 Z-3.41258
X0.48895 Y13.10453 Z-3.41817
X0.48134 Y13.13533 Z-3.42377
X0.47178 Y13.16559 Z-3.42936
X0.46033 Y13.19517 Z-3.43496
X0.44703 Y13.22398 Z-3.44055
X0.43192 Y13.25188 Z-3.44615
X0.41508 Y13.27877 Z-3.45174
X0.39656 Y13.30453 Z-3.45734
X0.37645 Y13.32907 Z-3.46293
X0.35482 Y13.35228 Z-3.46852
X0.33176 Y13.37408 Z-3.47412
X0.30737 Y13.39437 Z-3.47971
X0.28174 Y13.41307 Z-3.48531
X0.25497 Y13.4301 Z-3.4909
X0.22718 Y13.44541 Z-3.4965
X0.19847 Y13.45892 Z-3.50209
X0.16896 Y13.47058 Z-3.50769
X0.13878 Y13.48035 Z-3.51328
X0.10803 Y13.48819 Z-3.51887
X0.07685 Y13.49406 Z-3.52447
X0.04536 Y13.49794 Z-3.53006
X0.01369 Y13.49981 Z-3.53566
X-0.01804 Y13.49967 Z-3.54125
X-0.04969 Y13.49752 Z-3.54685
X-0.08115 Y13.49337 Z-3.55244
X-0.11228 Y13.48723 Z-3.55804
X-0.14295 Y13.47913 Z-3.56363
X-0.17305 Y13.4691 Z-3.56923
X-0.20245 Y13.45718 Z-3.57482
X-0.23104 Y13.44342 Z-3.58041
X-0.2587 Y13.42787 Z-3.58601
X-0.28532 Y13.4106 Z-3.5916
X-0.31079 Y13.39168 Z-3.5972
X-0.335 Y13.37118 Z-3.60279
X-0.35787 Y13.34918 Z-3.60839
X-0.3793 Y13.32578 Z-3.61398
X-0.39919 Y13.30107 Z-3.61958
X-0.41749 Y13.27515 Z-3.62517
X-0.4341 Y13.24812 Z-3.63076
X-0.44896 Y13.22008 Z-3.63636
X-0.46201 Y13.19117 Z-3.64195
X-0.47321 Y13.16148 Z-3.64755
X-0.4825 Y13.13114 Z-3.65314
X-0.48984 Y13.10027 Z-3.65874
X-0.49522 Y13.06901 Z-3.66433
X-0.4986 Y13.03746 Z-3.66993
X-0.49997 Y13.00576 Z-3.67552
X-0.49933 Y12.97404 Z-3.68111
X-0.49667 Y12.94242 Z-3.68671
X-0.49202 Y12.91104 Z-3.6923
X-0.48539 Y12.88001 Z-3.6979
X-0.4768 Y12.84946 Z-3.70349
X-0.46629 Y12.81953 Z-3.70909
X-0.45391 Y12.79032 Z-3.71468
X-0.4397 Y12.76195 Z-3.72028
X-0.42371 Y12.73454 Z-3.72587
X-0.40602 Y12.7082 Z-3.73147
X-0.3867 Y12.68304 Z-3.73706
X-0.36582 Y12.65915 Z-3.74265
X-0.34346 Y12.63664 Z-3.74825
X-0.31973 Y12.61558 Z-3.75384
X-0.2947 Y12.59608 Z-3.75944
X-0.26849 Y12.5782 Z-3.76503
X-0.2412 Y12.56202 Z-3.77063
X-0.21293 Y12.54761 Z-3.77622
X-0.18381 Y12.53501 Z-3.78182
X-0.15395 Y12.52429 Z-3.78741
X-0.12347 Y12.51548 Z-3.793
X-0.09249 Y12.50863 Z-3.7986
X-0.06114 Y12.50375 Z-3.80419
X-0.02954 Y12.50087 Z-3.80979
X0.00217 Y12.50001 Z-3.81538
X0.03388 Y12.50115 Z-3.82098
X0.06545 Y12.5043 Z-3.82657
X0.09676 Y12.50945 Z-3.83217
X0.12768 Y12.51658 Z-3.83776
X0.15808 Y12.52565 Z-3.84335
X0.18785 Y12.53663 Z-3.84895
X0.21686 Y12.54948 Z-3.85454
X0.24499 Y12.56414 Z-3.86014
X0.27215 Y12.58055 Z-3.86573
X0.2982 Y12.59866 Z-3.87133
X0.32305 Y12.61838 Z-3.87692
X0.34661 Y12.63964 Z-3.88252
X0.36877 Y12.66235 Z-3.88811
X0.38944 Y12.68641 Z-3.89371
X0.40854 Y12.71174 Z-3.8993
X0.426 Y12.73824 Z-3.90489
X0.44175 Y12.76578 Z-3.91049
X0.45571 Y12.79427 Z-3.91608
X0.46784 Y12.82359 Z-3.92168
X0.47809 Y12.85362 Z-3.92727
X0.48641 Y12.88423 Z-3.93287
X0.49277 Y12.91532 Z-3.93846
X0.49715 Y12.94674 Z-3.94406
X0.49953 Y12.97838 Z-3.94965
X0.4999 Y13.01011 Z-3.95524
X0.49825 Y13.04179 Z-3.96084
X0.49459 Y13.07331 Z-3.96643
X0.48895 Y13.10453 Z-3.97203
X0.48134 Y13.13533 Z-3.97762
X0.47178 Y13.16559 Z-3.98322
X0.46033 Y13.19517 Z-3.98881
X0.44703 Y13.22398 Z-3.99441
X0.43192 Y13.25188 Z-4.
X-0.00217 Y13.49999 F480.
X-0.4341 Y13.24812
X-0.43192 Y12.74812
X0.00217 Y12.50001
X0.43409 Y12.75188
X0.43192 Y13.25188
G0 Z1.
X12.72467 Y-0.41713
G1 Z0.27 F120.
X12.73127 Y-0.42164 Z0.26859 F360.
X12.75855 Y-0.43784 Z0.263
X12.78681 Y-0.45227 Z0.2574
X12.81592 Y-0.46488 Z0.25181
X12.84578 Y-0.47562 Z0.24621
X12.87625 Y-0.48444 Z0.24062
X12.90722 Y-0.49132 Z0.23502
X12.93857 Y-0.49621 Z0.22943
X12.97017 Y-0.49911 Z0.22383
X13.00188 Y-0.5 Z0.21824
X13.03359 Y-0.49887 Z0.21265
X13.06516 Y-0.49573 Z0.20705
X13.09647 Y-0.4906 Z0.20146
X13.1274 Y-0.4835 Z0.19586
X13.1578 Y-0.47444 Z0.19027
X13.18758 Y-0.46348 Z0.18467
X13.2166 Y-0.45065 Z0.17908
X13.24474 Y-0.43601 Z0.17348
X13.2719 Y-0.4196 Z0.16789
X13.29797 Y-0.40152 Z0.16229
X13.32283 Y-0.38181 Z0.1567
X13.3464 Y-0.36057 Z0.15111
X13.36857 Y-0.33787 Z0.14551
X13.38926 Y-0.31381 Z0.13992
X13.40838 Y-0.28849 Z0.13432
X13.42585 Y-0.26201 Z0.12873
X13.44161 Y-0.23447 Z0.12313
X13.45559 Y-0.20599 Z0.11754
X13.46774 Y-0.17668 Z0.11195
X13.47801 Y-0.14666 Z0.10635
X13.48635 Y-0.11605 Z0.10076
X13.49273 Y-0.08497 Z0.09516
X13.49712 Y-0.05355 Z0.08957
X13.49952 Y-0.02191 Z0.08397
X13.4999 Y0.00982 Z0.07838
X13.49827 Y0.0415 Z0.07278
X13.49464 Y0.07302 Z0.06719
X13.48901 Y0.10425 Z0.06159
X13.48142 Y0.13505 Z0.056
X13.47188 Y0.16531 Z0.05041
X13.46045 Y0.19491 Z0.04481
X13.44716 Y0.22372 Z0.03922
X13.43207 Y0.25163 Z0.03362
X13.41524 Y0.27853 Z0.02803
X13.39674 Y0.3043 Z0.02243
X13.37664 Y0.32885 Z0.01684
X13.35502 Y0.35208 Z0.01124
X13.33198 Y0.37388 Z0.00565
X13.3076 Y0.39419 Z0.00005
X13.28198 Y0.4129 Z-0.00554
X13.25522 Y0.42995 Z-0.01113
X13.22744 Y0.44528 Z-0.01673
X13.19874 Y0.4588 Z-0.02232
X13.16924 Y0.47049 Z-0.02792
X13.13906 Y0.48027 Z-0.03351
X13.10832 Y0.48812 Z-0.03911
X13.07714 Y0.49401 Z-0.0447
X13.04565 Y0.49791 Z-0.0503
X13.01398 Y0.4998 Z-0.05589
X12.98225 Y0.49968 Z-0.06148
X12.9506 Y0.49755 Z-0.06708
X12.91914 Y0.49342 Z-0.07267
X12.88801 Y0.48729 Z-0.07827
X12.85733 Y0.47921 Z-0.08386
X12.82722 Y0.4692 Z-0.08946
X12.79781 Y0.45729 Z-0.09505
X12.76921 Y0.44355 Z-0.10065
X12.74155 Y0.42802 Z-0.10624
X12.71492 Y0.41077 Z-0.11183
X12.68944 Y0.39186 Z-0.11743
X12.66521 Y0.37137 Z-0.12302
X12.64233 Y0.34939 Z-0.12862
X12.62089 Y0.326 Z-0.13421
X12.60098 Y0.3013 Z-0.13981
X12.58267 Y0.27539 Z-0.1454
X12.56605 Y0.24837 Z-0.151
X12.55117 Y0.22034 Z-0.15659
X12.5381 Y0.19143 Z-0.16219
X12.52689 Y0.16175 Z-0.16778
X12.51758 Y0.13142 Z-0.17337
X12.51022 Y0.10056 Z-0.17897
X12.50482 Y0.06929 Z-0.18456
X12.50143 Y0.03775 Z-0.19016
X12.50004 Y0.00605 Z-0.19575
X12.50066 Y-0.02567 Z-0.20135
X12.50329 Y-0.05729 Z-0.20694
X12.50793 Y-0.08868 Z-0.21254
X12.51454 Y-0.11971 Z-0.21813
X12.52311 Y-0.15026 Z-0.22372
X12.5336 Y-0.1802 Z-0.22932
X12.54597 Y-0.20942 Z-0.23491
X12.56017 Y-0.2378 Z-0.24051
X12.57613 Y-0.26521 Z-0.2461
X12.59381 Y-0.29156 Z-0.2517
X12.61312 Y-0.31674 Z-0.25729
X12.63399 Y-0.34064 Z-0.26289
X12.65633 Y-0.36317 Z-0.26848
X12.68005 Y-0.38423 Z-0.27407
X12.70507 Y-0.40375 Z-0.27967
X12.73127 Y-0.42164 Z-0.28526
X12.75855 Y-0.43784 Z-0.29086
X12.78681 Y-0.45227 Z-0.29645
X12.81592 Y-0.46488 Z-0.30205
X12.84578 Y-0.47562 Z-0.30764
X12.87625 Y-0.48444 Z-0.31324
X12.90722 Y-0.49132 Z-0.31883
X12.93857 Y-0.49621 Z-0.32443
X12.97017 Y-0.49911 Z-0.33002
X13.00188 Y-0.5 Z-0.33561
X13.03359 Y-0.49887 Z-0.34121
X13.06516 Y-0.49573 Z-0.3468
X13.09647 Y-0.4906 Z-0.3524
X13.1274 Y-0.4835 Z-0.35799
X13.1578 Y-0.47444 Z-0.36359
X13.18758 Y-0.46348 Z-0.36918
X13.2166 Y-0.45065 Z-0.37478
X13.24474 Y-0.43601 Z-0.38037
X13.2719 Y-0.4196 Z-0.38596
X13.29797 Y-0.40152 Z-0.39156
X13.32283 Y-0.38181 Z-0.39715
X13.3464 Y-0.36057 Z-0.40275
X13.36857 Y-0.33787 Z-0.40834
X13.38926 Y-0.31381 Z-0.41394
X13.40838 Y-0.28849 Z-0.41953
X13.42585 Y-0.26201 Z-0.42512
X13.44161 Y-0.23447 Z-0.43072
X13.45559 Y-0.20599 Z-0.43631
X13.46774 Y-0.17668 Z-0.44191
X13.47801 Y-0.14666 Z-0.4475
X13.48635 Y-0.11605 Z-0.4531
X13.49273 Y-0.08497 Z-0.45869
X13.49712 Y-0.05355 Z-0.46429
X13.49952 Y-0.02191 Z-0.46988
X13.4999 Y0.00982 Z-0.47548
X13.49827 Y0.0415 Z-0.48107
X13.49464 Y0.07302 Z-0.48667
X13.48901 Y0.10425 Z-0.49226
X13.48142 Y0.13505 Z-0.49785
X13.47188 Y0.16531 Z-0.50345
X13.46045 Y0.19491 Z-0.50904
X13.44716 Y0.22372 Z-0.51464
X13.43207 Y0.25163 Z-0.52023
X13.41524 Y0.27853 Z-0.52583
X13.39674 Y0.3043 Z-0.53142
X13.37664 Y0.32885 Z-0.53702
X13.35502 Y0.35208 Z-0.54261
X13.33198 Y0.37388 Z-0.5482
X13.3076 Y0.39419 Z-0.5538
X13.28198 Y0.4129 Z-0.55939
X13.25522 Y0.42995 Z-0.56499
X13.22744 Y0.44528 Z-0.57058
X13.19874 Y0.4588 Z-0.57618
X13.16924 Y0.47049 Z-0.58177
X13.13906 Y0.48027 Z-0.58737
X13.10832 Y0.48812 Z-0.59296
X13.07714 Y0.49401 Z-0.59855
X13.04565 Y0.49791 Z-0.60415
X13.01398 Y0.4998 Z-0.60974
X12.98225 Y0.49968 Z-0.61534
X12.9506 Y0.49755 Z-0.62093
X12.91914 Y0.49342 Z-0.62653
X12.88801 Y0.48729 Z-0.63212
X12.85733 Y0.47921 Z-0.63772
X12.82722 Y0.4692 Z-0.64331
X12.79781 Y0.45729 Z-0.6489
X12.76921 Y0.44355 Z-0.6545
X12.74155 Y0.42802 Z-0.66009
X12.71492 Y0.41077 Z-0.66569
X12.68944 Y0.39186 Z-0.67128
X12.66521 Y0.37137 Z-0.67688
X12.64233 Y0.34939 Z-0.68247
X12.62089 Y0.326 Z-0.68807
X12.60098 Y0.3013 Z-0.69366
X12.58267 Y0.27539 Z-0.69926
X12.56605 Y0.24837 Z-0.70485
X12.55117 Y0.22034 Z-0.71044
X12.5381 Y0.19143 Z-0.71604
X12.52689 Y0.16175 Z-0.72163
X12.51758 Y0.13142 Z-0.72723
X12.51022 Y0.10056 Z-0.73282
X12.50482 Y0.06929 Z-0.73842
X12.50143 Y0.03775 Z-0.74401
X12.50004 Y0.00605 Z-0.74961
X12.50066 Y-0.02567 Z-0.7552
X12.50329 Y-0.05729 Z-0.76079
X12.50793 Y-0.08868 Z-0.76639
X12.51454 Y-0.11971 Z-0.77198
X12.52311 Y-0.15026 Z-0.77758
X12.5336 Y-0.1802 Z-0.78317
X12.54597 Y-0.20942 Z-0.78877
X12.56017 Y-0.2378 Z-0.79436
X12.57613 Y-0.26521 Z-0.79996
X12.59381 Y-0.29156 Z-0.80555
X12.61312 Y-0.31674 Z-0.81115
X12.63399 Y-0.34064 Z-0.81674
X12.65633 Y-0.36317 Z-0.82233
X12.68005 Y-0.38423 Z-0.82793
X12.70507 Y-0.40375 Z-0.83352
X12.73127 Y-0.42164 Z-0.83912
X12.75855 Y-0.43784 Z-0.84471
X12.78681 Y-0.45227 Z-0.85031
X12.81592 Y-0.46488 Z-0.8559
X12.84578 Y-0.47562 Z-0.8615
X12.87625 Y-0.48444 Z-0.86709
X12.90722 Y-0.49132 Z-0.87268
X12.93857 Y-0.49621 Z-0.87828
X12.97017 Y-0.49911 Z-0.88387
X13.00188 Y-0.5 Z-0.88947
X13.03359 Y-0.49887 Z-0.89506
X13.06516 Y-0.49573 Z-0.90066
X13.09647 Y-0.4906 Z-0.90625
X13.1274 Y-0.4835 Z-0.91184
X13.1578 Y-0.47444 Z-0.91744
X13.18758 Y-0.46348 Z-0.92303
X13.2166 Y-0.45065 Z-0.92863
X13.24474 Y-0.43601 Z-0.93422
X13.2719 Y-0.4196 Z-0.93982
X13.29797 Y-0.40152 Z-0.94541
X13.32283 Y-0.38181 Z-0.95101
X13.3464 Y-0.36057 Z-0.9566
X13.36857 Y-0.33787 Z-0.9622
X13.38926 Y-0.31381 Z-0.96779
X13.40838 Y-0.28849 Z-0.97339
X13.42585 Y-0.26201 Z-0.97898
X13.44161 Y-0.23447 Z-0.98457
X13.45559 Y-0.20599 Z-0.99017
X13.46774 Y-0.17668 Z-0.99576
X13.47801 Y-0.14666 Z-1.00136
X13.48635 Y-0.11605 Z-1.00695
X13.49273 Y-0.08497 Z-1.01255
X13.49712 Y-0.05355 Z-1.01814
X13.49952 Y-0.02191 Z-1.02374
X13.4999 Y0.00982 Z-1.02933
X13.49827 Y0.0415 Z-1.03492
X13.49464 Y0.07302 Z-1.04052
X13.48901 Y0.10425 Z-1.04611
X13.48142 Y0.13505 Z-1.05171
X13.47188 Y0.16531 Z-1.0573
X13.46045 Y0.19491 Z-1.0629
X13.44716 Y0.22372 Z-1.06849
X13.43207 Y0.25163 Z-1.07409
X13.41524 Y0.27853 Z-1.07968
X13.39674 Y0.3043 Z-1.08527
X13.37664 Y0.32885 Z-1.09087
X13.35502 Y0.35208 Z-1.09646
X13.33198 Y0.37388 Z-1.10206
X13.3076 Y0.39419 Z-1.10765
X13.28198 Y0.4129 Z-1.11325
X13.25522 Y0.42995 Z-1.11884
X13.22744 Y0.44528 Z-1.12444
X13.19874 Y0.4588 Z-1.13003
X13.16924 Y0.47049 Z-1.13563
X13.13906 Y0.48027 Z-1.14122
X13.10832 Y0.48812 Z-1.14681
X13.07714 Y0.49401 Z-1.15241
X13.04565 Y0.49791 Z-1.158
X13.01398 Y0.4998 Z-1.1636
X12.98225 Y0.49968 Z-1.16919
X12.9506 Y0.49755 Z-1.17479
X12.91914 Y0.49342 Z-1.18038
X12.88801 Y0.48729 Z-1.18598
X12.85733 Y0.47921 Z-1.19157
X12.82722 Y0.4692 Z-1.19716
X12.79781 Y0.45729 Z-1.20276
X12.76921 Y0.44355 Z-1.20835
X12.74155 Y0.42802 Z-1.21395
X12.71492 Y0.41077 Z-1.21954
X12.68944 Y0.39186 Z-1.22514
X12.66521 Y0.37137 Z-1.23073
X12.64233 Y0.34939 Z-1.23632
X12.62089 Y0.326 Z-1.24192
X12.60098 Y0.3013 Z-1.24751
X12.58267 Y0.27539 Z-1.25311
X12.56605 Y0.24837 Z-1.2587
X12.55117 Y0.22034 Z-1.2643
X12.5381 Y0.19143 Z-1.26989
X12.52689 Y0.16175 Z-1.27549
X12.51758 Y0.13142 Z-1.28108
X12.51022 Y0.10056 Z-1.28668
X12.50482 Y0.06929 Z-1.29227
X12.50143 Y0.03775 Z-1.29786
X12.50004 Y0.00605 Z-1.30346
X12.50066 Y-0.02567 Z-1.30905
X12.50329 Y-0.05729 Z-1.31465
X12.50793 Y-0.08868 Z-1.32024
X12.51454 Y-0.11971 Z-1.32584
X12.52311 Y-0.15026 Z-1.33143
X12.5336 Y-0.1802 Z-1.33703
X12.54597 Y-0.20942 Z-1.34262
X12.56017 Y-0.2378 Z-1.34822
X12.57613 Y-0.26521 Z-1.35381
X12.59381 Y-0.29156 Z-1.3594
X12.61312 Y-0.31674 Z-1.365
X12.63399 Y-0.34064 Z-1.37059
X12.65633 Y-0.36317 Z-1.37619
X12.68005 Y-0.38423 Z-1.38178
X12.70507 Y-0.40375 Z-1.38738
X12.73127 Y-0.42164 Z-1.39297
X12.75855 Y-0.43784 Z-1.39856
X12.78681 Y-0.45227 Z-1.40416
X12.81592 Y-0.46488 Z-1.40975
X12.84578 Y-0.47562 Z-1.41535
X12.87625 Y-0.48444 Z-1.42094
X12.90722 Y-0.49132 Z-1.42654
X12.93857 Y-0.49621 Z-1.43213
X12.97017 Y-0.49911 Z-1.43773
X13.00188 Y-0.5 Z-1.44332
X13.03359 Y-0.49887 Z-1.44892
X13.06516 Y-0.49573 Z-1.45451
X13.09647 Y-0.4906 Z-1.46011
X13.1274 Y-0.4835 Z-1.4657
X13.1578 Y-0.47444 Z-1.47129
X13.18758 Y-0.46348 Z-1.47689
X13.2166 Y-0.45065 Z-1.48248
X13.24474 Y-0.43601 Z-1.48808
X13.2719 Y-0.4196 Z-1.49367
X13.29797 Y-0.40152 Z-1.49927
X13.32283 Y-0.38181 Z-1.50486
X13.3464 Y-0.36057 Z-1.51046
X13.36857 Y-0.33787 Z-1.51605
X13.38926 Y-0.31381 Z-1.52164
X13.40838 Y-0.28849 Z-1.52724
X13.42585 Y-0.26201 Z-1.53283
X13.44161 Y-0.23447 Z-1.53843
X13.45559 Y-0.20599 Z-1.54402
X13.46774 Y-0.17668 Z-1.54962
X13.47801 Y-0.14666 Z-1.55521
X13.48635 Y-0.11605 Z-1.56081
X13.49273 Y-0.08497 Z-1.5664
X13.49712 Y-0.05355 Z-1.57199
X13.49952 Y-0.02191 Z-1.57759
X13.4999 Y0.00982 Z-1.58318
X13.49827 Y0.0415 Z-1.58878
X13.49464 Y0.07302 Z-1.59437
X13.48901 Y0.10425 Z-1.59997
X13.48142 Y0.13505 Z-1.60556
X13.47188 Y0.16531 Z-1.61116
X13.46045 Y0.19491 Z-1.61675
X13.44716 Y0.22372 Z-1.62235
X13.43207 Y0.25163 Z-1.62794
X13.41524 Y0.27853 Z-1.63353
X13.39674 Y0.3043 Z-1.63913
X13.37664 Y0.32885 Z-1.64472
X13.35502 Y0.35208 Z-1.65032
X13.33198 Y0.37388 Z-1.65591
X13.3076 Y0.39419 Z-1.66151
X13.28198 Y0.4129 Z-1.6671
X13.25522 Y0.42995 Z-1.6727
X13.22744 Y0.44528 Z-1.67829
X13.19874 Y0.4588 Z-1.68388
X13.16924 Y0.47049 Z-1.68948
X13.13906 Y0.48027 Z-1.69507
X13.10832 Y0.48812 Z-1.70067
X13.07714 Y0.49401 Z-1.70626
X13.04565 Y0.49791 Z-1.71186
X13.01398 Y0.4998 Z-1.71745
X12.98225 Y0.49968 Z-1.72304
X12.9506 Y0.49755 Z-1.72864
X12.91914 Y0.49342 Z-1.73423
X12.88801 Y0.48729 Z-1.73983
X12.85733 Y0.47921 Z-1.74542
X12.82722 Y0.4692 Z-1.75102
X12.79781 Y0.45729 Z-1.75661
X12.76921 Y0.44355 Z-1.76221
X12.74155 Y0.42802 Z-1.7678
X12.71492 Y0.41077 Z-1.7734
X12.68944 Y0.39186 Z-1.77899
X12.66521 Y0.37137 Z-1.78459
X12.64233 Y0.34939 Z-1.79018
X12.62089 Y0.326 Z-1.79577
X12.60098 Y0.3013 Z-1.80137
X12.58267 Y0.27539 Z-1.80696
X12.56605 Y0.24837 Z-1.81256
X12.55117 Y0.22034 Z-1.81815
X12.5381 Y0.19143 Z-1.82375
X12.52689 Y0.16175 Z-1.82934
X12.51758 Y0.13142 Z-1.83494
X12.51022 Y0.10056 Z-1.84053
X12.50482 Y0.06929 Z-1.84612
X12.50143 Y0.03775 Z-1.85172
X12.50004 Y0.00605 Z-1.85731
X12.50066 Y-0.02567 Z-1.86291
X12.50329 Y-0.05729 Z-1.8685
X12.50793 Y-0.08868 Z-1.8741
X12.51454 Y-0.11971 Z-1.87969
X12.52311 Y-0.15026 Z-1.88529
X12.5336 Y-0.1802 Z-1.89088
X12.54597 Y-0.20942 Z-1.89647
X12.56017 Y-0.2378 Z-1.90207
X12.57613 Y-0.26521 Z-1.90766
X12.59381 Y-0.29156 Z-1.91326
X12.61312 Y-0.31674 Z-1.91885
X12.63399 Y-0.34064 Z-1.92445
X12.65633 Y-0.36317 Z-1.93004
X12.68005 Y-0.38423 Z-1.93564
X12.70507 Y-0.40375 Z-1.94123
X12.73127 Y-0.42164 Z-1.94683
X12.75855 Y-0.43784 Z-1.95242
X12.78681 Y-0.45227 Z-1.95801
X12.81592 Y-0.46488 Z-1.96361
X12.84578 Y-0.47562 Z-1.9692
X12.87625 Y-0.48444 Z-1.9748
X12.90722 Y-0.49132 Z-1.98039
X12.93857 Y-0.49621 Z-1.98599
X12.97017 Y-0.49911 Z-1.99158
X13.00188 Y-0.5 Z-1.99718
X13.03359 Y-0.49887 Z-2.00277
X13.06516 Y-0.49573 Z-2.00836
X13.09647 Y-0.4906 Z-2.01396
X13.1274 Y-0.4835 Z-2.01955
X13.1578 Y-0.47444 Z-2.02515
X13.18758 Y-0.46348 Z-2.03074
X13.2166 Y-0.45065 Z-2.03634
X13.24474 Y-0.43601 Z-2.04193
X13.2719 Y-0.4196 Z-2.04753
X13.29797 Y-0.40152 Z-2.05312
X13.32283 Y-0.38181 Z-2.05871
X13.3464 Y-0.36057 Z-2.06431
X13.36857 Y-0.33787 Z-2.0699
X13.38926 Y-0.31381 Z-2.0755
X13.40838 Y-0.28849 Z-2.08109
X13.42585 Y-0.26201 Z-2.08669
X13.44161 Y-0.23447 Z-2.09228
X13.45559 Y-0.20599 Z-2.09788
X13.46774 Y-0.17668 Z-2.10347
X13.47801 Y-0.14666 Z-2.10907
X13.48635 Y-0.11605 Z-2.11466
X13.49273 Y-0.08497 Z-2.12025
X13.49712 Y-0.05355 Z-2.12585
X13.49952 Y-0.02191 Z-2.13144
X13.4999 Y0.00982 Z-2.13704
X13.49827 Y0.0415 Z-2.14263
X13.49464 Y0.07302 Z-2.14823
X13.48901 Y0.10425 Z-2.15382
X13.48142 Y0.13505 Z-2.15942
X13.47188 Y0.16531 Z-2.16501
X13.46045 Y0.19491 Z-2.1706
X13.44716 Y0.22372 Z-2.1762
X13.43207 Y0.25163 Z-2.18179
X13.41524 Y0.27853 Z-2.18739
X13.39674 Y0.3043 Z-2.19298
X13.37664 Y0.32885 Z-2.19858
X13.35502 Y0.35208 Z-2.20417
X13.33198 Y0.37388 Z-2.20977
X13.3076 Y0.39419 Z-2.21536
X13.28198 Y0.4129 Z-2.22095
X13.25522 Y0.42995 Z-2.22655
X13.22744 Y0.44528 Z-2.23214
X13.19874 Y0.4588 Z-2.23774
X13.16924 Y0.47049 Z-2.24333
X13.13906 Y0.48027 Z-2.24893
X13.10832 Y0.48812 Z-2.25452
X13.07714 Y0.49401 Z-2.26012
X13.04565 Y0.49791 Z-2.26571
X13.01398 Y0.4998 Z-2.27131
X12.98225 Y0.49968 Z-2.2769
X12.9506 Y0.49755 Z-2.28249
X12.91914 Y0.49342 Z-2.28809
X12.88801 Y0.48729 Z-2.29368
X12.85733 Y0.47921 Z-2.29928
X12.82722 Y0.4692 Z-2.30487
X12.79781 Y0.45729 Z-2.31047
X12.76921 Y0.44355 Z-2.31606
X12.74155 Y0.42802 Z-2.32165
X12.71492 Y0.41077 Z-2.32725
X12.68944 Y0.39186 Z-2.33284
X12.66521 Y0.37137 Z-2.33844
X12.64233 Y0.34939 Z-2.34403
X12.62089 Y0.326 Z-2.34963
X12.60098 Y0.3013 Z-2.35522
X12.58267 Y0.27539 Z-2.36082
X12.56605 Y0.24837 Z-2.36641
X12.55117 Y0.22034 Z-2.37201
X12.5381 Y0.19143 Z-2.3776
X12.52689 Y0.16175 Z-2.38319
X12.51758 Y0.13142 Z-2.38879
X12.51022 Y0.10056 Z-2.39438
X12.50482 Y0.06929 Z-2.39998
X12.50143 Y0.03775 Z-2.40557
X12.50004 Y0.00605 Z-2.41117
X12.50066 Y-0.02567 Z-2.41676
X12.50329 Y-0.05729 Z-2.42236
X12.50793 Y-0.08868 Z-2.42795
X12.51454 Y-0.11971 Z-2.43355
X12.52311 Y-0.15026 Z-2.43914
X12.5336 Y-0.1802 Z-2.44473
X12.54597 Y-0.20942 Z-2.45033
X12.56017 Y-0.2378 Z-2.45592
X12.57613 Y-0.26521 Z-2.46152
X12.59381 Y-0.29156 Z-2.46711
X12.61312 Y-0.31674 Z-2.47271
X12.63399 Y-0.34064 Z-2.4783
X12.65633 Y-0.36317 Z-2.4839
X12.68005 Y-0.38423 Z-2.48949
X12.70507 Y-0.40375 Z-2.49508
X12.73127 Y-0.42164 Z-2.50068
X12.75855 Y-0.43784 Z-2.50627
X12.78681 Y-0.45227 Z-2.51187
X12.81592 Y-0.46488 Z-2.51746
X12.84578 Y-0.47562 Z-2.52306
X12.87625 Y-0.48444 Z-2.52865
X12.90722 Y-0.49132 Z-2.53424
X12.93857 Y-0.49621 Z-2.53984
X12.97017 Y-0.49911 Z-2.54543
X13.00188 Y-0.5 Z-2.55103
X13.03359 Y-0.49887 Z-2.55662
X13.06516 Y-0.49573 Z-2.56222
X13.09647 Y-0.4906 Z-2.56781
X13.1274 Y-0.4835 Z-2.57341
X13.1578 Y-0.47444 Z-2.579
X13.18758 Y-0.46348 Z-2.5846
X13.2166 Y-0.45065 Z-2.59019
X13.24474 Y-0.43601 Z-2.59579
X13.2719 Y-0.4196 Z-2.60138
X13.29797 Y-0.40152 Z-2.60697
X13.32283 Y-0.38181 Z-2.61257
X13.3464 Y-0.36057 Z-2.61816
X13.36857 Y-0.33787 Z-2.62376
X13.38926 Y-0.31381 Z-2.62935
X13.40838 Y-0.28849 Z-2.63495
X13.42585 Y-0.26201 Z-2.64054
X13.44161 Y-0.23447 Z-2.64614
X13.45559 Y-0.20599 Z-2.65173
X13.46774 Y-0.17668 Z-2.65732
X13.47801 Y-0.14666 Z-2.66292
X13.48635 Y-0.11605 Z-2.66851
X13.49273 Y-0.08497 Z-2.67411
X13.49712 Y-0.05355 Z-2.6797
X13.49952 Y-0.02191 Z-2.6853
X13.4999 Y0.00982 Z-2.69089
X13.49827 Y0.0415 Z-2.69649
X13.49464 Y0.07302 Z-2.70208
X13.48901 Y0.10425 Z-2.70767
X13.48142 Y0.13505 Z-2.71327
X13.47188 Y0.16531 Z-2.71886
X13.46045 Y0.19491 Z-2.72446
X13.44716 Y0.22372 Z-2.73005
X13.43207 Y0.25163 Z-2.73565
X13.41524 Y0.27853 Z-2.74124
X13.39674 Y0.3043 Z-2.74684
X13.37664 Y0.32885 Z-2.75243
X13.35502 Y0.35208 Z-2.75803
X13.33198 Y0.37388 Z-2.76362
X13.3076 Y0.39419 Z-2.76921
X13.28198 Y0.4129 Z-2.77481
X13.25522 Y0.42995 Z-2.7804
X13.22744 Y0.44528 Z-2.786
X13.19874 Y0.4588 Z-2.79159
X13.16924 Y0.47049 Z-2.79719
X13.13906 Y0.48027 Z-2.80278
X13.10832 Y0.48812 Z-2.80838
X13.07714 Y0.49401 Z-2.81397
X13.04565 Y0.49791 Z-2.81956
X13.01398 Y0.4998 Z-2.82516
X12.98225 Y0.49968 Z-2.83075
X12.9506 Y0.49755 Z-2.83635
X12.91914 Y0.49342 Z-2.84194
X12.88801 Y0.48729 Z-2.84754
X12.85733 Y0.47921 Z-2.85313
X12.82722 Y0.4692 Z-2.85873
X12.79781 Y0.45729 Z-2.86432
X12.76921 Y0.44355 Z-2.86991
X12.74155 Y0.42802 Z-2.87551
X12.71492 Y0.41077 Z-2.8811
X12.68944 Y0.39186 Z-2.8867
X12.66521 Y0.37137 Z-2.89229
X12.64233 Y0.34939 Z-2.89789
X12.62089 Y0.326 Z-2.90348
X12.60098 Y0.3013 Z-2.90908
X12.58267 Y0.27539 Z-2.91467
X12.56605 Y0.24837 Z-2.92027
X12.55117 Y0.22034 Z-2.92586
X12.5381 Y0.19143 Z-2.93145
X12.52689 Y0.16175 Z-2.93705
X12.51758 Y0.13142 Z-2.94264
X12.51022 Y0.10056 Z-2.94824
X12.50482 Y0.06929 Z-2.95383
X12.50143 Y0.03775 Z-2.95943
X12.50004 Y0.00605 Z-2.96502
X12.50066 Y-0.02567 Z-2.97062
X12.50329 Y-0.05729 Z-2.97621
X12.50793 Y-0.08868 Z-2.9818
X12.51454 Y-0.11971 Z-2.9874
X12.52311 Y-0.15026 Z-2.99299
X12.5336 Y-0.1802 Z-2.99859
X12.54597 Y-0.20942 Z-3.00418
X12.56017 Y-0.2378 Z-3.00978
X12.57613 Y-0.26521 Z-3.01537
X12.59381 Y-0.29156 Z-3.02097
X12.61312 Y-0.31674 Z-3.02656
X12.63399 Y-0.34064 Z-3.03215
X12.65633 Y-0.36317 Z-3.03775
X12.68005 Y-0.38423 Z-3.04334
X12.70507 Y-0.40375 Z-3.04894
X12.73127 Y-0.42164 Z-3.05453
X12.75855 Y-0.43784 Z-3.06013
X12.78681 Y-0.45227 Z-3.06572
X12.81592 Y-0.46488 Z-3.07132
X12.84578 Y-0.47562 Z-3.07691
X12.87625 Y-0.48444 Z-3.08251
X12.90722 Y-0.49132 Z-3.0881
X12.93857 Y-0.49621 Z-3.09369
X12.97017 Y-0.49911 Z-3.09929
X13.00188 Y-0.5 Z-3.10488
X13.03359 Y-0.49887 Z-3.11048
X13.06516 Y-0.49573 Z-3.11607
X13.09647 Y-0.4906 Z-3.12167
X13.1274 Y-0.4835 Z-3.12726
X13.1578 Y-0.47444 Z-3.13286
X13.18758 Y-0.46348 Z-3.13845
X13.2166 Y-0.45065 Z-3.14404
X13.24474 Y-0.43601 Z-3.14964
X13.2719 Y-0.4196 Z-3.15523
X13.29797 Y-0.40152 Z-3.16083
X13.32283 Y-0.38181 Z-3.16642
X13.3464 Y-0.36057 Z-3.17202
X13.36857 Y-0.33787 Z-3.17761
X13.38926 Y-0.31381 Z-3.18321
X13.40838 Y-0.28849 Z-3.1888
X13.42585 Y-0.26201 Z-3.19439
X13.44161 Y-0.23447 Z-3.19999
X13.45559 Y-0.20599 Z-3.20558
X13.46774 Y-0.17668 Z-3.21118
X13.47801 Y-0.14666 Z-3.21677
X13.48635 Y-0.11605 Z-3.22237
X13.49273 Y-0.08497 Z-3.22796
X13.49712 Y-0.05355 Z-3.23356
X13.49952 Y-0.02191 Z-3.23915
X13.4999 Y0.00982 Z-3.24475
X13.49827 Y0.0415 Z-3.25034
X13.49464 Y0.07302 Z-3.25593
X13.48901 Y0.10425 Z-3.26153
X13.48142 Y0.13505 Z-3.26712
X13.47188 Y0.16531 Z-3.27272
X13.46045 Y0.19491 Z-3.27831
X13.44716 Y0.22372 Z-3.28391
X13.43207 Y0.25163 Z-3.2895
X13.41524 Y0.27853 Z-3.2951
X13.39674 Y0.3043 Z-3.30069
X13.37664 Y0.32885 Z-3.30628
X13.35502 Y0.35208 Z-3.31188
X13.33198 Y0.37388 Z-3.31747
X13.3076 Y0.39419 Z-3.32307
X13.28198 Y0.4129 Z-3.32866
X13.25522 Y0.42995 Z-3.33426
X13.22744 Y0.44528 Z-3.33985
X13.19874 Y0.4588 Z-3.34545
X13.16924 Y0.47049 Z-3.35104
X13.13906 Y0.48027 Z-3.35663
X13.10832 Y0.48812 Z-3.36223
X13.07714 Y0.49401 Z-3.36782
X13.04565 Y0.49791 Z-3.37342
X13.01398 Y0.4998 Z-3.37901
X12.98225 Y0.49968 Z-3.38461
X12.9506 Y0.49755 Z-3.3902
X12.91914 Y0.49342 Z-3.3958
X12.88801 Y0.48729 Z-3.40139
X12.85733 Y0.47921 Z-3.40699
X12.82722 Y0.4692 Z-3.41258
X12.79781 Y0.45729 Z-3.41817
X12.76921 Y0.44355 Z-3.42377
X12.74155 Y0.42802 Z-3.42936
X12.71492 Y0.41077 Z-3.43496
X12.68944 Y0.39186 Z-3.44055
X12.66521 Y0.37137 Z-3.44615
X12.64233 Y0.34939 Z-3.45174
X12.62089 Y0.326 Z-3.45734
X12.60098 Y0.3013 Z-3.46293
X12.58267 Y0.27539 Z-3.46852
X12.56605 Y0.24837 Z-3.47412
X12.55117 Y0.22034 Z-3.47971
X12.5381 Y0.19143 Z-3.48531
X12.52689 Y0.16175 Z-3.4909
X12.51758 Y0.13142 Z-3.4965
X12.51022 Y0.10056 Z-3.50209
X12.50482 Y0.06929 Z-3.50769
X12.50143 Y0.03775 Z-3.51328
X12.50004 Y0.00605 Z-3.51887
X12.50066 Y-0.02567 Z-3.52447
X12.50329 Y-0.05729 Z-3.53006
X12.50793 Y-0.08868 Z-3.53566
X12.51454 Y-0.11971 Z-3.54125
X12.52311 Y-0.15026 Z-3.54685
X12.5336 Y-0.1802 Z-3.55244
X12.54597 Y-0.20942 Z-3.55804
X12.56017 Y-0.2378 Z-3.56363
X12.57613 Y-0.26521 Z-3.56923
X12.59381 Y-0.29156 Z-3.57482
X12.61312 Y-0.31674 Z-3.58041
X12.63399 Y-0.34064 Z-3.58601
X12.65633 Y-0.36317 Z-3.5916
X12.68005 Y-0.38423 Z-3.5972
X12.70507 Y-0.40375 Z-3.60279
X12.73127 Y-0.42164 Z-3.60839
X12.75855 Y-0.43784 Z-3.61398
X12.78681 Y-0.45227 Z-3.61958
X12.81592 Y-0.46488 Z-3.62517
X12.84578 Y-0.47562 Z-3.63076
X12.87625 Y-0.48444 Z-3.63636
X12.90722 Y-0.49132 Z-3.64195
X12.93857 Y-0.49621 Z-3.64755
X12.97017 Y-0.49911 Z-3.65314
X13.00188 Y-0.5 Z-3.65874
X13.03359 Y-0.49887 Z-3.66433
X13.06516 Y-0.49573 Z-3.66993
X13.09647 Y-0.4906 Z-3.67552
X13.1274 Y-0.4835 Z-3.68111
X13.1578 Y-0.47444 Z-3.68671
X13.18758 Y-0.46348 Z-3.6923
X13.2166 Y-0.45065 Z-3.6979
X13.24474 Y-0.43601 Z-3.70349
X13.2719 Y-0.4196 Z-3.70909
X13.29797 Y-0.40152 Z-3.71468
X13.32283 Y-0.38181 Z-3.72028
X13.3464 Y-0.36057 Z-3.72587
X13.36857 Y-0.33787 Z-3.73147
X13.38926 Y-0.31381 Z-3.73706
X13.40838 Y-0.28849 Z-3.74265
X13.42585 Y-0.26201 Z-3.74825
X13.44161 Y-0.23447 Z-3.75384
X13.45559 Y-0.20599 Z-3.75944
X13.46774 Y-0.17668 Z-3.76503
X13.47801 Y-0.14666 Z-3.77063
X13.48635 Y-0.11605 Z-3.77622
X13.49273 Y-0.08497 Z-3.78182
X13.49712 Y-0.05355 Z-3.78741
X13.49952 Y-0.02191 Z-3.793
X13.4999 Y0.00982 Z-3.7986
X13.49827 Y0.0415 Z-3.80419
X13.49464 Y0.07302 Z-3.80979
X13.48901 Y0.10425 Z-3.81538
X13.48142 Y0.13505 Z-3.82098
X13.47188 Y0.16531 Z-3.82657
X13.46045 Y0.19491 Z-3.83217
X13.44716 Y0.22372 Z-3.83776
X13.43207 Y0.25163 Z-3.84335
X13.41524 Y0.27853 Z-3.84895
X13.39674 Y0.3043 Z-3.85454
X13.37664 Y0.32885 Z-3.86014
X13.35502 Y0.35208 Z-3.86573
X13.33198 Y0.37388 Z-3.87133
X13.3076 Y0.39419 Z-3.87692
X13.28198 Y0.4129 Z-3.88252
X13.25522 Y0.42995 Z-3.88811
X13.22744 Y0.44528 Z-3.89371
X13.19874 Y0.4588 Z-3.8993
X13.16924 Y0.47049 Z-3.90489
X13.13906 Y0.48027 Z-3.91049
X13.10832 Y0.48812 Z-3.91608
X13.07714 Y0.49401 Z-3.92168
X13.04565 Y0.49791 Z-3.92727
X13.01398 Y0.4998 Z-3.93287
X12.98225 Y0.49968 Z-3.93846
X12.9506 Y0.49755 Z-3.94406
X12.91914 Y0.49342 Z-3.94965
X12.88801 Y0.48729 Z-3.95524
X12.85733 Y0.47921 Z-3.96084
X12.82722 Y0.4692 Z-3.96643
X12.79781 Y0.45729 Z-3.97203
X12.76921 Y0.44355 Z-3.97762
X12.74155 Y0.42802 Z-3.98322
X12.71492 Y0.41077 Z-3.98881
X12.68944 Y0.39186 Z-3.99441
X12.66521 Y0.37137 Z-4.
X12.51099 Y-0.10425 F480.
X12.84578 Y-0.47562
X13.33479 Y-0.37137
X13.48901 Y0.10425
X13.15423 Y0.47562
X12.66521 Y0.37137
G0 Z1.
X-0.41713 Y-12.72467
G1 Z0.27 F120.
X-0.42164 Y-12.73127 Z0.26859 F360.
X-0.43784 Y-12.75855 Z0.263
X-0.45227 Y-12.78681 Z0.2574
X-0.46488 Y-12.81592 Z0.25181
X-0.47562 Y-12.84578 Z0.24621
X-0.48444 Y-12.87625 Z0.24062
X-0.49132 Y-12.90722 Z0.23502
X-0.49621 Y-12.93857 Z0.22943
X-0.49911 Y-12.97017 Z0.22383
X-0.5 Y-13.00188 Z0.21824
X-0.49887 Y-13.03359 Z0.21265
X-0.49573 Y-13.06517 Z0.20705
X-0.4906 Y-13.09648 Z0.20146
X-0.4835 Y-13.1274 Z0.19586
X-0.47444 Y-13.15781 Z0.19027
X-0.46348 Y-13.18758 Z0.18467
X-0.45065 Y-13.2166 Z0.17908
X-0.43601 Y-13.24474 Z0.17348
X-0.4196 Y-13.2719 Z0.16789
X-0.40152 Y-13.29797 Z0.16229
X-0.38181 Y-13.32283 Z0.1567
X-0.36057 Y-13.3464 Z0.15111
X-0.33787 Y-13.36857 Z0.14551
X-0.31381 Y-13.38926 Z0.13992
X-0.28849 Y-13.40838 Z0.13432
X-0.26201 Y-13.42585 Z0.12873
X-0.23447 Y-13.44161 Z0.12313
X-0.20599 Y-13.45559 Z0.11754
X-0.17668 Y-13.46774 Z0.11195
X-0.14666 Y-13.47801 Z0.10635
X-0.11605 Y-13.48635 Z0.10076
X-0.08497 Y-13.49273 Z0.09516
X-0.05355 Y-13.49712 Z0.08957
X-0.02191 Y-13.49952 Z0.08397
X0.00982 Y-13.4999 Z0.07838
X0.0415 Y-13.49827 Z0.07278
X0.07302 Y-13.49464 Z0.06719
X0.10425 Y-13.48901 Z0.06159
X0.13505 Y-13.48142 Z0.056
X0.16531 Y-13.47188 Z0.05041
X0.19491 Y-13.46045 Z0.04481
X0.22372 Y-13.44716 Z0.03922
X0.25163 Y-13.43207 Z0.03362
X0.27853 Y-13.41524 Z0.02803
X0.3043 Y-13.39674 Z0.02243
X0.32885 Y-13.37664 Z0.01684
X0.35208 Y-13.35502 Z0.01124
X0.37388 Y-13.33198 Z0.00565
X0.39419 Y-13.3076 Z0.00005
X0.4129 Y-13.28198 Z-0.00554
X0.42995 Y-13.25522 Z-0.01113
X0.44528 Y-13.22744 Z-0.01673
X0.4588 Y-13.19874 Z-0.02232
X0.47049 Y-13.16924 Z-0.02792
X0.48027 Y-13.13906 Z-0.03351
X0.48812 Y-13.10832 Z-0.03911
X0.49401 Y-13.07714 Z-0.0447
X0.49791 Y-13.04565 Z-0.0503
X0.4998 Y-13.01398 Z-0.05589
X0.49968 Y-12.98225 Z-0.06148
X0.49755 Y-12.9506 Z-0.06708
X0.49342 Y-12.91914 Z-0.07267
X0.48729 Y-12.88801 Z-0.07827
X0.47921 Y-12.85733 Z-0.08386
X0.4692 Y-12.82722 Z-0.08946
X0.45729 Y-12.79781 Z-0.09505
X0.44355 Y-12.76921 Z-0.10065
X0.42802 Y-12.74155 Z-0.10624
X0.41077 Y-12.71492 Z-0.11183
X0.39186 Y-12.68944 Z-0.11743
X0.37137 Y-12.66521 Z-0.12302
X0.34939 Y-12.64234 Z-0.12862
X0.326 Y-12.6209 Z-0.13421
X0.3013 Y-12.60098 Z-0.13981
X0.27539 Y-12.58268 Z-0.1454
X0.24837 Y-12.56605 Z-0.151
X0.22034 Y-12.55117 Z-0.15659
X0.19143 Y-12.5381 Z-0.16219
X0.16175 Y-12.52689 Z-0.16778
X0.13142 Y-12.51758 Z-0.17337
X0.10056 Y-12.51022 Z-0.17897
X0.06929 Y-12.50483 Z-0.18456
X0.03775 Y-12.50143 Z-0.19016
X0.00605 Y-12.50004 Z-0.19575
X-0.02567 Y-12.50066 Z-0.20135
X-0.05729 Y-12.50329 Z-0.20694
X-0.08868 Y-12.50793 Z-0.21254
X-0.11971 Y-12.51454 Z-0.21813
X-0.15026 Y-12.52311 Z-0.22372
X-0.1802 Y-12.5336 Z-0.22932
X-0.20942 Y-12.54597 Z-0.23491
X-0.2378 Y-12.56017 Z-0.24051
X-0.26521 Y-12.57613 Z-0.2461
X-0.29156 Y-12.59381 Z-0.2517
X-0.31674 Y-12.61312 Z-0.25729
X-0.34064 Y-12.63399 Z-0.26289
X-0.36317 Y-12.65633 Z-0.26848
X-0.38423 Y-12.68005 Z-0.27407
X-0.40375 Y-12.70507 Z-0.27967
X-0.42164 Y-12.73127 Z-0.28526
X-0.43784 Y-12.75855 Z-0.29086
X-0.45227 Y-12.78681 Z-0.29645
X-0.46488 Y-12.81592 Z-0.30205
X-0.47562 Y-12.84578 Z-0.30764
X-0.48444 Y-12.87625 Z-0.31324
X-0.49132 Y-12.90722 Z-0.31883
X-0.49621 Y-12.93857 Z-0.32443
X-0.49911 Y-12.97017 Z-0.33002
X-0.5 Y-13.00188 Z-0.33561
X-0.49887 Y-13.03359 Z-0.34121
X-0.49573 Y-13.06517 Z-0.3468
X-0.4906 Y-13.09648 Z-0.3524
X-0.4835 Y-13.1274 Z-0.35799
X-0.47444 Y-13.15781 Z-0.36359
X-0.46348 Y-13.18758 Z-0.36918
X-0.45065 Y-13.2166 Z-0.37478
X-0.43601 Y-13.24474 Z-0.38037
X-0.4196 Y-13.2719 Z-0.38596
X-0.40152 Y-13.29797 Z-0.39156
X-0.38181 Y-13.32283 Z-0.39715
X-0.36057 Y-13.3464 Z-0.40275
X-0.33787 Y-13.36857 Z-0.40834
X-0.31381 Y-13.38926 Z-0.41394
X-0.28849 Y-13.40838 Z-0.41953
X-0.26201 Y-13.42585 Z-0.42512
X-0.23447 Y-13.44161 Z-0.43072
X-0.20599 Y-13.45559 Z-0.43631
X-0.17668 Y-13.46774 Z-0.44191
X-0.14666 Y-13.47801 Z-0.4475
X-0.11605 Y-13.48635 Z-0.4531
X-0.08497 Y-13.49273 Z-0.45869
X-0.05355 Y-13.49712 Z-0.46429
X-0.02191 Y-13.49952 Z-0.46988
X0.00982 Y-13.4999 Z-0.47548
X0.0415 Y-13.49827 Z-0.48107
X0.07302 Y-13.49464 Z-0.48667
X0.10425 Y-13.48901 Z-0.49226
X0.13505 Y-13.48142 Z-0.49785
X0.16531 Y-13.47188 Z-0.50345
X0.19491 Y-13.46045 Z-0.50904
X0.22372 Y-13.44716 Z-0.51464
X0.25163 Y-13.43207 Z-0.52023
X0.27853 Y-13.41524 Z-0.52583
X0.3043 Y-13.39674 Z-0.53142
X0.32885 Y-13.37664 Z-0.53702
X0.35208 Y-13.35502 Z-0.54261
X0.37388 Y-13.33198 Z-0.5482
X0.39419 Y-13.3076 Z-0.5538
X0.4129 Y-13.28198 Z-0.55939
X0.42995 Y-13.25522 Z-0.56499
X0.44528 Y-13.22744 Z-0.57058
X0.4588 Y-13.19874 Z-0.57618
X0.47049 Y-13.16924 Z-0.58177
X0.48027 Y-13.13906 Z-0.58737
X0.48812 Y-13.10832 Z-0.59296
X0.49401 Y-13.07714 Z-0.59855
X0.49791 Y-13.04565 Z-0.60415
X0.4998 Y-13.01398 Z-0.60974
X0.49968 Y-12.98225 Z-0.61534
X0.49755 Y-12.9506 Z-0.62093
X0.49342 Y-12.91914 Z-0.62653
X0.48729 Y-12.88801 Z-0.63212
X0.47921 Y-12.85733 Z-0.63772
X0.4692 Y-12.82722 Z-0.64331
X0.45729 Y-12.79781 Z-0.6489
X0.44355 Y-12.76921 Z-0.6545
X0.42802 Y-12.74155 Z-0.66009
X0.41077 Y-12.71492 Z-0.66569
X0.39186 Y-12.68944 Z-0.67128
X0.37137 Y-12.66521 Z-0.67688
X0.34939 Y-12.64234 Z-0.68247
X0.326 Y-12.6209 Z-0.68807
X0.3013 Y-12.60098 Z-0.69366
X0.27539 Y-12.58268 Z-0.69926
X0.24837 Y-12.56605 Z-0.70485
X0.22034 Y-12.55117 Z-0.71044
X0.19143 Y-12.5381 Z-0.71604
X0.16175 Y-12.52689 Z-0.72163
X0.13142 Y-12.51758 Z-0.72723
X0.10056 Y-12.51022 Z-0.73282
X0.06929 Y-12.50483 Z-0.73842
X0.03775 Y-12.50143 Z-0.74401
X0.00605 Y-12.50004 Z-0.74961
X-0.02567 Y-12.50066 Z-0.7552
X-0.05729 Y-12.50329 Z-0.76079
X-0.08868 Y-12.50793 Z-0.76639
X-0.11971 Y-12.51454 Z-0.77198
X-0.15026 Y-12.52311 Z-0.77758
X-0.1802 Y-12.5336 Z-0.78317
X-0.20942 Y-12.54597 Z-0.78877
X-0.2378 Y-12.56017 Z-0.79436
X-0.26521 Y-12.57613 Z-0.79996
X-0.29156 Y-12.59381 Z-0.80555
X-0.31674 Y-12.61312 Z-0.81115
X-0.34064 Y-12.63399 Z-0.81674
X-0.36317 Y-12.65633 Z-0.82233
X-0.38423 Y-12.68005 Z-0.82793
X-0.40375 Y-12.70507 Z-0.83352
X-0.42164 Y-12.73127 Z-0.83912
X-0.43784 Y-12.75855 Z-0.84471
X-0.45227 Y-12.78681 Z-0.85031
X-0.46488 Y-12.81592 Z-0.8559
X-0.47562 Y-12.84578 Z-0.8615
X-0.48444 Y-12.87625 Z-0.86709
X-0.49132 Y-12.90722 Z-0.87268
X-0.49621 Y-12.93857 Z-0.87828
X-0.49911 Y-12.97017 Z-0.88387
X-0.5 Y-13.00188 Z-0.88947
X-0.49887 Y-13.03359 Z-0.89506
X-0.49573 Y-13.06517 Z-0.90066
X-0.4906 Y-13.09648 Z-0.90625
X-0.4835 Y-13.1274 Z-0.91184
X-0.47444 Y-13.15781 Z-0.91744
X-0.46348 Y-13.18758 Z-0.92303
X-0.45065 Y-13.2166 Z-0.92863
X-0.43601 Y-13.24474 Z-0.93422
X-0.4196 Y-13.2719 Z-0.93982
X-0.40152 Y-13.29797 Z-0.94541
X-0.38181 Y-13.32283 Z-0.95101
X-0.36057 Y-13.3464 Z-0.9566
X-0.33787 Y-13.36857 Z-0.9622
X-0.31381 Y-13.38926 Z-0.96779
X-0.28849 Y-13.40838 Z-0.97339
X-0.26201 Y-13.42585 Z-0.97898
X-0.23447 Y-13.44161 Z-0.98457
X-0.20599 Y-13.45559 Z-0.99017
X-0.17668 Y-13.46774 Z-0.99576
X-0.14666 Y-13.47801 Z-1.00136
X-0.11605 Y-13.48635 Z-1.00695
X-0.08497 Y-13.49273 Z-1.01255
X-0.05355 Y-13.49712 Z-1.01814
X-0.02191 Y-13.49952 Z-1.02374
X0.00982 Y-13.4999 Z-1.02933
X0.0415 Y-13.49827 Z-1.03492
X0.07302 Y-13.49464 Z-1.04052
X0.10425 Y-13.48901 Z-1.04611
X0.13505 Y-13.48142 Z-1.05171
X0.16531 Y-13.47188 Z-1.0573
X0.19491 Y-13.46045 Z-1.0629
X0.22372 Y-13.44716 Z-1.06849
X0.25163 Y-13.43207 Z-1.07409
X0.27853 Y-13.41524 Z-1.07968
X0.3043 Y-13.39674 Z-1.08527
X0.32885 Y-13.37664 Z-1.09087
X0.35208 Y-13.35502 Z-1.09646
X0.37388 Y-13.33198 Z-1.10206
X0.39419 Y-13.3076 Z-1.10765
X0.4129 Y-13.28198 Z-1.11325
X0.42995 Y-13.25522 Z-1.11884
X0.44528 Y-13.22744 Z-1.12444
X0.4588 Y-13.19874 Z-1.13003
X0.47049 Y-13.16924 Z-1.13563
X0.48027 Y-13.13906 Z-1.14122
X0.48812 Y-13.10832 Z-1.14681
X0.49401 Y-13.07714 Z-1.15241
X0.49791 Y-13.04565 Z-1.158
X0.4998 Y-13.01398 Z-1.1636
X0.49968 Y-12.98225 Z-1.16919
X0.49755 Y-12.9506 Z-1.17479
X0.49342 Y-12.91914 Z-1.18038
X0.48729 Y-12.88801 Z-1.18598
X0.47921 Y-12.85733 Z-1.19157
X0.4692 Y-12.82722 Z-1.19716
X0.45729 Y-12.79781 Z-1.20276
X0.44355 Y-12.76921 Z-1.20835
X0.42802 Y-12.74155 Z-1.21395
X0.41077 Y-12.71492 Z-1.21954
X0.39186 Y-12.68944 Z-1.22514
X0.37137 Y-12.66521 Z-1.23073
X0.34939 Y-12.64234 Z-1.23632
X0.326 Y-12.6209 Z-1.24192
X0.3013 Y-12.60098 Z-1.24751
X0.27539 Y-12.58268 Z-1.25311
X0.24837 Y-12.56605 Z-1.2587
X0.22034 Y-12.55117 Z-1.2643
X0.19143 Y-12.5381 Z-1.26989
X0.16175 Y-12.52689 Z-1.27549
X0.13142 Y-12.51758 Z-1.28108
X0.10056 Y-12.51022 Z-1.28668
X0.06929 Y-12.50483 Z-1.29227
X0.03775 Y-12.50143 Z-1.29786
X0.00605 Y-12.50004 Z-1.30346
X-0.02567 Y-12.50066 Z-1.30905
X-0.05729 Y-12.50329 Z-1.31465
X-0.08868 Y-12.50793 Z-1.32024
X-0.11971 Y-12.51454 Z-1.32584
X-0.15026 Y-12.52311 Z-1.33143
X-0.1802 Y-12.5336 Z-1.33703
X-0.20942 Y-12.54597 Z-1.34262
X-0.2378 Y-12.56017 Z-1.34822
X-0.26521 Y-12.57613 Z-1.35381
X-0.29156 Y-12.59381 Z-1.3594
X-0.31674 Y-12.61312 Z-1.365
X-0.34064 Y-12.63399 Z-1.37059
X-0.36317 Y-12.65633 Z-1.37619
X-0.38423 Y-12.68005 Z-1.38178
X-0.40375 Y-12.70507 Z-1.38738
X-0.42164 Y-12.73127 Z-1.39297
X-0.43784 Y-12.75855 Z-1.39856
X-0.45227 Y-12.78681 Z-1.40416
X-0.46488 Y-12.81592 Z-1.40975
X-0.47562 Y-12.84578 Z-1.41535
X-0.48444 Y-12.87625 Z-1.42094
X-0.49132 Y-12.90722 Z-1.42654
X-0.49621 Y-12.93857 Z-1.43213
X-0.49911 Y-12.97017 Z-1.43773
X-0.5 Y-13.00188 Z-1.44332
X-0.49887 Y-13.03359 Z-1.44892
X-0.49573 Y-13.06517 Z-1.45451
X-0.4906 Y-13.09648 Z-1.46011
X-0.4835 Y-13.1274 Z-1.4657
X-0.47444 Y-13.15781 Z-1.47129
X-0.46348 Y-13.18758 Z-1.47689
X-0.45065 Y-13.2166 Z-1.48248
X-0.43601 Y-13.24474 Z-1.48808
X-0.4196 Y-13.2719 Z-1.49367
X-0.40152 Y-13.29797 Z-1.49927
X-0.38181 Y-13.32283 Z-1.50486
X-0.36057 Y-13.3464 Z-1.51046
X-0.33787 Y-13.36857 Z-1.51605
X-0.31381 Y-13.38926 Z-1.52164
X-0.28849 Y-13.40838 Z-1.52724
X-0.26201 Y-13.42585 Z-1.53283
X-0.23447 Y-13.44161 Z-1.53843
X-0.20599 Y-13.45559 Z-1.54402
X-0.17668 Y-13.46774 Z-1.54962
X-0.14666 Y-13.47801 Z-1.55521
X-0.11605 Y-13.48635 Z-1.56081
X-0.08497 Y-13.49273 Z-1.5664
X-0.05355 Y-13.49712 Z-1.57199
X-0.02191 Y-13.49952 Z-1.57759
X0.00982 Y-13.4999 Z-1.58318
X0.0415 Y-13.49827 Z-1.58878
X0.07302 Y-13.49464 Z-1.59437
X0.10425 Y-13.48901 Z-1.59997
X0.13505 Y-13.48142 Z-1.60556
X0.16531 Y-13.47188 Z-1.61116
X0.19491 Y-13.46045 Z-1.61675
X0.22372 Y-13.44716 Z-1.62235
X0.25163 Y-13.43207 Z-1.62794
X0.27853 Y-13.41524 Z-1.63353
X0.3043 Y-13.39674 Z-1.63913
X0.32885 Y-13.37664 Z-1.64472
X0.35208 Y-13.35502 Z-1.65032
X0.37388 Y-13.33198 Z-1.65591
X0.39419 Y-13.3076 Z-1.66151
X0.4129 Y-13.28198 Z-1.6671
X0.42995 Y-13.25522 Z-1.6727
X0.44528 Y-13.22744 Z-1.67829
X0.4588 Y-13.19874 Z-1.68388
X0.47049 Y-13.16924 Z-1.68948
X0.48027 Y-13.13906 Z-1.69507
X0.48812 Y-13.10832 Z-1.70067
X0.49401 Y-13.07714 Z-1.70626
X0.49791 Y-13.04565 Z-1.71186
X0.4998 Y-13.01398 Z-1.71745
X0.49968 Y-12.98225 Z-1.72304
X0.49755 Y-12.9506 Z-1.72864
X0.49342 Y-12.91914 Z-1.73423
X0.48729 Y-12.88801 Z-1.73983
X0.47921 Y-12.85733 Z-1.74542
X0.4692 Y-12.82722 Z-1.75102
X0.45729 Y-12.79781 Z-1.75661
X0.44355 Y-12.76921 Z-1.76221
X0.42802 Y-12.74155 Z-1.7678
X0.41077 Y-12.71492 Z-1.7734
X0.39186 Y-12.68944 Z-1.77899
X0.37137 Y-12.66521 Z-1.78459
X0.34939 Y-12.64234 Z-1.79018
X0.326 Y-12.6209 Z-1.79577
X0.3013 Y-12.60098 Z-1.80137
X0.27539 Y-12.58268 Z-1.80696
X0.24837 Y-12.56605 Z-1.81256
X0.22034 Y-12.55117 Z-1.81815
X0.19143 Y-12.5381 Z-1.82375
X0.16175 Y-12.52689 Z-1.82934
X0.13142 Y-12.51758 Z-1.83494
X0.10056 Y-12.51022 Z-1.84053
X0.06929 Y-12.50483 Z-1.84612
X0.03775 Y-12.50143 Z-1.85172
X0.00605 Y-12.50004 Z-1.85731
X-0.02567 Y-12.50066 Z-1.86291
X-0.05729 Y-12.50329 Z-1.8685
X-0.08868 Y-12.50793 Z-1.8741
X-0.11971 Y-12.51454 Z-1.87969
X-0.15026 Y-12.52311 Z-1.88529
X-0.1802 Y-12.5336 Z-1.89088
X-0.20942 Y-12.54597 Z-1.89647
X-0.2378 Y-12.56017 Z-1.90207
X-0.26521 Y-12.57613 Z-1.90766
X-0.29156 Y-12.59381 Z-1.91326
X-0.31674 Y-12.61312 Z-1.91885
X-0.34064 Y-12.63399 Z-1.92445
X-0.36317 Y-12.65633 Z-1.93004
X-0.38423 Y-12.68005 Z-1.93564
X-0.40375 Y-12.70507 Z-1.94123
X-0.42164 Y-12.73127 Z-1.94683
X-0.43784 Y-12.75855 Z-1.95242
X-0.45227 Y-12.78681 Z-1.95801
X-0.46488 Y-12.81592 Z-1.96361
X-0.47562 Y-12.84578 Z-1.9692
X-0.48444 Y-12.87625 Z-1.9748
X-0.49132 Y-12.90722 Z-1.98039
X-0.49621 Y-12.93857 Z-1.98599
X-0.49911 Y-12.97017 Z-1.99158
X-0.5 Y-13.00188 Z-1.99718
X-0.49887 Y-13.03359 Z-2.00277
X-0.49573 Y-13.06517 Z-2.00836
X-0.4906 Y-13.09648 Z-2.01396
X-0.4835 Y-13.1274 Z-2.01955
X-0.47444 Y-13.15781 Z-2.02515
X-0.46348 Y-13.18758 Z-2.03074
X-0.45065 Y-13.2166 Z-2.03634
X-0.43601 Y-13.24474 Z-2.04193
X-0.4196 Y-13.2719 Z-2.04753
X-0.40152 Y-13.29797 Z-2.05312
X-0.38181 Y-13.32283 Z-2.05871
X-0.36057 Y-13.3464 Z-2.06431
X-0.33787 Y-13.36857 Z-2.0699
X-0.31381 Y-13.38926 Z-2.0755
X-0.28849 Y-13.40838 Z-2.08109
X-0.26201 Y-13.42585 Z-2.08669
X-0.23447 Y-13.44161 Z-2.09228
X-0.20599 Y-13.45559 Z-2.09788
X-0.17668 Y-13.46774 Z-2.10347
X-0.14666 Y-13.47801 Z-2.10907
X-0.11605 Y-13.48635 Z-2.11466
X-0.08497 Y-13.49273 Z-2.12025
X-0.05355 Y-13.49712 Z-2.12585
X-0.02191 Y-13.49952 Z-2.13144
X0.00982 Y-13.4999 Z-2.13704
X0.0415 Y-13.49827 Z-2.14263
X0.07302 Y-13.49464 Z-2.14823
X0.10425 Y-13.48901 Z-2.15382
X0.13505 Y-13.48142 Z-2.15942
X0.16531 Y-13.47188 Z-2.16501
X0.19491 Y-13.46045 Z-2.1706
X0.22372 Y-13.44716 Z-2.1762
X0.25163 Y-13.43207 Z-2.18179
X0.27853 Y-13.41524 Z-2.18739
X0.3043 Y-13.39674 Z-2.19298
X0.32885 Y-13.37664 Z-2.19858
X0.35208 Y-13.35502 Z-2.20417
X0.37388 Y-13.33198 Z-2.20977
X0.39419 Y-13.3076 Z-2.21536
X0.4129 Y-13.28198 Z-2.22095
X0.42995 Y-13.25522 Z-2.22655
X0.44528 Y-13.22744 Z-2.23214
X0.4588 Y-13.19874 Z-2.23774
X0.47049 Y-13.16924 Z-2.24333
X0.48027 Y-13.13906 Z-2.24893
X0.48812 Y-13.10832 Z-2.25452
X0.49401 Y-13.07714 Z-2.26012
X0.49791 Y-13.04565 Z-2.26571
X0.4998 Y-13.01398 Z-2.27131
X0.49968 Y-12.98225 Z-2.2769
X0.49755 Y-12.9506 Z-2.28249
X0.49342 Y-12.91914 Z-2.28809
X0.48729 Y-12.88801 Z-2.29368
X0.47921 Y-12.85733 Z-2.29928
X0.4692 Y-12.82722 Z-2.30487
X0.45729 Y-12.79781 Z-2.31047
X0.44355 Y-12.76921 Z-2.31606
X0.42802 Y-12.74155 Z-2.32165
X0.41077 Y-12.71492 Z-2.32725
X0.39186 Y-12.68944 Z-2.33284
X0.37137 Y-12.66521 Z-2.33844
X0.34939 Y-12.64234 Z-2.34403
X0.326 Y-12.6209 Z-2.34963
X0.3013 Y-12.60098 Z-2.35522
X0.27539 Y-12.58268 Z-2.36082
X0.24837 Y-12.56605 Z-2.36641
X0.22034 Y-12.55117 Z-2.37201
X0.19143 Y-12.5381 Z-2.3776
X0.16175 Y-12.52689 Z-2.38319
X0.13142 Y-12.51758 Z-2.38879
X0.10056 Y-12.51022 Z-2.39438
X0.06929 Y-12.50483 Z-2.39998
X0.03775 Y-12.50143 Z-2.40557
X0.00605 Y-12.50004 Z-2.41117
X-0.02567 Y-12.50066 Z-2.41676
X-0.05729 Y-12.50329 Z-2.42236
X-0.08868 Y-12.50793 Z-2.42795
X-0.11971 Y-12.51454 Z-2.43355
X-0.15026 Y-12.52311 Z-2.43914
X-0.1802 Y-12.5336 Z-2.44473
X-0.20942 Y-12.54597 Z-2.45033
X-0.2378 Y-12.56017 Z-2.45592
X-0.26521 Y-12.57613 Z-2.46152
X-0.29156 Y-12.59381 Z-2.46711
X-0.31674 Y-12.61312 Z-2.47271
X-0.34064 Y-12.63399 Z-2.4783
X-0.36317 Y-12.65633 Z-2.4839
X-0.38423 Y-12.68005 Z-2.48949
X-0.40375 Y-12.70507 Z-2.49508
X-0.42164 Y-12.73127 Z-2.50068
X-0.43784 Y-12.75855 Z-2.50627
X-0.45227 Y-12.78681 Z-2.51187
X-0.46488 Y-12.81592 Z-2.51746
X-0.47562 Y-12.84578 Z-2.52306
X-0.48444 Y-12.87625 Z-2.52865
X-0.49132 Y-12.90722 Z-2.53424
X-0.49621 Y-12.93857 Z-2.53984
X-0.49911 Y-12.97017 Z-2.54543
X-0.5 Y-13.00188 Z-2.55103
X-0.49887 Y-13.03359 Z-2.55662
X-0.49573 Y-13.06517 Z-2.56222
X-0.4906 Y-13.09648 Z-2.56781
X-0.4835 Y-13.1274 Z-2.57341
X-0.47444 Y-13.15781 Z-2.579
X-0.46348 Y-13.18758 Z-2.5846
X-0.45065 Y-13.2166 Z-2.59019
X-0.43601 Y-13.24474 Z-2.59579
X-0.4196 Y-13.2719 Z-2.60138
X-0.40152 Y-13.29797 Z-2.60697
X-0.38181 Y-13.32283 Z-2.61257
X-0.36057 Y-13.3464 Z-2.61816
X-0.33787 Y-13.36857 Z-2.62376
X-0.31381 Y-13.38926 Z-2.62935
X-0.28849 Y-13.40838 Z-2.63495
X-0.26201 Y-13.42585 Z-2.64054
X-0.23447 Y-13.44161 Z-2.64614
X-0.20599 Y-13.45559 Z-2.65173
X-0.17668 Y-13.46774 Z-2.65732
X-0.14666 Y-13.47801 Z-2.66292
X-0.11605 Y-13.48635 Z-2.66851
X-0.08497 Y-13.49273 Z-2.67411
X-0.05355 Y-13.49712 Z-2.6797
X-0.02191 Y-13.49952 Z-2.6853
X0.00982 Y-13.4999 Z-2.69089
X0.0415 Y-13.49827 Z-2.69649
X0.07302 Y-13.49464 Z-2.70208
X0.10425 Y-13.48901 Z-2.70767
X0.13505 Y-13.48142 Z-2.71327
X0.16531 Y-13.47188 Z-2.71886
X0.19491 Y-13.46045 Z-2.72446
X0.22372 Y-13.44716 Z-2.73005
X0.25163 Y-13.43207 Z-2.73565
X0.27853 Y-13.41524 Z-2.74124
X0.3043 Y-13.39674 Z-2.74684
X0.32885 Y-13.37664 Z-2.75243
X0.35208 Y-13.35502 Z-2.75803
X0.37388 Y-13.33198 Z-2.76362
X0.39419 Y-13.3076 Z-2.76921
X0.4129 Y-13.28198 Z-2.77481
X0.42995 Y-13.25522 Z-2.7804
X0.44528 Y-13.22744 Z-2.786
X0.4588 Y-13.19874 Z-2.79159
X0.47049 Y-13.16924 Z-2.79719
X0.48027 Y-13.13906 Z-2.80278
X0.48812 Y-13.10832 Z-2.80838
X0.49401 Y-13.07714 Z-2.81397
X0.49791 Y-13.04565 Z-2.81956
X0.4998 Y-13.01398 Z-2.82516
X0.49968 Y-12.98225 Z-2.83075
X0.49755 Y-12.9506 Z-2.83635
X0.49342 Y-12.91914 Z-2.84194
X0.48729 Y-12.88801 Z-2.84754
X0.47921 Y-12.85733 Z-2.85313
X0.4692 Y-12.82722 Z-2.85873
X0.45729 Y-12.79781 Z-2.86432
X0.44355 Y-12.76921 Z-2.86991
X0.42802 Y-12.74155 Z-2.87551
X0.41077 Y-12.71492 Z-2.8811
X0.39186 Y-12.68944 Z-2.8867
X0.37137 Y-12.66521 Z-2.89229
X0.34939 Y-12.64234 Z-2.89789
X0.326 Y-12.6209 Z-2.90348
X0.3013 Y-12.60098 Z-2.90908
X0.27539 Y-12.58268 Z-2.91467
X0.24837 Y-12.56605 Z-2.92027
X0.22034 Y-12.55117 Z-2.92586
X0.19143 Y-12.5381 Z-2.93145
X0.16175 Y-12.52689 Z-2.93705
X0.13142 Y-12.51758 Z-2.94264
X0.10056 Y-12.51022 Z-2.94824
X0.06929 Y-12.50483 Z-2.95383
X0.03775 Y-12.50143 Z-2.95943
X0.00605 Y-12.50004 Z-2.96502
X-0.02567 Y-12.50066 Z-2.97062
X-0.05729 Y-12.50329 Z-2.97621
X-0.08868 Y-12.50793 Z-2.9818
X-0.11971 Y-12.51454 Z-2.9874
X-0.15026 Y-12.52311 Z-2.99299
X-0.1802 Y-12.5336 Z-2.99859
X-0.20942 Y-12.54597 Z-3.00418
X-0.2378 Y-12.56017 Z-3.00978
X-0.26521 Y-12.57613 Z-3.01537
X-0.29156 Y-12.59381 Z-3.02097
X-0.31674 Y-12.61312 Z-3.02656
X-0.34064 Y-12.63399 Z-3.03215
X-0.36317 Y-12.65633 Z-3.03775
X-0.38423 Y-12.68005 Z-3.04334
X-0.40375 Y-12.70507 Z-3.04894
X-0.42164 Y-12.73127 Z-3.05453
X-0.43784 Y-12.75855 Z-3.06013
X-0.45227 Y-12.78681 Z-3.06572
X-0.46488 Y-12.81592 Z-3.07132
X-0.47562 Y-12.84578 Z-3.07691
X-0.48444 Y-12.87625 Z-3.08251
X-0.49132 Y-12.90722 Z-3.0881
X-0.49621 Y-12.93857 Z-3.09369
X-0.49911 Y-12.97017 Z-3.09929
X-0.5 Y-13.00188 Z-3.10488
X-0.49887 Y-13.03359 Z-3.11048
X-0.49573 Y-13.06517 Z-3.11607
X-0.4906 Y-13.09648 Z-3.12167
X-0.4835 Y-13.1274 Z-3.12726
X-0.47444 Y-13.15781 Z-3.13286
X-0.46348 Y-13.18758 Z-3.13845
X-0.45065 Y-13.2166 Z-3.14404
X-0.43601 Y-13.24474 Z-3.14964
X-0.4196 Y-13.2719 Z-3.15523
X-0.40152 Y-13.29797 Z-3.16083
X-0.38181 Y-13.32283 Z-3.16642
X-0.36057 Y-13.3464 Z-3.17202
X-0.33787 Y-13.36857 Z-3.17761
X-0.31381 Y-13.38926 Z-3.18321
X-0.28849 Y-13.40838 Z-3.1888
X-0.26201 Y-13.42585 Z-3.19439
X-0.23447 Y-13.44161 Z-3.19999
X-0.20599 Y-13.45559 Z-3.20558
X-0.17668 Y-13.46774 Z-3.21118
X-0.14666 Y-13.47801 Z-3.21677
X-0.11605 Y-13.48635 Z-3.22237
X-0.08497 Y-13.49273 Z-3.22796
X-0.05355 Y-13.49712 Z-3.23356
X-0.02191 Y-13.49952 Z-3.23915
X0.00982 Y-13.4999 Z-3.24475
X0.0415 Y-13.49827 Z-3.25034
X0.07302 Y-13.49464 Z-3.25593
X0.10425 Y-13.48901 Z-3.26153
X0.13505 Y-13.48142 Z-3.26712
X0.16531 Y-13.47188 Z-3.27272
X0.19491 Y-13.46045 Z-3.27831
X0.22372 Y-13.44716 Z-3.28391
X0.25163 Y-13.43207 Z-3.2895
X0.27853 Y-13.41524 Z-3.2951
X0.3043 Y-13.39674 Z-3.30069
X0.32885 Y-13.37664 Z-3.30628
X0.35208 Y-13.35502 Z-3.31188
X0.37388 Y-13.33198 Z-3.31747
X0.39419 Y-13.3076 Z-3.32307
X0.4129 Y-13.28198 Z-3.32866
X0.42995 Y-13.25522 Z-3.33426
X0.44528 Y-13.22744 Z-3.33985
X0.4588 Y-13.19874 Z-3.34545
X0.47049 Y-13.16924 Z-3.35104
X0.48027 Y-13.13906 Z-3.35663
X0.48812 Y-13.10832 Z-3.36223
X0.49401 Y-13.07714 Z-3.36782
X0.49791 Y-13.04565 Z-3.37342
X0.4998 Y-13.01398 Z-3.37901
X0.49968 Y-12.98225 Z-3.38461
X0.49755 Y-12.9506 Z-3.3902
X0.49342 Y-12.91914 Z-3.3958
X0.48729 Y-12.88801 Z-3.40139
X0.47921 Y-12.85733 Z-3.40699
X0.4692 Y-12.82722 Z-3.41258
X0.45729 Y-12.79781 Z-3.41817
X0.44355 Y-12.76921 Z-3.42377
X0.42802 Y-12.74155 Z-3.42936
X0.41077 Y-12.71492 Z-3.43496
X0.39186 Y-12.68944 Z-3.44055
X0.37137 Y-12.66521 Z-3.44615
X0.34939 Y-12.64234 Z-3.45174
X0.326 Y-12.6209 Z-3.45734
X0.3013 Y-12.60098 Z-3.46293
X0.27539 Y-12.58268 Z-3.46852
X0.24837 Y-12.56605 Z-3.47412
X0.22034 Y-12.55117 Z-3.47971
X0.19143 Y-12.5381 Z-3.48531
X0.16175 Y-12.52689 Z-3.4909
X0.13142 Y-12.51758 Z-3.4965
X0.10056 Y-12.51022 Z-3.50209
X0.06929 Y-12.50483 Z-3.50769
X0.03775 Y-12.50143 Z-3.51328
X0.00605 Y-12.50004 Z-3.51887
X-0.02567 Y-12.50066 Z-3.52447
X-0.05729 Y-12.50329 Z-3.53006
X-0.08868 Y-12.50793 Z-3.53566
X-0.11971 Y-12.51454 Z-3.54125
X-0.15026 Y-12.52311 Z-3.54685
X-0.1802 Y-12.5336 Z-3.55244
X-0.20942 Y-12.54597 Z-3.55804
X-0.2378 Y-12.56017 Z-3.56363
X-0.26521 Y-12.57613 Z-3.56923
X-0.29156 Y-12.59381 Z-3.57482
X-0.31674 Y-12.61312 Z-3.58041
X-0.34064 Y-12.63399 Z-3.58601
X-0.36317 Y-12.65633 Z-3.5916
X-0.38423 Y-12.68005 Z-3.5972
X-0.40375 Y-12.70507 Z-3.60279
X-0.42164 Y-12.73127 Z-3.60839
X-0.43784 Y-12.75855 Z-3.61398
X-0.45227 Y-12.78681 Z-3.61958
X-0.46488 Y-12.81592 Z-3.62517
X-0.47562 Y-12.84578 Z-3.63076
X-0.48444 Y-12.87625 Z-3.63636
X-0.49132 Y-12.90722 Z-3.64195
X-0.49621 Y-12.93857 Z-3.64755
X-0.49911 Y-12.97017 Z-3.65314
X-0.5 Y-13.00188 Z-3.65874
X-0.49887 Y-13.03359 Z-3.66433
X-0.49573 Y-13.06517 Z-3.66993
X-0.4906 Y-13.09648 Z-3.67552
X-0.4835 Y-13.1274 Z-3.68111
X-0.47444 Y-13.15781 Z-3.68671
X-0.46348 Y-13.18758 Z-3.6923
X-0.45065 Y-13.2166 Z-3.6979
X-0.43601 Y-13.24474 Z-3.70349
X-0.4196 Y-13.2719 Z-3.70909
X-0.40152 Y-13.29797 Z-3.71468
X-0.38181 Y-13.32283 Z-3.72028
X-0.36057 Y-13.3464 Z-3.72587
X-0.33787 Y-13.36857 Z-3.73147
X-0.31381 Y-13.38926 Z-3.73706
X-0.28849 Y-13.40838 Z-3.74265
X-0.26201 Y-13.42585 Z-3.74825
X-0.23447 Y-13.44161 Z-3.75384
X-0.20599 Y-13.45559 Z-3.75944
X-0.17668 Y-13.46774 Z-3.76503
X-0.14666 Y-13.47801 Z-3.77063
X-0.11605 Y-13.48635 Z-3.77622
X-0.08497 Y-13.49273 Z-3.78182
X-0.05355 Y-13.49712 Z-3.78741
X-0.02191 Y-13.49952 Z-3.793
X0.00982 Y-13.4999 Z-3.7986
X0.0415 Y-13.49827 Z-3.80419
X0.07302 Y-13.49464 Z-3.80979
X0.10425 Y-13.48901 Z-3.81538
X0.13505 Y-13.48142 Z-3.82098
X0.16531 Y-13.47188 Z-3.82657
X0.19491 Y-13.46045 Z-3.83217
X0.22372 Y-13.44716 Z-3.83776
X0.25163 Y-13.43207 Z-3.84335
X0.27853 Y-13.41524 Z-3.84895
X0.3043 Y-13.39674 Z-3.85454
X0.32885 Y-13.37664 Z-3.86014
X0.35208 Y-13.35502 Z-3.86573
X0.37388 Y-13.33198 Z-3.87133
X0.39419 Y-13.3076 Z-3.87692
X0.4129 Y-13.28198 Z-3.88252
X0.42995 Y-13.25522 Z-3.88811
X0.44528 Y-13.22744 Z-3.89371
X0.4588 Y-13.19874 Z-3.8993
X0.47049 Y-13.16924 Z-3.90489
X0.48027 Y-13.13906 Z-3.91049
X0.48812 Y-13.10832 Z-3.91608
X0.49401 Y-13.07714 Z-3.92168
X0.49791 Y-13.04565 Z-3.92727
X0.4998 Y-13.01398 Z-3.93287
X0.49968 Y-12.98225 Z-3.93846
X0.49755 Y-12.9506 Z-3.94406
X0.49342 Y-12.91914 Z-3.94965
X0.48729 Y-12.88801 Z-3.95524
X0.47921 Y-12.85733 Z-3.96084
X0.4692 Y-12.82722 Z-3.96643
X0.45729 Y-12.79781 Z-3.97203
X0.44355 Y-12.76921 Z-3.97762
X0.42802 Y-12.74155 Z-3.98322
X0.41077 Y-12.71492 Z-3.98881
X0.39186 Y-12.68944 Z-3.99441
X0.37137 Y-12.66521 Z-4.
X-0.10425 Y-12.51099 F480.
X-0.47562 Y-12.84578
X-0.37137 Y-13.33479
X0.10425 Y-13.48901
X0.47562 Y-13.15423
X0.37137 Y-12.66521
G0 Z1.
X-13.35472 Y-0.35211
G1 Z0.27 F120.
X-13.34918 Y-0.35787 Z0.26859 F360.
X-13.32578 Y-0.3793 Z0.263
X-13.30107 Y-0.39919 Z0.2574
X-13.27515 Y-0.41749 Z0.25181
X-13.24812 Y-0.4341 Z0.24621
X-13.22008 Y-0.44896 Z0.24062
X-13.19117 Y-0.46201 Z0.23502
X-13.16148 Y-0.47321 Z0.22943
X-13.13114 Y-0.4825 Z0.22384
X-13.10027 Y-0.48984 Z0.21824
X-13.06901 Y-0.49522 Z0.21265
X-13.03746 Y-0.4986 Z0.20705
X-13.00576 Y-0.49997 Z0.20146
X-12.97404 Y-0.49933 Z0.19586
X-12.94242 Y-0.49667 Z0.19027
X-12.91104 Y-0.49202 Z0.18467
X-12.88001 Y-0.48539 Z0.17908
X-12.84947 Y-0.4768 Z0.17349
X-12.81953 Y-0.46629 Z0.16789
X-12.79032 Y-0.45391 Z0.1623
X-12.76195 Y-0.4397 Z0.1567
X-12.73454 Y-0.42371 Z0.15111
X-12.7082 Y-0.40602 Z0.14551
X-12.68304 Y-0.3867 Z0.13992
X-12.65915 Y-0.36582 Z0.13432
X-12.63664 Y-0.34346 Z0.12873
X-12.61558 Y-0.31973 Z0.12313
X-12.59608 Y-0.2947 Z0.11754
X-12.5782 Y-0.26849 Z0.11195
X-12.56202 Y-0.2412 Z0.10635
X-12.54761 Y-0.21293 Z0.10076
X-12.53501 Y-0.18381 Z0.09516
X-12.52429 Y-0.15395 Z0.08957
X-12.51549 Y-0.12347 Z0.08397
X-12.50863 Y-0.09249 Z0.07838
X-12.50375 Y-0.06114 Z0.07278
X-12.50087 Y-0.02954 Z0.06719
X-12.50001 Y0.00217 Z0.0616
X-12.50115 Y0.03388 Z0.056
X-12.5043 Y0.06545 Z0.05041
X-12.50945 Y0.09676 Z0.04481
X-12.51658 Y0.12768 Z0.03922
X-12.52565 Y0.15808 Z0.03362
X-12.53663 Y0.18785 Z0.02803
X-12.54948 Y0.21686 Z0.02243
X-12.56414 Y0.24499 Z0.01684
X-12.58055 Y0.27215 Z0.01125
X-12.59866 Y0.2982 Z0.00565
X-12.61838 Y0.32305 Z0.00006
X-12.63964 Y0.34661 Z-0.00554
X-12.66235 Y0.36877 Z-0.01113
X-12.68641 Y0.38944 Z-0.01673
X-12.71175 Y0.40854 Z-0.02232
X-12.73824 Y0.426 Z-0.02792
X-12.76578 Y0.44175 Z-0.03351
X-12.79427 Y0.45571 Z-0.0391
X-12.82359 Y0.46784 Z-0.0447
X-12.85362 Y0.47809 Z-0.05029
X-12.88423 Y0.48641 Z-0.05589
X-12.91532 Y0.49277 Z-0.06148
X-12.94674 Y0.49715 Z-0.06708
X-12.97838 Y0.49953 Z-0.07267
X-13.01011 Y0.4999 Z-0.07827
X-13.04179 Y0.49825 Z-0.08386
X-13.07331 Y0.49459 Z-0.08946
X-13.10453 Y0.48895 Z-0.09505
X-13.13533 Y0.48134 Z-0.10064
X-13.16559 Y0.47178 Z-0.10624
X-13.19518 Y0.46033 Z-0.11183
X-13.22398 Y0.44703 Z-0.11743
X-13.25188 Y0.43192 Z-0.12302
X-13.27877 Y0.41508 Z-0.12862
X-13.30453 Y0.39656 Z-0.13421
X-13.32907 Y0.37645 Z-0.13981
X-13.35228 Y0.35482 Z-0.1454
X-13.37408 Y0.33176 Z-0.151
X-13.39437 Y0.30737 Z-0.15659
X-13.41307 Y0.28174 Z-0.16218
X-13.4301 Y0.25497 Z-0.16778
X-13.44541 Y0.22718 Z-0.17337
X-13.45892 Y0.19847 Z-0.17897
X-13.47059 Y0.16896 Z-0.18456
X-13.48035 Y0.13878 Z-0.19016
X-13.48819 Y0.10803 Z-0.19575
X-13.49406 Y0.07685 Z-0.20135
X-13.49794 Y0.04536 Z-0.20694
X-13.49981 Y0.01369 Z-0.21253
X-13.49967 Y-0.01804 Z-0.21813
X-13.49752 Y-0.04969 Z-0.22372
X-13.49337 Y-0.08115 Z-0.22932
X-13.48723 Y-0.11228 Z-0.23491
X-13.47913 Y-0.14295 Z-0.24051
X-13.4691 Y-0.17305 Z-0.2461
X-13.45718 Y-0.20245 Z-0.2517
X-13.44342 Y-0.23104 Z-0.25729
X-13.42787 Y-0.2587 Z-0.26288
X-13.4106 Y-0.28532 Z-0.26848
X-13.39168 Y-0.31079 Z-0.27407
X-13.37118 Y-0.335 Z-0.27967
X-13.34918 Y-0.35787 Z-0.28526
X-13.32578 Y-0.3793 Z-0.29086
X-13.30107 Y-0.39919 Z-0.29645
X-13.27515 Y-0.41749 Z-0.30205
X-13.24812 Y-0.4341 Z-0.30764
X-13.22008 Y-0.44896 Z-0.31323
X-13.19117 Y-0.46201 Z-0.31883
X-13.16148 Y-0.47321 Z-0.32442
X-13.13114 Y-0.4825 Z-0.33002
X-13.10027 Y-0.48984 Z-0.33561
X-13.06901 Y-0.49522 Z-0.34121
X-13.03746 Y-0.4986 Z-0.3468
X-13.00576 Y-0.49997 Z-0.3524
X-12.97404 Y-0.49933 Z-0.35799
X-12.94242 Y-0.49667 Z-0.36359
X-12.91104 Y-0.49202 Z-0.36918
X-12.88001 Y-0.48539 Z-0.37477
X-12.84947 Y-0.4768 Z-0.38037
X-12.81953 Y-0.46629 Z-0.38596
X-12.79032 Y-0.45391 Z-0.39156
X-12.76195 Y-0.4397 Z-0.39715
X-12.73454 Y-0.42371 Z-0.40275
X-12.7082 Y-0.40602 Z-0.40834
X-12.68304 Y-0.3867 Z-0.41394
X-12.65915 Y-0.36582 Z-0.41953
X-12.63664 Y-0.34346 Z-0.42512
X-12.61558 Y-0.31973 Z-0.43072
X-12.59608 Y-0.2947 Z-0.43631
X-12.5782 Y-0.26849 Z-0.44191
X-12.56202 Y-0.2412 Z-0.4475
X-12.54761 Y-0.21293 Z-0.4531
X-12.53501 Y-0.18381 Z-0.45869
X-12.52429 Y-0.15395 Z-0.46429
X-12.51549 Y-0.12347 Z-0.46988
X-12.50863 Y-0.09249 Z-0.47548
X-12.50375 Y-0.06114 Z-0.48107
X-12.50087 Y-0.02954 Z-0.48666
X-12.50001 Y0.00217 Z-0.49226
X-12.50115 Y0.03388 Z-0.49785
X-12.5043 Y0.06545 Z-0.50345
X-12.50945 Y0.09676 Z-0.50904
X-12.51658 Y0.12768 Z-0.51464
X-12.52565 Y0.15808 Z-0.52023
X-12.53663 Y0.18785 Z-0.52583
X-12.54948 Y0.21686 Z-0.53142
X-12.56414 Y0.24499 Z-0.53701
X-12.58055 Y0.27215 Z-0.54261
X-12.59866 Y0.2982 Z-0.5482
X-12.61838 Y0.32305 Z-0.5538
X-12.63964 Y0.34661 Z-0.55939
X-12.66235 Y0.36877 Z-0.56499
X-12.68641 Y0.38944 Z-0.57058
X-12.71175 Y0.40854 Z-0.57618
X-12.73824 Y0.426 Z-0.58177
X-12.76578 Y0.44175 Z-0.58736
X-12.79427 Y0.45571 Z-0.59296
X-12.82359 Y0.46784 Z-0.59855
X-12.85362 Y0.47809 Z-0.60415
X-12.88423 Y0.48641 Z-0.60974
X-12.91532 Y0.49277 Z-0.61534
X-12.94674 Y0.49715 Z-0.62093
X-12.97838 Y0.49953 Z-0.62653
X-13.01011 Y0.4999 Z-0.63212
X-13.04179 Y0.49825 Z-0.63772
X-13.07331 Y0.49459 Z-0.64331
X-13.10453 Y0.48895 Z-0.6489
X-13.13533 Y0.48134 Z-0.6545
X-13.16559 Y0.47178 Z-0.66009
X-13.19518 Y0.46033 Z-0.66569
X-13.22398 Y0.44703 Z-0.67128
X-13.25188 Y0.43192 Z-0.67688
X-13.27877 Y0.41508 Z-0.68247
X-13.30453 Y0.39656 Z-0.68807
X-13.32907 Y0.37645 Z-0.69366
X-13.35228 Y0.35482 Z-0.69925
X-13.37408 Y0.33176 Z-0.70485
X-13.39437 Y0.30737 Z-0.71044
X-13.41307 Y0.28174 Z-0.71604
X-13.4301 Y0.25497 Z-0.72163
X-13.44541 Y0.22718 Z-0.72723
X-13.45892 Y0.19847 Z-0.73282
X-13.47059 Y0.16896 Z-0.73842
X-13.48035 Y0.13878 Z-0.74401
X-13.48819 Y0.10803 Z-0.7496
X-13.49406 Y0.07685 Z-0.7552
X-13.49794 Y0.04536 Z-0.76079
X-13.49981 Y0.01369 Z-0.76639
X-13.49967 Y-0.01804 Z-0.77198
X-13.49752 Y-0.04969 Z-0.77758
X-13.49337 Y-0.08115 Z-0.78317
X-13.48723 Y-0.11228 Z-0.78877
X-13.47913 Y-0.14295 Z-0.79436
X-13.4691 Y-0.17305 Z-0.79996
X-13.45718 Y-0.20245 Z-0.80555
X-13.44342 Y-0.23104 Z-0.81114
X-13.42787 Y-0.2587 Z-0.81674
X-13.4106 Y-0.28532 Z-0.82233
X-13.39168 Y-0.31079 Z-0.82793
X-13.37118 Y-0.335 Z-0.83352
X-13.34918 Y-0.35787 Z-0.83912
X-13.32578 Y-0.3793 Z-0.84471
X-13.30107 Y-0.39919 Z-0.85031
X-13.27515 Y-0.41749 Z-0.8559
X-13.24812 Y-0.4341 Z-0.86149
X-13.22008 Y-0.44896 Z-0.86709
X-13.19117 Y-0.46201 Z-0.87268
X-13.16148 Y-0.47321 Z-0.87828
X-13.13114 Y-0.4825 Z-0.88387
X-13.10027 Y-0.48984 Z-0.88947
X-13.06901 Y-0.49522 Z-0.89506
X-13.03746 Y-0.4986 Z-0.90066
X-13.00576 Y-0.49997 Z-0.90625
X-12.97404 Y-0.49933 Z-0.91184
X-12.94242 Y-0.49667 Z-0.91744
X-12.91104 Y-0.49202 Z-0.92303
X-12.88001 Y-0.48539 Z-0.92863
X-12.84947 Y-0.4768 Z-0.93422
X-12.81953 Y-0.46629 Z-0.93982
X-12.79032 Y-0.45391 Z-0.94541
X-12.76195 Y-0.4397 Z-0.95101
X-12.73454 Y-0.42371 Z-0.9566
X-12.7082 Y-0.40602 Z-0.96219
X-12.68304 Y-0.3867 Z-0.96779
X-12.65915 Y-0.36582 Z-0.97338
X-12.63664 Y-0.34346 Z-0.97898
X-12.61558 Y-0.31973 Z-0.98457
X-12.59608 Y-0.2947 Z-0.99017
X-12.5782 Y-0.26849 Z-0.99576
X-12.56202 Y-0.2412 Z-1.00136
X-12.54761 Y-0.21293 Z-1.00695
X-12.53501 Y-0.18381 Z-1.01255
X-12.52429 Y-0.15395 Z-1.01814
X-12.51549 Y-0.12347 Z-1.02373
X-12.50863 Y-0.09249 Z-1.02933
X-12.50375 Y-0.06114 Z-1.03492
X-12.50087 Y-0.02954 Z-1.04052
X-12.50001 Y0.00217 Z-1.04611
X-12.50115 Y0.03388 Z-1.05171
X-12.5043 Y0.06545 Z-1.0573
X-12.50945 Y0.09676 Z-1.0629
X-12.51658 Y0.12768 Z-1.06849
X-12.52565 Y0.15808 Z-1.07409
X-12.53663 Y0.18785 Z-1.07968
X-12.54948 Y0.21686 Z-1.08527
X-12.56414 Y0.24499 Z-1.09087
X-12.58055 Y0.27215 Z-1.09646
X-12.59866 Y0.2982 Z-1.10206
X-12.61838 Y0.32305 Z-1.10765
X-12.63964 Y0.34661 Z-1.11325
X-12.66235 Y0.36877 Z-1.11884
X-12.68641 Y0.38944 Z-1.12443
X-12.71175 Y0.40854 Z-1.13003
X-12.73824 Y0.426 Z-1.13562
X-12.76578 Y0.44175 Z-1.14122
X-12.79427 Y0.45571 Z-1.14681
X-12.82359 Y0.46784 Z-1.15241
X-12.85362 Y0.47809 Z-1.158
X-12.88423 Y0.48641 Z-1.1636
X-12.91532 Y0.49277 Z-1.16919
X-12.94674 Y0.49715 Z-1.17478
X-12.97838 Y0.49953 Z-1.18038
X-13.01011 Y0.4999 Z-1.18597
X-13.04179 Y0.49825 Z-1.19157
X-13.07331 Y0.49459 Z-1.19716
X-13.10453 Y0.48895 Z-1.20276
X-13.13533 Y0.48134 Z-1.20835
X-13.16559 Y0.47178 Z-1.21395
X-13.19518 Y0.46033 Z-1.21954
X-13.22398 Y0.44703 Z-1.22514
X-13.25188 Y0.43192 Z-1.23073
X-13.27877 Y0.41508 Z-1.23632
X-13.30453 Y0.39656 Z-1.24192
X-13.32907 Y0.37645 Z-1.24751
X-13.35228 Y0.35482 Z-1.25311
X-13.37408 Y0.33176 Z-1.2587
X-13.39437 Y0.30737 Z-1.2643
X-13.41307 Y0.28174 Z-1.26989
X-13.4301 Y0.25497 Z-1.27549
X-13.44541 Y0.22718 Z-1.28108
X-13.45892 Y0.19847 Z-1.28668
X-13.47059 Y0.16896 Z-1.29227
X-13.48035 Y0.13878 Z-1.29786
X-13.48819 Y0.10803 Z-1.30346
X-13.49406 Y0.07685 Z-1.30905
X-13.49794 Y0.04536 Z-1.31465
X-13.49981 Y0.01369 Z-1.32024
X-13.49967 Y-0.01804 Z-1.32584
X-13.49752 Y-0.04969 Z-1.33143
X-13.49337 Y-0.08115 Z-1.33702
X-13.48723 Y-0.11228 Z-1.34262
X-13.47913 Y-0.14295 Z-1.34821
X-13.4691 Y-0.17305 Z-1.35381
X-13.45718 Y-0.20245 Z-1.3594
X-13.44342 Y-0.23104 Z-1.365
X-13.42787 Y-0.2587 Z-1.37059
X-13.4106 Y-0.28532 Z-1.37619
X-13.39168 Y-0.31079 Z-1.38178
X-13.37118 Y-0.335 Z-1.38738
X-13.34918 Y-0.35787 Z-1.39297
X-13.32578 Y-0.3793 Z-1.39856
X-13.30107 Y-0.39919 Z-1.40416
X-13.27515 Y-0.41749 Z-1.40975
X-13.24812 Y-0.4341 Z-1.41535
X-13.22008 Y-0.44896 Z-1.42094
X-13.19117 Y-0.46201 Z-1.42654
X-13.16148 Y-0.47321 Z-1.43213
X-13.13114 Y-0.4825 Z-1.43773
X-13.10027 Y-0.48984 Z-1.44332
X-13.06901 Y-0.49522 Z-1.44891
X-13.03746 Y-0.4986 Z-1.45451
X-13.00576 Y-0.49997 Z-1.4601
X-12.97404 Y-0.49933 Z-1.4657
X-12.94242 Y-0.49667 Z-1.47129
X-12.91104 Y-0.49202 Z-1.47689
X-12.88001 Y-0.48539 Z-1.48248
X-12.84947 Y-0.4768 Z-1.48808
X-12.81953 Y-0.46629 Z-1.49367
X-12.79032 Y-0.45391 Z-1.49927
X-12.76195 Y-0.4397 Z-1.50486
X-12.73454 Y-0.42371 Z-1.51045
X-12.7082 Y-0.40602 Z-1.51605
X-12.68304 Y-0.3867 Z-1.52164
X-12.65915 Y-0.36582 Z-1.52724
X-12.63664 Y-0.34346 Z-1.53283
X-12.61558 Y-0.31973 Z-1.53843
X-12.59608 Y-0.2947 Z-1.54402
X-12.5782 Y-0.26849 Z-1.54962
X-12.56202 Y-0.2412 Z-1.55521
X-12.54761 Y-0.21293 Z-1.56081
X-12.53501 Y-0.18381 Z-1.5664
X-12.52429 Y-0.15395 Z-1.57199
X-12.51549 Y-0.12347 Z-1.57759
X-12.50863 Y-0.09249 Z-1.58318
X-12.50375 Y-0.06114 Z-1.58878
X-12.50087 Y-0.02954 Z-1.59437
X-12.50001 Y0.00217 Z-1.59997
X-12.50115 Y0.03388 Z-1.60556
X-12.5043 Y0.06545 Z-1.61115
X-12.50945 Y0.09676 Z-1.61675
X-12.51658 Y0.12768 Z-1.62234
X-12.52565 Y0.15808 Z-1.62794
X-12.53663 Y0.18785 Z-1.63353
X-12.54948 Y0.21686 Z-1.63913
X-12.56414 Y0.24499 Z-1.64472
X-12.58055 Y0.27215 Z-1.65032
X-12.59866 Y0.2982 Z-1.65591
X-12.61838 Y0.32305 Z-1.66151
X-12.63964 Y0.34661 Z-1.6671
X-12.66235 Y0.36877 Z-1.67269
X-12.68641 Y0.38944 Z-1.67829
X-12.71175 Y0.40854 Z-1.68388
X-12.73824 Y0.426 Z-1.68948
X-12.76578 Y0.44175 Z-1.69507
X-12.79427 Y0.45571 Z-1.70067
X-12.82359 Y0.46784 Z-1.70626
X-12.85362 Y0.47809 Z-1.71186
X-12.88423 Y0.48641 Z-1.71745
X-12.91532 Y0.49277 Z-1.72304
X-12.94674 Y0.49715 Z-1.72864
X-12.97838 Y0.49953 Z-1.73423
X-13.01011 Y0.4999 Z-1.73983
X-13.04179 Y0.49825 Z-1.74542
X-13.07331 Y0.49459 Z-1.75102
X-13.10453 Y0.48895 Z-1.75661
X-13.13533 Y0.48134 Z-1.76221
X-13.16559 Y0.47178 Z-1.7678
X-13.19518 Y0.46033 Z-1.7734
X-13.22398 Y0.44703 Z-1.77899
X-13.25188 Y0.43192 Z-1.78458
X-13.27877 Y0.41508 Z-1.79018
X-13.30453 Y0.39656 Z-1.79577
X-13.32907 Y0.37645 Z-1.80137
X-13.35228 Y0.35482 Z-1.80696
X-13.37408 Y0.33176 Z-1.81256
X-13.39437 Y0.30737 Z-1.81815
X-13.41307 Y0.28174 Z-1.82374
X-13.4301 Y0.25497 Z-1.82934
X-13.44541 Y0.22718 Z-1.83493
X-13.45892 Y0.19847 Z-1.84053
X-13.47059 Y0.16896 Z-1.84612
X-13.48035 Y0.13878 Z-1.85172
X-13.48819 Y0.10803 Z-1.85731
X-13.49406 Y0.07685 Z-1.86291
X-13.49794 Y0.04536 Z-1.8685
X-13.49981 Y0.01369 Z-1.8741
X-13.49967 Y-0.01804 Z-1.87969
X-13.49752 Y-0.04969 Z-1.88529
X-13.49337 Y-0.08115 Z-1.89088
X-13.48723 Y-0.11228 Z-1.89647
X-13.47913 Y-0.14295 Z-1.90207
X-13.4691 Y-0.17305 Z-1.90766
X-13.45718 Y-0.20245 Z-1.91326
X-13.44342 Y-0.23104 Z-1.91885
X-13.42787 Y-0.2587 Z-1.92445
X-13.4106 Y-0.28532 Z-1.93004
X-13.39168 Y-0.31079 Z-1.93564
X-13.37118 Y-0.335 Z-1.94123
X-13.34918 Y-0.35787 Z-1.94682
X-13.32578 Y-0.3793 Z-1.95242
X-13.30107 Y-0.39919 Z-1.95801
X-13.27515 Y-0.41749 Z-1.96361
X-13.24812 Y-0.4341 Z-1.9692
X-13.22008 Y-0.44896 Z-1.9748
X-13.19117 Y-0.46201 Z-1.98039
X-13.16148 Y-0.47321 Z-1.98599
X-13.13114 Y-0.4825 Z-1.99158
X-13.10027 Y-0.48984 Z-1.99717
X-13.06901 Y-0.49522 Z-2.00277
X-13.03746 Y-0.4986 Z-2.00836
X-13.00576 Y-0.49997 Z-2.01396
X-12.97404 Y-0.49933 Z-2.01955
X-12.94242 Y-0.49667 Z-2.02515
X-12.91104 Y-0.49202 Z-2.03074
X-12.88001 Y-0.48539 Z-2.03634
X-12.84947 Y-0.4768 Z-2.04193
X-12.81953 Y-0.46629 Z-2.04753
X-12.79032 Y-0.45391 Z-2.05312
X-12.76195 Y-0.4397 Z-2.05871
X-12.73454 Y-0.42371 Z-2.06431
X-12.7082 Y-0.40602 Z-2.0699
X-12.68304 Y-0.3867 Z-2.0755
X-12.65915 Y-0.36582 Z-2.08109
X-12.63664 Y-0.34346 Z-2.08669
X-12.61558 Y-0.31973 Z-2.09228
X-12.59608 Y-0.2947 Z-2.09788
X-12.5782 Y-0.26849 Z-2.10347
X-12.56202 Y-0.2412 Z-2.10906
X-12.54761 Y-0.21293 Z-2.11466
X-12.53501 Y-0.18381 Z-2.12025
X-12.52429 Y-0.15395 Z-2.12585
X-12.51549 Y-0.12347 Z-2.13144
X-12.50863 Y-0.09249 Z-2.13704
X-12.50375 Y-0.06114 Z-2.14263
X-12.50087 Y-0.02954 Z-2.14823
X-12.50001 Y0.00217 Z-2.15382
X-12.50115 Y0.03388 Z-2.15942
X-12.5043 Y0.06545 Z-2.16501
X-12.50945 Y0.09676 Z-2.1706
X-12.51658 Y0.12768 Z-2.1762
X-12.52565 Y0.15808 Z-2.18179
X-12.53663 Y0.18785 Z-2.18739
X-12.54948 Y0.21686 Z-2.19298
X-12.56414 Y0.24499 Z-2.19858
X-12.58055 Y0.27215 Z-2.20417
X-12.59866 Y0.2982 Z-2.20977
X-12.61838 Y0.32305 Z-2.21536
X-12.63964 Y0.34661 Z-2.22095
X-12.66235 Y0.36877 Z-2.22655
X-12.68641 Y0.38944 Z-2.23214
X-12.71175 Y0.40854 Z-2.23774
X-12.73824 Y0.426 Z-2.24333
X-12.76578 Y0.44175 Z-2.24893
X-12.79427 Y0.45571 Z-2.25452
X-12.82359 Y0.46784 Z-2.26011
X-12.85362 Y0.47809 Z-2.26571
X-12.88423 Y0.48641 Z-2.2713
X-12.91532 Y0.49277 Z-2.2769
X-12.94674 Y0.49715 Z-2.28249
X-12.97838 Y0.49953 Z-2.28809
X-13.01011 Y0.4999 Z-2.29368
X-13.04179 Y0.49825 Z-2.29928
X-13.07331 Y0.49459 Z-2.30487
X-13.10453 Y0.48895 Z-2.31047
X-13.13533 Y0.48134 Z-2.31606
X-13.16559 Y0.47178 Z-2.32165
X-13.19518 Y0.46033 Z-2.32725
X-13.22398 Y0.44703 Z-2.33284
X-13.25188 Y0.43192 Z-2.33844
X-13.27877 Y0.41508 Z-2.34403
X-13.30453 Y0.39656 Z-2.34963
X-13.32907 Y0.37645 Z-2.35522
X-13.35228 Y0.35482 Z-2.36082
X-13.37408 Y0.33176 Z-2.36641
X-13.39437 Y0.30737 Z-2.37201
X-13.41307 Y0.28174 Z-2.3776
X-13.4301 Y0.25497 Z-2.38319
X-13.44541 Y0.22718 Z-2.38879
X-13.45892 Y0.19847 Z-2.39438
X-13.47059 Y0.16896 Z-2.39998
X-13.48035 Y0.13878 Z-2.40557
X-13.48819 Y0.10803 Z-2.41117
X-13.49406 Y0.07685 Z-2.41676
X-13.49794 Y0.04536 Z-2.42236
X-13.49981 Y0.01369 Z-2.42795
X-13.49967 Y-0.01804 Z-2.43354
X-13.49752 Y-0.04969 Z-2.43914
X-13.49337 Y-0.08115 Z-2.44473
X-13.48723 Y-0.11228 Z-2.45033
X-13.47913 Y-0.14295 Z-2.45592
X-13.4691 Y-0.17305 Z-2.46152
X-13.45718 Y-0.20245 Z-2.46711
X-13.44342 Y-0.23104 Z-2.47271
X-13.42787 Y-0.2587 Z-2.4783
X-13.4106 Y-0.28532 Z-2.4839
X-13.39168 Y-0.31079 Z-2.48949
X-13.37118 Y-0.335 Z-2.49508
X-13.34918 Y-0.35787 Z-2.50068
X-13.32578 Y-0.3793 Z-2.50627
X-13.30107 Y-0.39919 Z-2.51187
X-13.27515 Y-0.41749 Z-2.51746
X-13.24812 Y-0.4341 Z-2.52306
X-13.22008 Y-0.44896 Z-2.52865
X-13.19117 Y-0.46201 Z-2.53424
X-13.16148 Y-0.47321 Z-2.53984
X-13.13114 Y-0.4825 Z-2.54543
X-13.10027 Y-0.48984 Z-2.55103
X-13.06901 Y-0.49522 Z-2.55662
X-13.03746 Y-0.4986 Z-2.56222
X-13.00576 Y-0.49997 Z-2.56781
X-12.97404 Y-0.49933 Z-2.57341
X-12.94242 Y-0.49667 Z-2.579
X-12.91104 Y-0.49202 Z-2.5846
X-12.88001 Y-0.48539 Z-2.59019
X-12.84947 Y-0.4768 Z-2.59578
X-12.81953 Y-0.46629 Z-2.60138
X-12.79032 Y-0.45391 Z-2.60697
X-12.76195 Y-0.4397 Z-2.61257
X-12.73454 Y-0.42371 Z-2.61816
X-12.7082 Y-0.40602 Z-2.62376
X-12.68304 Y-0.3867 Z-2.62935
X-12.65915 Y-0.36582 Z-2.63495
X-12.63664 Y-0.34346 Z-2.64054
X-12.61558 Y-0.31973 Z-2.64614
X-12.59608 Y-0.2947 Z-2.65173
X-12.5782 Y-0.26849 Z-2.65732
X-12.56202 Y-0.2412 Z-2.66292
X-12.54761 Y-0.21293 Z-2.66851
X-12.53501 Y-0.18381 Z-2.67411
X-12.52429 Y-0.15395 Z-2.6797
X-12.51549 Y-0.12347 Z-2.6853
X-12.50863 Y-0.09249 Z-2.69089
X-12.50375 Y-0.06114 Z-2.69649
X-12.50087 Y-0.02954 Z-2.70208
X-12.50001 Y0.00217 Z-2.70767
X-12.50115 Y0.03388 Z-2.71327
X-12.5043 Y0.06545 Z-2.71886
X-12.50945 Y0.09676 Z-2.72446
X-12.51658 Y0.12768 Z-2.73005
X-12.52565 Y0.15808 Z-2.73565
X-12.53663 Y0.18785 Z-2.74124
X-12.54948 Y0.21686 Z-2.74684
X-12.56414 Y0.24499 Z-2.75243
X-12.58055 Y0.27215 Z-2.75802
X-12.59866 Y0.2982 Z-2.76362
X-12.61838 Y0.32305 Z-2.76921
X-12.63964 Y0.34661 Z-2.77481
X-12.66235 Y0.36877 Z-2.7804
X-12.68641 Y0.38944 Z-2.786
X-12.71175 Y0.40854 Z-2.79159
X-12.73824 Y0.426 Z-2.79719
X-12.76578 Y0.44175 Z-2.80278
X-12.79427 Y0.45571 Z-2.80838
X-12.82359 Y0.46784 Z-2.81397
X-12.85362 Y0.47809 Z-2.81956
X-12.88423 Y0.48641 Z-2.82516
X-12.91532 Y0.49277 Z-2.83075
X-12.94674 Y0.49715 Z-2.83635
X-12.97838 Y0.49953 Z-2.84194
X-13.01011 Y0.4999 Z-2.84754
X-13.04179 Y0.49825 Z-2.85313
X-13.07331 Y0.49459 Z-2.85873
X-13.10453 Y0.48895 Z-2.86432
X-13.13533 Y0.48134 Z-2.86991
X-13.16559 Y0.47178 Z-2.87551
X-13.19518 Y0.46033 Z-2.8811
X-13.22398 Y0.44703 Z-2.8867
X-13.25188 Y0.43192 Z-2.89229
X-13.27877 Y0.41508 Z-2.89789
X-13.30453 Y0.39656 Z-2.90348
X-13.32907 Y0.37645 Z-2.90908
X-13.35228 Y0.35482 Z-2.91467
X-13.37408 Y0.33176 Z-2.92026
X-13.39437 Y0.30737 Z-2.92586
X-13.41307 Y0.28174 Z-2.93145
X-13.4301 Y0.25497 Z-2.93705
X-13.44541 Y0.22718 Z-2.94264
X-13.45892 Y0.19847 Z-2.94824
X-13.47059 Y0.16896 Z-2.95383
X-13.48035 Y0.13878 Z-2.95943
X-13.48819 Y0.10803 Z-2.96502
X-13.49406 Y0.07685 Z-2.97062
X-13.49794 Y0.04536 Z-2.97621
X-13.49981 Y0.01369 Z-2.9818
X-13.49967 Y-0.01804 Z-2.9874
X-13.49752 Y-0.04969 Z-2.99299
X-13.49337 Y-0.08115 Z-2.99859
X-13.48723 Y-0.11228 Z-3.00418
X-13.47913 Y-0.14295 Z-3.00978
X-13.4691 Y-0.17305 Z-3.01537
X-13.45718 Y-0.20245 Z-3.02097
X-13.44342 Y-0.23104 Z-3.02656
X-13.42787 Y-0.2587 Z-3.03215
X-13.4106 Y-0.28532 Z-3.03775
X-13.39168 Y-0.31079 Z-3.04334
X-13.37118 Y-0.335 Z-3.04894
X-13.34918 Y-0.35787 Z-3.05453
X-13.32578 Y-0.3793 Z-3.06013
X-13.30107 Y-0.39919 Z-3.06572
X-13.27515 Y-0.41749 Z-3.07132
X-13.24812 Y-0.4341 Z-3.07691
X-13.22008 Y-0.44896 Z-3.08251
X-13.19117 Y-0.46201 Z-3.0881
X-13.16148 Y-0.47321 Z-3.09369
X-13.13114 Y-0.4825 Z-3.09929
X-13.10027 Y-0.48984 Z-3.10488
X-13.06901 Y-0.49522 Z-3.11048
X-13.03746 Y-0.4986 Z-3.11607
X-13.00576 Y-0.49997 Z-3.12167
X-12.97404 Y-0.49933 Z-3.12726
X-12.94242 Y-0.49667 Z-3.13286
X-12.91104 Y-0.49202 Z-3.13845
X-12.88001 Y-0.48539 Z-3.14404
X-12.84947 Y-0.4768 Z-3.14964
X-12.81953 Y-0.46629 Z-3.15523
X-12.79032 Y-0.45391 Z-3.16083
X-12.76195 Y-0.4397 Z-3.16642
X-12.73454 Y-0.42371 Z-3.17202
X-12.7082 Y-0.40602 Z-3.17761
X-12.68304 Y-0.3867 Z-3.18321
X-12.65915 Y-0.36582 Z-3.1888
X-12.63664 Y-0.34346 Z-3.19439
X-12.61558 Y-0.31973 Z-3.19999
X-12.59608 Y-0.2947 Z-3.20558
X-12.5782 Y-0.26849 Z-3.21118
X-12.56202 Y-0.2412 Z-3.21677
X-12.54761 Y-0.21293 Z-3.22237
X-12.53501 Y-0.18381 Z-3.22796
X-12.52429 Y-0.15395 Z-3.23356
X-12.51549 Y-0.12347 Z-3.23915
X-12.50863 Y-0.09249 Z-3.24475
X-12.50375 Y-0.06114 Z-3.25034
X-12.50087 Y-0.02954 Z-3.25593
X-12.50001 Y0.00217 Z-3.26153
X-12.50115 Y0.03388 Z-3.26712
X-12.5043 Y0.06545 Z-3.27272
X-12.50945 Y0.09676 Z-3.27831
X-12.51658 Y0.12768 Z-3.28391
X-12.52565 Y0.15808 Z-3.2895
X-12.53663 Y0.18785 Z-3.2951
X-12.54948 Y0.21686 Z-3.30069
X-12.56414 Y0.24499 Z-3.30628
X-12.58055 Y0.27215 Z-3.31188
X-12.59866 Y0.2982 Z-3.31747
X-12.61838 Y0.32305 Z-3.32307
X-12.63964 Y0.34661 Z-3.32866
X-12.66235 Y0.36877 Z-3.33426
X-12.68641 Y0.38944 Z-3.33985
X-12.71175 Y0.40854 Z-3.34545
X-12.73824 Y0.426 Z-3.35104
X-12.76578 Y0.44175 Z-3.35663
X-12.79427 Y0.45571 Z-3.36223
X-12.82359 Y0.46784 Z-3.36782
X-12.85362 Y0.47809 Z-3.37342
X-12.88423 Y0.48641 Z-3.37901
X-12.91532 Y0.49277 Z-3.38461
X-12.94674 Y0.49715 Z-3.3902
X-12.97838 Y0.49953 Z-3.3958
X-13.01011 Y0.4999 Z-3.40139
X-13.04179 Y0.49825 Z-3.40699
X-13.07331 Y0.49459 Z-3.41258
X-13.10453 Y0.48895 Z-3.41817
X-13.13533 Y0.48134 Z-3.42377
X-13.16559 Y0.47178 Z-3.42936
X-13.19518 Y0.46033 Z-3.43496
X-13.22398 Y0.44703 Z-3.44055
X-13.25188 Y0.43192 Z-3.44615
X-13.27877 Y0.41508 Z-3.45174
X-13.30453 Y0.39656 Z-3.45734
X-13.32907 Y0.37645 Z-3.46293
X-13.35228 Y0.35482 Z-3.46852
X-13.37408 Y0.33176 Z-3.47412
X-13.39437 Y0.30737 Z-3.47971
X-13.41307 Y0.28174 Z-3.48531
X-13.4301 Y0.25497 Z-3.4909
X-13.44541 Y0.22718 Z-3.4965
X-13.45892 Y0.19847 Z-3.50209
X-13.47059 Y0.16896 Z-3.50769
X-13.48035 Y0.13878 Z-3.51328
X-13.48819 Y0.10803 Z-3.51887
X-13.49406 Y0.07685 Z-3.52447
X-13.49794 Y0.04536 Z-3.53006
X-13.49981 Y0.01369 Z-3.53566
X-13.49967 Y-0.01804 Z-3.54125
X-13.49752 Y-0.04969 Z-3.54685
X-13.49337 Y-0.08115 Z-3.55244
X-13.48723 Y-0.11228 Z-3.55804
X-13.47913 Y-0.14295 Z-3.56363
X-13.4691 Y-0.17305 Z-3.56923
X-13.45718 Y-0.20245 Z-3.57482
X-13.44342 Y-0.23104 Z-3.58041
X-13.42787 Y-0.2587 Z-3.58601
X-13.4106 Y-0.28532 Z-3.5916
X-13.39168 Y-0.31079 Z-3.5972
X-13.37118 Y-0.335 Z-3.60279
X-13.34918 Y-0.35787 Z-3.60839
X-13.32578 Y-0.3793 Z-3.61398
X-13.30107 Y-0.39919 Z-3.61958
X-13.27515 Y-0.41749 Z-3.62517
X-13.24812 Y-0.4341 Z-3.63076
X-13.22008 Y-0.44896 Z-3.63636
X-13.19117 Y-0.46201 Z-3.64195
X-13.16148 Y-0.47321 Z-3.64755
X-13.13114 Y-0.4825 Z-3.65314
X-13.10027 Y-0.48984 Z-3.65874
X-13.06901 Y-0.49522 Z-3.66433
X-13.03746 Y-0.4986 Z-3.66993
X-13.00576 Y-0.49997 Z-3.67552
X-12.97404 Y-0.49933 Z-3.68111
X-12.94242 Y-0.49667 Z-3.68671
X-12.91104 Y-0.49202 Z-3.6923
X-12.88001 Y-0.48539 Z-3.6979
X-12.84947 Y-0.4768 Z-3.70349
X-12.81953 Y-0.46629 Z-3.70909
X-12.79032 Y-0.45391 Z-3.71468
X-12.76195 Y-0.4397 Z-3.72028
X-12.73454 Y-0.42371 Z-3.72587
X-12.7082 Y-0.40602 Z-3.73147
X-12.68304 Y-0.3867 Z-3.73706
X-12.65915 Y-0.36582 Z-3.74265
X-12.63664 Y-0.34346 Z-3.74825
X-12.61558 Y-0.31973 Z-3.75384
X-12.59608 Y-0.2947 Z-3.75944
X-12.5782 Y-0.26849 Z-3.76503
X-12.56202 Y-0.2412 Z-3.77063
X-12.54761 Y-0.21293 Z-3.77622
X-12.53501 Y-0.18381 Z-3.78182
X-12.52429 Y-0.15395 Z-3.78741
X-12.51549 Y-0.12347 Z-3.793
X-12.50863 Y-0.09249 Z-3.7986
X-12.50375 Y-0.06114 Z-3.80419
X-12.50087 Y-0.02954 Z-3.80979
X-12.50001 Y0.00217 Z-3.81538
X-12.50115 Y0.03388 Z-3.82098
X-12.5043 Y0.06545 Z-3.82657
X-12.50945 Y0.09676 Z-3.83217
X-12.51658 Y0.12768 Z-3.83776
X-12.52565 Y0.15808 Z-3.84335
X-12.53663 Y0.18785 Z-3.84895
X-12.54948 Y0.21686 Z-3.85454
X-12.56414 Y0.24499 Z-3.86014
X-12.58055 Y0.27215 Z-3.86573
X-12.59866 Y0.2982 Z-3.87133
X-12.61838 Y0.32305 Z-3.87692
X-12.63964 Y0.34661 Z-3.88252
X-12.66235 Y0.36877 Z-3.88811
X-12.68641 Y0.38944 Z-3.89371
X-12.71175 Y0.40854 Z-3.8993
X-12.73824 Y0.426 Z-3.90489
X-12.76578 Y0.44175 Z-3.91049
X-12.79427 Y0.45571 Z-3.91608
X-12.82359 Y0.46784 Z-3.92168
X-12.85362 Y0.47809 Z-3.92727
X-12.88423 Y0.48641 Z-3.93287
X-12.91532 Y0.49277 Z-3.93846
X-12.94674 Y0.49715 Z-3.94406
X-12.97838 Y0.49953 Z-3.94965
X-13.01011 Y0.4999 Z-3.95524
X-13.04179 Y0.49825 Z-3.96084
X-13.07331 Y0.49459 Z-3.96643
X-13.10453 Y0.48895 Z-3.97203
X-13.13533 Y0.48134 Z-3.97762
X-13.16559 Y0.47178 Z-3.98322
X-13.19518 Y0.46033 Z-3.98881
X-13.22398 Y0.44703 Z-3.99441
X-13.25188 Y0.43192 Z-4.
X-13.5 Y-0.00217 F480.
X-13.24812 Y-0.4341
X-12.74812 Y-0.43192
X-12.50001 Y0.00217
X-12.75189 Y0.43409
X-13.25188 Y0.43192
G0 Z1.
X-4.76095 Y-7.63386
G1 Z0.27 F120.
X-4.44066 Y-7.82789 Z0.20397 F360.
X-3.98264 Y-8.07048 Z0.11258
X-3.5114 Y-8.28629 Z0.02119
X-3.02853 Y-8.47462 Z-0.0702
X-2.53561 Y-8.63484 Z-0.16159
X-2.03429 Y-8.76642 Z-0.25298
X-1.52622 Y-8.86893 Z-0.34437
X-1.0131 Y-8.94201 Z-0.43577
X-0.49662 Y-8.98544 Z-0.52716
X0.0215 Y-8.99906 Z-0.61855
X0.53955 Y-8.98283 Z-0.70994
X1.05581 Y-8.93681 Z-0.80133
X1.56855 Y-8.86114 Z-0.89272
X2.0761 Y-8.75608 Z-0.98411
X2.57675 Y-8.62198 Z-1.0755
X3.06885 Y-8.45928 Z-1.16689
X3.55078 Y-8.26852 Z-1.25828
X4.02092 Y-8.05034 Z-1.34967
X4.47772 Y-7.80545 Z-1.44106
X4.91967 Y-7.53468 Z-1.53245
X5.34529 Y-7.23891 Z-1.62384
X5.75319 Y-6.91912 Z-1.71523
X6.14199 Y-6.57639 Z-1.80662
X6.51043 Y-6.21185 Z-1.89802
X6.85727 Y-5.8267 Z-1.98941
X7.18136 Y-5.42222 Z-2.0808
X7.48163 Y-4.99976 Z-2.17219
X7.75708 Y-4.56071 Z-2.26358
X8.0068 Y-4.10653 Z-2.35497
X8.22996 Y-3.63873 Z-2.44636
X8.42582 Y-3.15886 Z-2.53775
X8.59373 Y-2.66851 Z-2.62914
X8.73314 Y-2.16931 Z-2.72053
X8.84357 Y-1.66291 Z-2.81192
X8.92467 Y-1.15099 Z-2.90331
X8.97617 Y-0.63525 Z-2.9947
X8.9979 Y-0.11741 Z-3.08609
X8.98977 Y0.40083 Z-3.17748
X8.95183 Y0.91774 Z-3.26888
X8.88419 Y1.43161 Z-3.36026
X8.78709 Y1.94074 Z-3.45166
X8.66083 Y2.44343 Z-3.54305
X8.50585 Y2.93802 Z-3.63444
X8.32266 Y3.42286 Z-3.72583
X8.11185 Y3.89636 Z-3.81722
X7.87414 Y4.35693 Z-3.90861
X7.61031 Y4.80306 Z-4.
G17
G03 X7.61017 Y4.80328 I-7.61142 J-4.80232 F480.
X3.72618 Y8.19241 I-7.60538 J-4.79576
G1 X3.72595 Y8.19252
G03 X7.61031 Y4.80306 I-3.72709 J-8.19179
G0 Z1.
(2 1/2 Axis Profiling-1)
(SlotDrill 2mm Carbide)
X-9.37354 Y14.1737
G1 Z0.27 F120.
X-9.16368 Y14.31727 Z0.22516 F360.
X-8.26939 Y14.85175 Z0.04146
X-7.34405 Y15.33045 Z-0.14224
X-6.39112 Y15.75156 Z-0.32594
X-5.41418 Y16.11351 Z-0.50965
X-4.41691 Y16.41494 Z-0.69335
X-3.40305 Y16.65471 Z-0.87705
X-2.3764 Y16.83193 Z-1.06076
X-1.34082 Y16.94592 Z-1.24446
X-0.30021 Y16.99627 Z-1.42816
X0.74153 Y16.98278 Z-1.61186
X1.78049 Y16.9055 Z-1.79557
X2.81277 Y16.76473 Z-1.97927
X3.83448 Y16.56098 Z-2.16297
X4.8418 Y16.29504 Z-2.34667
X5.83093 Y15.96789 Z-2.53038
X6.79817 Y15.58076 Z-2.71408
X7.73987 Y15.13512 Z-2.89778
X8.65251 Y14.63262 Z-3.08149
X9.53265 Y14.07517 Z-3.26519
X10.377 Y13.46484 Z-3.44889
X11.18237 Y12.80394 Z-3.63259
X11.94575 Y12.09495 Z-3.8163
X12.66426 Y11.34053 Z-4.
G02 X14.79308 Y8.37644 I-12.64646 J-11.32921 F480.
X12.66426 Y11.34053 I-14.79244 J-8.37745
G0 Z1.
M30
%
