%
G17 G21 G40 G90 G64 P0.1
(2 1/2 Axis Profiling)
(SlotDrill 1/8in 3.175mm Carbide Aluminium Cut)
T6 M06
S23960 M3
G0 Z1.5875
X-0.24995 Y162.03027
G1 Z0.2 F1198.
X-0.11129 Y162.07879 Z0.1741 F3594.
X0.24196 Y162.11859 Z0.11142
X3.17378 Z-0.40554
X3.52703 Y162.07879 Z-0.46823
X3.86257 Y161.96138 Z-0.53091
X4.16357 Y161.77225 Z-0.59359
X4.41494 Y161.52088 Z-0.65627
X4.60407 Y161.21988 Z-0.71895
X4.72148 Y160.88434 Z-0.78164
X4.76128 Y160.53109 Z-0.84432
Y156.61859 Z-1.5342
X10.23862 Z-2.5
X22.65396 F4792.
X22.65446 Y156.61909
Y160.53109
G17
G02 X24.24196 Y162.11859 I1.5875 J0.
G1 X28.24196
G02 X29.36449 Y161.65362 I0. J-1.5875
G1 X31.36449 Y159.65362
G02 X31.82946 Y158.53109 I-1.12253 J-1.12253
G1 Y128.53109
G02 X30.24196 Y126.94359 I-1.5875 J0.
G1 X20.24529
G02 X18.65779 Y128.53085 I0. J1.5875
G1 X18.6547 Y148.94359
X0.24196
G02 X-1.34554 Y150.53109 I0. J1.5875
G1 Y160.53109
G02 X0.24196 Y162.11859 I1.5875 J0.
G1 X3.17378
G02 X4.76128 Y160.53109 I0. J-1.5875
G1 Y156.61859
X10.23862
G0 Z1.5875
X37.75005 Y162.03027
G1 Z0.2 F1198.
X37.88871 Y162.07879 Z0.1741 F3594.
X38.24196 Y162.11859 Z0.11142
X41.17378 Z-0.40554
X41.52703 Y162.07879 Z-0.46823
X41.86257 Y161.96138 Z-0.53091
X42.16357 Y161.77225 Z-0.59359
X42.41494 Y161.52088 Z-0.65627
X42.60407 Y161.21988 Z-0.71895
X42.72148 Y160.88434 Z-0.78164
X42.76128 Y160.53109 Z-0.84432
Y156.61859 Z-1.5342
X48.23862 Z-2.5
X60.65396 F4792.
X60.65446 Y156.61909
Y160.53109
G02 X62.24196 Y162.11859 I1.5875 J0.
G1 X66.24196
G02 X67.36449 Y161.65362 I0. J-1.5875
G1 X69.36449 Y159.65362
G02 X69.82946 Y158.53109 I-1.12253 J-1.12253
G1 Y128.53109
G02 X68.24196 Y126.94359 I-1.5875 J0.
G1 X58.24529
G02 X56.65779 Y128.53085 I0. J1.5875
G1 X56.6547 Y148.94359
X38.24196
G02 X36.65446 Y150.53109 I0. J1.5875
G1 Y160.53109
G02 X38.24196 Y162.11859 I1.5875 J0.
G1 X41.17378
G02 X42.76128 Y160.53109 I0. J-1.5875
G1 Y156.61859
X48.23862
G0 Z1.5875
X75.75005 Y162.03027
G1 Z0.2 F1198.
X75.88871 Y162.07879 Z0.1741 F3594.
X76.24196 Y162.11859 Z0.11142
X79.17378 Z-0.40554
X79.52703 Y162.07879 Z-0.46823
X79.86257 Y161.96138 Z-0.53091
X80.16357 Y161.77225 Z-0.59359
X80.41494 Y161.52088 Z-0.65627
X80.60407 Y161.21988 Z-0.71895
X80.72148 Y160.88434 Z-0.78164
X80.76128 Y160.53109 Z-0.84432
Y156.61859 Z-1.5342
X86.23862 Z-2.5
X98.65396 F4792.
X98.65446 Y156.61909
Y160.53109
G02 X100.24196 Y162.11859 I1.5875 J0.
G1 X104.24196
G02 X105.36449 Y161.65362 I0. J-1.5875
G1 X107.36449 Y159.65362
G02 X107.82946 Y158.53109 I-1.12253 J-1.12253
G1 Y128.53109
G02 X106.24196 Y126.94359 I-1.5875 J0.
G1 X96.24529
G02 X94.65779 Y128.53085 I0. J1.5875
G1 X94.6547 Y148.94359
X76.24196
G02 X74.65446 Y150.53109 I0. J1.5875
G1 Y160.53109
G02 X76.24196 Y162.11859 I1.5875 J0.
G1 X79.17378
G02 X80.76128 Y160.53109 I0. J-1.5875
G1 Y156.61859
X86.23862
G0 Z1.5875
X106.73386 Y110.50082
G1 Z0.2 F1198.
X106.59521 Y110.4523 Z0.1741 F3594.
X106.24196 Y110.4125 Z0.11142
X103.31014 Z-0.40554
X102.95689 Y110.4523 Z-0.46823
X102.62135 Y110.56971 Z-0.53091
X102.32035 Y110.75884 Z-0.59359
X102.06898 Y111.01021 Z-0.65627
X101.87985 Y111.31121 Z-0.71895
X101.76244 Y111.64675 Z-0.78164
X101.72264 Y112. Z-0.84432
Y115.9125 Z-1.5342
X96.24529 Z-2.5
X83.82996 F4792.
X83.82946 Y115.912
Y112.
G02 X82.24196 Y110.4125 I-1.5875 J0.
G1 X78.24196
G02 X77.11943 Y110.87747 I0. J1.5875
G1 X75.11943 Y112.87747
G02 X74.65446 Y114. I1.12253 J1.12253
G1 Y144.
G02 X76.24196 Y145.5875 I1.5875 J0.
G1 X86.23862
G02 X87.82612 Y144.00024 I0. J-1.5875
G1 X87.82922 Y123.5875
X106.24196
G02 X107.82946 Y122. I0. J-1.5875
G1 Y112.
G02 X106.24196 Y110.4125 I-1.5875 J0.
G1 X103.31014
G02 X101.72264 Y112. I0. J1.5875
G1 Y115.9125
X96.24529
G0 Z1.5875
X75.75005 Y106.03027
G1 Z0.2 F1198.
X75.88871 Y106.07879 Z0.1741 F3594.
X76.24196 Y106.11859 Z0.11142
X79.17378 Z-0.40554
X79.52703 Y106.07879 Z-0.46823
X79.86257 Y105.96138 Z-0.53091
X80.16357 Y105.77225 Z-0.59359
X80.41494 Y105.52088 Z-0.65627
X80.60407 Y105.21988 Z-0.71895
X80.72148 Y104.88434 Z-0.78164
X80.76128 Y104.53109 Z-0.84432
Y100.61859 Z-1.5342
X86.23862 Z-2.5
X98.65396 F4792.
X98.65446 Y100.61909
Y104.53109
G02 X100.24196 Y106.11859 I1.5875 J0.
G1 X104.24196
G02 X105.36449 Y105.65362 I0. J-1.5875
G1 X107.36449 Y103.65362
G02 X107.82946 Y102.53109 I-1.12253 J-1.12253
G1 Y72.53109
G02 X106.24196 Y70.94359 I-1.5875 J0.
G1 X96.24529
G02 X94.65779 Y72.53085 I0. J1.5875
G1 X94.6547 Y92.94359
X76.24196
G02 X74.65446 Y94.53109 I0. J1.5875
G1 Y104.53109
G02 X76.24196 Y106.11859 I1.5875 J0.
G1 X79.17378
G02 X80.76128 Y104.53109 I0. J-1.5875
G1 Y100.61859
X86.23862
G0 Z1.5875
X68.73386 Y110.50082
G1 Z0.2 F1198.
X68.59521 Y110.4523 Z0.1741 F3594.
X68.24196 Y110.4125 Z0.11142
X65.31014 Z-0.40554
X64.95689 Y110.4523 Z-0.46823
X64.62135 Y110.56971 Z-0.53091
X64.32035 Y110.75884 Z-0.59359
X64.06898 Y111.01021 Z-0.65627
X63.87985 Y111.31121 Z-0.71895
X63.76244 Y111.64675 Z-0.78164
X63.72264 Y112. Z-0.84432
Y115.9125 Z-1.5342
X58.24529 Z-2.5
X45.82996 F4792.
X45.82946 Y115.912
Y112.
G02 X44.24196 Y110.4125 I-1.5875 J0.
G1 X40.24196
G02 X39.11943 Y110.87747 I0. J1.5875
G1 X37.11943 Y112.87747
G02 X36.65446 Y114. I1.12253 J1.12253
G1 Y144.
G02 X38.24196 Y145.5875 I1.5875 J0.
G1 X48.23862
G02 X49.82612 Y144.00024 I0. J-1.5875
G1 X49.82922 Y123.5875
X68.24196
G02 X69.82946 Y122. I0. J-1.5875
G1 Y112.
G02 X68.24196 Y110.4125 I-1.5875 J0.
G1 X65.31014
G02 X63.72264 Y112. I0. J1.5875
G1 Y115.9125
X58.24529
G0 Z1.5875
X37.75005 Y106.03027
G1 Z0.2 F1198.
X37.88871 Y106.07879 Z0.1741 F3594.
X38.24196 Y106.11859 Z0.11142
X41.17378 Z-0.40554
X41.52703 Y106.07879 Z-0.46823
X41.86257 Y105.96138 Z-0.53091
X42.16357 Y105.77225 Z-0.59359
X42.41494 Y105.52088 Z-0.65627
X42.60407 Y105.21988 Z-0.71895
X42.72148 Y104.88434 Z-0.78164
X42.76128 Y104.53109 Z-0.84432
Y100.61859 Z-1.5342
X48.23862 Z-2.5
X60.65396 F4792.
X60.65446 Y100.61909
Y104.53109
G02 X62.24196 Y106.11859 I1.5875 J0.
G1 X66.24196
G02 X67.36449 Y105.65362 I0. J-1.5875
G1 X69.36449 Y103.65362
G02 X69.82946 Y102.53109 I-1.12253 J-1.12253
G1 Y72.53109
G02 X68.24196 Y70.94359 I-1.5875 J0.
G1 X58.24529
G02 X56.65779 Y72.53085 I0. J1.5875
G1 X56.6547 Y92.94359
X38.24196
G02 X36.65446 Y94.53109 I0. J1.5875
G1 Y104.53109
G02 X38.24196 Y106.11859 I1.5875 J0.
G1 X41.17378
G02 X42.76128 Y104.53109 I0. J-1.5875
G1 Y100.61859
X48.23862
G0 Z1.5875
X30.73386 Y110.50082
G1 Z0.2 F1198.
X30.59521 Y110.4523 Z0.1741 F3594.
X30.24196 Y110.4125 Z0.11142
X27.31014 Z-0.40554
X26.95689 Y110.4523 Z-0.46823
X26.62135 Y110.56971 Z-0.53091
X26.32035 Y110.75884 Z-0.59359
X26.06898 Y111.01021 Z-0.65627
X25.87985 Y111.31121 Z-0.71895
X25.76244 Y111.64675 Z-0.78164
X25.72264 Y112. Z-0.84432
Y115.9125 Z-1.5342
X20.24529 Z-2.5
X7.82996 F4792.
X7.82946 Y115.912
Y112.
G02 X6.24196 Y110.4125 I-1.5875 J0.
G1 X2.24196
G02 X1.11943 Y110.87747 I0. J1.5875
G1 X-0.88057 Y112.87747
G02 X-1.34554 Y114. I1.12253 J1.12253
G1 Y144.
G02 X0.24196 Y145.5875 I1.5875 J0.
G1 X10.23862
G02 X11.82612 Y144.00024 I0. J-1.5875
G1 X11.82922 Y123.5875
X30.24196
G02 X31.82946 Y122. I0. J-1.5875
G1 Y112.
G02 X30.24196 Y110.4125 I-1.5875 J0.
G1 X27.31014
G02 X25.72264 Y112. I0. J1.5875
G1 Y115.9125
X20.24529
G0 Z1.5875
X-0.24995 Y106.03027
G1 Z0.2 F1198.
X-0.11129 Y106.07879 Z0.1741 F3594.
X0.24196 Y106.11859 Z0.11142
X3.17378 Z-0.40554
X3.52703 Y106.07879 Z-0.46823
X3.86257 Y105.96138 Z-0.53091
X4.16357 Y105.77225 Z-0.59359
X4.41494 Y105.52088 Z-0.65627
X4.60407 Y105.21988 Z-0.71895
X4.72148 Y104.88434 Z-0.78164
X4.76128 Y104.53109 Z-0.84432
Y100.61859 Z-1.5342
X10.23862 Z-2.5
X22.65396 F4792.
X22.65446 Y100.61909
Y104.53109
G02 X24.24196 Y106.11859 I1.5875 J0.
G1 X28.24196
G02 X29.36449 Y105.65362 I0. J-1.5875
G1 X31.36449 Y103.65362
G02 X31.82946 Y102.53109 I-1.12253 J-1.12253
G1 Y72.53109
G02 X30.24196 Y70.94359 I-1.5875 J0.
G1 X20.24529
G02 X18.65779 Y72.53085 I0. J1.5875
G1 X18.6547 Y92.94359
X0.24196
G02 X-1.34554 Y94.53109 I0. J1.5875
G1 Y104.53109
G02 X0.24196 Y106.11859 I1.5875 J0.
G1 X3.17378
G02 X4.76128 Y104.53109 I0. J-1.5875
G1 Y100.61859
X10.23862
G0 Z1.5875
X30.73386 Y54.50082
G1 Z0.2 F1198.
X30.59521 Y54.4523 Z0.1741 F3594.
X30.24196 Y54.4125 Z0.11142
X27.31014 Z-0.40554
X26.95689 Y54.4523 Z-0.46823
X26.62135 Y54.56971 Z-0.53091
X26.32035 Y54.75884 Z-0.59359
X26.06898 Y55.01021 Z-0.65627
X25.87985 Y55.31121 Z-0.71895
X25.76244 Y55.64675 Z-0.78164
X25.72264 Y56. Z-0.84432
Y59.9125 Z-1.5342
X20.24529 Z-2.5
X7.82996 F4792.
X7.82946 Y59.912
Y56.
G02 X6.24196 Y54.4125 I-1.5875 J0.
G1 X2.24196
G02 X1.11943 Y54.87747 I0. J1.5875
G1 X-0.88057 Y56.87747
G02 X-1.34554 Y58. I1.12253 J1.12253
G1 Y88.
G02 X0.24196 Y89.5875 I1.5875 J0.
G1 X10.23862
G02 X11.82612 Y88.00024 I0. J-1.5875
G1 X11.82922 Y67.5875
X30.24196
G02 X31.82946 Y66. I0. J-1.5875
G1 Y56.
G02 X30.24196 Y54.4125 I-1.5875 J0.
G1 X27.31014
G02 X25.72264 Y56. I0. J1.5875
G1 Y59.9125
X20.24529
G0 Z1.5875
X-0.24995 Y50.03027
G1 Z0.2 F1198.
X-0.11129 Y50.07879 Z0.1741 F3594.
X0.24196 Y50.11859 Z0.11142
X3.17378 Z-0.40554
X3.52703 Y50.07879 Z-0.46823
X3.86257 Y49.96138 Z-0.53091
X4.16357 Y49.77225 Z-0.59359
X4.41494 Y49.52088 Z-0.65627
X4.60407 Y49.21988 Z-0.71895
X4.72148 Y48.88434 Z-0.78164
X4.76128 Y48.53109 Z-0.84432
Y44.61859 Z-1.5342
X10.23862 Z-2.5
X22.65396 F4792.
X22.65446 Y44.61909
Y48.53109
G02 X24.24196 Y50.11859 I1.5875 J0.
G1 X28.24196
G02 X29.36449 Y49.65362 I0. J-1.5875
G1 X31.36449 Y47.65362
G02 X31.82946 Y46.53109 I-1.12253 J-1.12253
G1 Y16.53109
G02 X30.24196 Y14.94359 I-1.5875 J0.
G1 X20.24529
G02 X18.65779 Y16.53085 I0. J1.5875
G1 X18.6547 Y36.94359
X0.24196
G02 X-1.34554 Y38.53109 I0. J1.5875
G1 Y48.53109
G02 X0.24196 Y50.11859 I1.5875 J0.
G1 X3.17378
G02 X4.76128 Y48.53109 I0. J-1.5875
G1 Y44.61859
X10.23862
G0 Z1.5875
X37.75005 Y50.03027
G1 Z0.2 F1198.
X37.88871 Y50.07879 Z0.1741 F3594.
X38.24196 Y50.11859 Z0.11142
X41.17378 Z-0.40554
X41.52703 Y50.07879 Z-0.46823
X41.86257 Y49.96138 Z-0.53091
X42.16357 Y49.77225 Z-0.59359
X42.41494 Y49.52088 Z-0.65627
X42.60407 Y49.21988 Z-0.71895
X42.72148 Y48.88434 Z-0.78164
X42.76128 Y48.53109 Z-0.84432
Y44.61859 Z-1.5342
X48.23862 Z-2.5
X60.65396 F4792.
X60.65446 Y44.61909
Y48.53109
G02 X62.24196 Y50.11859 I1.5875 J0.
G1 X66.24196
G02 X67.36449 Y49.65362 I0. J-1.5875
G1 X69.36449 Y47.65362
G02 X69.82946 Y46.53109 I-1.12253 J-1.12253
G1 Y16.53109
G02 X68.24196 Y14.94359 I-1.5875 J0.
G1 X58.24529
G02 X56.65779 Y16.53085 I0. J1.5875
G1 X56.6547 Y36.94359
X38.24196
G02 X36.65446 Y38.53109 I0. J1.5875
G1 Y48.53109
G02 X38.24196 Y50.11859 I1.5875 J0.
G1 X41.17378
G02 X42.76128 Y48.53109 I0. J-1.5875
G1 Y44.61859
X48.23862
G0 Z1.5875
X68.73386 Y54.50082
G1 Z0.2 F1198.
X68.59521 Y54.4523 Z0.1741 F3594.
X68.24196 Y54.4125 Z0.11142
X65.31014 Z-0.40554
X64.95689 Y54.4523 Z-0.46823
X64.62135 Y54.56971 Z-0.53091
X64.32035 Y54.75884 Z-0.59359
X64.06898 Y55.01021 Z-0.65627
X63.87985 Y55.31121 Z-0.71895
X63.76244 Y55.64675 Z-0.78164
X63.72264 Y56. Z-0.84432
Y59.9125 Z-1.5342
X58.24529 Z-2.5
X45.82996 F4792.
X45.82946 Y59.912
Y56.
G02 X44.24196 Y54.4125 I-1.5875 J0.
G1 X40.24196
G02 X39.11943 Y54.87747 I0. J1.5875
G1 X37.11943 Y56.87747
G02 X36.65446 Y58. I1.12253 J1.12253
G1 Y88.
G02 X38.24196 Y89.5875 I1.5875 J0.
G1 X48.23862
G02 X49.82612 Y88.00024 I0. J-1.5875
G1 X49.82922 Y67.5875
X68.24196
G02 X69.82946 Y66. I0. J-1.5875
G1 Y56.
G02 X68.24196 Y54.4125 I-1.5875 J0.
G1 X65.31014
G02 X63.72264 Y56. I0. J1.5875
G1 Y59.9125
X58.24529
G0 Z1.5875
X75.75005 Y50.03027
G1 Z0.2 F1198.
X75.88871 Y50.07879 Z0.1741 F3594.
X76.24196 Y50.11859 Z0.11142
X79.17378 Z-0.40554
X79.52703 Y50.07879 Z-0.46823
X79.86257 Y49.96138 Z-0.53091
X80.16357 Y49.77225 Z-0.59359
X80.41494 Y49.52088 Z-0.65627
X80.60407 Y49.21988 Z-0.71895
X80.72148 Y48.88434 Z-0.78164
X80.76128 Y48.53109 Z-0.84432
Y44.61859 Z-1.5342
X86.23862 Z-2.5
X98.65396 F4792.
X98.65446 Y44.61909
Y48.53109
G02 X100.24196 Y50.11859 I1.5875 J0.
G1 X104.24196
G02 X105.36449 Y49.65362 I0. J-1.5875
G1 X107.36449 Y47.65362
G02 X107.82946 Y46.53109 I-1.12253 J-1.12253
G1 Y16.53109
G02 X106.24196 Y14.94359 I-1.5875 J0.
G1 X96.24529
G02 X94.65779 Y16.53085 I0. J1.5875
G1 X94.6547 Y36.94359
X76.24196
G02 X74.65446 Y38.53109 I0. J1.5875
G1 Y48.53109
G02 X76.24196 Y50.11859 I1.5875 J0.
G1 X79.17378
G02 X80.76128 Y48.53109 I0. J-1.5875
G1 Y44.61859
X86.23862
G0 Z1.5875
X106.73386 Y54.50082
G1 Z0.2 F1198.
X106.59521 Y54.4523 Z0.1741 F3594.
X106.24196 Y54.4125 Z0.11142
X103.31014 Z-0.40554
X102.95689 Y54.4523 Z-0.46823
X102.62135 Y54.56971 Z-0.53091
X102.32035 Y54.75884 Z-0.59359
X102.06898 Y55.01021 Z-0.65627
X101.87985 Y55.31121 Z-0.71895
X101.76244 Y55.64675 Z-0.78164
X101.72264 Y56. Z-0.84432
Y59.9125 Z-1.5342
X96.24529 Z-2.5
X83.82996 F4792.
X83.82946 Y59.912
Y56.
G02 X82.24196 Y54.4125 I-1.5875 J0.
G1 X78.24196
G02 X77.11943 Y54.87747 I0. J1.5875
G1 X75.11943 Y56.87747
G02 X74.65446 Y58. I1.12253 J1.12253
G1 Y88.
G02 X76.24196 Y89.5875 I1.5875 J0.
G1 X86.23862
G02 X87.82612 Y88.00024 I0. J-1.5875
G1 X87.82922 Y67.5875
X106.24196
G02 X107.82946 Y66. I0. J-1.5875
G1 Y56.
G02 X106.24196 Y54.4125 I-1.5875 J0.
G1 X103.31014
G02 X101.72264 Y56. I0. J1.5875
G1 Y59.9125
X96.24529
G0 Z1.5875
X106.73386 Y-1.49918
G1 Z0.2 F1198.
X106.59521 Y-1.5477 Z0.1741 F3594.
X106.24196 Y-1.5875 Z0.11142
X103.31014 Z-0.40554
X102.95689 Y-1.5477 Z-0.46823
X102.62135 Y-1.43029 Z-0.53091
X102.32035 Y-1.24116 Z-0.59359
X102.06898 Y-0.98979 Z-0.65627
X101.87985 Y-0.68879 Z-0.71895
X101.76244 Y-0.35325 Z-0.78164
X101.72264 Y0. Z-0.84432
Y3.9125 Z-1.5342
X96.24529 Z-2.5
X83.82996 F4792.
X83.82946 Y3.912
Y0.
G02 X82.24196 Y-1.5875 I-1.5875 J0.
G1 X78.24196
G02 X77.11943 Y-1.12253 I0. J1.5875
G1 X75.11943 Y0.87747
G02 X74.65446 Y2. I1.12253 J1.12253
G1 Y32.
G02 X76.24196 Y33.5875 I1.5875 J0.
G1 X86.23862
G02 X87.82612 Y32.00024 I0. J-1.5875
G1 X87.82922 Y11.5875
X106.24196
G02 X107.82946 Y10. I0. J-1.5875
G1 Y0.
G02 X106.24196 Y-1.5875 I-1.5875 J0.
G1 X103.31014
G02 X101.72264 Y0. I0. J1.5875
G1 Y3.9125
X96.24529
G0 Z1.5875
X68.73386 Y-1.49918
G1 Z0.2 F1198.
X68.59521 Y-1.5477 Z0.1741 F3594.
X68.24196 Y-1.5875 Z0.11142
X65.31014 Z-0.40554
X64.95689 Y-1.5477 Z-0.46823
X64.62135 Y-1.43029 Z-0.53091
X64.32035 Y-1.24116 Z-0.59359
X64.06898 Y-0.98979 Z-0.65627
X63.87985 Y-0.68879 Z-0.71895
X63.76244 Y-0.35325 Z-0.78164
X63.72264 Y0. Z-0.84432
Y3.9125 Z-1.5342
X58.24529 Z-2.5
X45.82996 F4792.
X45.82946 Y3.912
Y0.
G02 X44.24196 Y-1.5875 I-1.5875 J0.
G1 X40.24196
G02 X39.11943 Y-1.12253 I0. J1.5875
G1 X37.11943 Y0.87747
G02 X36.65446 Y2. I1.12253 J1.12253
G1 Y32.
G02 X38.24196 Y33.5875 I1.5875 J0.
G1 X48.23862
G02 X49.82612 Y32.00024 I0. J-1.5875
G1 X49.82922 Y11.5875
X68.24196
G02 X69.82946 Y10. I0. J-1.5875
G1 Y0.
G02 X68.24196 Y-1.5875 I-1.5875 J0.
G1 X65.31014
G02 X63.72264 Y0. I0. J1.5875
G1 Y3.9125
X58.24529
G0 Z1.5875
X30.73386 Y-1.49918
G1 Z0.2 F1198.
X30.59521 Y-1.5477 Z0.1741 F3594.
X30.24196 Y-1.5875 Z0.11142
X27.31014 Z-0.40554
X26.95689 Y-1.5477 Z-0.46823
X26.62135 Y-1.43029 Z-0.53091
X26.32035 Y-1.24116 Z-0.59359
X26.06898 Y-0.98979 Z-0.65627
X25.87985 Y-0.68879 Z-0.71895
X25.76244 Y-0.35325 Z-0.78164
X25.72264 Y0. Z-0.84432
Y3.9125 Z-1.5342
X20.24529 Z-2.5
X7.82996 F4792.
X7.82946 Y3.912
Y0.
G02 X6.24196 Y-1.5875 I-1.5875 J0.
G1 X2.24196
G02 X1.11943 Y-1.12253 I0. J1.5875
G1 X-0.88057 Y0.87747
G02 X-1.34554 Y2. I1.12253 J1.12253
G1 Y32.
G02 X0.24196 Y33.5875 I1.5875 J0.
G1 X10.23862
G02 X11.82612 Y32.00024 I0. J-1.5875
G1 X11.82922 Y11.5875
X30.24196
G02 X31.82946 Y10. I0. J-1.5875
G1 Y0.
G02 X30.24196 Y-1.5875 I-1.5875 J0.
G1 X27.31014
G02 X25.72264 Y0. I0. J1.5875
G1 Y3.9125
X20.24529
G0 Z1.5875
X30.73386 Y-1.49918
G1 Z-2.3 F1198.
X30.59521 Y-1.5477 Z-2.3259 F3594.
X30.24196 Y-1.5875 Z-2.38858
X27.31014 Z-2.90554
X26.95689 Y-1.5477 Z-2.96823
X26.62135 Y-1.43029 Z-3.03091
X26.32035 Y-1.24116 Z-3.09359
X26.06898 Y-0.98979 Z-3.15627
X25.87985 Y-0.68879 Z-3.21895
X25.76244 Y-0.35325 Z-3.28164
X25.72264 Y0. Z-3.34432
Y3.9125 Z-4.0342
X20.24529 Z-5.
X7.82996 F4792.
X7.82946 Y3.912
Y0.
G02 X6.24196 Y-1.5875 I-1.5875 J0.
G1 X2.24196
G02 X1.11943 Y-1.12253 I0. J1.5875
G1 X-0.88057 Y0.87747
G02 X-1.34554 Y2. I1.12253 J1.12253
G1 Y32.
G02 X0.24196 Y33.5875 I1.5875 J0.
G1 X10.23862
G02 X11.82612 Y32.00024 I0. J-1.5875
G1 X11.82922 Y11.5875
X30.24196
G02 X31.82946 Y10. I0. J-1.5875
G1 Y0.
G02 X30.24196 Y-1.5875 I-1.5875 J0.
G1 X27.31014
G02 X25.72264 Y0. I0. J1.5875
G1 Y3.9125
X20.24529
G0 Z1.5875
X68.73386 Y-1.49918
G1 Z-2.3 F1198.
X68.59521 Y-1.5477 Z-2.3259 F3594.
X68.24196 Y-1.5875 Z-2.38858
X65.31014 Z-2.90554
X64.95689 Y-1.5477 Z-2.96823
X64.62135 Y-1.43029 Z-3.03091
X64.32035 Y-1.24116 Z-3.09359
X64.06898 Y-0.98979 Z-3.15627
X63.87985 Y-0.68879 Z-3.21895
X63.76244 Y-0.35325 Z-3.28164
X63.72264 Y0. Z-3.34432
Y3.9125 Z-4.0342
X58.24529 Z-5.
X45.82996 F4792.
X45.82946 Y3.912
Y0.
G02 X44.24196 Y-1.5875 I-1.5875 J0.
G1 X40.24196
G02 X39.11943 Y-1.12253 I0. J1.5875
G1 X37.11943 Y0.87747
G02 X36.65446 Y2. I1.12253 J1.12253
G1 Y32.
G02 X38.24196 Y33.5875 I1.5875 J0.
G1 X48.23862
G02 X49.82612 Y32.00024 I0. J-1.5875
G1 X49.82922 Y11.5875
X68.24196
G02 X69.82946 Y10. I0. J-1.5875
G1 Y0.
G02 X68.24196 Y-1.5875 I-1.5875 J0.
G1 X65.31014
G02 X63.72264 Y0. I0. J1.5875
G1 Y3.9125
X58.24529
G0 Z1.5875
X106.73386 Y-1.49918
G1 Z-2.3 F1198.
X106.59521 Y-1.5477 Z-2.3259 F3594.
X106.24196 Y-1.5875 Z-2.38858
X103.31014 Z-2.90554
X102.95689 Y-1.5477 Z-2.96823
X102.62135 Y-1.43029 Z-3.03091
X102.32035 Y-1.24116 Z-3.09359
X102.06898 Y-0.98979 Z-3.15627
X101.87985 Y-0.68879 Z-3.21895
X101.76244 Y-0.35325 Z-3.28164
X101.72264 Y0. Z-3.34432
Y3.9125 Z-4.0342
X96.24529 Z-5.
X83.82996 F4792.
X83.82946 Y3.912
Y0.
G02 X82.24196 Y-1.5875 I-1.5875 J0.
G1 X78.24196
G02 X77.11943 Y-1.12253 I0. J1.5875
G1 X75.11943 Y0.87747
G02 X74.65446 Y2. I1.12253 J1.12253
G1 Y32.
G02 X76.24196 Y33.5875 I1.5875 J0.
G1 X86.23862
G02 X87.82612 Y32.00024 I0. J-1.5875
G1 X87.82922 Y11.5875
X106.24196
G02 X107.82946 Y10. I0. J-1.5875
G1 Y0.
G02 X106.24196 Y-1.5875 I-1.5875 J0.
G1 X103.31014
G02 X101.72264 Y0. I0. J1.5875
G1 Y3.9125
X96.24529
G0 Z1.5875
X106.73386 Y54.50082
G1 Z-2.3 F1198.
X106.59521 Y54.4523 Z-2.3259 F3594.
X106.24196 Y54.4125 Z-2.38858
X103.31014 Z-2.90554
X102.95689 Y54.4523 Z-2.96823
X102.62135 Y54.56971 Z-3.03091
X102.32035 Y54.75884 Z-3.09359
X102.06898 Y55.01021 Z-3.15627
X101.87985 Y55.31121 Z-3.21895
X101.76244 Y55.64675 Z-3.28164
X101.72264 Y56. Z-3.34432
Y59.9125 Z-4.0342
X96.24529 Z-5.
X83.82996 F4792.
X83.82946 Y59.912
Y56.
G02 X82.24196 Y54.4125 I-1.5875 J0.
G1 X78.24196
G02 X77.11943 Y54.87747 I0. J1.5875
G1 X75.11943 Y56.87747
G02 X74.65446 Y58. I1.12253 J1.12253
G1 Y88.
G02 X76.24196 Y89.5875 I1.5875 J0.
G1 X86.23862
G02 X87.82612 Y88.00024 I0. J-1.5875
G1 X87.82922 Y67.5875
X106.24196
G02 X107.82946 Y66. I0. J-1.5875
G1 Y56.
G02 X106.24196 Y54.4125 I-1.5875 J0.
G1 X103.31014
G02 X101.72264 Y56. I0. J1.5875
G1 Y59.9125
X96.24529
G0 Z1.5875
X75.75005 Y50.03027
G1 Z-2.3 F1198.
X75.88871 Y50.07879 Z-2.3259 F3594.
X76.24196 Y50.11859 Z-2.38858
X79.17378 Z-2.90554
X79.52703 Y50.07879 Z-2.96823
X79.86257 Y49.96138 Z-3.03091
X80.16357 Y49.77225 Z-3.09359
X80.41494 Y49.52088 Z-3.15627
X80.60407 Y49.21988 Z-3.21895
X80.72148 Y48.88434 Z-3.28164
X80.76128 Y48.53109 Z-3.34432
Y44.61859 Z-4.0342
X86.23862 Z-5.
X98.65396 F4792.
X98.65446 Y44.61909
Y48.53109
G02 X100.24196 Y50.11859 I1.5875 J0.
G1 X104.24196
G02 X105.36449 Y49.65362 I0. J-1.5875
G1 X107.36449 Y47.65362
G02 X107.82946 Y46.53109 I-1.12253 J-1.12253
G1 Y16.53109
G02 X106.24196 Y14.94359 I-1.5875 J0.
G1 X96.24529
G02 X94.65779 Y16.53085 I0. J1.5875
G1 X94.6547 Y36.94359
X76.24196
G02 X74.65446 Y38.53109 I0. J1.5875
G1 Y48.53109
G02 X76.24196 Y50.11859 I1.5875 J0.
G1 X79.17378
G02 X80.76128 Y48.53109 I0. J-1.5875
G1 Y44.61859
X86.23862
G0 Z1.5875
X68.73386 Y54.50082
G1 Z-2.3 F1198.
X68.59521 Y54.4523 Z-2.3259 F3594.
X68.24196 Y54.4125 Z-2.38858
X65.31014 Z-2.90554
X64.95689 Y54.4523 Z-2.96823
X64.62135 Y54.56971 Z-3.03091
X64.32035 Y54.75884 Z-3.09359
X64.06898 Y55.01021 Z-3.15627
X63.87985 Y55.31121 Z-3.21895
X63.76244 Y55.64675 Z-3.28164
X63.72264 Y56. Z-3.34432
Y59.9125 Z-4.0342
X58.24529 Z-5.
X45.82996 F4792.
X45.82946 Y59.912
Y56.
G02 X44.24196 Y54.4125 I-1.5875 J0.
G1 X40.24196
G02 X39.11943 Y54.87747 I0. J1.5875
G1 X37.11943 Y56.87747
G02 X36.65446 Y58. I1.12253 J1.12253
G1 Y88.
G02 X38.24196 Y89.5875 I1.5875 J0.
G1 X48.23862
G02 X49.82612 Y88.00024 I0. J-1.5875
G1 X49.82922 Y67.5875
X68.24196
G02 X69.82946 Y66. I0. J-1.5875
G1 Y56.
G02 X68.24196 Y54.4125 I-1.5875 J0.
G1 X65.31014
G02 X63.72264 Y56. I0. J1.5875
G1 Y59.9125
X58.24529
G0 Z1.5875
X37.75005 Y50.03027
G1 Z-2.3 F1198.
X37.88871 Y50.07879 Z-2.3259 F3594.
X38.24196 Y50.11859 Z-2.38858
X41.17378 Z-2.90554
X41.52703 Y50.07879 Z-2.96823
X41.86257 Y49.96138 Z-3.03091
X42.16357 Y49.77225 Z-3.09359
X42.41494 Y49.52088 Z-3.15627
X42.60407 Y49.21988 Z-3.21895
X42.72148 Y48.88434 Z-3.28164
X42.76128 Y48.53109 Z-3.34432
Y44.61859 Z-4.0342
X48.23862 Z-5.
X60.65396 F4792.
X60.65446 Y44.61909
Y48.53109
G02 X62.24196 Y50.11859 I1.5875 J0.
G1 X66.24196
G02 X67.36449 Y49.65362 I0. J-1.5875
G1 X69.36449 Y47.65362
G02 X69.82946 Y46.53109 I-1.12253 J-1.12253
G1 Y16.53109
G02 X68.24196 Y14.94359 I-1.5875 J0.
G1 X58.24529
G02 X56.65779 Y16.53085 I0. J1.5875
G1 X56.6547 Y36.94359
X38.24196
G02 X36.65446 Y38.53109 I0. J1.5875
G1 Y48.53109
G02 X38.24196 Y50.11859 I1.5875 J0.
G1 X41.17378
G02 X42.76128 Y48.53109 I0. J-1.5875
G1 Y44.61859
X48.23862
G0 Z1.5875
X-0.24995 Y50.03027
G1 Z-2.3 F1198.
X-0.11129 Y50.07879 Z-2.3259 F3594.
X0.24196 Y50.11859 Z-2.38858
X3.17378 Z-2.90554
X3.52703 Y50.07879 Z-2.96823
X3.86257 Y49.96138 Z-3.03091
X4.16357 Y49.77225 Z-3.09359
X4.41494 Y49.52088 Z-3.15627
X4.60407 Y49.21988 Z-3.21895
X4.72148 Y48.88434 Z-3.28164
X4.76128 Y48.53109 Z-3.34432
Y44.61859 Z-4.0342
X10.23862 Z-5.
X22.65396 F4792.
X22.65446 Y44.61909
Y48.53109
G02 X24.24196 Y50.11859 I1.5875 J0.
G1 X28.24196
G02 X29.36449 Y49.65362 I0. J-1.5875
G1 X31.36449 Y47.65362
G02 X31.82946 Y46.53109 I-1.12253 J-1.12253
G1 Y16.53109
G02 X30.24196 Y14.94359 I-1.5875 J0.
G1 X20.24529
G02 X18.65779 Y16.53085 I0. J1.5875
G1 X18.6547 Y36.94359
X0.24196
G02 X-1.34554 Y38.53109 I0. J1.5875
G1 Y48.53109
G02 X0.24196 Y50.11859 I1.5875 J0.
G1 X3.17378
G02 X4.76128 Y48.53109 I0. J-1.5875
G1 Y44.61859
X10.23862
G0 Z1.5875
X30.73386 Y54.50082
G1 Z-2.3 F1198.
X30.59521 Y54.4523 Z-2.3259 F3594.
X30.24196 Y54.4125 Z-2.38858
X27.31014 Z-2.90554
X26.95689 Y54.4523 Z-2.96823
X26.62135 Y54.56971 Z-3.03091
X26.32035 Y54.75884 Z-3.09359
X26.06898 Y55.01021 Z-3.15627
X25.87985 Y55.31121 Z-3.21895
X25.76244 Y55.64675 Z-3.28164
X25.72264 Y56. Z-3.34432
Y59.9125 Z-4.0342
X20.24529 Z-5.
X7.82996 F4792.
X7.82946 Y59.912
Y56.
G02 X6.24196 Y54.4125 I-1.5875 J0.
G1 X2.24196
G02 X1.11943 Y54.87747 I0. J1.5875
G1 X-0.88057 Y56.87747
G02 X-1.34554 Y58. I1.12253 J1.12253
G1 Y88.
G02 X0.24196 Y89.5875 I1.5875 J0.
G1 X10.23862
G02 X11.82612 Y88.00024 I0. J-1.5875
G1 X11.82922 Y67.5875
X30.24196
G02 X31.82946 Y66. I0. J-1.5875
G1 Y56.
G02 X30.24196 Y54.4125 I-1.5875 J0.
G1 X27.31014
G02 X25.72264 Y56. I0. J1.5875
G1 Y59.9125
X20.24529
G0 Z1.5875
X-0.24995 Y106.03027
G1 Z-2.3 F1198.
X-0.11129 Y106.07879 Z-2.3259 F3594.
X0.24196 Y106.11859 Z-2.38858
X3.17378 Z-2.90554
X3.52703 Y106.07879 Z-2.96823
X3.86257 Y105.96138 Z-3.03091
X4.16357 Y105.77225 Z-3.09359
X4.41494 Y105.52088 Z-3.15627
X4.60407 Y105.21988 Z-3.21895
X4.72148 Y104.88434 Z-3.28164
X4.76128 Y104.53109 Z-3.34432
Y100.61859 Z-4.0342
X10.23862 Z-5.
X22.65396 F4792.
X22.65446 Y100.61909
Y104.53109
G02 X24.24196 Y106.11859 I1.5875 J0.
G1 X28.24196
G02 X29.36449 Y105.65362 I0. J-1.5875
G1 X31.36449 Y103.65362
G02 X31.82946 Y102.53109 I-1.12253 J-1.12253
G1 Y72.53109
G02 X30.24196 Y70.94359 I-1.5875 J0.
G1 X20.24529
G02 X18.65779 Y72.53085 I0. J1.5875
G1 X18.6547 Y92.94359
X0.24196
G02 X-1.34554 Y94.53109 I0. J1.5875
G1 Y104.53109
G02 X0.24196 Y106.11859 I1.5875 J0.
G1 X3.17378
G02 X4.76128 Y104.53109 I0. J-1.5875
G1 Y100.61859
X10.23862
G0 Z1.5875
X30.73386 Y110.50082
G1 Z-2.3 F1198.
X30.59521 Y110.4523 Z-2.3259 F3594.
X30.24196 Y110.4125 Z-2.38858
X27.31014 Z-2.90554
X26.95689 Y110.4523 Z-2.96823
X26.62135 Y110.56971 Z-3.03091
X26.32035 Y110.75884 Z-3.09359
X26.06898 Y111.01021 Z-3.15627
X25.87985 Y111.31121 Z-3.21895
X25.76244 Y111.64675 Z-3.28164
X25.72264 Y112. Z-3.34432
Y115.9125 Z-4.0342
X20.24529 Z-5.
X7.82996 F4792.
X7.82946 Y115.912
Y112.
G02 X6.24196 Y110.4125 I-1.5875 J0.
G1 X2.24196
G02 X1.11943 Y110.87747 I0. J1.5875
G1 X-0.88057 Y112.87747
G02 X-1.34554 Y114. I1.12253 J1.12253
G1 Y144.
G02 X0.24196 Y145.5875 I1.5875 J0.
G1 X10.23862
G02 X11.82612 Y144.00024 I0. J-1.5875
G1 X11.82922 Y123.5875
X30.24196
G02 X31.82946 Y122. I0. J-1.5875
G1 Y112.
G02 X30.24196 Y110.4125 I-1.5875 J0.
G1 X27.31014
G02 X25.72264 Y112. I0. J1.5875
G1 Y115.9125
X20.24529
G0 Z1.5875
X37.75005 Y106.03027
G1 Z-2.3 F1198.
X37.88871 Y106.07879 Z-2.3259 F3594.
X38.24196 Y106.11859 Z-2.38858
X41.17378 Z-2.90554
X41.52703 Y106.07879 Z-2.96823
X41.86257 Y105.96138 Z-3.03091
X42.16357 Y105.77225 Z-3.09359
X42.41494 Y105.52088 Z-3.15627
X42.60407 Y105.21988 Z-3.21895
X42.72148 Y104.88434 Z-3.28164
X42.76128 Y104.53109 Z-3.34432
Y100.61859 Z-4.0342
X48.23862 Z-5.
X60.65396 F4792.
X60.65446 Y100.61909
Y104.53109
G02 X62.24196 Y106.11859 I1.5875 J0.
G1 X66.24196
G02 X67.36449 Y105.65362 I0. J-1.5875
G1 X69.36449 Y103.65362
G02 X69.82946 Y102.53109 I-1.12253 J-1.12253
G1 Y72.53109
G02 X68.24196 Y70.94359 I-1.5875 J0.
G1 X58.24529
G02 X56.65779 Y72.53085 I0. J1.5875
G1 X56.6547 Y92.94359
X38.24196
G02 X36.65446 Y94.53109 I0. J1.5875
G1 Y104.53109
G02 X38.24196 Y106.11859 I1.5875 J0.
G1 X41.17378
G02 X42.76128 Y104.53109 I0. J-1.5875
G1 Y100.61859
X48.23862
G0 Z1.5875
X68.73386 Y110.50082
G1 Z-2.3 F1198.
X68.59521 Y110.4523 Z-2.3259 F3594.
X68.24196 Y110.4125 Z-2.38858
X65.31014 Z-2.90554
X64.95689 Y110.4523 Z-2.96823
X64.62135 Y110.56971 Z-3.03091
X64.32035 Y110.75884 Z-3.09359
X64.06898 Y111.01021 Z-3.15627
X63.87985 Y111.31121 Z-3.21895
X63.76244 Y111.64675 Z-3.28164
X63.72264 Y112. Z-3.34432
Y115.9125 Z-4.0342
X58.24529 Z-5.
X45.82996 F4792.
X45.82946 Y115.912
Y112.
G02 X44.24196 Y110.4125 I-1.5875 J0.
G1 X40.24196
G02 X39.11943 Y110.87747 I0. J1.5875
G1 X37.11943 Y112.87747
G02 X36.65446 Y114. I1.12253 J1.12253
G1 Y144.
G02 X38.24196 Y145.5875 I1.5875 J0.
G1 X48.23862
G02 X49.82612 Y144.00024 I0. J-1.5875
G1 X49.82922 Y123.5875
X68.24196
G02 X69.82946 Y122. I0. J-1.5875
G1 Y112.
G02 X68.24196 Y110.4125 I-1.5875 J0.
G1 X65.31014
G02 X63.72264 Y112. I0. J1.5875
G1 Y115.9125
X58.24529
G0 Z1.5875
X75.75005 Y106.03027
G1 Z-2.3 F1198.
X75.88871 Y106.07879 Z-2.3259 F3594.
X76.24196 Y106.11859 Z-2.38858
X79.17378 Z-2.90554
X79.52703 Y106.07879 Z-2.96823
X79.86257 Y105.96138 Z-3.03091
X80.16357 Y105.77225 Z-3.09359
X80.41494 Y105.52088 Z-3.15627
X80.60407 Y105.21988 Z-3.21895
X80.72148 Y104.88434 Z-3.28164
X80.76128 Y104.53109 Z-3.34432
Y100.61859 Z-4.0342
X86.23862 Z-5.
X98.65396 F4792.
X98.65446 Y100.61909
Y104.53109
G02 X100.24196 Y106.11859 I1.5875 J0.
G1 X104.24196
G02 X105.36449 Y105.65362 I0. J-1.5875
G1 X107.36449 Y103.65362
G02 X107.82946 Y102.53109 I-1.12253 J-1.12253
G1 Y72.53109
G02 X106.24196 Y70.94359 I-1.5875 J0.
G1 X96.24529
G02 X94.65779 Y72.53085 I0. J1.5875
G1 X94.6547 Y92.94359
X76.24196
G02 X74.65446 Y94.53109 I0. J1.5875
G1 Y104.53109
G02 X76.24196 Y106.11859 I1.5875 J0.
G1 X79.17378
G02 X80.76128 Y104.53109 I0. J-1.5875
G1 Y100.61859
X86.23862
G0 Z1.5875
X106.73386 Y110.50082
G1 Z-2.3 F1198.
X106.59521 Y110.4523 Z-2.3259 F3594.
X106.24196 Y110.4125 Z-2.38858
X103.31014 Z-2.90554
X102.95689 Y110.4523 Z-2.96823
X102.62135 Y110.56971 Z-3.03091
X102.32035 Y110.75884 Z-3.09359
X102.06898 Y111.01021 Z-3.15627
X101.87985 Y111.31121 Z-3.21895
X101.76244 Y111.64675 Z-3.28164
X101.72264 Y112. Z-3.34432
Y115.9125 Z-4.0342
X96.24529 Z-5.
X83.82996 F4792.
X83.82946 Y115.912
Y112.
G02 X82.24196 Y110.4125 I-1.5875 J0.
G1 X78.24196
G02 X77.11943 Y110.87747 I0. J1.5875
G1 X75.11943 Y112.87747
G02 X74.65446 Y114. I1.12253 J1.12253
G1 Y144.
G02 X76.24196 Y145.5875 I1.5875 J0.
G1 X86.23862
G02 X87.82612 Y144.00024 I0. J-1.5875
G1 X87.82922 Y123.5875
X106.24196
G02 X107.82946 Y122. I0. J-1.5875
G1 Y112.
G02 X106.24196 Y110.4125 I-1.5875 J0.
G1 X103.31014
G02 X101.72264 Y112. I0. J1.5875
G1 Y115.9125
X96.24529
G0 Z1.5875
X75.75005 Y162.03027
G1 Z-2.3 F1198.
X75.88871 Y162.07879 Z-2.3259 F3594.
X76.24196 Y162.11859 Z-2.38858
X79.17378 Z-2.90554
X79.52703 Y162.07879 Z-2.96823
X79.86257 Y161.96138 Z-3.03091
X80.16357 Y161.77225 Z-3.09359
X80.41494 Y161.52088 Z-3.15627
X80.60407 Y161.21988 Z-3.21895
X80.72148 Y160.88434 Z-3.28164
X80.76128 Y160.53109 Z-3.34432
Y156.61859 Z-4.0342
X86.23862 Z-5.
X98.65396 F4792.
X98.65446 Y156.61909
Y160.53109
G02 X100.24196 Y162.11859 I1.5875 J0.
G1 X104.24196
G02 X105.36449 Y161.65362 I0. J-1.5875
G1 X107.36449 Y159.65362
G02 X107.82946 Y158.53109 I-1.12253 J-1.12253
G1 Y128.53109
G02 X106.24196 Y126.94359 I-1.5875 J0.
G1 X96.24529
G02 X94.65779 Y128.53085 I0. J1.5875
G1 X94.6547 Y148.94359
X76.24196
G02 X74.65446 Y150.53109 I0. J1.5875
G1 Y160.53109
G02 X76.24196 Y162.11859 I1.5875 J0.
G1 X79.17378
G02 X80.76128 Y160.53109 I0. J-1.5875
G1 Y156.61859
X86.23862
G0 Z1.5875
X37.75005 Y162.03027
G1 Z-2.3 F1198.
X37.88871 Y162.07879 Z-2.3259 F3594.
X38.24196 Y162.11859 Z-2.38858
X41.17378 Z-2.90554
X41.52703 Y162.07879 Z-2.96823
X41.86257 Y161.96138 Z-3.03091
X42.16357 Y161.77225 Z-3.09359
X42.41494 Y161.52088 Z-3.15627
X42.60407 Y161.21988 Z-3.21895
X42.72148 Y160.88434 Z-3.28164
X42.76128 Y160.53109 Z-3.34432
Y156.61859 Z-4.0342
X48.23862 Z-5.
X60.65396 F4792.
X60.65446 Y156.61909
Y160.53109
G02 X62.24196 Y162.11859 I1.5875 J0.
G1 X66.24196
G02 X67.36449 Y161.65362 I0. J-1.5875
G1 X69.36449 Y159.65362
G02 X69.82946 Y158.53109 I-1.12253 J-1.12253
G1 Y128.53109
G02 X68.24196 Y126.94359 I-1.5875 J0.
G1 X58.24529
G02 X56.65779 Y128.53085 I0. J1.5875
G1 X56.6547 Y148.94359
X38.24196
G02 X36.65446 Y150.53109 I0. J1.5875
G1 Y160.53109
G02 X38.24196 Y162.11859 I1.5875 J0.
G1 X41.17378
G02 X42.76128 Y160.53109 I0. J-1.5875
G1 Y156.61859
X48.23862
G0 Z1.5875
X-0.24995 Y162.03027
G1 Z-2.3 F1198.
X-0.11129 Y162.07879 Z-2.3259 F3594.
X0.24196 Y162.11859 Z-2.38858
X3.17378 Z-2.90554
X3.52703 Y162.07879 Z-2.96823
X3.86257 Y161.96138 Z-3.03091
X4.16357 Y161.77225 Z-3.09359
X4.41494 Y161.52088 Z-3.15627
X4.60407 Y161.21988 Z-3.21895
X4.72148 Y160.88434 Z-3.28164
X4.76128 Y160.53109 Z-3.34432
Y156.61859 Z-4.0342
X10.23862 Z-5.
X22.65396 F4792.
X22.65446 Y156.61909
Y160.53109
G02 X24.24196 Y162.11859 I1.5875 J0.
G1 X28.24196
G02 X29.36449 Y161.65362 I0. J-1.5875
G1 X31.36449 Y159.65362
G02 X31.82946 Y158.53109 I-1.12253 J-1.12253
G1 Y128.53109
G02 X30.24196 Y126.94359 I-1.5875 J0.
G1 X20.24529
G02 X18.65779 Y128.53085 I0. J1.5875
G1 X18.6547 Y148.94359
X0.24196
G02 X-1.34554 Y150.53109 I0. J1.5875
G1 Y160.53109
G02 X0.24196 Y162.11859 I1.5875 J0.
G1 X3.17378
G02 X4.76128 Y160.53109 I0. J-1.5875
G1 Y156.61859
X10.23862
G0 Z1.5875
X-0.24995 Y162.03027
G1 Z-4.8 F1198.
X-0.11129 Y162.07879 Z-4.8259 F3594.
X0.24196 Y162.11859 Z-4.88858
X3.17378 Z-5.40554
X3.52703 Y162.07879 Z-5.46823
X3.86257 Y161.96138 Z-5.53091
X4.16357 Y161.77225 Z-5.59359
X4.41494 Y161.52088 Z-5.65627
X4.60407 Y161.21988 Z-5.71895
X4.72148 Y160.88434 Z-5.78164
X4.76128 Y160.53109 Z-5.84432
Y156.61859 Z-6.5342
X10.23862 Z-7.5
X22.65396 F4792.
X22.65446 Y156.61909
Y160.53109
G02 X24.24196 Y162.11859 I1.5875 J0.
G1 X28.24196
G02 X29.36449 Y161.65362 I0. J-1.5875
G1 X31.36449 Y159.65362
G02 X31.82946 Y158.53109 I-1.12253 J-1.12253
G1 Y128.53109
G02 X30.24196 Y126.94359 I-1.5875 J0.
G1 X20.24529
G02 X18.65779 Y128.53085 I0. J1.5875
G1 X18.6547 Y148.94359
X0.24196
G02 X-1.34554 Y150.53109 I0. J1.5875
G1 Y160.53109
G02 X0.24196 Y162.11859 I1.5875 J0.
G1 X3.17378
G02 X4.76128 Y160.53109 I0. J-1.5875
G1 Y156.61859
X10.23862
G0 Z1.5875
X37.75005 Y162.03027
G1 Z-4.8 F1198.
X37.88871 Y162.07879 Z-4.8259 F3594.
X38.24196 Y162.11859 Z-4.88858
X41.17378 Z-5.40554
X41.52703 Y162.07879 Z-5.46823
X41.86257 Y161.96138 Z-5.53091
X42.16357 Y161.77225 Z-5.59359
X42.41494 Y161.52088 Z-5.65627
X42.60407 Y161.21988 Z-5.71895
X42.72148 Y160.88434 Z-5.78164
X42.76128 Y160.53109 Z-5.84432
Y156.61859 Z-6.5342
X48.23862 Z-7.5
X60.65396 F4792.
X60.65446 Y156.61909
Y160.53109
G02 X62.24196 Y162.11859 I1.5875 J0.
G1 X66.24196
G02 X67.36449 Y161.65362 I0. J-1.5875
G1 X69.36449 Y159.65362
G02 X69.82946 Y158.53109 I-1.12253 J-1.12253
G1 Y128.53109
G02 X68.24196 Y126.94359 I-1.5875 J0.
G1 X58.24529
G02 X56.65779 Y128.53085 I0. J1.5875
G1 X56.6547 Y148.94359
X38.24196
G02 X36.65446 Y150.53109 I0. J1.5875
G1 Y160.53109
G02 X38.24196 Y162.11859 I1.5875 J0.
G1 X41.17378
G02 X42.76128 Y160.53109 I0. J-1.5875
G1 Y156.61859
X48.23862
G0 Z1.5875
X75.75005 Y162.03027
G1 Z-4.8 F1198.
X75.88871 Y162.07879 Z-4.8259 F3594.
X76.24196 Y162.11859 Z-4.88858
X79.17378 Z-5.40554
X79.52703 Y162.07879 Z-5.46823
X79.86257 Y161.96138 Z-5.53091
X80.16357 Y161.77225 Z-5.59359
X80.41494 Y161.52088 Z-5.65627
X80.60407 Y161.21988 Z-5.71895
X80.72148 Y160.88434 Z-5.78164
X80.76128 Y160.53109 Z-5.84432
Y156.61859 Z-6.5342
X86.23862 Z-7.5
X98.65396 F4792.
X98.65446 Y156.61909
Y160.53109
G02 X100.24196 Y162.11859 I1.5875 J0.
G1 X104.24196
G02 X105.36449 Y161.65362 I0. J-1.5875
G1 X107.36449 Y159.65362
G02 X107.82946 Y158.53109 I-1.12253 J-1.12253
G1 Y128.53109
G02 X106.24196 Y126.94359 I-1.5875 J0.
G1 X96.24529
G02 X94.65779 Y128.53085 I0. J1.5875
G1 X94.6547 Y148.94359
X76.24196
G02 X74.65446 Y150.53109 I0. J1.5875
G1 Y160.53109
G02 X76.24196 Y162.11859 I1.5875 J0.
G1 X79.17378
G02 X80.76128 Y160.53109 I0. J-1.5875
G1 Y156.61859
X86.23862
G0 Z1.5875
X106.73386 Y110.50082
G1 Z-4.8 F1198.
X106.59521 Y110.4523 Z-4.8259 F3594.
X106.24196 Y110.4125 Z-4.88858
X103.31014 Z-5.40554
X102.95689 Y110.4523 Z-5.46823
X102.62135 Y110.56971 Z-5.53091
X102.32035 Y110.75884 Z-5.59359
X102.06898 Y111.01021 Z-5.65627
X101.87985 Y111.31121 Z-5.71895
X101.76244 Y111.64675 Z-5.78164
X101.72264 Y112. Z-5.84432
Y115.9125 Z-6.5342
X96.24529 Z-7.5
X83.82996 F4792.
X83.82946 Y115.912
Y112.
G02 X82.24196 Y110.4125 I-1.5875 J0.
G1 X78.24196
G02 X77.11943 Y110.87747 I0. J1.5875
G1 X75.11943 Y112.87747
G02 X74.65446 Y114. I1.12253 J1.12253
G1 Y144.
G02 X76.24196 Y145.5875 I1.5875 J0.
G1 X86.23862
G02 X87.82612 Y144.00024 I0. J-1.5875
G1 X87.82922 Y123.5875
X106.24196
G02 X107.82946 Y122. I0. J-1.5875
G1 Y112.
G02 X106.24196 Y110.4125 I-1.5875 J0.
G1 X103.31014
G02 X101.72264 Y112. I0. J1.5875
G1 Y115.9125
X96.24529
G0 Z1.5875
X75.75005 Y106.03027
G1 Z-4.8 F1198.
X75.88871 Y106.07879 Z-4.8259 F3594.
X76.24196 Y106.11859 Z-4.88858
X79.17378 Z-5.40554
X79.52703 Y106.07879 Z-5.46823
X79.86257 Y105.96138 Z-5.53091
X80.16357 Y105.77225 Z-5.59359
X80.41494 Y105.52088 Z-5.65627
X80.60407 Y105.21988 Z-5.71895
X80.72148 Y104.88434 Z-5.78164
X80.76128 Y104.53109 Z-5.84432
Y100.61859 Z-6.5342
X86.23862 Z-7.5
X98.65396 F4792.
X98.65446 Y100.61909
Y104.53109
G02 X100.24196 Y106.11859 I1.5875 J0.
G1 X104.24196
G02 X105.36449 Y105.65362 I0. J-1.5875
G1 X107.36449 Y103.65362
G02 X107.82946 Y102.53109 I-1.12253 J-1.12253
G1 Y72.53109
G02 X106.24196 Y70.94359 I-1.5875 J0.
G1 X96.24529
G02 X94.65779 Y72.53085 I0. J1.5875
G1 X94.6547 Y92.94359
X76.24196
G02 X74.65446 Y94.53109 I0. J1.5875
G1 Y104.53109
G02 X76.24196 Y106.11859 I1.5875 J0.
G1 X79.17378
G02 X80.76128 Y104.53109 I0. J-1.5875
G1 Y100.61859
X86.23862
G0 Z1.5875
X68.73386 Y110.50082
G1 Z-4.8 F1198.
X68.59521 Y110.4523 Z-4.8259 F3594.
X68.24196 Y110.4125 Z-4.88858
X65.31014 Z-5.40554
X64.95689 Y110.4523 Z-5.46823
X64.62135 Y110.56971 Z-5.53091
X64.32035 Y110.75884 Z-5.59359
X64.06898 Y111.01021 Z-5.65627
X63.87985 Y111.31121 Z-5.71895
X63.76244 Y111.64675 Z-5.78164
X63.72264 Y112. Z-5.84432
Y115.9125 Z-6.5342
X58.24529 Z-7.5
X45.82996 F4792.
X45.82946 Y115.912
Y112.
G02 X44.24196 Y110.4125 I-1.5875 J0.
G1 X40.24196
G02 X39.11943 Y110.87747 I0. J1.5875
G1 X37.11943 Y112.87747
G02 X36.65446 Y114. I1.12253 J1.12253
G1 Y144.
G02 X38.24196 Y145.5875 I1.5875 J0.
G1 X48.23862
G02 X49.82612 Y144.00024 I0. J-1.5875
G1 X49.82922 Y123.5875
X68.24196
G02 X69.82946 Y122. I0. J-1.5875
G1 Y112.
G02 X68.24196 Y110.4125 I-1.5875 J0.
G1 X65.31014
G02 X63.72264 Y112. I0. J1.5875
G1 Y115.9125
X58.24529
G0 Z1.5875
X37.75005 Y106.03027
G1 Z-4.8 F1198.
X37.88871 Y106.07879 Z-4.8259 F3594.
X38.24196 Y106.11859 Z-4.88858
X41.17378 Z-5.40554
X41.52703 Y106.07879 Z-5.46823
X41.86257 Y105.96138 Z-5.53091
X42.16357 Y105.77225 Z-5.59359
X42.41494 Y105.52088 Z-5.65627
X42.60407 Y105.21988 Z-5.71895
X42.72148 Y104.88434 Z-5.78164
X42.76128 Y104.53109 Z-5.84432
Y100.61859 Z-6.5342
X48.23862 Z-7.5
X60.65396 F4792.
X60.65446 Y100.61909
Y104.53109
G02 X62.24196 Y106.11859 I1.5875 J0.
G1 X66.24196
G02 X67.36449 Y105.65362 I0. J-1.5875
G1 X69.36449 Y103.65362
G02 X69.82946 Y102.53109 I-1.12253 J-1.12253
G1 Y72.53109
G02 X68.24196 Y70.94359 I-1.5875 J0.
G1 X58.24529
G02 X56.65779 Y72.53085 I0. J1.5875
G1 X56.6547 Y92.94359
X38.24196
G02 X36.65446 Y94.53109 I0. J1.5875
G1 Y104.53109
G02 X38.24196 Y106.11859 I1.5875 J0.
G1 X41.17378
G02 X42.76128 Y104.53109 I0. J-1.5875
G1 Y100.61859
X48.23862
G0 Z1.5875
X30.73386 Y110.50082
G1 Z-4.8 F1198.
X30.59521 Y110.4523 Z-4.8259 F3594.
X30.24196 Y110.4125 Z-4.88858
X27.31014 Z-5.40554
X26.95689 Y110.4523 Z-5.46823
X26.62135 Y110.56971 Z-5.53091
X26.32035 Y110.75884 Z-5.59359
X26.06898 Y111.01021 Z-5.65627
X25.87985 Y111.31121 Z-5.71895
X25.76244 Y111.64675 Z-5.78164
X25.72264 Y112. Z-5.84432
Y115.9125 Z-6.5342
X20.24529 Z-7.5
X7.82996 F4792.
X7.82946 Y115.912
Y112.
G02 X6.24196 Y110.4125 I-1.5875 J0.
G1 X2.24196
G02 X1.11943 Y110.87747 I0. J1.5875
G1 X-0.88057 Y112.87747
G02 X-1.34554 Y114. I1.12253 J1.12253
G1 Y144.
G02 X0.24196 Y145.5875 I1.5875 J0.
G1 X10.23862
G02 X11.82612 Y144.00024 I0. J-1.5875
G1 X11.82922 Y123.5875
X30.24196
G02 X31.82946 Y122. I0. J-1.5875
G1 Y112.
G02 X30.24196 Y110.4125 I-1.5875 J0.
G1 X27.31014
G02 X25.72264 Y112. I0. J1.5875
G1 Y115.9125
X20.24529
G0 Z1.5875
X-0.24995 Y106.03027
G1 Z-4.8 F1198.
X-0.11129 Y106.07879 Z-4.8259 F3594.
X0.24196 Y106.11859 Z-4.88858
X3.17378 Z-5.40554
X3.52703 Y106.07879 Z-5.46823
X3.86257 Y105.96138 Z-5.53091
X4.16357 Y105.77225 Z-5.59359
X4.41494 Y105.52088 Z-5.65627
X4.60407 Y105.21988 Z-5.71895
X4.72148 Y104.88434 Z-5.78164
X4.76128 Y104.53109 Z-5.84432
Y100.61859 Z-6.5342
X10.23862 Z-7.5
X22.65396 F4792.
X22.65446 Y100.61909
Y104.53109
G02 X24.24196 Y106.11859 I1.5875 J0.
G1 X28.24196
G02 X29.36449 Y105.65362 I0. J-1.5875
G1 X31.36449 Y103.65362
G02 X31.82946 Y102.53109 I-1.12253 J-1.12253
G1 Y72.53109
G02 X30.24196 Y70.94359 I-1.5875 J0.
G1 X20.24529
G02 X18.65779 Y72.53085 I0. J1.5875
G1 X18.6547 Y92.94359
X0.24196
G02 X-1.34554 Y94.53109 I0. J1.5875
G1 Y104.53109
G02 X0.24196 Y106.11859 I1.5875 J0.
G1 X3.17378
G02 X4.76128 Y104.53109 I0. J-1.5875
G1 Y100.61859
X10.23862
G0 Z1.5875
X30.73386 Y54.50082
G1 Z-4.8 F1198.
X30.59521 Y54.4523 Z-4.8259 F3594.
X30.24196 Y54.4125 Z-4.88858
X27.31014 Z-5.40554
X26.95689 Y54.4523 Z-5.46823
X26.62135 Y54.56971 Z-5.53091
X26.32035 Y54.75884 Z-5.59359
X26.06898 Y55.01021 Z-5.65627
X25.87985 Y55.31121 Z-5.71895
X25.76244 Y55.64675 Z-5.78164
X25.72264 Y56. Z-5.84432
Y59.9125 Z-6.5342
X20.24529 Z-7.5
X7.82996 F4792.
X7.82946 Y59.912
Y56.
G02 X6.24196 Y54.4125 I-1.5875 J0.
G1 X2.24196
G02 X1.11943 Y54.87747 I0. J1.5875
G1 X-0.88057 Y56.87747
G02 X-1.34554 Y58. I1.12253 J1.12253
G1 Y88.
G02 X0.24196 Y89.5875 I1.5875 J0.
G1 X10.23862
G02 X11.82612 Y88.00024 I0. J-1.5875
G1 X11.82922 Y67.5875
X30.24196
G02 X31.82946 Y66. I0. J-1.5875
G1 Y56.
G02 X30.24196 Y54.4125 I-1.5875 J0.
G1 X27.31014
G02 X25.72264 Y56. I0. J1.5875
G1 Y59.9125
X20.24529
G0 Z1.5875
X-0.24995 Y50.03027
G1 Z-4.8 F1198.
X-0.11129 Y50.07879 Z-4.8259 F3594.
X0.24196 Y50.11859 Z-4.88858
X3.17378 Z-5.40554
X3.52703 Y50.07879 Z-5.46823
X3.86257 Y49.96138 Z-5.53091
X4.16357 Y49.77225 Z-5.59359
X4.41494 Y49.52088 Z-5.65627
X4.60407 Y49.21988 Z-5.71895
X4.72148 Y48.88434 Z-5.78164
X4.76128 Y48.53109 Z-5.84432
Y44.61859 Z-6.5342
X10.23862 Z-7.5
X22.65396 F4792.
X22.65446 Y44.61909
Y48.53109
G02 X24.24196 Y50.11859 I1.5875 J0.
G1 X28.24196
G02 X29.36449 Y49.65362 I0. J-1.5875
G1 X31.36449 Y47.65362
G02 X31.82946 Y46.53109 I-1.12253 J-1.12253
G1 Y16.53109
G02 X30.24196 Y14.94359 I-1.5875 J0.
G1 X20.24529
G02 X18.65779 Y16.53085 I0. J1.5875
G1 X18.6547 Y36.94359
X0.24196
G02 X-1.34554 Y38.53109 I0. J1.5875
G1 Y48.53109
G02 X0.24196 Y50.11859 I1.5875 J0.
G1 X3.17378
G02 X4.76128 Y48.53109 I0. J-1.5875
G1 Y44.61859
X10.23862
G0 Z1.5875
X37.75005 Y50.03027
G1 Z-4.8 F1198.
X37.88871 Y50.07879 Z-4.8259 F3594.
X38.24196 Y50.11859 Z-4.88858
X41.17378 Z-5.40554
X41.52703 Y50.07879 Z-5.46823
X41.86257 Y49.96138 Z-5.53091
X42.16357 Y49.77225 Z-5.59359
X42.41494 Y49.52088 Z-5.65627
X42.60407 Y49.21988 Z-5.71895
X42.72148 Y48.88434 Z-5.78164
X42.76128 Y48.53109 Z-5.84432
Y44.61859 Z-6.5342
X48.23862 Z-7.5
X60.65396 F4792.
X60.65446 Y44.61909
Y48.53109
G02 X62.24196 Y50.11859 I1.5875 J0.
G1 X66.24196
G02 X67.36449 Y49.65362 I0. J-1.5875
G1 X69.36449 Y47.65362
G02 X69.82946 Y46.53109 I-1.12253 J-1.12253
G1 Y16.53109
G02 X68.24196 Y14.94359 I-1.5875 J0.
G1 X58.24529
G02 X56.65779 Y16.53085 I0. J1.5875
G1 X56.6547 Y36.94359
X38.24196
G02 X36.65446 Y38.53109 I0. J1.5875
G1 Y48.53109
G02 X38.24196 Y50.11859 I1.5875 J0.
G1 X41.17378
G02 X42.76128 Y48.53109 I0. J-1.5875
G1 Y44.61859
X48.23862
G0 Z1.5875
X68.73386 Y54.50082
G1 Z-4.8 F1198.
X68.59521 Y54.4523 Z-4.8259 F3594.
X68.24196 Y54.4125 Z-4.88858
X65.31014 Z-5.40554
X64.95689 Y54.4523 Z-5.46823
X64.62135 Y54.56971 Z-5.53091
X64.32035 Y54.75884 Z-5.59359
X64.06898 Y55.01021 Z-5.65627
X63.87985 Y55.31121 Z-5.71895
X63.76244 Y55.64675 Z-5.78164
X63.72264 Y56. Z-5.84432
Y59.9125 Z-6.5342
X58.24529 Z-7.5
X45.82996 F4792.
X45.82946 Y59.912
Y56.
G02 X44.24196 Y54.4125 I-1.5875 J0.
G1 X40.24196
G02 X39.11943 Y54.87747 I0. J1.5875
G1 X37.11943 Y56.87747
G02 X36.65446 Y58. I1.12253 J1.12253
G1 Y88.
G02 X38.24196 Y89.5875 I1.5875 J0.
G1 X48.23862
G02 X49.82612 Y88.00024 I0. J-1.5875
G1 X49.82922 Y67.5875
X68.24196
G02 X69.82946 Y66. I0. J-1.5875
G1 Y56.
G02 X68.24196 Y54.4125 I-1.5875 J0.
G1 X65.31014
G02 X63.72264 Y56. I0. J1.5875
G1 Y59.9125
X58.24529
G0 Z1.5875
X75.75005 Y50.03027
G1 Z-4.8 F1198.
X75.88871 Y50.07879 Z-4.8259 F3594.
X76.24196 Y50.11859 Z-4.88858
X79.17378 Z-5.40554
X79.52703 Y50.07879 Z-5.46823
X79.86257 Y49.96138 Z-5.53091
X80.16357 Y49.77225 Z-5.59359
X80.41494 Y49.52088 Z-5.65627
X80.60407 Y49.21988 Z-5.71895
X80.72148 Y48.88434 Z-5.78164
X80.76128 Y48.53109 Z-5.84432
Y44.61859 Z-6.5342
X86.23862 Z-7.5
X98.65396 F4792.
X98.65446 Y44.61909
Y48.53109
G02 X100.24196 Y50.11859 I1.5875 J0.
G1 X104.24196
G02 X105.36449 Y49.65362 I0. J-1.5875
G1 X107.36449 Y47.65362
G02 X107.82946 Y46.53109 I-1.12253 J-1.12253
G1 Y16.53109
G02 X106.24196 Y14.94359 I-1.5875 J0.
G1 X96.24529
G02 X94.65779 Y16.53085 I0. J1.5875
G1 X94.6547 Y36.94359
X76.24196
G02 X74.65446 Y38.53109 I0. J1.5875
G1 Y48.53109
G02 X76.24196 Y50.11859 I1.5875 J0.
G1 X79.17378
G02 X80.76128 Y48.53109 I0. J-1.5875
G1 Y44.61859
X86.23862
G0 Z1.5875
X106.73386 Y54.50082
G1 Z-4.8 F1198.
X106.59521 Y54.4523 Z-4.8259 F3594.
X106.24196 Y54.4125 Z-4.88858
X103.31014 Z-5.40554
X102.95689 Y54.4523 Z-5.46823
X102.62135 Y54.56971 Z-5.53091
X102.32035 Y54.75884 Z-5.59359
X102.06898 Y55.01021 Z-5.65627
X101.87985 Y55.31121 Z-5.71895
X101.76244 Y55.64675 Z-5.78164
X101.72264 Y56. Z-5.84432
Y59.9125 Z-6.5342
X96.24529 Z-7.5
X83.82996 F4792.
X83.82946 Y59.912
Y56.
G02 X82.24196 Y54.4125 I-1.5875 J0.
G1 X78.24196
G02 X77.11943 Y54.87747 I0. J1.5875
G1 X75.11943 Y56.87747
G02 X74.65446 Y58. I1.12253 J1.12253
G1 Y88.
G02 X76.24196 Y89.5875 I1.5875 J0.
G1 X86.23862
G02 X87.82612 Y88.00024 I0. J-1.5875
G1 X87.82922 Y67.5875
X106.24196
G02 X107.82946 Y66. I0. J-1.5875
G1 Y56.
G02 X106.24196 Y54.4125 I-1.5875 J0.
G1 X103.31014
G02 X101.72264 Y56. I0. J1.5875
G1 Y59.9125
X96.24529
G0 Z1.5875
X106.73386 Y-1.49918
G1 Z-4.8 F1198.
X106.59521 Y-1.5477 Z-4.8259 F3594.
X106.24196 Y-1.5875 Z-4.88858
X103.31014 Z-5.40554
X102.95689 Y-1.5477 Z-5.46823
X102.62135 Y-1.43029 Z-5.53091
X102.32035 Y-1.24116 Z-5.59359
X102.06898 Y-0.98979 Z-5.65627
X101.87985 Y-0.68879 Z-5.71895
X101.76244 Y-0.35325 Z-5.78164
X101.72264 Y0. Z-5.84432
Y3.9125 Z-6.5342
X96.24529 Z-7.5
X83.82996 F4792.
X83.82946 Y3.912
Y0.
G02 X82.24196 Y-1.5875 I-1.5875 J0.
G1 X78.24196
G02 X77.11943 Y-1.12253 I0. J1.5875
G1 X75.11943 Y0.87747
G02 X74.65446 Y2. I1.12253 J1.12253
G1 Y32.
G02 X76.24196 Y33.5875 I1.5875 J0.
G1 X86.23862
G02 X87.82612 Y32.00024 I0. J-1.5875
G1 X87.82922 Y11.5875
X106.24196
G02 X107.82946 Y10. I0. J-1.5875
G1 Y0.
G02 X106.24196 Y-1.5875 I-1.5875 J0.
G1 X103.31014
G02 X101.72264 Y0. I0. J1.5875
G1 Y3.9125
X96.24529
G0 Z1.5875
X68.73386 Y-1.49918
G1 Z-4.8 F1198.
X68.59521 Y-1.5477 Z-4.8259 F3594.
X68.24196 Y-1.5875 Z-4.88858
X65.31014 Z-5.40554
X64.95689 Y-1.5477 Z-5.46823
X64.62135 Y-1.43029 Z-5.53091
X64.32035 Y-1.24116 Z-5.59359
X64.06898 Y-0.98979 Z-5.65627
X63.87985 Y-0.68879 Z-5.71895
X63.76244 Y-0.35325 Z-5.78164
X63.72264 Y0. Z-5.84432
Y3.9125 Z-6.5342
X58.24529 Z-7.5
X45.82996 F4792.
X45.82946 Y3.912
Y0.
G02 X44.24196 Y-1.5875 I-1.5875 J0.
G1 X40.24196
G02 X39.11943 Y-1.12253 I0. J1.5875
G1 X37.11943 Y0.87747
G02 X36.65446 Y2. I1.12253 J1.12253
G1 Y32.
G02 X38.24196 Y33.5875 I1.5875 J0.
G1 X48.23862
G02 X49.82612 Y32.00024 I0. J-1.5875
G1 X49.82922 Y11.5875
X68.24196
G02 X69.82946 Y10. I0. J-1.5875
G1 Y0.
G02 X68.24196 Y-1.5875 I-1.5875 J0.
G1 X65.31014
G02 X63.72264 Y0. I0. J1.5875
G1 Y3.9125
X58.24529
G0 Z1.5875
X30.73386 Y-1.49918
G1 Z-4.8 F1198.
X30.59521 Y-1.5477 Z-4.8259 F3594.
X30.24196 Y-1.5875 Z-4.88858
X27.31014 Z-5.40554
X26.95689 Y-1.5477 Z-5.46823
X26.62135 Y-1.43029 Z-5.53091
X26.32035 Y-1.24116 Z-5.59359
X26.06898 Y-0.98979 Z-5.65627
X25.87985 Y-0.68879 Z-5.71895
X25.76244 Y-0.35325 Z-5.78164
X25.72264 Y0. Z-5.84432
Y3.9125 Z-6.5342
X20.24529 Z-7.5
X7.82996 F4792.
X7.82946 Y3.912
Y0.
G02 X6.24196 Y-1.5875 I-1.5875 J0.
G1 X2.24196
G02 X1.11943 Y-1.12253 I0. J1.5875
G1 X-0.88057 Y0.87747
G02 X-1.34554 Y2. I1.12253 J1.12253
G1 Y32.
G02 X0.24196 Y33.5875 I1.5875 J0.
G1 X10.23862
G02 X11.82612 Y32.00024 I0. J-1.5875
G1 X11.82922 Y11.5875
X30.24196
G02 X31.82946 Y10. I0. J-1.5875
G1 Y0.
G02 X30.24196 Y-1.5875 I-1.5875 J0.
G1 X27.31014
G02 X25.72264 Y0. I0. J1.5875
G1 Y3.9125
X20.24529
G0 Z1.5875
X30.73386 Y-1.49918
G1 Z-7.3 F1198.
X30.59521 Y-1.5477 Z-7.3259 F3594.
X30.24196 Y-1.5875 Z-7.38858
X27.31014 Z-7.90554
X26.95689 Y-1.5477 Z-7.96823
X26.62135 Y-1.43029 Z-8.03091
X26.32035 Y-1.24116 Z-8.09359
X26.06898 Y-0.98979 Z-8.15627
X25.87985 Y-0.68879 Z-8.21895
X25.76244 Y-0.35325 Z-8.28164
X25.72264 Y0. Z-8.34432
Y3.9125 Z-9.0342
X20.24529 Z-10.
X7.82996 F4792.
X7.82946 Y3.912
Y0.
G02 X6.24196 Y-1.5875 I-1.5875 J0.
G1 X2.24196
G02 X1.11943 Y-1.12253 I0. J1.5875
G1 X-0.88057 Y0.87747
G02 X-1.34554 Y2. I1.12253 J1.12253
G1 Y32.
G02 X0.24196 Y33.5875 I1.5875 J0.
G1 X10.23862
G02 X11.82612 Y32.00024 I0. J-1.5875
G1 X11.82922 Y11.5875
X30.24196
G02 X31.82946 Y10. I0. J-1.5875
G1 Y0.
G02 X30.24196 Y-1.5875 I-1.5875 J0.
G1 X27.31014
G02 X25.72264 Y0. I0. J1.5875
G1 Y3.9125
X20.24529
G0 Z1.5875
X68.73386 Y-1.49918
G1 Z-7.3 F1198.
X68.59521 Y-1.5477 Z-7.3259 F3594.
X68.24196 Y-1.5875 Z-7.38858
X65.31014 Z-7.90554
X64.95689 Y-1.5477 Z-7.96823
X64.62135 Y-1.43029 Z-8.03091
X64.32035 Y-1.24116 Z-8.09359
X64.06898 Y-0.98979 Z-8.15627
X63.87985 Y-0.68879 Z-8.21895
X63.76244 Y-0.35325 Z-8.28164
X63.72264 Y0. Z-8.34432
Y3.9125 Z-9.0342
X58.24529 Z-10.
X45.82996 F4792.
X45.82946 Y3.912
Y0.
G02 X44.24196 Y-1.5875 I-1.5875 J0.
G1 X40.24196
G02 X39.11943 Y-1.12253 I0. J1.5875
G1 X37.11943 Y0.87747
G02 X36.65446 Y2. I1.12253 J1.12253
G1 Y32.
G02 X38.24196 Y33.5875 I1.5875 J0.
G1 X48.23862
G02 X49.82612 Y32.00024 I0. J-1.5875
G1 X49.82922 Y11.5875
X68.24196
G02 X69.82946 Y10. I0. J-1.5875
G1 Y0.
G02 X68.24196 Y-1.5875 I-1.5875 J0.
G1 X65.31014
G02 X63.72264 Y0. I0. J1.5875
G1 Y3.9125
X58.24529
G0 Z1.5875
X106.73386 Y-1.49918
G1 Z-7.3 F1198.
X106.59521 Y-1.5477 Z-7.3259 F3594.
X106.24196 Y-1.5875 Z-7.38858
X103.31014 Z-7.90554
X102.95689 Y-1.5477 Z-7.96823
X102.62135 Y-1.43029 Z-8.03091
X102.32035 Y-1.24116 Z-8.09359
X102.06898 Y-0.98979 Z-8.15627
X101.87985 Y-0.68879 Z-8.21895
X101.76244 Y-0.35325 Z-8.28164
X101.72264 Y0. Z-8.34432
Y3.9125 Z-9.0342
X96.24529 Z-10.
X83.82996 F4792.
X83.82946 Y3.912
Y0.
G02 X82.24196 Y-1.5875 I-1.5875 J0.
G1 X78.24196
G02 X77.11943 Y-1.12253 I0. J1.5875
G1 X75.11943 Y0.87747
G02 X74.65446 Y2. I1.12253 J1.12253
G1 Y32.
G02 X76.24196 Y33.5875 I1.5875 J0.
G1 X86.23862
G02 X87.82612 Y32.00024 I0. J-1.5875
G1 X87.82922 Y11.5875
X106.24196
G02 X107.82946 Y10. I0. J-1.5875
G1 Y0.
G02 X106.24196 Y-1.5875 I-1.5875 J0.
G1 X103.31014
G02 X101.72264 Y0. I0. J1.5875
G1 Y3.9125
X96.24529
G0 Z1.5875
X106.73386 Y54.50082
G1 Z-7.3 F1198.
X106.59521 Y54.4523 Z-7.3259 F3594.
X106.24196 Y54.4125 Z-7.38858
X103.31014 Z-7.90554
X102.95689 Y54.4523 Z-7.96823
X102.62135 Y54.56971 Z-8.03091
X102.32035 Y54.75884 Z-8.09359
X102.06898 Y55.01021 Z-8.15627
X101.87985 Y55.31121 Z-8.21895
X101.76244 Y55.64675 Z-8.28164
X101.72264 Y56. Z-8.34432
Y59.9125 Z-9.0342
X96.24529 Z-10.
X83.82996 F4792.
X83.82946 Y59.912
Y56.
G02 X82.24196 Y54.4125 I-1.5875 J0.
G1 X78.24196
G02 X77.11943 Y54.87747 I0. J1.5875
G1 X75.11943 Y56.87747
G02 X74.65446 Y58. I1.12253 J1.12253
G1 Y88.
G02 X76.24196 Y89.5875 I1.5875 J0.
G1 X86.23862
G02 X87.82612 Y88.00024 I0. J-1.5875
G1 X87.82922 Y67.5875
X106.24196
G02 X107.82946 Y66. I0. J-1.5875
G1 Y56.
G02 X106.24196 Y54.4125 I-1.5875 J0.
G1 X103.31014
G02 X101.72264 Y56. I0. J1.5875
G1 Y59.9125
X96.24529
G0 Z1.5875
X75.75005 Y50.03027
G1 Z-7.3 F1198.
X75.88871 Y50.07879 Z-7.3259 F3594.
X76.24196 Y50.11859 Z-7.38858
X79.17378 Z-7.90554
X79.52703 Y50.07879 Z-7.96823
X79.86257 Y49.96138 Z-8.03091
X80.16357 Y49.77225 Z-8.09359
X80.41494 Y49.52088 Z-8.15627
X80.60407 Y49.21988 Z-8.21895
X80.72148 Y48.88434 Z-8.28164
X80.76128 Y48.53109 Z-8.34432
Y44.61859 Z-9.0342
X86.23862 Z-10.
X98.65396 F4792.
X98.65446 Y44.61909
Y48.53109
G02 X100.24196 Y50.11859 I1.5875 J0.
G1 X104.24196
G02 X105.36449 Y49.65362 I0. J-1.5875
G1 X107.36449 Y47.65362
G02 X107.82946 Y46.53109 I-1.12253 J-1.12253
G1 Y16.53109
G02 X106.24196 Y14.94359 I-1.5875 J0.
G1 X96.24529
G02 X94.65779 Y16.53085 I0. J1.5875
G1 X94.6547 Y36.94359
X76.24196
G02 X74.65446 Y38.53109 I0. J1.5875
G1 Y48.53109
G02 X76.24196 Y50.11859 I1.5875 J0.
G1 X79.17378
G02 X80.76128 Y48.53109 I0. J-1.5875
G1 Y44.61859
X86.23862
G0 Z1.5875
X68.73386 Y54.50082
G1 Z-7.3 F1198.
X68.59521 Y54.4523 Z-7.3259 F3594.
X68.24196 Y54.4125 Z-7.38858
X65.31014 Z-7.90554
X64.95689 Y54.4523 Z-7.96823
X64.62135 Y54.56971 Z-8.03091
X64.32035 Y54.75884 Z-8.09359
X64.06898 Y55.01021 Z-8.15627
X63.87985 Y55.31121 Z-8.21895
X63.76244 Y55.64675 Z-8.28164
X63.72264 Y56. Z-8.34432
Y59.9125 Z-9.0342
X58.24529 Z-10.
X45.82996 F4792.
X45.82946 Y59.912
Y56.
G02 X44.24196 Y54.4125 I-1.5875 J0.
G1 X40.24196
G02 X39.11943 Y54.87747 I0. J1.5875
G1 X37.11943 Y56.87747
G02 X36.65446 Y58. I1.12253 J1.12253
G1 Y88.
G02 X38.24196 Y89.5875 I1.5875 J0.
G1 X48.23862
G02 X49.82612 Y88.00024 I0. J-1.5875
G1 X49.82922 Y67.5875
X68.24196
G02 X69.82946 Y66. I0. J-1.5875
G1 Y56.
G02 X68.24196 Y54.4125 I-1.5875 J0.
G1 X65.31014
G02 X63.72264 Y56. I0. J1.5875
G1 Y59.9125
X58.24529
G0 Z1.5875
X37.75005 Y50.03027
G1 Z-7.3 F1198.
X37.88871 Y50.07879 Z-7.3259 F3594.
X38.24196 Y50.11859 Z-7.38858
X41.17378 Z-7.90554
X41.52703 Y50.07879 Z-7.96823
X41.86257 Y49.96138 Z-8.03091
X42.16357 Y49.77225 Z-8.09359
X42.41494 Y49.52088 Z-8.15627
X42.60407 Y49.21988 Z-8.21895
X42.72148 Y48.88434 Z-8.28164
X42.76128 Y48.53109 Z-8.34432
Y44.61859 Z-9.0342
X48.23862 Z-10.
X60.65396 F4792.
X60.65446 Y44.61909
Y48.53109
G02 X62.24196 Y50.11859 I1.5875 J0.
G1 X66.24196
G02 X67.36449 Y49.65362 I0. J-1.5875
G1 X69.36449 Y47.65362
G02 X69.82946 Y46.53109 I-1.12253 J-1.12253
G1 Y16.53109
G02 X68.24196 Y14.94359 I-1.5875 J0.
G1 X58.24529
G02 X56.65779 Y16.53085 I0. J1.5875
G1 X56.6547 Y36.94359
X38.24196
G02 X36.65446 Y38.53109 I0. J1.5875
G1 Y48.53109
G02 X38.24196 Y50.11859 I1.5875 J0.
G1 X41.17378
G02 X42.76128 Y48.53109 I0. J-1.5875
G1 Y44.61859
X48.23862
G0 Z1.5875
X-0.24995 Y50.03027
G1 Z-7.3 F1198.
X-0.11129 Y50.07879 Z-7.3259 F3594.
X0.24196 Y50.11859 Z-7.38858
X3.17378 Z-7.90554
X3.52703 Y50.07879 Z-7.96823
X3.86257 Y49.96138 Z-8.03091
X4.16357 Y49.77225 Z-8.09359
X4.41494 Y49.52088 Z-8.15627
X4.60407 Y49.21988 Z-8.21895
X4.72148 Y48.88434 Z-8.28164
X4.76128 Y48.53109 Z-8.34432
Y44.61859 Z-9.0342
X10.23862 Z-10.
X22.65396 F4792.
X22.65446 Y44.61909
Y48.53109
G02 X24.24196 Y50.11859 I1.5875 J0.
G1 X28.24196
G02 X29.36449 Y49.65362 I0. J-1.5875
G1 X31.36449 Y47.65362
G02 X31.82946 Y46.53109 I-1.12253 J-1.12253
G1 Y16.53109
G02 X30.24196 Y14.94359 I-1.5875 J0.
G1 X20.24529
G02 X18.65779 Y16.53085 I0. J1.5875
G1 X18.6547 Y36.94359
X0.24196
G02 X-1.34554 Y38.53109 I0. J1.5875
G1 Y48.53109
G02 X0.24196 Y50.11859 I1.5875 J0.
G1 X3.17378
G02 X4.76128 Y48.53109 I0. J-1.5875
G1 Y44.61859
X10.23862
G0 Z1.5875
X30.73386 Y54.50082
G1 Z-7.3 F1198.
X30.59521 Y54.4523 Z-7.3259 F3594.
X30.24196 Y54.4125 Z-7.38858
X27.31014 Z-7.90554
X26.95689 Y54.4523 Z-7.96823
X26.62135 Y54.56971 Z-8.03091
X26.32035 Y54.75884 Z-8.09359
X26.06898 Y55.01021 Z-8.15627
X25.87985 Y55.31121 Z-8.21895
X25.76244 Y55.64675 Z-8.28164
X25.72264 Y56. Z-8.34432
Y59.9125 Z-9.0342
X20.24529 Z-10.
X7.82996 F4792.
X7.82946 Y59.912
Y56.
G02 X6.24196 Y54.4125 I-1.5875 J0.
G1 X2.24196
G02 X1.11943 Y54.87747 I0. J1.5875
G1 X-0.88057 Y56.87747
G02 X-1.34554 Y58. I1.12253 J1.12253
G1 Y88.
G02 X0.24196 Y89.5875 I1.5875 J0.
G1 X10.23862
G02 X11.82612 Y88.00024 I0. J-1.5875
G1 X11.82922 Y67.5875
X30.24196
G02 X31.82946 Y66. I0. J-1.5875
G1 Y56.
G02 X30.24196 Y54.4125 I-1.5875 J0.
G1 X27.31014
G02 X25.72264 Y56. I0. J1.5875
G1 Y59.9125
X20.24529
G0 Z1.5875
X-0.24995 Y106.03027
G1 Z-7.3 F1198.
X-0.11129 Y106.07879 Z-7.3259 F3594.
X0.24196 Y106.11859 Z-7.38858
X3.17378 Z-7.90554
X3.52703 Y106.07879 Z-7.96823
X3.86257 Y105.96138 Z-8.03091
X4.16357 Y105.77225 Z-8.09359
X4.41494 Y105.52088 Z-8.15627
X4.60407 Y105.21988 Z-8.21895
X4.72148 Y104.88434 Z-8.28164
X4.76128 Y104.53109 Z-8.34432
Y100.61859 Z-9.0342
X10.23862 Z-10.
X22.65396 F4792.
X22.65446 Y100.61909
Y104.53109
G02 X24.24196 Y106.11859 I1.5875 J0.
G1 X28.24196
G02 X29.36449 Y105.65362 I0. J-1.5875
G1 X31.36449 Y103.65362
G02 X31.82946 Y102.53109 I-1.12253 J-1.12253
G1 Y72.53109
G02 X30.24196 Y70.94359 I-1.5875 J0.
G1 X20.24529
G02 X18.65779 Y72.53085 I0. J1.5875
G1 X18.6547 Y92.94359
X0.24196
G02 X-1.34554 Y94.53109 I0. J1.5875
G1 Y104.53109
G02 X0.24196 Y106.11859 I1.5875 J0.
G1 X3.17378
G02 X4.76128 Y104.53109 I0. J-1.5875
G1 Y100.61859
X10.23862
G0 Z1.5875
X30.73386 Y110.50082
G1 Z-7.3 F1198.
X30.59521 Y110.4523 Z-7.3259 F3594.
X30.24196 Y110.4125 Z-7.38858
X27.31014 Z-7.90554
X26.95689 Y110.4523 Z-7.96823
X26.62135 Y110.56971 Z-8.03091
X26.32035 Y110.75884 Z-8.09359
X26.06898 Y111.01021 Z-8.15627
X25.87985 Y111.31121 Z-8.21895
X25.76244 Y111.64675 Z-8.28164
X25.72264 Y112. Z-8.34432
Y115.9125 Z-9.0342
X20.24529 Z-10.
X7.82996 F4792.
X7.82946 Y115.912
Y112.
G02 X6.24196 Y110.4125 I-1.5875 J0.
G1 X2.24196
G02 X1.11943 Y110.87747 I0. J1.5875
G1 X-0.88057 Y112.87747
G02 X-1.34554 Y114. I1.12253 J1.12253
G1 Y144.
G02 X0.24196 Y145.5875 I1.5875 J0.
G1 X10.23862
G02 X11.82612 Y144.00024 I0. J-1.5875
G1 X11.82922 Y123.5875
X30.24196
G02 X31.82946 Y122. I0. J-1.5875
G1 Y112.
G02 X30.24196 Y110.4125 I-1.5875 J0.
G1 X27.31014
G02 X25.72264 Y112. I0. J1.5875
G1 Y115.9125
X20.24529
G0 Z1.5875
X37.75005 Y106.03027
G1 Z-7.3 F1198.
X37.88871 Y106.07879 Z-7.3259 F3594.
X38.24196 Y106.11859 Z-7.38858
X41.17378 Z-7.90554
X41.52703 Y106.07879 Z-7.96823
X41.86257 Y105.96138 Z-8.03091
X42.16357 Y105.77225 Z-8.09359
X42.41494 Y105.52088 Z-8.15627
X42.60407 Y105.21988 Z-8.21895
X42.72148 Y104.88434 Z-8.28164
X42.76128 Y104.53109 Z-8.34432
Y100.61859 Z-9.0342
X48.23862 Z-10.
X60.65396 F4792.
X60.65446 Y100.61909
Y104.53109
G02 X62.24196 Y106.11859 I1.5875 J0.
G1 X66.24196
G02 X67.36449 Y105.65362 I0. J-1.5875
G1 X69.36449 Y103.65362
G02 X69.82946 Y102.53109 I-1.12253 J-1.12253
G1 Y72.53109
G02 X68.24196 Y70.94359 I-1.5875 J0.
G1 X58.24529
G02 X56.65779 Y72.53085 I0. J1.5875
G1 X56.6547 Y92.94359
X38.24196
G02 X36.65446 Y94.53109 I0. J1.5875
G1 Y104.53109
G02 X38.24196 Y106.11859 I1.5875 J0.
G1 X41.17378
G02 X42.76128 Y104.53109 I0. J-1.5875
G1 Y100.61859
X48.23862
G0 Z1.5875
X68.73386 Y110.50082
G1 Z-7.3 F1198.
X68.59521 Y110.4523 Z-7.3259 F3594.
X68.24196 Y110.4125 Z-7.38858
X65.31014 Z-7.90554
X64.95689 Y110.4523 Z-7.96823
X64.62135 Y110.56971 Z-8.03091
X64.32035 Y110.75884 Z-8.09359
X64.06898 Y111.01021 Z-8.15627
X63.87985 Y111.31121 Z-8.21895
X63.76244 Y111.64675 Z-8.28164
X63.72264 Y112. Z-8.34432
Y115.9125 Z-9.0342
X58.24529 Z-10.
X45.82996 F4792.
X45.82946 Y115.912
Y112.
G02 X44.24196 Y110.4125 I-1.5875 J0.
G1 X40.24196
G02 X39.11943 Y110.87747 I0. J1.5875
G1 X37.11943 Y112.87747
G02 X36.65446 Y114. I1.12253 J1.12253
G1 Y144.
G02 X38.24196 Y145.5875 I1.5875 J0.
G1 X48.23862
G02 X49.82612 Y144.00024 I0. J-1.5875
G1 X49.82922 Y123.5875
X68.24196
G02 X69.82946 Y122. I0. J-1.5875
G1 Y112.
G02 X68.24196 Y110.4125 I-1.5875 J0.
G1 X65.31014
G02 X63.72264 Y112. I0. J1.5875
G1 Y115.9125
X58.24529
G0 Z1.5875
X75.75005 Y106.03027
G1 Z-7.3 F1198.
X75.88871 Y106.07879 Z-7.3259 F3594.
X76.24196 Y106.11859 Z-7.38858
X79.17378 Z-7.90554
X79.52703 Y106.07879 Z-7.96823
X79.86257 Y105.96138 Z-8.03091
X80.16357 Y105.77225 Z-8.09359
X80.41494 Y105.52088 Z-8.15627
X80.60407 Y105.21988 Z-8.21895
X80.72148 Y104.88434 Z-8.28164
X80.76128 Y104.53109 Z-8.34432
Y100.61859 Z-9.0342
X86.23862 Z-10.
X98.65396 F4792.
X98.65446 Y100.61909
Y104.53109
G02 X100.24196 Y106.11859 I1.5875 J0.
G1 X104.24196
G02 X105.36449 Y105.65362 I0. J-1.5875
G1 X107.36449 Y103.65362
G02 X107.82946 Y102.53109 I-1.12253 J-1.12253
G1 Y72.53109
G02 X106.24196 Y70.94359 I-1.5875 J0.
G1 X96.24529
G02 X94.65779 Y72.53085 I0. J1.5875
G1 X94.6547 Y92.94359
X76.24196
G02 X74.65446 Y94.53109 I0. J1.5875
G1 Y104.53109
G02 X76.24196 Y106.11859 I1.5875 J0.
G1 X79.17378
G02 X80.76128 Y104.53109 I0. J-1.5875
G1 Y100.61859
X86.23862
G0 Z1.5875
X106.73386 Y110.50082
G1 Z-7.3 F1198.
X106.59521 Y110.4523 Z-7.3259 F3594.
X106.24196 Y110.4125 Z-7.38858
X103.31014 Z-7.90554
X102.95689 Y110.4523 Z-7.96823
X102.62135 Y110.56971 Z-8.03091
X102.32035 Y110.75884 Z-8.09359
X102.06898 Y111.01021 Z-8.15627
X101.87985 Y111.31121 Z-8.21895
X101.76244 Y111.64675 Z-8.28164
X101.72264 Y112. Z-8.34432
Y115.9125 Z-9.0342
X96.24529 Z-10.
X83.82996 F4792.
X83.82946 Y115.912
Y112.
G02 X82.24196 Y110.4125 I-1.5875 J0.
G1 X78.24196
G02 X77.11943 Y110.87747 I0. J1.5875
G1 X75.11943 Y112.87747
G02 X74.65446 Y114. I1.12253 J1.12253
G1 Y144.
G02 X76.24196 Y145.5875 I1.5875 J0.
G1 X86.23862
G02 X87.82612 Y144.00024 I0. J-1.5875
G1 X87.82922 Y123.5875
X106.24196
G02 X107.82946 Y122. I0. J-1.5875
G1 Y112.
G02 X106.24196 Y110.4125 I-1.5875 J0.
G1 X103.31014
G02 X101.72264 Y112. I0. J1.5875
G1 Y115.9125
X96.24529
G0 Z1.5875
X75.75005 Y162.03027
G1 Z-7.3 F1198.
X75.88871 Y162.07879 Z-7.3259 F3594.
X76.24196 Y162.11859 Z-7.38858
X79.17378 Z-7.90554
X79.52703 Y162.07879 Z-7.96823
X79.86257 Y161.96138 Z-8.03091
X80.16357 Y161.77225 Z-8.09359
X80.41494 Y161.52088 Z-8.15627
X80.60407 Y161.21988 Z-8.21895
X80.72148 Y160.88434 Z-8.28164
X80.76128 Y160.53109 Z-8.34432
Y156.61859 Z-9.0342
X86.23862 Z-10.
X98.65396 F4792.
X98.65446 Y156.61909
Y160.53109
G02 X100.24196 Y162.11859 I1.5875 J0.
G1 X104.24196
G02 X105.36449 Y161.65362 I0. J-1.5875
G1 X107.36449 Y159.65362
G02 X107.82946 Y158.53109 I-1.12253 J-1.12253
G1 Y128.53109
G02 X106.24196 Y126.94359 I-1.5875 J0.
G1 X96.24529
G02 X94.65779 Y128.53085 I0. J1.5875
G1 X94.6547 Y148.94359
X76.24196
G02 X74.65446 Y150.53109 I0. J1.5875
G1 Y160.53109
G02 X76.24196 Y162.11859 I1.5875 J0.
G1 X79.17378
G02 X80.76128 Y160.53109 I0. J-1.5875
G1 Y156.61859
X86.23862
G0 Z1.5875
X37.75005 Y162.03027
G1 Z-7.3 F1198.
X37.88871 Y162.07879 Z-7.3259 F3594.
X38.24196 Y162.11859 Z-7.38858
X41.17378 Z-7.90554
X41.52703 Y162.07879 Z-7.96823
X41.86257 Y161.96138 Z-8.03091
X42.16357 Y161.77225 Z-8.09359
X42.41494 Y161.52088 Z-8.15627
X42.60407 Y161.21988 Z-8.21895
X42.72148 Y160.88434 Z-8.28164
X42.76128 Y160.53109 Z-8.34432
Y156.61859 Z-9.0342
X48.23862 Z-10.
X60.65396 F4792.
X60.65446 Y156.61909
Y160.53109
G02 X62.24196 Y162.11859 I1.5875 J0.
G1 X66.24196
G02 X67.36449 Y161.65362 I0. J-1.5875
G1 X69.36449 Y159.65362
G02 X69.82946 Y158.53109 I-1.12253 J-1.12253
G1 Y128.53109
G02 X68.24196 Y126.94359 I-1.5875 J0.
G1 X58.24529
G02 X56.65779 Y128.53085 I0. J1.5875
G1 X56.6547 Y148.94359
X38.24196
G02 X36.65446 Y150.53109 I0. J1.5875
G1 Y160.53109
G02 X38.24196 Y162.11859 I1.5875 J0.
G1 X41.17378
G02 X42.76128 Y160.53109 I0. J-1.5875
G1 Y156.61859
X48.23862
G0 Z1.5875
X-0.24995 Y162.03027
G1 Z-7.3 F1198.
X-0.11129 Y162.07879 Z-7.3259 F3594.
X0.24196 Y162.11859 Z-7.38858
X3.17378 Z-7.90554
X3.52703 Y162.07879 Z-7.96823
X3.86257 Y161.96138 Z-8.03091
X4.16357 Y161.77225 Z-8.09359
X4.41494 Y161.52088 Z-8.15627
X4.60407 Y161.21988 Z-8.21895
X4.72148 Y160.88434 Z-8.28164
X4.76128 Y160.53109 Z-8.34432
Y156.61859 Z-9.0342
X10.23862 Z-10.
X22.65396 F4792.
X22.65446 Y156.61909
Y160.53109
G02 X24.24196 Y162.11859 I1.5875 J0.
G1 X28.24196
G02 X29.36449 Y161.65362 I0. J-1.5875
G1 X31.36449 Y159.65362
G02 X31.82946 Y158.53109 I-1.12253 J-1.12253
G1 Y128.53109
G02 X30.24196 Y126.94359 I-1.5875 J0.
G1 X20.24529
G02 X18.65779 Y128.53085 I0. J1.5875
G1 X18.6547 Y148.94359
X0.24196
G02 X-1.34554 Y150.53109 I0. J1.5875
G1 Y160.53109
G02 X0.24196 Y162.11859 I1.5875 J0.
G1 X3.17378
G02 X4.76128 Y160.53109 I0. J-1.5875
G1 Y156.61859
X10.23862
G0 Z1.5875
X-0.24995 Y162.03027
G1 Z-9.8 F1198.
X-0.11129 Y162.07879 Z-9.8259 F3594.
X0.24196 Y162.11859 Z-9.88858
X3.17378 Z-10.40554
X3.52703 Y162.07879 Z-10.46823
X3.86257 Y161.96138 Z-10.53091
X4.16357 Y161.77225 Z-10.59359
X4.41494 Y161.52088 Z-10.65627
X4.60407 Y161.21988 Z-10.71895
X4.72148 Y160.88434 Z-10.78164
X4.76128 Y160.53109 Z-10.84432
Y156.61859 Z-11.5342
X10.23862 Z-12.5
X22.65396 F4792.
X22.65446 Y156.61909
Y160.53109
G02 X24.24196 Y162.11859 I1.5875 J0.
G1 X28.24196
G02 X29.36449 Y161.65362 I0. J-1.5875
G1 X31.36449 Y159.65362
G02 X31.82946 Y158.53109 I-1.12253 J-1.12253
G1 Y128.53109
G02 X30.24196 Y126.94359 I-1.5875 J0.
G1 X20.24529
G02 X18.65779 Y128.53085 I0. J1.5875
G1 X18.6547 Y148.94359
X0.24196
G02 X-1.34554 Y150.53109 I0. J1.5875
G1 Y160.53109
G02 X0.24196 Y162.11859 I1.5875 J0.
G1 X3.17378
G02 X4.76128 Y160.53109 I0. J-1.5875
G1 Y156.61859
X10.23862
G0 Z1.5875
X37.75005 Y162.03027
G1 Z-9.8 F1198.
X37.88871 Y162.07879 Z-9.8259 F3594.
X38.24196 Y162.11859 Z-9.88858
X41.17378 Z-10.40554
X41.52703 Y162.07879 Z-10.46823
X41.86257 Y161.96138 Z-10.53091
X42.16357 Y161.77225 Z-10.59359
X42.41494 Y161.52088 Z-10.65627
X42.60407 Y161.21988 Z-10.71895
X42.72148 Y160.88434 Z-10.78164
X42.76128 Y160.53109 Z-10.84432
Y156.61859 Z-11.5342
X48.23862 Z-12.5
X60.65396 F4792.
X60.65446 Y156.61909
Y160.53109
G02 X62.24196 Y162.11859 I1.5875 J0.
G1 X66.24196
G02 X67.36449 Y161.65362 I0. J-1.5875
G1 X69.36449 Y159.65362
G02 X69.82946 Y158.53109 I-1.12253 J-1.12253
G1 Y128.53109
G02 X68.24196 Y126.94359 I-1.5875 J0.
G1 X58.24529
G02 X56.65779 Y128.53085 I0. J1.5875
G1 X56.6547 Y148.94359
X38.24196
G02 X36.65446 Y150.53109 I0. J1.5875
G1 Y160.53109
G02 X38.24196 Y162.11859 I1.5875 J0.
G1 X41.17378
G02 X42.76128 Y160.53109 I0. J-1.5875
G1 Y156.61859
X48.23862
G0 Z1.5875
X75.75005 Y162.03027
G1 Z-9.8 F1198.
X75.88871 Y162.07879 Z-9.8259 F3594.
X76.24196 Y162.11859 Z-9.88858
X79.17378 Z-10.40554
X79.52703 Y162.07879 Z-10.46823
X79.86257 Y161.96138 Z-10.53091
X80.16357 Y161.77225 Z-10.59359
X80.41494 Y161.52088 Z-10.65627
X80.60407 Y161.21988 Z-10.71895
X80.72148 Y160.88434 Z-10.78164
X80.76128 Y160.53109 Z-10.84432
Y156.61859 Z-11.5342
X86.23862 Z-12.5
X98.65396 F4792.
X98.65446 Y156.61909
Y160.53109
G02 X100.24196 Y162.11859 I1.5875 J0.
G1 X104.24196
G02 X105.36449 Y161.65362 I0. J-1.5875
G1 X107.36449 Y159.65362
G02 X107.82946 Y158.53109 I-1.12253 J-1.12253
G1 Y128.53109
G02 X106.24196 Y126.94359 I-1.5875 J0.
G1 X96.24529
G02 X94.65779 Y128.53085 I0. J1.5875
G1 X94.6547 Y148.94359
X76.24196
G02 X74.65446 Y150.53109 I0. J1.5875
G1 Y160.53109
G02 X76.24196 Y162.11859 I1.5875 J0.
G1 X79.17378
G02 X80.76128 Y160.53109 I0. J-1.5875
G1 Y156.61859
X86.23862
G0 Z1.5875
X106.73386 Y110.50082
G1 Z-9.8 F1198.
X106.59521 Y110.4523 Z-9.8259 F3594.
X106.24196 Y110.4125 Z-9.88858
X103.31014 Z-10.40554
X102.95689 Y110.4523 Z-10.46823
X102.62135 Y110.56971 Z-10.53091
X102.32035 Y110.75884 Z-10.59359
X102.06898 Y111.01021 Z-10.65627
X101.87985 Y111.31121 Z-10.71895
X101.76244 Y111.64675 Z-10.78164
X101.72264 Y112. Z-10.84432
Y115.9125 Z-11.5342
X96.24529 Z-12.5
X83.82996 F4792.
X83.82946 Y115.912
Y112.
G02 X82.24196 Y110.4125 I-1.5875 J0.
G1 X78.24196
G02 X77.11943 Y110.87747 I0. J1.5875
G1 X75.11943 Y112.87747
G02 X74.65446 Y114. I1.12253 J1.12253
G1 Y144.
G02 X76.24196 Y145.5875 I1.5875 J0.
G1 X86.23862
G02 X87.82612 Y144.00024 I0. J-1.5875
G1 X87.82922 Y123.5875
X106.24196
G02 X107.82946 Y122. I0. J-1.5875
G1 Y112.
G02 X106.24196 Y110.4125 I-1.5875 J0.
G1 X103.31014
G02 X101.72264 Y112. I0. J1.5875
G1 Y115.9125
X96.24529
G0 Z1.5875
X75.75005 Y106.03027
G1 Z-9.8 F1198.
X75.88871 Y106.07879 Z-9.8259 F3594.
X76.24196 Y106.11859 Z-9.88858
X79.17378 Z-10.40554
X79.52703 Y106.07879 Z-10.46823
X79.86257 Y105.96138 Z-10.53091
X80.16357 Y105.77225 Z-10.59359
X80.41494 Y105.52088 Z-10.65627
X80.60407 Y105.21988 Z-10.71895
X80.72148 Y104.88434 Z-10.78164
X80.76128 Y104.53109 Z-10.84432
Y100.61859 Z-11.5342
X86.23862 Z-12.5
X98.65396 F4792.
X98.65446 Y100.61909
Y104.53109
G02 X100.24196 Y106.11859 I1.5875 J0.
G1 X104.24196
G02 X105.36449 Y105.65362 I0. J-1.5875
G1 X107.36449 Y103.65362
G02 X107.82946 Y102.53109 I-1.12253 J-1.12253
G1 Y72.53109
G02 X106.24196 Y70.94359 I-1.5875 J0.
G1 X96.24529
G02 X94.65779 Y72.53085 I0. J1.5875
G1 X94.6547 Y92.94359
X76.24196
G02 X74.65446 Y94.53109 I0. J1.5875
G1 Y104.53109
G02 X76.24196 Y106.11859 I1.5875 J0.
G1 X79.17378
G02 X80.76128 Y104.53109 I0. J-1.5875
G1 Y100.61859
X86.23862
G0 Z1.5875
X68.73386 Y110.50082
G1 Z-9.8 F1198.
X68.59521 Y110.4523 Z-9.8259 F3594.
X68.24196 Y110.4125 Z-9.88858
X65.31014 Z-10.40554
X64.95689 Y110.4523 Z-10.46823
X64.62135 Y110.56971 Z-10.53091
X64.32035 Y110.75884 Z-10.59359
X64.06898 Y111.01021 Z-10.65627
X63.87985 Y111.31121 Z-10.71895
X63.76244 Y111.64675 Z-10.78164
X63.72264 Y112. Z-10.84432
Y115.9125 Z-11.5342
X58.24529 Z-12.5
X45.82996 F4792.
X45.82946 Y115.912
Y112.
G02 X44.24196 Y110.4125 I-1.5875 J0.
G1 X40.24196
G02 X39.11943 Y110.87747 I0. J1.5875
G1 X37.11943 Y112.87747
G02 X36.65446 Y114. I1.12253 J1.12253
G1 Y144.
G02 X38.24196 Y145.5875 I1.5875 J0.
G1 X48.23862
G02 X49.82612 Y144.00024 I0. J-1.5875
G1 X49.82922 Y123.5875
X68.24196
G02 X69.82946 Y122. I0. J-1.5875
G1 Y112.
G02 X68.24196 Y110.4125 I-1.5875 J0.
G1 X65.31014
G02 X63.72264 Y112. I0. J1.5875
G1 Y115.9125
X58.24529
G0 Z1.5875
X37.75005 Y106.03027
G1 Z-9.8 F1198.
X37.88871 Y106.07879 Z-9.8259 F3594.
X38.24196 Y106.11859 Z-9.88858
X41.17378 Z-10.40554
X41.52703 Y106.07879 Z-10.46823
X41.86257 Y105.96138 Z-10.53091
X42.16357 Y105.77225 Z-10.59359
X42.41494 Y105.52088 Z-10.65627
X42.60407 Y105.21988 Z-10.71895
X42.72148 Y104.88434 Z-10.78164
X42.76128 Y104.53109 Z-10.84432
Y100.61859 Z-11.5342
X48.23862 Z-12.5
X60.65396 F4792.
X60.65446 Y100.61909
Y104.53109
G02 X62.24196 Y106.11859 I1.5875 J0.
G1 X66.24196
G02 X67.36449 Y105.65362 I0. J-1.5875
G1 X69.36449 Y103.65362
G02 X69.82946 Y102.53109 I-1.12253 J-1.12253
G1 Y72.53109
G02 X68.24196 Y70.94359 I-1.5875 J0.
G1 X58.24529
G02 X56.65779 Y72.53085 I0. J1.5875
G1 X56.6547 Y92.94359
X38.24196
G02 X36.65446 Y94.53109 I0. J1.5875
G1 Y104.53109
G02 X38.24196 Y106.11859 I1.5875 J0.
G1 X41.17378
G02 X42.76128 Y104.53109 I0. J-1.5875
G1 Y100.61859
X48.23862
G0 Z1.5875
X30.73386 Y110.50082
G1 Z-9.8 F1198.
X30.59521 Y110.4523 Z-9.8259 F3594.
X30.24196 Y110.4125 Z-9.88858
X27.31014 Z-10.40554
X26.95689 Y110.4523 Z-10.46823
X26.62135 Y110.56971 Z-10.53091
X26.32035 Y110.75884 Z-10.59359
X26.06898 Y111.01021 Z-10.65627
X25.87985 Y111.31121 Z-10.71895
X25.76244 Y111.64675 Z-10.78164
X25.72264 Y112. Z-10.84432
Y115.9125 Z-11.5342
X20.24529 Z-12.5
X7.82996 F4792.
X7.82946 Y115.912
Y112.
G02 X6.24196 Y110.4125 I-1.5875 J0.
G1 X2.24196
G02 X1.11943 Y110.87747 I0. J1.5875
G1 X-0.88057 Y112.87747
G02 X-1.34554 Y114. I1.12253 J1.12253
G1 Y144.
G02 X0.24196 Y145.5875 I1.5875 J0.
G1 X10.23862
G02 X11.82612 Y144.00024 I0. J-1.5875
G1 X11.82922 Y123.5875
X30.24196
G02 X31.82946 Y122. I0. J-1.5875
G1 Y112.
G02 X30.24196 Y110.4125 I-1.5875 J0.
G1 X27.31014
G02 X25.72264 Y112. I0. J1.5875
G1 Y115.9125
X20.24529
G0 Z1.5875
X-0.24995 Y106.03027
G1 Z-9.8 F1198.
X-0.11129 Y106.07879 Z-9.8259 F3594.
X0.24196 Y106.11859 Z-9.88858
X3.17378 Z-10.40554
X3.52703 Y106.07879 Z-10.46823
X3.86257 Y105.96138 Z-10.53091
X4.16357 Y105.77225 Z-10.59359
X4.41494 Y105.52088 Z-10.65627
X4.60407 Y105.21988 Z-10.71895
X4.72148 Y104.88434 Z-10.78164
X4.76128 Y104.53109 Z-10.84432
Y100.61859 Z-11.5342
X10.23862 Z-12.5
X22.65396 F4792.
X22.65446 Y100.61909
Y104.53109
G02 X24.24196 Y106.11859 I1.5875 J0.
G1 X28.24196
G02 X29.36449 Y105.65362 I0. J-1.5875
G1 X31.36449 Y103.65362
G02 X31.82946 Y102.53109 I-1.12253 J-1.12253
G1 Y72.53109
G02 X30.24196 Y70.94359 I-1.5875 J0.
G1 X20.24529
G02 X18.65779 Y72.53085 I0. J1.5875
G1 X18.6547 Y92.94359
X0.24196
G02 X-1.34554 Y94.53109 I0. J1.5875
G1 Y104.53109
G02 X0.24196 Y106.11859 I1.5875 J0.
G1 X3.17378
G02 X4.76128 Y104.53109 I0. J-1.5875
G1 Y100.61859
X10.23862
G0 Z1.5875
X30.73386 Y54.50082
G1 Z-9.8 F1198.
X30.59521 Y54.4523 Z-9.8259 F3594.
X30.24196 Y54.4125 Z-9.88858
X27.31014 Z-10.40554
X26.95689 Y54.4523 Z-10.46823
X26.62135 Y54.56971 Z-10.53091
X26.32035 Y54.75884 Z-10.59359
X26.06898 Y55.01021 Z-10.65627
X25.87985 Y55.31121 Z-10.71895
X25.76244 Y55.64675 Z-10.78164
X25.72264 Y56. Z-10.84432
Y59.9125 Z-11.5342
X20.24529 Z-12.5
X7.82996 F4792.
X7.82946 Y59.912
Y56.
G02 X6.24196 Y54.4125 I-1.5875 J0.
G1 X2.24196
G02 X1.11943 Y54.87747 I0. J1.5875
G1 X-0.88057 Y56.87747
G02 X-1.34554 Y58. I1.12253 J1.12253
G1 Y88.
G02 X0.24196 Y89.5875 I1.5875 J0.
G1 X10.23862
G02 X11.82612 Y88.00024 I0. J-1.5875
G1 X11.82922 Y67.5875
X30.24196
G02 X31.82946 Y66. I0. J-1.5875
G1 Y56.
G02 X30.24196 Y54.4125 I-1.5875 J0.
G1 X27.31014
G02 X25.72264 Y56. I0. J1.5875
G1 Y59.9125
X20.24529
G0 Z1.5875
X-0.24995 Y50.03027
G1 Z-9.8 F1198.
X-0.11129 Y50.07879 Z-9.8259 F3594.
X0.24196 Y50.11859 Z-9.88858
X3.17378 Z-10.40554
X3.52703 Y50.07879 Z-10.46823
X3.86257 Y49.96138 Z-10.53091
X4.16357 Y49.77225 Z-10.59359
X4.41494 Y49.52088 Z-10.65627
X4.60407 Y49.21988 Z-10.71895
X4.72148 Y48.88434 Z-10.78164
X4.76128 Y48.53109 Z-10.84432
Y44.61859 Z-11.5342
X10.23862 Z-12.5
X22.65396 F4792.
X22.65446 Y44.61909
Y48.53109
G02 X24.24196 Y50.11859 I1.5875 J0.
G1 X28.24196
G02 X29.36449 Y49.65362 I0. J-1.5875
G1 X31.36449 Y47.65362
G02 X31.82946 Y46.53109 I-1.12253 J-1.12253
G1 Y16.53109
G02 X30.24196 Y14.94359 I-1.5875 J0.
G1 X20.24529
G02 X18.65779 Y16.53085 I0. J1.5875
G1 X18.6547 Y36.94359
X0.24196
G02 X-1.34554 Y38.53109 I0. J1.5875
G1 Y48.53109
G02 X0.24196 Y50.11859 I1.5875 J0.
G1 X3.17378
G02 X4.76128 Y48.53109 I0. J-1.5875
G1 Y44.61859
X10.23862
G0 Z1.5875
X37.75005 Y50.03027
G1 Z-9.8 F1198.
X37.88871 Y50.07879 Z-9.8259 F3594.
X38.24196 Y50.11859 Z-9.88858
X41.17378 Z-10.40554
X41.52703 Y50.07879 Z-10.46823
X41.86257 Y49.96138 Z-10.53091
X42.16357 Y49.77225 Z-10.59359
X42.41494 Y49.52088 Z-10.65627
X42.60407 Y49.21988 Z-10.71895
X42.72148 Y48.88434 Z-10.78164
X42.76128 Y48.53109 Z-10.84432
Y44.61859 Z-11.5342
X48.23862 Z-12.5
X60.65396 F4792.
X60.65446 Y44.61909
Y48.53109
G02 X62.24196 Y50.11859 I1.5875 J0.
G1 X66.24196
G02 X67.36449 Y49.65362 I0. J-1.5875
G1 X69.36449 Y47.65362
G02 X69.82946 Y46.53109 I-1.12253 J-1.12253
G1 Y16.53109
G02 X68.24196 Y14.94359 I-1.5875 J0.
G1 X58.24529
G02 X56.65779 Y16.53085 I0. J1.5875
G1 X56.6547 Y36.94359
X38.24196
G02 X36.65446 Y38.53109 I0. J1.5875
G1 Y48.53109
G02 X38.24196 Y50.11859 I1.5875 J0.
G1 X41.17378
G02 X42.76128 Y48.53109 I0. J-1.5875
G1 Y44.61859
X48.23862
G0 Z1.5875
X68.73386 Y54.50082
G1 Z-9.8 F1198.
X68.59521 Y54.4523 Z-9.8259 F3594.
X68.24196 Y54.4125 Z-9.88858
X65.31014 Z-10.40554
X64.95689 Y54.4523 Z-10.46823
X64.62135 Y54.56971 Z-10.53091
X64.32035 Y54.75884 Z-10.59359
X64.06898 Y55.01021 Z-10.65627
X63.87985 Y55.31121 Z-10.71895
X63.76244 Y55.64675 Z-10.78164
X63.72264 Y56. Z-10.84432
Y59.9125 Z-11.5342
X58.24529 Z-12.5
X45.82996 F4792.
X45.82946 Y59.912
Y56.
G02 X44.24196 Y54.4125 I-1.5875 J0.
G1 X40.24196
G02 X39.11943 Y54.87747 I0. J1.5875
G1 X37.11943 Y56.87747
G02 X36.65446 Y58. I1.12253 J1.12253
G1 Y88.
G02 X38.24196 Y89.5875 I1.5875 J0.
G1 X48.23862
G02 X49.82612 Y88.00024 I0. J-1.5875
G1 X49.82922 Y67.5875
X68.24196
G02 X69.82946 Y66. I0. J-1.5875
G1 Y56.
G02 X68.24196 Y54.4125 I-1.5875 J0.
G1 X65.31014
G02 X63.72264 Y56. I0. J1.5875
G1 Y59.9125
X58.24529
G0 Z1.5875
X75.75005 Y50.03027
G1 Z-9.8 F1198.
X75.88871 Y50.07879 Z-9.8259 F3594.
X76.24196 Y50.11859 Z-9.88858
X79.17378 Z-10.40554
X79.52703 Y50.07879 Z-10.46823
X79.86257 Y49.96138 Z-10.53091
X80.16357 Y49.77225 Z-10.59359
X80.41494 Y49.52088 Z-10.65627
X80.60407 Y49.21988 Z-10.71895
X80.72148 Y48.88434 Z-10.78164
X80.76128 Y48.53109 Z-10.84432
Y44.61859 Z-11.5342
X86.23862 Z-12.5
X98.65396 F4792.
X98.65446 Y44.61909
Y48.53109
G02 X100.24196 Y50.11859 I1.5875 J0.
G1 X104.24196
G02 X105.36449 Y49.65362 I0. J-1.5875
G1 X107.36449 Y47.65362
G02 X107.82946 Y46.53109 I-1.12253 J-1.12253
G1 Y16.53109
G02 X106.24196 Y14.94359 I-1.5875 J0.
G1 X96.24529
G02 X94.65779 Y16.53085 I0. J1.5875
G1 X94.6547 Y36.94359
X76.24196
G02 X74.65446 Y38.53109 I0. J1.5875
G1 Y48.53109
G02 X76.24196 Y50.11859 I1.5875 J0.
G1 X79.17378
G02 X80.76128 Y48.53109 I0. J-1.5875
G1 Y44.61859
X86.23862
G0 Z1.5875
X106.73386 Y54.50082
G1 Z-9.8 F1198.
X106.59521 Y54.4523 Z-9.8259 F3594.
X106.24196 Y54.4125 Z-9.88858
X103.31014 Z-10.40554
X102.95689 Y54.4523 Z-10.46823
X102.62135 Y54.56971 Z-10.53091
X102.32035 Y54.75884 Z-10.59359
X102.06898 Y55.01021 Z-10.65627
X101.87985 Y55.31121 Z-10.71895
X101.76244 Y55.64675 Z-10.78164
X101.72264 Y56. Z-10.84432
Y59.9125 Z-11.5342
X96.24529 Z-12.5
X83.82996 F4792.
X83.82946 Y59.912
Y56.
G02 X82.24196 Y54.4125 I-1.5875 J0.
G1 X78.24196
G02 X77.11943 Y54.87747 I0. J1.5875
G1 X75.11943 Y56.87747
G02 X74.65446 Y58. I1.12253 J1.12253
G1 Y88.
G02 X76.24196 Y89.5875 I1.5875 J0.
G1 X86.23862
G02 X87.82612 Y88.00024 I0. J-1.5875
G1 X87.82922 Y67.5875
X106.24196
G02 X107.82946 Y66. I0. J-1.5875
G1 Y56.
G02 X106.24196 Y54.4125 I-1.5875 J0.
G1 X103.31014
G02 X101.72264 Y56. I0. J1.5875
G1 Y59.9125
X96.24529
G0 Z1.5875
X106.73386 Y-1.49918
G1 Z-9.8 F1198.
X106.59521 Y-1.5477 Z-9.8259 F3594.
X106.24196 Y-1.5875 Z-9.88858
X103.31014 Z-10.40554
X102.95689 Y-1.5477 Z-10.46823
X102.62135 Y-1.43029 Z-10.53091
X102.32035 Y-1.24116 Z-10.59359
X102.06898 Y-0.98979 Z-10.65627
X101.87985 Y-0.68879 Z-10.71895
X101.76244 Y-0.35325 Z-10.78164
X101.72264 Y0. Z-10.84432
Y3.9125 Z-11.5342
X96.24529 Z-12.5
X83.82996 F4792.
X83.82946 Y3.912
Y0.
G02 X82.24196 Y-1.5875 I-1.5875 J0.
G1 X78.24196
G02 X77.11943 Y-1.12253 I0. J1.5875
G1 X75.11943 Y0.87747
G02 X74.65446 Y2. I1.12253 J1.12253
G1 Y32.
G02 X76.24196 Y33.5875 I1.5875 J0.
G1 X86.23862
G02 X87.82612 Y32.00024 I0. J-1.5875
G1 X87.82922 Y11.5875
X106.24196
G02 X107.82946 Y10. I0. J-1.5875
G1 Y0.
G02 X106.24196 Y-1.5875 I-1.5875 J0.
G1 X103.31014
G02 X101.72264 Y0. I0. J1.5875
G1 Y3.9125
X96.24529
G0 Z1.5875
X68.73386 Y-1.49918
G1 Z-9.8 F1198.
X68.59521 Y-1.5477 Z-9.8259 F3594.
X68.24196 Y-1.5875 Z-9.88858
X65.31014 Z-10.40554
X64.95689 Y-1.5477 Z-10.46823
X64.62135 Y-1.43029 Z-10.53091
X64.32035 Y-1.24116 Z-10.59359
X64.06898 Y-0.98979 Z-10.65627
X63.87985 Y-0.68879 Z-10.71895
X63.76244 Y-0.35325 Z-10.78164
X63.72264 Y0. Z-10.84432
Y3.9125 Z-11.5342
X58.24529 Z-12.5
X45.82996 F4792.
X45.82946 Y3.912
Y0.
G02 X44.24196 Y-1.5875 I-1.5875 J0.
G1 X40.24196
G02 X39.11943 Y-1.12253 I0. J1.5875
G1 X37.11943 Y0.87747
G02 X36.65446 Y2. I1.12253 J1.12253
G1 Y32.
G02 X38.24196 Y33.5875 I1.5875 J0.
G1 X48.23862
G02 X49.82612 Y32.00024 I0. J-1.5875
G1 X49.82922 Y11.5875
X68.24196
G02 X69.82946 Y10. I0. J-1.5875
G1 Y0.
G02 X68.24196 Y-1.5875 I-1.5875 J0.
G1 X65.31014
G02 X63.72264 Y0. I0. J1.5875
G1 Y3.9125
X58.24529
G0 Z1.5875
X30.73386 Y-1.49918
G1 Z-9.8 F1198.
X30.59521 Y-1.5477 Z-9.8259 F3594.
X30.24196 Y-1.5875 Z-9.88858
X27.31014 Z-10.40554
X26.95689 Y-1.5477 Z-10.46823
X26.62135 Y-1.43029 Z-10.53091
X26.32035 Y-1.24116 Z-10.59359
X26.06898 Y-0.98979 Z-10.65627
X25.87985 Y-0.68879 Z-10.71895
X25.76244 Y-0.35325 Z-10.78164
X25.72264 Y0. Z-10.84432
Y3.9125 Z-11.5342
X20.24529 Z-12.5
X7.82996 F4792.
X7.82946 Y3.912
Y0.
G02 X6.24196 Y-1.5875 I-1.5875 J0.
G1 X2.24196
G02 X1.11943 Y-1.12253 I0. J1.5875
G1 X-0.88057 Y0.87747
G02 X-1.34554 Y2. I1.12253 J1.12253
G1 Y32.
G02 X0.24196 Y33.5875 I1.5875 J0.
G1 X10.23862
G02 X11.82612 Y32.00024 I0. J-1.5875
G1 X11.82922 Y11.5875
X30.24196
G02 X31.82946 Y10. I0. J-1.5875
G1 Y0.
G02 X30.24196 Y-1.5875 I-1.5875 J0.
G1 X27.31014
G02 X25.72264 Y0. I0. J1.5875
G1 Y3.9125
X20.24529
G0 Z1.5875
M30
%
