%
G17 G21 G40 G90 G64 P0.1
(2 1/2 Axis Profiling Inside)
(1/4in 6.35mm 2 Flute Carbide Router)
T30 M06
S17544 M3
G0 Z3.175
X57.91474 Y18.175
G1 Z0.83333 F1228.
X79.83121 Z-3.03113 F3684.
X79.87581 Y18.17621 Z-3.039
X79.92027 Y18.17982 Z-3.04687
X79.96448 Y18.18584 Z-3.05473
X80.0083 Y18.19423 Z-3.0626
X80.0516 Y18.20498 Z-3.07047
X80.09426 Y18.21806 Z-3.07833
X80.13614 Y18.23342 Z-3.0862
X80.17714 Y18.25103 Z-3.09407
X80.21712 Y18.27083 Z-3.10193
X80.25598 Y18.29276 Z-3.1098
X80.29359 Y18.31675 Z-3.11767
X80.32985 Y18.34275 Z-3.12553
X80.36465 Y18.37067 Z-3.1334
X80.39789 Y18.40042 Z-3.14127
X80.42948 Y18.43193 Z-3.14914
X80.49347 Y18.50803 Z-3.16667
X80.42948 Y18.43193 F4912.
G17
G03 X80.2422 Y19.71534 I-0.59827 J0.56807
G1 X41.41099 Y42.0253
G03 X40.175 Y41.30996 I-0.41099 J-0.71534
G1 Y19.
G03 X41. Y18.175 I0.825 J0.
G1 X79.83121
G03 X80.42948 Y18.43193 I-0.00001 J0.82501
G0 Z3.175
X57.91474 Y18.175
G1 Z-2.33333 F1228.
X79.83121 Z-6.1978 F3684.
X79.87581 Y18.17621 Z-6.20567
X79.92027 Y18.17982 Z-6.21353
X79.96448 Y18.18584 Z-6.2214
X80.0083 Y18.19423 Z-6.22927
X80.0516 Y18.20498 Z-6.23713
X80.09426 Y18.21806 Z-6.245
X80.13614 Y18.23342 Z-6.25287
X80.17714 Y18.25103 Z-6.26073
X80.21712 Y18.27083 Z-6.2686
X80.25598 Y18.29276 Z-6.27647
X80.29359 Y18.31675 Z-6.28433
X80.32985 Y18.34275 Z-6.2922
X80.36465 Y18.37067 Z-6.30007
X80.39789 Y18.40042 Z-6.30793
X80.42948 Y18.43193 Z-6.3158
X80.49347 Y18.50803 Z-6.33333
X80.42948 Y18.43193 F4912.
G03 X80.2422 Y19.71534 I-0.59827 J0.56807
G1 X41.41099 Y42.0253
G03 X40.175 Y41.30996 I-0.41099 J-0.71534
G1 Y19.
G03 X41. Y18.175 I0.825 J0.
G1 X79.83121
G03 X80.42948 Y18.43193 I-0.00001 J0.82501
G0 Z3.175
X57.91474 Y18.175
G1 Z-5.5 F1228.
X79.83121 Z-9.36446 F3684.
X79.87581 Y18.17621 Z-9.37233
X79.92027 Y18.17982 Z-9.3802
X79.96448 Y18.18584 Z-9.38807
X80.0083 Y18.19423 Z-9.39593
X80.0516 Y18.20498 Z-9.4038
X80.09426 Y18.21806 Z-9.41167
X80.13614 Y18.23342 Z-9.41953
X80.17714 Y18.25103 Z-9.4274
X80.21712 Y18.27083 Z-9.43527
X80.25598 Y18.29276 Z-9.44313
X80.29359 Y18.31675 Z-9.451
X80.32985 Y18.34275 Z-9.45887
X80.36465 Y18.37067 Z-9.46674
X80.39789 Y18.40042 Z-9.4746
X80.42948 Y18.43193 Z-9.48247
X80.49347 Y18.50803 Z-9.5
X80.42948 Y18.43193 F4912.
G03 X80.2422 Y19.71534 I-0.59827 J0.56807
G1 X41.41099 Y42.0253
G03 X40.175 Y41.30996 I-0.41099 J-0.71534
G1 Y19.
G03 X41. Y18.175 I0.825 J0.
G1 X79.83121
G03 X80.42948 Y18.43193 I-0.00001 J0.82501
G0 Z3.175
X90.21969 Y35.1459
G1 Z0.83333 F1228.
X93.58901 Y33.21009 Z0.14816 F3684.
X93.69246 Y33.1599 Z0.12788
X93.80188 Y33.12458 Z0.10761
X93.91515 Y33.10481 Z0.08733
X94.03007 Y33.10098 Z0.06706
X94.1444 Y33.11317 Z0.04678
X94.25593 Y33.14114 Z0.02651
X94.36249 Y33.18434 Z0.00623
X94.46201 Y33.24194 Z-0.01404
X94.55255 Y33.31281 Z-0.03431
X94.63236 Y33.39558 Z-0.05459
X94.69989 Y33.48865 Z-0.07486
X94.75382 Y33.5902 Z-0.09514
X94.7931 Y33.69826 Z-0.11541
X94.81699 Y33.81073 Z-0.13569
X94.825 Y33.92544 Z-0.15596
Y51. Z-3.16667
G03 X94. Y51.825 I-0.825 J0. F4912.
G1 X64.28117
G03 X63.87018 Y50.28466 I0. J-0.825
G1 X93.58901 Y33.21009
G03 X94.825 Y33.92544 I0.41099 J0.71535
G1 Y51.
G0 Z3.175
X90.21969 Y35.1459
G1 Z-2.33333 F1228.
X93.58901 Y33.21009 Z-3.01851 F3684.
X93.69246 Y33.1599 Z-3.03878
X93.80188 Y33.12458 Z-3.05906
X93.91515 Y33.10481 Z-3.07933
X94.03007 Y33.10098 Z-3.09961
X94.1444 Y33.11317 Z-3.11988
X94.25593 Y33.14114 Z-3.14016
X94.36249 Y33.18434 Z-3.16043
X94.46201 Y33.24194 Z-3.18071
X94.55255 Y33.31281 Z-3.20098
X94.63236 Y33.39558 Z-3.22126
X94.69989 Y33.48865 Z-3.24153
X94.75382 Y33.5902 Z-3.2618
X94.7931 Y33.69826 Z-3.28208
X94.81699 Y33.81073 Z-3.30235
X94.825 Y33.92544 Z-3.32263
Y51. Z-6.33333
G03 X94. Y51.825 I-0.825 J0. F4912.
G1 X64.28117
G03 X63.87018 Y50.28466 I0. J-0.825
G1 X93.58901 Y33.21009
G03 X94.825 Y33.92544 I0.41099 J0.71535
G1 Y51.
G0 Z3.175
X90.21969 Y35.1459
G1 Z-5.5 F1228.
X93.58901 Y33.21009 Z-6.18518 F3684.
X93.69246 Y33.1599 Z-6.20545
X93.80188 Y33.12458 Z-6.22573
X93.91515 Y33.10481 Z-6.246
X94.03007 Y33.10098 Z-6.26627
X94.1444 Y33.11317 Z-6.28655
X94.25593 Y33.14114 Z-6.30682
X94.36249 Y33.18434 Z-6.3271
X94.46201 Y33.24194 Z-6.34737
X94.55255 Y33.31281 Z-6.36765
X94.63236 Y33.39558 Z-6.38792
X94.69989 Y33.48865 Z-6.4082
X94.75382 Y33.5902 Z-6.42847
X94.7931 Y33.69826 Z-6.44874
X94.81699 Y33.81073 Z-6.46902
X94.825 Y33.92544 Z-6.48929
Y51. Z-9.5
G03 X94. Y51.825 I-0.825 J0. F4912.
G1 X64.28117
G03 X63.87018 Y50.28466 I0. J-0.825
G1 X93.58901 Y33.21009
G03 X94.825 Y33.92544 I0.41099 J0.71535
G1 Y51.
G0 Z3.175
X57.91474 Y68.175
G1 Z0.83333 F1228.
X79.83121 Z-3.03113 F3684.
X79.87581 Y68.17621 Z-3.039
X79.92027 Y68.17982 Z-3.04687
X79.96448 Y68.18584 Z-3.05473
X80.0083 Y68.19423 Z-3.0626
X80.0516 Y68.20498 Z-3.07047
X80.09426 Y68.21806 Z-3.07833
X80.13614 Y68.23342 Z-3.0862
X80.17714 Y68.25103 Z-3.09407
X80.21712 Y68.27083 Z-3.10193
X80.25598 Y68.29275 Z-3.1098
X80.29359 Y68.31675 Z-3.11767
X80.32985 Y68.34275 Z-3.12553
X80.36465 Y68.37067 Z-3.1334
X80.39789 Y68.40042 Z-3.14127
X80.42948 Y68.43193 Z-3.14914
X80.49347 Y68.50803 Z-3.16667
X80.42948 Y68.43193 F4912.
G03 X80.2422 Y69.71534 I-0.59827 J0.56807
G1 X41.41099 Y92.0253
G03 X40.175 Y91.30996 I-0.41099 J-0.71534
G1 Y69.
G03 X41. Y68.175 I0.825 J0.
G1 X79.83121
G03 X80.42948 Y68.43193 I-0.00001 J0.82501
G0 Z3.175
X57.91474 Y68.175
G1 Z-2.33333 F1228.
X79.83121 Z-6.1978 F3684.
X79.87581 Y68.17621 Z-6.20567
X79.92027 Y68.17982 Z-6.21353
X79.96448 Y68.18584 Z-6.2214
X80.0083 Y68.19423 Z-6.22927
X80.0516 Y68.20498 Z-6.23713
X80.09426 Y68.21806 Z-6.245
X80.13614 Y68.23342 Z-6.25287
X80.17714 Y68.25103 Z-6.26073
X80.21712 Y68.27083 Z-6.2686
X80.25598 Y68.29275 Z-6.27647
X80.29359 Y68.31675 Z-6.28433
X80.32985 Y68.34275 Z-6.2922
X80.36465 Y68.37067 Z-6.30007
X80.39789 Y68.40042 Z-6.30793
X80.42948 Y68.43193 Z-6.3158
X80.49347 Y68.50803 Z-6.33333
X80.42948 Y68.43193 F4912.
G03 X80.2422 Y69.71534 I-0.59827 J0.56807
G1 X41.41099 Y92.0253
G03 X40.175 Y91.30996 I-0.41099 J-0.71534
G1 Y69.
G03 X41. Y68.175 I0.825 J0.
G1 X79.83121
G03 X80.42948 Y68.43193 I-0.00001 J0.82501
G0 Z3.175
X57.91474 Y68.175
G1 Z-5.5 F1228.
X79.83121 Z-9.36446 F3684.
X79.87581 Y68.17621 Z-9.37233
X79.92027 Y68.17982 Z-9.3802
X79.96448 Y68.18584 Z-9.38807
X80.0083 Y68.19423 Z-9.39593
X80.0516 Y68.20498 Z-9.4038
X80.09426 Y68.21806 Z-9.41167
X80.13614 Y68.23342 Z-9.41953
X80.17714 Y68.25103 Z-9.4274
X80.21712 Y68.27083 Z-9.43527
X80.25598 Y68.29275 Z-9.44313
X80.29359 Y68.31675 Z-9.451
X80.32985 Y68.34275 Z-9.45887
X80.36465 Y68.37067 Z-9.46674
X80.39789 Y68.40042 Z-9.4746
X80.42948 Y68.43193 Z-9.48247
X80.49347 Y68.50803 Z-9.5
X80.42948 Y68.43193 F4912.
G03 X80.2422 Y69.71534 I-0.59827 J0.56807
G1 X41.41099 Y92.0253
G03 X40.175 Y91.30996 I-0.41099 J-0.71534
G1 Y69.
G03 X41. Y68.175 I0.825 J0.
G1 X79.83121
G03 X80.42948 Y68.43193 I-0.00001 J0.82501
G0 Z3.175
X90.92901 Y84.73836
G1 Z0.83333 F1228.
X93.58901 Y83.21009 Z0.2924 F3684.
X93.69246 Y83.1599 Z0.27213
X93.80188 Y83.12458 Z0.25185
X93.91515 Y83.10481 Z0.23158
X94.03007 Y83.10098 Z0.2113
X94.1444 Y83.11317 Z0.19103
X94.25593 Y83.14114 Z0.17076
X94.36249 Y83.18434 Z0.15048
X94.46201 Y83.24193 Z0.13021
X94.55255 Y83.31281 Z0.10993
X94.63236 Y83.39558 Z0.08966
X94.69989 Y83.48865 Z0.06938
X94.75382 Y83.5902 Z0.04911
X94.7931 Y83.69826 Z0.02883
X94.81699 Y83.81073 Z0.00856
X94.825 Y83.92544 Z-0.01171
Y101. Z-3.02242
X94.8232 Y101.0545 Z-3.03204
X94.8178 Y101.10877 Z-3.04165
X94.80882 Y101.16257 Z-3.05127
X94.79631 Y101.21565 Z-3.06088
X94.78033 Y101.26779 Z-3.0705
X94.76093 Y101.31876 Z-3.08012
X94.7382 Y101.36834 Z-3.08974
X94.71225 Y101.41631 Z-3.09935
X94.68319 Y101.46246 Z-3.10897
X94.65114 Y101.50659 Z-3.11858
X94.61625 Y101.5485 Z-3.1282
X94.57867 Y101.58802 Z-3.13782
X94.53855 Y101.62497 Z-3.14743
X94.49608 Y101.65919 Z-3.15705
X94.45145 Y101.69052 Z-3.16667
G03 X94. Y101.825 I-0.45145 J-0.69052 F4912.
G1 X64.28117
G03 X63.87018 Y100.28466 I0. J-0.825
G1 X93.58901 Y83.21009
G03 X94.825 Y83.92544 I0.41099 J0.71535
G1 Y101.
G03 X94.45145 Y101.69052 I-0.82501 J-0.00001
G0 Z3.175
X90.92901 Y84.73836
G1 Z-2.33333 F1228.
X93.58901 Y83.21009 Z-2.87426 F3684.
X93.69246 Y83.1599 Z-2.89454
X93.80188 Y83.12458 Z-2.91481
X93.91515 Y83.10481 Z-2.93509
X94.03007 Y83.10098 Z-2.95536
X94.1444 Y83.11317 Z-2.97564
X94.25593 Y83.14114 Z-2.99591
X94.36249 Y83.18434 Z-3.01619
X94.46201 Y83.24193 Z-3.03646
X94.55255 Y83.31281 Z-3.05673
X94.63236 Y83.39558 Z-3.07701
X94.69989 Y83.48865 Z-3.09728
X94.75382 Y83.5902 Z-3.11756
X94.7931 Y83.69826 Z-3.13783
X94.81699 Y83.81073 Z-3.15811
X94.825 Y83.92544 Z-3.17838
Y101. Z-6.18909
X94.8232 Y101.0545 Z-6.1987
X94.8178 Y101.10877 Z-6.20832
X94.80882 Y101.16257 Z-6.21794
X94.79631 Y101.21565 Z-6.22755
X94.78033 Y101.26779 Z-6.23717
X94.76093 Y101.31876 Z-6.24679
X94.7382 Y101.36834 Z-6.2564
X94.71225 Y101.41631 Z-6.26602
X94.68319 Y101.46246 Z-6.27563
X94.65114 Y101.50659 Z-6.28525
X94.61625 Y101.5485 Z-6.29487
X94.57867 Y101.58802 Z-6.30448
X94.53855 Y101.62497 Z-6.3141
X94.49608 Y101.65919 Z-6.32372
X94.45145 Y101.69052 Z-6.33333
G03 X94. Y101.825 I-0.45145 J-0.69052 F4912.
G1 X64.28117
G03 X63.87018 Y100.28466 I0. J-0.825
G1 X93.58901 Y83.21009
G03 X94.825 Y83.92544 I0.41099 J0.71535
G1 Y101.
G03 X94.45145 Y101.69052 I-0.82501 J-0.00001
G0 Z3.175
X90.92901 Y84.73836
G1 Z-5.5 F1228.
X93.58901 Y83.21009 Z-6.04093 F3684.
X93.69246 Y83.1599 Z-6.06121
X93.80188 Y83.12458 Z-6.08148
X93.91515 Y83.10481 Z-6.10175
X94.03007 Y83.10098 Z-6.12203
X94.1444 Y83.11317 Z-6.1423
X94.25593 Y83.14114 Z-6.16258
X94.36249 Y83.18434 Z-6.18285
X94.46201 Y83.24193 Z-6.20313
X94.55255 Y83.31281 Z-6.2234
X94.63236 Y83.39558 Z-6.24367
X94.69989 Y83.48865 Z-6.26395
X94.75382 Y83.5902 Z-6.28422
X94.7931 Y83.69826 Z-6.3045
X94.81699 Y83.81073 Z-6.32477
X94.825 Y83.92544 Z-6.34505
Y101. Z-9.35575
X94.8232 Y101.0545 Z-9.36537
X94.8178 Y101.10877 Z-9.37499
X94.80882 Y101.16257 Z-9.3846
X94.79631 Y101.21565 Z-9.39422
X94.78033 Y101.26779 Z-9.40384
X94.76093 Y101.31876 Z-9.41345
X94.7382 Y101.36834 Z-9.42307
X94.71225 Y101.41631 Z-9.43268
X94.68319 Y101.46246 Z-9.4423
X94.65114 Y101.50659 Z-9.45192
X94.61625 Y101.5485 Z-9.46153
X94.57867 Y101.58802 Z-9.47115
X94.53855 Y101.62497 Z-9.48077
X94.49608 Y101.65919 Z-9.49038
X94.45145 Y101.69052 Z-9.5
G03 X94. Y101.825 I-0.45145 J-0.69052 F4912.
G1 X64.28117
G03 X63.87018 Y100.28466 I0. J-0.825
G1 X93.58901 Y83.21009
G03 X94.825 Y83.92544 I0.41099 J0.71535
G1 Y101.
G03 X94.45145 Y101.69052 I-0.82501 J-0.00001
G0 Z3.175
X91.34283 Y134.50061
G1 Z0.83333 F1228.
X93.58901 Y133.21009 Z0.37656 F3684.
X93.69246 Y133.1599 Z0.35628
X93.80188 Y133.12458 Z0.33601
X93.91515 Y133.10481 Z0.31573
X94.03007 Y133.10098 Z0.29546
X94.1444 Y133.11317 Z0.27518
X94.25593 Y133.14114 Z0.25491
X94.36249 Y133.18434 Z0.23463
X94.46201 Y133.24193 Z0.21436
X94.55255 Y133.31281 Z0.19409
X94.63236 Y133.39558 Z0.17381
X94.69989 Y133.48865 Z0.15354
X94.75382 Y133.5902 Z0.13326
X94.7931 Y133.69826 Z0.11299
X94.81699 Y133.81073 Z0.09271
X94.825 Y133.92544 Z0.07244
Y151. Z-2.93827
X94.82048 Y151.08624 Z-2.95349
X94.80697 Y151.17153 Z-2.96872
X94.78462 Y151.25494 Z-2.98395
X94.75367 Y151.33556 Z-2.99917
X94.71447 Y151.4125 Z-3.0144
X94.66744 Y151.48492 Z-3.02963
X94.61309 Y151.55203 Z-3.04485
X94.55203 Y151.61309 Z-3.06008
X94.48492 Y151.66744 Z-3.07531
X94.4125 Y151.71447 Z-3.09053
X94.33556 Y151.75367 Z-3.10576
X94.25494 Y151.78462 Z-3.12099
X94.17153 Y151.80697 Z-3.13621
X94.08624 Y151.82048 Z-3.15144
X94. Y151.825 Z-3.16667
X64.28117 F4912.
G03 X63.87018 Y150.28466 I0. J-0.825
G1 X93.58901 Y133.21009
G03 X94.825 Y133.92544 I0.41099 J0.71535
G1 Y151.
G03 X94. Y151.825 I-0.825 J0.
G0 Z3.175
X91.34283 Y134.50061
G1 Z-2.33333 F1228.
X93.58901 Y133.21009 Z-2.79011 F3684.
X93.69246 Y133.1599 Z-2.81039
X93.80188 Y133.12458 Z-2.83066
X93.91515 Y133.10481 Z-2.85093
X94.03007 Y133.10098 Z-2.87121
X94.1444 Y133.11317 Z-2.89148
X94.25593 Y133.14114 Z-2.91176
X94.36249 Y133.18434 Z-2.93203
X94.46201 Y133.24193 Z-2.95231
X94.55255 Y133.31281 Z-2.97258
X94.63236 Y133.39558 Z-2.99286
X94.69989 Y133.48865 Z-3.01313
X94.75382 Y133.5902 Z-3.03341
X94.7931 Y133.69826 Z-3.05368
X94.81699 Y133.81073 Z-3.07395
X94.825 Y133.92544 Z-3.09423
Y151. Z-6.10493
X94.82048 Y151.08624 Z-6.12016
X94.80697 Y151.17153 Z-6.13539
X94.78462 Y151.25494 Z-6.15061
X94.75367 Y151.33556 Z-6.16584
X94.71447 Y151.4125 Z-6.18107
X94.66744 Y151.48492 Z-6.19629
X94.61309 Y151.55203 Z-6.21152
X94.55203 Y151.61309 Z-6.22675
X94.48492 Y151.66744 Z-6.24197
X94.4125 Y151.71447 Z-6.2572
X94.33556 Y151.75367 Z-6.27243
X94.25494 Y151.78462 Z-6.28765
X94.17153 Y151.80697 Z-6.30288
X94.08624 Y151.82048 Z-6.31811
X94. Y151.825 Z-6.33333
X64.28117 F4912.
G03 X63.87018 Y150.28466 I0. J-0.825
G1 X93.58901 Y133.21009
G03 X94.825 Y133.92544 I0.41099 J0.71535
G1 Y151.
G03 X94. Y151.825 I-0.825 J0.
G0 Z3.175
X91.34283 Y134.50061
G1 Z-5.5 F1228.
X93.58901 Y133.21009 Z-5.95678 F3684.
X93.69246 Y133.1599 Z-5.97705
X93.80188 Y133.12458 Z-5.99733
X93.91515 Y133.10481 Z-6.0176
X94.03007 Y133.10098 Z-6.03787
X94.1444 Y133.11317 Z-6.05815
X94.25593 Y133.14114 Z-6.07842
X94.36249 Y133.18434 Z-6.0987
X94.46201 Y133.24193 Z-6.11897
X94.55255 Y133.31281 Z-6.13925
X94.63236 Y133.39558 Z-6.15952
X94.69989 Y133.48865 Z-6.1798
X94.75382 Y133.5902 Z-6.20007
X94.7931 Y133.69826 Z-6.22035
X94.81699 Y133.81073 Z-6.24062
X94.825 Y133.92544 Z-6.2609
Y151. Z-9.2716
X94.82048 Y151.08624 Z-9.28683
X94.80697 Y151.17153 Z-9.30205
X94.78462 Y151.25494 Z-9.31728
X94.75367 Y151.33556 Z-9.33251
X94.71447 Y151.4125 Z-9.34773
X94.66744 Y151.48492 Z-9.36296
X94.61309 Y151.55203 Z-9.37819
X94.55203 Y151.61309 Z-9.39341
X94.48492 Y151.66744 Z-9.40864
X94.4125 Y151.71447 Z-9.42387
X94.33556 Y151.75367 Z-9.43909
X94.25494 Y151.78462 Z-9.45432
X94.17153 Y151.80697 Z-9.46955
X94.08624 Y151.82048 Z-9.48477
X94. Y151.825 Z-9.5
X64.28117 F4912.
G03 X63.87018 Y150.28466 I0. J-0.825
G1 X93.58901 Y133.21009
G03 X94.825 Y133.92544 I0.41099 J0.71535
G1 Y151.
G03 X94. Y151.825 I-0.825 J0.
G0 Z3.175
X91.34283 Y184.50061
G1 Z0.83333 F1228.
X93.58901 Y183.21009 Z0.37656 F3684.
X93.69246 Y183.1599 Z0.35628
X93.80188 Y183.12458 Z0.33601
X93.91515 Y183.10481 Z0.31573
X94.03007 Y183.10098 Z0.29546
X94.1444 Y183.11317 Z0.27518
X94.25593 Y183.14114 Z0.25491
X94.36249 Y183.18434 Z0.23463
X94.46201 Y183.24193 Z0.21436
X94.55255 Y183.31281 Z0.19409
X94.63236 Y183.39558 Z0.17381
X94.69989 Y183.48865 Z0.15354
X94.75382 Y183.5902 Z0.13326
X94.7931 Y183.69826 Z0.11299
X94.81699 Y183.81073 Z0.09271
X94.825 Y183.92544 Z0.07244
Y201. Z-2.93827
X94.82048 Y201.08624 Z-2.95349
X94.80697 Y201.17153 Z-2.96872
X94.78462 Y201.25494 Z-2.98395
X94.75367 Y201.33556 Z-2.99917
X94.71447 Y201.4125 Z-3.0144
X94.66744 Y201.48492 Z-3.02963
X94.61309 Y201.55203 Z-3.04485
X94.55203 Y201.61309 Z-3.06008
X94.48492 Y201.66744 Z-3.07531
X94.4125 Y201.71447 Z-3.09053
X94.33556 Y201.75367 Z-3.10576
X94.25494 Y201.78462 Z-3.12099
X94.17153 Y201.80697 Z-3.13621
X94.08624 Y201.82048 Z-3.15144
X94. Y201.825 Z-3.16667
X64.28117 F4912.
G03 X63.87018 Y200.28466 I0. J-0.825
G1 X93.58901 Y183.21009
G03 X94.825 Y183.92544 I0.41099 J0.71535
G1 Y201.
G03 X94. Y201.825 I-0.825 J0.
G0 Z3.175
X91.34283 Y184.50061
G1 Z-2.33333 F1228.
X93.58901 Y183.21009 Z-2.79011 F3684.
X93.69246 Y183.1599 Z-2.81039
X93.80188 Y183.12458 Z-2.83066
X93.91515 Y183.10481 Z-2.85093
X94.03007 Y183.10098 Z-2.87121
X94.1444 Y183.11317 Z-2.89148
X94.25593 Y183.14114 Z-2.91176
X94.36249 Y183.18434 Z-2.93203
X94.46201 Y183.24193 Z-2.95231
X94.55255 Y183.31281 Z-2.97258
X94.63236 Y183.39558 Z-2.99286
X94.69989 Y183.48865 Z-3.01313
X94.75382 Y183.5902 Z-3.03341
X94.7931 Y183.69826 Z-3.05368
X94.81699 Y183.81073 Z-3.07395
X94.825 Y183.92544 Z-3.09423
Y201. Z-6.10493
X94.82048 Y201.08624 Z-6.12016
X94.80697 Y201.17153 Z-6.13539
X94.78462 Y201.25494 Z-6.15061
X94.75367 Y201.33556 Z-6.16584
X94.71447 Y201.4125 Z-6.18107
X94.66744 Y201.48492 Z-6.19629
X94.61309 Y201.55203 Z-6.21152
X94.55203 Y201.61309 Z-6.22675
X94.48492 Y201.66744 Z-6.24197
X94.4125 Y201.71447 Z-6.2572
X94.33556 Y201.75367 Z-6.27243
X94.25494 Y201.78462 Z-6.28765
X94.17153 Y201.80697 Z-6.30288
X94.08624 Y201.82048 Z-6.31811
X94. Y201.825 Z-6.33333
X64.28117 F4912.
G03 X63.87018 Y200.28466 I0. J-0.825
G1 X93.58901 Y183.21009
G03 X94.825 Y183.92544 I0.41099 J0.71535
G1 Y201.
G03 X94. Y201.825 I-0.825 J0.
G0 Z3.175
X91.34283 Y184.50061
G1 Z-5.5 F1228.
X93.58901 Y183.21009 Z-5.95678 F3684.
X93.69246 Y183.1599 Z-5.97705
X93.80188 Y183.12458 Z-5.99733
X93.91515 Y183.10481 Z-6.0176
X94.03007 Y183.10098 Z-6.03787
X94.1444 Y183.11317 Z-6.05815
X94.25593 Y183.14114 Z-6.07842
X94.36249 Y183.18434 Z-6.0987
X94.46201 Y183.24193 Z-6.11897
X94.55255 Y183.31281 Z-6.13925
X94.63236 Y183.39558 Z-6.15952
X94.69989 Y183.48865 Z-6.1798
X94.75382 Y183.5902 Z-6.20007
X94.7931 Y183.69826 Z-6.22035
X94.81699 Y183.81073 Z-6.24062
X94.825 Y183.92544 Z-6.2609
Y201. Z-9.2716
X94.82048 Y201.08624 Z-9.28683
X94.80697 Y201.17153 Z-9.30205
X94.78462 Y201.25494 Z-9.31728
X94.75367 Y201.33556 Z-9.33251
X94.71447 Y201.4125 Z-9.34773
X94.66744 Y201.48492 Z-9.36296
X94.61309 Y201.55203 Z-9.37819
X94.55203 Y201.61309 Z-9.39341
X94.48492 Y201.66744 Z-9.40864
X94.4125 Y201.71447 Z-9.42387
X94.33556 Y201.75367 Z-9.43909
X94.25494 Y201.78462 Z-9.45432
X94.17153 Y201.80697 Z-9.46955
X94.08624 Y201.82048 Z-9.48477
X94. Y201.825 Z-9.5
X64.28117 F4912.
G03 X63.87018 Y200.28466 I0. J-0.825
G1 X93.58901 Y183.21009
G03 X94.825 Y183.92544 I0.41099 J0.71535
G1 Y201.
G03 X94. Y201.825 I-0.825 J0.
G0 Z3.175
X94.825 Y243.60685
G1 Z0.83333 F1228.
Y251. Z-0.47028 F3684.
X94.82048 Y251.08624 Z-0.48551
X94.80697 Y251.17153 Z-0.50073
X94.78462 Y251.25494 Z-0.51596
X94.75367 Y251.33556 Z-0.53118
X94.71447 Y251.4125 Z-0.54641
X94.66744 Y251.48492 Z-0.56164
X94.61309 Y251.55203 Z-0.57687
X94.55203 Y251.61309 Z-0.59209
X94.48492 Y251.66744 Z-0.60732
X94.4125 Y251.71447 Z-0.62255
X94.33556 Y251.75367 Z-0.63777
X94.25494 Y251.78462 Z-0.653
X94.17153 Y251.80697 Z-0.66822
X94.08624 Y251.82048 Z-0.68345
X94. Y251.825 Z-0.69868
X80.00334 Z-3.16667
X64.28117 F4912.
G03 X63.87018 Y250.28466 I0. J-0.825
G1 X93.58901 Y233.21009
G03 X94.825 Y233.92544 I0.41099 J0.71535
G1 Y251.
G03 X94. Y251.825 I-0.825 J0.
G1 X80.00334
G0 Z3.175
X94.825 Y243.60685
G1 Z-2.33333 F1228.
Y251. Z-3.63695 F3684.
X94.82048 Y251.08624 Z-3.65217
X94.80697 Y251.17153 Z-3.6674
X94.78462 Y251.25494 Z-3.68263
X94.75367 Y251.33556 Z-3.69785
X94.71447 Y251.4125 Z-3.71308
X94.66744 Y251.48492 Z-3.72831
X94.61309 Y251.55203 Z-3.74353
X94.55203 Y251.61309 Z-3.75876
X94.48492 Y251.66744 Z-3.77399
X94.4125 Y251.71447 Z-3.78921
X94.33556 Y251.75367 Z-3.80444
X94.25494 Y251.78462 Z-3.81966
X94.17153 Y251.80697 Z-3.83489
X94.08624 Y251.82048 Z-3.85012
X94. Y251.825 Z-3.86534
X80.00334 Z-6.33333
X64.28117 F4912.
G03 X63.87018 Y250.28466 I0. J-0.825
G1 X93.58901 Y233.21009
G03 X94.825 Y233.92544 I0.41099 J0.71535
G1 Y251.
G03 X94. Y251.825 I-0.825 J0.
G1 X80.00334
G0 Z3.175
X94.825 Y243.60685
G1 Z-5.5 F1228.
Y251. Z-6.80361 F3684.
X94.82048 Y251.08624 Z-6.81884
X94.80697 Y251.17153 Z-6.83407
X94.78462 Y251.25494 Z-6.84929
X94.75367 Y251.33556 Z-6.86452
X94.71447 Y251.4125 Z-6.87975
X94.66744 Y251.48492 Z-6.89497
X94.61309 Y251.55203 Z-6.9102
X94.55203 Y251.61309 Z-6.92543
X94.48492 Y251.66744 Z-6.94065
X94.4125 Y251.71447 Z-6.95588
X94.33556 Y251.75367 Z-6.9711
X94.25494 Y251.78462 Z-6.98633
X94.17153 Y251.80697 Z-7.00156
X94.08624 Y251.82048 Z-7.01678
X94. Y251.825 Z-7.03201
X80.00334 Z-9.5
X64.28117 F4912.
G03 X63.87018 Y250.28466 I0. J-0.825
G1 X93.58901 Y233.21009
G03 X94.825 Y233.92544 I0.41099 J0.71535
G1 Y251.
G03 X94. Y251.825 I-0.825 J0.
G1 X80.00334
G0 Z3.175
X61.40456 Y268.175
G1 Z0.83333 F1228.
X79.83121 Z-2.41578 F3684.
X79.97458 Y268.18755 Z-2.44116
X80.11359 Y268.22483 Z-2.46654
X80.24401 Y268.2857 Z-2.49192
X80.36187 Y268.36831 Z-2.51729
X80.46357 Y268.47014 Z-2.54267
X80.54603 Y268.5881 Z-2.56805
X80.60673 Y268.7186 Z-2.59342
X80.64384 Y268.85766 Z-2.6188
X80.65621 Y269.00105 Z-2.64418
X80.64347 Y269.1444 Z-2.66956
X80.60602 Y269.28337 Z-2.69494
X80.54498 Y269.41371 Z-2.72031
X80.46222 Y269.53146 Z-2.74569
X80.36026 Y269.63303 Z-2.77107
X80.2422 Y269.71534 Z-2.79645
X78.42165 Y270.76131 Z-3.16667
X41.41099 Y292.0253 F4912.
G03 X40.175 Y291.30996 I-0.41099 J-0.71534
G1 Y269.
G03 X41. Y268.175 I0.825 J0.
G1 X79.83121
G03 X80.2422 Y269.71534 I0. J0.825
G1 X78.42165 Y270.76131
G0 Z3.175
X61.40456 Y268.175
G1 Z-2.33333 F1228.
X79.83121 Z-5.58245 F3684.
X79.97458 Y268.18755 Z-5.60783
X80.11359 Y268.22483 Z-5.6332
X80.24401 Y268.2857 Z-5.65858
X80.36187 Y268.36831 Z-5.68396
X80.46357 Y268.47014 Z-5.70934
X80.54603 Y268.5881 Z-5.73471
X80.60673 Y268.7186 Z-5.76009
X80.64384 Y268.85766 Z-5.78547
X80.65621 Y269.00105 Z-5.81085
X80.64347 Y269.1444 Z-5.83622
X80.60602 Y269.28337 Z-5.8616
X80.54498 Y269.41371 Z-5.88698
X80.46222 Y269.53146 Z-5.91236
X80.36026 Y269.63303 Z-5.93773
X80.2422 Y269.71534 Z-5.96311
X78.42165 Y270.76131 Z-6.33333
X41.41099 Y292.0253 F4912.
G03 X40.175 Y291.30996 I-0.41099 J-0.71534
G1 Y269.
G03 X41. Y268.175 I0.825 J0.
G1 X79.83121
G03 X80.2422 Y269.71534 I0. J0.825
G1 X78.42165 Y270.76131
G0 Z3.175
X61.40456 Y268.175
G1 Z-5.5 F1228.
X79.83121 Z-8.74912 F3684.
X79.97458 Y268.18755 Z-8.77449
X80.11359 Y268.22483 Z-8.79987
X80.24401 Y268.2857 Z-8.82525
X80.36187 Y268.36831 Z-8.85063
X80.46357 Y268.47014 Z-8.876
X80.54603 Y268.5881 Z-8.90138
X80.60673 Y268.7186 Z-8.92676
X80.64384 Y268.85766 Z-8.95214
X80.65621 Y269.00105 Z-8.97751
X80.64347 Y269.1444 Z-9.00289
X80.60602 Y269.28337 Z-9.02827
X80.54498 Y269.41371 Z-9.05365
X80.46222 Y269.53146 Z-9.07902
X80.36026 Y269.63303 Z-9.1044
X80.2422 Y269.71534 Z-9.12978
X78.42165 Y270.76131 Z-9.5
X41.41099 Y292.0253 F4912.
G03 X40.175 Y291.30996 I-0.41099 J-0.71534
G1 Y269.
G03 X41. Y268.175 I0.825 J0.
G1 X79.83121
G03 X80.2422 Y269.71534 I0. J0.825
G1 X78.42165 Y270.76131
G0 Z3.175
X75.41468 Y293.65192
G1 Z0.83333 F1228.
X93.58901 Y283.21009 Z-2.86255 F3684.
X93.69246 Y283.1599 Z-2.88282
X93.80188 Y283.12458 Z-2.9031
X93.91515 Y283.10481 Z-2.92337
X94.03007 Y283.10098 Z-2.94365
X94.1444 Y283.11317 Z-2.96392
X94.25593 Y283.14114 Z-2.9842
X94.36249 Y283.18434 Z-3.00447
X94.46201 Y283.24193 Z-3.02475
X94.55255 Y283.31281 Z-3.04502
X94.63236 Y283.39558 Z-3.06529
X94.69989 Y283.48865 Z-3.08557
X94.75382 Y283.5902 Z-3.10584
X94.7931 Y283.69826 Z-3.12612
X94.81699 Y283.81073 Z-3.14639
X94.825 Y283.92544 Z-3.16667
Y301. F4912.
G03 X94. Y301.825 I-0.825 J0.
G1 X64.28117
G03 X63.87018 Y300.28466 I0. J-0.825
G1 X93.58901 Y283.21009
G03 X94.825 Y283.92544 I0.41099 J0.71535
G0 Z3.175
X75.41468 Y293.65192
G1 Z-2.33333 F1228.
X93.58901 Y283.21009 Z-6.02922 F3684.
X93.69246 Y283.1599 Z-6.04949
X93.80188 Y283.12458 Z-6.06977
X93.91515 Y283.10481 Z-6.09004
X94.03007 Y283.10098 Z-6.11031
X94.1444 Y283.11317 Z-6.13059
X94.25593 Y283.14114 Z-6.15086
X94.36249 Y283.18434 Z-6.17114
X94.46201 Y283.24193 Z-6.19141
X94.55255 Y283.31281 Z-6.21169
X94.63236 Y283.39558 Z-6.23196
X94.69989 Y283.48865 Z-6.25224
X94.75382 Y283.5902 Z-6.27251
X94.7931 Y283.69826 Z-6.29278
X94.81699 Y283.81073 Z-6.31306
X94.825 Y283.92544 Z-6.33333
Y301. F4912.
G03 X94. Y301.825 I-0.825 J0.
G1 X64.28117
G03 X63.87018 Y300.28466 I0. J-0.825
G1 X93.58901 Y283.21009
G03 X94.825 Y283.92544 I0.41099 J0.71535
G0 Z3.175
X75.41468 Y293.65192
G1 Z-5.5 F1228.
X93.58901 Y283.21009 Z-9.19588 F3684.
X93.69246 Y283.1599 Z-9.21616
X93.80188 Y283.12458 Z-9.23643
X93.91515 Y283.10481 Z-9.25671
X94.03007 Y283.10098 Z-9.27698
X94.1444 Y283.11317 Z-9.29726
X94.25593 Y283.14114 Z-9.31753
X94.36249 Y283.18434 Z-9.3378
X94.46201 Y283.24193 Z-9.35808
X94.55255 Y283.31281 Z-9.37835
X94.63236 Y283.39558 Z-9.39863
X94.69989 Y283.48865 Z-9.4189
X94.75382 Y283.5902 Z-9.43918
X94.7931 Y283.69826 Z-9.45945
X94.81699 Y283.81073 Z-9.47973
X94.825 Y283.92544 Z-9.5
Y301. F4912.
G03 X94. Y301.825 I-0.825 J0.
G1 X64.28117
G03 X63.87018 Y300.28466 I0. J-0.825
G1 X93.58901 Y283.21009
G03 X94.825 Y283.92544 I0.41099 J0.71535
G0 Z3.175
X40.175 Y340.57979
G1 Z0.83333 F1228.
Y319. Z-2.97177 F3684.
X40.17829 Y318.92638 Z-2.98476
X40.18814 Y318.85335 Z-2.99775
X40.20446 Y318.7815 Z-3.01075
X40.22713 Y318.71138 Z-3.02374
X40.25597 Y318.64357 Z-3.03673
X40.29074 Y318.5786 Z-3.04973
X40.33117 Y318.51699 Z-3.06272
X40.37694 Y318.45924 Z-3.07571
X40.42768 Y318.4058 Z-3.08871
X40.48298 Y318.3571 Z-3.1017
X40.54241 Y318.31353 Z-3.11469
X40.60549 Y318.27544 Z-3.12769
X40.67172 Y318.24313 Z-3.14068
X40.74056 Y318.21686 Z-3.15367
X40.81148 Y318.19683 Z-3.16667
G03 X40.81149 I0.18878 J0.8043 F4912.
G1 X41. Y318.175
X79.83121
G03 X80.2422 Y319.71534 I0. J0.825
G1 X41.41099 Y342.0253
G03 X40.175 Y341.30996 I-0.41099 J-0.71534
G1 Y319.
G03 X40.81148 Y318.19683 I0.82499 J0.
G0 Z3.175
X40.175 Y340.57979
G1 Z-2.33333 F1228.
Y319. Z-6.13843 F3684.
X40.17829 Y318.92638 Z-6.15143
X40.18814 Y318.85335 Z-6.16442
X40.20446 Y318.7815 Z-6.17741
X40.22713 Y318.71138 Z-6.19041
X40.25597 Y318.64357 Z-6.2034
X40.29074 Y318.5786 Z-6.21639
X40.33117 Y318.51699 Z-6.22939
X40.37694 Y318.45924 Z-6.24238
X40.42768 Y318.4058 Z-6.25537
X40.48298 Y318.3571 Z-6.26837
X40.54241 Y318.31353 Z-6.28136
X40.60549 Y318.27544 Z-6.29435
X40.67172 Y318.24313 Z-6.30735
X40.74056 Y318.21686 Z-6.32034
X40.81148 Y318.19683 Z-6.33333
G03 X40.81149 I0.18878 J0.8043 F4912.
G1 X41. Y318.175
X79.83121
G03 X80.2422 Y319.71534 I0. J0.825
G1 X41.41099 Y342.0253
G03 X40.175 Y341.30996 I-0.41099 J-0.71534
G1 Y319.
G03 X40.81148 Y318.19683 I0.82499 J0.
G0 Z3.175
X40.175 Y340.57979
G1 Z-5.5 F1228.
Y319. Z-9.3051 F3684.
X40.17829 Y318.92638 Z-9.31809
X40.18814 Y318.85335 Z-9.33109
X40.20446 Y318.7815 Z-9.34408
X40.22713 Y318.71138 Z-9.35707
X40.25597 Y318.64357 Z-9.37007
X40.29074 Y318.5786 Z-9.38306
X40.33117 Y318.51699 Z-9.39605
X40.37694 Y318.45924 Z-9.40905
X40.42768 Y318.4058 Z-9.42204
X40.48298 Y318.3571 Z-9.43503
X40.54241 Y318.31353 Z-9.44803
X40.60549 Y318.27544 Z-9.46102
X40.67172 Y318.24313 Z-9.47401
X40.74056 Y318.21686 Z-9.48701
X40.81148 Y318.19683 Z-9.5
G03 X40.81149 I0.18878 J0.8043 F4912.
G1 X41. Y318.175
X79.83121
G03 X80.2422 Y319.71534 I0. J0.825
G1 X41.41099 Y342.0253
G03 X40.175 Y341.30996 I-0.41099 J-0.71534
G1 Y319.
G03 X40.81148 Y318.19683 I0.82499 J0.
G0 Z3.175
X57.91474 Y368.175
G1 Z0.83333 F1228.
X79.83121 Z-3.03113 F3684.
X79.87581 Y368.17621 Z-3.039
X79.92027 Y368.17982 Z-3.04687
X79.96448 Y368.18584 Z-3.05473
X80.0083 Y368.19423 Z-3.0626
X80.0516 Y368.20498 Z-3.07047
X80.09426 Y368.21806 Z-3.07833
X80.13614 Y368.23342 Z-3.0862
X80.17714 Y368.25103 Z-3.09407
X80.21712 Y368.27083 Z-3.10193
X80.25598 Y368.29275 Z-3.1098
X80.29359 Y368.31675 Z-3.11767
X80.32985 Y368.34275 Z-3.12553
X80.36465 Y368.37066 Z-3.1334
X80.39789 Y368.40042 Z-3.14127
X80.42948 Y368.43193 Z-3.14914
X80.49347 Y368.50803 Z-3.16667
X80.42948 Y368.43193 F4912.
G03 X80.2422 Y369.71534 I-0.59827 J0.56807
G1 X41.41099 Y392.0253
G03 X40.175 Y391.30996 I-0.41099 J-0.71534
G1 Y369.
G03 X41. Y368.175 I0.825 J0.
G1 X79.83121
G03 X80.42948 Y368.43193 I-0.00001 J0.82501
G0 Z3.175
X57.91474 Y368.175
G1 Z-2.33333 F1228.
X79.83121 Z-6.1978 F3684.
X79.87581 Y368.17621 Z-6.20567
X79.92027 Y368.17982 Z-6.21353
X79.96448 Y368.18584 Z-6.2214
X80.0083 Y368.19423 Z-6.22927
X80.0516 Y368.20498 Z-6.23713
X80.09426 Y368.21806 Z-6.245
X80.13614 Y368.23342 Z-6.25287
X80.17714 Y368.25103 Z-6.26073
X80.21712 Y368.27083 Z-6.2686
X80.25598 Y368.29275 Z-6.27647
X80.29359 Y368.31675 Z-6.28433
X80.32985 Y368.34275 Z-6.2922
X80.36465 Y368.37066 Z-6.30007
X80.39789 Y368.40042 Z-6.30793
X80.42948 Y368.43193 Z-6.3158
X80.49347 Y368.50803 Z-6.33333
X80.42948 Y368.43193 F4912.
G03 X80.2422 Y369.71534 I-0.59827 J0.56807
G1 X41.41099 Y392.0253
G03 X40.175 Y391.30996 I-0.41099 J-0.71534
G1 Y369.
G03 X41. Y368.175 I0.825 J0.
G1 X79.83121
G03 X80.42948 Y368.43193 I-0.00001 J0.82501
G0 Z3.175
X57.91474 Y368.175
G1 Z-5.5 F1228.
X79.83121 Z-9.36446 F3684.
X79.87581 Y368.17621 Z-9.37233
X79.92027 Y368.17982 Z-9.3802
X79.96448 Y368.18584 Z-9.38807
X80.0083 Y368.19423 Z-9.39593
X80.0516 Y368.20498 Z-9.4038
X80.09426 Y368.21806 Z-9.41167
X80.13614 Y368.23342 Z-9.41953
X80.17714 Y368.25103 Z-9.4274
X80.21712 Y368.27083 Z-9.43527
X80.25598 Y368.29275 Z-9.44313
X80.29359 Y368.31675 Z-9.451
X80.32985 Y368.34275 Z-9.45887
X80.36465 Y368.37066 Z-9.46674
X80.39789 Y368.40042 Z-9.4746
X80.42948 Y368.43193 Z-9.48247
X80.49347 Y368.50803 Z-9.5
X80.42948 Y368.43193 F4912.
G03 X80.2422 Y369.71534 I-0.59827 J0.56807
G1 X41.41099 Y392.0253
G03 X40.175 Y391.30996 I-0.41099 J-0.71534
G1 Y369.
G03 X41. Y368.175 I0.825 J0.
G1 X79.83121
G03 X80.42948 Y368.43193 I-0.00001 J0.82501
G0 Z3.175
X90.21969 Y335.1459
G1 Z0.83333 F1228.
X93.58901 Y333.21009 Z0.14816 F3684.
X93.69246 Y333.1599 Z0.12788
X93.80188 Y333.12458 Z0.10761
X93.91515 Y333.10481 Z0.08733
X94.03007 Y333.10098 Z0.06706
X94.1444 Y333.11317 Z0.04678
X94.25593 Y333.14114 Z0.02651
X94.36249 Y333.18434 Z0.00623
X94.46201 Y333.24193 Z-0.01404
X94.55255 Y333.31281 Z-0.03431
X94.63236 Y333.39558 Z-0.05459
X94.69989 Y333.48865 Z-0.07486
X94.75382 Y333.5902 Z-0.09514
X94.7931 Y333.69826 Z-0.11541
X94.81699 Y333.81073 Z-0.13569
X94.825 Y333.92544 Z-0.15596
Y351. Z-3.16667
G03 X94. Y351.825 I-0.825 J0. F4912.
G1 X64.28117
G03 X63.87018 Y350.28466 I0. J-0.825
G1 X93.58901 Y333.21009
G03 X94.825 Y333.92544 I0.41099 J0.71535
G1 Y351.
G0 Z3.175
X90.21969 Y335.1459
G1 Z-2.33333 F1228.
X93.58901 Y333.21009 Z-3.01851 F3684.
X93.69246 Y333.1599 Z-3.03878
X93.80188 Y333.12458 Z-3.05906
X93.91515 Y333.10481 Z-3.07933
X94.03007 Y333.10098 Z-3.09961
X94.1444 Y333.11317 Z-3.11988
X94.25593 Y333.14114 Z-3.14016
X94.36249 Y333.18434 Z-3.16043
X94.46201 Y333.24193 Z-3.18071
X94.55255 Y333.31281 Z-3.20098
X94.63236 Y333.39558 Z-3.22126
X94.69989 Y333.48865 Z-3.24153
X94.75382 Y333.5902 Z-3.2618
X94.7931 Y333.69826 Z-3.28208
X94.81699 Y333.81073 Z-3.30235
X94.825 Y333.92544 Z-3.32263
Y351. Z-6.33333
G03 X94. Y351.825 I-0.825 J0. F4912.
G1 X64.28117
G03 X63.87018 Y350.28466 I0. J-0.825
G1 X93.58901 Y333.21009
G03 X94.825 Y333.92544 I0.41099 J0.71535
G1 Y351.
G0 Z3.175
X90.21969 Y335.1459
G1 Z-5.5 F1228.
X93.58901 Y333.21009 Z-6.18518 F3684.
X93.69246 Y333.1599 Z-6.20545
X93.80188 Y333.12458 Z-6.22573
X93.91515 Y333.10481 Z-6.246
X94.03007 Y333.10098 Z-6.26627
X94.1444 Y333.11317 Z-6.28655
X94.25593 Y333.14114 Z-6.30682
X94.36249 Y333.18434 Z-6.3271
X94.46201 Y333.24193 Z-6.34737
X94.55255 Y333.31281 Z-6.36765
X94.63236 Y333.39558 Z-6.38792
X94.69989 Y333.48865 Z-6.4082
X94.75382 Y333.5902 Z-6.42847
X94.7931 Y333.69826 Z-6.44874
X94.81699 Y333.81073 Z-6.46902
X94.825 Y333.92544 Z-6.48929
Y351. Z-9.5
G03 X94. Y351.825 I-0.825 J0. F4912.
G1 X64.28117
G03 X63.87018 Y350.28466 I0. J-0.825
G1 X93.58901 Y333.21009
G03 X94.825 Y333.92544 I0.41099 J0.71535
G1 Y351.
G0 Z3.175
X90.28964 Y385.1057
G1 Z0.83333 F1228.
X93.58901 Y383.21009 Z0.16238 F3684.
X93.69244 Y383.15991 Z0.14211
X93.80185 Y383.12458 Z0.12184
X93.9151 Y383.10481 Z0.10157
X94.03001 Y383.10098 Z0.0813
X94.14433 Y383.11316 Z0.06102
X94.25585 Y383.14111 Z0.04075
X94.3624 Y383.18429 Z0.02048
X94.46191 Y383.24187 Z0.00021
X94.55245 Y383.31272 Z-0.02006
X94.63226 Y383.39546 Z-0.04034
X94.6998 Y383.4885 Z-0.06061
X94.75374 Y383.59003 Z-0.08088
X94.79305 Y383.69807 Z-0.10115
X94.81696 Y383.81052 Z-0.12142
X94.825 Y383.92521 Z-0.14169
X94.82104 Y401.08068 Z-3.16667
G03 X94. Y401.825 I-0.82104 J-0.08068 F4912.
G1 X64.28117
G03 X63.87018 Y400.28466 I0. J-0.825
G1 X93.58901 Y383.21009
G03 X94.825 Y383.92521 I0.41099 J0.71535
G1 X94.82104 Y401.08068
G0 Z3.175
X90.28964 Y385.1057
G1 Z-2.33333 F1228.
X93.58901 Y383.21009 Z-3.00428 F3684.
X93.69244 Y383.15991 Z-3.02456
X93.80185 Y383.12458 Z-3.04483
X93.9151 Y383.10481 Z-3.0651
X94.03001 Y383.10098 Z-3.08537
X94.14433 Y383.11316 Z-3.10564
X94.25585 Y383.14111 Z-3.12592
X94.3624 Y383.18429 Z-3.14619
X94.46191 Y383.24187 Z-3.16646
X94.55245 Y383.31272 Z-3.18673
X94.63226 Y383.39546 Z-3.207
X94.6998 Y383.4885 Z-3.22727
X94.75374 Y383.59003 Z-3.24755
X94.79305 Y383.69807 Z-3.26782
X94.81696 Y383.81052 Z-3.28809
X94.825 Y383.92521 Z-3.30836
X94.82104 Y401.08068 Z-6.33333
G03 X94. Y401.825 I-0.82104 J-0.08068 F4912.
G1 X64.28117
G03 X63.87018 Y400.28466 I0. J-0.825
G1 X93.58901 Y383.21009
G03 X94.825 Y383.92521 I0.41099 J0.71535
G1 X94.82104 Y401.08068
G0 Z3.175
X90.28964 Y385.1057
G1 Z-5.5 F1228.
X93.58901 Y383.21009 Z-6.17095 F3684.
X93.69244 Y383.15991 Z-6.19122
X93.80185 Y383.12458 Z-6.21149
X93.9151 Y383.10481 Z-6.23177
X94.03001 Y383.10098 Z-6.25204
X94.14433 Y383.11316 Z-6.27231
X94.25585 Y383.14111 Z-6.29258
X94.3624 Y383.18429 Z-6.31285
X94.46191 Y383.24187 Z-6.33313
X94.55245 Y383.31272 Z-6.3534
X94.63226 Y383.39546 Z-6.37367
X94.6998 Y383.4885 Z-6.39394
X94.75374 Y383.59003 Z-6.41421
X94.79305 Y383.69807 Z-6.43448
X94.81696 Y383.81052 Z-6.45476
X94.825 Y383.92521 Z-6.47503
X94.82104 Y401.08068 Z-9.5
G03 X94. Y401.825 I-0.82104 J-0.08068 F4912.
G1 X64.28117
G03 X63.87018 Y400.28466 I0. J-0.825
G1 X93.58901 Y383.21009
G03 X94.825 Y383.92521 I0.41099 J0.71535
G1 X94.82104 Y401.08068
G0 Z3.175
X180.175 Y340.57979
G1 Z0.83333 F1228.
Y319. Z-2.97177 F3684.
X180.17829 Y318.92638 Z-2.98476
X180.18814 Y318.85335 Z-2.99775
X180.20446 Y318.7815 Z-3.01075
X180.22713 Y318.71138 Z-3.02374
X180.25597 Y318.64357 Z-3.03673
X180.29074 Y318.5786 Z-3.04973
X180.33117 Y318.51699 Z-3.06272
X180.37694 Y318.45924 Z-3.07571
X180.42768 Y318.4058 Z-3.08871
X180.48298 Y318.3571 Z-3.1017
X180.54241 Y318.31353 Z-3.11469
X180.60549 Y318.27544 Z-3.12769
X180.67172 Y318.24313 Z-3.14068
X180.74056 Y318.21686 Z-3.15367
X180.81148 Y318.19683 Z-3.16667
G03 X180.81149 I0.18851 J0.80314 F4912.
G1 X181. Y318.175
X219.83121
G03 X220.2422 Y319.71534 I0. J0.825
G1 X181.41099 Y342.0253
G03 X180.175 Y341.30996 I-0.41099 J-0.71534
G1 Y319.
G03 X180.81148 Y318.19683 I0.82499 J0.
G0 Z3.175
X180.175 Y340.57979
G1 Z-2.33333 F1228.
Y319. Z-6.13843 F3684.
X180.17829 Y318.92638 Z-6.15143
X180.18814 Y318.85335 Z-6.16442
X180.20446 Y318.7815 Z-6.17741
X180.22713 Y318.71138 Z-6.19041
X180.25597 Y318.64357 Z-6.2034
X180.29074 Y318.5786 Z-6.21639
X180.33117 Y318.51699 Z-6.22939
X180.37694 Y318.45924 Z-6.24238
X180.42768 Y318.4058 Z-6.25537
X180.48298 Y318.3571 Z-6.26837
X180.54241 Y318.31353 Z-6.28136
X180.60549 Y318.27544 Z-6.29435
X180.67172 Y318.24313 Z-6.30735
X180.74056 Y318.21686 Z-6.32034
X180.81148 Y318.19683 Z-6.33333
G03 X180.81149 I0.18851 J0.80314 F4912.
G1 X181. Y318.175
X219.83121
G03 X220.2422 Y319.71534 I0. J0.825
G1 X181.41099 Y342.0253
G03 X180.175 Y341.30996 I-0.41099 J-0.71534
G1 Y319.
G03 X180.81148 Y318.19683 I0.82499 J0.
G0 Z3.175
X180.175 Y340.57979
G1 Z-5.5 F1228.
Y319. Z-9.3051 F3684.
X180.17829 Y318.92638 Z-9.31809
X180.18814 Y318.85335 Z-9.33109
X180.20446 Y318.7815 Z-9.34408
X180.22713 Y318.71138 Z-9.35707
X180.25597 Y318.64357 Z-9.37007
X180.29074 Y318.5786 Z-9.38306
X180.33117 Y318.51699 Z-9.39605
X180.37694 Y318.45924 Z-9.40905
X180.42768 Y318.4058 Z-9.42204
X180.48298 Y318.3571 Z-9.43503
X180.54241 Y318.31353 Z-9.44803
X180.60549 Y318.27544 Z-9.46102
X180.67172 Y318.24313 Z-9.47401
X180.74056 Y318.21686 Z-9.48701
X180.81148 Y318.19683 Z-9.5
G03 X180.81149 I0.18851 J0.80314 F4912.
G1 X181. Y318.175
X219.83121
G03 X220.2422 Y319.71534 I0. J0.825
G1 X181.41099 Y342.0253
G03 X180.175 Y341.30996 I-0.41099 J-0.71534
G1 Y319.
G03 X180.81148 Y318.19683 I0.82499 J0.
G0 Z3.175
X201.40456 Y268.175
G1 Z0.83333 F1228.
X219.83121 Z-2.41578 F3684.
X219.97458 Y268.18755 Z-2.44116
X220.11359 Y268.22483 Z-2.46654
X220.24401 Y268.2857 Z-2.49192
X220.36187 Y268.36831 Z-2.51729
X220.46357 Y268.47014 Z-2.54267
X220.54603 Y268.5881 Z-2.56805
X220.60673 Y268.7186 Z-2.59342
X220.64384 Y268.85766 Z-2.6188
X220.65621 Y269.00105 Z-2.64418
X220.64347 Y269.1444 Z-2.66956
X220.60602 Y269.28337 Z-2.69494
X220.54498 Y269.41371 Z-2.72031
X220.46222 Y269.53146 Z-2.74569
X220.36026 Y269.63303 Z-2.77107
X220.2422 Y269.71534 Z-2.79645
X218.42165 Y270.76131 Z-3.16667
X181.41099 Y292.0253 F4912.
G03 X180.175 Y291.30996 I-0.41099 J-0.71534
G1 Y269.
G03 X181. Y268.175 I0.825 J0.
G1 X219.83121
G03 X220.2422 Y269.71534 I0. J0.825
G1 X218.42165 Y270.76131
G0 Z3.175
X201.40456 Y268.175
G1 Z-2.33333 F1228.
X219.83121 Z-5.58245 F3684.
X219.97458 Y268.18755 Z-5.60783
X220.11359 Y268.22483 Z-5.6332
X220.24401 Y268.2857 Z-5.65858
X220.36187 Y268.36831 Z-5.68396
X220.46357 Y268.47014 Z-5.70934
X220.54603 Y268.5881 Z-5.73471
X220.60673 Y268.7186 Z-5.76009
X220.64384 Y268.85766 Z-5.78547
X220.65621 Y269.00105 Z-5.81085
X220.64347 Y269.1444 Z-5.83622
X220.60602 Y269.28337 Z-5.8616
X220.54498 Y269.41371 Z-5.88698
X220.46222 Y269.53146 Z-5.91236
X220.36026 Y269.63303 Z-5.93773
X220.2422 Y269.71534 Z-5.96311
X218.42165 Y270.76131 Z-6.33333
X181.41099 Y292.0253 F4912.
G03 X180.175 Y291.30996 I-0.41099 J-0.71534
G1 Y269.
G03 X181. Y268.175 I0.825 J0.
G1 X219.83121
G03 X220.2422 Y269.71534 I0. J0.825
G1 X218.42165 Y270.76131
G0 Z3.175
X201.40456 Y268.175
G1 Z-5.5 F1228.
X219.83121 Z-8.74912 F3684.
X219.97458 Y268.18755 Z-8.77449
X220.11359 Y268.22483 Z-8.79987
X220.24401 Y268.2857 Z-8.82525
X220.36187 Y268.36831 Z-8.85063
X220.46357 Y268.47014 Z-8.876
X220.54603 Y268.5881 Z-8.90138
X220.60673 Y268.7186 Z-8.92676
X220.64384 Y268.85766 Z-8.95214
X220.65621 Y269.00105 Z-8.97751
X220.64347 Y269.1444 Z-9.00289
X220.60602 Y269.28337 Z-9.02827
X220.54498 Y269.41371 Z-9.05365
X220.46222 Y269.53146 Z-9.07902
X220.36026 Y269.63303 Z-9.1044
X220.2422 Y269.71534 Z-9.12978
X218.42165 Y270.76131 Z-9.5
X181.41099 Y292.0253 F4912.
G03 X180.175 Y291.30996 I-0.41099 J-0.71534
G1 Y269.
G03 X181. Y268.175 I0.825 J0.
G1 X219.83121
G03 X220.2422 Y269.71534 I0. J0.825
G1 X218.42165 Y270.76131
G0 Z3.175
X234.825 Y243.60685
G1 Z0.83333 F1228.
Y251. Z-0.47028 F3684.
X234.82048 Y251.08624 Z-0.48551
X234.80697 Y251.17153 Z-0.50073
X234.78462 Y251.25494 Z-0.51596
X234.75367 Y251.33556 Z-0.53118
X234.71447 Y251.4125 Z-0.54641
X234.66744 Y251.48492 Z-0.56164
X234.61309 Y251.55203 Z-0.57687
X234.55203 Y251.61309 Z-0.59209
X234.48492 Y251.66744 Z-0.60732
X234.4125 Y251.71447 Z-0.62255
X234.33556 Y251.75367 Z-0.63777
X234.25494 Y251.78462 Z-0.653
X234.17153 Y251.80697 Z-0.66822
X234.08624 Y251.82048 Z-0.68345
X234. Y251.825 Z-0.69868
X220.00334 Z-3.16667
X204.28117 F4912.
G03 X203.87018 Y250.28466 I0. J-0.825
G1 X233.58901 Y233.21009
G03 X234.825 Y233.92544 I0.41099 J0.71535
G1 Y251.
G03 X234. Y251.825 I-0.825 J0.
G1 X220.00334
G0 Z3.175
X234.825 Y243.60685
G1 Z-2.33333 F1228.
Y251. Z-3.63695 F3684.
X234.82048 Y251.08624 Z-3.65217
X234.80697 Y251.17153 Z-3.6674
X234.78462 Y251.25494 Z-3.68263
X234.75367 Y251.33556 Z-3.69785
X234.71447 Y251.4125 Z-3.71308
X234.66744 Y251.48492 Z-3.72831
X234.61309 Y251.55203 Z-3.74353
X234.55203 Y251.61309 Z-3.75876
X234.48492 Y251.66744 Z-3.77399
X234.4125 Y251.71447 Z-3.78921
X234.33556 Y251.75367 Z-3.80444
X234.25494 Y251.78462 Z-3.81966
X234.17153 Y251.80697 Z-3.83489
X234.08624 Y251.82048 Z-3.85012
X234. Y251.825 Z-3.86534
X220.00334 Z-6.33333
X204.28117 F4912.
G03 X203.87018 Y250.28466 I0. J-0.825
G1 X233.58901 Y233.21009
G03 X234.825 Y233.92544 I0.41099 J0.71535
G1 Y251.
G03 X234. Y251.825 I-0.825 J0.
G1 X220.00334
G0 Z3.175
X234.825 Y243.60685
G1 Z-5.5 F1228.
Y251. Z-6.80361 F3684.
X234.82048 Y251.08624 Z-6.81884
X234.80697 Y251.17153 Z-6.83407
X234.78462 Y251.25494 Z-6.84929
X234.75367 Y251.33556 Z-6.86452
X234.71447 Y251.4125 Z-6.87975
X234.66744 Y251.48492 Z-6.89497
X234.61309 Y251.55203 Z-6.9102
X234.55203 Y251.61309 Z-6.92543
X234.48492 Y251.66744 Z-6.94065
X234.4125 Y251.71447 Z-6.95588
X234.33556 Y251.75367 Z-6.9711
X234.25494 Y251.78462 Z-6.98633
X234.17153 Y251.80697 Z-7.00156
X234.08624 Y251.82048 Z-7.01678
X234. Y251.825 Z-7.03201
X220.00334 Z-9.5
X204.28117 F4912.
G03 X203.87018 Y250.28466 I0. J-0.825
G1 X233.58901 Y233.21009
G03 X234.825 Y233.92544 I0.41099 J0.71535
G1 Y251.
G03 X234. Y251.825 I-0.825 J0.
G1 X220.00334
G0 Z3.175
X215.41468 Y293.65192
G1 Z0.83333 F1228.
X233.58901 Y283.21009 Z-2.86255 F3684.
X233.69246 Y283.1599 Z-2.88282
X233.80188 Y283.12458 Z-2.9031
X233.91515 Y283.10481 Z-2.92337
X234.03007 Y283.10098 Z-2.94365
X234.1444 Y283.11317 Z-2.96392
X234.25593 Y283.14114 Z-2.9842
X234.36249 Y283.18434 Z-3.00447
X234.46201 Y283.24193 Z-3.02475
X234.55255 Y283.31281 Z-3.04502
X234.63236 Y283.39558 Z-3.06529
X234.69989 Y283.48865 Z-3.08557
X234.75382 Y283.5902 Z-3.10584
X234.7931 Y283.69826 Z-3.12612
X234.81699 Y283.81073 Z-3.14639
X234.825 Y283.92544 Z-3.16667
Y301. F4912.
G03 X234. Y301.825 I-0.825 J0.
G1 X204.28117
G03 X203.87018 Y300.28466 I0. J-0.825
G1 X233.58901 Y283.21009
G03 X234.825 Y283.92544 I0.41099 J0.71535
G0 Z3.175
X215.41468 Y293.65192
G1 Z-2.33333 F1228.
X233.58901 Y283.21009 Z-6.02922 F3684.
X233.69246 Y283.1599 Z-6.04949
X233.80188 Y283.12458 Z-6.06977
X233.91515 Y283.10481 Z-6.09004
X234.03007 Y283.10098 Z-6.11031
X234.1444 Y283.11317 Z-6.13059
X234.25593 Y283.14114 Z-6.15086
X234.36249 Y283.18434 Z-6.17114
X234.46201 Y283.24193 Z-6.19141
X234.55255 Y283.31281 Z-6.21169
X234.63236 Y283.39558 Z-6.23196
X234.69989 Y283.48865 Z-6.25224
X234.75382 Y283.5902 Z-6.27251
X234.7931 Y283.69826 Z-6.29278
X234.81699 Y283.81073 Z-6.31306
X234.825 Y283.92544 Z-6.33333
Y301. F4912.
G03 X234. Y301.825 I-0.825 J0.
G1 X204.28117
G03 X203.87018 Y300.28466 I0. J-0.825
G1 X233.58901 Y283.21009
G03 X234.825 Y283.92544 I0.41099 J0.71535
G0 Z3.175
X215.41468 Y293.65192
G1 Z-5.5 F1228.
X233.58901 Y283.21009 Z-9.19588 F3684.
X233.69246 Y283.1599 Z-9.21616
X233.80188 Y283.12458 Z-9.23643
X233.91515 Y283.10481 Z-9.25671
X234.03007 Y283.10098 Z-9.27698
X234.1444 Y283.11317 Z-9.29726
X234.25593 Y283.14114 Z-9.31753
X234.36249 Y283.18434 Z-9.3378
X234.46201 Y283.24193 Z-9.35808
X234.55255 Y283.31281 Z-9.37835
X234.63236 Y283.39558 Z-9.39863
X234.69989 Y283.48865 Z-9.4189
X234.75382 Y283.5902 Z-9.43918
X234.7931 Y283.69826 Z-9.45945
X234.81699 Y283.81073 Z-9.47973
X234.825 Y283.92544 Z-9.5
Y301. F4912.
G03 X234. Y301.825 I-0.825 J0.
G1 X204.28117
G03 X203.87018 Y300.28466 I0. J-0.825
G1 X233.58901 Y283.21009
G03 X234.825 Y283.92544 I0.41099 J0.71535
G0 Z3.175
X230.21969 Y335.1459
G1 Z0.83333 F1228.
X233.58901 Y333.21009 Z0.14816 F3684.
X233.69246 Y333.1599 Z0.12788
X233.80188 Y333.12458 Z0.10761
X233.91515 Y333.10481 Z0.08733
X234.03007 Y333.10098 Z0.06706
X234.1444 Y333.11317 Z0.04678
X234.25593 Y333.14114 Z0.02651
X234.36249 Y333.18434 Z0.00623
X234.46201 Y333.24193 Z-0.01404
X234.55255 Y333.31281 Z-0.03431
X234.63236 Y333.39558 Z-0.05459
X234.69989 Y333.48865 Z-0.07486
X234.75382 Y333.5902 Z-0.09514
X234.7931 Y333.69826 Z-0.11541
X234.81699 Y333.81073 Z-0.13569
X234.825 Y333.92544 Z-0.15596
Y351. Z-3.16667
G03 X234. Y351.825 I-0.825 J0. F4912.
G1 X204.28117
G03 X203.87018 Y350.28466 I0. J-0.825
G1 X233.58901 Y333.21009
G03 X234.825 Y333.92544 I0.41099 J0.71535
G1 Y351.
G0 Z3.175
X230.21969 Y335.1459
G1 Z-2.33333 F1228.
X233.58901 Y333.21009 Z-3.01851 F3684.
X233.69246 Y333.1599 Z-3.03878
X233.80188 Y333.12458 Z-3.05906
X233.91515 Y333.10481 Z-3.07933
X234.03007 Y333.10098 Z-3.09961
X234.1444 Y333.11317 Z-3.11988
X234.25593 Y333.14114 Z-3.14016
X234.36249 Y333.18434 Z-3.16043
X234.46201 Y333.24193 Z-3.18071
X234.55255 Y333.31281 Z-3.20098
X234.63236 Y333.39558 Z-3.22126
X234.69989 Y333.48865 Z-3.24153
X234.75382 Y333.5902 Z-3.2618
X234.7931 Y333.69826 Z-3.28208
X234.81699 Y333.81073 Z-3.30235
X234.825 Y333.92544 Z-3.32263
Y351. Z-6.33333
G03 X234. Y351.825 I-0.825 J0. F4912.
G1 X204.28117
G03 X203.87018 Y350.28466 I0. J-0.825
G1 X233.58901 Y333.21009
G03 X234.825 Y333.92544 I0.41099 J0.71535
G1 Y351.
G0 Z3.175
X230.21969 Y335.1459
G1 Z-5.5 F1228.
X233.58901 Y333.21009 Z-6.18518 F3684.
X233.69246 Y333.1599 Z-6.20545
X233.80188 Y333.12458 Z-6.22573
X233.91515 Y333.10481 Z-6.246
X234.03007 Y333.10098 Z-6.26627
X234.1444 Y333.11317 Z-6.28655
X234.25593 Y333.14114 Z-6.30682
X234.36249 Y333.18434 Z-6.3271
X234.46201 Y333.24193 Z-6.34737
X234.55255 Y333.31281 Z-6.36765
X234.63236 Y333.39558 Z-6.38792
X234.69989 Y333.48865 Z-6.4082
X234.75382 Y333.5902 Z-6.42847
X234.7931 Y333.69826 Z-6.44874
X234.81699 Y333.81073 Z-6.46902
X234.825 Y333.92544 Z-6.48929
Y351. Z-9.5
G03 X234. Y351.825 I-0.825 J0. F4912.
G1 X204.28117
G03 X203.87018 Y350.28466 I0. J-0.825
G1 X233.58901 Y333.21009
G03 X234.825 Y333.92544 I0.41099 J0.71535
G1 Y351.
G0 Z3.175
X197.91474 Y368.175
G1 Z0.83333 F1228.
X219.83121 Z-3.03113 F3684.
X219.87581 Y368.17621 Z-3.039
X219.92027 Y368.17982 Z-3.04687
X219.96448 Y368.18584 Z-3.05473
X220.0083 Y368.19423 Z-3.0626
X220.0516 Y368.20498 Z-3.07047
X220.09426 Y368.21806 Z-3.07833
X220.13614 Y368.23342 Z-3.0862
X220.17714 Y368.25103 Z-3.09407
X220.21712 Y368.27083 Z-3.10193
X220.25598 Y368.29275 Z-3.1098
X220.29359 Y368.31675 Z-3.11767
X220.32985 Y368.34275 Z-3.12553
X220.36465 Y368.37066 Z-3.1334
X220.39789 Y368.40042 Z-3.14127
X220.42948 Y368.43193 Z-3.14914
X220.49347 Y368.50803 Z-3.16667
X220.42948 Y368.43193 F4912.
G03 X220.2422 Y369.71534 I-0.59827 J0.56807
G1 X181.41099 Y392.0253
G03 X180.175 Y391.30996 I-0.41099 J-0.71534
G1 Y369.
G03 X181. Y368.175 I0.825 J0.
G1 X219.83121
G03 X220.42948 Y368.43193 I0. J0.82501
G0 Z3.175
X197.91474 Y368.175
G1 Z-2.33333 F1228.
X219.83121 Z-6.1978 F3684.
X219.87581 Y368.17621 Z-6.20567
X219.92027 Y368.17982 Z-6.21353
X219.96448 Y368.18584 Z-6.2214
X220.0083 Y368.19423 Z-6.22927
X220.0516 Y368.20498 Z-6.23713
X220.09426 Y368.21806 Z-6.245
X220.13614 Y368.23342 Z-6.25287
X220.17714 Y368.25103 Z-6.26073
X220.21712 Y368.27083 Z-6.2686
X220.25598 Y368.29275 Z-6.27647
X220.29359 Y368.31675 Z-6.28433
X220.32985 Y368.34275 Z-6.2922
X220.36465 Y368.37066 Z-6.30007
X220.39789 Y368.40042 Z-6.30793
X220.42948 Y368.43193 Z-6.3158
X220.49347 Y368.50803 Z-6.33333
X220.42948 Y368.43193 F4912.
G03 X220.2422 Y369.71534 I-0.59827 J0.56807
G1 X181.41099 Y392.0253
G03 X180.175 Y391.30996 I-0.41099 J-0.71534
G1 Y369.
G03 X181. Y368.175 I0.825 J0.
G1 X219.83121
G03 X220.42948 Y368.43193 I0. J0.82501
G0 Z3.175
X197.91474 Y368.175
G1 Z-5.5 F1228.
X219.83121 Z-9.36446 F3684.
X219.87581 Y368.17621 Z-9.37233
X219.92027 Y368.17982 Z-9.3802
X219.96448 Y368.18584 Z-9.38807
X220.0083 Y368.19423 Z-9.39593
X220.0516 Y368.20498 Z-9.4038
X220.09426 Y368.21806 Z-9.41167
X220.13614 Y368.23342 Z-9.41953
X220.17714 Y368.25103 Z-9.4274
X220.21712 Y368.27083 Z-9.43527
X220.25598 Y368.29275 Z-9.44313
X220.29359 Y368.31675 Z-9.451
X220.32985 Y368.34275 Z-9.45887
X220.36465 Y368.37066 Z-9.46674
X220.39789 Y368.40042 Z-9.4746
X220.42948 Y368.43193 Z-9.48247
X220.49347 Y368.50803 Z-9.5
X220.42948 Y368.43193 F4912.
G03 X220.2422 Y369.71534 I-0.59827 J0.56807
G1 X181.41099 Y392.0253
G03 X180.175 Y391.30996 I-0.41099 J-0.71534
G1 Y369.
G03 X181. Y368.175 I0.825 J0.
G1 X219.83121
G03 X220.42948 Y368.43193 I0. J0.82501
G0 Z3.175
X230.28964 Y385.1057
G1 Z0.83333 F1228.
X233.58901 Y383.21009 Z0.16238 F3684.
X233.69244 Y383.15991 Z0.14211
X233.80185 Y383.12458 Z0.12184
X233.91511 Y383.10481 Z0.10157
X234.03001 Y383.10098 Z0.0813
X234.14433 Y383.11316 Z0.06102
X234.25585 Y383.14111 Z0.04075
X234.3624 Y383.18429 Z0.02048
X234.46191 Y383.24187 Z0.00021
X234.55245 Y383.31272 Z-0.02006
X234.63226 Y383.39546 Z-0.04034
X234.6998 Y383.4885 Z-0.06061
X234.75374 Y383.59003 Z-0.08088
X234.79305 Y383.69807 Z-0.10115
X234.81696 Y383.81052 Z-0.12142
X234.825 Y383.92521 Z-0.14169
X234.82104 Y401.08068 Z-3.16667
G03 X234. Y401.825 I-0.82104 J-0.08068 F4912.
G1 X204.28117
G03 X203.87018 Y400.28466 I0. J-0.825
G1 X233.58901 Y383.21009
G03 X234.825 Y383.92521 I0.41099 J0.71535
G1 X234.82104 Y401.08068
G0 Z3.175
X230.28964 Y385.1057
G1 Z-2.33333 F1228.
X233.58901 Y383.21009 Z-3.00428 F3684.
X233.69244 Y383.15991 Z-3.02456
X233.80185 Y383.12458 Z-3.04483
X233.91511 Y383.10481 Z-3.0651
X234.03001 Y383.10098 Z-3.08537
X234.14433 Y383.11316 Z-3.10564
X234.25585 Y383.14111 Z-3.12592
X234.3624 Y383.18429 Z-3.14619
X234.46191 Y383.24187 Z-3.16646
X234.55245 Y383.31272 Z-3.18673
X234.63226 Y383.39546 Z-3.207
X234.6998 Y383.4885 Z-3.22727
X234.75374 Y383.59003 Z-3.24755
X234.79305 Y383.69807 Z-3.26782
X234.81696 Y383.81052 Z-3.28809
X234.825 Y383.92521 Z-3.30836
X234.82104 Y401.08068 Z-6.33333
G03 X234. Y401.825 I-0.82104 J-0.08068 F4912.
G1 X204.28117
G03 X203.87018 Y400.28466 I0. J-0.825
G1 X233.58901 Y383.21009
G03 X234.825 Y383.92521 I0.41099 J0.71535
G1 X234.82104 Y401.08068
G0 Z3.175
X230.28964 Y385.1057
G1 Z-5.5 F1228.
X233.58901 Y383.21009 Z-6.17095 F3684.
X233.69244 Y383.15991 Z-6.19122
X233.80185 Y383.12458 Z-6.21149
X233.91511 Y383.10481 Z-6.23177
X234.03001 Y383.10098 Z-6.25204
X234.14433 Y383.11316 Z-6.27231
X234.25585 Y383.14111 Z-6.29258
X234.3624 Y383.18429 Z-6.31285
X234.46191 Y383.24187 Z-6.33313
X234.55245 Y383.31272 Z-6.3534
X234.63226 Y383.39546 Z-6.37367
X234.6998 Y383.4885 Z-6.39394
X234.75374 Y383.59003 Z-6.41421
X234.79305 Y383.69807 Z-6.43448
X234.81696 Y383.81052 Z-6.45476
X234.825 Y383.92521 Z-6.47503
X234.82104 Y401.08068 Z-9.5
G03 X234. Y401.825 I-0.82104 J-0.08068 F4912.
G1 X204.28117
G03 X203.87018 Y400.28466 I0. J-0.825
G1 X233.58901 Y383.21009
G03 X234.825 Y383.92521 I0.41099 J0.71535
G1 X234.82104 Y401.08068
G0 Z3.175
X180.26036 Y241.67189
G1 Z0.83333 F1228.
X180.24618 Y241.6452 Z0.828 F3684.
X180.20689 Y241.53714 Z0.80773
X180.18301 Y241.42467 Z0.78746
X180.175 Y241.30996 Z0.76718
Y219. Z-3.16667
G03 X181. Y218.175 I0.825 J0. F4912.
G1 X219.83121
G03 X220.2422 Y219.71534 I0. J0.825
G1 X181.41099 Y242.0253
G03 X180.175 Y241.30996 I-0.41099 J-0.71534
G1 Y219.
G0 Z3.175
X180.26036 Y241.67189
G1 Z-2.33333 F1228.
X180.24618 Y241.6452 Z-2.33866 F3684.
X180.20689 Y241.53714 Z-2.35894
X180.18301 Y241.42467 Z-2.37921
X180.175 Y241.30996 Z-2.39949
Y219. Z-6.33333
G03 X181. Y218.175 I0.825 J0. F4912.
G1 X219.83121
G03 X220.2422 Y219.71534 I0. J0.825
G1 X181.41099 Y242.0253
G03 X180.175 Y241.30996 I-0.41099 J-0.71534
G1 Y219.
G0 Z3.175
X180.26036 Y241.67189
G1 Z-5.5 F1228.
X180.24618 Y241.6452 Z-5.50533 F3684.
X180.20689 Y241.53714 Z-5.5256
X180.18301 Y241.42467 Z-5.54588
X180.175 Y241.30996 Z-5.56615
Y219. Z-9.5
G03 X181. Y218.175 I0.825 J0. F4912.
G1 X219.83121
G03 X220.2422 Y219.71534 I0. J0.825
G1 X181.41099 Y242.0253
G03 X180.175 Y241.30996 I-0.41099 J-0.71534
G1 Y219.
G0 Z3.175
X180.22892 Y191.59773
G1 Z0.83333 F1228.
X180.20694 Y191.53729 Z0.82199 F3684.
X180.18303 Y191.42483 Z0.80172
X180.175 Y191.31014 Z0.78145
X180.17896 Y168.91927 Z-3.16667
G03 X181. Y168.175 I0.82104 J0.08073 F4912.
G1 X219.83121
G03 X220.2422 Y169.71534 I0. J0.825
G1 X181.41099 Y192.0253
G03 X180.175 Y191.31014 I-0.41099 J-0.71534
G1 X180.17896 Y168.91927
G0 Z3.175
X180.22892 Y191.59773
G1 Z-2.33333 F1228.
X180.20694 Y191.53729 Z-2.34467 F3684.
X180.18303 Y191.42483 Z-2.36495
X180.175 Y191.31014 Z-2.38522
X180.17896 Y168.91927 Z-6.33333
G03 X181. Y168.175 I0.82104 J0.08073 F4912.
G1 X219.83121
G03 X220.2422 Y169.71534 I0. J0.825
G1 X181.41099 Y192.0253
G03 X180.175 Y191.31014 I-0.41099 J-0.71534
G1 X180.17896 Y168.91927
G0 Z3.175
X180.22892 Y191.59773
G1 Z-5.5 F1228.
X180.20694 Y191.53729 Z-5.51134 F3684.
X180.18303 Y191.42483 Z-5.53161
X180.175 Y191.31014 Z-5.55189
X180.17896 Y168.91927 Z-9.5
G03 X181. Y168.175 I0.82104 J0.08073 F4912.
G1 X219.83121
G03 X220.2422 Y169.71534 I0. J0.825
G1 X181.41099 Y192.0253
G03 X180.175 Y191.31014 I-0.41099 J-0.71534
G1 X180.17896 Y168.91927
G0 Z3.175
X200.52786 Y131.04196
G1 Z0.83333 F1228.
X181.4105 Y142.02559 Z-3.05432 F3684.
X181.37314 Y142.04579 Z-3.06181
X181.33478 Y142.06404 Z-3.0693
X181.29553 Y142.08028 Z-3.07679
X181.2555 Y142.09447 Z-3.08428
X181.21478 Y142.10658 Z-3.09177
X181.1735 Y142.11656 Z-3.09926
X181.13175 Y142.12439 Z-3.10675
X181.08965 Y142.13006 Z-3.11424
X181.04732 Y142.13354 Z-3.12173
X181.00486 Y142.13483 Z-3.12922
X180.9624 Y142.13392 Z-3.13671
X180.92004 Y142.13082 Z-3.1442
X180.87789 Y142.12554 Z-3.15169
X180.83607 Y142.11808 Z-3.15918
X180.7947 Y142.10847 Z-3.16667
G03 X180.79231 Y142.10784 I0.20647 J-0.79506 F4912.
X180.175 Y141.31031 I0.20642 J-0.79744
G1 Y119.
G03 X181. Y118.175 I0.825 J0.
G1 X219.83121
G03 X220.2422 Y119.71534 I0. J0.825
G1 X181.4105 Y142.02559
G03 X180.7947 Y142.10847 I-0.40933 J-0.71218
G0 Z3.175
X200.52786 Y131.04196
G1 Z-2.33333 F1228.
X181.4105 Y142.02559 Z-6.22099 F3684.
X181.37314 Y142.04579 Z-6.22848
X181.33478 Y142.06404 Z-6.23597
X181.29553 Y142.08028 Z-6.24346
X181.2555 Y142.09447 Z-6.25095
X181.21478 Y142.10658 Z-6.25844
X181.1735 Y142.11656 Z-6.26593
X181.13175 Y142.12439 Z-6.27342
X181.08965 Y142.13006 Z-6.28091
X181.04732 Y142.13354 Z-6.2884
X181.00486 Y142.13483 Z-6.29588
X180.9624 Y142.13392 Z-6.30338
X180.92004 Y142.13082 Z-6.31086
X180.87789 Y142.12554 Z-6.31835
X180.83607 Y142.11808 Z-6.32584
X180.7947 Y142.10847 Z-6.33333
G03 X180.79231 Y142.10784 I0.20647 J-0.79506 F4912.
X180.175 Y141.31031 I0.20642 J-0.79744
G1 Y119.
G03 X181. Y118.175 I0.825 J0.
G1 X219.83121
G03 X220.2422 Y119.71534 I0. J0.825
G1 X181.4105 Y142.02559
G03 X180.7947 Y142.10847 I-0.40933 J-0.71218
G0 Z3.175
X200.52786 Y131.04196
G1 Z-5.5 F1228.
X181.4105 Y142.02559 Z-9.38766 F3684.
X181.37314 Y142.04579 Z-9.39515
X181.33478 Y142.06404 Z-9.40263
X181.29553 Y142.08028 Z-9.41012
X181.2555 Y142.09447 Z-9.41761
X181.21478 Y142.10658 Z-9.4251
X181.1735 Y142.11656 Z-9.43259
X181.13175 Y142.12439 Z-9.44008
X181.08965 Y142.13006 Z-9.44757
X181.04732 Y142.13354 Z-9.45506
X181.00486 Y142.13483 Z-9.46255
X180.9624 Y142.13392 Z-9.47004
X180.92004 Y142.13082 Z-9.47753
X180.87789 Y142.12554 Z-9.48502
X180.83607 Y142.11808 Z-9.49251
X180.7947 Y142.10847 Z-9.5
G03 X180.79231 Y142.10784 I0.20647 J-0.79506 F4912.
X180.175 Y141.31031 I0.20642 J-0.79744
G1 Y119.
G03 X181. Y118.175 I0.825 J0.
G1 X219.83121
G03 X220.2422 Y119.71534 I0. J0.825
G1 X181.4105 Y142.02559
G03 X180.7947 Y142.10847 I-0.40933 J-0.71218
G0 Z3.175
X231.34283 Y134.50061
G1 Z0.83333 F1228.
X233.58901 Y133.21009 Z0.37656 F3684.
X233.69246 Y133.1599 Z0.35628
X233.80188 Y133.12458 Z0.33601
X233.91515 Y133.10481 Z0.31573
X234.03007 Y133.10098 Z0.29546
X234.1444 Y133.11317 Z0.27518
X234.25593 Y133.14114 Z0.25491
X234.36249 Y133.18434 Z0.23463
X234.46201 Y133.24193 Z0.21436
X234.55255 Y133.31281 Z0.19409
X234.63236 Y133.39558 Z0.17381
X234.69989 Y133.48865 Z0.15354
X234.75382 Y133.5902 Z0.13326
X234.7931 Y133.69826 Z0.11299
X234.81699 Y133.81073 Z0.09271
X234.825 Y133.92544 Z0.07244
Y151. Z-2.93827
X234.82048 Y151.08624 Z-2.95349
X234.80697 Y151.17153 Z-2.96872
X234.78462 Y151.25494 Z-2.98395
X234.75367 Y151.33556 Z-2.99917
X234.71447 Y151.4125 Z-3.0144
X234.66744 Y151.48492 Z-3.02963
X234.61309 Y151.55203 Z-3.04485
X234.55203 Y151.61309 Z-3.06008
X234.48492 Y151.66744 Z-3.07531
X234.4125 Y151.71447 Z-3.09053
X234.33556 Y151.75367 Z-3.10576
X234.25494 Y151.78462 Z-3.12099
X234.17153 Y151.80697 Z-3.13621
X234.08624 Y151.82048 Z-3.15144
X234. Y151.825 Z-3.16667
X204.28117 F4912.
G03 X203.87018 Y150.28466 I0. J-0.825
G1 X233.58901 Y133.21009
G03 X234.825 Y133.92544 I0.41099 J0.71535
G1 Y151.
G03 X234. Y151.825 I-0.825 J0.
G0 Z3.175
X231.34283 Y134.50061
G1 Z-2.33333 F1228.
X233.58901 Y133.21009 Z-2.79011 F3684.
X233.69246 Y133.1599 Z-2.81039
X233.80188 Y133.12458 Z-2.83066
X233.91515 Y133.10481 Z-2.85093
X234.03007 Y133.10098 Z-2.87121
X234.1444 Y133.11317 Z-2.89148
X234.25593 Y133.14114 Z-2.91176
X234.36249 Y133.18434 Z-2.93203
X234.46201 Y133.24193 Z-2.95231
X234.55255 Y133.31281 Z-2.97258
X234.63236 Y133.39558 Z-2.99286
X234.69989 Y133.48865 Z-3.01313
X234.75382 Y133.5902 Z-3.03341
X234.7931 Y133.69826 Z-3.05368
X234.81699 Y133.81073 Z-3.07395
X234.825 Y133.92544 Z-3.09423
Y151. Z-6.10493
X234.82048 Y151.08624 Z-6.12016
X234.80697 Y151.17153 Z-6.13539
X234.78462 Y151.25494 Z-6.15061
X234.75367 Y151.33556 Z-6.16584
X234.71447 Y151.4125 Z-6.18107
X234.66744 Y151.48492 Z-6.19629
X234.61309 Y151.55203 Z-6.21152
X234.55203 Y151.61309 Z-6.22675
X234.48492 Y151.66744 Z-6.24197
X234.4125 Y151.71447 Z-6.2572
X234.33556 Y151.75367 Z-6.27243
X234.25494 Y151.78462 Z-6.28765
X234.17153 Y151.80697 Z-6.30288
X234.08624 Y151.82048 Z-6.31811
X234. Y151.825 Z-6.33333
X204.28117 F4912.
G03 X203.87018 Y150.28466 I0. J-0.825
G1 X233.58901 Y133.21009
G03 X234.825 Y133.92544 I0.41099 J0.71535
G1 Y151.
G03 X234. Y151.825 I-0.825 J0.
G0 Z3.175
X231.34283 Y134.50061
G1 Z-5.5 F1228.
X233.58901 Y133.21009 Z-5.95678 F3684.
X233.69246 Y133.1599 Z-5.97705
X233.80188 Y133.12458 Z-5.99733
X233.91515 Y133.10481 Z-6.0176
X234.03007 Y133.10098 Z-6.03787
X234.1444 Y133.11317 Z-6.05815
X234.25593 Y133.14114 Z-6.07842
X234.36249 Y133.18434 Z-6.0987
X234.46201 Y133.24193 Z-6.11897
X234.55255 Y133.31281 Z-6.13925
X234.63236 Y133.39558 Z-6.15952
X234.69989 Y133.48865 Z-6.1798
X234.75382 Y133.5902 Z-6.20007
X234.7931 Y133.69826 Z-6.22035
X234.81699 Y133.81073 Z-6.24062
X234.825 Y133.92544 Z-6.2609
Y151. Z-9.2716
X234.82048 Y151.08624 Z-9.28683
X234.80697 Y151.17153 Z-9.30205
X234.78462 Y151.25494 Z-9.31728
X234.75367 Y151.33556 Z-9.33251
X234.71447 Y151.4125 Z-9.34773
X234.66744 Y151.48492 Z-9.36296
X234.61309 Y151.55203 Z-9.37819
X234.55203 Y151.61309 Z-9.39341
X234.48492 Y151.66744 Z-9.40864
X234.4125 Y151.71447 Z-9.42387
X234.33556 Y151.75367 Z-9.43909
X234.25494 Y151.78462 Z-9.45432
X234.17153 Y151.80697 Z-9.46955
X234.08624 Y151.82048 Z-9.48477
X234. Y151.825 Z-9.5
X204.28117 F4912.
G03 X203.87018 Y150.28466 I0. J-0.825
G1 X233.58901 Y133.21009
G03 X234.825 Y133.92544 I0.41099 J0.71535
G1 Y151.
G03 X234. Y151.825 I-0.825 J0.
G0 Z3.175
X231.34283 Y184.50061
G1 Z0.83333 F1228.
X233.58901 Y183.21009 Z0.37656 F3684.
X233.69246 Y183.1599 Z0.35628
X233.80188 Y183.12458 Z0.33601
X233.91515 Y183.10481 Z0.31573
X234.03007 Y183.10098 Z0.29546
X234.1444 Y183.11317 Z0.27518
X234.25593 Y183.14114 Z0.25491
X234.36249 Y183.18434 Z0.23463
X234.46201 Y183.24193 Z0.21436
X234.55255 Y183.31281 Z0.19409
X234.63236 Y183.39558 Z0.17381
X234.69989 Y183.48865 Z0.15354
X234.75382 Y183.5902 Z0.13326
X234.7931 Y183.69826 Z0.11299
X234.81699 Y183.81073 Z0.09271
X234.825 Y183.92544 Z0.07244
Y201. Z-2.93827
X234.82048 Y201.08624 Z-2.95349
X234.80697 Y201.17153 Z-2.96872
X234.78462 Y201.25494 Z-2.98395
X234.75367 Y201.33556 Z-2.99917
X234.71447 Y201.4125 Z-3.0144
X234.66744 Y201.48492 Z-3.02963
X234.61309 Y201.55203 Z-3.04485
X234.55203 Y201.61309 Z-3.06008
X234.48492 Y201.66744 Z-3.07531
X234.4125 Y201.71447 Z-3.09053
X234.33556 Y201.75367 Z-3.10576
X234.25494 Y201.78462 Z-3.12099
X234.17153 Y201.80697 Z-3.13621
X234.08624 Y201.82048 Z-3.15144
X234. Y201.825 Z-3.16667
X204.28117 F4912.
G03 X203.87018 Y200.28466 I0. J-0.825
G1 X233.58901 Y183.21009
G03 X234.825 Y183.92544 I0.41099 J0.71535
G1 Y201.
G03 X234. Y201.825 I-0.825 J0.
G0 Z3.175
X231.34283 Y184.50061
G1 Z-2.33333 F1228.
X233.58901 Y183.21009 Z-2.79011 F3684.
X233.69246 Y183.1599 Z-2.81039
X233.80188 Y183.12458 Z-2.83066
X233.91515 Y183.10481 Z-2.85093
X234.03007 Y183.10098 Z-2.87121
X234.1444 Y183.11317 Z-2.89148
X234.25593 Y183.14114 Z-2.91176
X234.36249 Y183.18434 Z-2.93203
X234.46201 Y183.24193 Z-2.95231
X234.55255 Y183.31281 Z-2.97258
X234.63236 Y183.39558 Z-2.99286
X234.69989 Y183.48865 Z-3.01313
X234.75382 Y183.5902 Z-3.03341
X234.7931 Y183.69826 Z-3.05368
X234.81699 Y183.81073 Z-3.07395
X234.825 Y183.92544 Z-3.09423
Y201. Z-6.10493
X234.82048 Y201.08624 Z-6.12016
X234.80697 Y201.17153 Z-6.13539
X234.78462 Y201.25494 Z-6.15061
X234.75367 Y201.33556 Z-6.16584
X234.71447 Y201.4125 Z-6.18107
X234.66744 Y201.48492 Z-6.19629
X234.61309 Y201.55203 Z-6.21152
X234.55203 Y201.61309 Z-6.22675
X234.48492 Y201.66744 Z-6.24197
X234.4125 Y201.71447 Z-6.2572
X234.33556 Y201.75367 Z-6.27243
X234.25494 Y201.78462 Z-6.28765
X234.17153 Y201.80697 Z-6.30288
X234.08624 Y201.82048 Z-6.31811
X234. Y201.825 Z-6.33333
X204.28117 F4912.
G03 X203.87018 Y200.28466 I0. J-0.825
G1 X233.58901 Y183.21009
G03 X234.825 Y183.92544 I0.41099 J0.71535
G1 Y201.
G03 X234. Y201.825 I-0.825 J0.
G0 Z3.175
X231.34283 Y184.50061
G1 Z-5.5 F1228.
X233.58901 Y183.21009 Z-5.95678 F3684.
X233.69246 Y183.1599 Z-5.97705
X233.80188 Y183.12458 Z-5.99733
X233.91515 Y183.10481 Z-6.0176
X234.03007 Y183.10098 Z-6.03787
X234.1444 Y183.11317 Z-6.05815
X234.25593 Y183.14114 Z-6.07842
X234.36249 Y183.18434 Z-6.0987
X234.46201 Y183.24193 Z-6.11897
X234.55255 Y183.31281 Z-6.13925
X234.63236 Y183.39558 Z-6.15952
X234.69989 Y183.48865 Z-6.1798
X234.75382 Y183.5902 Z-6.20007
X234.7931 Y183.69826 Z-6.22035
X234.81699 Y183.81073 Z-6.24062
X234.825 Y183.92544 Z-6.2609
Y201. Z-9.2716
X234.82048 Y201.08624 Z-9.28683
X234.80697 Y201.17153 Z-9.30205
X234.78462 Y201.25494 Z-9.31728
X234.75367 Y201.33556 Z-9.33251
X234.71447 Y201.4125 Z-9.34773
X234.66744 Y201.48492 Z-9.36296
X234.61309 Y201.55203 Z-9.37819
X234.55203 Y201.61309 Z-9.39341
X234.48492 Y201.66744 Z-9.40864
X234.4125 Y201.71447 Z-9.42387
X234.33556 Y201.75367 Z-9.43909
X234.25494 Y201.78462 Z-9.45432
X234.17153 Y201.80697 Z-9.46955
X234.08624 Y201.82048 Z-9.48477
X234. Y201.825 Z-9.5
X204.28117 F4912.
G03 X203.87018 Y200.28466 I0. J-0.825
G1 X233.58901 Y183.21009
G03 X234.825 Y183.92544 I0.41099 J0.71535
G1 Y201.
G03 X234. Y201.825 I-0.825 J0.
G0 Z3.175
X230.92901 Y84.73836
G1 Z0.83333 F1228.
X233.58901 Y83.21009 Z0.2924 F3684.
X233.69246 Y83.1599 Z0.27213
X233.80188 Y83.12458 Z0.25185
X233.91515 Y83.10481 Z0.23158
X234.03007 Y83.10098 Z0.2113
X234.1444 Y83.11317 Z0.19103
X234.25593 Y83.14114 Z0.17076
X234.36249 Y83.18434 Z0.15048
X234.46201 Y83.24193 Z0.13021
X234.55255 Y83.31281 Z0.10993
X234.63236 Y83.39558 Z0.08966
X234.69989 Y83.48865 Z0.06938
X234.75382 Y83.5902 Z0.04911
X234.7931 Y83.69826 Z0.02883
X234.81699 Y83.81073 Z0.00856
X234.825 Y83.92544 Z-0.01171
Y101. Z-3.02242
X234.8232 Y101.0545 Z-3.03204
X234.8178 Y101.10877 Z-3.04165
X234.80882 Y101.16257 Z-3.05127
X234.79631 Y101.21565 Z-3.06088
X234.78033 Y101.26779 Z-3.0705
X234.76093 Y101.31876 Z-3.08012
X234.7382 Y101.36834 Z-3.08974
X234.71225 Y101.41631 Z-3.09935
X234.68319 Y101.46246 Z-3.10897
X234.65114 Y101.50659 Z-3.11858
X234.61625 Y101.5485 Z-3.1282
X234.57866 Y101.58802 Z-3.13782
X234.53855 Y101.62497 Z-3.14743
X234.49608 Y101.65919 Z-3.15705
X234.45145 Y101.69052 Z-3.16667
G03 X234. Y101.825 I-0.45145 J-0.69052 F4912.
G1 X204.28117
G03 X203.87018 Y100.28466 I0. J-0.825
G1 X233.58901 Y83.21009
G03 X234.825 Y83.92544 I0.41099 J0.71535
G1 Y101.
G03 X234.45145 Y101.69052 I-0.82501 J-0.00001
G0 Z3.175
X230.92901 Y84.73836
G1 Z-2.33333 F1228.
X233.58901 Y83.21009 Z-2.87426 F3684.
X233.69246 Y83.1599 Z-2.89454
X233.80188 Y83.12458 Z-2.91481
X233.91515 Y83.10481 Z-2.93509
X234.03007 Y83.10098 Z-2.95536
X234.1444 Y83.11317 Z-2.97564
X234.25593 Y83.14114 Z-2.99591
X234.36249 Y83.18434 Z-3.01619
X234.46201 Y83.24193 Z-3.03646
X234.55255 Y83.31281 Z-3.05673
X234.63236 Y83.39558 Z-3.07701
X234.69989 Y83.48865 Z-3.09728
X234.75382 Y83.5902 Z-3.11756
X234.7931 Y83.69826 Z-3.13783
X234.81699 Y83.81073 Z-3.15811
X234.825 Y83.92544 Z-3.17838
Y101. Z-6.18909
X234.8232 Y101.0545 Z-6.1987
X234.8178 Y101.10877 Z-6.20832
X234.80882 Y101.16257 Z-6.21794
X234.79631 Y101.21565 Z-6.22755
X234.78033 Y101.26779 Z-6.23717
X234.76093 Y101.31876 Z-6.24679
X234.7382 Y101.36834 Z-6.2564
X234.71225 Y101.41631 Z-6.26602
X234.68319 Y101.46246 Z-6.27563
X234.65114 Y101.50659 Z-6.28525
X234.61625 Y101.5485 Z-6.29487
X234.57866 Y101.58802 Z-6.30448
X234.53855 Y101.62497 Z-6.3141
X234.49608 Y101.65919 Z-6.32372
X234.45145 Y101.69052 Z-6.33333
G03 X234. Y101.825 I-0.45145 J-0.69052 F4912.
G1 X204.28117
G03 X203.87018 Y100.28466 I0. J-0.825
G1 X233.58901 Y83.21009
G03 X234.825 Y83.92544 I0.41099 J0.71535
G1 Y101.
G03 X234.45145 Y101.69052 I-0.82501 J-0.00001
G0 Z3.175
X230.92901 Y84.73836
G1 Z-5.5 F1228.
X233.58901 Y83.21009 Z-6.04093 F3684.
X233.69246 Y83.1599 Z-6.06121
X233.80188 Y83.12458 Z-6.08148
X233.91515 Y83.10481 Z-6.10175
X234.03007 Y83.10098 Z-6.12203
X234.1444 Y83.11317 Z-6.1423
X234.25593 Y83.14114 Z-6.16258
X234.36249 Y83.18434 Z-6.18285
X234.46201 Y83.24193 Z-6.20313
X234.55255 Y83.31281 Z-6.2234
X234.63236 Y83.39558 Z-6.24367
X234.69989 Y83.48865 Z-6.26395
X234.75382 Y83.5902 Z-6.28422
X234.7931 Y83.69826 Z-6.3045
X234.81699 Y83.81073 Z-6.32477
X234.825 Y83.92544 Z-6.34505
Y101. Z-9.35575
X234.8232 Y101.0545 Z-9.36537
X234.8178 Y101.10877 Z-9.37499
X234.80882 Y101.16257 Z-9.3846
X234.79631 Y101.21565 Z-9.39422
X234.78033 Y101.26779 Z-9.40384
X234.76093 Y101.31876 Z-9.41345
X234.7382 Y101.36834 Z-9.42307
X234.71225 Y101.41631 Z-9.43268
X234.68319 Y101.46246 Z-9.4423
X234.65114 Y101.50659 Z-9.45192
X234.61625 Y101.5485 Z-9.46153
X234.57866 Y101.58802 Z-9.47115
X234.53855 Y101.62497 Z-9.48077
X234.49608 Y101.65919 Z-9.49038
X234.45145 Y101.69052 Z-9.5
G03 X234. Y101.825 I-0.45145 J-0.69052 F4912.
G1 X204.28117
G03 X203.87018 Y100.28466 I0. J-0.825
G1 X233.58901 Y83.21009
G03 X234.825 Y83.92544 I0.41099 J0.71535
G1 Y101.
G03 X234.45145 Y101.69052 I-0.82501 J-0.00001
G0 Z3.175
X197.91474 Y68.175
G1 Z0.83333 F1228.
X219.83121 Z-3.03113 F3684.
X219.87581 Y68.17621 Z-3.039
X219.92027 Y68.17982 Z-3.04687
X219.96448 Y68.18584 Z-3.05473
X220.0083 Y68.19423 Z-3.0626
X220.0516 Y68.20498 Z-3.07047
X220.09426 Y68.21806 Z-3.07833
X220.13614 Y68.23342 Z-3.0862
X220.17714 Y68.25103 Z-3.09407
X220.21712 Y68.27083 Z-3.10193
X220.25598 Y68.29275 Z-3.1098
X220.29359 Y68.31675 Z-3.11767
X220.32985 Y68.34275 Z-3.12553
X220.36465 Y68.37067 Z-3.1334
X220.39789 Y68.40042 Z-3.14127
X220.42948 Y68.43193 Z-3.14914
X220.49347 Y68.50803 Z-3.16667
X220.42948 Y68.43193 F4912.
G03 X220.2422 Y69.71534 I-0.59827 J0.56807
G1 X181.41099 Y92.0253
G03 X180.175 Y91.30996 I-0.41099 J-0.71534
G1 Y69.
G03 X181. Y68.175 I0.825 J0.
G1 X219.83121
G03 X220.42948 Y68.43193 I0. J0.82501
G0 Z3.175
X197.91474 Y68.175
G1 Z-2.33333 F1228.
X219.83121 Z-6.1978 F3684.
X219.87581 Y68.17621 Z-6.20567
X219.92027 Y68.17982 Z-6.21353
X219.96448 Y68.18584 Z-6.2214
X220.0083 Y68.19423 Z-6.22927
X220.0516 Y68.20498 Z-6.23713
X220.09426 Y68.21806 Z-6.245
X220.13614 Y68.23342 Z-6.25287
X220.17714 Y68.25103 Z-6.26073
X220.21712 Y68.27083 Z-6.2686
X220.25598 Y68.29275 Z-6.27647
X220.29359 Y68.31675 Z-6.28433
X220.32985 Y68.34275 Z-6.2922
X220.36465 Y68.37067 Z-6.30007
X220.39789 Y68.40042 Z-6.30793
X220.42948 Y68.43193 Z-6.3158
X220.49347 Y68.50803 Z-6.33333
X220.42948 Y68.43193 F4912.
G03 X220.2422 Y69.71534 I-0.59827 J0.56807
G1 X181.41099 Y92.0253
G03 X180.175 Y91.30996 I-0.41099 J-0.71534
G1 Y69.
G03 X181. Y68.175 I0.825 J0.
G1 X219.83121
G03 X220.42948 Y68.43193 I0. J0.82501
G0 Z3.175
X197.91474 Y68.175
G1 Z-5.5 F1228.
X219.83121 Z-9.36446 F3684.
X219.87581 Y68.17621 Z-9.37233
X219.92027 Y68.17982 Z-9.3802
X219.96448 Y68.18584 Z-9.38807
X220.0083 Y68.19423 Z-9.39593
X220.0516 Y68.20498 Z-9.4038
X220.09426 Y68.21806 Z-9.41167
X220.13614 Y68.23342 Z-9.41953
X220.17714 Y68.25103 Z-9.4274
X220.21712 Y68.27083 Z-9.43527
X220.25598 Y68.29275 Z-9.44313
X220.29359 Y68.31675 Z-9.451
X220.32985 Y68.34275 Z-9.45887
X220.36465 Y68.37067 Z-9.46674
X220.39789 Y68.40042 Z-9.4746
X220.42948 Y68.43193 Z-9.48247
X220.49347 Y68.50803 Z-9.5
X220.42948 Y68.43193 F4912.
G03 X220.2422 Y69.71534 I-0.59827 J0.56807
G1 X181.41099 Y92.0253
G03 X180.175 Y91.30996 I-0.41099 J-0.71534
G1 Y69.
G03 X181. Y68.175 I0.825 J0.
G1 X219.83121
G03 X220.42948 Y68.43193 I0. J0.82501
G0 Z3.175
X230.21969 Y35.1459
G1 Z0.83333 F1228.
X233.58901 Y33.21009 Z0.14816 F3684.
X233.69246 Y33.1599 Z0.12788
X233.80188 Y33.12458 Z0.10761
X233.91515 Y33.10481 Z0.08733
X234.03007 Y33.10098 Z0.06706
X234.1444 Y33.11317 Z0.04678
X234.25593 Y33.14114 Z0.02651
X234.36249 Y33.18434 Z0.00623
X234.46201 Y33.24194 Z-0.01404
X234.55255 Y33.31281 Z-0.03431
X234.63236 Y33.39558 Z-0.05459
X234.69989 Y33.48865 Z-0.07486
X234.75382 Y33.5902 Z-0.09514
X234.7931 Y33.69826 Z-0.11541
X234.81699 Y33.81073 Z-0.13569
X234.825 Y33.92544 Z-0.15596
Y51. Z-3.16667
G03 X234. Y51.825 I-0.825 J0. F4912.
G1 X204.28117
G03 X203.87018 Y50.28466 I0. J-0.825
G1 X233.58901 Y33.21009
G03 X234.825 Y33.92544 I0.41099 J0.71535
G1 Y51.
G0 Z3.175
X230.21969 Y35.1459
G1 Z-2.33333 F1228.
X233.58901 Y33.21009 Z-3.01851 F3684.
X233.69246 Y33.1599 Z-3.03878
X233.80188 Y33.12458 Z-3.05906
X233.91515 Y33.10481 Z-3.07933
X234.03007 Y33.10098 Z-3.09961
X234.1444 Y33.11317 Z-3.11988
X234.25593 Y33.14114 Z-3.14016
X234.36249 Y33.18434 Z-3.16043
X234.46201 Y33.24194 Z-3.18071
X234.55255 Y33.31281 Z-3.20098
X234.63236 Y33.39558 Z-3.22126
X234.69989 Y33.48865 Z-3.24153
X234.75382 Y33.5902 Z-3.2618
X234.7931 Y33.69826 Z-3.28208
X234.81699 Y33.81073 Z-3.30235
X234.825 Y33.92544 Z-3.32263
Y51. Z-6.33333
G03 X234. Y51.825 I-0.825 J0. F4912.
G1 X204.28117
G03 X203.87018 Y50.28466 I0. J-0.825
G1 X233.58901 Y33.21009
G03 X234.825 Y33.92544 I0.41099 J0.71535
G1 Y51.
G0 Z3.175
X230.21969 Y35.1459
G1 Z-5.5 F1228.
X233.58901 Y33.21009 Z-6.18518 F3684.
X233.69246 Y33.1599 Z-6.20545
X233.80188 Y33.12458 Z-6.22573
X233.91515 Y33.10481 Z-6.246
X234.03007 Y33.10098 Z-6.26627
X234.1444 Y33.11317 Z-6.28655
X234.25593 Y33.14114 Z-6.30682
X234.36249 Y33.18434 Z-6.3271
X234.46201 Y33.24194 Z-6.34737
X234.55255 Y33.31281 Z-6.36765
X234.63236 Y33.39558 Z-6.38792
X234.69989 Y33.48865 Z-6.4082
X234.75382 Y33.5902 Z-6.42847
X234.7931 Y33.69826 Z-6.44874
X234.81699 Y33.81073 Z-6.46902
X234.825 Y33.92544 Z-6.48929
Y51. Z-9.5
G03 X234. Y51.825 I-0.825 J0. F4912.
G1 X204.28117
G03 X203.87018 Y50.28466 I0. J-0.825
G1 X233.58901 Y33.21009
G03 X234.825 Y33.92544 I0.41099 J0.71535
G1 Y51.
G0 Z3.175
X197.91474 Y18.175
G1 Z0.83333 F1228.
X219.83121 Z-3.03113 F3684.
X219.87581 Y18.17621 Z-3.039
X219.92027 Y18.17982 Z-3.04687
X219.96448 Y18.18584 Z-3.05473
X220.0083 Y18.19423 Z-3.0626
X220.0516 Y18.20498 Z-3.07047
X220.09426 Y18.21806 Z-3.07833
X220.13614 Y18.23342 Z-3.0862
X220.17714 Y18.25103 Z-3.09407
X220.21712 Y18.27083 Z-3.10193
X220.25598 Y18.29276 Z-3.1098
X220.29359 Y18.31675 Z-3.11767
X220.32985 Y18.34275 Z-3.12553
X220.36465 Y18.37067 Z-3.1334
X220.39789 Y18.40042 Z-3.14127
X220.42948 Y18.43193 Z-3.14914
X220.49347 Y18.50803 Z-3.16667
X220.42948 Y18.43193 F4912.
G03 X220.2422 Y19.71534 I-0.59827 J0.56807
G1 X181.41099 Y42.0253
G03 X180.175 Y41.30996 I-0.41099 J-0.71534
G1 Y19.
G03 X181. Y18.175 I0.825 J0.
G1 X219.83121
G03 X220.42948 Y18.43193 I0. J0.82501
G0 Z3.175
X197.91474 Y18.175
G1 Z-2.33333 F1228.
X219.83121 Z-6.1978 F3684.
X219.87581 Y18.17621 Z-6.20567
X219.92027 Y18.17982 Z-6.21353
X219.96448 Y18.18584 Z-6.2214
X220.0083 Y18.19423 Z-6.22927
X220.0516 Y18.20498 Z-6.23713
X220.09426 Y18.21806 Z-6.245
X220.13614 Y18.23342 Z-6.25287
X220.17714 Y18.25103 Z-6.26073
X220.21712 Y18.27083 Z-6.2686
X220.25598 Y18.29276 Z-6.27647
X220.29359 Y18.31675 Z-6.28433
X220.32985 Y18.34275 Z-6.2922
X220.36465 Y18.37067 Z-6.30007
X220.39789 Y18.40042 Z-6.30793
X220.42948 Y18.43193 Z-6.3158
X220.49347 Y18.50803 Z-6.33333
X220.42948 Y18.43193 F4912.
G03 X220.2422 Y19.71534 I-0.59827 J0.56807
G1 X181.41099 Y42.0253
G03 X180.175 Y41.30996 I-0.41099 J-0.71534
G1 Y19.
G03 X181. Y18.175 I0.825 J0.
G1 X219.83121
G03 X220.42948 Y18.43193 I0. J0.82501
G0 Z3.175
X197.91474 Y18.175
G1 Z-5.5 F1228.
X219.83121 Z-9.36446 F3684.
X219.87581 Y18.17621 Z-9.37233
X219.92027 Y18.17982 Z-9.3802
X219.96448 Y18.18584 Z-9.38807
X220.0083 Y18.19423 Z-9.39593
X220.0516 Y18.20498 Z-9.4038
X220.09426 Y18.21806 Z-9.41167
X220.13614 Y18.23342 Z-9.41953
X220.17714 Y18.25103 Z-9.4274
X220.21712 Y18.27083 Z-9.43527
X220.25598 Y18.29276 Z-9.44313
X220.29359 Y18.31675 Z-9.451
X220.32985 Y18.34275 Z-9.45887
X220.36465 Y18.37067 Z-9.46674
X220.39789 Y18.40042 Z-9.4746
X220.42948 Y18.43193 Z-9.48247
X220.49347 Y18.50803 Z-9.5
X220.42948 Y18.43193 F4912.
G03 X220.2422 Y19.71534 I-0.59827 J0.56807
G1 X181.41099 Y42.0253
G03 X180.175 Y41.30996 I-0.41099 J-0.71534
G1 Y19.
G03 X181. Y18.175 I0.825 J0.
G1 X219.83121
G03 X220.42948 Y18.43193 I0. J0.82501
G0 Z3.175
X60.52786 Y131.04196
G1 Z0.83333 F1228.
X41.4105 Y142.02559 Z-3.05432 F3684.
X41.37314 Y142.04579 Z-3.06181
X41.33478 Y142.06404 Z-3.0693
X41.29554 Y142.08028 Z-3.07679
X41.2555 Y142.09447 Z-3.08428
X41.21479 Y142.10658 Z-3.09177
X41.1735 Y142.11656 Z-3.09926
X41.13175 Y142.12439 Z-3.10675
X41.08965 Y142.13006 Z-3.11424
X41.04732 Y142.13354 Z-3.12173
X41.00486 Y142.13483 Z-3.12922
X40.9624 Y142.13392 Z-3.13671
X40.92004 Y142.13082 Z-3.1442
X40.87789 Y142.12554 Z-3.15169
X40.83607 Y142.11808 Z-3.15918
X40.7947 Y142.10847 Z-3.16667
G03 X40.79231 Y142.10784 I0.20647 J-0.79506 F4912.
X40.175 Y141.31031 I0.20642 J-0.79744
G1 Y119.
G03 X41. Y118.175 I0.825 J0.
G1 X79.83121
G03 X80.2422 Y119.71534 I0. J0.825
G1 X41.4105 Y142.02559
G03 X40.7947 Y142.10847 I-0.40933 J-0.71218
G0 Z3.175
X60.52786 Y131.04196
G1 Z-2.33333 F1228.
X41.4105 Y142.02559 Z-6.22099 F3684.
X41.37314 Y142.04579 Z-6.22848
X41.33478 Y142.06404 Z-6.23597
X41.29554 Y142.08028 Z-6.24346
X41.2555 Y142.09447 Z-6.25095
X41.21479 Y142.10658 Z-6.25844
X41.1735 Y142.11656 Z-6.26593
X41.13175 Y142.12439 Z-6.27342
X41.08965 Y142.13006 Z-6.28091
X41.04732 Y142.13354 Z-6.2884
X41.00486 Y142.13483 Z-6.29588
X40.9624 Y142.13392 Z-6.30338
X40.92004 Y142.13082 Z-6.31086
X40.87789 Y142.12554 Z-6.31835
X40.83607 Y142.11808 Z-6.32584
X40.7947 Y142.10847 Z-6.33333
G03 X40.79231 Y142.10784 I0.20647 J-0.79506 F4912.
X40.175 Y141.31031 I0.20642 J-0.79744
G1 Y119.
G03 X41. Y118.175 I0.825 J0.
G1 X79.83121
G03 X80.2422 Y119.71534 I0. J0.825
G1 X41.4105 Y142.02559
G03 X40.7947 Y142.10847 I-0.40933 J-0.71218
G0 Z3.175
X60.52786 Y131.04196
G1 Z-5.5 F1228.
X41.4105 Y142.02559 Z-9.38766 F3684.
X41.37314 Y142.04579 Z-9.39515
X41.33478 Y142.06404 Z-9.40263
X41.29554 Y142.08028 Z-9.41012
X41.2555 Y142.09447 Z-9.41761
X41.21479 Y142.10658 Z-9.4251
X41.1735 Y142.11656 Z-9.43259
X41.13175 Y142.12439 Z-9.44008
X41.08965 Y142.13006 Z-9.44757
X41.04732 Y142.13354 Z-9.45506
X41.00486 Y142.13483 Z-9.46255
X40.9624 Y142.13392 Z-9.47004
X40.92004 Y142.13082 Z-9.47753
X40.87789 Y142.12554 Z-9.48502
X40.83607 Y142.11808 Z-9.49251
X40.7947 Y142.10847 Z-9.5
G03 X40.79231 Y142.10784 I0.20647 J-0.79506 F4912.
X40.175 Y141.31031 I0.20642 J-0.79744
G1 Y119.
G03 X41. Y118.175 I0.825 J0.
G1 X79.83121
G03 X80.2422 Y119.71534 I0. J0.825
G1 X41.4105 Y142.02559
G03 X40.7947 Y142.10847 I-0.40933 J-0.71218
G0 Z3.175
X40.22892 Y191.59773
G1 Z0.83333 F1228.
X40.20694 Y191.53729 Z0.82199 F3684.
X40.18303 Y191.42483 Z0.80172
X40.175 Y191.31014 Z0.78145
X40.17896 Y168.91927 Z-3.16667
G03 X41. Y168.175 I0.82104 J0.08073 F4912.
G1 X79.83121
G03 X80.2422 Y169.71534 I0. J0.825
G1 X41.41099 Y192.0253
G03 X40.175 Y191.31014 I-0.41099 J-0.71534
G1 X40.17896 Y168.91927
G0 Z3.175
X40.22892 Y191.59773
G1 Z-2.33333 F1228.
X40.20694 Y191.53729 Z-2.34467 F3684.
X40.18303 Y191.42483 Z-2.36495
X40.175 Y191.31014 Z-2.38522
X40.17896 Y168.91927 Z-6.33333
G03 X41. Y168.175 I0.82104 J0.08073 F4912.
G1 X79.83121
G03 X80.2422 Y169.71534 I0. J0.825
G1 X41.41099 Y192.0253
G03 X40.175 Y191.31014 I-0.41099 J-0.71534
G1 X40.17896 Y168.91927
G0 Z3.175
X40.22892 Y191.59773
G1 Z-5.5 F1228.
X40.20694 Y191.53729 Z-5.51134 F3684.
X40.18303 Y191.42483 Z-5.53161
X40.175 Y191.31014 Z-5.55189
X40.17896 Y168.91927 Z-9.5
G03 X41. Y168.175 I0.82104 J0.08073 F4912.
G1 X79.83121
G03 X80.2422 Y169.71534 I0. J0.825
G1 X41.41099 Y192.0253
G03 X40.175 Y191.31014 I-0.41099 J-0.71534
G1 X40.17896 Y168.91927
G0 Z3.175
X40.26036 Y241.67189
G1 Z0.83333 F1228.
X40.24618 Y241.6452 Z0.828 F3684.
X40.2069 Y241.53714 Z0.80773
X40.18301 Y241.42467 Z0.78746
X40.175 Y241.30996 Z0.76718
Y219. Z-3.16667
G03 X41. Y218.175 I0.825 J0. F4912.
G1 X79.83121
G03 X80.2422 Y219.71534 I0. J0.825
G1 X41.41099 Y242.0253
G03 X40.175 Y241.30996 I-0.41099 J-0.71534
G1 Y219.
G0 Z3.175
X40.26036 Y241.67189
G1 Z-2.33333 F1228.
X40.24618 Y241.6452 Z-2.33866 F3684.
X40.2069 Y241.53714 Z-2.35894
X40.18301 Y241.42467 Z-2.37921
X40.175 Y241.30996 Z-2.39949
Y219. Z-6.33333
G03 X41. Y218.175 I0.825 J0. F4912.
G1 X79.83121
G03 X80.2422 Y219.71534 I0. J0.825
G1 X41.41099 Y242.0253
G03 X40.175 Y241.30996 I-0.41099 J-0.71534
G1 Y219.
G0 Z3.175
X40.26036 Y241.67189
G1 Z-5.5 F1228.
X40.24618 Y241.6452 Z-5.50533 F3684.
X40.2069 Y241.53714 Z-5.5256
X40.18301 Y241.42467 Z-5.54588
X40.175 Y241.30996 Z-5.56615
Y219. Z-9.5
G03 X41. Y218.175 I0.825 J0. F4912.
G1 X79.83121
G03 X80.2422 Y219.71534 I0. J0.825
G1 X41.41099 Y242.0253
G03 X40.175 Y241.30996 I-0.41099 J-0.71534
G1 Y219.
G0 Z3.175
(2 1/2 Axis Profiling Outside)
(1/4in 6.35mm 2 Flute Carbide Router)
X112.175 Y365.2878
G1 Z0.83333 F1228.
Y351.175 Z-1.65514 F3684.
X120. Z-3.03489
X120.49668 Y351.13591 Z-3.12274
X120.7389 Y351.07776 Z-3.16667
X120.98113 Y351.0196 F4912.
G02 X123.175 Y348. I-0.98113 J-3.0196
G1 Y72.
G02 X120. Y68.825 I-3.175 J0.
G1 X112.175
Y33.175
X120.
G02 X123.175 Y30. I0. J-3.175
G1 Y0.
G02 X120. Y-3.175 I-3.175 J0.
G1 X94.
G02 X86.825 Y4. I0. J7.175
G1 Y6.
G03 X86. Y6.825 I-0.825 J0.
G1 X54.
G03 X53.175 Y6. I0. J-0.825
G1 Y4.
G02 X46. Y-3.175 I-7.175 J0.
G1 X0.
G02 X-3.175 Y0. I0. J3.175
G1 Y40.
G02 X0. Y43.175 I3.175 J0.
G1 X15.
G02 X18.175 Y40. I0. J-3.175
G1 Y20.
G03 X21.825 I1.825 J0.
G1 Y45.
G03 X20. Y46.825 I-1.825 J0.
G1 X12.5
G02 X-3.175 Y62.5 I0. J15.675
G1 Y90.
G02 X0. Y93.175 I3.175 J0.
G1 X15.
G02 X18.175 Y90. I0. J-3.175
G1 Y70.
G03 X21.825 I1.825 J0.
G1 Y95.
G03 X20. Y96.825 I-1.825 J0.
G1 X12.5
G02 X-3.175 Y112.5 I0. J15.675
G1 Y140.
G02 X0. Y143.175 I3.175 J0.
G1 X15.
G02 X18.175 Y140. I0. J-3.175
G1 Y120.
G03 X21.825 I1.825 J0.
G1 Y145.
G03 X20. Y146.825 I-1.825 J0.
G1 X12.5
G02 X-3.175 Y162.5 I0. J15.675
G1 Y190.
G02 X0. Y193.175 I3.175 J0.
G1 X15.
G02 X18.175 Y190. I0. J-3.175
G1 Y170.
G03 X21.825 I1.825 J0.
G1 Y195.
G03 X20. Y196.825 I-1.825 J0.
G1 X12.5
G02 X-3.175 Y212.5 I0. J15.675
G1 Y240.
G02 X0. Y243.175 I3.175 J0.
G1 X15.
G02 X18.175 Y240. I0. J-3.175
G1 Y220.
G03 X21.825 I1.825 J0.
G1 Y245.
G03 X20. Y246.825 I-1.825 J0.
G1 X12.5
G02 X-3.175 Y262.5 I0. J15.675
G1 Y290.
G02 X0. Y293.175 I3.175 J0.
G1 X15.
G02 X18.175 Y290. I0. J-3.175
G1 Y270.
G03 X21.825 I1.825 J0.
G1 Y295.
G03 X20. Y296.825 I-1.825 J0.
G1 X12.5
G02 X-3.175 Y312.5 I0. J15.675
G1 Y340.
G02 X0. Y343.175 I3.175 J0.
G1 X15.
G02 X18.175 Y340. I0. J-3.175
G1 Y320.
G03 X21.825 I1.825 J0.
G1 Y345.
G03 X20. Y346.825 I-1.825 J0.
G1 X12.5
G02 X-3.175 Y362.5 I0. J15.675
G1 Y390.
G02 X0. Y393.175 I3.175 J0.
G1 X15.
G02 X18.175 Y390. I0. J-3.175
G1 Y370.
G03 X21.825 I1.825 J0.
G1 Y395.
G03 X20. Y396.825 I-1.825 J0.
G1 X12.5
G02 X-2.8583 Y409.365 I0. J15.675
G1 X-2.91988 Y409.87223
X-2.89929 Y410.38277
X-2.79708 Y410.8834
X-2.61588 Y411.36115
X-2.3604 Y411.80364
X-2.03724 Y412.19943
X-1.65478 Y412.53825
X-1.22293 Y412.81133
X-0.75286 Y413.01161
X-0.25675 Y413.13389
X0.25255 Y413.175
X46.
G03 X46.825 Y414. I0. J0.825
G1 Y416.
G02 X54. Y423.175 I7.175 J0.
G1 X86.
G02 X93.175 Y416. I0. J-7.175
G1 Y414.
G03 X94. Y413.175 I0.825 J0.
G1 X120.
G02 X123.175 Y410. I0. J-3.175
G1 Y390.
G02 X120. Y386.825 I-3.175 J0.
G1 X112.175
Y351.175
X120.
X120.49668 Y351.13591
X120.7389 Y351.07776
G0 Z3.175
X112.175 Y365.2878
G1 Z-2.33333 F1228.
Y351.175 Z-4.8218 F3684.
X120. Z-6.20156
X120.49668 Y351.13591 Z-6.28941
X120.7389 Y351.07776 Z-6.33333
X120.98113 Y351.0196 F4912.
G02 X123.175 Y348. I-0.98113 J-3.0196
G1 Y72.
G02 X120. Y68.825 I-3.175 J0.
G1 X112.175
Y33.175
X120.
G02 X123.175 Y30. I0. J-3.175
G1 Y0.
G02 X120. Y-3.175 I-3.175 J0.
G1 X94.
G02 X86.825 Y4. I0. J7.175
G1 Y6.
G03 X86. Y6.825 I-0.825 J0.
G1 X54.
G03 X53.175 Y6. I0. J-0.825
G1 Y4.
G02 X46. Y-3.175 I-7.175 J0.
G1 X0.
G02 X-3.175 Y0. I0. J3.175
G1 Y40.
G02 X0. Y43.175 I3.175 J0.
G1 X15.
G02 X18.175 Y40. I0. J-3.175
G1 Y20.
G03 X21.825 I1.825 J0.
G1 Y45.
G03 X20. Y46.825 I-1.825 J0.
G1 X12.5
G02 X-3.175 Y62.5 I0. J15.675
G1 Y90.
G02 X0. Y93.175 I3.175 J0.
G1 X15.
G02 X18.175 Y90. I0. J-3.175
G1 Y70.
G03 X21.825 I1.825 J0.
G1 Y95.
G03 X20. Y96.825 I-1.825 J0.
G1 X12.5
G02 X-3.175 Y112.5 I0. J15.675
G1 Y140.
G02 X0. Y143.175 I3.175 J0.
G1 X15.
G02 X18.175 Y140. I0. J-3.175
G1 Y120.
G03 X21.825 I1.825 J0.
G1 Y145.
G03 X20. Y146.825 I-1.825 J0.
G1 X12.5
G02 X-3.175 Y162.5 I0. J15.675
G1 Y190.
G02 X0. Y193.175 I3.175 J0.
G1 X15.
G02 X18.175 Y190. I0. J-3.175
G1 Y170.
G03 X21.825 I1.825 J0.
G1 Y195.
G03 X20. Y196.825 I-1.825 J0.
G1 X12.5
G02 X-3.175 Y212.5 I0. J15.675
G1 Y240.
G02 X0. Y243.175 I3.175 J0.
G1 X15.
G02 X18.175 Y240. I0. J-3.175
G1 Y220.
G03 X21.825 I1.825 J0.
G1 Y245.
G03 X20. Y246.825 I-1.825 J0.
G1 X12.5
G02 X-3.175 Y262.5 I0. J15.675
G1 Y290.
G02 X0. Y293.175 I3.175 J0.
G1 X15.
G02 X18.175 Y290. I0. J-3.175
G1 Y270.
G03 X21.825 I1.825 J0.
G1 Y295.
G03 X20. Y296.825 I-1.825 J0.
G1 X12.5
G02 X-3.175 Y312.5 I0. J15.675
G1 Y340.
G02 X0. Y343.175 I3.175 J0.
G1 X15.
G02 X18.175 Y340. I0. J-3.175
G1 Y320.
G03 X21.825 I1.825 J0.
G1 Y345.
G03 X20. Y346.825 I-1.825 J0.
G1 X12.5
G02 X-3.175 Y362.5 I0. J15.675
G1 Y390.
G02 X0. Y393.175 I3.175 J0.
G1 X15.
G02 X18.175 Y390. I0. J-3.175
G1 Y370.
G03 X21.825 I1.825 J0.
G1 Y395.
G03 X20. Y396.825 I-1.825 J0.
G1 X12.5
G02 X-2.8583 Y409.365 I0. J15.675
G1 X-2.91988 Y409.87223
X-2.89929 Y410.38277
X-2.79708 Y410.8834
X-2.61588 Y411.36115
X-2.3604 Y411.80364
X-2.03724 Y412.19943
X-1.65478 Y412.53825
X-1.22293 Y412.81133
X-0.75286 Y413.01161
X-0.25675 Y413.13389
X0.25255 Y413.175
X46.
G03 X46.825 Y414. I0. J0.825
G1 Y416.
G02 X54. Y423.175 I7.175 J0.
G1 X86.
G02 X93.175 Y416. I0. J-7.175
G1 Y414.
G03 X94. Y413.175 I0.825 J0.
G1 X120.
G02 X123.175 Y410. I0. J-3.175
G1 Y390.
G02 X120. Y386.825 I-3.175 J0.
G1 X112.175
Y351.175
X120.
X120.49668 Y351.13591
X120.7389 Y351.07776
G0 Z3.175
X112.175 Y365.2878
G1 Z-5.5 F1228.
Y351.175 Z-7.98847 F3684.
X120. Z-9.36823
X120.49668 Y351.13591 Z-9.45608
X120.7389 Y351.07776 Z-9.5
X120.98113 Y351.0196 F4912.
G02 X123.175 Y348. I-0.98113 J-3.0196
G1 Y72.
G02 X120. Y68.825 I-3.175 J0.
G1 X112.175
Y33.175
X120.
G02 X123.175 Y30. I0. J-3.175
G1 Y0.
G02 X120. Y-3.175 I-3.175 J0.
G1 X94.
G02 X86.825 Y4. I0. J7.175
G1 Y6.
G03 X86. Y6.825 I-0.825 J0.
G1 X54.
G03 X53.175 Y6. I0. J-0.825
G1 Y4.
G02 X46. Y-3.175 I-7.175 J0.
G1 X0.
G02 X-3.175 Y0. I0. J3.175
G1 Y40.
G02 X0. Y43.175 I3.175 J0.
G1 X15.
G02 X18.175 Y40. I0. J-3.175
G1 Y20.
G03 X21.825 I1.825 J0.
G1 Y45.
G03 X20. Y46.825 I-1.825 J0.
G1 X12.5
G02 X-3.175 Y62.5 I0. J15.675
G1 Y90.
G02 X0. Y93.175 I3.175 J0.
G1 X15.
G02 X18.175 Y90. I0. J-3.175
G1 Y70.
G03 X21.825 I1.825 J0.
G1 Y95.
G03 X20. Y96.825 I-1.825 J0.
G1 X12.5
G02 X-3.175 Y112.5 I0. J15.675
G1 Y140.
G02 X0. Y143.175 I3.175 J0.
G1 X15.
G02 X18.175 Y140. I0. J-3.175
G1 Y120.
G03 X21.825 I1.825 J0.
G1 Y145.
G03 X20. Y146.825 I-1.825 J0.
G1 X12.5
G02 X-3.175 Y162.5 I0. J15.675
G1 Y190.
G02 X0. Y193.175 I3.175 J0.
G1 X15.
G02 X18.175 Y190. I0. J-3.175
G1 Y170.
G03 X21.825 I1.825 J0.
G1 Y195.
G03 X20. Y196.825 I-1.825 J0.
G1 X12.5
G02 X-3.175 Y212.5 I0. J15.675
G1 Y240.
G02 X0. Y243.175 I3.175 J0.
G1 X15.
G02 X18.175 Y240. I0. J-3.175
G1 Y220.
G03 X21.825 I1.825 J0.
G1 Y245.
G03 X20. Y246.825 I-1.825 J0.
G1 X12.5
G02 X-3.175 Y262.5 I0. J15.675
G1 Y290.
G02 X0. Y293.175 I3.175 J0.
G1 X15.
G02 X18.175 Y290. I0. J-3.175
G1 Y270.
G03 X21.825 I1.825 J0.
G1 Y295.
G03 X20. Y296.825 I-1.825 J0.
G1 X12.5
G02 X-3.175 Y312.5 I0. J15.675
G1 Y340.
G02 X0. Y343.175 I3.175 J0.
G1 X15.
G02 X18.175 Y340. I0. J-3.175
G1 Y320.
G03 X21.825 I1.825 J0.
G1 Y345.
G03 X20. Y346.825 I-1.825 J0.
G1 X12.5
G02 X-3.175 Y362.5 I0. J15.675
G1 Y390.
G02 X0. Y393.175 I3.175 J0.
G1 X15.
G02 X18.175 Y390. I0. J-3.175
G1 Y370.
G03 X21.825 I1.825 J0.
G1 Y395.
G03 X20. Y396.825 I-1.825 J0.
G1 X12.5
G02 X-2.8583 Y409.365 I0. J15.675
G1 X-2.91988 Y409.87223
X-2.89929 Y410.38277
X-2.79708 Y410.8834
X-2.61588 Y411.36115
X-2.3604 Y411.80364
X-2.03724 Y412.19943
X-1.65478 Y412.53825
X-1.22293 Y412.81133
X-0.75286 Y413.01161
X-0.25675 Y413.13389
X0.25255 Y413.175
X46.
G03 X46.825 Y414. I0. J0.825
G1 Y416.
G02 X54. Y423.175 I7.175 J0.
G1 X86.
G02 X93.175 Y416. I0. J-7.175
G1 Y414.
G03 X94. Y413.175 I0.825 J0.
G1 X120.
G02 X123.175 Y410. I0. J-3.175
G1 Y390.
G02 X120. Y386.825 I-3.175 J0.
G1 X112.175
Y351.175
X120.
X120.49668 Y351.13591
X120.7389 Y351.07776
G0 Z3.175
X252.175 Y365.2878
G1 Z0.83333 F1228.
Y351.175 Z-1.65514 F3684.
X260. Z-3.03489
X260.49668 Y351.13591 Z-3.12274
X260.7389 Y351.07776 Z-3.16667
X260.98113 Y351.0196 F4912.
G02 X263.175 Y348. I-0.98113 J-3.0196
G1 Y72.
G02 X260. Y68.825 I-3.175 J0.
G1 X252.175
Y33.175
X260.
G02 X263.175 Y30. I0. J-3.175
G1 Y0.
G02 X260. Y-3.175 I-3.175 J0.
G1 X234.
G02 X226.825 Y4. I0. J7.175
G1 Y6.
G03 X226. Y6.825 I-0.825 J0.
G1 X194.
G03 X193.175 Y6. I0. J-0.825
G1 Y4.
G02 X186. Y-3.175 I-7.175 J0.
G1 X140.
G02 X136.825 Y0. I0. J3.175
G1 Y40.
G02 X140. Y43.175 I3.175 J0.
G1 X155.
G02 X158.175 Y40. I0. J-3.175
G1 Y20.
G03 X161.825 I1.825 J0.
G1 Y45.
G03 X160. Y46.825 I-1.825 J0.
G1 X152.5
G02 X136.825 Y62.5 I0. J15.675
G1 Y90.
G02 X140. Y93.175 I3.175 J0.
G1 X155.
G02 X158.175 Y90. I0. J-3.175
G1 Y70.
G03 X161.825 I1.825 J0.
G1 Y95.
G03 X160. Y96.825 I-1.825 J0.
G1 X152.5
G02 X136.825 Y112.5 I0. J15.675
G1 Y140.
G02 X140. Y143.175 I3.175 J0.
G1 X155.
G02 X158.175 Y140. I0. J-3.175
G1 Y120.
G03 X161.825 I1.825 J0.
G1 Y145.
G03 X160. Y146.825 I-1.825 J0.
G1 X152.5
G02 X136.825 Y162.5 I0. J15.675
G1 Y190.
G02 X140. Y193.175 I3.175 J0.
G1 X155.
G02 X158.175 Y190. I0. J-3.175
G1 Y170.
G03 X161.825 I1.825 J0.
G1 Y195.
G03 X160. Y196.825 I-1.825 J0.
G1 X152.5
G02 X136.825 Y212.5 I0. J15.675
G1 Y240.
G02 X140. Y243.175 I3.175 J0.
G1 X155.
G02 X158.175 Y240. I0. J-3.175
G1 Y220.
G03 X161.825 I1.825 J0.
G1 Y245.
G03 X160. Y246.825 I-1.825 J0.
G1 X152.5
G02 X136.825 Y262.5 I0. J15.675
G1 Y290.
G02 X140. Y293.175 I3.175 J0.
G1 X155.
G02 X158.175 Y290. I0. J-3.175
G1 Y270.
G03 X161.825 I1.825 J0.
G1 Y295.
G03 X160. Y296.825 I-1.825 J0.
G1 X152.5
G02 X136.825 Y312.5 I0. J15.675
G1 Y340.
G02 X140. Y343.175 I3.175 J0.
G1 X155.
G02 X158.175 Y340. I0. J-3.175
G1 Y320.
G03 X161.825 I1.825 J0.
G1 Y345.
G03 X160. Y346.825 I-1.825 J0.
G1 X152.5
G02 X136.825 Y362.5 I0. J15.675
G1 Y390.
G02 X140. Y393.175 I3.175 J0.
G1 X155.
G02 X158.175 Y390. I0. J-3.175
G1 Y370.
G03 X161.825 I1.825 J0.
G1 Y395.
G03 X160. Y396.825 I-1.825 J0.
G1 X152.5
G02 X137.1417 Y409.365 I0. J15.675
G1 X137.08012 Y409.87223
X137.10071 Y410.38277
X137.20292 Y410.8834
X137.38412 Y411.36115
X137.6396 Y411.80364
X137.96276 Y412.19943
X138.34522 Y412.53825
X138.77707 Y412.81133
X139.24714 Y413.01161
X139.74325 Y413.13389
X140.25255 Y413.175
X186.
G03 X186.825 Y414. I0. J0.825
G1 Y416.
G02 X194. Y423.175 I7.175 J0.
G1 X226.
G02 X233.175 Y416. I0. J-7.175
G1 Y414.
G03 X234. Y413.175 I0.825 J0.
G1 X260.
G02 X263.175 Y410. I0. J-3.175
G1 Y390.
G02 X260. Y386.825 I-3.175 J0.
G1 X252.175
Y351.175
X260.
X260.49668 Y351.13591
X260.7389 Y351.07776
G0 Z3.175
X252.175 Y365.2878
G1 Z-2.33333 F1228.
Y351.175 Z-4.8218 F3684.
X260. Z-6.20156
X260.49668 Y351.13591 Z-6.28941
X260.7389 Y351.07776 Z-6.33333
X260.98113 Y351.0196 F4912.
G02 X263.175 Y348. I-0.98113 J-3.0196
G1 Y72.
G02 X260. Y68.825 I-3.175 J0.
G1 X252.175
Y33.175
X260.
G02 X263.175 Y30. I0. J-3.175
G1 Y0.
G02 X260. Y-3.175 I-3.175 J0.
G1 X234.
G02 X226.825 Y4. I0. J7.175
G1 Y6.
G03 X226. Y6.825 I-0.825 J0.
G1 X194.
G03 X193.175 Y6. I0. J-0.825
G1 Y4.
G02 X186. Y-3.175 I-7.175 J0.
G1 X140.
G02 X136.825 Y0. I0. J3.175
G1 Y40.
G02 X140. Y43.175 I3.175 J0.
G1 X155.
G02 X158.175 Y40. I0. J-3.175
G1 Y20.
G03 X161.825 I1.825 J0.
G1 Y45.
G03 X160. Y46.825 I-1.825 J0.
G1 X152.5
G02 X136.825 Y62.5 I0. J15.675
G1 Y90.
G02 X140. Y93.175 I3.175 J0.
G1 X155.
G02 X158.175 Y90. I0. J-3.175
G1 Y70.
G03 X161.825 I1.825 J0.
G1 Y95.
G03 X160. Y96.825 I-1.825 J0.
G1 X152.5
G02 X136.825 Y112.5 I0. J15.675
G1 Y140.
G02 X140. Y143.175 I3.175 J0.
G1 X155.
G02 X158.175 Y140. I0. J-3.175
G1 Y120.
G03 X161.825 I1.825 J0.
G1 Y145.
G03 X160. Y146.825 I-1.825 J0.
G1 X152.5
G02 X136.825 Y162.5 I0. J15.675
G1 Y190.
G02 X140. Y193.175 I3.175 J0.
G1 X155.
G02 X158.175 Y190. I0. J-3.175
G1 Y170.
G03 X161.825 I1.825 J0.
G1 Y195.
G03 X160. Y196.825 I-1.825 J0.
G1 X152.5
G02 X136.825 Y212.5 I0. J15.675
G1 Y240.
G02 X140. Y243.175 I3.175 J0.
G1 X155.
G02 X158.175 Y240. I0. J-3.175
G1 Y220.
G03 X161.825 I1.825 J0.
G1 Y245.
G03 X160. Y246.825 I-1.825 J0.
G1 X152.5
G02 X136.825 Y262.5 I0. J15.675
G1 Y290.
G02 X140. Y293.175 I3.175 J0.
G1 X155.
G02 X158.175 Y290. I0. J-3.175
G1 Y270.
G03 X161.825 I1.825 J0.
G1 Y295.
G03 X160. Y296.825 I-1.825 J0.
G1 X152.5
G02 X136.825 Y312.5 I0. J15.675
G1 Y340.
G02 X140. Y343.175 I3.175 J0.
G1 X155.
G02 X158.175 Y340. I0. J-3.175
G1 Y320.
G03 X161.825 I1.825 J0.
G1 Y345.
G03 X160. Y346.825 I-1.825 J0.
G1 X152.5
G02 X136.825 Y362.5 I0. J15.675
G1 Y390.
G02 X140. Y393.175 I3.175 J0.
G1 X155.
G02 X158.175 Y390. I0. J-3.175
G1 Y370.
G03 X161.825 I1.825 J0.
G1 Y395.
G03 X160. Y396.825 I-1.825 J0.
G1 X152.5
G02 X137.1417 Y409.365 I0. J15.675
G1 X137.08012 Y409.87223
X137.10071 Y410.38277
X137.20292 Y410.8834
X137.38412 Y411.36115
X137.6396 Y411.80364
X137.96276 Y412.19943
X138.34522 Y412.53825
X138.77707 Y412.81133
X139.24714 Y413.01161
X139.74325 Y413.13389
X140.25255 Y413.175
X186.
G03 X186.825 Y414. I0. J0.825
G1 Y416.
G02 X194. Y423.175 I7.175 J0.
G1 X226.
G02 X233.175 Y416. I0. J-7.175
G1 Y414.
G03 X234. Y413.175 I0.825 J0.
G1 X260.
G02 X263.175 Y410. I0. J-3.175
G1 Y390.
G02 X260. Y386.825 I-3.175 J0.
G1 X252.175
Y351.175
X260.
X260.49668 Y351.13591
X260.7389 Y351.07776
G0 Z3.175
X252.175 Y365.2878
G1 Z-5.5 F1228.
Y351.175 Z-7.98847 F3684.
X260. Z-9.36823
X260.49668 Y351.13591 Z-9.45608
X260.7389 Y351.07776 Z-9.5
X260.98113 Y351.0196 F4912.
G02 X263.175 Y348. I-0.98113 J-3.0196
G1 Y72.
G02 X260. Y68.825 I-3.175 J0.
G1 X252.175
Y33.175
X260.
G02 X263.175 Y30. I0. J-3.175
G1 Y0.
G02 X260. Y-3.175 I-3.175 J0.
G1 X234.
G02 X226.825 Y4. I0. J7.175
G1 Y6.
G03 X226. Y6.825 I-0.825 J0.
G1 X194.
G03 X193.175 Y6. I0. J-0.825
G1 Y4.
G02 X186. Y-3.175 I-7.175 J0.
G1 X140.
G02 X136.825 Y0. I0. J3.175
G1 Y40.
G02 X140. Y43.175 I3.175 J0.
G1 X155.
G02 X158.175 Y40. I0. J-3.175
G1 Y20.
G03 X161.825 I1.825 J0.
G1 Y45.
G03 X160. Y46.825 I-1.825 J0.
G1 X152.5
G02 X136.825 Y62.5 I0. J15.675
G1 Y90.
G02 X140. Y93.175 I3.175 J0.
G1 X155.
G02 X158.175 Y90. I0. J-3.175
G1 Y70.
G03 X161.825 I1.825 J0.
G1 Y95.
G03 X160. Y96.825 I-1.825 J0.
G1 X152.5
G02 X136.825 Y112.5 I0. J15.675
G1 Y140.
G02 X140. Y143.175 I3.175 J0.
G1 X155.
G02 X158.175 Y140. I0. J-3.175
G1 Y120.
G03 X161.825 I1.825 J0.
G1 Y145.
G03 X160. Y146.825 I-1.825 J0.
G1 X152.5
G02 X136.825 Y162.5 I0. J15.675
G1 Y190.
G02 X140. Y193.175 I3.175 J0.
G1 X155.
G02 X158.175 Y190. I0. J-3.175
G1 Y170.
G03 X161.825 I1.825 J0.
G1 Y195.
G03 X160. Y196.825 I-1.825 J0.
G1 X152.5
G02 X136.825 Y212.5 I0. J15.675
G1 Y240.
G02 X140. Y243.175 I3.175 J0.
G1 X155.
G02 X158.175 Y240. I0. J-3.175
G1 Y220.
G03 X161.825 I1.825 J0.
G1 Y245.
G03 X160. Y246.825 I-1.825 J0.
G1 X152.5
G02 X136.825 Y262.5 I0. J15.675
G1 Y290.
G02 X140. Y293.175 I3.175 J0.
G1 X155.
G02 X158.175 Y290. I0. J-3.175
G1 Y270.
G03 X161.825 I1.825 J0.
G1 Y295.
G03 X160. Y296.825 I-1.825 J0.
G1 X152.5
G02 X136.825 Y312.5 I0. J15.675
G1 Y340.
G02 X140. Y343.175 I3.175 J0.
G1 X155.
G02 X158.175 Y340. I0. J-3.175
G1 Y320.
G03 X161.825 I1.825 J0.
G1 Y345.
G03 X160. Y346.825 I-1.825 J0.
G1 X152.5
G02 X136.825 Y362.5 I0. J15.675
G1 Y390.
G02 X140. Y393.175 I3.175 J0.
G1 X155.
G02 X158.175 Y390. I0. J-3.175
G1 Y370.
G03 X161.825 I1.825 J0.
G1 Y395.
G03 X160. Y396.825 I-1.825 J0.
G1 X152.5
G02 X137.1417 Y409.365 I0. J15.675
G1 X137.08012 Y409.87223
X137.10071 Y410.38277
X137.20292 Y410.8834
X137.38412 Y411.36115
X137.6396 Y411.80364
X137.96276 Y412.19943
X138.34522 Y412.53825
X138.77707 Y412.81133
X139.24714 Y413.01161
X139.74325 Y413.13389
X140.25255 Y413.175
X186.
G03 X186.825 Y414. I0. J0.825
G1 Y416.
G02 X194. Y423.175 I7.175 J0.
G1 X226.
G02 X233.175 Y416. I0. J-7.175
G1 Y414.
G03 X234. Y413.175 I0.825 J0.
G1 X260.
G02 X263.175 Y410. I0. J-3.175
G1 Y390.
G02 X260. Y386.825 I-3.175 J0.
G1 X252.175
Y351.175
X260.
X260.49668 Y351.13591
X260.7389 Y351.07776
G0 Z3.175
M30
%
