%
G17 G21 G40 G90 G64 P0.1
(Horizontal Roughing)
(Router Straight Flute 13mm Carbide Tipped)
T38 M06
S13793 M3
G0 Z64.50427
X2.57163 Y-45.38876
G1 Z63.86927 F4137.7
X2.57993 Y-38.40376 F4137.7
X-33.34604 Y-38.36106 F5000.
G17
G02 X-38.47104 Y-32.61106 I1.35134 J6.36342
G1 X-38.48666 Y32.38894
X-38.04916 Y34.38894
X-36.86106 Y36.31141
X-35.61106 Y37.40516
X-33.11106 Y38.40516
X32.38894 Y38.48329
X34.38894 Y38.04579
X36.13894 Y37.01454
X37.63894 Y35.23329
X38.38894 Y33.21766
X38.35829 Y-33.36106
G02 X32.88894 Y-38.43979 I-6.35037 J1.35443
G1 X2.57993 Y-38.40376
X2.58379 Y-35.15377
X32.41226 Y-35.18922
G03 X35.10857 Y-32.73672 I-0.3781 J3.12413
G1 X35.13867 Y32.63333
G03 X32.03954 Y35.23287 I-3.19427 J-0.66102
G1 X-32.4833 Y35.15591
G03 X-35.23658 Y32.03801 I0.46338 J-3.18379
G1 X-35.22114 Y-32.19847
G03 X-32.73709 Y-35.11178 I3.21331 J0.22416
G1 X2.58379 Y-35.15377
X2.58765 Y-31.90377
X-31.95143 Y-31.86272
X-31.97124 Y-31.78588
X-31.94641 Y31.87031
X31.88835 Y31.93909
X31.85894 Y-31.93856
X2.58765 Y-31.90377
X2.59152 Y-28.65377
X28.61044 Y-28.6847
X28.63685 Y28.68559
X-28.69768 Y28.62381
X-28.72 Y-28.61655
X2.59152 Y-28.65377
X2.59538 Y-25.40377
X-25.46873 Y-25.37042
X-25.44894 Y25.37731
X25.38535 Y25.43208
X25.36194 Y-25.43083
X2.59538 Y-25.40377
X2.59924 Y-22.15378
X22.11343 Y-22.17697
X22.13385 Y22.17858
X-22.20021 Y22.1308
X-22.21747 Y-22.12428
X2.59924 Y-22.15378
X2.60311 Y-18.90378
X-18.9662 Y-18.87814
X-18.95148 Y18.8843
X18.88236 Y18.92507
X18.86493 Y-18.92311
X2.60311 Y-18.90378
X2.60697 Y-15.65378
X15.61643 Y-15.66924
X15.63086 Y15.67156
X-15.70274 Y15.6378
X-15.71494 Y-15.632
X2.60697 Y-15.65378
X2.61083 Y-12.40378
X-12.46367 Y-12.38586
X-12.45401 Y12.3913
X12.37936 Y12.41806
X12.36793 Y-12.41538
X2.61083 Y-12.40378
X2.6147 Y-9.15378
X9.11942 Y-9.16152
X9.12786 Y9.16455
X-9.20527 Y9.1448
X-9.2124 Y-9.13973
X2.6147 Y-9.15378
X2.61856 Y-5.90379
X-5.96114 Y-5.89359
X-5.95654 Y5.8983
X5.87636 Y5.91105
X5.87092 Y-5.90765
X2.61856 Y-5.90379
X2.62242 Y-2.65379
X2.62487 Y2.65754
X-2.70781 Y2.6518
X-2.70987 Y-2.64745
X2.62242 Y-2.65379
Z64.50427 F5000.
G0 Z64.86927
X45.38014 Y-2.73979
G1 Z61.31081 F1379.2
Z60.67581 F4137.7
X38.39515 Y-2.73155 F4137.7
X38.35903 Y-33.36106 F5000.
G02 X32.88894 Y-38.44053 I-6.3518 J1.35516
G1 X-32.36106 Y-38.4874
G02 X-38.47178 Y-32.61106 I0.34921 J6.47852
G1 X-38.4874 Y32.38894
X-38.0499 Y34.38894
X-36.86106 Y36.31215
X-35.61106 Y37.4059
X-33.11106 Y38.4059
X32.38894 Y38.48403
G02 X38.43715 Y32.88894 I-0.37402 J-6.47087
G1 X38.39515 Y-2.73155
X35.14515 Y-2.72772
X35.18662 Y32.43564
G03 X32.57274 Y35.1762 I-3.2385 J-0.47198
G1 X-32.4833 Y35.15665
G03 X-35.23732 Y32.03801 I0.46404 J-3.18512
G1 X-35.22188 Y-32.19847
G03 X-32.54186 Y-35.18764 I3.29644 J0.2595
G1 X32.40882 Y-35.19087
G03 X35.10976 Y-32.7356 I-0.37682 J3.12776
G1 X35.14515 Y-2.72772
X31.89515 Y-2.72389
X31.8607 Y-31.94084
X-31.93284 Y-31.93767
X-31.97198 Y-31.78588
X-31.94705 Y31.87079
X31.93601 Y31.92601
X31.89515 Y-2.72389
X28.64515 Y-2.72005
X28.68217 Y28.6732
X-28.69832 Y28.6236
X-28.72076 Y-28.68783
X28.61453 Y-28.69068
X28.64515 Y-2.72005
X25.39516 Y-2.71622
X25.36836 Y-25.44052
X-25.46949 Y-25.438
X-25.44959 Y25.37641
X25.42834 Y25.42038
X25.39516 Y-2.71622
X22.14516 Y-2.71239
X22.1745 Y22.16757
X-22.20086 Y22.12922
X-22.21822 Y-22.18816
X22.12219 Y-22.19036
X22.14516 Y-2.71239
X18.89516 Y-2.70856
X18.87602 Y-18.9402
X-18.96694 Y-18.93832
X-18.95213 Y18.88202
X18.92066 Y18.91476
X18.89516 Y-2.70856
X15.64516 Y-2.70472
X15.66682 Y15.66194
X-15.7034 Y15.63483
X-15.71567 Y-15.68848
X15.62985 Y-15.69004
X15.64516 Y-2.70472
X12.39517 Y-2.70089
X12.38368 Y-12.43988
X-12.4644 Y-12.43864
X-12.45468 Y12.38764
X12.41298 Y12.40913
X12.39517 Y-2.70089
X9.14517 Y-2.69706
X9.15915 Y9.15632
X-9.20595 Y9.14044
X-9.21312 Y-9.1888
X9.13751 Y-9.18972
X9.14517 Y-2.69706
X5.89517 Y-2.69323
X5.89134 Y-5.93955
X-5.96185 Y-5.93896
X-5.95722 Y5.89325
X5.90531 Y5.9035
X5.89517 Y-2.69323
X2.64517 Y-2.68939
X2.65147 Y2.65069
X-2.70849 Y2.64606
X-2.71058 Y-2.68913
X2.64517 Y-2.68939
Z61.31081 F5000.
G0 Z61.67581
X45.38088 Y-2.74036
G1 Z58.11734 F1379.2
Z57.48234 F4137.7
X38.39589 Y-2.73213 F4137.7
X38.35977 Y-33.36106 F5000.
G02 X32.88894 Y-38.44127 I-6.35323 J1.35589
G1 X-32.36106 Y-38.48814
G02 X-38.47252 Y-32.61106 I0.35039 J6.48049
G1 X-38.48814 Y32.38894
X-38.05064 Y34.38894
G02 X-34.61106 Y37.95352 I6.09299 J-2.43756
G1 X-32.61106 Y38.46914
X32.38894 Y38.48477
G02 X38.43789 Y32.88894 I-0.37526 J-6.47295
G1 X38.39589 Y-2.73213
X35.14589 Y-2.72829
X35.18736 Y32.43564
G03 X32.57238 Y35.17699 I-3.23991 J-0.47266
G1 X-32.19847 Y35.21924
G03 X-35.23806 Y32.03801 I0.2418 J-3.27378
G1 X-35.22262 Y-32.19847
G03 X-32.54161 Y-35.18803 I3.29706 J0.25984
G1 X32.40841 Y-35.19161
G03 X35.1105 Y-32.7356 I-0.37701 J3.1292
G1 X35.14589 Y-2.72829
X31.89589 Y-2.72446
X31.86144 Y-31.94158
X-31.93348 Y-31.93806
X-31.97271 Y-31.78588
X-31.93809 Y31.91511
X31.93675 Y31.92741
X31.89589 Y-2.72446
X28.64589 Y-2.72063
X28.68292 Y28.67678
X-28.68986 Y28.66574
X-28.72103 Y-28.68824
X28.61527 Y-28.6914
X28.64589 Y-2.72063
X25.3959 Y-2.7168
X25.3691 Y-25.44122
X-25.46926 Y-25.43842
X-25.44162 Y25.41636
X25.42908 Y25.42615
X25.3959 Y-2.7168
X22.1459 Y-2.71296
X22.17525 Y22.17553
X-22.19339 Y22.16699
X-22.2175 Y-22.1886
X22.12293 Y-22.19104
X22.1459 Y-2.71296
X18.8959 Y-2.70913
X18.87676 Y-18.94086
X-18.96573 Y-18.93877
X-18.94515 Y18.91761
X18.92141 Y18.9249
X18.8959 Y-2.70913
X15.6459 Y-2.7053
X15.66758 Y15.67427
X-15.69692 Y15.66824
X-15.71396 Y-15.68896
X15.63059 Y-15.69068
X15.6459 Y-2.7053
X12.3959 Y-2.70147
X12.38442 Y-12.44051
X-12.4622 Y-12.43913
X-12.44868 Y12.41886
X12.41374 Y12.42365
X12.3959 Y-2.70147
X9.14591 Y-2.69763
X9.1599 Y9.17302
X-9.20045 Y9.16949
X-9.21043 Y-9.18931
X9.13825 Y-9.19033
X9.14591 Y-2.69763
X5.89591 Y-2.6938
X5.89208 Y-5.94015
X-5.95866 Y-5.93949
X-5.95222 Y5.92011
X5.90607 Y5.9224
X5.89591 Y-2.6938
X2.64591 Y-2.68997
X2.65223 Y2.67177
X-2.70398 Y2.67074
X-2.7069 Y-2.68967
X2.64591 Y-2.68997
Z58.11734 F5000.
G0 Z58.48234
X2.64649 Y45.46336
G1 Z54.92388 F1379.2
Z54.28888 F4137.7
X2.64817 Y38.47836 F4137.7
X32.38894 Y38.48551 F5000.
G02 X38.43863 Y32.88894 I-0.3765 J-6.47503
G1 X38.36051 Y-33.36106
G02 X32.88894 Y-38.44201 I-6.35466 J1.35662
G1 X-32.36106 Y-38.48888
G02 X-38.47326 Y-32.61106 I0.35156 J6.48245
G1 X-38.48888 Y32.38894
X-38.05138 Y34.38894
G02 X-34.61106 Y37.95426 I6.0956 J-2.43938
G1 X-32.61106 Y38.46988
X2.64817 Y38.47836
X2.64896 Y35.19728
X-32.19847 Y35.21998
G03 X-35.2388 Y32.03801 I0.24241 J-3.2751
G1 X-35.22336 Y-32.19847
G03 X-32.54136 Y-35.18841 I3.29769 J0.26019
G1 X32.408 Y-35.19235
G03 X35.11124 Y-32.7356 I-0.3772 J3.13065
G1 X35.18809 Y32.43564
G03 X32.57203 Y35.17778 I-3.24131 J-0.47333
G1 X2.64896 Y35.19728
X2.64683 Y31.92204
X31.93749 Y31.92819
X31.86218 Y-31.94232
X-31.93412 Y-31.93845
X-31.97346 Y-31.78588
X-31.93891 Y31.91477
X2.64683 Y31.92204
X2.64751 Y28.67204
X-28.69067 Y28.66545
X-28.72178 Y-28.68864
X28.61601 Y-28.69212
X28.68366 Y28.67751
X2.64751 Y28.67204
X2.64819 Y25.42204
X25.42982 Y25.42683
X25.36984 Y-25.44192
X-25.47001 Y-25.43884
X-25.44243 Y25.41613
X2.64819 Y25.42204
X2.64887 Y22.17204
X-22.19419 Y22.16681
X-22.21825 Y-22.18904
X22.12367 Y-22.19173
X22.17599 Y22.17614
X2.64887 Y22.17204
X2.64956 Y18.92204
X18.92215 Y18.92546
X18.8775 Y-18.94153
X-18.96649 Y-18.93923
X-18.94595 Y18.9175
X2.64956 Y18.92204
X2.65024 Y15.67204
X-15.69772 Y15.66818
X-15.71472 Y-15.68943
X15.63133 Y-15.69133
X15.66832 Y15.67477
X2.65024 Y15.67204
X2.65092 Y12.42204
X12.41448 Y12.42409
X12.38516 Y-12.44114
X-12.46296 Y-12.43963
X-12.44948 Y12.41886
X2.65092 Y12.42204
X2.65161 Y9.17204
X-9.20124 Y9.16955
X-9.2112 Y-9.18982
X9.13899 Y-9.19094
X9.16065 Y9.17341
X2.65161 Y9.17204
X2.65229 Y5.92204
X5.90681 Y5.92272
X5.89282 Y-5.94074
X-5.95943 Y-5.94002
X-5.953 Y5.92023
X2.65229 Y5.92204
X2.65297 Y2.67204
X-2.70476 Y2.67091
X-2.70767 Y-2.69022
X2.64665 Y-2.69054
X2.65297 Y2.67204
Z54.92388 F5000.
G0 Z55.28888
X2.65261 Y-45.44947
G1 Z51.73042 F1379.2
Z51.09542 F4137.7
X2.64759 Y-38.46447 F4137.7
X-32.36106 Y-38.48962 F5000.
G02 X-38.474 Y-32.61106 I0.35274 J6.48441
G1 X-38.48962 Y32.38894
X-38.05212 Y34.38894
G02 X-34.61106 Y37.955 I6.0982 J-2.4412
G1 X-32.61106 Y38.47062
X32.38894 Y38.48625
G02 X38.43937 Y32.88894 I-0.37775 J-6.4771
G1 X38.36125 Y-33.36106
G02 X32.88894 Y-38.44275 I-6.35609 J1.35735
G1 X2.64759 Y-38.46447
X2.64524 Y-35.19112
X32.40759 Y-35.19309
G03 X35.11198 Y-32.7356 I-0.3774 J3.1321
G1 X35.18883 Y32.43564
G03 X32.57168 Y35.17857 I-3.24273 J-0.474
G1 X-32.19847 Y35.22072
G03 X-35.23954 Y32.03801 I0.24301 J-3.27641
G1 X-35.2241 Y-32.19847
G03 X-32.54112 Y-35.18879 I3.29831 J0.26053
G1 X2.64524 Y-35.19112
X2.64545 Y-31.94112
X-31.93393 Y-31.93883
X-31.9742 Y-31.78588
X-31.93972 Y31.91442
X31.93823 Y31.92898
X31.86291 Y-31.94306
X2.64545 Y-31.94112
X2.64567 Y-28.69112
X28.61674 Y-28.69284
X28.6844 Y28.67824
X-28.69148 Y28.66516
X-28.72252 Y-28.68904
X2.64567 Y-28.69112
X2.64588 Y-25.44112
X-25.47076 Y-25.43926
X-25.44324 Y25.4159
X25.43056 Y25.4275
X25.37058 Y-25.44263
X2.64588 Y-25.44112
X2.6461 Y-22.19112
X22.12441 Y-22.19241
X22.17673 Y22.17676
X-22.195 Y22.16664
X-22.219 Y-22.18947
X2.6461 Y-22.19112
X2.64631 Y-18.94112
X-18.96724 Y-18.93969
X-18.94675 Y18.91738
X18.92289 Y18.92602
X18.87824 Y-18.9422
X2.64631 Y-18.94112
X2.64653 Y-15.69112
X15.63207 Y-15.69198
X15.66906 Y15.67527
X-15.69851 Y15.66812
X-15.71548 Y-15.6899
X2.64653 Y-15.69112
X2.64674 Y-12.44112
X-12.46372 Y-12.44012
X-12.45027 Y12.41886
X12.41522 Y12.42453
X12.3859 Y-12.44177
X2.64674 Y-12.44112
X2.64696 Y-9.19112
X9.13973 Y-9.19155
X9.16139 Y9.17379
X-9.20203 Y9.1696
X-9.21196 Y-9.19033
X2.64696 Y-9.19112
X2.64717 Y-5.94112
X-5.9602 Y-5.94055
X-5.95379 Y5.92034
X5.90755 Y5.92305
X5.89356 Y-5.94133
X2.64717 Y-5.94112
X2.64739 Y-2.69112
X2.65371 Y2.67231
X-2.70554 Y2.67108
X-2.70845 Y-2.69076
X2.64739 Y-2.69112
Z51.73042 F5000.
G0 Z52.09542
X45.3831 Y-2.74209
G1 Z48.53695 F1379.2
Z47.90195 F4137.7
X38.3981 Y-2.73385 F4137.7
X38.36199 Y-33.36106 F5000.
G02 X32.88894 Y-38.44349 I-6.35752 J1.35808
G1 X-32.36106 Y-38.49036
G02 X-38.47474 Y-32.61106 I0.35392 J6.48637
G1 X-38.49036 Y32.38894
X-38.05286 Y34.38894
G02 X-34.61106 Y37.95574 I6.10081 J-2.44302
G1 X-32.61106 Y38.47136
X32.38894 Y38.48699
G02 X38.44011 Y32.88894 I-0.37899 J-6.47918
G1 X38.3981 Y-2.73385
X35.14811 Y-2.73002
X35.18957 Y32.43564
G03 X32.57133 Y35.17936 I-3.24414 J-0.47467
G1 X-32.19847 Y35.22146
G03 X-35.24028 Y32.03801 I0.24362 J-3.27773
G1 X-35.22483 Y-32.19847
G03 X-32.54087 Y-35.18917 I3.29892 J0.26088
G1 X32.40718 Y-35.19383
G03 X35.11272 Y-32.7356 I-0.37759 J3.13355
G1 X35.14811 Y-2.73002
X31.89811 Y-2.72619
X31.86365 Y-31.94379
X-31.93368 Y-31.93921
X-31.97493 Y-31.78588
X-31.94054 Y31.91407
X31.93898 Y31.92977
X31.89811 Y-2.72619
X28.64811 Y-2.72236
X28.68514 Y28.67897
X-28.69229 Y28.66487
X-28.72326 Y-28.68944
X28.61748 Y-28.69356
X28.64811 Y-2.72236
X25.39811 Y-2.71852
X25.37131 Y-25.44333
X-25.47151 Y-25.43968
X-25.44405 Y25.41567
X25.4313 Y25.42817
X25.39811 Y-2.71852
X22.14811 Y-2.71469
X22.17747 Y22.17737
X-22.1958 Y22.16647
X-22.21975 Y-22.18991
X22.12515 Y-22.19309
X22.14811 Y-2.71469
X18.89812 Y-2.71086
X18.87898 Y-18.94286
X-18.968 Y-18.94014
X-18.94755 Y18.91727
X18.92363 Y18.92657
X18.89812 Y-2.71086
X15.64812 Y-2.70703
X15.6698 Y15.67577
X-15.69931 Y15.66807
X-15.71624 Y-15.69038
X15.63281 Y-15.69263
X15.64812 Y-2.70703
X12.39812 Y-2.70319
X12.38664 Y-12.44239
X-12.46449 Y-12.44061
X-12.45106 Y12.41886
X12.41596 Y12.42497
X12.39812 Y-2.70319
X9.14812 Y-2.69936
X9.16213 Y9.17417
X-9.20282 Y9.16966
X-9.21273 Y-9.19084
X9.14047 Y-9.19216
X9.14812 Y-2.69936
X5.89813 Y-2.69553
X5.8943 Y-5.94193
X-5.96098 Y-5.94108
X-5.95457 Y5.92046
X5.90829 Y5.92337
X5.89813 Y-2.69553
X2.64813 Y-2.6917
X2.65445 Y2.67257
X-2.70632 Y2.67126
X-2.70922 Y-2.69131
X2.64813 Y-2.6917
Z48.53695 F5000.
G0
X-32.02473 Y-45.47586
G1 Z45.34349 F1379.2
Z44.70849 F4137.7
X-32.02975 Y-38.49086 F4137.7
X-38.4756 Y-32.09093 F5000.
X-38.47694 Y-26.52754
X-36.66706 Y-29.42858
X-28.6345 Y-37.28221
X-26.61028 Y-38.48697
X-20.31671 Y-38.48245
X-26.38159 Y-34.9398
X-33.92392 Y-27.68569
X-38.47838 Y-20.51739
X-38.48045 Y-11.92524
X-36.36811 Y-17.93532
X-31.19627 Y-25.91864
X-24.14942 Y-32.57761
X-15.83466 Y-37.33684
X-11.92238 Y-38.47642
X12.12163 Y-38.45914
Z45.34349 F5000.
G0 Z45.70849
X-45.47597 Y31.82099
G1 Z45.34349 F1379.2
Z44.70849 F4137.7
X-38.49097 Y31.82267 F4137.7
X-36.24601 Y34.80012 F5000.
X-31.77864 Y38.4723
X-26.77506 Y38.4735
X-34.16312 Y32.3053
X-38.48968 Y26.47512
X-38.48829 Y20.6877
X-38.16735 Y21.45599
X-32.05994 Y29.82758
X-24.2577 Y36.4504
X-20.25482 Y38.47507
X-12.17437 Y38.47701
X-14.22726 Y37.97721
X-22.7652 Y33.56337
X-29.93513 Y27.36838
X-35.52515 Y19.56357
X-38.48627 Y12.29758
Z45.34349 F5000.
G0 Z45.70849
X31.83381 Y45.47259
G1 Z45.34349 F1379.2
Z44.70849 F4137.7
X31.83549 Y38.48759 F4137.7
X38.44004 Y32.19764 F5000.
X38.43327 Y26.46062
X36.16069 Y30.00918
X27.62346 Y38.01107
X26.76605 Y38.48637
X20.14932 Y38.48478
X25.42118 Y35.62099
X33.43862 Y28.23354
X38.42634 Y20.58735
X38.41635 Y12.1134
X36.30834 Y18.05183
X30.73266 Y26.43346
X23.24087 Y33.21086
X14.46603 Y37.87366
X12.01814 Y38.48283
Z45.34349 F5000.
G0 Z45.70849
X45.34934 Y-31.99844
G1 Z45.34349 F1379.2
Z44.70849 F4137.7
X38.36434 Y-31.9902 F4137.7
X36.37299 Y-34.6633 F5000.
X31.78958 Y-38.44502
X26.79996 Y-38.4486
X34.28488 Y-32.17286
X38.3707 Y-26.59852
X38.37726 Y-21.03265
X38.32146 Y-21.16833
X32.17585 Y-29.70012
X24.33855 Y-36.38465
X20.22427 Y-38.45332
X12.12163 Y-38.45914
X14.08507 Y-38.00584
X22.85149 Y-33.49481
X30.04454 Y-27.24654
X35.66762 Y-19.29226
X38.38731 Y-12.51164
Z45.34349 F5000.
G0 Z45.70849
X0.51019 Y-45.45249
G1 Z45.34349 F1379.2
Z44.70849 F4137.7
X0.50517 Y-38.46749 F4137.7
X0.5041 Y-36.9708 F5000.
X-5.79575 Y-36.87608
X-14.24705 Y-34.501
X-21.93983 Y-30.19429
X-28.4856 Y-24.12567
X-33.31251 Y-16.82815
X-36.3787 Y-8.36595
X-37.30552 Y0.33363
X-36.07418 Y9.6051
X-32.8652 Y17.69617
X-27.78716 Y24.92938
X-21.2452 Y30.69073
X-13.42807 Y34.827
X-4.84954 Y37.00332
X4.17793 Y37.08494
X12.96954 Y34.9887
X21.0845 Y30.77928
X28.04433 Y24.60717
X33.25618 Y16.93523
X36.36512 Y8.43706
X37.30852 Y-0.18008
X36.1266 Y-9.41809
X32.99596 Y-17.44167
X27.88942 Y-24.81385
X21.33531 Y-30.62015
X13.32178 Y-34.84674
X4.29484 Y-37.0278
X0.5041 Y-36.9708
X0.55235 Y-33.76183
X4.30868 Y-33.77783
X12.5235 Y-31.6963
X19.78761 Y-27.76233
X25.70872 Y-22.40408
X30.30524 Y-15.61888
X33.08695 Y-8.26785
X34.08068 Y0.19877
X33.13828 Y8.04973
X30.21583 Y15.78684
X25.37543 Y22.75259
X18.95441 Y28.32465
X11.50426 Y32.08776
X3.45795 Y33.91569
X-4.78578 Y33.75394
X-12.59596 Y31.68533
X-19.69549 Y27.834
X-25.61426 Y22.51256
X-30.18626 Y15.85612
X-33.04102 Y8.43785
X-34.07952 Y-0.06059
X-33.15078 Y-7.98777
X-30.26868 Y-15.68904
X-25.79362 Y-22.30474
X-19.75499 Y-27.78826
X-12.6888 Y-31.64892
X-4.94872 Y-33.7384
X0.55235 Y-33.76183
X0.566 Y-30.55594
X-4.13709 Y-30.59138
X-11.16289 Y-28.77941
X-17.59748 Y-25.35769
X-23.12245 Y-20.45344
X-27.2381 Y-14.51511
X-29.92742 Y-7.57247
X-30.84922 Y-0.41791
X-29.99499 Y7.30461
X-27.48685 Y14.04624
X-23.41433 Y20.12032
X-18.11346 Y24.99504
X-11.72794 Y28.5534
X-4.68443 Y30.50552
X2.77505 Y30.73825
X10.07337 Y29.1697
X16.85341 Y25.84508
X22.72814 Y20.86728
X27.1888 Y14.6038
X29.91608 Y7.62555
X30.84873 Y0.54082
X30.03458 Y-7.15181
X27.59404 Y-13.8267
X23.50035 Y-20.01962
X18.20563 Y-24.92334
X11.68687 Y-28.55583
X4.28419 Y-30.52792
X0.566 Y-30.55594
X0.54187 Y-27.35418
X4.21739 Y-27.27861
X10.8078 Y-25.42698
X16.58602 Y-22.10566
X21.26187 Y-17.66342
X24.86067 Y-12.06852
X26.9686 Y-6.07373
X27.61273 Y0.84221
X26.6995 Y7.16065
X24.17692 Y13.3827
X20.10515 Y18.94832
X14.78494 Y23.3383
X8.68075 Y26.23319
X2.1332 Y27.55226
X-4.54162 Y27.25866
X-10.82038 Y25.43268
X-16.49601 Y22.17611
X-21.18489 Y17.75555
X-24.76524 Y12.26991
X-26.9352 Y6.20911
X-27.61467 Y-0.73444
X-26.70962 Y-7.11612
X-24.22262 Y-13.30293
X-20.47463 Y-18.56888
X-15.47048 Y-22.90039
X-9.67293 Y-25.89106
X-3.3647 Y-27.43449
X0.54187 Y-27.35418
X0.47616 Y-24.15793
X-2.63626 Y-24.26718
X-8.22343 Y-22.98221
X-13.37791 Y-20.4137
X-17.85338 Y-16.64754
X-21.22453 Y-12.04835
X-23.49867 Y-6.61384
X-24.37599 Y-1.00537
X-23.86056 Y5.15596
X-22.01935 Y10.53136
X-18.92291 Y15.4219
X-14.83933 Y19.38005
X-9.86885 Y22.3251
X-4.35256 Y24.01417
X1.53727 Y24.35736
X7.33116 Y23.27665
X12.7533 Y20.80158
X17.5098 Y16.99213
X21.18249 Y12.11941
X23.48984 Y6.65018
X24.37283 Y1.09821
X23.88796 Y-5.03829
X22.10312 Y-10.34853
X18.99031 Y-15.33908
X14.92475 Y-19.31232
X9.88115 Y-22.31189
X4.10338 Y-24.03061
X0.47616 Y-24.15793
X0.36422 Y-20.96908
X3.93603 Y-20.78492
X8.9003 Y-19.21343
X13.21687 Y-16.54725
X16.68204 Y-13.0512
X19.31889 Y-8.67204
X20.7914 Y-4.05146
X21.12928 Y1.30288
X20.28884 Y6.08797
X18.20846 Y10.80882
X14.9464 Y14.99426
X10.76401 Y18.23151
X6.0307 Y20.29818
X0.9934 Y21.15319
X-4.11126 Y20.77314
X-8.86776 Y19.23312
X-13.13868 Y16.61053
X-16.62462 Y13.124
X-19.24661 Y8.83593
X-20.76982 Y4.15106
X-21.13339 Y-1.22467
X-20.29631 Y-6.05938
X-18.2468 Y-10.74621
X-15.26284 Y-14.68499
X-11.32476 Y-17.89436
X-6.82012 Y-20.05079
X-1.95774 Y-21.0888
X0.36422 Y-20.96908
X0.20033 Y-17.79025
X-1.33693 Y-17.89864
X-5.47058 Y-17.09423
X-9.31757 Y-15.33824
X-12.70855 Y-12.67549
X-15.29329 Y-9.39
X-17.10502 Y-5.44445
X-17.88733 Y-1.38454
X-17.66143 Y3.20214
X-16.44383 Y7.19066
X-14.28518 Y10.868
X-11.38798 Y13.87236
X-7.80985 Y16.16012
X-3.8099 Y17.53714
X0.50959 Y17.93941
X4.78732 Y17.29543
X8.82442 Y15.62374
X12.42073 Y12.94891
X15.2587 Y9.44449
X17.09896 Y5.46574
X17.88255 Y1.44864
X17.67739 Y-3.12118
X16.50488 Y-7.04606
X14.33245 Y-10.80579
X11.4562 Y-13.81548
X7.85632 Y-16.13567
X3.70744 Y-17.54297
X0.20033 Y-17.79025
X-0.02283 Y-14.62527
X3.40704 Y-14.30688
X6.73636 Y-13.08473
X9.63508 Y-11.12364
X11.93534 Y-8.61116
X13.65702 Y-5.48011
X14.54398 Y-2.2585
X14.63346 Y1.52548
X13.92392 Y4.77177
X12.33837 Y8.01824
X9.94097 Y10.84812
X6.94469 Y12.9725
X3.61186 Y14.26544
X0.09664 Y14.71575
X-3.4379 Y14.3085
X-6.6853 Y13.11088
X-9.57914 Y11.17226
X-11.89814 Y8.66244
X-13.60684 Y5.6051
X-14.53348 Y2.31987
X-14.63857 Y-1.47452
X-13.92848 Y-4.75735
X-12.36922 Y-7.97144
X-10.19836 Y-10.61116
X-7.36523 Y-12.74
X-4.18531 Y-14.10917
X-0.78435 Y-14.69596
X-0.02283 Y-14.62527
X-0.3148 Y-11.48006
G02 X1.76994 Y-11.34724 I0.31518 J11.48004
G1 X-0.3148 Y-11.48006
Z45.34349 F5000.
G0 Z45.70853
X-31.49726 Y-45.47622
G1 Z42.15003 F1379.2
Z41.51503 F4137.7
X-31.50228 Y-38.49122 F4137.7
X-32.90623 Y-37.52126 F5000.
X-38.47651 Y-31.38004
X-38.47776 Y-26.19065
X-37.76822 Y-27.44037
X-30.51502 Y-35.32021
X-25.85742 Y-38.48717
X-20.08812 Y-38.48302
X-28.14114 Y-33.10048
X-34.95435 Y-25.81413
X-38.47931 Y-19.71489
X-38.48143 Y-10.93122
X-36.74051 Y-16.37754
X-32.15397 Y-24.16477
X-25.78606 Y-30.86082
X-18.04577 Y-35.93912
X-11.23028 Y-38.47666
X11.04133 Y-38.46066
Z42.15003 F5000.
G0 Z42.51503
X-45.47668 Y31.72624
G1 Z42.15003 F1379.2
Z41.51503 F4137.7
X-38.49168 Y31.72791 F4137.7
X-31.66515 Y38.47307 F5000.
X-25.98151 Y38.47443
X-29.24629 Y36.39722
X-36.47613 Y29.15068
X-38.4903 Y25.98475
X-38.48885 Y19.94974
X-34.15789 Y26.8729
X-27.48085 Y33.66854
X-20.05064 Y38.47586
X-11.3006 Y38.47796
X-18.30496 Y35.82079
X-25.69312 Y30.9544
X-31.82101 Y24.61425
X-36.36224 Y17.22135
X-38.48673 Y11.11552
Z42.15003 F5000.
G0 Z42.51503
X31.48944 Y45.47325
G1 Z42.15003 F1379.2
Z41.51503 F4137.7
X31.49112 Y38.48825 F4137.7
X37.51957 Y32.94757 F5000.
X38.44011 Y31.63727
X38.43355 Y26.06835
X34.87348 Y31.06059
X27.47561 Y37.76479
X26.21163 Y38.48698
X19.70954 Y38.48542
X25.31131 Y35.34027
X32.24168 Y29.15372
X37.70915 Y21.6077
X38.42635 Y19.96248
X38.41673 Y11.80519
X38.3305 Y12.22754
X34.74048 Y20.28501
X29.62542 Y27.22559
X23.1666 Y32.8984
X15.4783 Y37.13397
X10.88543 Y38.4833
Z42.15003 F5000.
G0 Z42.51503
X45.35063 Y-31.53326
G1 Z42.15003 F1379.2
Z41.51503 F4137.7
X38.36563 Y-31.52502 F4137.7
X35.40741 Y-35.19381 F5000.
X31.36545 Y-38.44606
X26.28099 Y-38.44971
X33.35194 Y-32.67636
X38.37172 Y-26.35967
X38.37933 Y-19.90635
X36.90127 Y-22.98639
X31.27722 Y-30.17475
X23.92529 Y-36.27212
X19.64843 Y-38.45448
X11.04133 Y-38.46066
X14.38855 Y-37.57164
X22.42488 Y-33.38919
X29.18191 Y-27.69036
X34.32536 Y-21.00468
X38.04 Y-13.10178
X38.38915 Y-11.5812
Z42.15003 F5000.
G0 Z42.51503
X-21.11222 Y-33.92727
G1 Z42.15003 F1379.2
Z41.51503 F4137.7
X-19.34792 Y-31.23814 F5000.
X-23.45151 Y-28.59977
X-29.36842 Y-22.4905
X-33.65353 Y-15.36115
X-36.23069 Y-7.53374
X-37.00596 Y0.27433
X-36.12318 Y8.01895
X-33.57808 Y15.54477
X-29.46415 Y22.37646
X-23.88143 Y28.2562
X-17.12574 Y32.79227
X-9.48484 Y35.76742
X-1.65257 Y36.96888
X6.1761 Y36.47961
X13.93489 Y34.27384
X21.04322 Y30.43797
X27.02615 Y25.27461
X31.78345 Y18.93651
X35.1519 Y11.55005
X36.81838 Y3.73133
X36.78076 Y-4.0641
X35.08684 Y-11.74481
X31.73209 Y-19.04574
X27.06447 Y-25.22482
X20.89945 Y-30.51942
X13.5284 Y-34.43754
X5.8047 Y-36.55728
X-1.70748 Y-36.98953
X-8.63334 Y-35.97574
X-16.28814 Y-33.2054
X-19.34792 Y-31.23814
X-17.61 Y-28.53506
X-14.55811 Y-30.45413
X-7.5579 Y-32.90883
X-1.26693 Y-33.76953
X5.58945 Y-33.31442
X12.64021 Y-31.31126
X19.34685 Y-27.66426
X24.92308 Y-22.78004
X29.12016 Y-17.11175
X32.12105 Y-10.41567
X33.60059 Y-3.394
X33.56842 Y3.71662
X31.97976 Y10.84289
X28.83932 Y17.56006
X24.44561 Y23.29894
X18.94318 Y27.95757
X12.41857 Y31.39925
X5.3172 Y33.34516
X-1.82447 Y33.72343
X-8.96188 Y32.55978
X-15.91785 Y29.77507
X-22.04382 Y25.57559
X-27.08578 Y20.16154
X-30.77795 Y13.89498
X-33.03472 Y7.00705
X-33.77356 Y-0.06344
X-32.99973 Y-7.18253
X-30.57628 Y-14.31567
X-26.59924 Y-20.78927
X-21.13951 Y-26.31565
X-17.61 Y-28.53506
X-15.90103 Y-25.81731
X-18.85253 Y-24.0065
X-23.84836 Y-19.05862
X-27.51 Y-13.23843
X-29.7725 Y-6.79843
X-30.53786 Y-0.36799
X-29.93592 Y6.02728
X-27.96065 Y12.27471
X-24.68408 Y17.97194
X-20.17795 Y22.91457
X-14.67869 Y26.77057
X-8.40594 Y29.35768
X-1.96256 Y30.47636
X4.4911 Y30.2019
X10.93207 Y28.50912
X16.86894 Y25.45557
X21.88588 Y21.29637
X25.90965 Y16.1531
X28.81503 Y10.10332
X30.31877 Y3.66862
X30.41369 Y-2.7567
X29.14177 Y-9.11708
X26.48808 Y-15.20528
X22.75562 Y-20.35834
X17.76453 Y-24.82546
X11.72138 Y-28.19385
X5.34315 Y-30.07377
X-0.85947 Y-30.54518
X-6.51608 Y-29.83034
X-12.85853 Y-27.68394
X-15.90103 Y-25.81731
X-14.22413 Y-23.08408
X-11.19293 Y-24.8932
X-5.51163 Y-26.73945
X-0.48861 Y-27.3164
X5.06289 Y-26.83587
X10.76877 Y-25.08659
X16.14942 Y-22.0052
X20.5595 Y-17.9626
X23.83404 Y-13.32949
X26.14797 Y-7.8523
X27.21973 Y-2.15578
X27.06988 Y3.5838
X25.65886 Y9.32803
X22.99635 Y14.71255
X19.34954 Y19.26426
X14.82345 Y22.93001
X9.47871 Y25.60219
X3.70143 Y27.04929
X-2.06322 Y27.22792
X-7.81365 Y26.1621
X-13.40512 Y23.7805
X-18.281 Y20.27561
X-22.2569 Y15.81063
X-25.1247 Y10.68728
X-26.82608 Y5.08316
X-27.29891 Y-0.63578
X-26.54981 Y-6.37801
X-24.45624 Y-12.1262
X-21.11813 Y-17.29558
X-16.59354 Y-21.66994
X-14.22413 Y-23.08408
X-12.58313 Y-20.33454
X-14.3663 Y-19.30311
X-18.41152 Y-15.49648
X-21.41694 Y-10.97505
X-23.33266 Y-5.9171
X-24.05683 Y-0.86243
X-23.70439 Y4.17898
X-22.26837 Y9.13684
X-19.80161 Y13.68129
X-16.34952 Y17.66183
X-12.09326 Y20.80703
X-7.1809 Y22.97429
X-2.12196 Y23.97845
X2.95269 Y23.88672
X8.06259 Y22.67694
X12.81037 Y20.37853
X16.83981 Y17.19937
X20.10184 Y13.2346
X22.51272 Y8.51298
X23.82232 Y3.45783
X24.01834 Y-1.59573
X23.13846 Y-6.62536
X21.1559 Y-11.48828
X18.3316 Y-15.59639
X14.49768 Y-19.20622
X9.77845 Y-21.99115
X4.74514 Y-23.60144
X-0.15872 Y-24.08319
X-4.5492 Y-23.63523
X-9.56566 Y-22.07993
X-12.58313 Y-20.33454
X-10.98279 Y-17.56785
X-7.98232 Y-19.2417
X-3.63472 Y-20.51654
X0.12464 Y-20.84557
X4.38569 Y-20.37138
X8.74535 Y-18.90972
X12.80446 Y-16.43214
X16.06795 Y-13.26436
X18.45099 Y-9.68661
X20.11183 Y-5.44129
X20.80915 Y-1.08235
X20.5769 Y3.28525
X19.37854 Y7.65308
X17.22928 Y11.71445
X14.36087 Y15.09761
X10.83437 Y17.79824
X6.68895 Y19.7315
X2.25062 Y20.71346
X-2.13309 Y20.72847
X-6.50251 Y19.79588
X-10.73825 Y17.85297
X-14.3791 Y15.07726
X-17.31498 Y11.58865
X-19.38949 Y7.62868
X-20.5699 Y3.32021
X-20.81181 Y-1.04238
X-20.1224 Y-5.41042
X-18.39463 Y-9.78001
X-15.73242 Y-13.65666
X-12.17558 Y-16.90243
X-10.98279 Y-17.56785
X-9.42933 Y-14.78319
X-10.02766 Y-14.46339
X-13.08609 Y-11.77001
X-15.39272 Y-8.5346
X-16.92088 Y-4.85113
X-17.56425 Y-1.16829
X-17.42149 Y2.51398
X-16.48533 Y6.1698
X-14.79291 Y9.53886
X-12.364 Y12.52739
X-9.33372 Y14.92214
X-5.77185 Y16.62908
X-2.08917 Y17.47877
X1.60285 Y17.52867
X5.36471 Y16.76352
X8.90149 Y15.18549
X11.91831 Y12.95369
X14.38292 Y10.14578
X16.25894 Y6.74173
X17.33479 Y3.05905
X17.59171 Y-0.62341
X17.06634 Y-4.30661
X15.716 Y-7.93096
X13.76344 Y-10.97268
X11.06342 Y-13.68783
X7.66255 Y-15.8454
X3.97937 Y-17.14688
X0.3542 Y-17.60368
X-2.776 Y-17.38204
X-6.45033 Y-16.37543
X-9.42933 Y-14.78319
X-7.93109 Y-11.98006
G03 X-9.26606 Y-10.98006 I7.93166 J11.97953
G1 X-7.93109 Y-11.98006
Z42.15003 F5000.
G0 Z42.51504
X-30.28369 Y-45.47609
G1 Z38.95656 F1379.2
Z38.32156 F4137.7
X-30.28871 Y-38.49109 F4137.7
X-37.29496 Y-31.82764 F5000.
X-38.47756 Y-30.11074
X-38.47891 Y-24.4604
X-34.6311 Y-29.96584
X-27.70412 Y-36.46417
X-24.39842 Y-38.48686
X-18.17991 Y-38.48239
X-25.49796 Y-34.07767
X-31.98091 Y-28.08461
X-37.07296 Y-20.91117
X-38.48054 Y-17.67806
X-38.48309 Y-7.11104
X-37.38382 Y-12.21524
X-34.10345 Y-19.59036
X-29.34559 Y-26.18261
X-23.31069 Y-31.67385
X-16.46913 Y-35.71893
X-9.19679 Y-38.24936
X-7.92712 Y-38.47503
X7.28004 Y-38.4641
Z38.95656 F5000.
G0 Z39.32156
X-45.47699 Y29.94342
G1 Z38.95656 F1379.2
Z38.32156 F4137.7
X-38.49199 Y29.9451 F4137.7
X-35.8924 Y33.40188 F5000.
X-30.09519 Y38.47418
X-24.50414 Y38.47553
X-26.68067 Y37.22801
X-33.73586 Y30.97046
X-38.4907 Y24.55726
X-38.48903 Y17.62562
X-36.79278 Y21.39062
X-31.56183 Y28.55466
X-25.04407 Y34.42015
X-18.08373 Y38.47707
X-7.34437 Y38.47965
X-9.06302 Y38.26169
X-16.54577 Y35.6837
X-23.38561 Y31.62515
X-29.3691 Y26.15581
X-34.15303 Y19.49477
X-37.43499 Y12.0534
X-38.48648 Y7.01832
Z38.95656 F5000.
G0 Z39.32156
X30.10873 Y45.47366
G1 Z38.95656 F1379.2
Z38.32156 F4137.7
X30.11041 Y38.48866 F4137.7
X36.08995 Y33.18789 F5000.
X38.43896 Y30.03173
X38.43266 Y24.69164
X33.49625 Y31.22951
X26.45896 Y37.38255
X24.51526 Y38.48731
X17.95817 Y38.48574
X24.33768 Y34.9203
X30.91709 Y29.25202
X36.2476 Y22.29969
X38.42448 Y17.75393
X38.41251 Y7.60088
X36.94604 Y13.4691
X33.32767 Y20.87262
X28.35376 Y27.25407
X22.23585 Y32.44143
X15.37523 Y36.20628
X7.88398 Y38.48331
Z38.95656 F5000.
G0 Z39.32156
X45.3528 Y-30.31389
G1 Z38.95656 F1379.2
Z38.32156 F4137.7
X38.36781 Y-30.30565 F4137.7
X37.35021 Y-31.78356 F5000.
X30.4298 Y-38.44747
X24.46798 Y-38.45176
X28.61163 Y-35.76934
X35.0805 Y-29.45742
X38.37453 Y-24.60498
X38.38229 Y-18.02445
X37.58698 Y-19.97878
X32.79441 Y-27.14737
X26.82619 Y-33.0537
X19.73208 Y-37.71784
X17.89129 Y-38.45648
X7.28004 Y-38.4641
X11.17481 Y-37.71349
X18.49928 Y-34.71073
X25.02004 Y-30.35179
X30.49083 Y-24.85478
X34.87149 Y-18.1931
X37.83112 Y-10.75689
X38.39469 Y-7.51301
Z38.95656 F5000.
G0 Z39.32156
X-7.34605 Y45.46465
G1 Z38.95656 F1379.2
Z38.32156 F4137.7
X-7.34437 Y38.47965 F4137.7
X-4.83438 Y35.55567 F5000.
X-0.99631 Y36.07644
X6.56005 Y35.48903
X13.83563 Y33.34409
X20.1552 Y29.94475
X25.80772 Y25.23412
X30.42019 Y19.42037
X33.7999 Y12.65404
X35.6964 Y5.33358
X36.02748 Y-2.15213
X34.80158 Y-9.5803
X32.1414 Y-16.42984
X28.16846 Y-22.58121
X23.19156 Y-27.66494
X17.24208 Y-31.71374
X10.53589 Y-34.52691
X3.49939 Y-35.93775
X-3.31989 Y-35.99307
X-8.15434 Y-35.17108
X-14.8389 Y-32.90737
X-21.14402 Y-29.25145
X-26.72655 Y-24.25827
X-31.14533 Y-18.24426
X-34.21269 Y-11.5036
X-35.83696 Y-4.26575
X-35.93664 Y3.33049
X-34.45022 Y10.76745
X-31.49726 Y17.62144
X-27.15633 Y23.77545
X-21.70363 Y28.84424
X-15.46061 Y32.62022
X-8.62605 Y35.0412
X-4.83438 Y35.55567
X-4.40228 Y32.37106
X-8.1585 Y31.82501
X-14.34659 Y29.56711
X-19.99623 Y26.07888
X-24.9219 Y21.4154
X-28.82424 Y15.77281
X-31.45356 Y9.50947
X-32.74384 Y2.72342
X-32.58779 Y-4.19243
X-31.0484 Y-10.76215
X-28.19984 Y-16.87072
X-24.12543 Y-22.30976
X-18.99998 Y-26.80899
X-13.23479 Y-30.08083
X-7.13983 Y-32.08348
X-2.80133 Y-32.78471
X3.44919 Y-32.68814
X9.87085 Y-31.34568
X15.95822 Y-28.72807
X21.33885 Y-24.99474
X25.82581 Y-20.32855
X29.39562 Y-14.69111
X31.76146 Y-8.43131
X32.81611 Y-1.65251
X32.45105 Y5.15967
X30.66155 Y11.80949
X27.52652 Y17.94079
X23.28076 Y23.19035
X18.09778 Y27.42889
X12.32223 Y30.46796
X5.66952 Y32.36342
X-1.21785 Y32.834
X-4.40228 Y32.37106
X-3.94041 Y29.19393
X-1.40596 Y29.58944
X4.81032 Y29.22905
X10.83772 Y27.57681
X16.06607 Y24.89224
X20.77501 Y21.12064
X24.64832 Y16.43133
X27.53207 Y10.93264
X29.20767 Y4.95243
X29.59985 Y-1.18542
X28.71 Y-7.31279
X26.63286 Y-12.97949
X23.46111 Y-18.09904
X19.45967 Y-22.3431
X14.64501 Y-25.7552
X9.17693 Y-28.17062
X3.3733 Y-29.43902
X-2.3117 Y-29.5718
X-6.15608 Y-28.98594
X-11.65955 Y-27.2381
X-16.88102 Y-24.34475
X-21.54426 Y-20.33491
X-25.26852 Y-15.46721
X-27.89194 Y-9.98803
X-29.33955 Y-4.08542
X-29.54496 Y2.14926
X-28.44413 Y8.28236
X-26.1325 Y13.95153
X-22.66394 Y19.07786
X-18.26113 Y23.3308
X-13.20096 Y26.52572
X-7.65739 Y28.61388
X-3.94041 Y29.19393
X-3.44598 Y26.02566
X-7.11909 Y25.40877
X-12.02034 Y23.49775
X-16.49564 Y20.60215
X-20.38014 Y16.76555
X-23.42031 Y12.16086
X-25.42088 Y7.08969
X-26.33973 Y1.61163
X-26.09276 Y-3.941
X-24.74457 Y-9.17775
X-22.35324 Y-14.03067
X-18.9855 Y-18.3311
X-14.79014 Y-21.85663
X-10.11656 Y-24.37773
X-5.20653 Y-25.87775
X-1.85443 Y-26.35413
X3.26968 Y-26.19068
X8.45064 Y-25.00282
X13.29914 Y-22.79697
X17.55131 Y-19.71238
X21.07225 Y-15.89544
X23.85161 Y-11.29807
X25.64629 Y-6.22826
X26.37855 Y-0.75449
X25.96686 Y4.70819
X24.41282 Y10.02008
X21.78765 Y14.88892
X18.29311 Y19.02238
X14.06307 Y22.33284
X9.38543 Y24.66935
X3.9859 Y26.08535
X-1.55683 Y26.34295
X-3.44598 Y26.02566
X-2.91567 Y22.86808
X-1.6657 Y23.09477
X3.2005 Y22.93168
X7.9695 Y21.744
X12.09256 Y19.74835
X15.83839 Y16.8924
X18.94711 Y13.30972
X21.30553 Y9.06759
X22.72945 Y4.42235
X23.15207 Y-0.3642
X22.56926 Y-5.18213
X21.05003 Y-9.65076
X18.65664 Y-13.7212
X15.61048 Y-17.10554
X11.91656 Y-19.85571
X7.68733 Y-21.84373
X3.13608 Y-22.94342
X-1.43393 Y-23.13145
X-4.29543 Y-22.75807
X-8.61004 Y-21.49799
X-12.73115 Y-19.34206
X-16.45227 Y-16.2951
X-19.45637 Y-12.55736
X-21.6079 Y-8.32696
X-22.84811 Y-3.75458
X-23.12789 Y1.11507
X-22.38257 Y5.93592
X-20.68553 Y10.40487
X-18.0677 Y14.48188
X-14.69649 Y17.89557
X-10.80052 Y20.48535
X-6.53914 Y22.21093
X-2.91567 Y22.86808
X-2.34538 Y19.72356
X-5.91188 Y19.02203
X-9.53607 Y17.49141
X-12.85964 Y15.21443
X-15.72304 Y12.23132
X-17.92549 Y8.68887
X-19.32768 Y4.82679
X-19.90916 Y0.66532
X-19.60657 Y-3.52024
X-18.48408 Y-7.43015
X-16.58099 Y-11.04253
X-13.94864 Y-14.22283
X-10.70893 Y-16.79783
G03 X-1.0562 Y-19.90347 I10.75674 J16.8795
G1 X2.97017 Y-19.69766
X6.88045 Y-18.69548
X10.49221 Y-16.93446
X13.633 Y-14.52637
X16.21102 Y-11.58077
X18.22582 Y-8.04255
X19.47757 Y-4.18015
X19.92032 Y-0.02024
X19.49659 Y4.08899
X18.21247 Y8.06985
X16.13013 Y11.68887
X13.41515 Y14.72667
X10.15938 Y17.13582
X6.59528 Y18.79884
X2.45952 Y19.76728
X-1.72629 Y19.84534
X-2.34538 Y19.72356
X-1.73006 Y16.59534
G02 X-3.48006 Y16.31878 I1.72584 J-16.59596
G1 X-1.73006 Y16.59534
Z38.95656 F5000.
G0 Z47.3863
X-34.21657 Y-45.2927
G1 Z35.7631 F1379.2
Z35.1281 F4137.7
X-33.29314 Y-38.36901 F4137.7
X-37.45486 Y-34.68528 F5000.
X-38.19306 Y-33.7151
X-38.47769 Y-32.61106
X-38.47879 Y-28.03231
X-34.88059 Y-32.70144
X-28.25625 Y-38.49233
X-22.06151 Y-38.49084
X-25.66358 Y-36.44214
X-32.31938 Y-30.70076
X-37.626 Y-23.90739
X-38.48019 Y-22.22435
X-38.48193 Y-14.9842
X-38.35891 Y-15.40539
X-34.73834 Y-22.41611
X-29.77231 Y-28.68212
X-23.55822 Y-33.96627
X-16.57793 Y-37.87087
X-14.69084 Y-38.48907
X14.60662 Y-38.48203
Z35.7631 F5000.
G0 Z44.18942
X-45.0849 Y34.9425
G1 Z35.7631 F1379.2
Z35.1281 F4137.7
X-38.26125 Y33.44983 F4137.7
X-35.88635 Y36.30501 F5000.
X-33.4989 Y38.24542
X-32.61106 Y38.47432
X-28.13559 Y38.4754
X-33.82092 Y33.79572
X-38.49229 Y28.10855
X-38.49086 Y22.14612
X-37.19058 Y24.57306
X-31.73891 Y31.30018
X-25.11611 Y36.82552
X-22.09876 Y38.47685
X-14.69994 Y38.47863
X-16.52151 Y37.88952
X-23.53558 Y33.98573
X-29.63922 Y28.8195
X-34.65122 Y22.54473
X-38.23097 Y15.74953
X-38.48911 Y14.89019
Z35.7631 F5000.
G0 Z36.1281
X35.90557 Y44.86522
G1 Z35.7631 F1379.2
Z35.1281 F4137.7
X33.40284 Y38.34398 F4137.7
X35.65582 Y36.53372 F5000.
X38.29646 Y33.40209
X38.44307 Y32.88894
X38.43762 Y28.27131
X33.18432 Y34.42324
X28.05999 Y38.4889
X22.17909 Y38.48749
X23.97321 Y37.58279
X30.72691 Y32.29635
X36.33398 Y25.81795
X38.4304 Y22.14848
X38.4217 Y14.76386
X37.5994 Y17.16889
X33.52368 Y24.18555
X28.28475 Y30.15197
X21.98807 Y35.00952
X14.97107 Y38.48576
Z35.7631 F5000.
G0 Z36.1281
X44.79854 Y-36.08529
G1 Z35.7631 F1379.2
Z35.1281 F4137.7
X38.30964 Y-33.49987 F4137.7
X37.11035 Y-35.04269 F5000.
X33.41705 Y-38.25751
X32.63894 Y-38.47769
X28.29536 Y-38.47874
X34.96164 Y-32.60433
X38.37108 Y-28.16191
X38.37773 Y-22.51713
X37.98791 Y-23.32321
X32.79712 Y-30.18001
X26.18808 Y-36.08078
X22.1268 Y-38.48022
X14.60662 Y-38.48203
X17.87024 Y-37.28207
X24.51575 Y-33.29406
X30.61575 Y-27.77084
X35.38282 Y-21.38001
X38.38653 Y-15.05407
Z35.7631 F5000.
G0 Z36.1281
X18.19789 Y36.88718
G1 Z35.7631 F1379.2
Z35.1281 F4137.7
X16.76874 Y34.00235 F5000.
X20.02252 Y32.42125
X25.85919 Y27.98884
X30.72611 Y22.53144
X34.53223 Y16.0942
X37.05306 Y8.89979
X38.06997 Y1.71131
X37.71046 Y-5.46729
X35.95986 Y-12.58792
X32.76291 Y-19.45684
X28.41633 Y-25.37813
X22.82279 Y-30.51982
X16.72672 Y-34.23989
X9.95501 Y-36.78529
X2.94271 Y-38.0089
X-3.51874 Y-37.99009
X-8.04354 Y-37.24685
X-15.01315 Y-35.02237
X-21.4718 Y-31.47441
X-27.24061 Y-26.64422
X-31.86212 Y-20.90288
X-35.24622 Y-14.47067
X-37.40675 Y-7.27596
X-38.10753 Y-0.07847
X-37.43334 Y7.10858
X-35.34423 Y14.25647
X-32.09647 Y20.53581
X-27.52057 Y26.35498
X-21.93325 Y31.15818
X-15.49812 Y34.80485
X-8.30624 Y37.19088
X-1.11637 Y38.09217
X6.06384 Y37.61885
X13.17976 Y35.74633
X16.76874 Y34.00235
X15.36269 Y31.10881
X11.78357 Y32.81151
X5.26315 Y34.46902
X-1.30341 Y34.84756
X-7.87588 Y33.9695
X-14.4495 Y31.72867
X-20.30735 Y28.34412
X-25.38151 Y23.90817
X-29.52522 Y18.54806
X-32.44536 Y12.78708
X-34.30657 Y6.22212
X-34.86936 Y-0.35553
X-34.17472 Y-6.93471
X-32.14129 Y-13.51053
X-28.99853 Y-19.36589
X-24.72575 Y-24.58559
X-19.40607 Y-28.96538
X-13.47219 Y-32.16092
X-7.08102 Y-34.14265
X-3.01594 Y-34.77922
X2.93162 Y-34.75892
X9.37366 Y-33.58771
X15.55927 Y-31.20681
X21.10752 Y-27.75932
X26.19748 Y-23.00343
X30.12706 Y-17.55558
X33.00202 Y-11.24121
X34.54806 Y-4.7178
X34.82281 Y1.84721
X33.83889 Y8.41853
X31.47399 Y14.99435
X27.94256 Y20.85383
X23.45178 Y25.80552
X18.07833 Y29.81691
X15.36269 Y31.10881
X13.98186 Y28.20625
X16.15759 Y27.19522
X21.06441 Y23.6003
X25.17461 Y19.15061
X28.42574 Y13.8671
X30.62909 Y7.9089
X31.57457 Y1.95398
X31.37894 Y-3.99728
X30.03202 Y-9.92151
X27.47395 Y-15.67849
X23.9576 Y-20.64855
X19.36793 Y-25.01409
X14.36552 Y-28.18399
X8.7674 Y-30.39475
X2.89862 Y-31.50909
X-2.53959 Y-31.56431
X-6.14658 Y-31.02988
X-11.95741 Y-29.28551
X-17.3631 Y-26.43777
X-22.22946 Y-22.50448
X-26.14898 Y-17.80301
X-29.04504 Y-12.52272
X-30.94584 Y-6.56477
X-31.62884 Y-0.60358
X-31.1721 Y5.36327
X-29.53347 Y11.3437
X-26.93613 Y16.58359
X-23.22031 Y21.48088
X-18.65572 Y25.54507
X-13.37341 Y28.66199
X-7.41705 Y30.75205
X-1.46123 Y31.6014
X4.49139 Y31.31198
X10.41399 Y29.86418
X13.98186 Y28.20625
X12.62873 Y25.29432
X9.07385 Y26.90335
X3.75172 Y28.14728
X-1.58688 Y28.35383
X-6.92694 Y27.53922
X-12.26716 Y25.60606
X-16.97582 Y22.76291
X-21.03494 Y19.07533
X-24.32766 Y14.64494
X-26.60745 Y9.92915
X-28.02946 Y4.53483
X-28.38602 Y-0.81952
X-27.72074 Y-6.16325
X-25.95866 Y-11.50452
X-23.31524 Y-16.21165
X-19.75383 Y-20.39883
X-15.34542 Y-23.88994
X-10.47171 Y-26.39498
X-5.24319 Y-27.90796
X-2.09284 Y-28.34517
X2.84226 Y-28.25958
X8.1334 Y-27.20719
X13.14262 Y-25.17284
X17.60166 Y-22.28594
X21.69479 Y-18.3157
X24.80197 Y-13.82833
X27.04893 Y-8.63167
X28.2027 Y-3.30881
X28.32543 Y2.02869
X27.4244 Y7.36811
X25.38879 Y12.70977
X22.42419 Y17.41923
X18.69936 Y21.37117
X14.26282 Y24.55469
X12.62873 Y25.29432
X11.30635 Y22.37275
X12.39716 Y21.89353
X16.35942 Y19.11569
X19.69374 Y15.65652
X22.36476 Y11.51907
X24.22574 Y6.79274
X25.07566 Y2.06775
X25.01889 Y-2.65623
X24.05166 Y-7.37514
X22.10919 Y-12.00861
X19.40677 Y-16.00758
X15.80583 Y-19.57716
X11.88708 Y-22.17516
X7.46799 Y-24.02604
X2.7611 Y-25.01059
X-1.67975 Y-25.12153
X-4.37443 Y-24.77622
X-9.01865 Y-23.4879
X-13.35615 Y-21.31986
X-17.30144 Y-18.26616
X-20.49953 Y-14.58862
X-22.88359 Y-10.45264
X-24.50019 Y-5.72667
X-25.14101 Y-0.99952
X-24.87811 Y3.74018
X-23.66602 Y8.54695
X-21.69791 Y12.73525
X-18.82296 Y16.69423
X-15.26447 Y19.99999
X-11.12746 Y22.56244
X-6.40214 Y24.33187
X-1.67674 Y25.10507
X3.048 Y24.97438
X7.76663 Y23.92784
X11.30635 Y22.37275
X10.01849 Y19.4413
X6.49675 Y20.9362
X2.38521 Y21.79268
X-1.72635 Y21.85545
X-5.83835 Y21.13115
X-9.95019 Y19.53316
X-13.51764 Y17.25935
X-16.58136 Y14.34099
X-19.04454 Y10.85851
X-20.70757 Y7.20157
X-21.71743 Y2.98348
X-21.89399 Y-1.13859
X-21.28523 Y-5.25074
X-19.82172 Y-9.36293
X-17.70471 Y-12.92986
X-14.87549 Y-16.10346
X-11.39928 Y-18.72503
X-7.60278 Y-20.56252
X-3.5448 Y-21.6339
X-1.30599 Y-21.89309
X2.65386 Y-21.76236
X6.76606 Y-20.85274
X10.59452 Y-19.19324
X13.9769 Y-16.89061
X17.09072 Y-13.72757
X19.39313 Y-10.22381
X21.03892 Y-6.15617
X21.82699 Y-2.04445
X21.82566 Y2.0667
X21.03431 Y6.17852
X19.35576 Y10.29089
X16.98641 Y13.85851
X14.04811 Y16.83088
X10.5645 Y19.20953
X10.01849 Y19.4413
X8.76994 Y16.49991
G02 X7.01994 Y17.31686 I-8.76865 J-16.50055
G1 X8.76994 Y16.49991
Z35.7631 F5000.
G0 Z48.06273
X-30.92895 Y-45.47872
G1 Z32.56963 F1379.2
Z31.93464 F4137.7
X-30.93063 Y-38.49372 F4137.7
X-35.27673 Y-34.85454 F5000.
X-38.47884 Y-30.94093
X-38.48008 Y-25.78449
X-38.29902 Y-26.11201
X-32.774 Y-32.78117
X-26.05487 Y-38.33758
X-25.77313 Y-38.49248
X-19.06455 Y-38.49086
X-24.00022 Y-35.81946
X-30.28489 Y-30.69148
X-35.4649 Y-24.52134
X-38.48167 Y-19.14631
X-38.48381 Y-10.23234
X-36.35631 Y-16.39921
X-32.64187 Y-22.91105
X-27.81053 Y-28.58434
X-21.9634 Y-33.2869
X-15.33853 Y-36.81214
X-9.94697 Y-38.48867
X10.32323 Y-38.4838
Z32.56963 F5000.
G0 Z40.21164
X-45.47871 Y30.94606
G1 Z32.56963 F1379.2
Z31.93464 F4137.7
X-38.49371 Y30.94774 F4137.7
X-36.8157 Y33.22169 F5000.
X-31.08283 Y38.47543
X-25.49122 Y38.47677
X-28.19187 Y36.79062
X-34.60499 Y30.83941
X-38.4924 Y25.50177
X-38.49085 Y19.01572
X-37.28556 Y21.63847
X-32.37843 Y28.47193
X-26.45225 Y34.0454
X-19.50599 Y38.44717
X-19.4268 Y38.47823
X-10.16002 Y38.48046
X-11.15838 Y38.28891
X-18.29786 Y35.43007
X-24.69292 Y31.31277
X-30.13492 Y26.12051
X-34.63212 Y19.76182
X-37.75707 Y12.82952
X-38.48861 Y9.72252
Z32.56963 F5000.
G0 Z32.93464
X31.17243 Y45.47539
G1 Z32.56963 F1379.2
Z31.93464 F4137.7
X31.17411 Y38.49039 F4137.7
X37.31707 Y32.65627 F5000.
X38.44169 Y31.0946
X38.43522 Y25.60922
X34.69152 Y30.74082
X28.42683 Y36.61749
X25.50852 Y38.48903
X19.40146 Y38.48756
X19.63764 Y38.39325
X26.21901 Y34.23253
X32.07865 Y28.80809
X36.9292 Y22.25062
X38.42759 Y19.13229
X38.41692 Y10.08639
X37.34768 Y13.99853
X34.00974 Y20.82258
X29.47958 Y26.85686
X24.02818 Y31.83196
X17.92013 Y35.63415
X11.06698 Y38.31625
X10.18122 Y38.48535
Z32.56963 F5000.
G0 Z32.93464
X45.35336 Y-31.09506
G1 Z32.56963 F1379.2
Z31.93464 F4137.7
X38.36837 Y-31.08683 F4137.7
X35.56647 Y-34.55264 F5000.
X30.94803 Y-38.47884
X25.65177 Y-38.48011
X26.76267 Y-37.84317
X33.44611 Y-32.0896
X38.37446 Y-25.91587
X38.38233 Y-19.24943
X36.20107 Y-23.42919
X31.30942 Y-29.64071
X25.12766 Y-35.03439
X19.20561 Y-38.48166
X10.32323 Y-38.4838
X16.91975 Y-36.11404
X23.47286 Y-32.23723
X29.15526 Y-27.20718
X33.63354 Y-21.43664
X37.0192 Y-14.83691
X38.39291 Y-10.27698
Z32.56963 F5000.
G0 Z47.94487
X-36.08333 Y-5.47362
G1 Z33.83963 F1379.2
Z33.20464 F4137.7
X-36.55382 Y-2.48047 Z32.67038 F4137.7
X-36.43066 Y1.69034 Z31.93464
X-36.34313 Y4.65441 F5000.
X-34.78377 Y11.51726
X-31.96419 Y17.90586
X-27.87323 Y23.78659
X-22.91235 Y28.59393
X-17.06651 Y32.42237
X-10.52131 Y35.10196
X-3.84012 Y36.43754
X3.24427 Y36.50102
X9.90502 Y35.28107
X16.22343 Y32.86219
X21.85585 Y29.41463
X26.89557 Y24.88571
X31.10114 Y19.37257
X34.21927 Y13.11788
X36.02638 Y6.69833
X36.63992 Y-0.1186
X35.95373 Y-7.10692
X34.11639 Y-13.37533
X31.05076 Y-19.46389
X26.98233 Y-24.79039
X21.79672 Y-29.45279
X15.79819 Y-33.0637
X9.38092 Y-35.42323
X2.71792 Y-36.54892
X-3.65918 Y-36.50474
X-7.29108 Y-35.91113
X-13.83384 Y-33.93144
X-19.94598 Y-30.73886
X-25.3523 Y-26.4584
X-29.83099 Y-21.27965
X-33.29201 Y-15.31635
X-35.53298 Y-8.97477
X-36.55382 Y-2.48047
X-36.43066 Y1.69034
X-33.21756 Y1.59545
X-33.30453 Y-2.54866
X-32.32679 Y-8.44292
X-30.23659 Y-14.2087
X-27.0335 Y-19.6254
X-22.9118 Y-24.31213
X-17.94981 Y-28.17413
X-12.35322 Y-31.0383
X-6.37581 Y-32.79267
X-3.15925 Y-33.29342
X2.72096 Y-33.29892
X8.81581 Y-32.22274
X14.65172 Y-30.02263
X20.09747 Y-26.68241
X24.78907 Y-22.39203
X28.45155 Y-17.51283
X31.20171 Y-11.93758
X32.82759 Y-6.21823
X33.40301 Y0.17284
X32.79202 Y6.37995
X31.09825 Y12.21137
X28.20452 Y17.89878
X24.32818 Y22.89298
X19.70383 Y26.9792
X14.54948 Y30.07645
X8.76759 Y32.23661
X2.68483 Y33.29954
X-3.78411 Y33.18803
X-9.85732 Y31.92051
X-15.81002 Y29.42508
X-21.10877 Y25.8903
X-25.59188 Y21.47186
X-29.28066 Y16.0725
X-31.79933 Y10.23056
X-33.1679 Y3.96127
X-33.21756 Y1.59545
X-30.00693 Y1.52807
X-29.98636 Y3.29771
X-28.80288 Y8.97207
X-26.58028 Y14.26406
X-23.28918 Y19.17837
X-19.28005 Y23.20362
X-14.52612 Y26.43943
X-9.16377 Y28.74538
X-3.69861 Y29.93915
X2.15406 Y30.09317
X7.65708 Y29.18222
X12.90057 Y27.27581
X17.57427 Y24.52411
X21.77925 Y20.87667
X25.32122 Y16.39908
X27.9856 Y11.27657
X29.56072 Y6.03181
X30.16366 Y0.43566
X29.69362 Y-5.35758
X28.27427 Y-10.526
X25.83451 Y-15.58577
X22.57369 Y-20.0141
X18.37298 Y-23.92765
X13.47781 Y-26.99205
X8.22426 Y-29.02703
X2.70347 Y-30.04897
X-2.68655 Y-30.07798
X-5.48911 Y-29.66597
X-10.89912 Y-28.13174
X-15.9771 Y-25.59132
X-20.491 Y-22.14368
X-24.25092 Y-17.9462
X-27.19108 Y-13.07408
X-29.1257 Y-7.88124
X-30.05475 Y-2.58643
X-30.00693 Y1.52807
X-26.79965 Y1.49079
X-26.80476 Y-2.5905
X-25.93059 Y-7.28646
X-24.15674 Y-11.90992
X-21.4851 Y-16.23952
X-18.09229 Y-19.9508
X-14.03053 Y-22.98875
X-9.47455 Y-25.2106
X-4.63413 Y-26.53045
X-2.24495 Y-26.85812
X2.66447 Y-26.7992
X7.6027 Y-25.83702
X12.27342 Y-23.97345
X16.62075 Y-21.19047
X20.33397 Y-17.65907
X23.19797 Y-13.68546
X25.33301 Y-9.14342
X26.55124 Y-4.52813
X26.9219 Y0.66695
X26.33316 Y5.65052
X24.88248 Y10.31056
X22.45289 Y14.87095
X19.25111 Y18.83436
X15.46979 Y22.04748
X11.27949 Y24.45896
X6.57641 Y26.11715
X1.65514 Y26.88169
X-3.5805 Y26.6913
X-8.43738 Y25.57759
X-13.21211 Y23.46691
X-17.4236 Y20.53602
X-20.96307 Y16.90864
X-23.86154 Y12.48335
X-25.7934 Y7.74507
X-26.79817 Y2.66689
X-26.79965 Y1.49079
X-23.59687 Y1.48678
X-23.60295 Y2.07269
X-22.76965 Y6.55367
X-21.12262 Y10.73383
X-18.61105 Y14.66575
X-15.53617 Y17.89025
X-11.86474 Y20.50936
X-7.67405 Y22.4185
X-3.42593 Y23.44497
X1.19205 Y23.66486
X5.52918 Y23.04049
X9.68974 Y21.62432
X13.39368 Y19.54703
X16.74671 Y16.76302
X19.60158 Y13.31129
X21.79039 Y9.3098
X23.11025 Y5.23179
X23.67782 Y0.86316
X23.39979 Y-3.73388
X22.37671 Y-7.79333
X20.53988 Y-11.81541
X18.06721 Y-15.33006
X14.8377 Y-18.47326
X11.03489 Y-20.96869
X6.94619 Y-22.65402
X2.60327 Y-23.54978
X-1.83994 Y-23.63346
X-3.81483 Y-23.38542
X-8.08325 Y-22.27345
X-12.11344 Y-20.36439
X-15.7187 Y-17.73076
X-18.73844 Y-14.50218
X-21.13511 Y-10.71315
X-22.74262 Y-6.65449
X-23.55493 Y-2.5568
X-23.59687 Y1.48678
X-20.4003 Y1.51994
G03 X-20.15153 Y3.51994 I20.39997 J-1.52203
G1 X-20.4003 Y1.51994
Z32.56963 F5000.
G0 Z32.93464
X-36.26721 Y-44.72139
G1 Z29.37617 F1379.2
Z28.74117 F4137.7
X-33.71393 Y-38.21978 F4137.7
X-35.17328 Y-37.06857 F5000.
X-38.32937 Y-33.48262
X-38.47917 Y-32.61106
X-38.48017 Y-28.45513
X-38.45754 Y-28.49225
X-32.74593 Y-34.90745
X-28.14566 Y-38.49379
X-22.32486 Y-38.49239
X-23.90193 Y-37.68133
X-30.33182 Y-32.73155
X-35.69316 Y-26.78324
X-38.48166 Y-22.27274
X-38.48346 Y-14.77618
X-36.90033 Y-18.74346
X-32.94008 Y-25.05609
X-27.93199 Y-30.5399
X-21.93636 Y-35.09307
X-15.26932 Y-38.4664
X-15.18744 Y-38.49067
X14.78745 Y-38.48347
Z29.37617 F5000.
G0 Z44.32945
X-45.05989 Y35.0636
G1 Z29.37617 F1379.2
Z28.74117 F4137.7
X-38.23624 Y33.57092 F4137.7
X-34.4664 Y37.71811 F5000.
X-33.90814 Y38.1414
X-32.61106 Y38.4758
X-28.13852 Y38.47687
X-32.48803 Y35.13964
X-38.40395 Y28.5548
X-38.49384 Y28.40723
X-38.49235 Y22.20281
X-35.97285 Y26.39789
X-30.49395 Y32.57328
X-23.97972 Y37.63489
X-22.3523 Y38.47826
X-15.06428 Y38.48002
X-15.89824 Y38.21654
X-22.46573 Y34.75907
X-28.48312 Y30.02004
X-33.52737 Y24.25731
X-37.41134 Y17.69054
X-38.49056 Y14.76007
Z29.37617 F5000.
G0 Z29.74117
X35.35397 Y44.99299
G1 Z29.37617 F1379.2
Z28.74117 F4137.7
X33.86129 Y38.16935 F4137.7
X38.20946 Y33.71175 F5000.
X38.44455 Y32.88894
X38.43908 Y28.25129
X36.98956 Y30.379
X30.90624 Y36.54446
X28.12158 Y38.4904
X22.45744 Y38.48904
X28.60675 Y34.24776
X34.31504 Y28.53252
X38.43238 Y22.56879
X38.42354 Y15.06837
X35.83961 Y20.68969
X31.6529 Y26.66826
X26.3223 Y31.93609
X20.04375 Y36.20582
X14.92042 Y38.48722
Z29.37617 F5000.
G0 Z29.74117
X44.78374 Y-36.12614
G1 Z29.37617 F1379.2
Z28.74117 F4137.7
X38.29484 Y-33.54072 F4137.7
X36.33298 Y-35.92372 F5000.
X33.63024 Y-38.19818
X32.63894 Y-38.47917
X28.31649 Y-38.48021
X34.2262 Y-33.44905
X38.37233 Y-28.35295
X38.37927 Y-22.46769
X37.19671 Y-24.64831
X32.10439 Y-30.98727
X25.85318 Y-36.3752
X22.24998 Y-38.48167
X14.78745 Y-38.48347
X17.87189 Y-37.33188
X24.19474 Y-33.58018
X29.96653 Y-28.53939
X34.64951 Y-22.62981
X38.10623 Y-16.15387
X38.38776 Y-15.26651
Z29.37617 F5000.
G0 Z42.25629
X-35.35666 Y-13.91901
G1 Z30.64617 F1379.2
Z30.01117 F4137.7
X-36.45663 Y-11.21942 Z29.49716 F4137.7
X-37.33073 Y-7.02202 Z28.74117
X-37.91133 Y-4.23398 F5000.
X-38.04799 Y2.73903
X-36.90953 Y9.64907
X-34.60205 Y16.05639
X-31.06647 Y22.13446
X-26.45433 Y27.48104
X-20.9318 Y31.89384
X-14.89707 Y35.12459
X-8.59999 Y37.1636
X-1.6191 Y38.1129
X5.32954 Y37.77266
X12.12459 Y36.17463
X18.23527 Y33.50547
X24.05415 Y29.60844
X29.00423 Y24.78489
X32.89659 Y19.31087
X35.8865 Y12.92909
X37.66392 Y6.05001
X38.13532 Y-0.92966
X37.32285 Y-7.87648
X35.22827 Y-14.64396
X32.08787 Y-20.62969
X27.81151 Y-26.10662
X22.51679 Y-30.79685
X16.71379 Y-34.29522
X10.42702 Y-36.69282
X3.55231 Y-37.98979
X-2.84908 Y-38.07674
X-7.24782 Y-37.45439
X-13.82272 Y-35.5561
X-19.98915 Y-32.49099
X-25.54767 Y-28.33138
X-30.19931 Y-23.30948
X-33.89059 Y-17.51712
X-36.45663 Y-11.21942
X-37.33073 Y-7.02202
X-34.18179 Y-6.36626
X-33.28018 Y-10.53191
X-30.89057 Y-16.26715
X-27.472 Y-21.54191
X-23.18032 Y-26.10469
X-18.06194 Y-29.87405
X-12.39864 Y-32.63471
X-6.37035 Y-34.32508
X-2.41683 Y-34.85561
X3.48893 Y-34.74041
X9.80213 Y-33.50346
X15.53241 Y-31.26754
X20.81777 Y-28.02632
X25.638 Y-23.69036
X29.51066 Y-18.64967
X32.33871 Y-13.15636
X34.21089 Y-6.93935
X34.90446 Y-0.57744
X34.42312 Y5.80563
X32.74631 Y12.09141
X29.96456 Y17.90884
X26.37034 Y22.88091
X21.80375 Y27.26361
X16.44763 Y30.79127
X10.84673 Y33.18639
X4.60952 Y34.60342
X-1.75294 Y34.86565
X-8.13696 Y33.94675
X-13.87194 Y32.0405
X-19.37639 Y29.04021
X-24.40615 Y24.95766
X-28.58897 Y20.03101
X-31.77998 Y14.44444
X-33.84327 Y8.57177
X-34.83726 Y2.23536
X-34.66255 Y-4.14502
X-34.18179 Y-6.36626
X-31.04089 Y-5.68645
X-31.41464 Y-4.02841
X-31.62242 Y1.75861
X-30.76793 Y7.52068
X-28.94411 Y12.85687
X-26.09346 Y17.94897
X-22.33691 Y22.45151
X-17.79769 Y26.1994
X-12.82068 Y28.96522
X-7.64653 Y30.73396
X-1.85927 Y31.61739
X3.91569 Y31.42835
X9.5942 Y30.18745
X14.68293 Y28.06212
X19.57282 Y24.90025
X23.75281 Y20.95451
X27.04474 Y16.48154
X29.61341 Y11.22686
X31.18453 Y5.53353
X31.6707 Y-0.25297
X31.09122 Y-6.02821
X29.43667 Y-11.69326
X26.91657 Y-16.69182
X23.44444 Y-21.29227
X19.09589 Y-25.26994
X14.32544 Y-28.24998
X9.15252 Y-30.31905
X3.40513 Y-31.49149
X-2.01009 Y-31.63117
X-5.51918 Y-31.18852
X-10.99931 Y-29.70139
X-16.15673 Y-27.24105
X-20.83167 Y-23.85829
X-24.75955 Y-19.75162
X-27.90143 Y-14.99141
X-30.10973 Y-9.81723
X-31.04089 Y-5.68645
X-27.90926 Y-4.98052
X-26.94616 Y-9.07268
X-24.92456 Y-13.68727
X-22.06364 Y-17.93653
X-18.50383 Y-21.59032
X-14.27588 Y-24.59059
X-9.62739 Y-26.75515
X-4.69708 Y-28.04422
X-1.632 Y-28.40324
X3.29972 Y-28.2432
X8.47522 Y-27.14041
X13.09009 Y-25.24391
X17.34905 Y-22.52931
X21.22899 Y-18.91439
X24.30402 Y-14.75867
X26.52113 Y-10.25725
X27.96334 Y-5.14568
X28.434 Y0.04075
X27.94865 Y5.23093
X26.48881 Y10.33279
X24.13868 Y15.02646
X21.15354 Y19.00353
X17.36345 Y22.51673
X12.94368 Y25.31666
X8.36979 Y27.17692
X3.25062 Y28.24712
X-1.93518 Y28.36828
X-7.12593 Y27.52593
X-11.74062 Y25.89993
X-16.19361 Y23.37284
X-20.24459 Y19.96461
X-23.57825 Y15.89076
X-26.0933 Y11.2963
X-27.68284 Y6.49856
X-28.40332 Y1.31149
X-28.16797 Y-3.88126
X-27.90926 Y-4.98052
X-24.78846 Y-4.24603
X-24.92303 Y-3.70001
X-25.17983 Y0.89725
X-24.58721 Y5.50884
X-23.22614 Y9.76597
X-21.0413 Y13.85941
X-18.1267 Y17.49945
X-14.56163 Y20.5623
X-10.62847 Y22.84614
X-6.57183 Y24.32352
X-1.97701 Y25.11855
X2.61744 Y25.0594
X7.17691 Y24.15375
X11.23305 Y22.55329
X15.17812 Y20.11115
X18.57491 Y17.02537
X21.24825 Y13.54054
X23.37377 Y9.40595
X24.71611 Y4.89446
X25.19435 Y0.29999
X24.82665 Y-4.29498
X23.59086 Y-8.85153
X21.67107 Y-12.85339
X18.9894 Y-16.55925
X15.57474 Y-19.80638
X11.82297 Y-22.2511
X7.76624 Y-23.96868
X3.17159 Y-24.99573
X-1.28671 Y-25.17163
X-3.9074 Y-24.89161
X-8.28623 Y-23.79478
X-12.42236 Y-21.92096
X-16.19944 Y-19.29854
X-19.3863 Y-16.09415
X-21.96175 Y-12.35153
X-23.79059 Y-8.29498
X-24.78846 Y-4.24603
X-21.68048 Y-3.48006
G03 X-21.90807 Y-1.48006 I21.68043 J3.48007
G1 X-21.68048 Y-3.48006
Z29.37617 F5000.
G0 Z29.74117
X-30.19369 Y-45.48002
G1 Z26.18271 F1379.2
Z25.54771 F4137.7
X-30.19536 Y-38.49502 F4137.7
X-33.0406 Y-36.34349 F5000.
X-38.48044 Y-30.43633
X-38.48182 Y-24.67965
X-36.26027 Y-28.11934
X-30.66258 Y-34.1282
X-24.81834 Y-38.49372
X-17.97816 Y-38.49208
X-22.10779 Y-36.46192
X-28.29824 Y-31.89831
X-33.541 Y-26.33944
X-37.57042 Y-20.18344
X-38.48341 Y-18.06435
X-38.48586 Y-7.85441
X-37.29016 Y-12.73383
X-34.59433 Y-18.87754
X-30.83347 Y-24.54172
X-25.94871 Y-29.65283
X-20.1971 Y-33.83289
X-13.9254 Y-36.86305
X-8.12828 Y-38.48971
X7.87197 Y-38.48587
Z26.18271 F5000.
G0 Z38.20872
X-45.48002 Y30.21047
G1 Z26.18271 F1379.2
Z25.54771 F4137.7
X-38.49502 Y30.21215 F4137.7
X-36.08026 Y33.3404 F5000.
X-30.44518 Y38.47706
X-24.68537 Y38.47844
X-28.11523 Y36.26359
X-33.87724 Y30.95101
X-38.49374 Y24.89942
X-38.49208 Y18.01402
X-36.17527 Y22.58029
X-31.65973 Y28.57505
X-26.33552 Y33.54419
X-20.18342 Y37.57043
X-18.0722 Y38.48003
X-7.86824 Y38.48249
X-12.73383 Y37.29015
X-18.87753 Y34.59434
X-24.53799 Y30.83654
X-29.42674 Y26.21364
X-33.56655 Y20.64198
X-36.67533 Y14.41202
X-38.48973 Y8.23234
Z26.18271 F5000.
G0 Z26.54771
X30.25306 Y45.47665
G1 Z26.18271 F1379.2
Z25.54771 F4137.7
X30.25474 Y38.49165 F4137.7
X32.65277 Y36.69921 F5000.
X38.44255 Y30.56478
X38.43569 Y24.75105
X35.81959 Y28.67604
X30.30213 Y34.45489
X24.83819 Y38.49035
X18.05721 Y38.48872
X22.0776 Y36.48899
X27.96537 Y32.19612
X33.12642 Y26.85689
X37.28724 Y20.69697
X38.4279 Y18.1402
X38.4162 Y8.22205
X37.15183 Y13.13553
X34.32811 Y19.35308
X30.44537 Y25.01991
X25.64365 Y29.92189
X20.18027 Y33.85031
X14.31005 Y36.72278
X8.24779 Y38.48636
Z26.18271 F5000.
G0 Z26.54771
X45.35564 Y-30.41984
G1 Z26.18271 F1379.2
Z25.54771 F4137.7
X38.37064 Y-30.4116 F4137.7
X36.69548 Y-32.65633 F5000.
X30.51571 Y-38.48042
X24.6596 Y-38.48183
X28.65568 Y-35.83208
X34.45263 Y-30.30428
X38.37705 Y-24.98165
X38.38503 Y-18.21051
X36.52106 Y-22.02248
X32.19507 Y-27.96634
X26.84256 Y-33.13484
X20.55807 Y-37.35935
X17.9977 Y-38.48343
X7.87197 Y-38.48587
X12.80254 Y-37.26679
X19.23155 Y-34.39239
X25.01116 Y-30.44998
X29.92178 Y-25.6437
X33.88068 Y-20.12751
X36.869 Y-13.91252
X38.39655 Y-8.44173
Z26.18271 F5000.
G0 Z35.53073
X-27.52459 Y-28.00393
G1 Z26.18271 F1379.2
Z25.54771 F4137.7
X-25.18679 Y-25.76967 F5000.
X-28.13877 Y-22.72484
X-31.62778 Y-17.5501
X-34.1392 Y-11.93761
X-35.71995 Y-5.68195
X-36.1644 Y0.57166
X-35.51898 Y6.81431
X-33.75687 Y12.98197
X-30.94413 Y18.72223
X-27.1771 Y23.86809
X-22.72131 Y28.14169
X-17.55009 Y31.62779
X-11.93761 Y34.1392
X-5.68198 Y35.71995
X0.57084 Y36.16447
X6.80273 Y35.5221
X12.9021 Y33.79359
X18.30186 Y31.19813
X23.33833 Y27.63104
X27.77756 Y23.16376
X31.37877 Y17.98783
X34.01026 Y12.30302
X35.64486 Y6.13469
X36.16865 Y-0.11766
X35.60344 Y-6.3605
X33.93001 Y-12.52513
X31.22675 Y-18.25157
X27.63159 Y-23.33773
X23.16004 Y-27.77868
X17.88337 Y-31.43522
X12.00009 Y-34.11742
X5.75295 Y-35.70918
X-0.44906 Y-36.17007
X-6.42053 Y-35.59347
X-12.53326 Y-33.92631
X-18.30584 Y-31.18985
X-23.61531 Y-27.39059
X-25.18679 Y-25.76967
X-22.86595 Y-23.51961
X-21.29961 Y-25.11023
X-16.43591 Y-28.53169
X-11.16489 Y-30.97841
X-5.59032 Y-32.4513
X-0.16193 Y-32.93278
X5.48763 Y-32.47002
X11.17327 Y-30.97435
X16.5116 Y-28.4889
X21.28756 Y-25.12231
X25.32311 Y-21.05006
X28.55822 Y-16.39646
X30.98034 Y-11.1606
X32.46035 Y-5.53378
X32.92968 Y0.1498
X32.40842 Y5.83812
X30.87531 Y11.44597
X28.44029 Y16.59938
X25.12433 Y21.28683
X21.05101 Y25.32222
X16.44418 Y28.53138
X11.51656 Y30.85373
X5.94023 Y32.38863
X0.26285 Y32.9291
X-5.42623 Y32.48002
X-11.11673 Y30.99457
X-16.1992 Y28.67184
X-20.88391 Y25.46094
X-24.90943 Y21.53996
X-28.30695 Y16.82281
X-30.8272 Y11.575
X-32.38701 Y5.94638
X-32.92908 Y0.26308
X-32.48002 Y-5.42623
X-30.99457 Y-11.11673
X-28.67184 Y-16.19921
X-25.45814 Y-20.88724
X-22.86595 Y-23.51961
X-20.56378 Y-21.25257
X-22.79311 Y-19.0271
X-25.7278 Y-14.82257
X-27.85712 Y-10.26886
X-29.24241 Y-5.14275
X-29.69119 Y-0.01728
X-29.24759 Y5.10583
X-27.88542 Y10.19355
X-25.65377 Y14.94582
X-22.62211 Y19.23114
X-19.02397 Y22.79577
X-14.82257 Y25.7278
X-10.26886 Y27.85712
X-5.14275 Y29.24241
X-0.01728 Y29.69119
X5.10365 Y29.24815
X10.15573 Y27.90235
X14.60941 Y25.84882
X18.78363 Y22.99381
X22.48727 Y19.38725
X25.51395 Y15.1855
X27.74783 Y10.56201
X29.17464 Y5.51386
X29.6885 Y0.38911
X29.31022 Y-4.73428
X28.01915 Y-9.82125
X25.87387 Y-14.56431
X22.99473 Y-18.78265
X19.39172 Y-22.48255
X15.11398 Y-25.55477
X10.31971 Y-27.83844
X5.19559 Y-29.23317
X0.09747 Y-29.69315
X-4.78754 Y-29.30201
X-9.82277 Y-28.01848
X-14.58961 Y-25.85705
X-19.00351 Y-22.81014
X-20.56378 Y-21.25257
X-18.28236 Y-18.96718
X-16.72934 Y-20.48836
X-12.76979 Y-23.16433
X-8.5099 Y-25.04546
X-4.01519 Y-26.14511
X0.32605 Y-26.4512
X4.87411 Y-25.99911
X9.43649 Y-24.71075
X13.68769 Y-22.63446
X17.47016 Y-19.86147
X20.64448 Y-16.53792
X23.17223 Y-12.75776
X25.04546 Y-8.5099
X26.15256 Y-3.96508
X26.44516 Y0.59712
X25.94407 Y5.15901
X24.62891 Y9.64832
X22.60138 Y13.74348
X19.86833 Y17.46276
X16.53859 Y20.64385
X12.80021 Y23.14895
X8.82237 Y24.93846
X4.29575 Y26.10017
X-0.2663 Y26.45075
X-4.82856 Y26.00763
X-9.39115 Y24.72788
G03 X-20.31315 Y16.94396 I9.36632 J-24.69689
G1 X-22.98309 Y13.0938
X-24.93042 Y8.8406
X-26.10017 Y4.29575
X-26.45075 Y-0.2663
X-26.00763 Y-4.82856
X-24.72788 Y-9.39115
X-22.79728 Y-13.41737
X-20.14551 Y-17.14224
X-18.28236 Y-18.96718
X-16.09111 Y-16.73006
G02 X-14.48006 Y-18.14246 I16.09148 J16.72978
G1 X-16.09111 Y-16.73006
Z26.18271 F5000.
G0 Z26.54771
X-31.91361 Y-45.48117
G1 Z22.98924 F1379.2
Z22.35424 F4137.7
X-31.9153 Y-38.49617 F4137.7
X-36.21174 Y-34.75304 F5000.
X-38.48081 Y-31.94151
X-38.48204 Y-26.83158
X-33.69392 Y-32.69803
X-27.38935 Y-38.12891
X-26.77811 Y-38.49494
X-20.47566 Y-38.49342
X-25.28299 Y-35.65388
X-31.18823 Y-30.62824
X-35.97577 Y-24.83247
X-38.48358 Y-20.44478
X-38.48555 Y-12.22673
X-36.62008 Y-17.24269
X-33.16428 Y-23.20212
X-28.69569 Y-28.54264
X-23.19258 Y-33.16537
X-17.31263 Y-36.5872
X-12.18194 Y-38.49143
X12.07094 Y-38.4856
Z22.98924 F5000.
G0 Z41.65354
X-45.48116 Y31.89924
G1 Z22.98924 F1379.2
Z22.35424 F4137.7
X-38.49616 Y31.90092 F4137.7
X-36.13557 Y34.82613 F5000.
X-31.9423 Y38.47744
X-26.75288 Y38.47869
X-27.78587 Y37.84826
X-33.98773 Y32.38701
X-38.49492 Y26.73664
X-38.49339 Y20.36955
X-36.58069 Y23.9247
X-31.82543 Y29.96071
X-26.07651 Y35.0841
X-20.58478 Y38.48017
X-12.45466 Y38.48212
X-18.49764 Y36.00106
X-24.34972 Y32.33079
X-29.64768 Y27.54826
X-34.01472 Y21.93014
X-37.26725 Y15.78914
X-38.49138 Y12.03097
Z22.98924 F5000.
G0 Z23.35424
X31.96615 Y45.4778
G1 Z22.98924 F1379.2
Z22.35424 F4137.7
X31.96782 Y38.4928 F4137.7
X33.84916 Y37.05711 F5000.
X38.44505 Y32.06256
X38.43871 Y26.68016
X36.98869 Y28.91308
X31.47004 Y34.843
X26.63274 Y38.49152
X20.37374 Y38.49001
X22.93937 Y37.20651
X29.10432 Y32.61458
X34.27361 Y27.12678
X38.43178 Y20.80659
X38.42212 Y12.61224
X38.31868 Y13.03143
X35.52076 Y19.40143
X31.57006 Y25.32308
X26.75309 Y30.37086
X21.01486 Y34.58759
X14.59203 Y37.7485
X12.05585 Y38.48802
Z22.98924 F5000.
G0 Z23.35424
X45.35417 Y-32.28783
G1 Z22.98924 F1379.2
Z22.35424 F4137.7
X38.36918 Y-32.27959 F4137.7
X37.98369 Y-32.81238 F5000.
X32.18403 Y-38.48076
X26.61354 Y-38.4821
X30.07239 Y-36.06047
X35.69942 Y-30.50054
X38.37569 Y-26.75863
X38.38283 Y-20.70534
X37.72762 Y-22.07814
X33.40172 Y-28.20204
X28.19298 Y-33.40899
X22.16495 Y-37.68174
X20.49672 Y-38.48357
X12.07094 Y-38.4856
X14.70415 Y-37.70852
X20.73874 Y-34.7614
X26.29709 Y-30.76928
X31.08967 Y-25.91798
X35.06137 Y-20.21975
X37.96273 Y-14.04039
X38.39251 Y-12.49118
Z22.98924 F5000.
G0 Z26.85712
X-24.96116 Y-31.67973
G1 Z22.98924 F1379.2
Z22.35424 F4137.7
X-22.88102 Y-29.20344 F5000.
X-26.21745 Y-26.44006
X-30.36388 Y-21.55281
X-33.58163 Y-16.08931
X-35.79776 Y-10.25117
X-37.01205 Y-4.09773
X-37.18086 Y2.0572
X-36.32019 Y8.20326
X-34.38458 Y14.28823
X-31.43476 Y19.95371
X-27.45336 Y25.15088
X-22.60415 Y29.58935
X-17.24291 Y33.00303
X-11.40578 Y35.44597
X-5.25148 Y36.86591
X0.90306 Y37.22702
X7.05404 Y36.56122
X13.17756 Y34.82245
X19.10866 Y31.95531
X24.41766 Y28.11072
X28.87909 Y23.50068
X32.55422 Y18.07397
X35.16876 Y12.23114
X36.74231 Y6.03765
X37.23386 Y-0.32927
X36.6358 Y-6.66626
X35.01148 Y-12.67929
X32.38256 Y-18.37952
X28.76223 Y-23.64961
X24.38349 Y-28.14238
X19.29273 Y-31.8508
X13.76417 Y-34.59742
X7.64557 Y-36.44607
X1.65951 Y-37.21237
X-3.59092 Y-37.06437
X-9.67012 Y-35.95713
X-15.69772 Y-33.76682
X-21.11951 Y-30.66239
X-22.88102 Y-29.20344
X-20.81891 Y-26.71369
X-19.0654 Y-28.14383
X-14.10446 Y-30.93414
X-8.58281 Y-32.89441
X-3.03237 Y-33.86272
X1.72802 Y-33.96309
X7.21213 Y-33.22511
X12.80229 Y-31.49303
X17.82519 Y-28.95101
X22.45077 Y-25.5295
X26.41816 Y-21.39842
X29.69023 Y-16.55911
X32.05017 Y-11.34021
X33.4921 Y-5.84183
X33.99609 Y-0.04764
X33.50391 Y5.76336
X32.02491 Y11.40728
X29.5977 Y16.72433
X26.20193 Y21.65804
X22.09956 Y25.83281
X17.22243 Y29.30868
X11.78557 Y31.88563
X6.19033 Y33.42809
X0.57739 Y33.99338
X-5.03754 Y33.62296
X-10.65217 Y32.28455
X-15.96609 Y30.01435
X-20.83826 Y26.86096
X-25.24114 Y22.76999
X-28.83971 Y17.99713
X-31.49051 Y12.80943
X-33.2158 Y7.24135
X-33.959 Y1.63045
X-33.76401 Y-3.98495
X-32.61389 Y-9.59889
X-30.55171 Y-14.91368
X-27.57566 Y-19.88298
X-23.75491 Y-24.31913
X-20.81891 Y-26.71369
X-18.77656 Y-24.20955
X-21.30972 Y-22.1782
X-24.80095 Y-18.19079
X-27.53135 Y-13.71372
X-29.43528 Y-8.92142
X-30.51697 Y-3.84627
X-30.73377 Y1.22998
X-30.10363 Y6.30494
X-28.58415 Y11.35494
X-26.22825 Y16.06249
X-23.00949 Y20.40732
X-19.05022 Y24.14703
X-14.66512 Y27.0361
X-9.87348 Y29.12922
X-4.79784 Y30.38181
X0.27807 Y30.7572
X5.35302 Y30.2878
X10.41834 Y28.93721
X15.35817 Y26.64654
X19.80062 Y23.53555
X23.54007 Y19.79337
X26.65235 Y15.3505
X28.88793 Y10.55767
X30.26785 Y5.46264
X30.75616 Y0.20799
X30.34186 Y-5.04277
X29.07801 Y-10.02539
X26.98327 Y-14.76053
X24.05601 Y-19.16622
X20.49729 Y-22.93211
X16.334 Y-26.0633
X11.8163 Y-28.3962
X6.75631 Y-30.00723
X1.7712 Y-30.71338
X-2.5 Y-30.65662
X-7.52028 Y-29.82301
X-12.53512 Y-28.08815
X-17.0322 Y-25.60837
X-18.77656 Y-24.20955
X-16.75607 Y-21.68993
X-15.02227 Y-23.05442
X-10.99248 Y-25.2276
X-6.48503 Y-26.7423
G03 X6.27628 Y-26.79288 I6.48663 J26.71409
G1 X10.80346 Y-25.30805
G03 X21.674 Y-16.95522 I-10.78175 J25.28155
G1 X24.26037 Y-12.98619
X26.09406 Y-8.73754
X27.18465 Y-4.27174
X27.51409 Y0.43492
X27.03465 Y5.13267
X25.75878 Y9.67964
X23.71957 Y13.95003
X20.89531 Y17.90452
X17.52313 Y21.21703
X13.51825 Y23.9675
X9.07864 Y25.97618
G03 X-9.06716 Y25.98083 I-9.07955 J-25.95512
G1 X-13.33747 Y24.06964
X-17.23783 Y21.4493
X-20.75655 Y18.06494
X-23.59883 Y14.15236
X-25.66442 Y9.92746
X-26.98311 Y5.3967
G03 X-24.5218 Y-12.48689 I26.97308 J-5.39887
G1 X-22.04137 Y-16.47405
X-18.88392 Y-20.01533
X-16.75607 Y-21.68993
X-14.82017 Y-19.23006
G02 X-13.03853 Y-20.48006 I14.82082 J19.22961
G1 X-14.82017 Y-19.23006
Z22.98924 F5000.
G0 Z23.35452
X-36.4482 Y-44.65155
G1 Z19.79578 F1379.2
Z19.16078 F4137.7
X-33.8987 Y-38.14846 F4137.7
X-35.489 Y-36.85912 F5000.
X-38.26109 Y-33.70874
X-38.30952 Y-33.61106
X-38.48139 Y-32.61106
X-38.48238 Y-28.50218
X-38.2657 Y-28.84741
X-33.06065 Y-34.69912
X-28.32651 Y-38.49605
X-22.41442 Y-38.49463
X-24.72011 Y-37.2224
X-30.64473 Y-32.52522
X-35.523 Y-27.10383
X-38.48384 Y-22.44637
X-38.48563 Y-15.00673
X-36.61474 Y-19.41039
X-32.79118 Y-25.34324
X-28.24223 Y-30.3365
X-22.71639 Y-34.66358
X-16.7202 Y-37.92471
X-15.05397 Y-38.49286
X15.16967 Y-38.48559
Z19.79578 F5000.
G0 Z44.63446
X-45.00106 Y35.34266
G1 Z19.79578 F1379.2
Z19.16078 F4137.7
X-38.17741 Y33.84998 F4137.7
X-34.08938 Y38.09689 F5000.
X-32.61106 Y38.47802
X-28.28754 Y38.47906
X-31.77915 Y35.87286
X-37.36157 Y30.01124
X-38.49604 Y28.33653
X-38.49465 Y22.5541
X-34.99539 Y27.7833
X-29.82023 Y33.27957
X-23.89288 Y37.75696
X-22.50013 Y38.48045
X-15.20335 Y38.4822
X-16.11226 Y38.18496
X-22.37719 Y34.88204
X-27.8454 Y30.69838
X-32.61568 Y25.56983
X-36.34728 Y19.91938
X-38.49285 Y15.06573
Z19.79578 F5000.
G0 Z20.16078
X35.28063 Y45.01125
G1 Z19.79578 F1379.2
Z19.16078 F4137.7
X33.78795 Y38.18761 F4137.7
X36.11587 Y36.23711 F5000.
X38.19024 Y33.78679
X38.44677 Y32.88894
X38.44162 Y28.52125
X33.64669 Y34.12391
X28.37513 Y38.49268
X22.38511 Y38.49124
X25.24505 Y36.86576
X31.18966 Y31.99659
X36.13639 Y26.28317
X38.4345 Y22.48664
X38.42581 Y15.11335
X37.00853 Y18.6496
X33.36655 Y24.58302
X28.74574 Y29.85421
X23.2012 Y34.33887
X17.13562 Y37.73666
X15.02838 Y38.48947
Z19.79578 F5000.
G0 Z20.16078
X44.5564 Y-36.7023
G1 Z19.79578 F1379.2
Z19.16078 F4137.7
X38.0675 Y-34.11688 F4137.7
X37.69683 Y-34.59657 F5000.
X33.86971 Y-38.13162
X32.63894 Y-38.48139
X28.3844 Y-38.48242
X29.72167 Y-37.59535
X35.4791 Y-32.22083
X38.37446 Y-28.43276
X38.38122 Y-22.69718
X37.78496 Y-23.85223
X33.24802 Y-29.85761
X27.90998 Y-34.89716
X22.56829 Y-38.48381
X15.16967 Y-38.48559
X20.37593 Y-36.09138
X26.08206 Y-32.20993
X31.00272 Y-27.5079
X35.18006 Y-21.90879
X38.38959 Y-15.59667
Z19.79578 F5000.
G0 Z21.43078
X36.81323 Y9.85404
G1 Z21.06578 F1379.2
Z20.43078 F4137.7
X37.85353 Y5.13787 Z19.5792 F4137.7
X37.9648 Y2.7675 Z19.16078
X38.17071 Y-1.61919 F5000.
X37.35742 Y-8.00797
X35.50928 Y-14.09096
X32.56261 Y-19.98227
X28.74216 Y-25.17287
X24.23668 Y-29.53465
X18.99929 Y-33.14734
X13.24908 Y-35.83616
X7.22458 Y-37.52346
X1.50011 Y-38.20023
X-2.64426 Y-38.11413
X-8.95516 Y-37.13876
X-15.18622 Y-35.05951
X-20.72928 Y-32.09183
X-25.85431 Y-28.13188
X-30.07124 Y-23.56435
X-33.63177 Y-18.12027
X-36.2589 Y-12.04598
X-37.73915 Y-5.97597
X-38.20935 Y0.09437
X-37.70716 Y6.16368
X-36.19839 Y12.21802
X-33.62361 Y18.14621
X-30.22149 Y23.37203
X-25.85346 Y28.13037
X-20.84267 Y32.01712
X-15.08244 Y35.10243
X-9.01035 Y37.13102
X-2.93159 Y38.09641
X3.19519 Y38.0707
X9.57081 Y36.98809
X15.56632 Y34.89064
X21.17418 Y31.79846
X26.31606 Y27.69571
X30.60814 Y22.86441
X33.99987 Y17.42058
X36.48744 Y11.33099
X37.85353 Y5.13787
X37.9648 Y2.7675
X34.73541 Y2.6159
X34.60829 Y4.96203
X33.31902 Y10.60739
X31.00009 Y16.17005
X27.86227 Y21.12582
X23.90192 Y25.51983
X19.16552 Y29.24351
X14.0178 Y32.03327
X8.51954 Y33.91281
X2.67388 Y34.86279
X-2.92208 Y34.84642
X-8.47857 Y33.92482
X-14.03141 Y32.02708
X-19.28776 Y29.16322
X-23.84302 Y25.57682
X-27.81173 Y21.1913
X-30.88737 Y16.3925
X-33.20841 Y10.94424
X-34.54808 Y5.4003
X-34.96863 Y-0.15113
X-34.50063 Y-5.70298
X-33.10674 Y-11.25453
X-30.65794 Y-16.80925
X-27.36438 Y-21.76563
X-23.48234 Y-25.91011
X-18.76022 Y-29.50623
X-13.67273 Y-32.18342
X-7.94829 Y-34.04866
X-2.17112 Y-34.89876
X1.54539 Y-34.95054
X6.826 Y-34.29799
X12.35273 Y-32.71221
X17.60223 Y-30.21294
X22.37244 Y-26.87249
X26.46516 Y-22.85388
X29.93171 Y-18.07417
X32.59222 Y-12.65804
X34.24099 Y-7.08584
X34.94389 Y-1.23174
X34.73541 Y2.6159
X31.50858 Y2.44106
X31.71416 Y-0.86934
X31.1173 Y-6.18858
X29.66398 Y-11.2481
X27.28627 Y-16.18627
X24.17029 Y-20.55255
X20.48768 Y-24.22482
X16.18279 Y-27.2893
X11.43442 Y-29.59465
X6.40953 Y-31.07479
X1.56602 Y-31.70061
X-1.72353 Y-31.67973
X-6.9653 Y-30.95088
X-12.18182 Y-29.29557
X-16.81092 Y-26.90571
X-21.12793 Y-23.66974
X-24.67205 Y-19.94523
X-27.69424 Y-15.47546
X-29.96054 Y-10.43969
X-31.26423 Y-5.406
X-31.72615 Y-0.37208
X-31.38314 Y4.66163
X-30.20878 Y9.69335
X-28.13753 Y14.6602
X-25.38515 Y19.02931
X-21.81245 Y23.03925
X-17.7106 Y26.32155
X-12.95727 Y28.95971
X-7.92284 Y30.72269
X-2.88723 Y31.59661
X2.17744 Y31.65093
X7.49226 Y30.82944
X12.49211 Y29.16364
X17.17704 Y26.67282
X21.50488 Y23.32514
X25.13031 Y19.36544
X28.01013 Y14.89622
X30.1566 Y9.85799
X31.36454 Y4.76059
X31.50858 Y2.44106
X28.28487 Y2.24087
X28.12266 Y4.53096
X27.00109 Y9.08
X25.03112 Y13.597
X22.41397 Y17.58107
X19.1268 Y21.10991
X15.21093 Y24.08498
X10.99178 Y26.28067
X6.4914 Y27.73739
X1.70842 Y28.43495
X-2.82434 Y28.34722
X-7.34091 Y27.52521
X-11.85775 Y25.90135
X-16.10895 Y23.49361
X-19.75978 Y20.51951
X-22.94026 Y16.88805
X-25.37284 Y12.95169
X-27.19877 Y8.46765
G03 X-26.82112 Y-9.59914 I27.18297 J-8.46914
G1 X-24.74193 Y-14.11665
X-21.99601 Y-18.10096
X-18.79304 Y-21.40903
X-14.88338 Y-24.28901
X-10.71603 Y-26.39489
X-6.00859 Y-27.84488
G03 X5.97438 Y-27.85405 I6.01278 J27.83236
X21.8559 Y-18.27086 I-5.97845 J27.8589
G1 X24.62504 Y-14.3207
X26.72361 Y-9.86365
X27.98583 Y-5.31888
X28.48146 Y-0.53445
X28.28487 Y2.24087
X25.1659 Y2.01994
G02 X24.88316 Y4.26994 I-25.16582 J-2.01965
G1 X25.1659 Y2.01994
Z19.79578 F5000.
G0 Z41.75685
X-29.79998 Y-45.48214
G1 Z16.60232 F1379.2
Z15.96732 F4137.7
X-29.80166 Y-38.49714 F4137.7
X-35.1609 Y-33.77805 F5000.
X-38.48283 Y-29.69383
X-38.48418 Y-24.0862
X-37.44901 Y-25.8795
X-32.65078 Y-31.71363
X-26.93027 Y-36.69522
X-24.00969 Y-38.49575
X-17.19628 Y-38.49411
X-18.96002 Y-37.79095
X-24.81043 Y-34.23173
X-30.15272 Y-29.63465
X-34.64399 Y-24.23806
X-38.07673 Y-18.37193
X-38.48581 Y-17.30367
X-38.48854 Y-5.95535
X-37.42134 Y-11.11406
X-35.04927 Y-17.19
X-31.8495 Y-22.57873
X-27.6677 Y-27.54009
X-22.70629 Y-31.75482
X-17.28858 Y-35.0037
X-11.11033 Y-37.42175
X-5.94343 Y-38.49141
X6.41435 Y-38.48844
Z16.60232 F5000.
G0 Z36.89064
X-45.4821 Y29.65613
G1 Z16.60232 F1379.2
Z15.96732 F4137.7
X-38.4971 Y29.65781 F4137.7
X-36.167 Y32.70104 F5000.
X-30.33081 Y38.17251
X-29.86967 Y38.47942
X-24.05623 Y38.48081
X-28.51499 Y35.47709
X-33.931 Y30.34249
X-38.41564 Y24.41828
X-38.4958 Y24.26493
X-38.49412 Y17.26869
X-35.81291 Y22.47193
X-31.68094 Y27.99734
X-26.68299 Y32.79263
X-20.82629 Y36.78953
X-17.14028 Y38.48248
X-5.92748 Y38.48517
X-7.29834 Y38.34588
X-13.42839 Y36.65764
X-19.45101 Y33.84485
X-24.83363 Y30.12011
X-29.41583 Y25.66672
X-33.19795 Y20.54203
X-36.17041 Y14.68313
X-38.06057 Y8.69415
X-38.49132 Y5.59179
Z16.60232 F5000.
G0 Z23.48279
X29.89008 Y45.47878
G1 Z16.60232 F1379.2
Z15.96732 F4137.7
X29.89176 Y38.49378 F4137.7
X30.13125 Y38.33475 F5000.
X35.97793 Y32.91034
X38.44378 Y29.73179
X38.43734 Y24.26974
X37.99611 Y25.07175
X33.42079 Y30.90446
X27.93372 Y35.94031
X24.04487 Y38.49238
X17.15137 Y38.49072
X20.06428 Y37.21738
X25.75009 Y33.53317
X30.87522 Y28.88393
X35.15787 Y23.48842
X38.4292 Y17.62435
X38.42951 Y17.6235
X38.41602 Y6.19009
X37.62037 Y10.42287
X35.37984 Y16.50013
X32.32973 Y21.88713
X28.34216 Y26.84773
X23.58153 Y31.11246
X18.3141 Y34.47888
X12.43248 Y37.00664
X6.3984 Y38.48814
Z16.60232 F5000.
G0 Z22.28531
X45.35856 Y-29.82415
G1 Z16.60232 F1379.2
Z15.96732 F4137.7
X38.37356 Y-29.81591 F4137.7
X35.36571 Y-33.56704 F5000.
X29.86651 Y-38.4828
X24.01589 Y-38.48421
X27.67793 Y-36.13501
X33.18641 Y-31.15599
X37.88473 Y-25.23042
X38.38003 Y-24.33084
X38.38798 Y-17.58665
X35.32629 Y-23.22619
X30.99288 Y-28.75788
X25.90694 Y-33.40992
X20.0114 Y-37.24132
X17.14888 Y-38.48586
X6.41435 Y-38.48844
X6.65322 Y-38.46655
X12.73953 Y-36.9036
X18.69692 Y-34.269
X24.11862 Y-30.69617
X28.78413 Y-26.37379
X32.75527 Y-21.23814
X35.84843 Y-15.45286
X37.89103 Y-9.39884
X38.40146 Y-6.16002
Z16.60232 F5000.
G0 Z20.57086
X-5.92916 Y45.47017
G1 Z16.60232 F1379.2
Z15.96732 F4137.7
X-5.92748 Y38.48517 F4137.7
X-4.59359 Y35.37104 F5000.
X-0.7604 Y35.78818
X5.37818 Y35.39218
X11.16926 Y34.01218
X16.58258 Y31.72855
X21.4294 Y28.67713
X25.82272 Y24.7947
X29.51264 Y20.26649
X32.33842 Y15.35458
X34.43069 Y9.79962
X35.5824 Y3.90543
X35.72335 Y-2.27718
X34.80443 Y-8.3813
X32.97183 Y-13.94035
X30.17075 Y-19.26768
X26.55896 Y-24.005
X22.31158 Y-27.99486
X17.36231 Y-31.30568
X11.91013 Y-33.76121
X6.33815 Y-35.23186
X0.40147 Y-35.81011
X-4.01752 Y-35.57128
X-9.94649 Y-34.38729
X-15.63642 Y-32.20497
X-20.61927 Y-29.26346
X-25.19687 Y-25.42881
X-29.06657 Y-20.9001
X-32.03018 Y-15.98684
X-34.24352 Y-10.43289
X-35.5068 Y-4.5394
X-35.75852 Y1.64269
X-34.95456 Y7.7375
X-33.26211 Y13.23251
X-30.56989 Y18.63003
X-27.13453 Y23.35194
X-22.9655 Y27.46068
X-18.05553 Y30.9097
X-12.54306 Y33.53055
X-6.94674 Y35.11496
X-4.59359 Y35.37104
X-4.24398 Y32.15837
X-6.56996 Y31.88687
X-11.63329 Y30.41048
X-16.63819 Y27.98503
X-21.07696 Y24.8157
X-24.83571 Y21.05457
X-27.9277 Y16.73759
X-30.34312 Y11.80354
X-31.84137 Y6.80446
X-32.53338 Y1.24149
X-32.26062 Y-4.38194
X-31.07113 Y-9.72689
X-29.02037 Y-14.76064
X-26.29639 Y-19.20052
X-22.74159 Y-23.29947
X-18.55109 Y-26.75644
X-14.00541 Y-29.39387
X-8.80517 Y-31.34428
X-3.40562 Y-32.3794
X0.55256 Y-32.56362
X6.00338 Y-31.99915
X11.05748 Y-30.62505
X16.00584 Y-28.35229
X20.48418 Y-25.30728
X24.31602 Y-21.65304
X27.57167 Y-17.31645
X30.08388 Y-12.44962
X31.71018 Y-7.38727
X32.50602 Y-1.81747
X32.33392 Y3.80601
X31.24598 Y9.15144
X29.30582 Y14.18588
X26.70775 Y18.62481
X23.3182 Y22.7235
X19.29532 Y26.22597
X14.87151 Y28.96544
X9.9279 Y31.00859
X4.64839 Y32.22517
X-0.94502 Y32.54343
X-4.24398 Y32.15837
X-3.86951 Y28.95015
X-1.10257 Y29.29725
X3.94464 Y29.05228
X8.71058 Y27.99518
G02 X26.2831 Y12.99187 I-8.70846 J-27.99222
G1 X28.06697 Y8.47588
X29.08642 Y3.67861
X29.28504 Y-1.38417
X28.60771 Y-6.41918
X27.18364 Y-10.98297
X24.9568 Y-15.38644
X22.05366 Y-19.31975
X18.63445 Y-22.63501
X14.62551 Y-25.40998
X10.1787 Y-27.49611
X5.64771 Y-28.76867
X0.67657 Y-29.31599
X-2.82087 Y-29.18244
X-7.68858 Y-28.29211
X-12.39778 Y-26.56932
X-16.50383 Y-24.23232
X-20.30346 Y-21.15051
X-23.54041 Y-17.47799
X-26.02095 Y-13.50925
X-27.90493 Y-8.99361
X-29.01591 Y-4.1966
X-29.3051 Y0.86636
X-28.72047 Y5.89756
X-27.41255 Y10.39844
X-25.27018 Y14.86674
X-22.51778 Y18.77648
X-19.16598 Y22.18689
X-15.19711 Y25.07199
X-10.69663 Y27.29838
X-6.16544 Y28.66215
X-3.86951 Y28.95015
X-3.48006 Y25.84556
G03 X-1.23006 Y26.04975 I3.47978 J-25.84556
G1 X-3.48006 Y25.84556
Z16.60232 F5000.
G0 Z44.62444
X-31.04736 Y-45.48255
G1 Z13.40885 F1379.2
Z12.77385 F4137.7
X-31.05238 Y-38.49756 F4137.7
X-35.84064 Y-34.24132 F5000.
X-38.48326 Y-30.97985
X-38.48454 Y-25.68753
X-38.09956 Y-26.35514
X-33.3265 Y-32.1818
X-27.66014 Y-37.16458
X-25.52461 Y-38.49359
X-19.34637 Y-38.48915
X-19.4471 Y-38.44788
X-25.52797 Y-34.71176
X-30.82422 Y-30.10789
X-35.29344 Y-24.71556
X-38.48608 Y-19.2514
X-38.48832 Y-9.94873
X-38.18155 Y-11.40237
X-35.8414 Y-17.41541
X-32.49744 Y-23.0588
X-28.3348 Y-28.01856
X-23.41093 Y-32.24587
X-17.76284 Y-35.66836
X-11.85969 Y-38.04394
X-9.90132 Y-38.48236
X10.00546 Y-38.46806
Z13.40885 F5000.
G0 Z40.04398
X-45.48316 Y31.00208
G1 Z13.40885 F1379.2
Z12.77385 F4137.7
X-38.49816 Y31.00376 F4137.7
X-37.14358 Y32.82148 F5000.
X-31.28223 Y38.4495
X-31.23796 Y38.47983
X-25.53134 Y38.4812
X-29.43083 Y35.77839
X-34.88002 Y30.48936
X-38.49686 Y25.58094
X-38.49528 Y19.01792
X-36.81341 Y22.38699
X-32.60304 Y28.17033
X-27.56382 Y33.11817
X-21.807 Y37.15845
X-19.04143 Y38.48276
X-9.87252 Y38.48496
X-14.34772 Y37.17392
X-20.38492 Y34.23609
X-25.68008 Y30.46977
X-30.31176 Y25.86544
X-34.17415 Y20.49046
X-37.10058 Y14.53547
X-38.49309 Y9.8936
Z13.40885 F5000.
G0 Z15.91837
X31.04358 Y45.4798
G1 Z13.40885 F1379.2
Z12.77385 F4137.7
X31.04526 Y38.4948 F4137.7
X35.80728 Y34.27764 F5000.
X38.44606 Y31.03038
X38.43983 Y25.75283
X38.04591 Y26.43319
X33.2961 Y32.21451
X27.57577 Y37.22615
X25.53785 Y38.49348
X19.33718 Y38.49198
X19.4811 Y38.43288
X25.44807 Y34.76945
X30.79683 Y30.13698
X35.24288 Y24.78836
X38.43229 Y19.35316
X38.42156 Y10.25531
X38.19906 Y11.33276
X35.79119 Y17.51354
X32.45023 Y23.12595
X28.31043 Y28.04406
X23.33545 Y32.29977
X17.79777 Y35.65278
X11.91561 Y38.02668
X9.83163 Y38.4897
Z13.40885 F5000.
G0 Z16.32827
X45.35768 Y-31.1979
G1 Z13.40885 F1379.2
Z12.77385 F4137.7
X38.37268 Y-31.18966 F4137.7
X37.2093 Y-32.7454 F5000.
X31.31493 Y-38.41852
X31.26492 Y-38.45279
X25.55461 Y-38.45689
X29.46348 Y-35.74745
X34.94288 Y-30.41606
X38.37908 Y-25.769
X38.38675 Y-19.2566
X36.72535 Y-22.53923
X32.66293 Y-28.09995
X27.59686 Y-33.08695
X21.68096 Y-37.23756
X19.12667 Y-38.46151
X10.00546 Y-38.46806
X14.49246 Y-37.12164
X20.25872 Y-34.31528
X25.71404 Y-30.4379
X30.36849 Y-25.79821
X34.08923 Y-20.63834
X36.98964 Y-14.82016
X38.39737 Y-10.25321
Z13.40885 F5000.
G0 Z13.77385
X-0.54293 Y-45.46064
G1 Z13.40885 F1379.2
Z12.77385 F4137.7
X-0.54794 Y-38.47564 F4137.7
X-0.54939 Y-36.46302 F5000.
X-4.82537 Y-36.28835
X-10.66662 Y-35.02084
X-16.0971 Y-32.87769
X-21.31032 Y-29.76596
X-25.8594 Y-25.91265
X-29.71247 Y-21.38355
X-32.82062 Y-16.2165
X-35.00624 Y-10.70961
X-36.28177 Y-4.86319
X-36.58341 Y1.26811
X-35.86012 Y7.36004
X-34.17413 Y13.12184
X-31.52227 Y18.61163
X-28.00514 Y23.57591
X-23.7783 Y27.83429
X-18.94299 Y31.32347
X-13.41262 Y34.06135
X-7.59421 Y35.80936
X-1.45459 Y36.57744
X4.67705 Y36.30577
X10.71925 Y35.00489
X16.13305 Y32.86151
X21.23921 Y29.81617
X25.83804 Y25.93461
X29.66893 Y21.44462
X32.77107 Y16.31296
X35.0208 Y10.65367
X36.31887 Y4.57843
X36.57309 Y-1.55656
X35.80048 Y-7.64512
X34.07157 Y-13.38929
X31.44044 Y-18.75516
X28.05843 Y-23.51214
X23.81379 Y-27.80132
X18.81736 Y-31.40238
X13.53675 Y-34.01534
X7.98231 Y-35.72425
X1.77497 Y-36.55796
X-0.54939 Y-36.46302
X-0.41744 Y-33.23273
X1.88374 Y-33.30978
X7.52421 Y-32.5067
X12.55759 Y-30.91635
X17.35536 Y-28.49978
X21.89468 Y-25.17844
X25.73143 Y-21.24331
X28.77798 Y-16.89134
X31.14339 Y-11.97924
X32.68169 Y-6.73098
X33.34604 Y-1.17097
X33.07275 Y4.41974
X31.84769 Y9.95088
X29.76005 Y15.08974
X26.90011 Y19.74281
X23.38102 Y23.80727
X19.16088 Y27.31756
X14.48867 Y30.05821
X9.54466 Y31.97457
X4.01566 Y33.12378
X-1.5742 Y33.32964
X-7.16672 Y32.58759
X-12.45427 Y30.95586
X-17.47957 Y28.4216
X-21.85697 Y25.21304
X-25.68196 Y21.30316
X-28.85677 Y16.75216
X-31.23733 Y11.72981
X-32.73426 Y6.47036
X-33.35336 Y0.90857
X-33.03697 Y-4.67948
X-31.83618 Y-9.99324
X-29.80862 Y-14.9957
X-26.93964 Y-19.68828
X-23.3994 Y-23.78876
X-19.22769 Y-27.27094
X-14.45162 Y-30.07504
X-9.4957 Y-31.9891
X-4.15881 Y-33.10744
X-0.41744 Y-33.23273
X-0.30929 Y-30.00298
X-3.51702 Y-29.92144
X-8.34924 Y-28.94803
X-12.82844 Y-27.2594
X-17.16489 Y-24.75949
X-20.95649 Y-21.64523
X-24.18028 Y-17.97118
X-26.80641 Y-13.75102
X-28.67207 Y-9.25099
X-29.79377 Y-4.46939
X-30.12053 Y0.57493
X-29.6013 Y5.60605
X-28.28936 Y10.36161
X-26.1765 Y14.91404
X-23.34082 Y19.04893
X-19.91425 Y22.60759
X-15.9927 Y25.53166
X-11.47044 Y27.85835
X-6.71292 Y29.36943
X-1.66706 Y30.08097
X3.3791 Y29.93673
X8.39401 Y28.93508
X12.86676 Y27.24184
X17.10229 Y24.80266
X20.94099 Y21.66047
X24.14515 Y18.01866
X26.75922 Y13.84173
X28.68045 Y9.22214
X29.82803 Y4.23455
X30.11602 Y-0.81121
X29.55572 Y-5.84169
X28.20433 Y-10.59201
X26.10072 Y-15.04885
X23.38591 Y-18.99364
X19.95498 Y-22.57074
X15.87097 Y-25.60857
X11.55283 Y-27.82556
X7.03788 Y-29.29329
X1.96633 Y-30.06083
X-0.30929 Y-30.00298
X-0.23006 Y-26.88634
G03 X-2.90253 Y-26.73006 I0.23141 J26.8863
G1 X-0.23006 Y-26.88634
Z13.40885 F5000.
G0 Z13.77385
X-32.04681 Y-45.48401
G1 Z10.21539 F1379.2
Z9.58039 F4137.7
X-32.05183 Y-38.49902 F4137.7
X-34.44687 Y-36.57495 F5000.
X-38.48373 Y-32.13429
X-38.48502 Y-26.74558
X-36.96974 Y-29.02294
X-32.05313 Y-34.37665
X-26.87326 Y-38.49529
X-20.52545 Y-38.49073
X-24.27557 Y-36.40869
X-29.67131 Y-32.16544
X-34.27396 Y-27.20765
X-38.07675 Y-21.56035
X-38.48648 Y-20.67767
X-38.4885 Y-12.28027
X-37.91551 Y-14.28224
X-35.13717 Y-20.17421
X-31.58902 Y-25.37637
X-27.30234 Y-29.94047
X-22.2813 Y-33.84249
X-16.53572 Y-36.98858
X-12.35386 Y-38.48486
X12.40421 Y-38.46708
Z10.21539 F5000.
G0 Z41.90855
X-45.48415 Y32.03206
G1 Z10.21539 F1379.2
Z9.58039 F4137.7
X-38.49915 Y32.03374 F4137.7
X-35.15176 Y35.89059 F5000.
X-32.04221 Y38.48037
X-26.92792 Y38.4816
X-27.26777 Y38.27865
X-33.05888 Y33.40416
X-38.00937 Y27.63982
X-38.4979 Y26.83555
X-38.4964 Y20.59365
X-35.53207 Y25.53613
X-30.95219 Y30.92941
X-25.58568 Y35.49781
X-20.65038 Y38.48311
X-12.56329 Y38.48506
X-18.3632 Y36.1144
X-23.88671 Y32.72725
X-28.83075 Y28.4673
X-33.04223 Y23.4473
X-36.44914 Y17.68852
X-38.49445 Y12.48504
Z10.21539 F5000.
G0 Z10.58039
X32.24122 Y45.48083
G1 Z10.21539 F1379.2
Z9.58039 F4137.7
X32.2429 Y38.49583 F4137.7
X37.93049 Y32.93898 F5000.
X38.44822 Y32.2357
X38.44182 Y26.80748
X35.3231 Y30.99888
X29.7999 Y36.33906
X26.68448 Y38.49449
X20.64813 Y38.49304
X21.66311 Y38.01663
X27.55392 Y33.98999
X32.72633 Y29.04457
X36.99269 Y23.3757
X38.43454 Y20.63994
X38.42491 Y12.47319
X37.12082 Y16.24235
X34.12653 Y21.8435
X30.14106 Y27.07508
X25.3221 Y31.62748
X19.84542 Y35.32247
X14.01102 Y38.01824
X12.29683 Y38.49103
Z10.21539 F5000.
G0 Z11.10999
X45.35723 Y-32.2034
G1 Z10.21539 F1379.2
Z9.58039 F4137.7
X38.37224 Y-32.19516 F4137.7
X36.87093 Y-34.11675 F5000.
X32.14076 Y-38.4529
X26.77281 Y-38.45676
X28.96745 Y-37.00828
X34.66224 Y-31.73259
X38.37845 Y-26.92346
X38.38579 Y-20.69981
X36.86018 Y-23.57313
X32.44022 Y-29.36086
X27.16205 Y-34.30587
X21.3021 Y-38.22071
X20.77436 Y-38.46107
X12.40421 Y-38.46708
X13.97517 Y-38.02979
X19.93736 Y-35.27114
X25.34044 Y-31.61435
X30.20396 Y-27.00255
X34.26521 Y-21.61646
X37.31071 Y-15.79441
X38.39544 Y-12.51995
Z10.21539 F5000.
G0 Z11.85039
X34.40072 Y14.1855
G1 Z11.48539 F1379.2
Z10.85039 F4137.7
X36.00351 Y9.65005 Z10.0022 F4137.7
X36.429 Y7.29599 Z9.58039
X37.10594 Y3.55078 F5000.
X37.1884 Y-2.54569
X36.27179 Y-8.59576
X34.42096 Y-14.30718
X31.65732 Y-19.67701
X27.95243 Y-24.65881
X23.5014 Y-28.93472
X18.55353 Y-32.33047
X13.08387 Y-34.9044
X7.29256 Y-36.55597
X1.34778 Y-37.26155
X-3.61639 Y-37.09994
X-9.56726 Y-36.03022
X-14.99285 Y-34.12815
X-20.303 Y-31.26396
X-24.94732 Y-27.70075
X-28.91588 Y-23.5279
X-32.20669 Y-18.76894
X-34.79693 Y-13.36739
X-36.49986 Y-7.56234
X-37.24672 Y-1.46357
X-36.9867 Y4.62842
X-35.72858 Y10.63776
X-33.64127 Y16.05195
X-30.53895 Y21.3746
X-26.6935 Y26.0189
X-22.16955 Y29.96792
X-17.11388 Y33.11411
X-11.43907 Y35.47711
X-5.52892 Y36.86317
X0.57046 Y37.27094
X6.66184 Y36.67395
X12.66708 Y35.05913
X18.04545 Y32.61644
X23.10567 Y29.25052
X27.56828 Y25.08931
X31.27015 Y20.29316
X34.05653 Y15.15946
X36.00351 Y9.65005
X36.429 Y7.29599
X33.24756 Y6.72096
X32.80954 Y9.04914
X31.00011 Y14.05458
X28.42447 Y18.72324
X25.00918 Y23.08594
X20.90613 Y26.85792
X16.26483 Y29.89763
X11.34412 Y32.09058
X5.83979 Y33.52964
X0.27686 Y34.03423
X-5.28889 Y33.62205
X-10.6744 Y32.31835
X-15.84327 Y30.12279
X-20.43269 Y27.22096
X-24.53921 Y23.58548
X-28.02118 Y19.31953
X-30.8219 Y14.43527
X-32.68786 Y9.49035
X-33.80116 Y3.98432
X-33.99877 Y-1.57894
X-33.27686 Y-7.14426
X-31.68498 Y-12.43022
X-29.28623 Y-17.34296
X-26.2557 Y-21.66083
X-22.60753 Y-25.44511
X-18.34213 Y-28.67214
X-13.46968 Y-31.25719
X-8.51357 Y-32.95577
X-3.06312 Y-33.89738
X1.43109 Y-34.01262
X6.88987 Y-33.33101
X12.1709 Y-31.78526
X17.14901 Y-29.39964
X21.64348 Y-26.26815
X25.68443 Y-22.33101
X29.03552 Y-17.75642
X31.52053 Y-12.84089
X33.17307 Y-7.61573
X33.97172 Y-2.08149
X33.85663 Y3.48358
X33.24756 Y6.72096
X30.0717 Y6.12346
X30.60796 Y3.39089
X30.75157 Y-1.64208
X30.06688 Y-6.65967
X28.60856 Y-11.39766
X26.3986 Y-15.85664
X23.39854 Y-20.02077
X19.76499 Y-23.61602
X15.72188 Y-26.47974
X11.23393 Y-28.67326
X6.46617 Y-30.10875
X1.48952 Y-30.76315
X-2.53355 Y-30.69081
X-7.4836 Y-29.87329
X-11.96817 Y-28.37483
X-16.40045 Y-26.06592
G02 X-28.58049 Y-11.46863 I16.3944 J26.05974
G1 X-30.05723 Y-6.70102
X-30.75001 Y-1.66874
X-30.6109 Y3.36405
X-29.63824 Y8.36683
X-27.9901 Y12.84047
X-25.48766 Y17.28391
X-22.36643 Y21.16856
X-18.67429 Y24.48773
X-14.54943 Y27.14143
X-9.88503 Y29.16566
X-5.02346 Y30.38291
X0.00905 Y30.79529
X5.04167 Y30.37916
X10.04423 Y29.11186
X14.50553 Y27.16498
X18.72526 Y24.4483
X22.46517 Y21.06343
X25.59063 Y17.13208
X27.9525 Y12.9256
X29.62038 Y8.42328
X30.0717 Y6.12346
X26.99636 Y5.51994
G03 X27.36021 Y3.26994 I-26.99641 J-5.52004
G1 X26.99636 Y5.51994
Z10.21539 F5000.
G0 Z44.08128
X-34.10914 Y-45.30903
G1 Z7.02193 F1379.2
Z6.38693 F4137.7
X-33.14644 Y-38.39069 F4137.7
X-37.24317 Y-34.64566 F5000.
X-38.2533 Y-33.36553
X-38.48435 Y-32.61106
X-38.48549 Y-27.87516
X-34.7022 Y-32.61934
X-28.98711 Y-37.78967
X-27.88887 Y-38.49676
X-21.90696 Y-38.49247
X-26.82013 Y-35.36754
X-32.17241 Y-30.57907
X-36.70083 Y-24.96416
X-38.48694 Y-21.82055
X-38.48878 Y-14.20233
X-37.2193 Y-17.55094
X-33.8844 Y-23.34236
X-29.65473 Y-28.5239
X-24.6676 Y-32.93257
X-18.94753 Y-36.52315
X-14.27159 Y-38.48698
X14.3249 Y-38.46644
Z7.02193 F5000.
G0 Z44.01411
X-45.11008 Y34.8578
G1 Z7.02193 F1379.2
Z6.38693 F4137.7
X-38.28643 Y33.36513 F4137.7
X-33.45898 Y38.26237 F5000.
X-32.61106 Y38.48098
X-27.79315 Y38.48213
X-31.20097 Y35.98239
X-36.7242 Y30.32048
X-38.49887 Y27.78637
X-38.4975 Y22.06742
X-38.41323 Y22.24311
X-34.38516 Y28.06406
X-29.26423 Y33.37251
X-23.45495 Y37.68345
X-21.90152 Y38.48355
X-14.25034 Y38.48539
X-16.0296 Y37.89655
X-21.94979 Y34.803
X-27.312 Y30.77417
X-32.03267 Y25.82169
X-35.72963 Y20.40987
X-38.46495 Y14.61982
X-38.49568 Y14.51332
Z7.02193 F5000.
G0 Z7.38693
X34.87662 Y45.10259
G1 Z7.02193 F1379.2
Z6.38693 F4137.7
X33.38395 Y38.27894 F4137.7
X34.26517 Y37.59658 F5000.
X38.35382 Y33.22461
X38.44973 Y32.88894
X38.44385 Y27.90513
X37.1416 Y29.81945
X31.90274 Y35.36467
X27.81664 Y38.4955
X21.84919 Y38.49407
X23.8864 Y37.41263
X29.55241 Y33.12002
X34.46465 Y27.97651
X38.38812 Y22.27749
X38.43709 Y22.17431
X38.42829 Y14.70738
X35.46031 Y20.86667
X31.79879 Y26.11756
X27.2151 Y30.86182
X21.93899 Y34.81069
X16.09763 Y37.86778
X14.24018 Y38.49224
Z7.02193 F5000.
G0 Z7.38693
X45.35686 Y-33.14456
G1 Z7.02193 F1379.2
Z6.38693 F4137.7
X38.37187 Y-33.13632 F4137.7
X35.83019 Y-36.10179 F5000.
X33.09374 Y-38.40446
X32.88894 Y-38.4531
X28.04375 Y-38.45658
X33.72489 Y-33.62587
X38.37776 Y-28.13947
X38.385 Y-21.99812
X36.21387 Y-25.66632
X31.60601 Y-31.16155
X26.04649 Y-35.94175
X21.90922 Y-38.46099
X14.3249 Y-38.46644
X18.70628 Y-36.65135
X24.3401 Y-33.17575
X29.47264 Y-28.70977
X33.71102 Y-23.59309
X37.10892 Y-17.77352
X38.39394 Y-14.42008
Z7.02193 F5000.
G0 Z8.65693
X37.81959 Y0.54108
G1 Z8.29193 F1379.2
Z7.65693 F4137.7
X37.66859 Y-4.22505 Z6.81611 F4137.7
X37.19752 Y-6.61304 Z6.38693
X36.4467 Y-10.41915 F5000.
X34.29185 Y-16.15283
X31.19477 Y-21.53616
X27.32372 Y-26.27161
X22.61642 Y-30.42049
X17.44317 Y-33.65685
X11.96782 Y-35.96641
X5.91234 Y-37.44365
X-0.0593 Y-37.91318
X-5.44783 Y-37.5115
X-11.56175 Y-36.10015
X-17.23733 Y-33.75951
X-22.53073 Y-30.48384
X-27.15022 Y-26.45268
X-31.07809 Y-21.70311
X-34.18779 Y-16.37944
X-36.30428 Y-10.90252
X-37.59696 Y-4.8393
X-37.88726 Y1.22433
X-37.20008 Y7.28065
X-35.51767 Y13.25013
X-33.03416 Y18.59413
X-29.66574 Y23.59454
X-25.34315 Y28.18842
X-20.42634 Y31.93218
X-14.9888 Y34.81771
X-9.21808 Y36.7685
X-3.15412 Y37.77561
X2.91574 Y37.79391
X9.00283 Y36.82432
X14.60888 Y34.97881
X20.00805 Y32.1965
X24.89186 Y28.58914
X29.14503 Y24.24137
X32.54158 Y19.43716
X35.31703 Y13.77034
X37.06908 Y7.92441
X37.86134 Y1.85906
X37.66859 Y-4.22505
X37.19752 Y-6.61304
X34.02553 Y-5.98731
X34.47574 Y-3.61828
X34.61233 Y1.93891
X33.84944 Y7.48123
X32.21036 Y12.8158
X29.63283 Y17.98744
X26.50459 Y22.34648
X22.58393 Y26.30092
X18.09512 Y29.56911
X13.14 Y32.07969
X8.00773 Y33.73041
X2.42612 Y34.58101
X-3.12177 Y34.52577
X-8.66356 Y33.56616
X-13.92667 Y31.74617
X-18.88312 Y29.07195
X-23.35634 Y25.61644
X-27.28328 Y21.38403
X-30.3259 Y16.79751
X-32.56111 Y11.9006
X-34.06609 Y6.42004
X-34.65551 Y0.88047
X-34.35183 Y-4.66148
X-33.13046 Y-10.20299
X-31.1645 Y-15.18687
X-28.28283 Y-20.0451
X-24.66017 Y-24.3641
X-20.41098 Y-28.02027
X-15.54637 Y-30.98405
X-10.34379 Y-33.087
X-4.7389 Y-34.33976
X0.15967 Y-34.67056
X5.63728 Y-34.20531
X11.17622 Y-32.81429
X16.15913 Y-30.67125
X20.87413 Y-27.67697
X25.15799 Y-23.84836
X28.66406 Y-19.49704
X31.4636 Y-14.55175
X33.39653 Y-9.29713
X34.02553 Y-5.98731
X30.85059 Y-5.38394
X30.33783 Y-8.19854
X28.62329 Y-12.97214
X26.11762 Y-17.47759
X22.97399 Y-21.44157
X19.11167 Y-24.94636
X14.85219 Y-27.69562
X10.36114 Y-29.66816
X5.34039 Y-30.9689
X0.35371 Y-31.42636
X-4.05413 Y-31.16272
X-9.14905 Y-30.06457
X-13.87653 Y-28.19584
X-18.31007 Y-25.54062
X-22.18614 Y-22.25657
X-25.49972 Y-18.36676
X-28.15042 Y-13.97122
X-29.96198 Y-9.47963
X-31.10813 Y-4.45922
X-31.4212 Y0.56142
X-30.9259 Y5.58237
X-29.59458 Y10.57312
X-27.60377 Y15.02198
X-24.88396 Y19.19182
X-21.34996 Y23.05969
X-17.31838 Y26.22342
X-12.84121 Y28.68279
X-8.08501 Y30.36807
X-3.06465 Y31.27627
X1.96007 Y31.3646
X7.03581 Y30.62914
X11.69291 Y29.16963
X16.20203 Y26.92739
X20.29273 Y23.99594
X23.87895 Y20.43115
X26.73514 Y16.51574
X29.11101 Y11.83779
X30.63322 Y7.01385
X31.36278 Y1.99346
X31.27836 Y-3.03579
X30.85059 Y-5.38394
X27.76994 Y-4.82272
G03 X27.26994 Y-7.12592 I-27.76987 J4.82268
G1 X27.76994 Y-4.82272
Z7.02193 F5000.
G0 Z36.12739
X-36.6759 Y-44.58523
G1 Z3.82846 F1379.2
Z3.19346 F4137.7
X-34.27269 Y-38.02667 F4137.7
X-37.17688 Y-35.43556 F5000.
X-37.89127 Y-34.55008
X-38.48509 Y-32.61106
X-38.48603 Y-28.68674
X-34.658 Y-33.38185
X-28.86305 Y-38.4982
X-22.81467 Y-38.49386
X-26.66911 Y-36.09985
X-32.15046 Y-31.3143
X-36.87999 Y-25.57829
X-38.48745 Y-22.80327
X-38.48919 Y-15.56433
X-37.52261 Y-18.06373
X-34.07722 Y-23.933
X-29.65518 Y-29.23197
X-24.5463 Y-33.63892
X-18.83158 Y-37.14198
X-15.5544 Y-38.48864
X15.64044 Y-38.46623
Z3.82846 F5000.
G0 Z45.48565
X-44.49329 Y37.0792
G1 Z3.82846 F1379.2
Z3.19346 F4137.7
X-38.13098 Y34.19628 F4137.7
X-34.76015 Y37.82423 F5000.
X-34.56467 Y37.97805
X-32.61106 Y38.48172
X-28.70847 Y38.48265
X-32.73795 Y35.27998
X-37.84944 Y29.72466
X-38.49984 Y28.75475
X-38.49844 Y22.93335
X-35.4464 Y27.53652
X-30.70259 Y32.74624
X-25.36652 Y37.0327
X-22.85291 Y38.48406
X-15.59305 Y38.48581
X-18.19636 Y37.46133
X-23.72569 Y34.22732
X-28.65321 Y30.22384
X-33.03124 Y25.36179
X-36.47168 Y20.10897
X-38.49669 Y15.63941
Z3.82846 F5000.
G0 Z4.23806
X35.72172 Y44.91846
G1 Z3.82846 F1379.2
Z3.19346 F4137.7
X34.22905 Y38.09482 F4137.7
X37.81201 Y34.77496 F5000.
X37.96822 Y34.57681
X38.45047 Y32.88894
X38.4456 Y28.76157
X35.2695 Y32.75057
X29.65401 Y37.9033
X28.76504 Y38.49647
X22.92481 Y38.49507
X27.46911 Y35.49732
X32.7375 Y30.71306
X36.98947 Y25.42915
X38.43872 Y22.92861
X38.43023 Y15.73127
X37.43278 Y18.25461
X34.18676 Y23.78376
X30.21683 Y28.66154
X25.29758 Y33.07927
X20.00288 Y36.52919
X15.59991 Y38.49331
Z3.82846 F5000.
G0 Z6.56525
X44.46231 Y-36.94773
G1 Z3.82846 F1379.2
Z3.19346 F4137.7
X37.97341 Y-34.36231 F4137.7
X34.86198 Y-37.72515 F5000.
X34.13894 Y-38.15697
X32.88894 Y-38.45384
X28.74417 Y-38.45682
X32.80501 Y-35.21716
X37.9167 Y-29.63816
X38.37755 Y-28.947
X38.38445 Y-23.0933
X35.50906 Y-27.4551
X30.76505 Y-32.68713
X25.42915 Y-36.98947
X22.89015 Y-38.46102
X15.64044 Y-38.46623
X18.25463 Y-37.43277
X23.78376 Y-34.18676
X28.71105 Y-30.16848
X33.0893 Y-25.28547
X36.5304 Y-20.00097
X38.39303 Y-15.81702
Z3.82846 F5000.
G0 Z29.95289
X-31.247 Y-27.32449
G1 Z3.82846 F1379.2
Z3.19346 F4137.7
X-28.76383 Y-25.25226 F5000.
X-31.28477 Y-22.27027
X-34.49877 Y-16.87257
X-36.73264 Y-11.2017
X-38.05509 Y-5.16531
X-38.39419 Y0.87135
X-37.77739 Y6.90264
X-36.18401 Y12.86883
X-33.74218 Y18.34479
X-30.60309 Y23.20156
X-26.58877 Y27.71374
X-22.06803 Y31.43185
X-16.98742 Y34.44455
X-11.53629 Y36.62904
X-5.50056 Y38.00789
X0.53574 Y38.40018
X6.57004 Y37.83653
X12.56508 Y36.28847
X18.24534 Y33.79541
X23.14051 Y30.64833
X27.70847 Y26.59498
X31.394 Y22.12153
X34.41786 Y17.04105
X36.61195 Y11.59007
X38.00013 Y5.55421
X38.40102 Y-0.48232
X37.84569 Y-6.51747
X36.304 Y-12.51857
X33.79616 Y-18.24414
X30.65658 Y-23.13039
X26.642 Y-27.66218
X22.12153 Y-31.394
X17.04105 Y-34.41786
X11.59045 Y-36.61186
X5.56644 Y-37.99919
X-0.34043 Y-38.41096
X-5.40558 Y-38.01961
X-11.49776 Y-36.64197
X-17.15065 Y-34.36044
X-22.43937 Y-31.16438
X-27.17324 Y-27.13377
X-28.76383 Y-25.25226
X-26.29485 Y-23.16503
X-24.70588 Y-25.01844
X-20.3498 Y-28.67517
X-15.48882 Y-31.56744
X-10.30192 Y-33.61998
X-4.71014 Y-34.84488
X-0.11191 Y-35.169
X5.32156 Y-34.75843
X10.84048 Y-33.44957
X15.80709 Y-31.41122
X20.44119 Y-28.6121
X24.55672 Y-25.16938
X28.20991 Y-20.99116
X31.05036 Y-16.50544
X33.31865 Y-11.23398
X34.69244 Y-5.73037
X35.16273 Y-0.20662
X34.75879 Y5.31717
X33.44958 Y10.84048
X31.41122 Y15.8071
X28.6121 Y20.44119
X25.21357 Y24.51221
X20.99915 Y28.20351
X16.50606 Y31.04998
X11.27828 Y33.30407
X5.7789 Y34.68429
X0.25554 Y35.16228
X-5.26812 Y34.76621
X-10.79134 Y33.46557
X-15.75806 Y31.43604
X-20.39224 Y28.6472
X-24.50808 Y25.21709
X-28.16098 Y21.05712
X-31.00109 Y16.59867
X-33.20729 Y11.56434
X-34.63197 Y6.08483
X-35.15889 Y0.56264
X-34.8115 Y-4.96133
X-33.56265 Y-10.48499
X-31.48307 Y-15.66093
X-28.50361 Y-20.5887
X-26.29485 Y-23.16503
X-23.84147 Y-21.06167
X-25.73491 Y-18.88671
X-28.47645 Y-14.42693
X-30.39797 Y-9.74521
X-31.56948 Y-4.73369
X-31.92138 Y0.27798
X-31.48072 Y5.28979
X-30.22154 Y10.2807
X-28.24745 Y14.87242
G02 X-10.02335 Y30.30761 I28.24359 J-14.87073
G1 X-5.01206 Y31.52631
X-0.00055 Y31.92239
X5.01132 Y31.52623
X10.01256 Y30.31066
X14.78691 Y28.29189
X18.87503 Y25.74371
X22.73349 Y22.4118
G02 X30.29275 Y10.06786 I-22.74725 J-22.41666
G1 X31.51926 Y5.05652
X31.92248 Y0.04495
X31.53336 Y-4.96701
X30.32432 Y-9.97047
X28.29201 Y-14.78672
G02 X18.74124 Y-25.84215 I-28.3194 J14.81194
G1 X14.55083 Y-28.41384
X10.06786 Y-30.29275
X5.05652 Y-31.51926
X0.09249 Y-31.92543
X-4.03805 Y-31.66513
X-9.12856 Y-30.58918
X-13.8479 Y-28.76211
X-18.27932 Y-26.17005
X-22.25462 Y-22.88447
X-23.84147 Y-21.06167
X-21.48006 Y-19.00593
G03 X-22.98006 Y-17.16237 I21.47855 J19.00785
G1 X-21.48006 Y-19.00593
Z3.82846 F5000.
G0 Z4.19346
X-40.21806 Y-42.62121
G1 Z0.635 F1379.2
Z0. F4137.7
X-36.02706 Y-37.03321 F4137.7
X-37.22168 Y-35.77814 F5000.
X-37.72021 Y-35.11106
X-38.48583 Y-32.61106
X-38.48659 Y-29.45289
X-37.58432 Y-30.73423
X-32.27191 Y-36.2645
X-29.35168 Y-38.49929
X-23.78805 Y-38.4953
X-24.54096 Y-38.0884
X-29.9392 Y-34.00154
X-34.93503 Y-28.85173
X-38.48794 Y-23.85164
X-38.48958 Y-17.02555
X-35.92499 Y-21.89735
X-32.29447 Y-26.95702
X-27.61852 Y-31.72626
X-22.59378 Y-35.48628
X-16.96213 Y-38.49039
X-4.88646 Y-38.48172
X-10.1794 Y-37.47217
X-15.40334 Y-35.63848
X-20.66243 Y-32.87241
X-25.31095 Y-29.43767
X-29.6635 Y-25.04902
X-33.05485 Y-20.37263
X-35.51021 Y-15.75066
G02 X-38.49264 Y-4.28621 I34.02679 J14.97208
G1 X-38.49473 Y4.41063
Z0.635 F5000.
G0 Z1.
X-42.16524 Y40.73908
G1 Z0.635 F1379.2
Z0. F4137.7
X-36.72037 Y36.36374 F4137.7
X-36.07778 Y37.02984 F5000.
X-34.61106 Y37.96683
X-32.61106 Y38.48246
X-29.42346 Y38.48322
X-32.71063 Y35.88094
X-37.33225 Y31.04849
X-38.50074 Y29.41171
X-38.4994 Y23.82407
X-34.97299 Y28.81323
X-30.68365 Y33.3405
X-25.42205 Y37.53864
X-23.85708 Y38.48456
X-16.77726 Y38.48626
X-20.41429 Y36.78975
X-23.72756 Y34.76534
X-28.64649 Y30.80821
X-32.60237 Y26.59002
X-36.11705 Y21.56396
X-38.49771 Y16.80024
X-38.49473 Y4.41063
X-37.74347 Y9.11623
X-36.02991 Y14.46828
X-33.44365 Y19.71588
X-30.21931 Y24.38015
X-26.59869 Y28.28452
X-22.0187 Y32.00087
X-19.02332 Y33.85246
X-14.20967 Y36.13199
X-8.48974 Y37.88979
X-4.56425 Y38.4892
X4.35505 Y38.49134
Z0.635 F5000.
G0 Z1.
X39.37071 Y43.25683
G1 Z0.635 F1379.2
Z0. F4137.7
X35.89912 Y37.19562 F4137.7
X36.5551 Y36.62476 F5000.
X36.81058 Y36.38894
X37.95121 Y34.63894
X38.48246 Y32.63894
X38.47718 Y29.45601
X34.49684 Y34.15739
X29.46017 Y38.49738
X23.67579 Y38.49599
X26.57479 Y36.69359
X32.02675 Y32.04524
X36.67727 Y26.60659
X38.46768 Y23.72129
X38.45621 Y16.8039
X37.17672 Y19.69728
X33.92455 Y24.87887
X29.56778 Y29.92016
X24.48016 Y34.20864
X19.38579 Y37.33634
X16.71361 Y38.49431
X4.35505 Y38.49134
X7.44705 Y38.10476
G02 X22.40072 Y31.71095 I-7.46683 J-38.14674
G1 X27.12085 Y27.78122
X31.18141 Y23.13598
X34.2114 Y18.3671
X36.45756 Y13.35981
X37.93855 Y8.25265
X38.43613 Y4.68504
X38.42001 Y-5.04545
Z0.635 F5000.
G0 Z1.
X42.53914 Y-40.32654
G1 Z0.635 F1379.2
Z0. F4137.7
X37.13038 Y-35.90663 F4137.7
X35.99829 Y-37.04726 F5000.
X34.13894 Y-38.15771
X32.88894 Y-38.45458
X29.39286 Y-38.45709
X32.02487 Y-36.48649
X37.06616 Y-31.35784
X38.37939 Y-29.55425
X38.38856 Y-24.02326
X34.73667 Y-29.09157
X30.06367 Y-33.89492
X24.43645 Y-38.1534
X23.86381 Y-38.46106
X16.98203 Y-38.46601
X17.22568 Y-38.37832
X22.88258 Y-35.29892
X28.08823 Y-31.3142
X32.39465 Y-26.83825
X35.9429 Y-21.85811
X38.40003 Y-17.10025
X38.42001 Y-5.04545
X37.6551 Y-9.4392
X35.76308 Y-15.12361
X33.28528 Y-19.98741
X30.03918 Y-24.599
X26.0975 Y-28.74525
X21.31204 Y-32.4536
X16.1055 Y-35.32747
X10.75214 Y-37.29305
X4.77197 Y-38.47478
X6.92219 Y-38.04988 F5000.
X6.29564 Y-34.87919 F5000.
X3.70459 Y-35.40365
X0.8258 Y-35.57263
X-3.78179 Y-35.38389
X-9.12232 Y-34.39889
X-13.90859 Y-32.75261
X-18.7484 Y-30.24581
X-23.01777 Y-27.13468
X-27.04318 Y-23.1264
G02 X-33.47843 Y-12.07531 I27.07531 J23.16567
X-35.4786 Y2.68836 I33.52776 J12.05963
G1 X-34.642 Y8.14494
X-33.10616 Y13.04906
X-30.75956 Y17.88334
X-27.82249 Y22.18522
X-24.53975 Y25.76991
X-20.29427 Y29.24608
X-17.61366 Y30.92409
X-13.23683 Y33.03101
X-7.98102 Y34.67985
G02 X20.33794 Y29.19948 I7.97368 J-34.70436
G1 X24.68703 Y25.62739
X28.44879 Y21.37663
G02 X35.48976 Y2.5362 I-28.39072 J-21.34595
G1 X35.44143 Y-3.20593
X34.56524 Y-8.43161
X32.85842 Y-13.66572
G02 X24.09027 Y-26.18918 I-32.96663 J13.75001
G1 X19.72371 Y-29.61816
X14.96331 Y-32.28479
X10.10738 Y-34.10765
X6.29564 Y-34.87919
X5.65466 Y-31.71247
X9.44698 Y-30.92546
G03 X31.46876 Y-7.44454 I-9.41157 J30.89384
G1 X32.23258 Y-2.69039
X32.23977 Y2.54067
G03 X25.72783 Y19.59931 I-32.22192 J-2.52809
G1 X22.26757 Y23.45743
X18.29361 Y26.67298
G03 X-16.18338 Y28.00573 I-18.29542 J-26.67538
G1 X-18.55282 Y26.50202
G03 X-30.17315 Y11.64907 I18.66557 J-26.57527
G1 X-31.53382 Y7.19535
G03 X-29.48155 Y-13.32068 I31.65511 J-7.19412
G1 X-27.33275 Y-17.28923
X-24.4349 Y-21.18749
X-20.74046 Y-24.81597
G03 X3.49666 Y-32.16031 I20.75304 J24.82253
G1 X5.65466 Y-31.71247
X5.01994 Y-28.654
G02 X10.76994 Y-27.0285 I-4.99831 J28.66369
G1 X8.76994 Y-27.74676
X5.01994 Y-28.654
Z0.635 F5000.
G0 Z63.86927
(Radial Machining)
(Router Straight Flute 13mm Carbide Tipped)
Z52.96273
X28.50327 Y0.
G1 Z0.00187 F1379.2
X27.91254 Z4.41705 F5000.
X27.43329 Z7.231
X26.28437 Z12.72616
X24.81806 Z18.48915
X24.01191 Z21.24836
X22.71064 Z25.18223
X21.5998 Z28.06072
X20.99042 Z29.46067
X19.9621 Z31.59087
X18.12128 Z34.90891
X18.0705 Z34.99952
X16.29316 Z37.83334
X15.30292 Z39.27699
X13.71601 Z41.38291
X12.02594 Z43.32819
X11.16425 Z44.19267
X11.11347 Z44.23659
X9.74237 Z45.38816
X9.69159 Z45.42074
X9.00605 Z45.85196
X8.24433 Z46.19701
X7.86347 Z46.31486
X7.45722 Z46.4009
X6.64154 Z46.46273
X0.006
X0.00599 Y0.00025
X6.6399 Y0.27645 Z46.46261
X7.45169 Y0.31025 Z46.40073
