%
G17 G21 G40 G90 G64 P0.1
(2 1/2 Axis Profiling)
(SlotDrill 2mm Carbide)
T12 M06
S24000 M3
G0 Z1.
X-39.65574 Y-24.36848
G1 Z-2.5 F100.
G17
G02 X-46.94731 Y-25.63062 I-3.64578 J-0.63107 F450.
X-39.65574 Y-24.36848 I3.64579 J0.63107
G1 X-39.16307 Y-24.2832
G03 X-47.43998 Y-25.7159 I-4.13845 J-0.71635
X-39.16307 Y-24.2832 I4.13846 J0.71635
G0 Z1.
X-21.32765 Y-43.75019
G1 Z-2.5 F100.
G02 X-28.67286 Y-42.85145 I-3.6726 J0.44937 F450.
X-21.32765 Y-43.75019 I3.67261 J-0.44937
G1 X-20.83135 Y-43.81092
G03 X-29.16916 Y-42.79072 I-4.1689 J0.5101
X-20.83135 Y-43.81092 I4.16891 J-0.5101
G0 Z1.
X-12.84918 Y-48.06339
G1 Z-2.5 F100.
X-12.69389 Y-48.25931 F450.
X-12.78591 Y-48.49176
X-13.03323 Y-48.52829
X-13.18852 Y-48.33237
X-13.0965 Y-48.09992
X-12.84918 Y-48.06339
X-12.66513 Y-47.5985
G03 X-13.21728 Y-48.99318 I-0.27608 J-0.69734
X-12.66513 Y-47.5985 I0.27607 J0.69734
G0 Z1.
X0.24816 Y-46.3079
G1 Z-2.5 F100.
G02 X-0.24866 Y-53.6912 I-0.24841 J-3.69165 F450.
X0.24816 Y-46.3079 I0.24841 J3.69165
G1 X0.28173 Y-45.80903
G03 X-0.28223 Y-54.19007 I-0.28198 J-4.19052
X0.28173 Y-45.80903 I0.28198 J4.19052
G0 Z1.
X24.82814 Y-39.6048
G1 Z-2.5 F100.
G02 X25.17136 Y-46.99683 I0.17161 J-3.69602 F450.
X24.82814 Y-39.6048 I-0.17161 J3.69601
G1 X24.80495 Y-39.10534
G03 X25.19455 Y-47.4963 I0.1948 J-4.19548
X24.80495 Y-39.10534 I-0.1948 J4.19548
G0 Z1.
X43.75039 Y-21.32694
G1 Z-2.5 F100.
G02 X42.85165 Y-28.67216 I-0.44937 J-3.67261 F450.
X43.75039 Y-21.32694 I0.44937 J3.67261
G1 X43.81112 Y-20.83064
G03 X42.79092 Y-29.16846 I-0.5101 J-4.16891
X43.81112 Y-20.83064 I0.5101 J4.16891
G0 Z1.
X46.31471 Y0.33291
G1 Z-2.5 F100.
G02 X53.68478 Y-0.33201 I3.68503 J-0.33246 F450.
X46.31471 Y0.33291 I-3.68504 J0.33246
G1 X45.81674 Y0.37784
G03 X54.18275 Y-0.37694 I4.183 J-0.37739
X45.81674 Y0.37784 I-4.18301 J0.37739
G0 Z1.
X48.04835 Y12.97533
G1 Z-2.5 F100.
X48.20157 Y13.17287 F450.
X48.44926 Y13.13894
X48.54373 Y12.90748
X48.3905 Y12.70994
X48.14282 Y12.74386
X48.04835 Y12.97533
X47.55298 Y13.04317
G03 X49.0391 Y12.83963 I0.74306 J-0.10177
X47.55298 Y13.04317 I-0.74306 J0.10177
G0 Z1.
X39.60267 Y25.11088
G1 Z-2.5 F100.
G02 X46.99937 Y24.89003 I3.69835 J-0.11043 F450.
X39.60267 Y25.11088 I-3.69835 J0.11042
G1 X39.10289 Y25.1258
G03 X47.49915 Y24.8751 I4.19813 J-0.12535
X39.10289 Y25.1258 I-4.19813 J0.12535
G0 Z1.
X26.14101 Y39.78214
G1 Z-2.5 F100.
G02 X23.85848 Y46.82131 I-1.14126 J3.51958 F450.
X26.14101 Y39.78214 I1.14127 J-3.51959
G1 X26.29524 Y39.30652
G03 X23.70425 Y47.29693 I-1.29549 J3.9952
X26.29524 Y39.30652 I1.2955 J-3.99521
G0 Z1.
X2.61604 Y52.61675
G1 Z-2.5 F100.
G02 X-2.61655 Y47.38416 I-2.61629 J-2.6163 F450.
X2.61604 Y52.61675 I2.6163 J2.61629
G1 X2.96959 Y52.9703
G03 X-2.9701 Y47.0306 I-2.96984 J-2.96985
X2.96959 Y52.9703 I2.96985 J2.96985
G0 Z1.
X-24.82864 Y39.6057
G1 Z-2.5 F100.
G02 X-25.17186 Y46.99774 I-0.17161 J3.69602 F450.
X-24.82864 Y39.6057 I0.17161 J-3.69602
G1 X-24.80545 Y39.10624
G03 X-25.19505 Y47.4972 I-0.1948 J4.19548
X-24.80545 Y39.10624 I0.1948 J-4.19548
G0 Z1.
X-35.1066 Y35.37825
G1 Z-2.5 F100.
X-35.21164 Y35.15139 F450.
X-35.46063 Y35.12893
X-35.60458 Y35.33333
X-35.49954 Y35.56019
X-35.25055 Y35.58265
X-35.1066 Y35.37825
X-34.60863 Y35.42318
G03 X-36.10256 Y35.2884 I-0.74696 J-0.06739
X-34.60863 Y35.42318 I0.74697 J0.06739
G0 Z1.
X-42.14845 Y28.51619
G1 Z-2.5 F100.
G02 X-44.45459 Y21.48471 I-1.15307 J-3.51574 F450.
X-42.14845 Y28.51619 I1.15307 J3.51574
G1 X-41.99263 Y28.99129
G03 X-44.61041 Y21.00961 I-1.30889 J-3.99084
X-41.99263 Y28.99129 I1.30889 J3.99084
G0 Z1.
X-53.47313 Y1.27682
G1 Z-2.5 F100.
G02 X-46.52737 Y-1.27591 I3.47288 J-1.27637 F450.
X-53.47313 Y1.27682 I-3.47288 J1.27636
G1 X-53.94244 Y1.4493
G03 X-46.05807 Y-1.4484 I3.94219 J-1.44885
X-53.94244 Y1.4493 I-3.94218 J1.44885
G0 Z1.
(2 1/2 Axis Profiling-1)
(SlotDrill 2mm Carbide)
Z1.8
X22.87352 Y34.02649
G1 Z-1.7 F100.
G02 X-22.87352 Y-34.02649 I-22.87352 J-34.02649 F450.
X22.87352 Y34.02649 I22.87352 J34.02649
G1 X23.15247 Y34.44145
G03 X-23.15247 Y-34.44145 I-23.15247 J-34.44145
X23.15247 Y34.44145 I23.15247 J34.44145
G0 Z1.8
(2 1/2 Axis Profiling-2)
(SlotDrill 2mm Carbide)
X43.96945 Y39.34022
G1 Z-1.7 F100.
G03 X-36.41313 Y46.42136 I-43.96887 J-39.3412 F450.
X-48.68064 Y-33.33459 I36.41371 J-46.42234
X30.11439 Y-50.73706 I48.68122 J33.33361
X52.57887 Y26.7668 I-30.11381 J50.73608
X43.96945 Y39.34022 I-52.56425 J-26.75816
G1 X43.59684 Y39.00681
G02 X52.13329 Y26.53997 I-43.58222 J-38.99817
X43.59684 Y39.00681 I-52.13271 J-26.54095
G0 Z1.8
M30
%
