%
G17 G21 G40 G90 G64 P0.1
(Horizontal Roughing)
(1/4in 6.35mm 2 Flute Carbide Router)
T30 M06
S17544 M3
G0 Z49.63773
X37.12635 Y-1.49455
G1 Z49.63522 F1228.
Z49.00022 F3684.
X30.14135 Y-1.49862 F3684.
X30.15641 Y-27.37557 F4912.
X29.96891 Y-28.12557
X29.10954 Y-29.37557
X27.57829 Y-30.12557
X-27.57943
X-28.37557 Y-29.86068
X-29.37557 Y-29.11068
X-30.12557 Y-27.57943
X-30.11068 Y27.62443
X-29.5638 Y28.87443
X-28.12557 Y29.96891
X-27.37557 Y30.15641
X27.37443
G17
G02 X30.12443 Y27.57829 I-0.3858 J-3.16724
G1 X30.14135 Y-1.49862
X28.55385 Y-1.49954
X28.53708 Y27.33003
G03 X27.179 Y28.56891 I-1.60673 J-0.39749
G1 X-27.42392 Y28.50797
X-28.27455 Y27.86065
X-28.52327 Y27.29216
X-28.53797 Y-27.21173
G03 X-27.32226 Y-28.53807 I1.61307 J0.2582
G1 X27.21039
G03 X28.5688 Y-27.18059 I-0.29951 J1.65813
G1 X28.55385 Y-1.49954
X26.94665 Y-1.50048
X26.96503 Y-26.89056
X-26.89819 Y-26.95057
X-26.93588 Y26.88447
X26.92603 Y26.98113
X26.94665 Y-1.50048
X25.35915 Y-1.50162
X25.33968 Y25.39078
X-25.34727 Y25.29982
X-25.31181 Y-25.3613
X25.37638 Y-25.30482
X25.35915 Y-1.50162
X23.77165 Y-1.50277
X23.78773 Y-23.71909
X-23.72542 Y-23.77203
X-23.75866 Y23.71517
X23.75333 Y23.80043
X23.77165 Y-1.50277
X22.18415 Y-1.50392
X22.16699 Y22.21008
X-22.17005 Y22.13052
X-22.13903 Y-22.18276
X22.19908 Y-22.13336
X22.18415 Y-1.50392
X20.59665 Y-1.50507
X20.61043 Y-20.54763
X-20.55264 Y-20.5935
X-20.58144 Y20.54587
X20.58064 Y20.61973
X20.59665 Y-1.50507
X19.00915 Y-1.50622
X18.99429 Y19.02938
X-18.99283 Y18.96121
X-18.96625 Y-19.00423
X19.02179 Y-18.9619
X19.00915 Y-1.50622
X17.42165 Y-1.50737
X17.43314 Y-17.37617
X-17.37987 Y-17.41496
X-17.40422 Y17.37656
X17.40794 Y17.43903
X17.42165 Y-1.50737
X15.83415 Y-1.50852
X15.82159 Y15.84868
X-15.81561 Y15.79191
X-15.79348 Y-15.82569
X15.84449 Y-15.79044
X15.83415 Y-1.50852
X14.24665 Y-1.50967
X14.25584 Y-14.20471
X-14.20709 Y-14.23642
X-14.227 Y14.20726
X14.23524 Y14.25834
X14.24665 Y-1.50967
X12.65915 Y-1.51082
X12.64889 Y12.66799
X-12.63839 Y12.62261
X-12.6207 Y-12.64715
X12.66719 Y-12.61898
X12.65915 Y-1.51082
X11.07165 Y-1.51197
X11.07854 Y-11.03325
X-11.03432 Y-11.05788
X-11.04978 Y11.03796
X11.06254 Y11.07764
X11.07165 Y-1.51197
X9.48415 Y-1.51312
X9.47619 Y9.48729
X-9.46117 Y9.4533
X-9.44793 Y-9.46862
X9.4899 Y-9.44752
X9.48415 Y-1.51312
X7.89665 Y-1.51426
X7.90125 Y-7.86178
X-7.86154 Y-7.87935
X-7.87256 Y7.86865
X7.88984 Y7.89694
X7.89665 Y-1.51426
X6.30915 Y-1.51541
X6.30349 Y6.30659
X-6.28395 Y6.284
X-6.27515 Y-6.29008
X6.3126 Y-6.27605
X6.30915 Y-1.51541
X4.72165 Y-1.51656
X4.72395 Y-4.69032
X-4.68876 Y-4.70081
X-4.69534 Y4.69935
X4.71714 Y4.71624
X4.72165 Y-1.51656
X3.13416 Y-1.51771
X3.13079 Y3.12589
X-3.10673 Y3.1147
X-3.10238 Y-3.11154
X3.1353 Y-3.10459
X3.13416 Y-1.51771
X1.54666 Y-1.51886
X-1.51599 Y-1.52227
X-1.51812 Y1.53004
X1.54444 Y1.53554
X1.54666 Y-1.51886
Z49.63522 F5000.
G0 Z49.63773
X-27.45664 Y-37.11057
G1 Z46.57271 F1228.
Z45.93771 F3684.
Y-30.12557 F3684.
X-29.77905 Y-28.28782 F4912.
X-30.12557 Y-27.58034
X-30.125 Y-25.34514
X-29.0707 Y-26.92163
X-24.97092 Y-30.12557
X-22.44838
X-27.75663 Y-26.03091
X-30.12429 Y-22.53798
X-30.1236 Y-19.78495
X-26.44839 Y-25.13165
X-19.88565 Y-30.12557
X-17.27883
X-25.14628 Y-24.22354
X-30.12291 Y-17.08768
X-30.12218 Y-14.19558
X-29.98359 Y-14.64382
X-23.85064 Y-23.30623
X-15.30002 Y-29.62554
X-13.79757 Y-30.12557
X-8.86892
X-14.36609 Y-28.34182
X-22.56183 Y-22.37933
X-28.47042 Y-14.16373
X-30.12086 Y-8.96183
X-30.11633 Y8.90536
Z46.57271 F5000.
G0 Z49.63773
X-37.09663 Y27.4735
G1 Z46.57271 F1228.
Z45.93771 F3684.
X-30.11163 Y27.47173 F3684.
X-28.14456 Y29.95537 F4912.
X-28.12557 Y29.96983
X-27.37557 Y30.15733
X-25.30968
X-26.89733 Y29.09664
X-30.11226 Y24.9865
X-30.1129 Y22.46452
X-26.00725 Y27.78215
X-22.49955 Y30.15733
X-19.74357
X-25.10865 Y26.47346
X-30.11354 Y19.90242
X-30.11421 Y17.2963
X-24.20121 Y25.17087
X-17.04338 Y30.15733
X-14.08148
X-14.64944 Y29.98148
X-23.28459 Y23.87474
X-29.6175 Y15.31403
X-30.11509 Y13.82368
X-30.11633 Y8.90536
X-28.33422 Y14.37951
X-22.35841 Y22.58542
X-14.16878 Y28.46849
X-8.85284 Y30.15733
X8.78459
Z46.57271 F5000.
G0 Z49.63773
X29.13014 Y36.91837
G1 Z46.57271 F1228.
Z45.93771 F3684.
X27.43603 Y30.14193 F3684.
X29.93541 Y28.1699 F4912.
X30.12443 Y27.5792
X30.12576 Y25.35428
X29.07258 Y26.92653
X24.92635 Y30.15733
X22.39923
X27.75917 Y26.03484
X30.12744 Y22.54653
X30.12909 Y19.79275
X26.45157 Y25.13465
X19.83172 Y30.15733
X17.21993
X25.15009 Y24.22564
X30.13071 Y17.0946
X30.13248 Y14.13028
X29.95272 Y14.70713
X23.85506 Y23.30746
X15.25065 Y29.64792
X13.7189 Y30.15733
X8.78459
X14.31852 Y28.36289
X22.56686 Y22.37973
X28.44062 Y14.22368
X30.1356 Y8.9223
X30.14621 Y-8.81173
Z46.57271 F5000.
G0 Z49.63773
X36.91925 Y-29.12775
G1 Z46.57271 F1228.
Z45.93771 F3684.
X30.14281 Y-27.43364 F3684.
X28.30178 Y-29.77166 F4912.
X27.5792 Y-30.12557
X25.34155
X26.94978 Y-29.04738
X30.15586 Y-24.92451
X30.15435 Y-22.39677
X26.05755 Y-27.73434
X22.5385 Y-30.12557
X19.78939
X25.15681 Y-26.42712
X30.15281 Y-19.82854
X30.15124 Y-17.21589
X24.24722 Y-25.12604
X17.09585 Y-30.12557
X14.15311
X14.69886 Y-29.95584
X23.32844 Y-23.83143
X29.66794 Y-15.20945
X30.14917 Y-13.7557
X30.14621 Y-8.81173
X28.38192 Y-14.27869
X22.40009 Y-22.54368
X14.21625 Y-28.44348
X8.94506 Y-30.12557
Z46.57271 F5000.
G0 Z49.63773
X26.89628 Y-16.33137
G1 Z46.57271 F1228.
Z45.93771 F3684.
X25.62642 Y-15.4123 F4912.
X21.46174 Y-21.26318
X13.72195 Y-26.93489
X4.90138 Y-29.825
X-4.45349 Y-29.88938
X-13.44231 Y-27.05078
X-21.28028 Y-21.44243
X-26.96101 Y-13.67197
X-29.83303 Y-4.8567
X-29.88509 Y4.48758
X-27.04362 Y13.4551
X-21.42224 Y21.30334
X-13.67645 Y26.95926
X-4.8701 Y29.83196
X4.45979 Y29.89087
X13.39654 Y27.07057
X21.28589 Y21.44203
X26.9323 Y13.72857
X29.82338 Y4.92112
X29.89758 Y-4.41338
X27.0886 Y-13.3581
X25.62642 Y-15.4123
X24.3501 Y-14.50382
X25.78768 Y-12.44828
X28.37911 Y-3.95033
X28.23609 Y4.89546
X25.42806 Y13.22123
X20.01261 Y20.49391
X12.48528 Y25.77066
X3.99458 Y28.37306
X-4.84704 Y28.24463
X-13.17191 Y25.45408
X-20.47563 Y20.02894
X-25.74542 Y12.54142
X-28.36782 Y4.02062
X-28.24568 Y-4.83481
X-25.45565 Y-13.16795
X-20.00644 Y-20.49507
X-12.52926 Y-25.75213
X-3.98802 Y-28.37165
X4.87739 Y-28.23768
X13.2154 Y-25.43038
X20.51296 Y-19.99041
X24.3501 Y-14.50382
X23.06714 Y-13.60656
X19.55322 Y-18.72587
X12.69597 Y-23.93026
X4.83963 Y-26.65063
X-3.53585 Y-26.84991
X-11.62759 Y-24.44555
X-18.74083 Y-19.53675
X-23.95465 Y-12.65106
X-26.65858 Y-4.79915
X-26.84652 Y3.56694
X-24.43929 Y11.6391
X-19.51808 Y18.76275
X-12.6545 Y23.95326
X-4.81024 Y26.65756
X3.54266 Y26.85124
X11.58542 Y24.46283
X18.74754 Y19.53487
X23.9282 Y12.70104
X26.64908 Y4.85604
X26.85665 Y-3.50059
X24.47885 Y-11.54989
X23.06714 Y-13.60656
X21.77732 Y-12.72121
X23.16174 Y-10.66367
X25.33009 Y-3.06497
X25.0625 Y4.80207
X22.43312 Y12.1673
X17.49125 Y18.56436
X10.69769 Y23.14674
X3.10483 Y25.32531
X-4.7589 Y25.07089
X-12.12354 Y22.45718
X-18.54903 Y17.50532
X-23.12487 Y10.7489
X-25.3211 Y3.12737
X-25.07187 Y-4.74895
X-22.4584 Y-12.1206
X-17.48402 Y-18.56692
X-10.73806 Y-23.13068
X-3.09781 Y-25.32404
X4.78731 Y-25.064
X12.16295 Y-22.43492
X18.58198 Y-17.47014
X21.77732 Y-12.72121
X20.4804 Y-11.84858
X17.59862 Y-16.22388
X11.61556 Y-20.94478
X4.71953 Y-23.47794
X-2.6748 Y-23.79394
X-9.86149 Y-21.80713
X-16.23666 Y-17.58495
X-20.96732 Y-11.57578
X-23.48573 Y-4.6833
X-23.79142 Y2.70283
X-21.80177 Y9.87165
X-17.56788 Y16.25733
X-11.57826 Y20.96627
X-4.69215 Y23.48479
X2.68202 Y23.79515
X9.82293 Y21.822
X16.24439 Y17.58176
X20.94323 Y11.61923
X23.47652 Y4.73268
X23.79931 Y-2.6444
X21.83598 Y-9.79046
X20.4804 Y-11.84858
X19.17616 Y-10.98955
X20.50112 Y-8.93121
X22.26421 Y-2.23992
X21.89134 Y4.64685
X19.45902 Y11.05595
X15.00771 Y16.58639
X8.96209 Y20.48816
X2.27527 Y22.26065
X-4.60898 Y21.89947
X-11.01777 Y19.48101
X-16.57392 Y15.0195
X-20.46956 Y9.0083
X-22.25737 Y2.29434
X-21.90035 Y-4.60122
X-19.48189 Y-11.01573
X-14.99951 Y-16.59016
X-8.99884 Y-20.47447
X-2.26787 Y-22.25948
X4.63529 Y-21.89268
X11.05294 Y-19.46032
X16.60246 Y-14.98783
X19.17616 Y-10.98955
X17.86435 Y-10.14513
X15.59272 Y-13.76285
X10.47408 Y-17.98212
X4.53347 Y-20.30845
X-1.87821 Y-20.72054
X-8.1512 Y-19.13221
X-13.77342 Y-15.58176
X-18.00268 Y-10.43945
X-20.31598 Y-4.50156
X-20.71884 Y1.9031
X-19.12776 Y8.15993
X-15.56639 Y13.79271
X-10.44109 Y18.00196
X-4.50825 Y20.31517
X1.88576 Y20.72167
X8.11626 Y19.14476
X13.78206 Y15.57746
X17.98106 Y10.47649
X20.30721 Y4.54346
X20.72465 Y-1.85271
X19.15669 Y-8.08701
X17.86435 Y-10.14513
X16.54472 Y-9.31651
X17.80214 Y-7.25914
X19.18053 Y-1.48415
X18.72442 Y4.42121
X16.51 Y9.8797
X12.56843 Y14.5541
X7.2867 Y17.79126
X1.51487 Y19.17811
X-4.38868 Y18.73218
X-9.84708 Y16.52978
X-14.5444 Y12.57793
X-17.77582 Y7.32782
X-19.17569 Y1.53048
X-18.73291 Y-4.38303
X-16.53035 Y-9.84582
X-12.55938 Y-14.55889
X-7.31983 Y-17.77981
X-1.50719 Y-19.17701
X4.41276 Y-18.72554
X9.87785 Y-16.51084
X14.56851 Y-12.54994
X16.54472 Y-9.31651
X15.217 Y-8.50504
X13.52882 Y-11.35027
X9.26294 Y-15.04727
X4.27165 Y-17.14433
X-1.1564 Y-17.62875
X-6.50623 Y-16.41665
X-11.35858 Y-13.52051
X-15.06569 Y-9.23352
X-17.15151 Y-4.24412
X-17.6278 Y1.17808
X-16.41313 Y6.51343
X-13.50693 Y11.37634
X-9.23444 Y15.06525
X-4.24876 Y17.15086
X1.16421 Y17.62982
X6.47489 Y16.42702
X11.368 Y13.5153
X15.04664 Y9.2643
X17.14334 Y4.27861
X17.63171 Y-1.13586
X16.43688 Y-6.44908
X15.217 Y-8.50504
X13.88095 Y-7.71231
X15.06018 Y-5.65859
X16.07807 Y-0.80971
X15.56441 Y4.11388
X13.59191 Y8.62874
X10.18215 Y12.45987
X5.68259 Y15.05137
X0.83566 Y16.07669
X-4.08673 Y15.57165
X-8.60165 Y13.60932
X-12.45282 Y10.18932
X-15.03897 Y5.71854
X-16.07504 Y0.84779
X-15.5722 Y-4.08306
X-13.60963 Y-8.60102
X-10.1724 Y-12.46546
X-5.71215 Y-15.04202
X-0.82774 Y-16.07564
X4.10837 Y-15.56525
X8.62782 Y-13.59236
X12.47249 Y-10.16523
X13.88095 Y-7.71231
X12.53632 Y-6.94022
X11.39813 Y-8.99652
X7.97068 Y-12.14725
X3.92083 Y-13.98886
X-0.52346 Y-14.51758
X-4.93972 Y-13.65512
X-9.00252 Y-11.39236
X-12.16333 Y-7.94651
X-13.99555 Y-3.89778
X-14.51729 Y0.54187
X-13.65254 Y4.94527
X-11.38067 Y9.01857
X-7.9469 Y12.16314
X-3.90052 Y13.99511
X0.5315 Y14.5186
X4.91192 Y13.66349
X9.01256 Y11.38646
X12.14697 Y7.97124
X13.98819 Y3.92496
X14.51951 Y-0.508
X13.67126 Y-4.8898
X12.53632 Y-6.94022
X11.1829 Y-6.19109
X12.26915 Y-4.14532
X12.95592 Y-0.23349
X12.4154 Y3.70935
X10.71326 Y7.28961
X7.86131 Y10.2934
X4.16547 Y12.26243
X0.25451 Y12.95545
X-3.68762 Y12.42195
X-7.26801 Y10.72812
X-10.28885 Y7.86615
X-12.25287 Y4.19622
X-12.95446 Y0.26309
X-12.42227 Y-3.68574
X-10.72823 Y-7.26781
X-7.85103 Y-10.29956
X-4.19156 Y-12.25497
X-0.24632 Y-12.95446
X3.70652 Y-12.4159
X7.28933 Y-10.7134
X10.3041 Y-7.84619
X11.1829 Y-6.19109
X9.8206 Y-5.46775
X9.18841 Y-6.71685
X6.58111 Y-9.29264
X3.46234 Y-10.84729
X0.00025 Y-11.38622
X-3.47097 Y-10.84044
X-6.72051 Y-9.18507
X-9.30614 Y-6.56225
X-10.8533 Y-3.44388
X-11.38648 Y0.01489
X-10.83882 Y3.47467
X-9.17536 Y6.73465
X-6.56232 Y9.30609
X-3.44497 Y10.8531
X0.00816 Y11.38718
X3.44653 Y10.84705
X6.73099 Y9.17871
X9.29259 Y6.5812
X10.84698 Y3.46399
X11.38726 Y0.01034
X10.85273 Y-3.42845
X9.8206 Y-5.46775
X8.44947 Y-4.77379
X9.42062 Y-2.74344
X9.81354 Y0.21907
X9.28417 Y3.18506
X7.88737 Y5.84261
X5.62496 Y8.03991
X2.75933 Y9.416
X-0.20312 Y9.81381
X-3.16876 Y9.28982
X-5.82644 Y7.89945
X-8.03772 Y5.62743
X-9.409 Y2.78491
X-9.81337 Y-0.19834
X-9.2899 Y-3.16833
X-7.89947 Y-5.82643
X-5.61433 Y-8.04642
X-2.78224 Y-9.41012
X0.2119 Y-9.81289
X3.18441 Y-9.28431
X5.84261 Y-7.88737
X8.04861 Y-5.61186
X8.44947 Y-4.77379
X7.06992 Y-4.11393
X6.88155 Y-4.5357
X5.06941 Y-6.50089
G02 X-2.13119 Y-7.96226 I-5.06761 J6.49918
G1 X-4.53695 Y-6.88048
X-6.5115 Y-5.05592
G02 X-7.96167 Y2.13268 I6.50919 J5.05369
G1 X-6.87279 Y4.54896
X-5.05592 Y6.51149
G02 X2.10959 Y7.96756 I5.05321 J-6.50826
G1 X4.54771 Y6.87386
X6.50089 Y5.06941
G02 X7.97112 Y-2.09607 I-6.49768 J-5.06678
G1 X7.06992 Y-4.11393
X5.68313 Y-3.49457
G03 X5.00543 Y-4.41052 I-5.68228 J3.49557
G1 X5.68313 Y-3.49457
Z46.57271 F5000.
G0 Z49.63773
X-30.09037 Y-36.65421
G1 Z43.51019 F1228.
Z42.87519 F3684.
X-27.92221 Y-30.01424 F3684.
X-29.83759 Y-28.16921 F4912.
X-30.12557 Y-27.58125
X-30.12514 Y-25.75535
X-25.54123 Y-30.12557
X-23.25159
X-29.7576 Y-23.98907
X-30.12458 Y-23.38246
X-30.12386 Y-20.35179
X-28.40386 Y-23.15989
X-21.14404 Y-29.93122
X-20.76966 Y-30.12557
X-17.40726
X-20.06802 Y-28.76402
X-27.05491 Y-22.32294
X-30.12315 Y-17.37769
X-30.12246 Y-14.46215
X-25.711 Y-21.47791
X-18.99913 Y-27.5903
X-13.96892 Y-30.12557
X-10.44612
X-17.93775 Y-26.40978
X-24.37245 Y-20.62443
X-28.98588 Y-13.38889
X-30.12134 Y-9.71433
X-30.11918 Y-0.5879
X-29.93628 Y-5.1159
X-27.47222 Y-12.91038
X-23.03955 Y-19.76213
X-16.88429 Y-25.22219
X-9.47932 Y-28.83309
X-3.18459 Y-30.12557
X1.1296
Z43.51019 F5000.
G0 Z49.63773
X-36.27716 Y30.96061
G1 Z43.51019 F1228.
Z42.87519 F3684.
X-29.8778 Y28.1609 F3684.
X-28.08055 Y29.98199 F4912.
X-27.37557 Y30.15824
X-25.73813
X-30.11296 Y25.68048
X-30.1135 Y23.41478
X-23.95014 Y29.78959
X-23.33926 Y30.15824
X-20.302
X-23.12244 Y28.43494
X-29.56448 Y21.69877
X-30.11414 Y20.69376
X-30.11491 Y17.45032
X-28.41095 Y20.60812
X-22.28699 Y27.08506
X-17.3215 Y30.15824
X-14.39975
X-21.44346 Y25.74021
X-27.25096 Y19.52433
X-30.11569 Y14.13953
X-30.11658 Y10.41056
X-29.97793 Y11.01855
X-26.08425 Y18.4478
X-20.5915 Y24.40069
X-13.35363 Y29.00408
X-9.60774 Y30.15824
X0.37896
X-5.11591 Y29.93628
X-12.87636 Y27.49002
X-19.73073 Y23.06681
X-24.91051 Y17.37892
X-28.5671 Y10.29074
X-30.11826 Y3.28096
Z43.51019 F5000.
G0 Z49.63773
X29.74245 Y36.76621
G1 Z43.51019 F1228.
Z42.87519 F3684.
X28.04834 Y29.98976 F3684.
X29.9554 Y28.10833 F4912.
X30.12443 Y27.58011
X30.12554 Y25.77199
X25.63457 Y30.15824
X23.36856
X29.78547 Y23.95619
X30.12701 Y23.39074
X30.12888 Y20.35171
X28.43113 Y23.12799
X21.69721 Y29.56585
X20.61397 Y30.15824
X17.37052
X20.60673 Y28.41216
X27.08156 Y22.29204
X30.13071 Y17.36941
X30.13251 Y14.44581
X25.73702 Y21.44803
X19.52311 Y27.25202
X14.05977 Y30.15824
X10.22813
X11.01828 Y29.97805
X18.44674 Y26.08515
X24.39779 Y20.5956
X28.99932 Y13.36625
X30.13544 Y9.68761
X30.14135 Y0.07069
X29.9303 Y5.15019
X27.48557 Y12.88798
X23.0642 Y19.73438
X17.37801 Y24.91128
X10.29053 Y28.5672
X3.10033 Y30.15824
Z43.51019 F5000.
G0 Z49.63773
X36.76662 Y-29.74193
G1 Z43.51019 F1228.
Z42.87519 F3684.
X29.99018 Y-28.04782 F3684.
X28.28802 Y-29.77884 F4912.
X27.58011 Y-30.12557
X25.78211
X30.15716 Y-25.63155
X30.15577 Y-23.36356
X24.00675 Y-29.74589
X23.38152 Y-30.12557
X20.35762
X23.17542 Y-28.39347
X29.59597 Y-21.65658
X30.15409 Y-20.63283
X30.15209 Y-17.38589
X28.44061 Y-20.56787
X22.33646 Y-27.04577
X17.38911 Y-30.12557
X14.47798
X21.48954 Y-25.70305
X27.27882 Y-19.48602
X30.15005 Y-14.07158
X30.14773 Y-10.29308
X29.99143 Y-10.98226
X26.11035 Y-18.41139
X20.63433 Y-24.3656
X13.43428 Y-28.96958
X9.74574 Y-30.12557
X1.1296
X5.26368 Y-29.92
X12.94998 Y-27.45776
X19.77043 Y-23.03375
X24.9349 Y-17.34439
X28.57964 Y-10.25631
X30.14334 Y-3.15
Z43.51019 F5000.
G0 Z49.63773
X-12.1 Y-27.55516
G1 Z43.51019 F1228.
Z42.87519 F3684.
X-11.41324 Y-26.14679 F4912.
X-15.83922 Y-24.0272
X-21.71269 Y-18.89059
X-25.96185 Y-12.42154
X-28.35054 Y-5.04113
X-28.6989 Y2.34776
X-27.15134 Y9.57256
X-23.72945 Y16.31814
X-18.86073 Y21.73893
X-12.3888 Y25.97925
X-5.04114 Y28.35054
X2.34774 Y28.69891
X9.57239 Y27.15142
X16.31737 Y23.7301
X21.73662 Y18.86394
X25.97512 Y12.39943
X28.34465 Y5.0736
X28.70155 Y-2.31535
X27.16294 Y-9.53998
X23.75218 Y-16.28547
X18.89744 Y-21.70784
X12.45567 Y-25.94918
X5.1744 Y-28.33501
X-2.03481 Y-28.74107
X-8.79365 Y-27.4013
X-11.41324 Y-26.14679
X-10.73692 Y-24.73454
X-8.11869 Y-25.96444
X-1.73735 Y-27.18169
X5.07415 Y-26.75068
X11.95083 Y-24.44409
X18.01488 Y-20.38827
X22.56181 Y-15.23514
X25.74115 Y-8.83382
X27.14655 Y-1.99576
X26.75959 Y4.98574
X24.46821 Y11.90004
X20.41543 Y17.98381
X15.26533 Y22.54124
X8.86442 Y25.73052
X2.02633 Y27.14428
X-4.95511 Y26.76537
X-11.89039 Y24.47202
X-17.98102 Y20.41747
X-22.54072 Y15.26597
X-25.73046 Y8.86455
X-27.14428 Y2.02634
X-26.76538 Y-4.9551
X-24.45505 Y-11.92185
X-20.39226 Y-18.00933
X-14.80306 Y-22.82448
X-10.73692 Y-24.73454
X-10.07165 Y-23.31832
X-13.7764 Y-21.61365
X-19.07871 Y-17.11784
X-22.95209 Y-11.41071
X-25.1809 Y-4.85715
X-25.58728 Y1.71665
X-24.30426 Y8.16734
X-21.34393 Y14.22297
X-17.0911 Y19.10286
X-11.38054 Y22.96862
X-4.85716 Y25.1809
X1.71665 Y25.58728
X8.16725 Y24.3043
X14.22245 Y21.34435
X19.10109 Y17.09349
X22.96514 Y11.38923
X25.17522 Y4.88598
X25.58919 Y-1.6879
X24.31405 Y-8.13845
X21.36344 Y-14.19396
X17.12223 Y-19.07551
X11.43488 Y-22.94277
X4.96232 Y-25.16712
X-1.45179 Y-25.62008
X-7.4551 Y-24.52228
X-10.07165 Y-23.31832
X-9.41815 Y-21.89807
X-6.80365 Y-23.07461
X-1.17887 Y-24.05622
X4.83825 Y-23.58448
X10.9072 Y-21.44554
X16.21893 Y-17.77007
X20.15662 Y-13.16258
X22.88141 Y-7.45456
X24.02941 Y-1.39252
X23.59171 Y4.77357
X21.46623 Y10.86633
X17.79413 Y16.19238
X13.18937 Y20.13899
X7.48155 Y22.87253
X1.41945 Y24.02785
X-4.74657 Y23.59725
X-10.85859 Y21.46938
X-16.19038 Y17.79562
X-20.13866 Y13.18977
X-22.8725 Y7.48162
X-24.02785 Y1.41945
X-23.59726 Y-4.74656
X-21.4533 Y-10.88744
X-17.77257 Y-16.21554
X-12.75989 Y-20.39428
X-9.41815 Y-21.89807
X-8.77719 Y-20.47372
X-11.75429 Y-19.1659
X-16.47442 Y-15.30177
X-19.95908 Y-10.3513
X-22.01461 Y-4.62251
X-22.46594 Y1.13557
X-21.43493 Y6.80817
X-18.92444 Y12.16712
X-15.27821 Y16.49635
X-10.32377 Y19.97468
X-4.62252 Y22.01461
X1.13557 Y22.46594
X6.80812 Y21.43494
X12.16681 Y18.92468
X16.49511 Y15.27985
X19.97186 Y10.33059
X22.00921 Y4.64771
X22.46717 Y-1.11045
X21.44298 Y-6.78294
X18.94089 Y-12.14173
X15.3043 Y-16.47253
X10.36705 Y-19.95276
X4.70117 Y-22.00291
X-0.91946 Y-22.49006
X-6.16516 Y-21.62117
X-8.77719 Y-20.47372
X-8.14965 Y-19.04521
X-5.54061 Y-20.16168
X-0.67452 Y-20.92157
X4.55025 Y-20.4226
X9.81361 Y-18.46485
X14.37761 Y-15.18357
X17.7157 Y-11.13224
X19.99849 Y-6.12446
X20.90242 Y-0.84266
X20.42791 Y4.50746
X18.48247 Y9.78116
X15.20472 Y14.35516
X11.15561 Y17.7009
X6.14784 Y19.99127
X0.86597 Y20.9015
X-4.48408 Y20.43316
X-9.77526 Y18.48495
X-14.35385 Y15.20573
X-17.70074 Y11.15583
X-19.99126 Y6.14787
X-20.9015 Y0.86597
X-20.43316 Y-4.48407
X-18.46985 Y-9.80144
X-15.18496 Y-14.37579
X-10.76044 Y-17.92799
X-8.14965 Y-19.04521
X-7.53656 Y-17.6125
X-9.77934 Y-16.67995
X-13.90497 Y-13.43676
X-16.98613 Y-9.23688
X-18.85314 Y-4.33018
X-19.33448 Y0.61176
X-18.5412 Y5.50174
X-16.46693 Y10.15689
X-13.41646 Y13.92453
X-9.21207 Y17.00071
X-4.33018 Y18.85313
X0.61176 Y19.33448
X5.50172 Y18.54121
X10.15674 Y16.46704
X13.92376 Y13.41745
X16.99857 Y9.21707
X18.84807 Y4.35176
X19.33512 Y-0.59025
X18.54762 Y-5.48016
X16.48045 Y-10.13508
X13.438 Y-13.90401
X9.24594 Y-16.98232
X4.38453 Y-18.84377
X-0.4452 Y-19.35072
X-4.93111 Y-18.69585
X-7.53656 Y-17.6125
X-6.93909 Y-16.17558
X-4.33797 Y-17.22332
X-0.23283 Y-17.77749
X4.20292 Y-17.26669
X8.66294 Y-15.50574
X12.48447 Y-12.63478
X15.23443 Y-9.15141
X17.09003 Y-4.85119
X17.76522 Y-0.35452
X17.26996 Y4.17937
X15.52076 Y8.6372
X12.65315 Y12.46576
X9.17133 Y15.22241
X4.87095 Y17.0844
X0.37424 Y17.76485
X-4.15959 Y17.27482
X-8.63308 Y15.52256
X-12.46505 Y12.65372
X-15.22234 Y9.17142
X-17.0844 Y4.87096
X-17.76485 Y0.37424
X-17.27483 Y-4.15959
X-15.50852 Y-8.6565
X-12.63541 Y-12.48368
X-8.81216 Y-15.42109
X-6.93909 Y-16.17558
X-6.3586 Y-14.73447
X-7.86026 Y-14.15064
X-11.37739 Y-11.5154
X-14.03776 Y-8.05899
X-15.69859 Y-3.97086
X-16.19257 Y0.15495
X-15.62047 Y4.2569
X-13.96615 Y8.20077
X-11.49848 Y11.3944
X-8.03698 Y14.05123
X-3.97087 Y15.69858
X0.15495 Y16.19257
X4.25689 Y15.62047
X8.20073 Y13.96618
X11.39402 Y11.49894
X14.04978 Y8.04024
X15.69393 Y3.98885
X16.19269 Y-0.13702
X15.62534 Y-4.23894
X13.97685 Y-8.18258
X11.51587 Y-11.37702
X8.06333 Y-14.03584
X4.00418 Y-15.69168
X-0.03897 Y-16.20187
X-3.76272 Y-15.74371
X-6.3586 Y-14.73447
X-5.79672 Y-13.28926
X-3.2072 Y-14.25658
X0.13447 Y-14.62387
X3.78687 Y-14.11913
X7.44554 Y-12.57348
X10.53078 Y-10.13212
X12.70676 Y-7.23021
X14.15314 Y-3.645
X14.61751 Y0.06038
X14.12043 Y3.77849
X12.5865 Y7.42464
X10.14773 Y10.51562
X7.24657 Y12.69743
X3.66116 Y14.14899
X-0.04423 Y14.61762
X-3.76229 Y14.12484
X-7.42222 Y12.58759
X-10.51537 Y10.14794
X-12.69742 Y7.24658
X-14.14899 Y3.66116
X-14.61762 Y-0.04424
X-14.12485 Y-3.76229
X-12.57472 Y-7.44281
X-10.13232 Y-10.53054
X-6.9253 Y-12.86768
X-5.79672 Y-13.28926
X-5.2554 Y-11.84014
X-6.00927 Y-11.57113
X-8.9019 Y-9.52744
X-11.12051 Y-6.80607
X-12.55417 Y-3.53181
X-13.03999 Y-0.22101
X-12.66947 Y3.08569
X-11.41502 Y6.31085
X-9.51406 Y8.91606
X-6.78693 Y11.13275
X-3.53181 Y12.55416
X-0.22101 Y13.03999
X3.08569 Y12.66947
X6.31084 Y11.41502
X8.91598 Y9.51416
X11.13201 Y6.78853
X12.55001 Y3.54623
X13.03968 Y0.23539
X12.67292 Y-3.07132
X11.42302 Y-6.2963
X9.52752 Y-8.90183
X6.80766 Y-11.11977
X3.5493 Y-12.54951
X0.28514 Y-13.04354
X-2.67366 Y-12.76143
X-5.2554 Y-11.84014
X-4.73702 Y-10.38747
X-2.16491 Y-11.25766
X0.41009 Y-11.46096
X3.28956 Y-10.9834
X6.14728 Y-9.67614
X8.50399 Y-7.68834
X10.12429 Y-5.38336
X11.18415 Y-2.52022
X11.45926 Y0.38505
X10.9834 Y3.28956
X9.68772 Y6.12962
X7.70092 Y8.49249
X5.39606 Y10.11759
X2.53282 Y11.18135
X-0.37243 Y11.45973
X-3.27693 Y10.98726
X-6.12882 Y9.68809
X-8.49248 Y7.70093
X-10.1176 Y5.39606
X-11.18135 Y2.53282
X-11.45973 Y-0.37243
X-10.98726 Y-3.27693
X-9.67652 Y-6.1465
X-7.68834 Y-8.50399
X-5.11465 Y-10.25971
X-4.73702 Y-10.38747
X-4.24457 Y-8.93189
G02 X-2.99457 Y-9.42507 I4.24614 J8.93126
G1 X-4.24457 Y-8.93189
Z43.51019 F5000.
G0 Z49.63773
X-27.3101 Y-37.11057
G1 Z40.44768 F1228.
Z39.81268 F3684.
Y-30.12557 F3684.
X-30.12544 Y-26.97915 F4912.
X-30.12492 Y-24.64337
X-25.78874 Y-29.44513
X-24.79622 Y-30.12557
X-22.03682
X-24.61562 Y-28.37558
X-30.12441 Y-22.33333
X-30.12375 Y-19.32987
X-29.09356 Y-21.16906
X-23.44781 Y-27.30023
X-19.23969 Y-30.12557
X-16.40138
X-22.28558 Y-26.21886
X-27.7126 Y-20.38606
X-30.12305 Y-16.13479
X-30.12236 Y-13.00141
X-26.33592 Y-19.59555
X-21.12921 Y-25.13121
X-14.66709 Y-29.37152
X-12.56653 Y-30.12557
X-7.88662
X-13.80369 Y-28.03934
X-19.97904 Y-24.03702
X-24.96376 Y-18.7972
X-28.72162 Y-12.3384
X-30.12118 Y-7.6311
X-30.11781 Y7.65593
Z40.44768 F5000.
G0 Z49.63773
X-37.09855 Y27.00005
G1 Z40.44768 F1228.
Z39.81268 F3684.
X-30.11355 Y26.99851 F3684.
X-27.85475 Y29.69357 F4912.
X-27.223 Y30.15915
X-24.56982
X-26.90705 Y28.41998
X-30.11409 Y24.55746
X-30.11463 Y22.08975
X-25.95326 Y27.15096
X-21.95087 Y30.15915
X-19.36747
X-24.99312 Y25.88672
X-30.11518 Y19.59313
X-30.11592 Y16.23383
X-29.16938 Y18.24034
X-24.0264 Y24.62751
X-17.58466 Y29.57294
X-16.26447 Y30.15915
X-12.41979
X-16.93244 Y28.12561
X-23.05283 Y23.37359
X-27.92748 Y17.25149
X-30.11673 Y12.5441
X-30.11781 Y7.65593
X-29.75346 Y9.56072
X-26.67993 Y16.26976
X-22.07211 Y22.12526
X-16.27191 Y26.68206
X-9.56428 Y29.75132
X-7.45977 Y30.15915
X7.42454
Z40.44768 F5000.
G0 Z49.63773
X27.01733 Y37.14415
G1 Z40.44768 F1228.
Z39.81268 F3684.
Y30.15915 F3684.
X30.12479 Y27.00569 F4912.
X30.12619 Y24.79735
X24.79364 Y30.15915
X22.19064
X23.12449 Y29.58625
X29.56982 Y23.16743
X30.1278 Y22.25252
X30.1297 Y19.23542
X28.21863 Y22.33409
X22.00991 Y28.45583
X19.20213 Y30.15915
X16.16515
X20.90123 Y27.31962
X26.87179 Y21.49374
X30.13158 Y16.26929
X30.13386 Y12.65295
X29.6145 Y14.17775
X25.52955 Y20.64607
X19.79875 Y26.17738
X13.32748 Y30.00955
X12.83569 Y30.15915
X7.42454
X12.52639 Y28.639
X18.70281 Y25.02887
X24.19216 Y19.79077
X28.11477 Y13.6572
X30.13691 Y7.8313
X30.14707 Y-8.24957
Z40.44768 F5000.
G0 Z49.63773
X37.144 Y-27.14149
G1 Z40.44768 F1228.
Z39.81268 F3684.
X30.159 Y-27.1459 F3684.
X29.34821 Y-28.21534 F4912.
X27.0158 Y-30.12557
X24.54578
X28.33676 Y-26.99178
X30.15738 Y-24.56725
X30.15573 Y-21.95804
X27.31949 Y-25.77304
X22.10489 Y-30.12557
X19.63393
X19.78281 Y-30.05104
X26.2962 Y-24.55936
X30.15406 Y-19.31563
X30.15227 Y-16.49022
X30.009 Y-16.83399
X25.26661 Y-23.351
X19.06511 Y-28.63504
X16.12435 Y-30.12557
X12.68606
X18.34005 Y-27.22279
X24.23047 Y-22.14827
X28.72031 Y-15.90694
X30.1497 Y-12.42415
X30.14707 Y-8.24957
X27.42633 Y-14.98729
X23.18748 Y-20.95147
X17.60729 Y-25.81452
X10.96928 Y-29.26847
X7.56692 Y-30.12557
Z40.44768 F5000.
G0 Z49.63773
X37.12467 Y3.45372
G1 Z40.44768 F1228.
Z39.81268 F3684.
X30.13968 Y3.4493 F3684.
X29.24272 Y3.44874 F4912.
X29.66485 Y-0.60192
X28.67275 Y-7.66093
X26.12683 Y-14.07543
X22.13732 Y-19.76096
X16.86642 Y-24.4105
X10.57351 Y-27.7311
X3.97559 Y-29.42961
X-2.33316 Y-29.65316
X-6.32395 Y-28.99328
X-12.94822 Y-26.70206
X-18.83539 Y-22.936
X-23.59641 Y-17.99067
X-27.20272 Y-11.87675
X-29.16829 Y-5.40979
X-29.61172 Y1.85214
X-28.30624 Y8.90824
X-25.4265 Y15.29556
X-21.08391 Y20.88283
X-15.60265 Y25.24253
X-9.25274 Y28.19469
X-2.36301 Y29.5736
X4.84351 Y29.27175
X11.73353 Y27.26367
X17.61377 Y23.87382
X22.85991 Y18.92748
X26.61825 Y13.12752
X28.90835 Y6.65725
X29.24272 Y3.44874
X27.68434 Y3.28633
X27.33049 Y6.48257
X25.12516 Y12.58822
X21.53312 Y18.05582
X16.53203 Y22.71193
X10.94939 Y25.88335
X4.40894 Y27.74489
X-2.41929 Y27.9871
X-8.93117 Y26.6401
X-14.92423 Y23.80729
X-20.08787 Y19.64668
X-24.16693 Y14.32932
X-26.85492 Y8.26495
X-28.04891 Y1.57329
X-27.5844 Y-5.30279
X-25.68682 Y-11.40538
X-22.23416 Y-17.17554
X-17.69868 Y-21.82783
X-12.10114 Y-25.35944
X-5.81446 Y-27.48976
X-2.08289 Y-28.08551
X3.91152 Y-27.8434
X10.16934 Y-26.19591
X16.11702 Y-23.01101
X21.07962 Y-18.57714
X24.82158 Y-13.17184
X27.19358 Y-7.08455
X28.09145 Y-0.39087
X27.68434 Y3.28633
X26.12814 Y3.11405
X26.51667 Y-0.19027
X25.71063 Y-6.51797
X23.51031 Y-12.27701
X20.014 Y-17.40044
X15.35859 Y-21.6164
X9.75629 Y-24.66308
X3.83926 Y-26.25754
X-1.84184 Y-26.51642
X-5.31497 Y-25.98289
X-11.26294 Y-24.01126
X-16.56934 Y-20.71215
X-20.87734 Y-16.3514
X-24.17414 Y-10.92377
X-26.00128 Y-5.18498
X-26.48425 Y1.30496
X-25.39932 Y7.6314
X-22.90092 Y13.37152
X-19.08362 Y18.4172
X-14.23619 Y22.37664
X-8.59901 Y25.08774
X-2.46483 Y26.40025
X3.98453 Y26.21518
X10.1745 Y24.49782
X15.45804 Y21.54287
X20.21215 Y17.17537
X23.63577 Y12.03879
X25.75385 Y6.29718
X26.12814 Y3.11405
X24.57436 Y2.93135
X24.17859 Y6.10046
X22.15039 Y11.47862
X18.8974 Y16.28566
X14.39231 Y20.36627
X9.40946 Y23.10683
X3.5709 Y24.68251
X-2.49898 Y24.81312
X-8.25565 Y23.53782
X-13.53798 Y20.95093
X-18.0707 Y17.19484
X-21.62815 Y12.42272
X-23.93927 Y7.00819
X-24.91772 Y1.0478
X-24.41905 Y-5.05571
X-22.66495 Y-10.43131
X-19.52634 Y-15.51776
X-15.44787 Y-19.58856
X-10.4342 Y-22.65726
X-4.82608 Y-24.47254
X-1.61066 Y-24.94584
X3.75843 Y-24.67211
X9.33381 Y-23.13283
X14.59059 Y-20.22704
X18.94002 Y-16.23138
X22.19272 Y-11.39151
X24.22375 Y-5.96179
X24.94053 Y-0.00075
X24.57436 Y2.93135
X23.0233 Y2.73765
X23.36301 Y0.17699
X22.73277 Y-5.41669
X20.86849 Y-10.51597
X17.85719 Y-15.0705
X13.8124 Y-18.84336
X8.90128 Y-21.60539
X3.66863 Y-23.08715
X-1.39004 Y-23.37375
X-4.34851 Y-22.95858
X-9.61554 Y-21.29712
X-14.33482 Y-18.45662
X-18.18158 Y-14.6741
X-21.15957 Y-9.92733
X-22.83787 Y-4.91426
X-23.34928 Y0.80252
X-22.47454 Y6.39603
X-20.34827 Y11.48353
X-17.04863 Y15.98012
X-12.82901 Y19.53053
X-7.90038 Y21.99058
X-2.52101 Y23.22577
X3.16874 Y23.1468
X8.65495 Y21.71009
X13.3354 Y19.18174
X17.58932 Y15.38617
X20.66935 Y10.90706
X22.60487 Y5.89168
X23.0233 Y2.73765
X21.47533 Y2.53229
X21.03292 Y5.67005
X19.19305 Y10.32335
X16.28843 Y14.47632
X12.28798 Y17.98882
X7.91176 Y20.3073
X2.7788 Y21.60793
X-2.53009 Y21.6383
X-7.53241 Y20.44632
X-12.10862 Y18.1159
X-16.01687 Y14.77364
X-19.06088 Y10.55467
X-21.00494 Y5.79569
X-21.77891 Y0.56994
X-21.2579 Y-4.75981
X-19.65836 Y-9.41108
X-16.84354 Y-13.81981
X-13.23086 Y-17.31582
X-8.8077 Y-19.93054
X-3.88305 Y-21.44085
X-1.18083 Y-21.80009
X3.56945 Y-21.50275
X8.45796 Y-20.08105
X13.02332 Y-17.46585
X16.76496 Y-13.91846
X19.53725 Y-9.65112
X21.23751 Y-4.88345
X21.78412 Y0.34214
X21.47533 Y2.53229
X19.93085 Y2.31453
X20.20388 Y0.4938
X19.73776 Y-4.36295
X18.1986 Y-8.7978
X15.66271 Y-12.77601
X12.22255 Y-16.09512
X8.003 Y-18.56014
X3.46047 Y-19.91899
X-0.98403 Y-20.22484
X-3.43062 Y-19.91918
X-8.01149 Y-18.55715
X-12.13674 Y-16.16558
X-15.51278 Y-12.95422
X-18.16174 Y-8.88167
X-19.67936 Y-4.59142
X-20.20658 Y0.35098
X-19.53019 Y5.20808
X-17.76553 Y9.63695
X-14.97478 Y13.57605
X-11.37603 Y16.70754
X-7.15081 Y18.90536
X-2.52526 Y20.05081
X2.40198 Y20.0658
X7.18081 Y18.89809
X11.25079 Y16.78699
X14.99532 Y13.55544
X17.72197 Y9.72663
X19.46298 Y5.43462
X19.93085 Y2.31453
X18.3904 Y2.08352
X17.89533 Y5.18434
X16.25666 Y9.11588
X13.71067 Y12.62279
X10.22471 Y15.57567
X6.46315 Y17.48206
X2.03927 Y18.52029
X-2.5054 Y18.46343
X-6.75455 Y17.36811
X-10.63039 Y15.30605
X-13.92165 Y12.38817
X-16.4617 Y8.73131
X-18.05003 Y4.63426
X-18.63228 Y0.14672
X-18.10249 Y-4.40801
X-16.6702 Y-8.33809
X-14.18994 Y-12.0766
X-11.05333 Y-15.00524
X-7.22787 Y-17.17654
X-2.99227 Y-18.3934
X-0.80087 Y-18.64794
X3.34124 Y-18.33598
X7.53535 Y-17.04308
X11.40916 Y-14.73183
X14.54972 Y-11.64401
X16.85206 Y-7.95697
X18.23331 Y-3.85621
X18.62232 Y0.63092
X18.3904 Y2.08352
X16.85458 Y1.83832
X17.03946 Y0.75224
X16.72391 Y-3.36442
X15.49712 Y-7.12976
X13.42518 Y-10.52349
X10.58209 Y-13.37679
X7.05372 Y-15.53041
X3.21137 Y-16.7538
X-0.63289 Y-17.06935
X-2.56926 Y-16.8633
X-6.45794 Y-15.78824
X-9.9817 Y-13.83402
X-12.87574 Y-11.18606
X-15.18435 Y-7.77916
X-16.5276 Y-4.20829
X-17.05599 Y-0.0416
X-16.56413 Y4.07545
X-15.1488 Y7.83886
X-12.85665 Y11.21091
X-9.8707 Y13.91212
X-6.34239 Y15.83505
X-2.46919 Y16.87634
X1.69182 Y16.97128
X5.76006 Y16.05875
X9.21076 Y14.35417
X12.43527 Y11.67752
X14.79777 Y8.48994
X16.33034 Y4.91793
X16.85458 Y1.83832
X15.32418 Y1.5778
X14.76846 Y4.63392
X13.34611 Y7.84742
X11.17007 Y10.71866
X8.21016 Y13.1217
X5.07307 Y14.6276
X1.36096 Y15.41864
X-2.41504 Y15.28977
X-5.91289 Y14.30676
X-9.0958 Y12.5266
X-11.77881 Y10.0454
X-13.82615 Y6.96094
X-15.07214 Y3.53312
X-15.47771 Y-0.2125
X-14.95507 Y-3.99077
X-13.70492 Y-7.20347
X-11.57107 Y-10.28164
X-8.92313 Y-12.65098
X-5.70301 Y-14.39173
X-2.16308 Y-15.32864
X-0.4821 Y-15.48903
X3.07051 Y-15.17256
X6.55646 Y-14.0228
X9.7401 Y-12.03099
X12.28812 Y-9.41568
X14.13316 Y-6.31749
X15.20926 Y-2.88902
X15.45537 Y0.85634
X15.32418 Y1.5778
X13.8002 Y1.30068
X13.87016 Y0.94144
X13.68906 Y-2.4317
G02 X8.88175 Y-10.69555 I-13.68934 J2.43327
G1 X6.0414 Y-12.52118
G02 X-1.77556 Y-13.78917 I-6.04451 J12.53428
X-10.27694 Y-9.36219 I1.77387 J13.78281
G1 X-12.2328 Y-6.60931
X-13.38539 Y-3.75361
X-13.89748 Y-0.3642
X-13.57364 Y3.00905
G02 X-8.3043 Y11.15048 I13.58654 J-3.0176
G1 X-5.46432 Y12.78395
X-2.34099 Y13.70399
X1.04823 Y13.86225
X4.40406 Y13.18795
X7.22443 Y11.87732
X9.91617 Y9.74507
G02 X13.8002 Y1.30068 I-9.68419 J-9.56972
G1 X12.28395 Y1.00543
G03 X12.31534 Y-0.49457 I-12.28395 J-1.00741
G1 X12.28395 Y1.00543
Z40.44768 F5000.
G0 Z49.63773
X-29.99325 Y-36.68652
G1 Z37.38516 F1228.
Z36.75017 F3684.
X-27.82509 Y-30.04654 F3684.
X-29.91791 Y-28.00705 F4912.
X-30.12557 Y-27.58308
X-30.1274 Y-25.63493
X-25.48006 Y-30.12557
X-23.19616
X-29.17037 Y-24.40354
X-30.1299 Y-22.95902
X-30.13256 Y-20.11981
X-27.85206 Y-23.51912
X-22.02992 Y-29.04442
X-20.23482 Y-30.12557
X-17.18665
X-20.94266 Y-27.88769
X-26.53798 Y-22.62841
X-30.13518 Y-17.32141
X-30.13852 Y-13.75981
X-29.36484 Y-15.69375
X-25.22838 Y-21.73114
X-19.86121 Y-26.72552
X-14.08952 Y-30.12557
X-9.36188
X-12.9069 Y-28.97979
X-18.78588 Y-25.55769
X-23.92349 Y-20.82702
X-27.89396 Y-15.09653
X-30.14246 Y-9.55876
X-30.16011 Y9.28455
Z37.38516 F5000.
G0 Z49.63773
X-36.44437 Y30.36618
G1 Z37.38516 F1228.
Z36.75017 F3684.
X-29.84785 Y28.06918 F3684.
X-28.21147 Y29.90714 F4912.
X-28.12557 Y29.97256
X-27.37557 Y30.16006
X-25.47789
X-26.71257 Y29.2566
X-30.17515 Y25.33474
X-30.17291 Y22.94841
X-25.76955 Y27.97954
X-22.81665 Y30.16006
X-20.18832
X-24.82076 Y26.70677
X-29.95059 Y20.79203
X-30.17051 Y20.38384
X-30.16743 Y17.08996
X-28.74643 Y19.75755
X-23.86595 Y25.43851
X-17.88421 Y29.94181
X-17.40696 Y30.16006
X-13.63647
X-17.2169 Y28.50138
X-22.90489 Y24.17498
X-27.53721 Y18.72899
X-30.16428 Y13.73799
X-30.16011 Y9.28455
X-29.58574 Y11.42892
X-26.32271 Y17.70667
X-21.93728 Y22.91645
X-16.5422 Y27.06439
X-10.23566 Y30.02549
X-9.63631 Y30.16006
X9.8092
Z37.38516 F5000.
G0 Z49.63773
X31.77122 Y35.93002
G1 Z37.38516 F1228.
Z36.75017 F3684.
X28.13644 Y29.96524 F3684.
X28.75431 Y29.47717 F4912.
X30.00808 Y27.94555
X30.12443 Y27.58194
X30.1259 Y25.3225
X27.53014 Y28.46644
X25.36745 Y30.16006
X22.81873
X26.31039 Y27.45038
X30.12749 Y22.86813
X30.12906 Y20.4416
X25.09529 Y26.42877
X20.24147 Y30.16006
X17.39438
X17.9994 Y29.88128
X23.88505 Y25.4014
X29.04168 Y19.32689
X30.13114 Y17.23576
X30.13333 Y13.85246
X27.6374 Y18.58652
X22.67993 Y24.36805
X17.04425 Y28.61328
X13.64313 Y30.16006
X9.8092
X16.09576 Y27.34028
X21.48018 Y23.32845
X26.23694 Y17.83895
X29.38784 Y11.93619
X30.13628 Y9.30178
X30.14844 Y-9.455
Z37.38516 F5000.
G0 Z49.63773
X36.76132 Y-29.77043
G1 Z37.38516 F1228.
Z36.75017 F3684.
X29.98487 Y-28.07632 F3684.
X27.93589 Y-29.9522 F4912.
X27.58194 Y-30.12557
X25.43314
X29.85893 Y-26.03932
X30.15892 Y-25.6088
X30.15715 Y-22.87847
X28.77694 Y-24.87766
X23.14262 Y-30.12557
X20.22471
X22.0072 Y-29.06226
X27.68967 Y-23.72094
X30.15535 Y-20.11479
X30.15354 Y-17.31484
X26.59691 Y-22.56941
X21.18741 Y-27.70281
X17.16979 Y-30.12557
X14.16597
X20.36083 Y-26.34748
X25.49844 Y-21.42332
X29.50561 Y-15.43999
X30.15125 Y-13.78813
X30.14844 Y-9.455
X28.18207 Y-14.56341
X24.39401 Y-20.28297
X19.52715 Y-24.9965
X13.6138 Y-28.6456
X9.33351 Y-30.12557
X0.51895
Z37.38516 F5000.
G0 Z49.63773
Y-37.11057
G1 Z37.38516 F1228.
Z36.75017 F3684.
Y-30.12557 F3684.
X6.71498 Y-29.38981 F4912.
X13.08695 Y-27.14807
X18.68604 Y-23.65014
X23.28337 Y-19.14867
X26.85382 Y-13.69398
X29.18252 Y-7.54528
X30.12221 Y-1.22774
X29.70843 Y5.12868
X27.86312 Y11.49418
X24.84052 Y17.08384
X20.28612 Y22.28232
X15.15431 Y26.06206
X9.11689 Y28.73074
X2.83218 Y30.01347
X-3.51792 Y29.94248
X-9.87963 Y28.47843
X-15.85974 Y25.63107
X-20.96284 Y21.66321
X-25.10271 Y16.69091
X-28.1732 Y10.70442
X-29.81803 Y4.42607
X-30.08716 Y-1.92522
X-28.98458 Y-8.28699
X-26.42633 Y-14.49139
X-22.6236 Y-19.91574
X-17.71701 Y-24.38395
X-12.1158 Y-27.60345
X-6.00243 Y-29.54304
X0.13522 Y-30.12557
Z37.38516 F5000.
G0 Z49.63773
X22.60062 Y19.64051
G1 Z37.38516 F1228.
Z36.75017 F3684.
X21.42167 Y18.60763 F4912.
X23.44842 Y16.32082
X26.3409 Y11.0436
X28.12488 Y5.01667
X28.55068 Y-1.00312
X27.69475 Y-6.99148
X25.52066 Y-12.8321
X22.16621 Y-18.02079
X17.83712 Y-22.30869
X12.55161 Y-25.65356
X6.51898 Y-27.81446
X0.48963 Y-28.5646
X-5.53092 Y-28.02718
X-11.33264 Y-26.22257
X-16.65497 Y-23.20403
X-21.32902 Y-18.99693
X-24.96215 Y-13.87791
X-27.42194 Y-8.00714
X-28.50073 Y-1.98341
X-28.28006 Y4.03262
X-26.75655 Y9.988
X-23.87696 Y15.6821
X-19.98122 Y20.41557
X-15.16914 Y24.20165
X-9.51494 Y26.93338
X-3.49126 Y28.35521
X2.52356 Y28.45626
X8.4834 Y27.27511
X14.22032 Y24.77839
X19.09807 Y21.22938
X21.42167 Y18.60763
X20.24943 Y17.5687
X17.9164 Y20.16928
X13.29425 Y23.48899
X7.85869 Y25.8157
X2.2243 Y26.89722
X-3.45518 Y26.76812
X-9.14113 Y25.39052
X-14.46997 Y22.77641
X-18.99206 Y19.17392
X-22.6452 Y14.68064
X-25.33561 Y9.28012
X-26.73972 Y3.64857
X-26.91397 Y-2.03208
X-25.86098 Y-7.71806
X-23.50168 Y-13.25568
X-20.04009 Y-18.07021
X-15.60017 Y-22.01762
X-10.55789 Y-24.83696
X-5.06848 Y-26.50852
X0.62144 Y-26.98258
X6.3137 Y-26.24029
X12.00734 Y-24.16228
X16.97997 Y-20.97248
X21.04223 Y-16.89971
X24.18237 Y-11.97821
X26.20369 Y-6.44662
X26.97783 Y-0.78794
X26.54203 Y4.8953
X24.82139 Y10.584
X22.06092 Y15.54946
X20.24943 Y17.5687
X19.08433 Y16.52347
X20.67835 Y14.76929
X23.30479 Y10.11487
X24.95997 Y4.76402
X25.40364 Y-0.58278
X24.70918 Y-5.91125
X22.8387 Y-11.1328
X19.91107 Y-15.78588
X16.11415 Y-19.64188
X11.45363 Y-22.67447
X6.09861 Y-24.66743
X0.74336 Y-25.39977
X-4.61565 Y-24.98698
X-9.79207 Y-23.44639
X-14.55308 Y-20.82441
X-18.75721 Y-17.13513
X-22.04518 Y-12.6242
X-24.30186 Y-7.41925
X-25.32694 Y-2.07069
X-25.19692 Y3.27449
X-23.91019 Y8.58131
X-21.40711 Y13.68701
X-17.99495 Y17.93863
X-13.76176 Y21.35564
X-8.7577 Y23.85002
X-3.40915 Y25.18128
X1.93497 Y25.33631
X7.24329 Y24.35233
X12.37663 Y22.19356
X16.74151 Y19.10167
X19.08433 Y16.52347
X17.92687 Y15.47168
X15.57388 Y18.02612
X11.46805 Y20.89178
X6.63777 Y22.88485
X1.65618 Y23.77348
X-3.35255 Y23.59479
X-8.36407 Y22.3121
X-13.04396 Y19.93968
X-16.98942 Y16.71019
X-20.16238 Y12.70172
X-22.48008 Y7.89215
X-23.65159 Y2.91104
X-23.73969 Y-2.0986
X-22.74475 Y-7.11011
X-20.59297 Y-11.98292
X-17.48082 Y-16.1912
X-13.51422 Y-19.62402
X-9.03579 Y-22.05061
X-4.17302 Y-23.46244
X0.85478 Y-23.81618
X5.87311 Y-23.09603
X10.88992 Y-21.19043
X15.23913 Y-18.3173
X18.77232 Y-14.67979
X21.4894 Y-10.29642
X23.2111 Y-5.38599
X23.8281 Y-0.38827
X23.37881 Y4.62224
X21.79135 Y9.63565
X19.30109 Y13.97979
X17.92687 Y15.47168
X16.77759 Y14.41304
X17.92958 Y13.18034
X20.28135 Y9.1457
X21.7987 Y4.46927
X22.2512 Y-0.20513
X21.70927 Y-4.87154
X20.13415 Y-9.4697
X17.62557 Y-13.58202
X14.35432 Y-16.99925
X10.3156 Y-19.71046
X5.63651 Y-21.52626
X0.955 Y-22.23185
X-3.74129 Y-21.93477
X-8.2897 Y-20.64936
X-12.4842 Y-18.41604
X-16.21144 Y-15.23788
X-19.1454 Y-11.33122
X-21.18985 Y-6.79001
X-22.15227 Y-2.11513
X-22.10362 Y2.55898
X-21.04505 Y7.21331
X-18.91062 Y11.72537
X-15.97497 Y15.48911
X-12.31597 Y18.52895
X-7.95959 Y20.77699
X-3.28469 Y22.00874
X1.38868 Y22.20868
X6.0428 Y21.41306
X10.56921 Y19.58325
X14.41402 Y16.9422
X16.77759 Y14.41304
X15.63713 Y13.34726
X13.26253 Y15.8494
X9.68091 Y18.26755
X5.4591 Y19.93676
X1.13329 Y20.64186
X-3.2048 Y20.42326
X-7.54354 Y19.24498
X-11.57709 Y17.12388
X-14.95099 Y14.276
X-17.65143 Y10.75863
X-19.60482 Y6.54555
X-20.55292 Y2.21915
X-20.56478 Y-2.11946
X-19.63742 Y-6.45819
X-17.70289 Y-10.66841
X-14.94966 Y-14.27451
X-11.46368 Y-17.20002
X-7.55459 Y-19.24232
X-3.32124 Y-20.40385
X1.04323 Y-20.6468
X5.38806 Y-19.95832
X9.72993 Y-18.23494
X13.45904 Y-15.68828
X16.47029 Y-12.49321
X18.77264 Y-8.65335
X20.20351 Y-4.36868
X20.67293 Y-0.03421
X20.21979 Y4.30436
X18.77511 Y8.6443
X16.56432 Y12.37027
X15.63713 Y13.34726
X14.50621 Y12.27398
X15.2059 Y11.54877
X17.27301 Y8.13063
X18.64227 Y4.12663
X19.09329 Y0.12354
X18.69363 Y-3.87836
X17.40447 Y-7.84819
X15.30595 Y-11.41411
X12.55252 Y-14.38507
X9.13211 Y-16.7643
X5.12685 Y-18.39246
X1.11856 Y-19.06109
X-2.91377 Y-18.86953
X-6.83136 Y-17.82913
X-10.45347 Y-15.97543
X-13.69617 Y-13.30039
X-16.26592 Y-9.99368
X-18.08772 Y-6.11381
X-18.9773 Y-2.11071
X-18.99937 Y1.89257
X-18.15911 Y5.88975
X-16.38432 Y9.80228
X-13.91682 Y13.07157
X-10.82654 Y15.72501
X-7.11508 Y17.71639
X-3.11196 Y18.83847
X0.89099 Y19.07296
X4.88751 Y18.45573
X8.8041 Y16.94416
X12.12007 Y14.74715
X14.50621 Y12.27398
X13.38566 Y11.19286
X10.98744 Y13.63481
X7.93991 Y15.61249
X4.32897 Y16.96974
X0.66293 Y17.50193
X-3.00515 Y17.25457
X-6.67323 Y16.19162
X-10.06336 Y14.33299
X-12.87167 Y11.87666
X-15.10877 Y8.85723
X-16.70757 Y5.24695
X-17.44286 Y1.58043
X-17.38997 Y-2.08783
X-16.5411 Y-5.75589
X-14.83506 Y-9.30608
X-12.4518 Y-12.31465
X-9.45446 Y-14.74168
G03 X4.85186 Y-16.82895 I9.45583 J14.73906
G1 X8.5212 Y-15.29906
X11.63384 Y-13.09039
X14.13188 Y-10.3456
X16.02922 Y-7.05519
X17.1794 Y-3.40166
X17.51228 Y0.267
X17.06637 Y3.93505
X15.77551 Y7.60371
X13.85504 Y10.71492
X13.38566 Y11.19286
X12.27642 Y10.10348
X12.51258 Y9.86758
G02 X7.89607 Y-13.83982 I-12.51381 J-9.86638
G1 X4.56187 Y-15.26817
G02 X-13.411 Y-8.60451 I-4.56102 J15.26784
G1 X-14.99795 Y-5.38327
G02 X-15.24982 Y4.61835 I14.97999 J5.38123
G1 X-13.82416 Y7.92452
G02 X9.86554 Y12.51165 I13.82294 J-7.92208
G1 X12.27642 Y10.10348
X11.1796 Y9.00543
G03 X12.07984 Y7.75543 I-11.18192 J-9.00236
G1 X11.1796 Y9.00543
Z37.38516 F5000.
G0 Z49.63773
X-31.33272 Y-36.11561
G1 Z34.32265 F1228.
Z33.68765 F3684.
X-28.5658 Y-29.702 F3684.
X-29.29523 Y-29.01745 F4912.
X-29.97461 Y-28.12557
X-30.17774 Y-26.87557
Y-26.02668
X-30.11444 Y-26.11662
X-25.8071 Y-30.12727
X-23.47975 Y-30.1295
X-28.82 Y-25.19762
X-30.17774 Y-23.2852
Y-20.57688
X-27.52953 Y-24.27303
X-21.84257 Y-29.48057
X-20.74051 Y-30.13212
X-17.64842 Y-30.13509
X-20.77566 Y-28.30505
X-26.24325 Y-23.34264
X-30.17774 Y-17.9031
Y-14.18145
X-28.86264 Y-17.06567
X-24.96135 Y-22.40621
X-19.71418 Y-27.12461
X-14.50893 Y-30.13809
X-10.09914 Y-30.14232
X-12.90245 Y-29.23381
X-18.65841 Y-25.93908
X-23.68409 Y-21.46347
X-27.42155 Y-16.39979
X-30.17774 Y-10.43488
Y-1.21554
X-30.15036 Y-3.63212
X-28.71361 Y-9.90004
X-25.98399 Y-15.72629
X-22.41172 Y-20.51414
X-17.60863 Y-24.74823
X-12.12092 Y-27.85202
X-6.19617 Y-29.73844
X-1.90648 Y-30.15017
X2.15811 Y-30.15406
Z34.32265 F5000.
G0 Z49.63773
X32.19313 Y35.67383
G1 Z34.32265 F1228.
Z33.68765 F3684.
X28.55835 Y29.70906 F3684.
X29.59843 Y28.73209 F4912.
X29.87443 Y28.3641
X30.12443 Y27.58285
X30.12541 Y26.10409
X25.77233 Y30.16097
X23.44809
X28.83616 Y25.18037
X30.12724 Y23.36079
X30.12904 Y20.64798
X27.54543 Y24.25615
X21.85796 Y29.46903
X20.68926 Y30.16097
X17.60476
X20.79049 Y28.29402
X26.25887 Y23.32615
X30.13082 Y17.96971
X30.13327 Y14.28178
X28.86139 Y17.06884
X24.97669 Y22.39011
X19.72843 Y27.1141
X14.47318 Y30.16097
X10.02558
X12.92223 Y29.22519
X18.67207 Y25.92909
X23.69912 Y21.44779
X27.42051 Y16.40249
X30.13577 Y10.53113
X30.14032 Y3.6855
X28.70656 Y9.9204
X25.98317 Y15.72854
X22.42643 Y20.49888
X17.62169 Y24.73877
X12.13981 Y27.84389
X6.13637 Y29.74916
X1.82145 Y30.16097
X-2.04081
Z34.32265 F5000.
G0 Z49.63773
X-25.7395 Y37.14597
G1 Z34.32265 F1228.
Z33.68765 F3684.
Y30.16097 F3684.
X-29.12881 Y27.20388 F4912.
X-30.17774 Y25.82185
Y23.22496
X-28.08024 Y26.01196
X-23.36402 Y30.16097
X-20.76981
X-21.45699 Y29.76666
X-27.02659 Y24.82454
X-30.17774 Y20.60046
Y17.94604
X-25.96766 Y23.64181
X-20.66065 Y28.39334
X-17.61226 Y30.16097
X-14.50608
X-19.85784 Y27.0238
X-24.90324 Y22.46403
X-28.93516 Y16.95641
X-30.17774 Y14.22163
Y10.38883
X-27.64971 Y16.02486
X-23.83311 Y21.29144
X-19.04825 Y25.65825
X-13.37203 Y29.02347
X-10.01808 Y30.16097
X-2.04081
X-6.94803 Y29.56109
X-12.85413 Y27.52283
X-18.23159 Y24.29691
X-22.75699 Y20.12434
X-26.35956 Y15.09983
X-28.89462 Y9.37056
X-30.17774 Y3.18144
Z34.32265 F5000.
G0 Z49.63773
X25.70992 Y-37.16163
G1 Z34.32265 F1228.
Z33.68765 F3684.
X25.71661 Y-30.17663 F3684.
X29.15016 Y-27.17978 F4912.
X30.15996 Y-25.84649
X30.15823 Y-23.24907
X28.10132 Y-25.9881
X23.34499 Y-30.17436
X20.74379 Y-30.17187
X21.4587 Y-29.76274
X27.04734 Y-24.80097
X30.15648 Y-20.62389
X30.15472 Y-17.96862
X25.98804 Y-23.61859
X20.66391 Y-28.38852
X17.58568 Y-30.16884
X14.47946 Y-30.16586
X19.86257 Y-27.01811
X24.92318 Y-22.4412
X28.95809 Y-16.91657
X30.15227 Y-14.28108
X30.14972 Y-10.44626
X27.67158 Y-15.98649
X23.85255 Y-21.26906
X19.0544 Y-25.65173
X13.32912 Y-29.03807
X9.98435 Y-30.16156
X2.15811 Y-30.15406
X6.72051 Y-29.61907
X12.81571 Y-27.53588
X18.23907 Y-24.2896
X22.77587 Y-20.10248
X26.38036 Y-15.06296
X28.90313 Y-9.34529
X30.14499 Y-3.33031
Z34.32265 F5000.
G0 Z49.63773
X-3.30909 Y30.00593
G1 Z34.32265 F1228.
Z33.68765 F3684.
X-3.11894 Y28.4505 F4912.
X-0.48966 Y28.78686
X5.6644 Y28.23344
X11.3649 Y26.45837
X16.57762 Y23.54292
X21.15892 Y19.54308
X24.5496 Y15.0466
X27.16146 Y9.55592
X28.5605 Y3.62515
X28.67076 Y-2.61958
X27.44732 Y-8.71221
X25.08423 Y-14.14633
X21.69288 Y-18.94175
X17.41623 Y-22.932
X12.29397 Y-26.03656
X6.52685 Y-28.04343
X0.48996 Y-28.78541
X-5.72275 Y-28.22317
X-11.34689 Y-26.466
X-16.56518 Y-23.55183
X-21.14454 Y-19.5579
X-24.55021 Y-15.04481
X-27.16826 Y-9.53664
X-28.56308 Y-3.60525
X-28.66881 Y2.63976
X-27.43948 Y8.73595
X-25.06452 Y14.18167
X-21.67463 Y18.96303
X-17.40753 Y22.94005
X-12.32782 Y26.02511
X-6.74658 Y27.98643
X-3.11894 Y28.4505
X-2.92024 Y26.89723
X-6.53585 Y26.41298
X-11.79262 Y24.53055
X-16.5757 Y21.58794
X-20.5857 Y17.80787
X-23.76435 Y13.27078
X-25.9808 Y8.10954
X-27.11086 Y2.33488
X-26.976 Y-3.569
X-25.6251 Y-9.16405
X-23.12045 Y-14.35493
X-19.88287 Y-18.59439
X-15.52842 Y-22.34963
X-10.58082 Y-25.07557
X-5.25801 Y-26.70522
X0.62398 Y-27.20358
X6.32393 Y-26.46895
X11.76347 Y-24.54033
X16.5855 Y-21.5792
X20.60326 Y-17.78724
X23.78297 Y-13.23701
X25.98798 Y-8.08734
X27.11257 Y-2.31596
X26.97344 Y3.58775
X25.61856 Y9.18226
X23.12005 Y14.35628
X19.8969 Y18.58003
X15.54021 Y22.34128
X10.59793 Y25.06843
X5.20112 Y26.71505
X-0.62272 Y27.20494
X-2.92024 Y26.89723
X-2.71252 Y25.34636
X-0.74615 Y25.62225
X4.74707 Y25.19386
X9.83942 Y23.67387
X14.50986 Y21.13358
X18.64074 Y17.60934
X21.69481 Y13.65711
X24.07805 Y8.7989
X25.38665 Y3.54041
X25.55257 Y-2.02178
X24.52493 Y-7.47117
X22.47632 Y-12.33544
X19.50667 Y-16.63936
X15.74646 Y-20.23155
X11.22373 Y-23.0474
X6.11119 Y-24.89577
X0.74842 Y-25.62096
X-4.80247 Y-25.18449
X-9.8232 Y-23.68052
X-14.49874 Y-21.14136
X-18.62708 Y-17.62323
X-21.69499 Y-13.65621
X-24.08432 Y-8.78176
X-25.38917 Y-3.5228
X-25.55109 Y2.03946
X-24.51841 Y7.49181
X-22.45881 Y12.36761
X-19.48988 Y16.65925
X-15.73568 Y20.2409
X-11.24804 Y23.03938
X-6.31527 Y24.84087
X-2.71252 Y25.34636
X-2.4953 Y23.79816
X-6.08426 Y23.27027
X-10.69348 Y21.55189
X-14.88704 Y18.89927
X-18.38677 Y15.51762
X-21.14762 Y11.47267
X-23.05216 Y6.88332
X-23.98945 Y1.7541
X-23.80268 Y-3.46604
X-22.54614 Y-8.38916
X-20.27415 Y-12.94813
X-17.3776 Y-16.64397
X-13.47659 Y-19.92671
X-9.07462 Y-22.2806
X-4.35672 Y-23.66085
X0.86271 Y-24.03758
X5.88802 Y-23.32403
X10.67419 Y-21.55805
X14.89861 Y-18.88942
X18.40272 Y-15.49855
X21.16402 Y-11.44212
X23.05803 Y-6.86427
X23.9907 Y-1.73763
X23.8002 Y3.48252
X22.54013 Y8.40524
X20.27419 Y12.94859
X17.39087 Y16.63058
X13.48703 Y19.91951
X9.08993 Y22.27443
X4.30283 Y23.66979
X-0.85934 Y24.03879
X-2.4953 Y23.79816
X-2.26803 Y22.25296
X-0.96162 Y22.45459
X3.86906 Y22.1427
X8.35013 Y20.86985
X12.4722 Y18.69873
X16.14775 Y15.64325
X18.85856 Y12.23016
X21.00506 Y8.00061
X22.21421 Y3.41335
X22.42693 Y-1.46419
X21.58706 Y-6.26725
X19.84575 Y-10.55763
X17.29099 Y-14.36532
X14.04143 Y-17.55324
X10.11426 Y-20.07257
X5.65371 Y-21.75392
X0.96618 Y-22.45346
X-3.92143 Y-22.1342
X-8.33572 Y-20.87554
X-12.46248 Y-18.70534
X-16.1349 Y-15.65611
X-18.8583 Y-12.23012
X-21.01079 Y-7.98559
X-22.21664 Y-3.398
X-22.42588 Y1.47946
X-21.58184 Y6.28472
X-19.83046 Y10.58652
X-17.27595 Y14.3835
X-14.02927 Y17.56346
X-10.1283 Y20.0684
X-5.84212 Y21.70135
X-2.26803 Y22.25296
X-2.03007 Y20.71115
X-5.58806 Y20.13431
X-9.55176 Y18.5893
X-13.16181 Y16.23392
X-16.15694 Y13.25746
X-18.507 Y9.70982
X-20.10725 Y5.69671
X-20.86034 Y1.21631
X-20.63117 Y-3.31787
X-19.47857 Y-7.57029
X-17.44786 Y-11.50155
X-14.89953 Y-14.6591
X-11.45697 Y-17.47689
X-7.60728 Y-19.46504
X-3.49733 Y-20.60439
X1.05811 Y-20.86862
X5.40744 Y-20.18564
X9.54325 Y-18.59132
X13.17429 Y-16.22349
X16.17098 Y-13.24026
X18.52117 Y-9.68261
X20.11183 Y-5.68086
X20.8612 Y-1.20221
X20.62879 Y3.33209
X19.47313 Y7.58426
X17.44834 Y11.50116
X14.91194 Y14.64679
X11.46594 Y17.47089
X7.62078 Y19.45981
X3.44651 Y20.61247
X-1.05224 Y20.86968
X-2.03007 Y20.71115
X-1.78073 Y19.17318
X-1.13031 Y19.2841
X3.03604 Y19.07895
X6.90279 Y18.04396
X10.4689 Y16.23555
X13.68409 Y13.64055
X16.04401 Y10.76087
X17.94468 Y7.15532
X19.0441 Y3.2378
X19.29345 Y-0.95258
X18.6321 Y-5.10593
X17.1899 Y-8.81782
X15.04216 Y-12.12405
X12.29649 Y-14.90076
X8.96039 Y-17.1147
X5.14826 Y-18.61944
X1.13764 Y-19.28311
X-3.08531 Y-19.07129
X-6.89018 Y-18.04873
X-10.46071 Y-16.24092
X-13.67215 Y-13.65228
X-16.04331 Y-10.76168
X-17.94983 Y-7.14239
X-19.0464 Y-3.22469
X-19.29278 Y0.96555
X-18.62816 Y5.12015
X-17.17684 Y8.84332
X-15.02916 Y12.1402
X-12.28403 Y14.91117
X-8.96299 Y17.11502
X-5.32119 Y18.5694
X-1.78073 Y19.17318
X-1.5192 Y17.63962
X-5.04044 Y17.00692
G03 X-17.14428 Y4.556 I5.03317 J-17.00153
G1 X-17.72312 Y0.72818
X-17.46254 Y-3.11736
X-16.42496 Y-6.70088
X-14.64523 Y-10.00968
X-12.45352 Y-12.63488
X-9.47441 Y-14.99699
X-6.18551 Y-16.6262
X-2.68635 Y-17.53474
X1.20379 Y-17.69699
X4.87507 Y-17.05562
X8.36479 Y-15.64316
G03 X17.14759 Y-4.54345 I-8.35864 J15.6385
G1 X17.72363 Y-0.7163
X17.46031 Y3.12935
G03 X12.46494 Y12.62377 I-17.4624 J-3.12628
G1 X9.48178 Y14.99227
X6.19723 Y16.62186
X2.63863 Y17.542
X-1.19482 Y17.69791
X-1.5192 Y17.63962
X-1.24457 Y16.11119
G02 X-2.99457 Y15.87979 I1.24013 J-16.11198
G1 X-1.24457 Y16.11119
Z34.32265 F5000.
G0 Z49.63773
X-31.64017 Y-35.98388
G1 Z31.26014 F1228.
Z30.62514 F3684.
X-28.87543 Y-29.56934 F3684.
X-28.87603 Y-29.56867 F4912.
X-29.97553 Y-28.12557
X-30.17865 Y-26.87557
Y-25.80122
X-26.56057 Y-29.75829
X-26.05413 Y-30.12706
X-23.38881 Y-30.12966
X-25.39332 Y-28.68234
X-30.17865 Y-23.49097
Y-20.68091
X-29.26095 Y-22.19025
X-24.23061 Y-27.60147
X-20.69445 Y-30.13229
X-17.96857 Y-30.13494
X-23.07267 Y-26.5155
X-27.90809 Y-21.35964
X-30.17865 Y-17.66147
Y-14.68688
X-26.559 Y-20.5229
X-21.91974 Y-25.42421
X-16.45891 Y-29.25937
X-14.46195 Y-30.13836
X-10.52183 Y-30.1422
X-15.55273 Y-27.95591
X-20.77209 Y-24.32738
X-25.2139 Y-19.67978
X-28.73504 Y-14.06222
X-30.17865 Y-10.17731
Y-2.93234
X-29.37203 Y-7.876
X-27.24971 Y-13.50189
X-23.87301 Y-18.82998
X-19.63001 Y-23.22474
X-14.65309 Y-26.64794
X-9.18266 Y-28.99327
X-3.62785 Y-30.14892
X3.76864 Y-30.15613
Z31.26014 F5000.
G0 Z49.63773
X32.63433 Y35.40589
G1 Z31.26014 F1228.
Z30.62514 F3684.
X28.99954 Y29.44111 F3684.
X29.19909 Y29.26546 F4912.
X29.87443 Y28.36501
X30.12443 Y27.58376
X30.12554 Y25.95719
X29.14843 Y27.23583
X25.79871 Y30.16189
X23.39623
X27.89091 Y26.26692
X30.12731 Y23.36438
X30.12905 Y20.79974
X26.63741 Y25.2928
X21.02996 Y30.11182
X20.93954 Y30.16189
X17.70391
X20.00044 Y28.90342
X25.38814 Y24.31328
X29.65712 Y18.86862
X30.13101 Y17.92701
X30.13339 Y14.43352
X28.24236 Y18.14846
X24.14329 Y23.32814
X18.97634 Y27.69041
X14.4171 Y30.16189
X10.21518
X12.13031 Y29.59579
X17.95794 Y26.47262
X22.9031 Y22.33713
X26.83108 Y17.42152
X29.73841 Y11.77723
X30.13617 Y10.36485
X30.14139 Y2.69506
X29.94374 Y5.30739
X28.21252 Y11.33928
X25.42349 Y16.68747
X21.66784 Y21.33999
X16.94553 Y25.24984
X11.38745 Y28.19282
X5.45018 Y29.91501
X2.42685 Y30.16189
X-2.60827
Z31.26014 F5000.
G0 Z49.63773
X36.14356 Y-31.24244
G1 Z31.26014 F1228.
Z30.62514 F3684.
X29.64886 Y-28.67163 F3684.
X29.12692 Y-29.21173 F4912.
X28.12443 Y-29.97553
X26.87443 Y-30.17865
X26.02787 Y-30.17782
X30.16086 Y-25.86782
X30.1593 Y-23.57708
X24.85748 Y-29.15061
X23.37867 Y-30.17524
X20.62499 Y-30.17256
X23.9479 Y-27.84953
X29.15483 Y-22.32973
X30.15733 Y-20.696
X30.15529 Y-17.6902
X27.99532 Y-21.24545
X23.03265 Y-26.55243
X17.90593 Y-30.16991
X14.35879 Y-30.16645
X16.65765 Y-29.14516
X22.11149 Y-25.25951
X26.83088 Y-20.16644
X30.15321 Y-14.64045
X30.15017 Y-10.18349
X29.03239 Y-13.42378
X25.66132 Y-19.093
X21.18419 Y-23.97099
X16.00599 Y-27.69758
X10.52997 Y-30.16272
X3.76864 Y-30.15613
X9.79851 Y-28.78559
X15.34687 Y-26.25338
X20.25047 Y-22.68713
X24.48642 Y-18.0254
X27.66377 Y-12.61939
X29.6398 Y-6.79499
X30.14511 Y-2.7633
Z31.26014 F5000.
G0 Z49.63773
X-25.79071 Y37.14689
G1 Z31.26014 F1228.
Z30.62514 F3684.
Y30.16189 F3684.
X-28.76253 Y27.63718 F4912.
X-30.17865 Y25.82736
Y23.27577
X-27.7298 Y26.43152
X-23.37479 Y30.16189
X-20.91003
X-21.1185 Y30.04535
X-26.69198 Y25.23024
X-30.17865 Y20.69803
Y17.92698
X-29.95923 Y18.37974
X-25.64886 Y24.03355
X-20.33773 Y28.66312
X-17.68438 Y30.16189
X-14.51128
X-19.55057 Y27.28452
X-24.60023 Y22.84169
X-28.6924 Y17.42303
X-30.17865 Y14.32042
Y10.56188
X-30.13593 Y10.73506
X-27.42102 Y16.47237
X-23.54585 Y21.65492
X-18.75673 Y25.90976
X-13.08017 Y29.18765
X-10.12203 Y30.16189
X-2.60827
X-6.58418 Y29.6889
X-12.57606 Y27.68232
X-17.95587 Y24.53907
X-22.48546 Y20.47351
X-26.1449 Y15.52809
X-28.69761 Y10.06321
X-30.12496 Y4.15159
X-30.17865 Y2.75101
Z31.26014 F5000.
G0 Z49.63773
X1.89157 Y-37.1393
G1 Z31.26014 F1228.
Z30.62514 F3684.
X1.89838 Y-30.15431 F3684.
X1.89989 Y-28.60206 F4912.
X-2.86696 Y-28.68575
X-8.56468 Y-27.53098
X-13.76034 Y-25.33525
X-18.49384 Y-22.11601
X-22.53657 Y-17.97319
X-25.76733 Y-12.93383
X-27.8066 Y-7.61223
X-28.76843 Y-1.90373
X-28.57989 Y3.78704
X-27.25578 Y9.39891
X-24.86383 Y14.59052
X-21.41878 Y19.29777
X-17.14767 Y23.1727
X-12.06405 Y26.17965
X-6.38845 Y28.11351
X-0.67969 Y28.8228
X5.01612 Y28.388
X10.65199 Y26.78596
X15.93945 Y24.02185
X20.43779 Y20.33643
X24.01981 Y15.94596
X26.68894 Y10.89334
X28.36141 Y5.17933
X28.82412 Y-0.53802
X28.13375 Y-6.29303
X26.29086 Y-11.82235
X23.30593 Y-16.96399
X19.31003 Y-21.40817
X14.67994 Y-24.81276
X9.4378 Y-27.23961
X3.73663 Y-28.56982
X1.89989 Y-28.60206
X1.87221 Y-27.02521
X3.69975 Y-26.98274
X9.06771 Y-25.69586
X14.00481 Y-23.37598
X18.36254 Y-20.13443
X22.11959 Y-15.90912
X24.91344 Y-11.03312
X26.62488 Y-5.79961
X27.24689 Y-0.35774
X26.77982 Y5.04253
X25.16785 Y10.43897
X22.62032 Y15.19657
X19.21326 Y19.32615
X14.94008 Y22.7884
X9.92436 Y25.37503
X4.59071 Y26.85856
X-0.79169 Y27.23925
X-6.18408 Y26.53922
X-11.54374 Y24.67984
X-16.33172 Y21.81094
X-20.3455 Y18.12806
X-23.57759 Y13.66007
X-25.8103 Y8.74261
X-27.03284 Y3.43096
X-27.18154 Y-1.9476
X-26.24263 Y-7.33992
X-24.28809 Y-12.35763
X-21.20488 Y-17.10904
X-17.36394 Y-21.0009
X-12.87487 Y-24.01763
X-7.9547 Y-26.06535
X-2.56009 Y-27.12819
X1.87221 Y-27.02521
X1.83559 Y-25.44907
X-2.26218 Y-25.5689
X-7.3532 Y-24.59622
X-11.99715 Y-22.69485
X-16.24073 Y-19.87904
X-19.87823 Y-16.23717
X-22.81223 Y-11.77282
X-24.68026 Y-7.05856
X-25.59442 Y-1.98227
X-25.48375 Y3.08387
X-24.36099 Y8.09479
X-22.28593 Y12.73717
X-19.26527 Y16.96476
X-15.5076 Y20.45412
X-11.01465 Y23.1831
X-5.97058 Y24.96614
X-0.89435 Y25.65508
X4.1745 Y25.3266
X9.20506 Y23.95985
X13.94781 Y21.54922
X17.9946 Y18.30878
X21.2253 Y14.43888
X23.64944 Y9.97573
X25.19905 Y4.89651
X25.66862 Y-0.18677
X25.11308 Y-5.31524
X23.53131 Y-10.25218
X20.9271 Y-14.86121
X17.40764 Y-18.86623
X13.32107 Y-21.94327
X8.68763 Y-24.15453
X3.65335 Y-25.39592
X1.83559 Y-25.44907
X1.78953 Y-23.87379
X3.59685 Y-23.80943
X8.29689 Y-22.61586
X12.62825 Y-20.51493
X16.44492 Y-17.60397
X19.72813 Y-13.82071
X22.14421 Y-9.48009
X23.59823 Y-4.8405
X24.08932 Y-0.02569
X23.61921 Y4.74069
X22.13394 Y9.50308
X19.83512 Y13.67237
X16.78222 Y17.28394
X12.96312 Y20.30401
X8.49462 Y22.54019
X3.76806 Y23.79201
X-0.98709 Y24.07029
X-5.74742 Y23.3944
X-10.47628 Y21.68968
X-14.6748 Y19.1026
X-18.17771 Y15.80832
X-20.98856 Y11.82229
X-22.90768 Y7.45602
X-23.93255 Y2.74631
X-24.00711 Y-2.00717
X-23.11964 Y-6.76762
X-21.34002 Y-11.17889
X-18.55699 Y-15.35712
X-15.12469 Y-18.75005
X-11.12766 Y-21.36664
X-6.7607 Y-23.12343
X-1.97377 Y-24.00781
X1.78953 Y-23.87379
X1.73346 Y-22.29951
X-1.69549 Y-22.4449
X-6.17784 Y-21.64681
X-10.26697 Y-20.03271
X-14.01637 Y-17.61349
X-17.24156 Y-14.46842
X-19.87176 Y-10.57526
X-21.56097 Y-6.4665
X-22.41968 Y-2.02164
X-22.37918 Y2.41892
X-21.45015 Y6.82691
X-19.68518 Y10.916
X-17.08237 Y14.65923
X-13.83279 Y17.7568
X-9.92805 Y20.19985
X-5.51399 Y21.82416
X-1.06928 Y22.48492
X3.37209 Y22.25468
X7.79366 Y21.11582
X11.98654 Y19.05243
X15.57657 Y16.2512
X18.45014 Y12.89648
X20.62158 Y9.02044
X22.04044 Y4.57445
X22.50897 Y0.12486
X22.08019 Y-4.37604
X20.75188 Y-8.71749
X18.52232 Y-12.78815
X15.4739 Y-16.34806
X11.92584 Y-19.09127
X7.8947 Y-21.08016
X3.5296 Y-22.22335
X1.73346 Y-22.29951
X1.66676 Y-20.7264
X3.45087 Y-20.63781
X7.48012 Y-19.54775
X11.21331 Y-17.67266
X14.49408 Y-15.09902
X17.30925 Y-11.76413
X19.354 Y-7.96511
X20.55882 Y-3.92261
X20.92759 Y0.26415
X20.46288 Y4.39707
X19.11267 Y8.52714
X17.07084 Y12.11056
X14.37814 Y15.21008
X11.01867 Y17.79411
X7.10291 Y19.68648
X2.98737 Y20.71451
X-1.14017 Y20.899
X-5.26958 Y20.25559
X-9.36928 Y18.71394
X-12.98092 Y16.41722
X-15.97879 Y13.51807
X-18.37544 Y10.01893
X-19.98818 Y6.20819
X-20.82355 Y2.10242
X-20.83218 Y-2.02496
X-20.00443 Y-6.15449
X-18.40781 Y-9.96125
X-15.93239 Y-13.57052
X-12.91638 Y-16.46886
X-9.41572 Y-18.69273
X-5.6053 Y-20.16615
X-1.42805 Y-20.88009
X1.66676 Y-20.7264
X1.58872 Y-19.15469
X-1.17225 Y-19.31333
G02 X-14.63 Y-12.6628 I1.16638 J19.3018
G1 X-16.94858 Y-9.3361
G02 X-12.11846 Y15.08443 I16.95012 J9.33538
G1 X-8.79924 Y17.23232
X-5.01342 Y18.68889
G02 X6.42317 Y18.25187 I5.01278 J-18.6814
G1 X10.0602 Y16.52861
G02 X17.60754 Y8.02243 I-10.05056 J-16.51902
G1 X18.88672 Y4.20771
G02 X17.95021 Y-7.2238 I-18.89747 J-4.20598
G1 X16.08845 Y-10.74934
X13.50483 Y-13.85744
G02 X3.3598 Y-19.05292 I-13.48905 J13.83691
G1 X1.58872 Y-19.15469
X1.50543 Y-17.7052
G03 X-0.92904 Y-17.74457 I-1.50385 J17.7052
G1 X1.50543 Y-17.7052
Z31.26014 F5000.
G0 Z49.63773
X-31.39378 Y-36.0909
G1 Z28.19762 F1228.
Z27.56262 F3684.
X-28.63121 Y-29.67541 F3684.
X-29.97858 Y-28.11236 F4912.
X-30.17956 Y-26.87557
Y-25.47185
X-27.37661 Y-28.69945
X-25.56182 Y-30.12758
X-23.01095 Y-30.13011
X-26.18198 Y-27.65398
X-30.17956 Y-23.08605
Y-20.34085
X-29.49405 Y-21.49986
X-24.99151 Y-26.60377
X-20.43559 Y-30.13266
X-17.43481 Y-30.13563
X-18.56262 Y-29.5754
X-23.80539 Y-25.54865
X-28.13109 Y-20.68592
X-30.17956 Y-17.25574
Y-14.05187
X-30.02676 Y-14.46988
X-26.77176 Y-19.86594
X-22.62385 Y-24.48841
X-17.60101 Y-28.31228
X-13.88301 Y-30.13916
X-9.63127 Y-30.14337
X-11.01069 Y-29.78173
X-16.64505 Y-27.04489
X-21.44711 Y-23.42283
X-25.41625 Y-19.03965
X-28.53827 Y-13.91803
X-30.17956 Y-9.49099
Y9.85023
Z28.19762 F5000.
G0 Z49.63773
X-36.34454 Y30.66072
G1 Z28.19762 F1228.
Z27.56262 F3684.
X-29.74803 Y28.36372 F3684.
X-27.98762 Y30.00979 F4912.
X-27.37557 Y30.1628
X-25.53279
X-29.89246 Y26.0553
X-30.17956 Y25.6561
Y22.96914
X-28.7993 Y24.90414
X-23.40275 Y30.02876
X-23.1905 Y30.1628
X-20.23816
X-22.54968 Y28.68994
X-27.70144 Y23.75747
X-30.17956 Y20.25343
Y17.5065
X-26.59868 Y22.61551
X-21.69099 Y27.35473
X-17.32459 Y30.1628
X-13.93855
X-15.26841 Y29.63238
X-20.82643 Y26.0233
X-25.49082 Y21.47849
X-29.06261 Y16.33424
X-30.17956 Y13.79369
Y9.85023
X-27.75443 Y15.43488
X-24.37763 Y20.3467
X-19.95575 Y24.69587
X-14.67368 Y28.16049
X-9.71815 Y30.1628
X9.63653
Z28.19762 F5000.
G0 Z49.63773
X29.74866 Y36.76921
G1 Z28.19762 F1228.
Z27.56262 F3684.
X28.05455 Y29.99277 F3684.
X29.9288 Y28.19603 F4912.
X30.12443 Y27.58467
X30.12572 Y25.73698
X29.87645 Y26.08409
X25.59074 Y30.1628
X23.20522
X23.46092 Y29.99824
X28.59056 Y25.15315
X30.12761 Y23.03003
X30.12948 Y20.35285
X27.30839 Y24.2171
X22.3754 Y28.83988
X20.30214 Y30.1628
X17.36417
X21.29464 Y27.67707
X26.03012 Y23.27573
X29.92771 Y17.9833
X30.13143 Y17.55578
X30.13398 Y13.89799
X28.49757 Y17.2942
X24.75596 Y22.3288
X20.21888 Y26.50965
X15.02804 Y29.76191
X13.9982 Y30.1628
X9.63653
X14.19112 Y28.41294
X19.14836 Y25.33741
X23.48613 Y21.37607
X27.07056 Y16.59864
X29.75938 Y11.08227
X30.13693 Y9.67222
X30.14371 Y-0.03475
Z28.19762 F5000.
G0 Z49.63773
X36.27912 Y-30.90228
G1 Z28.19762 F1228.
Z27.56262 F3684.
X29.78442 Y-28.33146 F3684.
X28.86671 Y-29.41078 F4912.
X28.12443 Y-29.97644
X26.87443 Y-30.17956
X25.46757 Y-30.17817
X27.67744 Y-28.40253
X30.16146 Y-25.45915
X30.15975 Y-23.01142
X26.67839 Y-27.16881
X22.96519 Y-30.17569
X20.48779 Y-30.17323
X25.67447 Y-25.93905
X30.15803 Y-20.54121
X30.15577 Y-17.30556
X28.97162 Y-19.48504
X24.66549 Y-24.71345
X19.49265 Y-28.97203
X17.28735 Y-30.17006
X14.01666 Y-30.16681
X18.7288 Y-27.58039
X23.65122 Y-23.49221
X27.74184 Y-18.48115
X30.15346 Y-13.99577
X30.15033 Y-9.51161
X29.32983 Y-12.17536
X26.50749 Y-17.48288
X22.63146 Y-22.27556
X17.95861 Y-26.19223
X12.75346 Y-29.0802
X9.45333 Y-30.16229
X1.11954 Y-30.15403
X6.69301 Y-29.42582
X12.25173 Y-27.57407
X17.18179 Y-24.80778
X21.60594 Y-21.06376
X25.26837 Y-16.49054
X27.92461 Y-11.43678
X29.57861 Y-5.97495
X30.14419 Y-0.72338
X30.14371 Y-0.03475
X29.74196 Y5.11296
X28.22782 Y10.66455
X25.64687 Y15.8963
X22.22089 Y20.41726
X18.08338 Y24.16014
X13.36045 Y27.06011
X7.96327 Y29.10505
X2.4358 Y30.079
X-3.11311 Y30.01757
X-8.66458 Y28.90596
X-14.07205 Y26.69141
X-19.07864 Y23.37268
X-23.25887 Y19.2204
X-26.4419 Y14.5419
X-28.75179 Y9.15264
X-29.95837 Y3.62579
X-30.10617 Y-2.05809
X-29.16329 Y-7.74832
X-27.05244 Y-13.35904
X-24.06479 Y-18.20675
X-20.27545 Y-22.35169
X-15.69504 Y-25.77303
X-10.32388 Y-28.35049
X-4.61126 Y-29.81833
X1.08382 Y-30.15399
Z28.19762 F5000.
G0 Z49.63773
X-17.43644 Y24.46125
G1 Z28.19762 F1228.
Z27.56262 F3684.
X-16.56487 Y23.14642 F4912.
X-13.46314 Y25.22533
X-8.34532 Y27.35089
X-3.08776 Y28.43028
X2.16811 Y28.51423
X7.40804 Y27.61781
X12.53638 Y25.70325
X17.02424 Y22.9776
X20.9605 Y19.45208
X24.22672 Y15.18684
X26.69832 Y10.23937
X28.1599 Y4.98173
X28.59588 Y-0.27446
X28.05697 Y-5.52244
X26.51565 Y-10.70534
X24.02426 Y-15.50447
X20.57441 Y-19.85707
X16.39799 Y-23.42727
X11.74254 Y-26.07045
X6.47947 Y-27.85275
X1.19391 Y-28.57025
X-4.22412 Y-28.27876
X-9.64424 Y-26.91583
X-14.75129 Y-24.49651
X-19.10914 Y-21.27471
X-22.71765 Y-17.3669
X-25.56946 Y-12.79254
X-27.59846 Y-7.48103
X-28.51902 Y-2.09148
X-28.40571 Y3.29504
X-27.28956 Y8.53454
X-25.12482 Y13.65564
X-22.13427 Y18.09994
X-18.19479 Y22.05398
X-16.56487 Y23.14642
X-15.6869 Y21.83649
X-17.30384 Y20.74006
X-21.00353 Y16.98568
X-23.80298 Y12.77651
X-25.82411 Y7.92414
X-26.8513 Y2.97258
X-26.93172 Y-2.11656
X-26.03504 Y-7.20556
X-24.08952 Y-12.21813
X-21.3751 Y-16.51971
X-17.94851 Y-20.19162
X-13.81419 Y-23.2151
X-8.97221 Y-25.47759
X-3.84538 Y-26.7371
X1.27062 Y-26.9846
X6.25764 Y-26.28083
X11.2255 Y-24.56951
X15.60683 Y-22.05096
X19.53656 Y-18.65581
X22.77491 Y-14.52503
X25.1028 Y-9.98147
X26.53297 Y-5.07794
X27.01586 Y-0.12056
X26.57852 Y4.84238
X25.17103 Y9.80631
X22.81035 Y14.46988
X19.70527 Y18.48019
X15.97129 Y21.78955
X11.71928 Y24.34218
X6.86046 Y26.12774
X1.90865 Y26.94808
X-3.0542 Y26.84313
X-8.0181 Y25.79748
X-12.84659 Y23.76245
X-15.6869 Y21.83649
X-14.8022 Y20.53178
X-12.22196 Y22.303
X-7.68245 Y24.24587
X-3.01195 Y25.25619
X1.65794 Y25.3805
X6.32098 Y24.63471
X10.90958 Y22.9767
X14.92492 Y20.59571
X18.45556 Y17.50123
X21.39802 Y13.74499
X23.64612 Y9.36495
X24.99793 Y4.69445
X25.43501 Y0.0246
X25.00652 Y-4.64194
X23.68585 Y-9.26563
X21.52006 Y-13.55266
X18.49207 Y-17.46032
X14.80791 Y-20.67915
X10.70017 Y-23.07144
X6.02704 Y-24.71016
X1.33825 Y-25.39854
X-3.47556 Y-25.19328
X-8.30823 Y-24.03562
X-12.88413 Y-21.92858
X-16.79391 Y-19.1021
X-20.03748 Y-15.66477
X-22.61285 Y-11.63538
X-24.47317 Y-6.92143
X-25.3443 Y-2.13286
X-25.2951 Y2.65892
X-24.35528 Y7.32189
X-22.47613 Y11.90494
X-19.86632 Y15.87802
X-16.40541 Y19.43126
X-14.8022 Y20.53178
X-13.91044 Y19.23269
X-15.49905 Y18.12793
X-18.72227 Y14.77743
X-21.14402 Y11.04144
X-22.88294 Y6.72829
X-23.73702 Y2.35466
X-23.75682 Y-2.13985
X-22.91301 Y-6.62811
X-21.13971 Y-11.04377
X-18.70515 Y-14.80161
X-15.64573 Y-18.00581
X-11.96157 Y-20.63666
X-7.65284 Y-22.58972
X-3.11524 Y-23.64721
X1.39623 Y-23.8121
X5.78716 Y-23.14089
X10.16608 Y-21.57648
X14.00072 Y-19.31217
X17.44057 Y-16.27099
X20.2594 Y-12.58784
X22.26461 Y-8.55837
X23.47752 Y-4.21496
X23.85333 Y0.16045
X23.41822 Y4.53741
X22.12379 Y8.91478
X19.99003 Y13.01168
X17.21175 Y16.51477
X13.88557 Y19.39574
X10.10777 Y21.60658
X5.79012 Y23.1386
X1.41655 Y23.81146
X-2.9605 Y23.66953
X-7.33788 Y22.69622
X-11.58877 Y20.84725
X-13.91044 Y19.23269
X-13.01122 Y17.93964
X-10.94646 Y19.39549
X-6.98383 Y21.1487
G02 X5.26845 Y21.63927 I6.98165 J-21.12184
G1 X9.31437 Y20.23156
G02 X18.58675 Y12.26942 I-9.30843 J-20.22041
G1 X20.60425 Y8.45524
X21.8395 Y4.37068
X22.27083 Y0.28638
G02 X18.99258 Y-11.63111 I-22.27392 J-0.28254
G1 X16.38167 Y-15.08824
X13.18474 Y-17.95043
X9.62269 Y-20.08488
X5.5374 Y-21.57316
X1.44393 Y-22.22532
X-2.76511 Y-22.0988
X-7.00662 Y-21.1397
X-11.04704 Y-19.33905
X-14.50444 Y-16.90236
X-17.37854 Y-13.92967
X-19.67038 Y-10.44275
X-21.35471 Y-6.32501
X-22.16932 Y-2.13694
X-22.17703 Y2.06046
X-21.40691 Y6.1439
X-19.80635 Y10.18657
X-17.57096 Y13.68444
X-14.58424 Y16.83051
X-13.01122 Y17.93964
X-12.10411 Y16.65313
X-13.66044 Y15.53949
G03 X-19.79849 Y-6.01145 I13.65972 J-15.54008
G1 X-18.2052 Y-9.83167
G03 X-10.14114 Y-18.0354 I18.19444 J9.81942
G1 X-6.37027 Y-19.68532
G03 X-10.29441 Y17.94808 I6.37086 J19.6856
G1 X-12.10411 Y16.65313
X-11.24457 Y15.45192
G02 X-12.72698 Y14.25543 I11.24631 J-15.45045
G1 X-11.24457 Y15.45192
Z28.19762 F5000.
G0 Z49.63773
X-27.30905 Y-37.11085
G1 Z25.13511 F1228.
Z24.50011 F3684.
X-27.302 Y-30.12586 F3684.
X-28.78404 Y-28.90411 F4912.
X-30.11051 Y-27.30611
X-30.18048 Y-26.87557
Y-24.75946
X-27.56622 Y-27.88574
X-24.82541 Y-30.12835
X-22.32688 Y-30.13087
X-26.35224 Y-26.8628
X-30.18048 Y-22.31965
Y-19.559
X-29.5941 Y-20.59379
X-25.14228 Y-25.8351
X-19.86367 Y-30.08588
X-19.7741 Y-30.13345
X-16.41647 Y-30.13683
X-18.87315 Y-28.84531
X-23.93655 Y-24.80245
X-28.21613 Y-19.80552
X-30.18048 Y-16.37167
Y-12.89164
X-29.87249 Y-13.76495
X-26.84154 Y-19.01139
X-22.73524 Y-23.76466
X-17.88803 Y-27.60044
X-13.00543 Y-30.14027
X-8.00587 Y-30.14531
X-11.61416 Y-29.07457
X-16.90862 Y-26.35107
X-21.5386 Y-22.72149
X-25.4705 Y-18.21113
X-28.37772 Y-13.23034
X-30.18048 Y-8.18981
Y7.88715
Z25.13511 F5000.
G0 Z49.63773
X-36.66599 Y29.7402
G1 Z25.13511 F1228.
Z24.50011 F3684.
X-30.06947 Y27.4432 F3684.
X-27.21448 Y30.16371 F4912.
X-24.94809
X-29.70085 Y25.60165
X-30.18048 Y24.92521
Y22.20939
X-28.59719 Y24.46056
X-23.47267 Y29.41695
X-22.33299 Y30.16371
X-19.4635
X-22.59738 Y28.09255
X-27.48904 Y23.32383
X-30.18048 Y19.46449
Y16.60773
X-30.08225 Y16.83011
X-26.3762 Y22.19169
X-21.71664 Y26.77177
X-16.63001 Y30.16371
X-12.73785
X-15.76613 Y28.86339
X-20.83021 Y25.45481
X-25.25849 Y21.06435
X-28.77245 Y15.93313
X-30.18048 Y12.70738
Y7.88715
X-29.79099 Y9.63143
X-27.45857 Y15.04213
X-24.13571 Y19.94207
X-19.93781 Y24.14188
X-15.13335 Y27.40746
X-9.65767 Y29.78731
X-7.99937 Y30.16371
X8.15274
Z25.13511 F5000.
G0 Z49.63773
X27.18446 Y37.14871
G1 Z25.13511 F1228.
Z24.50011 F3684.
Y30.16371 F3684.
X30.08287 Y27.54895 F4912.
X30.1245 Y27.49368
X30.12637 Y24.86589
X28.81837 Y26.58916
X24.82625 Y30.16371
X22.4484
X27.5576 Y25.62448
X30.12823 Y22.26487
X30.13007 Y19.69184
X26.30075 Y24.65469
X21.14958 Y29.19412
X19.50627 Y30.16371
X16.40032
X20.10502 Y27.99869
X25.04801 Y23.6796
X29.08149 Y18.49765
X30.1324 Y16.42742
X30.13488 Y12.96654
X27.66903 Y17.77301
X23.79961 Y22.69896
X19.06575 Y26.79866
X13.71584 Y29.89383
X12.94514 Y30.16371
X8.15274
X12.92717 Y28.51609
X18.03204 Y25.59384
X22.55579 Y21.71251
X26.25982 Y17.04206
X29.09153 Y11.5828
X30.1384 Y8.04103
X30.14985 Y-7.98786
Z25.13511 F5000.
G0 Z49.63773
X37.14871 Y-27.37007
G1 Z25.13511 F1228.
Z24.50011 F3684.
X30.16371 Y-27.37506 F3684.
X29.61669 Y-28.0685 F4912.
X27.30249 Y-30.11091
X26.87443 Y-30.18048
X24.85343 Y-30.17844
X28.56203 Y-26.88198
X30.1619 Y-24.83929
X30.16007 Y-22.28146
X27.50301 Y-25.69934
X22.55648 Y-30.12884
X22.47965 Y-30.17604
X19.47168 Y-30.17301
X21.7202 Y-28.77947
X26.43946 Y-24.52077
X30.15822 Y-19.69986
X30.15588 Y-16.42138
X29.15127 Y-18.40613
X25.3712 Y-23.34647
X20.87843 Y-27.43352
X16.50289 Y-30.17002
X12.7618 Y-30.16625
X14.97182 Y-29.28527
X20.03093 Y-26.09117
X24.29804 Y-22.17665
X27.88655 Y-17.44663
X30.15338 Y-12.92142
X30.14985 Y-7.98786
X29.22969 Y-11.22091
X26.61773 Y-16.49257
X23.21976 Y-21.01155
X19.17744 Y-24.75263
X14.37752 Y-27.81321
X8.92412 Y-30.01486
X8.19531 Y-30.16164
Z25.13511 F5000.
G0 Z49.63773
X27.22274 Y15.18564
G1 Z25.13511 F1228.
Z24.50011 F3684.
X25.82224 Y14.4592 F4912.
X27.57131 Y11.12556
X29.12419 Y5.96257
X29.72287 Y0.39249
X29.24127 Y-5.381
X27.804 Y-10.52266
X25.34463 Y-15.54421
X22.13613 Y-19.85142
X18.31765 Y-23.41812
X13.77643 Y-26.34391
X8.60376 Y-28.46002
X3.38016 Y-29.5363
X-2.12105 Y-29.67629
X-5.64892 Y-29.18882
X-10.89475 Y-27.65943
X-15.93522 Y-25.09702
X-20.34688 Y-21.67269
X-24.10323 Y-17.40445
X-26.88544 Y-12.6888
X-28.77614 Y-7.47882
X-29.64283 Y-2.21153
X-29.50992 Y3.60568
X-28.33018 Y9.01
X-26.14044 Y14.15744
X-23.00761 Y18.82513
X-19.03917 Y22.83322
X-14.49384 Y25.95446
X-9.29903 Y28.24085
X-4.1123 Y29.44371
X1.40977 Y29.69592
X6.89392 Y28.91877
X12.14513 Y27.13458
X17.00417 Y24.38402
X21.31683 Y20.71998
X24.85406 Y16.3045
X25.82224 Y14.4592
X24.42557 Y13.7264
X23.45196 Y15.56001
X20.08302 Y19.72104
X15.9825 Y23.16898
X11.37012 Y25.74912
X6.39076 Y27.41312
X1.19487 Y28.12303
X-4.03198 Y27.85824
X-8.93276 Y26.69618
X-13.84729 Y24.50459
X-18.13394 Y21.5291
X-21.87395 Y17.71384
X-24.81785 Y13.27941
X-26.86625 Y8.39594
X-27.95726 Y3.27489
X-28.05558 Y-2.23983
X-27.21105 Y-7.21304
X-25.39583 Y-12.13998
X-22.73997 Y-16.59102
X-19.16038 Y-20.61801
X-14.9682 Y-23.83804
X-10.18248 Y-26.24069
X-5.21229 Y-27.66255
X-1.91123 Y-28.10272
X3.3338 Y-27.94948
X8.27603 Y-26.90672
X13.16821 Y-24.87754
X17.45124 Y-22.0879
X21.04689 Y-18.69656
X24.06706 Y-14.60189
X26.37494 Y-9.83132
X27.71028 Y-4.96121
X28.14024 Y0.51671
X27.54667 Y5.78483
X26.0534 Y10.66069
X24.42557 Y13.7264
X23.03297 Y12.98696
X24.53797 Y10.18777
X25.97014 Y5.59852
X26.55699 Y0.63277
X26.1771 Y-4.54948
X24.94237 Y-9.1473
X22.78481 Y-13.66595
X19.95175 Y-17.54728
X16.57785 Y-20.76225
X12.55248 Y-23.41432
X7.94042 Y-25.3551
X3.28126 Y-26.36285
X-1.70937 Y-26.52811
X-4.7838 Y-26.13397
X-9.47776 Y-24.81818
X-14.00794 Y-22.5739
X-17.9794 Y-19.55713
X-21.38098 Y-15.77046
X-23.90905 Y-11.58353
X-25.64742 Y-6.93876
X-26.4682 Y-2.25972
X-26.40288 Y2.95233
X-25.39906 Y7.7897
X-23.49061 Y12.40845
X-20.73446 Y16.60852
X-17.22177 Y20.22983
X-13.19332 Y23.05805
X-8.55844 Y25.15344
X-3.94334 Y26.27322
X0.98825 Y26.54903
X5.89558 Y25.90483
X10.60253 Y24.35953
X14.96739 Y21.94844
X18.85472 Y18.71534
X22.05374 Y14.80825
X23.03297 Y12.98696
X21.64472 Y12.24057
X20.65967 Y14.04883
X17.63232 Y17.70248
X13.95924 Y20.72215
X9.84283 Y22.96561
X5.40887 Y24.39377
X0.79039 Y24.97391
X-3.84586 Y24.68871
X-8.1756 Y23.6128
X-12.53153 Y21.61507
X-16.30225 Y18.93575
X-19.58883 Y15.50957
X-22.15845 Y11.54502
X-23.92847 Y7.19177
X-24.84671 Y2.63851
X-24.88074 Y-2.27073
X-24.08541 Y-6.65543
X-22.4253 Y-11.01905
X-20.02657 Y-14.94238
X-16.80432 Y-18.48974
X-13.0549 Y-21.30431
X-8.78105 Y-23.39173
X-4.36398 Y-24.60299
X-1.51604 Y-24.95242
X3.22234 Y-24.77644
X7.59635 Y-23.80533
X11.92881 Y-21.95446
X15.69707 Y-19.4415
X18.85041 Y-16.40395
X21.49764 Y-12.73678
X23.50611 Y-8.47105
X24.64165 Y-4.14632
X24.97313 Y0.74021
X24.39472 Y5.40309
X23.02523 Y9.70635
X21.64472 Y12.24057
X20.26113 Y11.48686
X21.51539 Y9.21591
X22.82053 Y5.19794
X23.38867 Y0.83853
X23.10382 Y-3.75231
X22.06597 Y-7.8031
X20.2053 Y-11.81482
G02 X11.29675 Y-20.49821 I-20.18058 J11.7924
G1 X7.2431 Y-22.25764
X3.15685 Y-23.19029
X-1.3319 Y-23.37564
X-3.95338 Y-23.06951
X-8.09288 Y-21.96115
X-12.10958 Y-20.02895
X-15.63552 Y-17.41546
X-18.67709 Y-14.10629
X-20.9448 Y-10.44609
X-22.52518 Y-6.36244
X-23.29324 Y-2.2723
X-23.28869 Y2.33397
X-22.45432 Y6.60268
X-20.82112 Y10.68963
X-18.43673 Y14.41741
X-15.37491 Y17.64726
X-11.86149 Y20.1759
X-7.78371 Y22.07443
X-3.73902 Y23.10481
X0.60187 Y23.39765
X4.93119 Y22.87985
X9.09157 Y21.56712
X12.95852 Y19.48978
X16.41627 Y16.68201
X19.27003 Y13.28133
X20.26113 Y11.48686
X18.88255 Y10.72545
X17.88516 Y12.50525
G03 X-7.38215 Y20.53856 I-17.88633 J-12.5047
G1 X-11.18269 Y18.74085
G03 X-21.72877 Y2.03937 I11.18318 J-18.74195
G1 X-21.70577 Y-2.26381
G03 X-17.33293 Y-13.26166 I21.67513 J2.24995
G1 X-14.47347 Y-16.33389
G03 X-1.15776 Y-21.79772 I14.49617 J16.37057
G1 X3.08459 Y-21.60444
G03 X21.5635 Y-3.36814 I-3.08202 J21.60356
G1 X21.80365 Y0.92714
X21.24774 Y4.98233
X20.00869 Y8.71589
X18.88255 Y10.72545
X17.59769 Y10.00543
G02 X16.50543 Y11.72008 I-17.59789 J-10.00492
G1 X17.59769 Y10.00543
Z25.13511 F5000.
G0 Z49.63773
X-26.4111 Y-37.11178
G1 Z22.0726 F1228.
Z21.4376 F3684.
X-26.40394 Y-30.12678 F3684.
X-29.65884 Y-27.17756 F4912.
X-30.18139 Y-26.48822
Y-23.8781
X-28.39725 Y-26.21395
X-24.0442 Y-30.1292
X-21.49928 Y-30.13181
X-22.00854 Y-29.82499
X-27.13933 Y-25.24554
X-30.18139 Y-21.29403
Y-18.57134
X-29.92996 Y-19.06115
X-25.88527 Y-24.27216
X-20.95618 Y-28.63643
X-18.44637 Y-30.13494
X-15.35273 Y-30.13811
X-19.90877 Y-27.44349
X-24.63525 Y-23.29359
X-28.52061 Y-18.33047
X-30.18139 Y-15.12716
Y-11.39543
X-29.92614 Y-12.22633
X-27.11438 Y-17.59381
X-23.38949 Y-22.30959
X-18.86657 Y-26.24601
X-13.6628 Y-29.29324
X-11.33362 Y-30.14223
X-5.29022 Y-30.14842
X-7.79971 Y-29.74068
X-12.86686 Y-27.91969
X-17.82985 Y-25.04377
X-22.14824 Y-21.31992
X-25.71143 Y-16.85091
X-28.41079 Y-11.75319
X-30.03104 Y-6.56392
X-30.18139 Y-5.32011
Y5.58233
Z22.0726 F5000.
G0 Z49.63773
X-37.16639 Y26.49403
G1 Z22.0726 F1228.
Z21.4376 F3684.
X-30.18139 F3684.
X-29.70087 Y27.13319 F4912.
X-26.36628 Y30.16462
X-24.04009
X-28.62873 Y25.96244
X-30.18139 Y23.88123
Y21.24319
X-27.55214 Y24.79578
X-22.51403 Y29.44491
X-21.36602 Y30.16462
X-18.40625
X-21.66545 Y28.10324
X-26.47093 Y23.63339
X-30.18139 Y18.57784
Y15.15215
X-29.17718 Y17.26307
X-25.38492 Y22.47548
X-20.81131 Y26.76511
X-15.49811 Y30.15655
X-15.47802 Y30.16462
X-11.2678
X-14.89956 Y28.68621
X-19.95138 Y25.43069
X-24.29391 Y21.32229
X-27.88941 Y16.33473
X-30.18139 Y11.46172
Y5.58233
X-28.94712 Y10.35606
X-26.59741 Y15.41229
X-23.19767 Y20.17407
X-19.08539 Y24.10019
X-14.29415 Y27.21868
X-9.10261 Y29.36041
X-5.22235 Y30.16462
X5.19081
Z22.0726 F5000.
G0 Z49.63773
X26.39077 Y37.14962
G1 Z22.0726 F1228.
Z21.4376 F3684.
Y30.16462 F3684.
X29.97331 Y26.83491 F4912.
X30.12513 Y26.63075
X30.12707 Y23.98189
X28.70278 Y25.88311
X24.06295 Y30.16462
X21.37804
X22.43043 Y29.51097
X27.43577 Y24.92664
X30.12898 Y21.35901
X30.1309 Y18.73947
X30.09472 Y18.8108
X26.17244 Y23.96531
X21.36277 Y28.33612
X18.39284 Y30.16462
X15.36938
X20.29991 Y27.15693
X24.91296 Y22.99894
X28.68185 Y18.08695
X30.13345 Y15.25361
X30.13617 Y11.53758
X29.9184 Y12.24479
X27.27203 Y17.35718
X23.65755 Y22.0273
X19.24208 Y25.97323
X14.05788 Y29.10512
X11.26655 Y30.16462
X5.19081
X8.17913 Y29.63852
X13.24314 Y27.74263
X18.18956 Y24.7848
X22.40641 Y21.05015
X25.86543 Y16.62122
X28.40337 Y11.77062
X30.0283 Y6.57872
X30.14047 Y5.65415
X30.14878 Y-5.70469
Z22.0726 F5000.
G0 Z49.63773
X37.149 Y-26.52332
G1 Z22.0726 F1228.
Z21.4376 F3684.
X30.164 Y-26.52843 F3684.
X29.74401 Y-27.08885 F4912.
X26.36624 Y-30.18087
X24.0507 Y-30.17849
X28.66796 Y-25.92168
X30.16209 Y-23.9129
X30.16016 Y-21.27253
X27.58762 Y-24.75849
X22.61991 Y-29.37234
X21.35872 Y-30.17573
X18.43774 Y-30.17274
X21.76172 Y-28.03681
X26.50283 Y-23.59944
X30.15821 Y-18.60528
X30.15573 Y-15.20939
X29.195 Y-17.23347
X25.41342 Y-22.44474
X20.89801 Y-26.70483
X15.90624 Y-29.94168
X15.35944 Y-30.16959
X11.29317 Y-30.16542
X15.28899 Y-28.47909
X20.02856 Y-25.37659
X24.3192 Y-21.29459
X27.90615 Y-16.30663
X30.15303 Y-11.51872
X30.14878 Y-5.70469
X28.95381 Y-10.33739
X26.61314 Y-15.38561
X23.21997 Y-20.14923
X19.15309 Y-24.05232
X14.66494 Y-27.01939
X9.43001 Y-29.25743
X5.32503 Y-30.1593
Z22.0726 F5000.
G0 Z49.63773
X-7.01155 Y29.7938
G1 Z22.0726 F1228.
Z21.4376 F3684.
X-6.69149 Y28.24952 F4912.
X-3.26986 Y28.97611
X2.22233 Y29.07533
X7.62964 Y28.14915
X12.43489 Y26.37629
X17.14264 Y23.59144
X21.1598 Y20.06725
X24.46224 Y15.87878
X26.89065 Y11.28911
X28.4533 Y6.37993
X29.14727 Y0.88159
X28.80264 Y-4.56759
X27.51036 Y-9.67662
X25.31578 Y-14.47073
X22.11551 Y-19.00891
X18.27132 Y-22.73223
X14.03374 Y-25.56277
X9.08184 Y-27.70858
X3.63585 Y-28.93281
X-1.82452 Y-29.10323
X-7.26996 Y-28.24418
X-12.07752 Y-26.54234
X-16.79892 Y-23.83657
X-20.91175 Y-20.3243
X-24.31195 Y-16.1015
X-26.89774 Y-11.27272
X-28.45595 Y-6.3658
X-29.14761 Y-0.86681
X-28.80025 Y4.58236
X-27.50424 Y9.69404
X-25.301 Y14.49607
X-22.09595 Y19.0311
X-18.21308 Y22.77383
X-13.68151 Y25.75416
X-8.77285 Y27.80754
X-6.69149 Y28.24952
X-6.364 Y26.70733
X-8.43511 Y26.25638
X-13.06126 Y24.29284
X-17.33412 Y21.45187
X-20.98849 Y17.8937
X-23.99995 Y13.58644
X-26.05798 Y9.03945
X-27.25952 Y4.19984
X-27.56284 Y-0.95997
X-26.88189 Y-6.15967
X-25.38718 Y-10.78452
X-22.91616 Y-15.34526
X-19.68033 Y-19.32242
X-15.77412 Y-22.62415
X-11.29515 Y-25.16102
X-6.74776 Y-26.74503
X-1.58473 Y-27.53394
X3.57821 Y-27.34636
X8.72575 Y-26.16153
X13.39502 Y-24.10943
X17.38293 Y-21.41658
X21.00558 Y-17.87392
X24.01385 Y-13.56235
X26.06354 Y-9.02329
X27.2617 Y-4.18592
X27.56246 Y0.97397
X26.87933 Y6.17313
X25.38043 Y10.79985
X23.06266 Y15.12956
X19.91798 Y19.07829
X16.10166 Y22.3929
X11.63349 Y25.00592
X7.08768 Y26.65703
X1.96194 Y27.50934
X-3.2331 Y27.38903
X-6.364 Y26.70733
X-6.02871 Y25.16741
X-3.18779 Y25.80218
X1.70957 Y25.94202
X6.55371 Y25.16203
X10.83934 Y23.63133
X15.06699 Y21.18889
X18.68126 Y18.08295
X21.66692 Y14.37322
X23.87288 Y10.30239
X25.3065 Y5.95783
X25.97719 Y1.05807
X25.7188 Y-3.81228
X24.61317 Y-8.37784
X22.70714 Y-12.66088
X19.88991 Y-16.74457
X16.48756 Y-20.10568
X12.74833 Y-22.65962
X8.36131 Y-24.61643
X3.51196 Y-25.76024
X-1.35294 Y-25.96345
X-6.23356 Y-25.24311
X-10.52016 Y-23.77554
X-14.75584 Y-21.40627
X-18.45432 Y-18.31393
X-21.52427 Y-14.58183
X-23.87928 Y-10.28814
X-25.30897 Y-5.94503
X-25.97761 Y-1.04486
X-25.71682 Y3.82538
X-24.60819 Y8.39273
X-22.69405 Y12.68378
X-19.87498 Y16.76222
X-16.44818 Y20.13457
X-12.43297 Y22.83496
X-8.08895 Y24.70708
X-6.02871 Y25.16741
X-5.68519 Y23.62997
X-7.73385 Y23.15981
X-11.79614 Y21.3808
X-15.55489 Y18.82225
X-18.75509 Y15.63705
X-21.38305 Y11.78856
X-23.15467 Y7.75441
X-24.17207 Y3.45946
X-24.39194 Y-1.12097
X-23.7373 Y-5.72139
X-22.37426 Y-9.78308
X-20.13655 Y-13.81086
X-17.23411 Y-17.29843
X-13.74449 Y-20.18261
X-9.75304 Y-22.38569
X-5.72789 Y-23.7383
X-1.12959 Y-24.39174
X3.43653 Y-24.17453
X7.98803 Y-23.07344
X12.09322 Y-21.2136
X15.58483 Y-18.79983
X18.76822 Y-15.6212
X21.39536 Y-11.76678
X23.15908 Y-7.74083
X24.17386 Y-3.44715
X24.39148 Y1.1334
X23.73492 Y5.73353
X22.36824 Y9.79623
X20.27527 Y13.60936
X17.44999 Y17.08089
X14.03906 Y19.97913
X10.05293 Y22.25231
X6.02827 Y23.66401
X1.46568 Y24.37337
X-3.13337 Y24.21561
X-5.68519 Y23.62997
X-5.33297 Y22.09523
X-3.0692 Y22.62941
X1.23078 Y22.80335
X5.51194 Y22.16282
X9.27476 Y20.86862
X13.01836 Y18.76327
G02 X22.16475 Y5.49962 I-13.01011 J-18.75698
G1 X22.80535 Y1.19941
X22.62681 Y-3.09105
X21.70108 Y-7.11284
X20.07824 Y-10.88059
X17.64018 Y-14.5042
G02 X7.60538 Y-21.53275 I-17.62621 J14.48758
G1 X3.35127 Y-22.58932
X-0.91518 Y-22.81879
X-5.23133 Y-22.23046
G02 X-18.75329 Y-13.03193 I5.23352 J22.23135
G1 X-20.87238 Y-9.26877
X-22.16703 Y-5.48813
X-22.80584 Y-1.18776
X-22.62519 Y3.10261
X-21.69724 Y7.12508
X-20.06666 Y10.90127
X-17.62843 Y14.51866
G02 X-7.36927 Y21.61474 I17.63326 J-14.52916
G1 X-5.33297 Y22.09523
X-4.99457 Y20.66111
G03 X-2.99457 Y21.04366 I4.98873 J-20.66189
G1 X-4.99457 Y20.66111
Z22.0726 F5000.
G0 Z49.63773
X-30.77182 Y-36.36041
G1 Z19.01008 F1228.
Z18.37508 F3684.
X-28.01581 Y-29.94211 F3684.
X-30.02388 Y-27.85044 F4912.
X-30.1823 Y-26.87557
Y-25.42481
X-25.80969 Y-29.9478
X-25.5587 Y-30.12768
X-22.85821 Y-30.1305
X-24.67235 Y-28.84028
X-29.48838 Y-23.8946
X-30.1823 Y-22.8598
Y-20.03339
X-28.17318 Y-23.00556
X-23.5392 Y-27.72846
X-20.13049 Y-30.13334
X-17.37324 Y-30.13621
X-22.41044 Y-26.61219
X-26.86143 Y-22.11142
X-30.1823 Y-17.23953
Y-13.54735
X-28.96972 Y-16.24327
X-25.55332 Y-21.21198
X-21.2863 Y-25.49127
X-16.39861 Y-28.88065
X-13.61441 Y-30.14013
X-9.33969 Y-30.14458
X-10.23161 Y-29.92803
X-15.49964 Y-27.57221
X-20.16701 Y-24.3655
X-24.24902 Y-20.30701
X-27.5247 Y-15.58594
X-29.83402 Y-10.50936
X-30.1823 Y-9.1438
Y8.99325
Z19.01008 F5000.
G0 Z49.63773
X-36.36759 Y30.60239
G1 Z19.01008 F1228.
Z18.37508 F3684.
X-29.77107 Y28.30539 F3684.
X-29.51386 Y28.62384 F4912.
X-27.85922 Y30.04462
X-27.37557 Y30.16553
X-25.30365
X-28.47555 Y27.42298
X-30.1823 Y25.29462
Y22.77155
X-27.43296 Y26.22583
X-22.9092 Y30.16553
X-20.15841
X-21.34499 Y29.4557
X-26.38594 Y25.03256
X-30.1823 Y20.2253
Y17.06403
X-29.22892 Y18.8711
X-25.3343 Y23.84336
X-20.52478 Y28.0965
X-17.0961 Y30.16553
X-13.7175
X-14.7056 Y29.78132
X-19.69913 Y26.7406
X-24.27786 Y22.65842
X-27.97508 Y17.89742
X-30.1823 Y13.67158
Y8.99325
X-29.27488 Y11.97995
X-26.717 Y16.92923
X-23.2164 Y21.47796
X-18.86781 Y25.38818
X-14.12383 Y28.30426
X-9.39822 Y30.16553
X9.21341
Z19.01008 F5000.
G0 Z49.63773
X29.52065 Y36.82895
G1 Z19.01008 F1228.
Z18.37508 F3684.
X27.82654 Y30.05251 F3684.
X29.96612 Y28.08212 F4912.
X30.12443 Y27.58741
X30.12604 Y25.43435
X29.16488 Y26.69488
X25.36996 Y30.16553
X23.01843
X27.906 Y25.72772
X30.12798 Y22.83554
X30.12991 Y20.26262
X26.6508 Y24.75581
X21.85364 Y29.0789
X20.08858 Y30.16553
X17.07572
X20.7955 Y27.89547
X25.39944 Y23.77894
X29.21916 Y18.88593
X30.13224 Y17.14409
X30.13477 Y13.76409
X27.81619 Y18.14308
X24.15214 Y22.79691
X19.7422 Y26.70774
X14.50974 Y29.87172
X13.72526 Y30.16553
X9.21341
X13.69411 Y28.50977
X18.69397 Y25.51552
X22.9091 Y21.80949
X26.41643 Y17.39418
X29.13314 Y12.31646
X30.1382 Y9.17447
X30.15202 Y-9.305
Z19.01008 F5000.
G0 Z49.63773
X36.38997 Y-30.62917
G1 Z19.01008 F1228.
Z18.37508 F3684.
X29.89527 Y-28.05835 F3684.
X27.85108 Y-30.02359 F4912.
X26.87443 Y-30.1823
X25.42872 Y-30.18079
X29.96733 Y-25.78694
X30.16414 Y-25.5121
X30.16213 Y-22.81656
X28.85901 Y-24.65038
X23.91332 Y-29.47317
X22.86348 Y-30.17812
X20.04409 Y-30.17518
X23.02346 Y-28.15852
X27.7464 Y-23.51801
X30.16009 Y-20.09392
X30.15803 Y-17.34189
X26.62933 Y-22.39004
X22.12852 Y-26.84732
X17.25701 Y-30.17228
X13.57876 Y-30.16845
X16.25986 Y-28.96039
X21.22829 Y-25.53975
X25.50763 Y-21.26668
X28.88313 Y-16.39488
X30.15522 Y-13.58189
X30.15202 Y-9.305
X29.92823 Y-10.23114
X27.57433 Y-15.49644
X24.38107 Y-20.14819
X20.32253 Y-24.236
X15.60163 Y-27.51579
X10.52743 Y-29.82784
X9.21794 Y-30.16391
Z19.01008 F5000.
G0 Z49.63773
X10.14152 Y29.82257
G1 Z19.01008 F1228.
Z18.37508 F3684.
X9.59465 Y28.34268 F4912.
X12.8846 Y27.14417
X17.6511 Y24.31862
X21.67056 Y20.81642
X25.02009 Y16.63894
X27.62334 Y11.82588
X29.29593 Y6.6783
X30.02282 Y1.23535
X29.75176 Y-4.20264
X28.47607 Y-9.58976
X26.26145 Y-14.60397
X23.24943 Y-19.03483
X19.41098 Y-22.93629
X14.93702 Y-26.07411
X10.12622 Y-28.29188
X4.99988 Y-29.63093
X-0.24771 Y-30.06125
X-4.26116 Y-29.74398
X-9.59009 Y-28.47593
X-14.60665 Y-26.25968
X-19.05286 Y-23.23466
X-22.94877 Y-19.39624
X-26.08263 Y-14.92218
X-28.29756 Y-10.11005
X-29.63536 Y-4.96245
X-30.04418 Y0.48018
X-29.45894 Y5.91321
X-27.86129 Y11.25751
X-25.45448 Y15.96684
X-22.14971 Y20.30224
X-18.03055 Y24.03942
X-13.5353 Y26.82988
X-8.705 Y28.75801
X-3.26132 Y29.87076
X2.18012 Y29.9684
X7.60391 Y29.06789
X9.59465 Y28.34268
X9.05479 Y26.86075
X7.0678 Y27.57366
X1.92782 Y28.40108
X-3.22516 Y28.28367
X-8.3796 Y27.20422
X-12.93965 Y25.35837
X-17.18709 Y22.69453
X-21.07752 Y19.13152
X-24.1873 Y15.01059
X-26.44426 Y10.54183
X-27.93583 Y5.46567
X-28.465 Y0.31785
X-28.05291 Y-4.83592
X-26.76303 Y-9.7034
X-24.64367 Y-14.25168
X-21.65279 Y-18.47941
X-17.94413 Y-22.09849
X-13.71997 Y-24.94289
X-8.95547 Y-27.02079
X-3.9011 Y-28.19785
X-0.13005 Y-28.47811
X4.86406 Y-28.04926
X9.71803 Y-26.75775
X14.26569 Y-24.63554
X18.49337 Y-21.64087
X22.11248 Y-17.92691
X24.9443 Y-13.71781
X27.02088 Y-8.95527
X28.20524 Y-3.84427
X28.43692 Y1.30668
X27.72342 Y6.46061
X26.11592 Y11.32805
X23.62737 Y15.87705
X20.4368 Y19.81743
X16.61388 Y23.11682
X12.08153 Y25.77478
X9.05479 Y26.86075
X8.52234 Y25.37671
X11.28527 Y24.40142
X15.58264 Y21.90988
X19.20811 Y18.8122
X22.2385 Y15.10816
X24.61105 Y10.82255
X26.15204 Y6.23496
X26.85068 Y1.36988
X26.65691 Y-3.49376
X25.56254 Y-8.32804
X23.62267 Y-12.83834
X20.96993 Y-16.82476
X17.56937 Y-20.34998
X13.58729 Y-23.20029
X9.30242 Y-25.22562
X4.72193 Y-26.46813
X-0.02032 Y-26.89441
X-3.54889 Y-26.64992
X-8.32815 Y-25.5625
X-12.83997 Y-23.62162
X-16.84117 Y-20.95672
X-20.36135 Y-17.55619
X-23.20805 Y-13.57408
X-25.23057 Y-9.289
X-26.47113 Y-4.70136
X-26.885 Y0.16366
X-26.41053 Y5.02566
X-25.02364 Y9.83332
X-22.91523 Y14.06086
X-19.99957 Y17.96612
X-16.33711 Y21.35375
X-12.33648 Y23.88992
X-8.04633 Y25.65209
X-3.1809 Y26.69679
X1.68367 Y26.83246
X6.53937 Y26.07669
X8.52234 Y25.37671
X7.99773 Y23.89054
X6.01913 Y24.57685
X1.44817 Y25.26253
X-3.12807 Y25.11017
X-7.70475 Y24.10178
X-11.72536 Y22.42476
X-15.48028 Y20.01733
X-18.91554 Y16.80637
X-21.63799 Y13.11809
X-23.59925 Y9.13241
X-24.88295 Y4.59361
X-25.30419 Y0.01812
X-24.89009 Y-4.5583
X-23.70035 Y-8.86641
X-21.77599 Y-12.88899
X-19.07474 Y-16.62624
X-15.74435 Y-19.80905
X-11.96708 Y-22.29564
X-7.70856 Y-24.1009
X-3.20504 Y-25.1001
X0.08095 Y-25.31014
X4.57327 Y-24.88761
X8.87888 Y-23.69567
X12.90142 Y-21.7686
X16.63865 Y-19.06394
X19.82147 Y-15.72877
X22.29635 Y-11.96598
X24.10092 Y-7.70852
X25.10673 Y-3.1516
X25.26412 Y1.42445
X24.58189 Y6.00089
X23.10892 Y10.30896
X20.85374 Y14.33188
X17.98483 Y17.80039
X14.55776 Y20.69754
X10.49625 Y23.02388
X7.99773 Y23.89054
X7.48146 Y22.40218
X9.71493 Y21.64197
X13.53966 Y19.47949
G02 X23.5546 Y-2.81833 I-13.54039 J-19.47957
G1 X22.63585 Y-7.09718
G02 X-20.34774 Y-12.19598 I-22.63606 J7.09692
X-23.35301 Y4.17002 I20.34678 J12.19518
G1 X-22.17091 Y8.4396
X-20.35529 Y12.18275
X-17.82507 Y15.65265
X-14.61624 Y18.68557
X-11.10577 Y20.96316
X-7.35435 Y22.55343
X-3.06616 Y23.52388
X1.22188 Y23.69124
X5.50761 Y23.07402
X7.48146 Y22.40218
X7.00543 Y21.00362
G03 X8.94183 Y20.25543 I-7.00307 J-21.00461
G1 X7.00543 Y21.00362
Z19.01008 F5000.
G0 Z49.63773
X-26.70646 Y-37.11151
G1 Z15.94757 F1228.
Z15.31257 F3684.
X-26.69906 Y-30.12651 F3684.
X-30.18321 Y-26.56629 F4912.
Y-24.20669
X-29.90208 Y-24.61896
X-25.03413 Y-29.55811
X-24.22088 Y-30.12914
X-21.47825 Y-30.13204
X-23.9076 Y-28.43959
X-28.59373 Y-23.71986
X-30.18321 Y-21.40688
Y-18.63764
X-27.28877 Y-22.81586
X-22.78538 Y-27.31675
X-18.70675 Y-30.13497
X-15.53492 Y-30.13833
X-16.60266 Y-29.65924
X-21.66769 Y-26.1894
X-25.98736 Y-21.90674
X-29.54073 Y-16.82005
X-30.18321 Y-15.42117
Y-11.6671
X-28.10089 Y-16.15146
X-24.68968 Y-20.99231
X-20.55476 Y-25.05734
X-15.71098 Y-28.34583
X-11.66142 Y-30.14243
X-5.98392 Y-30.14844
X-9.82179 Y-29.22188
X-14.82508 Y-27.02851
X-19.44687 Y-23.92035
X-23.39594 Y-20.07232
X-26.66399 Y-15.47655
X-28.92108 Y-10.67118
X-30.18321 Y-5.98544
Y6.04577
Z15.94757 F5000.
G0 Z49.63773
X-37.16821 Y26.6867
G1 Z15.94757 F1228.
Z15.31257 F3684.
X-30.18321 F3684.
X-29.96511 Y26.97893 F4912.
X-26.55209 Y30.16645
X-24.25801
X-28.8776 Y25.82243
X-30.18321 Y24.06044
Y21.4103
X-27.78599 Y24.66981
X-23.13266 Y29.07683
X-21.4875 Y30.16645
X-18.64176
X-22.25116 Y27.75656
X-26.69011 Y23.52124
X-30.18321 Y18.73435
Y15.37985
X-29.22311 Y17.35696
X-25.5898 Y22.37693
X-21.36455 Y26.43972
X-16.44767 Y29.75016
X-15.51151 Y30.16645
X-11.65106
X-15.79661 Y28.30231
X-20.47262 Y25.12647
X-24.48485 Y21.23708
X-27.93333 Y16.43142
X-30.18321 Y11.74853
Y6.04577
X-28.87659 Y10.80237
X-26.63961 Y15.5114
X-23.37506 Y20.10195
X-19.57514 Y23.81701
X-15.13922 Y26.85732
X-10.33403 Y29.04341
X-5.96737 Y30.16645
X6.19584
Z15.94757 F5000.
G0 Z49.63773
X26.63993 Y37.15145
G1 Z15.94757 F1228.
Z15.31257 F3684.
Y30.16645 F3684.
X27.44771 Y29.53819 F4912.
X30.16645 Y26.53778
Y24.20319
X26.27499 Y28.46819
X24.07614 Y30.16645
X21.49016
X25.10612 Y27.39399
X29.39261 Y22.72971
X30.16645 Y21.52317
Y18.61017
X28.05963 Y21.86756
X23.94127 Y26.31544
X18.99835 Y30.07658
X18.82278 Y30.16645
X15.36544
X18.04189 Y28.80955
X22.78063 Y25.23236
X26.7301 Y21.00009
X29.97143 Y16.03228
X30.16645 Y15.57226
Y11.54986
X28.51245 Y15.40658
X25.40422 Y20.12705
X21.62442 Y24.14455
X17.09052 Y27.53871
X11.8868 Y30.15019
X11.83137 Y30.16645
X6.19584
X11.18084 Y28.7283
X16.14448 Y26.26389
X20.47286 Y23.05181
X24.08219 Y19.2482
X27.05622 Y14.77447
X29.27004 Y9.67431
X30.16645 Y5.83734
Y-6.179
Z15.94757 F5000.
G0 Z49.63773
X37.15145 Y-26.57625
G1 Z15.94757 F1228.
Z15.31257 F3684.
X30.16645 F3684.
X29.07586 Y-27.93722 F4912.
X26.50877 Y-30.18282
X24.12842 Y-30.18031
X28.02643 Y-26.74607
X30.16645 Y-24.05661
Y-21.51543
X26.97261 Y-25.55879
X22.24646 Y-29.75365
X21.55618 Y-30.17758
X18.55249 Y-30.1744
X21.41051 Y-28.40408
X25.91424 Y-24.37557
X29.82758 Y-19.38334
X30.16645 Y-18.74966
Y-15.40341
X28.57441 Y-18.4088
X24.85112 Y-23.19662
X20.56917 Y-27.05787
X15.58751 Y-30.17127
X11.49963 Y-30.16694
X14.69545 Y-28.88612
X19.72219 Y-25.71519
X23.78304 Y-22.02216
X27.31731 Y-17.43933
X29.89356 Y-12.52726
X30.16645 Y-11.67008
Y-6.179
X30.11204 Y-6.60789
X28.48451 Y-11.796
X26.05614 Y-16.47518
X22.70977 Y-20.85244
X18.86931 Y-24.37625
X14.09853 Y-27.41513
X8.99108 Y-29.4877
X5.79815 Y-30.16091
Z15.94757 F5000.
G0 Z49.63773
X17.07331 Y-25.52026
G1 Z15.94757 F1228.
Z15.31257 F3684.
X16.22572 Y-24.18961 F4912.
X13.49491 Y-25.94686
X8.65707 Y-27.93574
X3.57346 Y-29.02982
X-1.29551 Y-29.23431
X-4.21689 Y-28.94195
X-9.19116 Y-27.76501
X-13.94528 Y-25.7071
X-18.3443 Y-22.77821
X-22.10634 Y-19.14653
X-25.23024 Y-14.79501
X-27.3901 Y-10.25134
X-28.79262 Y-5.13695
X-29.24747 Y-0.02247
X-28.80076 Y5.08531
X-27.43952 Y10.12786
X-25.34178 Y14.59718
X-22.26021 Y18.97179
X-18.67185 Y22.51155
X-14.47518 Y25.41537
X-9.93165 Y27.50775
X-4.81741 Y28.8478
X0.29731 Y29.24592
X5.40813 Y28.74147
X10.4813 Y27.30323
X15.20406 Y24.98492
X19.32622 Y21.95392
X22.76423 Y18.36323
X25.60292 Y14.13565
X27.72582 Y9.30614
X28.94536 Y4.19103
X29.23145 Y-0.93491
X28.59523 Y-6.13945
X27.07215 Y-11.07117
X24.79071 Y-15.51661
X21.63104 Y-19.68774
X18.01026 Y-23.04127
X16.22572 Y-24.18961
X15.37225 Y-22.8633
X17.14471 Y-21.71048
X20.54659 Y-18.52839
X23.52086 Y-14.56392
X25.65631 Y-10.35314
X27.07625 Y-5.67809
X27.65478 Y-0.74983
X27.36078 Y4.09487
X26.18338 Y8.93059
X24.15276 Y13.48976
X21.45062 Y17.47185
X18.18477 Y20.85063
X14.26957 Y23.70161
X9.78855 Y25.87486
X4.9826 Y27.21207
X0.14908 Y27.66535
X-4.68665 Y27.2657
X-9.52194 Y25.97403
X-13.80412 Y23.97668
X-17.76247 Y21.21033
X-21.14004 Y17.8469
X-24.03966 Y13.68909
X-25.99914 Y9.46042
X-27.26622 Y4.67869
X-27.66536 Y-0.15316
X-27.21205 Y-4.98878
X-25.86115 Y-9.82418
X-23.79983 Y-14.10647
X-20.82112 Y-18.21467
X-17.24738 Y-21.63063
X-13.07192 Y-24.38143
X-8.56766 Y-26.30508
X-3.85879 Y-27.39536
X-1.14492 Y-27.65396
X3.50178 Y-27.44394
X8.31613 Y-26.38528
X12.88423 Y-24.48152
X15.37225 Y-22.8633
X14.51263 Y-21.54163
X12.26607 Y-23.01932
X7.96776 Y-24.83648
X3.42493 Y-25.8583
X-1.00241 Y-26.07287
X-3.50855 Y-25.84698
X-7.95173 Y-24.84194
X-12.20539 Y-23.05129
X-16.1565 Y-20.47732
X-19.54055 Y-17.27642
X-22.37301 Y-13.41053
X-24.33438 Y-9.38931
X-25.63224 Y-4.83265
X-26.0826 Y-0.27578
X-25.72971 Y4.27955
X-24.5553 Y8.80051
X-22.73303 Y12.78749
X-20.01426 Y16.72763
G02 X-9.1045 Y24.4424 I20.01287 J-16.72964
G1 X-4.54792 Y25.68427
X0.00901 Y26.08405
X4.56495 Y25.68049
X9.10301 Y24.44302
X13.34137 Y22.41374
X17.04884 Y19.74166
X20.14162 Y16.57369
X22.70594 Y12.8364
X24.64286 Y8.54726
X25.77671 Y3.99056
X26.07719 Y-0.57273
X25.55501 Y-5.22422
X24.23682 Y-9.64235
X22.24636 Y-13.61744
X19.45608 Y-17.37472
X16.27233 Y-20.38417
X14.51263 Y-21.54163
X13.64655 Y-20.22491
X15.39271 Y-19.06265
G03 X23.1044 Y8.15571 I-15.38797 J19.06147
X15.91878 Y18.62671 I-23.1068 J-8.1558
X-4.40073 Y24.10361 I-15.92014 J-18.63277
G1 X-8.67888 Y22.91302
G03 X-18.88256 Y15.61434 I8.66596 J-22.89695
G1 X-21.42167 Y11.89279
G03 X-24.0533 Y-4.66809 I21.42392 J-11.89393
G1 X-22.80995 Y-8.94628
X-20.95004 Y-12.70673
X-18.26493 Y-16.33147
X-15.07206 Y-19.31795
X-11.34612 Y-21.71645
G03 X7.61136 Y-23.2895 I11.3455 J21.71045
G1 X11.63997 Y-21.5605
X13.64655 Y-20.22491
X12.82763 Y-18.99457
G02 X14.50543 Y-17.74625 I-12.82858 J18.99398
G1 X12.82763 Y-18.99457
Z15.94757 F5000.
G0 Z49.63773
X-30.63358 Y-36.42079
G1 Z12.88505 F1228.
Z12.25005 F3684.
X-27.88196 Y-30.0006 F3684.
X-30.03021 Y-27.82274 F4912.
X-30.18412 Y-26.87557
Y-25.43793
X-25.52679 Y-30.12779
X-22.80079 Y-30.13072
X-24.38483 Y-29.02481
X-29.01611 Y-24.39372
X-30.18412 Y-22.72875
Y-19.99185
X-27.71987 Y-23.47726
X-23.26642 Y-27.89817
X-20.03941 Y-30.13369
X-17.24882 Y-30.13669
X-22.15231 Y-26.76729
X-26.42716 Y-22.55582
X-29.94107 Y-17.62601
X-30.18412 Y-17.11522
Y-13.45703
X-28.51036 Y-16.93809
X-25.13814 Y-21.62921
X-21.04269 Y-25.63198
X-16.17255 Y-28.9501
X-13.50181 Y-30.14072
X-9.16947 Y-30.14537
X-10.09035 Y-29.92346
X-15.28416 Y-27.63445
X-19.93782 Y-24.49207
X-23.85303 Y-20.6972
X-27.08259 Y-16.24411
X-29.50154 Y-11.26742
X-30.18412 Y-8.85641
Y8.96568
Z12.88505 F5000.
G0 Z49.63773
X-36.47425 Y30.30132
G1 Z12.88505 F1228.
Z12.25005 F3684.
X-29.87773 Y28.00432 F3684.
X-27.78639 Y30.06465 F4912.
X-27.37557 Y30.16736
X-25.45171
X-30.13195 Y25.5254
X-30.18412 Y25.45153
Y22.72737
X-29.0101 Y24.40219
X-24.37369 Y29.03295
X-22.75454 Y30.16736
X-20.01479
X-23.45803 Y27.73614
X-27.88417 Y23.28307
X-30.18412 Y19.97653
Y17.19679
X-26.75399 Y22.16823
X-22.53743 Y26.44283
X-17.60525 Y29.95365
X-17.15592 Y30.16736
X-13.49531
X-16.91766 Y28.52278
X-21.61168 Y25.1532
X-25.6194 Y21.0579
X-28.9031 Y16.25811
X-30.18412 Y13.43775
Y8.96568
X-29.8183 Y10.40446
X-27.58917 Y15.36718
X-24.48018 Y19.9523
X-20.68054 Y23.86745
X-16.22407 Y27.09481
X-11.2717 Y29.50025
X-8.9264 Y30.16736
X9.08721
Z12.88505 F5000.
G0 Z49.63773
X30.51015 Y36.43845
G1 Z12.88505 F1228.
Z12.25005 F3684.
X27.93933 Y29.94375 F3684.
X30.06423 Y27.78696 F4912.
X30.16736 Y27.37443
Y25.45188
X25.52534 Y30.13202
X25.47508 Y30.16736
X22.74415
X24.40214 Y29.01015
X29.03258 Y24.3742
X30.16736 Y22.75481
Y20.01534
X27.73584 Y23.45844
X23.28303 Y27.88421
X19.9863 Y30.16736
X17.19929
X22.16821 Y26.75402
X26.44259 Y22.53775
X29.95244 Y17.60768
X30.16736 Y17.1561
Y13.4974
X28.52174 Y16.91973
X25.15303 Y21.61191
X21.05788 Y25.61941
X16.15057 Y28.9618
X13.44585 Y30.16736
X9.08721
X10.09987 Y29.9207
X15.26238 Y27.64603
X19.95229 Y24.48019
X23.86733 Y20.68071
X27.09394 Y16.2258
X29.49465 Y11.28628
X30.16736 Y8.92565
Y-9.08971
Z12.88505 F5000.
G0 Z49.63773
X36.44 Y-30.50737
G1 Z12.88505 F1228.
Z12.25005 F3684.
X29.94531 Y-27.93655 F3684.
X27.82312 Y-30.02996 F4912.
X26.87443 Y-30.18412
X25.43965 Y-30.18258
X30.14743 Y-25.50728
X30.16736 Y-25.47892
Y-22.74672
X29.02486 Y-24.38479
X24.39421 Y-29.01576
X22.73538 Y-30.17967
X20.00286 Y-30.17674
X23.47764 Y-27.71959
X27.89821 Y-23.26639
X30.16736 Y-19.98759
Y-17.19928
X26.76731 Y-22.15229
X22.55612 Y-26.42694
X17.62844 Y-29.93985
X17.13744 Y-30.17366
X13.48919 Y-30.16973
X16.94015 Y-28.50932
X21.62943 Y-25.13798
X25.632 Y-21.04268
X28.96343 Y-16.14809
X30.16736 Y-13.44468
Y-9.08971
X29.92488 Y-10.08699
X27.64737 Y-15.26032
X24.49208 Y-19.93781
X20.69735 Y-23.85292
X16.2458 Y-27.08172
X11.28237 Y-29.4958
X8.92528 Y-30.16483
Z12.88505 F5000.
G0 Z49.63773
X-12.06865 Y-29.05159
G1 Z12.88505 F1228.
Z12.25005 F3684.
X-11.43231 Y-27.60773 F4912.
X-14.40152 Y-26.31494
X-18.83794 Y-23.34734
X-22.57204 Y-19.75954
X-25.65792 Y-15.54377
X-27.97603 Y-10.82814
X-29.44719 Y-5.71914
X-29.99821 Y-0.35681
X-29.6259 Y4.71899
X-28.36733 Y9.76037
X-26.27137 Y14.48199
X-23.33615 Y18.85169
X-19.74378 Y22.5858
X-15.52419 Y25.66992
X-10.83083 Y27.9752
X-5.75261 Y29.44326
X-0.67411 Y29.99273
X4.40331 Y29.67435
X9.46631 Y28.4651
X14.37994 Y26.32638
X18.85169 Y23.33615
X22.58573 Y19.74388
X25.66922 Y15.52557
X27.96981 Y10.84466
X29.44055 Y5.76645
X29.99245 Y0.68789
X29.67638 Y-4.38974
X28.46909 Y-9.45386
X26.32745 Y-14.37829
X23.34734 Y-18.83793
X19.75962 Y-22.57197
X15.54511 Y-25.65723
X10.84215 Y-27.97055
X5.73669 Y-29.44409
X0.41704 Y-30.00073
X-4.27362 Y-29.69226
X-9.45662 Y-28.46794
X-11.43231 Y-27.60773
X-10.80262 Y-26.16148
X-8.82975 Y-27.00945
X-3.91601 Y-28.14556
X0.51384 Y-28.41619
X5.56477 Y-27.86593
X10.39481 Y-26.44739
X14.83775 Y-24.23603
X18.81598 Y-21.29538
X22.19755 Y-17.74333
X25.00349 Y-13.50233
X27.01034 Y-8.82762
X28.13044 Y-4.02889
X28.40758 Y0.77924
X27.86313 Y5.58785
X26.44698 Y10.39616
X24.24777 Y14.81872
X21.30845 Y18.80116
X17.75636 Y22.18706
X13.50357 Y25.0027
X8.83964 Y27.00653
X4.04181 Y28.12856
X-0.76619 Y28.4079
X-5.57476 Y27.86575
X-10.38307 Y26.45216
X-14.81769 Y24.24829
X-18.80111 Y21.30849
X-22.18706 Y17.75636
X-24.94953 Y13.60284
X-26.9134 Y9.123
X-28.08393 Y4.34151
X-28.41445 Y-0.4657
X-27.86876 Y-5.54972
X-26.45261 Y-10.38166
X-24.23655 Y-14.83676
X-21.29541 Y-18.81594
X-17.74333 Y-22.19756
X-13.52494 Y-24.9914
X-10.80262 Y-26.16148
X-10.17996 Y-24.71279
X-12.65477 Y-23.66364
X-16.65432 Y-21.04247
X-20.02341 Y-17.86611
X-22.8187 Y-14.12271
X-24.93144 Y-9.92755
X-26.29115 Y-5.37277
X-26.83018 Y-0.56695
X-26.54016 Y3.97145
X-25.45637 Y8.49274
X-23.62346 Y12.7301
X-21.03266 Y16.66662
X-17.85223 Y20.03578
X-14.10421 Y22.83016
X-9.92805 Y24.93126
X-5.38942 Y26.28911
X-0.8506 Y26.82265
X3.688 Y26.58099
X8.22029 Y25.54483
X12.63362 Y23.67479
