%
G17 G21 G40 G90 G64 P0.1
(2 1/2 Axis Pocketing)
(Endmill 4mm Single Flute Carbide)
T28 M06
S15915 M3
G0 Z2.
X-12.77678 Y-48.10799
G1 Z-0.8 F151.5
Z-1.4 F454.5
X-12.78272 Y-48.10278 Z-1.40139
X-12.79529 Y-48.0931 Z-1.40419
X-12.80845 Y-48.08424 Z-1.40699
X-12.82214 Y-48.07623 Z-1.40979
X-12.83631 Y-48.06911 Z-1.41258
X-12.85091 Y-48.0629 Z-1.41538
X-12.86587 Y-48.05763 Z-1.41818
X-12.88114 Y-48.05331 Z-1.42097
X-12.89665 Y-48.04998 Z-1.42377
X-12.91234 Y-48.04763 Z-1.42657
X-12.92815 Y-48.04628 Z-1.42937
X-12.94401 Y-48.04594 Z-1.43216
X-12.95985 Y-48.04661 Z-1.43496
X-12.97563 Y-48.04828 Z-1.43776
X-12.99127 Y-48.05095 Z-1.44055
X-13.00671 Y-48.0546 Z-1.44335
X-13.02188 Y-48.05922 Z-1.44615
X-13.03673 Y-48.0648 Z-1.44895
X-13.0512 Y-48.07131 Z-1.45174
X-13.06522 Y-48.07872 Z-1.45454
X-13.07875 Y-48.08701 Z-1.45734
X-13.09172 Y-48.09614 Z-1.46014
X-13.10409 Y-48.10608 Z-1.46293
X-13.11581 Y-48.11677 Z-1.46573
X-13.12682 Y-48.12819 Z-1.46853
X-13.13708 Y-48.14029 Z-1.47132
X-13.14656 Y-48.15301 Z-1.47412
X-13.15521 Y-48.16631 Z-1.47692
X-13.163 Y-48.18013 Z-1.47972
X-13.1699 Y-48.19441 Z-1.48251
X-13.17588 Y-48.2091 Z-1.48531
X-13.18092 Y-48.22415 Z-1.48811
X-13.18499 Y-48.23948 Z-1.4909
X-13.18808 Y-48.25504 Z-1.4937
X-13.19017 Y-48.27077 Z-1.4965
X-13.19127 Y-48.28659 Z-1.4993
X-13.19136 Y-48.30246 Z-1.50209
X-13.19044 Y-48.31829 Z-1.50489
X-13.18852 Y-48.33404 Z-1.50769
X-13.18561 Y-48.34963 Z-1.51049
X-13.18171 Y-48.36501 Z-1.51328
X-13.17684 Y-48.38011 Z-1.51608
X-13.17103 Y-48.39487 Z-1.51888
X-13.16429 Y-48.40923 Z-1.52167
X-13.15666 Y-48.42314 Z-1.52447
X-13.14816 Y-48.43653 Z-1.52727
X-13.13882 Y-48.44936 Z-1.53007
X-13.12869 Y-48.46157 Z-1.53286
X-13.11781 Y-48.47311 Z-1.53566
X-13.10622 Y-48.48394 Z-1.53846
X-13.09396 Y-48.49401 Z-1.54125
X-13.08109 Y-48.50329 Z-1.54405
X-13.06766 Y-48.51173 Z-1.54685
X-13.05372 Y-48.5193 Z-1.54965
X-13.03932 Y-48.52597 Z-1.55244
X-13.02454 Y-48.53171 Z-1.55524
X-13.00942 Y-48.53651 Z-1.55804
X-12.99402 Y-48.54034 Z-1.56084
X-12.97841 Y-48.54318 Z-1.56363
X-12.96266 Y-48.54503 Z-1.56643
X-12.94682 Y-48.54587 Z-1.56923
X-12.93095 Y-48.54571 Z-1.57202
X-12.91513 Y-48.54454 Z-1.57482
X-12.89942 Y-48.54237 Z-1.57762
X-12.88387 Y-48.53921 Z-1.58042
X-12.86856 Y-48.53507 Z-1.58321
X-12.85354 Y-48.52996 Z-1.58601
X-12.83887 Y-48.52392 Z-1.58881
X-12.82462 Y-48.51695 Z-1.5916
X-12.81084 Y-48.5091 Z-1.5944
X-12.79758 Y-48.50038 Z-1.5972
X-12.7849 Y-48.49085 Z-1.6
X-12.77285 Y-48.48053 Z-1.60279
X-12.76148 Y-48.46946 Z-1.60559
X-12.75084 Y-48.4577 Z-1.60839
X-12.74096 Y-48.44528 Z-1.61119
X-12.7319 Y-48.43227 Z-1.61398
X-12.72367 Y-48.4187 Z-1.61678
X-12.71632 Y-48.40464 Z-1.61958
X-12.70988 Y-48.39015 Z-1.62237
X-12.70437 Y-48.37527 Z-1.62517
X-12.69982 Y-48.36008 Z-1.62797
X-12.69623 Y-48.34462 Z-1.63077
X-12.69364 Y-48.32897 Z-1.63356
X-12.69204 Y-48.31319 Z-1.63636
X-12.69145 Y-48.29733 Z-1.63916
X-12.69186 Y-48.28148 Z-1.64196
X-12.69328 Y-48.26568 Z-1.64475
X-12.6957 Y-48.25 Z-1.64755
X-12.69911 Y-48.2345 Z-1.65035
X-12.70349 Y-48.21926 Z-1.65314
X-12.70883 Y-48.20432 Z-1.65594
X-12.71511 Y-48.18975 Z-1.65874
X-12.7223 Y-48.17561 Z-1.66154
X-12.73038 Y-48.16195 Z-1.66433
X-12.7393 Y-48.14884 Z-1.66713
X-12.74903 Y-48.13631 Z-1.66993
X-12.75954 Y-48.12443 Z-1.67272
X-12.77079 Y-48.11324 Z-1.67552
X-12.78272 Y-48.10278 Z-1.67832
X-12.79529 Y-48.0931 Z-1.68112
X-12.80845 Y-48.08424 Z-1.68391
X-12.82214 Y-48.07623 Z-1.68671
X-12.83631 Y-48.06911 Z-1.68951
X-12.85091 Y-48.0629 Z-1.69231
X-12.86587 Y-48.05763 Z-1.6951
X-12.88114 Y-48.05331 Z-1.6979
X-12.89665 Y-48.04998 Z-1.7007
X-12.91234 Y-48.04763 Z-1.70349
X-12.92815 Y-48.04628 Z-1.70629
X-12.94401 Y-48.04594 Z-1.70909
X-12.95985 Y-48.04661 Z-1.71189
X-12.97563 Y-48.04828 Z-1.71468
X-12.99127 Y-48.05095 Z-1.71748
X-13.00671 Y-48.0546 Z-1.72028
X-13.02188 Y-48.05922 Z-1.72307
X-13.03673 Y-48.0648 Z-1.72587
X-13.0512 Y-48.07131 Z-1.72867
X-13.06522 Y-48.07872 Z-1.73147
X-13.07875 Y-48.08701 Z-1.73426
X-13.09172 Y-48.09614 Z-1.73706
X-13.10409 Y-48.10608 Z-1.73986
X-13.11581 Y-48.11677 Z-1.74265
X-13.12682 Y-48.12819 Z-1.74545
X-13.13708 Y-48.14029 Z-1.74825
X-13.14656 Y-48.15301 Z-1.75105
X-13.15521 Y-48.16631 Z-1.75384
X-13.163 Y-48.18013 Z-1.75664
X-13.1699 Y-48.19441 Z-1.75944
X-13.17588 Y-48.2091 Z-1.76224
X-13.18092 Y-48.22415 Z-1.76503
X-13.18499 Y-48.23948 Z-1.76783
X-13.18808 Y-48.25504 Z-1.77063
X-13.19017 Y-48.27077 Z-1.77342
X-13.19127 Y-48.28659 Z-1.77622
X-13.19136 Y-48.30246 Z-1.77902
X-13.19044 Y-48.31829 Z-1.78182
X-13.18852 Y-48.33404 Z-1.78461
X-13.18561 Y-48.34963 Z-1.78741
X-13.18171 Y-48.36501 Z-1.79021
X-13.17684 Y-48.38011 Z-1.79301
X-13.17103 Y-48.39487 Z-1.7958
X-13.16429 Y-48.40923 Z-1.7986
X-13.15666 Y-48.42314 Z-1.8014
X-13.14816 Y-48.43653 Z-1.80419
X-13.13882 Y-48.44936 Z-1.80699
X-13.12869 Y-48.46157 Z-1.80979
X-13.11781 Y-48.47311 Z-1.81259
X-13.10622 Y-48.48394 Z-1.81538
X-13.09396 Y-48.49401 Z-1.81818
X-13.08109 Y-48.50329 Z-1.82098
X-13.06766 Y-48.51173 Z-1.82378
X-13.05372 Y-48.5193 Z-1.82657
X-13.03932 Y-48.52597 Z-1.82937
X-13.02454 Y-48.53171 Z-1.83217
X-13.00942 Y-48.53651 Z-1.83496
X-12.99402 Y-48.54034 Z-1.83776
X-12.97841 Y-48.54318 Z-1.84056
X-12.96266 Y-48.54503 Z-1.84336
X-12.94682 Y-48.54587 Z-1.84615
X-12.93095 Y-48.54571 Z-1.84895
X-12.91513 Y-48.54454 Z-1.85175
X-12.89942 Y-48.54237 Z-1.85454
X-12.88387 Y-48.53921 Z-1.85734
X-12.86856 Y-48.53507 Z-1.86014
X-12.85354 Y-48.52996 Z-1.86294
X-12.83887 Y-48.52392 Z-1.86573
X-12.82462 Y-48.51695 Z-1.86853
X-12.81084 Y-48.5091 Z-1.87133
X-12.79758 Y-48.50038 Z-1.87413
X-12.7849 Y-48.49085 Z-1.87692
X-12.77285 Y-48.48053 Z-1.87972
X-12.76148 Y-48.46946 Z-1.88252
X-12.75084 Y-48.4577 Z-1.88531
X-12.74096 Y-48.44528 Z-1.88811
X-12.7319 Y-48.43227 Z-1.89091
X-12.72367 Y-48.4187 Z-1.89371
X-12.71632 Y-48.40464 Z-1.8965
X-12.70988 Y-48.39015 Z-1.8993
X-12.70437 Y-48.37527 Z-1.9021
X-12.69982 Y-48.36008 Z-1.90489
X-12.69623 Y-48.34462 Z-1.90769
X-12.69364 Y-48.32897 Z-1.91049
X-12.69204 Y-48.31319 Z-1.91329
X-12.69145 Y-48.29733 Z-1.91608
X-12.69186 Y-48.28148 Z-1.91888
X-12.69328 Y-48.26568 Z-1.92168
X-12.6957 Y-48.25 Z-1.92448
X-12.69911 Y-48.2345 Z-1.92727
X-12.70349 Y-48.21926 Z-1.93007
X-12.70883 Y-48.20432 Z-1.93287
X-12.71511 Y-48.18975 Z-1.93566
X-12.7223 Y-48.17561 Z-1.93846
X-12.73038 Y-48.16195 Z-1.94126
X-12.7393 Y-48.14884 Z-1.94406
X-12.74903 Y-48.13631 Z-1.94685
X-12.75954 Y-48.12443 Z-1.94965
X-12.77079 Y-48.11324 Z-1.95245
X-12.78272 Y-48.10278 Z-1.95524
X-12.79529 Y-48.0931 Z-1.95804
X-12.80845 Y-48.08424 Z-1.96084
X-12.82214 Y-48.07623 Z-1.96364
X-12.83631 Y-48.06911 Z-1.96643
X-12.85091 Y-48.0629 Z-1.96923
X-12.86587 Y-48.05763 Z-1.97203
X-12.88114 Y-48.05331 Z-1.97483
X-12.89665 Y-48.04998 Z-1.97762
X-12.91234 Y-48.04763 Z-1.98042
X-12.92815 Y-48.04628 Z-1.98322
X-12.94401 Y-48.04594 Z-1.98601
X-12.95985 Y-48.04661 Z-1.98881
X-12.97563 Y-48.04828 Z-1.99161
X-12.99127 Y-48.05095 Z-1.99441
X-13.00671 Y-48.0546 Z-1.9972
X-13.02188 Y-48.05922 Z-2.
X-13.18666 Y-48.24724 F606.
X-13.10622 Y-48.48394
X-12.86101 Y-48.53263
X-12.69623 Y-48.34462
X-12.77667 Y-48.10792
X-13.02188 Y-48.05922
X-11.98301 Y-48.27309 Z-0.93934 F909.
Z-0.33934
G0 Z2.
X-12.77678 Y-48.10799
G1 Z-2.8 F151.5
Z-3.4 F454.5
X-12.78272 Y-48.10278 Z-3.40139
X-12.79529 Y-48.0931 Z-3.40419
X-12.80845 Y-48.08424 Z-3.40699
X-12.82214 Y-48.07623 Z-3.40979
X-12.83631 Y-48.06911 Z-3.41258
X-12.85091 Y-48.0629 Z-3.41538
X-12.86587 Y-48.05763 Z-3.41818
X-12.88114 Y-48.05331 Z-3.42097
X-12.89665 Y-48.04998 Z-3.42377
X-12.91234 Y-48.04763 Z-3.42657
X-12.92815 Y-48.04628 Z-3.42937
X-12.94401 Y-48.04594 Z-3.43216
X-12.95985 Y-48.04661 Z-3.43496
X-12.97563 Y-48.04828 Z-3.43776
X-12.99127 Y-48.05095 Z-3.44055
X-13.00671 Y-48.0546 Z-3.44335
X-13.02188 Y-48.05922 Z-3.44615
X-13.03673 Y-48.0648 Z-3.44895
X-13.0512 Y-48.07131 Z-3.45174
X-13.06522 Y-48.07872 Z-3.45454
X-13.07875 Y-48.08701 Z-3.45734
X-13.09172 Y-48.09614 Z-3.46014
X-13.10409 Y-48.10608 Z-3.46293
X-13.11581 Y-48.11677 Z-3.46573
X-13.12682 Y-48.12819 Z-3.46853
X-13.13708 Y-48.14029 Z-3.47132
X-13.14656 Y-48.15301 Z-3.47412
X-13.15521 Y-48.16631 Z-3.47692
X-13.163 Y-48.18013 Z-3.47972
X-13.1699 Y-48.19441 Z-3.48251
X-13.17588 Y-48.2091 Z-3.48531
X-13.18092 Y-48.22415 Z-3.48811
X-13.18499 Y-48.23948 Z-3.4909
X-13.18808 Y-48.25504 Z-3.4937
X-13.19017 Y-48.27077 Z-3.4965
X-13.19127 Y-48.28659 Z-3.4993
X-13.19136 Y-48.30246 Z-3.50209
X-13.19044 Y-48.31829 Z-3.50489
X-13.18852 Y-48.33404 Z-3.50769
X-13.18561 Y-48.34963 Z-3.51049
X-13.18171 Y-48.36501 Z-3.51328
X-13.17684 Y-48.38011 Z-3.51608
X-13.17103 Y-48.39487 Z-3.51888
X-13.16429 Y-48.40923 Z-3.52167
X-13.15666 Y-48.42314 Z-3.52447
X-13.14816 Y-48.43653 Z-3.52727
X-13.13882 Y-48.44936 Z-3.53006
X-13.12869 Y-48.46157 Z-3.53286
X-13.11781 Y-48.47311 Z-3.53566
X-13.10622 Y-48.48394 Z-3.53846
X-13.09396 Y-48.49401 Z-3.54125
X-13.08109 Y-48.50329 Z-3.54405
X-13.06766 Y-48.51173 Z-3.54685
X-13.05372 Y-48.5193 Z-3.54965
X-13.03932 Y-48.52597 Z-3.55244
X-13.02454 Y-48.53171 Z-3.55524
X-13.00942 Y-48.53651 Z-3.55804
X-12.99402 Y-48.54034 Z-3.56084
X-12.97841 Y-48.54318 Z-3.56363
X-12.96266 Y-48.54503 Z-3.56643
X-12.94682 Y-48.54587 Z-3.56923
X-12.93095 Y-48.54571 Z-3.57202
X-12.91513 Y-48.54454 Z-3.57482
X-12.89942 Y-48.54237 Z-3.57762
X-12.88387 Y-48.53921 Z-3.58042
X-12.86856 Y-48.53507 Z-3.58321
X-12.85354 Y-48.52996 Z-3.58601
X-12.83887 Y-48.52392 Z-3.58881
X-12.82462 Y-48.51695 Z-3.5916
X-12.81084 Y-48.5091 Z-3.5944
X-12.79758 Y-48.50038 Z-3.5972
X-12.7849 Y-48.49085 Z-3.6
X-12.77285 Y-48.48053 Z-3.60279
X-12.76148 Y-48.46946 Z-3.60559
X-12.75084 Y-48.4577 Z-3.60839
X-12.74096 Y-48.44528 Z-3.61119
X-12.7319 Y-48.43227 Z-3.61398
X-12.72367 Y-48.4187 Z-3.61678
X-12.71632 Y-48.40464 Z-3.61958
X-12.70988 Y-48.39015 Z-3.62237
X-12.70437 Y-48.37527 Z-3.62517
X-12.69982 Y-48.36008 Z-3.62797
X-12.69623 Y-48.34462 Z-3.63077
X-12.69364 Y-48.32897 Z-3.63356
X-12.69204 Y-48.31319 Z-3.63636
X-12.69145 Y-48.29733 Z-3.63916
X-12.69186 Y-48.28148 Z-3.64196
X-12.69328 Y-48.26568 Z-3.64475
X-12.6957 Y-48.25 Z-3.64755
X-12.69911 Y-48.2345 Z-3.65035
X-12.70349 Y-48.21926 Z-3.65314
X-12.70883 Y-48.20432 Z-3.65594
X-12.71511 Y-48.18975 Z-3.65874
X-12.7223 Y-48.17561 Z-3.66154
X-12.73038 Y-48.16195 Z-3.66433
X-12.7393 Y-48.14884 Z-3.66713
X-12.74903 Y-48.13631 Z-3.66993
X-12.75954 Y-48.12443 Z-3.67272
X-12.77079 Y-48.11324 Z-3.67552
X-12.78272 Y-48.10278 Z-3.67832
X-12.79529 Y-48.0931 Z-3.68112
X-12.80845 Y-48.08424 Z-3.68391
X-12.82214 Y-48.07623 Z-3.68671
X-12.83631 Y-48.06911 Z-3.68951
X-12.85091 Y-48.0629 Z-3.69231
X-12.86587 Y-48.05763 Z-3.6951
X-12.88114 Y-48.05331 Z-3.6979
X-12.89665 Y-48.04998 Z-3.7007
X-12.91234 Y-48.04763 Z-3.70349
X-12.92815 Y-48.04628 Z-3.70629
X-12.94401 Y-48.04594 Z-3.70909
X-12.95985 Y-48.04661 Z-3.71189
X-12.97563 Y-48.04828 Z-3.71468
X-12.99127 Y-48.05095 Z-3.71748
X-13.00671 Y-48.0546 Z-3.72028
X-13.02188 Y-48.05922 Z-3.72307
X-13.03673 Y-48.0648 Z-3.72587
X-13.0512 Y-48.07131 Z-3.72867
X-13.06522 Y-48.07872 Z-3.73147
X-13.07875 Y-48.08701 Z-3.73426
X-13.09172 Y-48.09614 Z-3.73706
X-13.10409 Y-48.10608 Z-3.73986
X-13.11581 Y-48.11677 Z-3.74265
X-13.12682 Y-48.12819 Z-3.74545
X-13.13708 Y-48.14029 Z-3.74825
X-13.14656 Y-48.15301 Z-3.75105
X-13.15521 Y-48.16631 Z-3.75384
X-13.163 Y-48.18013 Z-3.75664
X-13.1699 Y-48.19441 Z-3.75944
X-13.17588 Y-48.2091 Z-3.76224
X-13.18092 Y-48.22415 Z-3.76503
X-13.18499 Y-48.23948 Z-3.76783
X-13.18808 Y-48.25504 Z-3.77063
X-13.19017 Y-48.27077 Z-3.77342
X-13.19127 Y-48.28659 Z-3.77622
X-13.19136 Y-48.30246 Z-3.77902
X-13.19044 Y-48.31829 Z-3.78182
X-13.18852 Y-48.33404 Z-3.78461
X-13.18561 Y-48.34963 Z-3.78741
X-13.18171 Y-48.36501 Z-3.79021
X-13.17684 Y-48.38011 Z-3.79301
X-13.17103 Y-48.39487 Z-3.7958
X-13.16429 Y-48.40923 Z-3.7986
X-13.15666 Y-48.42314 Z-3.8014
X-13.14816 Y-48.43653 Z-3.80419
X-13.13882 Y-48.44936 Z-3.80699
X-13.12869 Y-48.46157 Z-3.80979
X-13.11781 Y-48.47311 Z-3.81259
X-13.10622 Y-48.48394 Z-3.81538
X-13.09396 Y-48.49401 Z-3.81818
X-13.08109 Y-48.50329 Z-3.82098
X-13.06766 Y-48.51173 Z-3.82378
X-13.05372 Y-48.5193 Z-3.82657
X-13.03932 Y-48.52597 Z-3.82937
X-13.02454 Y-48.53171 Z-3.83217
X-13.00942 Y-48.53651 Z-3.83496
X-12.99402 Y-48.54034 Z-3.83776
X-12.97841 Y-48.54318 Z-3.84056
X-12.96266 Y-48.54503 Z-3.84335
X-12.94682 Y-48.54587 Z-3.84615
X-12.93095 Y-48.54571 Z-3.84895
X-12.91513 Y-48.54454 Z-3.85175
X-12.89942 Y-48.54237 Z-3.85454
X-12.88387 Y-48.53921 Z-3.85734
X-12.86856 Y-48.53507 Z-3.86014
X-12.85354 Y-48.52996 Z-3.86294
X-12.83887 Y-48.52392 Z-3.86573
X-12.82462 Y-48.51695 Z-3.86853
X-12.81084 Y-48.5091 Z-3.87133
X-12.79758 Y-48.50038 Z-3.87413
X-12.7849 Y-48.49085 Z-3.87692
X-12.77285 Y-48.48053 Z-3.87972
X-12.76148 Y-48.46946 Z-3.88252
X-12.75084 Y-48.4577 Z-3.88531
X-12.74096 Y-48.44528 Z-3.88811
X-12.7319 Y-48.43227 Z-3.89091
X-12.72367 Y-48.4187 Z-3.89371
X-12.71632 Y-48.40464 Z-3.8965
X-12.70988 Y-48.39015 Z-3.8993
X-12.70437 Y-48.37527 Z-3.9021
X-12.69982 Y-48.36008 Z-3.90489
X-12.69623 Y-48.34462 Z-3.90769
X-12.69364 Y-48.32897 Z-3.91049
X-12.69204 Y-48.31319 Z-3.91329
X-12.69145 Y-48.29733 Z-3.91608
X-12.69186 Y-48.28148 Z-3.91888
X-12.69328 Y-48.26568 Z-3.92168
X-12.6957 Y-48.25 Z-3.92448
X-12.69911 Y-48.2345 Z-3.92727
X-12.70349 Y-48.21926 Z-3.93007
X-12.70883 Y-48.20432 Z-3.93287
X-12.71511 Y-48.18975 Z-3.93566
X-12.7223 Y-48.17561 Z-3.93846
X-12.73038 Y-48.16195 Z-3.94126
X-12.7393 Y-48.14884 Z-3.94406
X-12.74903 Y-48.13631 Z-3.94685
X-12.75954 Y-48.12443 Z-3.94965
X-12.77079 Y-48.11324 Z-3.95245
X-12.78272 Y-48.10278 Z-3.95524
X-12.79529 Y-48.0931 Z-3.95804
X-12.80845 Y-48.08424 Z-3.96084
X-12.82214 Y-48.07623 Z-3.96364
X-12.83631 Y-48.06911 Z-3.96643
X-12.85091 Y-48.0629 Z-3.96923
X-12.86587 Y-48.05763 Z-3.97203
X-12.88114 Y-48.05331 Z-3.97483
X-12.89665 Y-48.04998 Z-3.97762
X-12.91234 Y-48.04763 Z-3.98042
X-12.92815 Y-48.04628 Z-3.98322
X-12.94401 Y-48.04594 Z-3.98601
X-12.95985 Y-48.04661 Z-3.98881
X-12.97563 Y-48.04828 Z-3.99161
X-12.99127 Y-48.05095 Z-3.99441
X-13.00671 Y-48.0546 Z-3.9972
X-13.02188 Y-48.05922 Z-4.
X-13.18666 Y-48.24724 F606.
X-13.10622 Y-48.48394
X-12.86101 Y-48.53263
X-12.69623 Y-48.34462
X-12.77667 Y-48.10792
X-13.02188 Y-48.05922
X-11.98301 Y-48.27309 Z-2.93934 F909.
Z-2.33934
G0 Z2.
X48.10786 Y13.10598
G1 Z-0.8 F151.5
Z-1.4 F454.5
X48.10265 Y13.10004 Z-1.40139
X48.09298 Y13.08747 Z-1.40419
X48.08411 Y13.07431 Z-1.40699
X48.0761 Y13.06062 Z-1.40979
X48.06898 Y13.04644 Z-1.41258
X48.06277 Y13.03185 Z-1.41538
X48.0575 Y13.01689 Z-1.41818
X48.05318 Y13.00162 Z-1.42097
X48.04985 Y12.98611 Z-1.42377
X48.0475 Y12.97042 Z-1.42657
X48.04615 Y12.95462 Z-1.42937
X48.04581 Y12.93875 Z-1.43216
X48.04648 Y12.9229 Z-1.43496
X48.04815 Y12.90713 Z-1.43776
X48.05082 Y12.89149 Z-1.44055
X48.05447 Y12.87605 Z-1.44335
X48.05909 Y12.86088 Z-1.44615
X48.06467 Y12.84603 Z-1.44895
X48.07118 Y12.83156 Z-1.45174
X48.07859 Y12.81753 Z-1.45454
X48.08688 Y12.80401 Z-1.45734
X48.09601 Y12.79104 Z-1.46014
X48.10594 Y12.77867 Z-1.46293
X48.11664 Y12.76695 Z-1.46573
X48.12806 Y12.75594 Z-1.46853
X48.14016 Y12.74568 Z-1.47132
X48.15288 Y12.7362 Z-1.47412
X48.16618 Y12.72755 Z-1.47692
X48.17999 Y12.71976 Z-1.47972
X48.19428 Y12.71286 Z-1.48251
X48.20897 Y12.70688 Z-1.48531
X48.22402 Y12.70184 Z-1.48811
X48.23935 Y12.69777 Z-1.4909
X48.25491 Y12.69468 Z-1.4937
X48.27064 Y12.69259 Z-1.4965
X48.28646 Y12.69149 Z-1.4993
X48.30233 Y12.6914 Z-1.50209
X48.31816 Y12.69232 Z-1.50489
X48.33391 Y12.69424 Z-1.50769
X48.3495 Y12.69715 Z-1.51049
X48.36488 Y12.70105 Z-1.51328
X48.37998 Y12.70592 Z-1.51608
X48.39474 Y12.71173 Z-1.51888
X48.4091 Y12.71847 Z-1.52167
X48.42301 Y12.7261 Z-1.52447
X48.4364 Y12.7346 Z-1.52727
X48.44923 Y12.74394 Z-1.53007
X48.46144 Y12.75407 Z-1.53286
X48.47298 Y12.76495 Z-1.53566
X48.48381 Y12.77654 Z-1.53846
X48.49388 Y12.7888 Z-1.54125
X48.50316 Y12.80167 Z-1.54405
X48.5116 Y12.8151 Z-1.54685
X48.51917 Y12.82904 Z-1.54965
X48.52584 Y12.84343 Z-1.55244
X48.53158 Y12.85822 Z-1.55524
X48.53638 Y12.87334 Z-1.55804
X48.54021 Y12.88874 Z-1.56084
X48.54305 Y12.90435 Z-1.56363
X48.5449 Y12.9201 Z-1.56643
X48.54574 Y12.93594 Z-1.56923
X48.54558 Y12.95181 Z-1.57202
X48.54441 Y12.96763 Z-1.57482
X48.54224 Y12.98334 Z-1.57762
X48.53908 Y12.99889 Z-1.58042
X48.53494 Y13.0142 Z-1.58321
X48.52983 Y13.02922 Z-1.58601
X48.52379 Y13.04389 Z-1.58881
X48.51682 Y13.05814 Z-1.5916
X48.50897 Y13.07192 Z-1.5944
X48.50025 Y13.08518 Z-1.5972
X48.49072 Y13.09786 Z-1.6
X48.4804 Y13.10991 Z-1.60279
X48.46933 Y13.12127 Z-1.60559
X48.45757 Y13.13192 Z-1.60839
X48.44515 Y13.14179 Z-1.61119
X48.43214 Y13.15086 Z-1.61398
X48.41857 Y13.15909 Z-1.61678
X48.40451 Y13.16644 Z-1.61958
X48.39002 Y13.17288 Z-1.62237
X48.37514 Y13.17839 Z-1.62517
X48.35995 Y13.18294 Z-1.62797
X48.34449 Y13.18653 Z-1.63077
X48.32884 Y13.18912 Z-1.63356
X48.31306 Y13.19072 Z-1.63636
X48.2972 Y13.19131 Z-1.63916
X48.28135 Y13.1909 Z-1.64196
X48.26555 Y13.18948 Z-1.64475
X48.24987 Y13.18706 Z-1.64755
X48.23437 Y13.18365 Z-1.65035
X48.21913 Y13.17927 Z-1.65314
X48.20419 Y13.17392 Z-1.65594
X48.18962 Y13.16765 Z-1.65874
X48.17548 Y13.16046 Z-1.66154
X48.16182 Y13.15238 Z-1.66433
X48.14871 Y13.14346 Z-1.66713
X48.13618 Y13.13373 Z-1.66993
X48.1243 Y13.12321 Z-1.67272
X48.11311 Y13.11197 Z-1.67552
X48.10265 Y13.10004 Z-1.67832
X48.09298 Y13.08747 Z-1.68112
X48.08411 Y13.07431 Z-1.68391
X48.0761 Y13.06062 Z-1.68671
X48.06898 Y13.04644 Z-1.68951
X48.06277 Y13.03185 Z-1.69231
X48.0575 Y13.01689 Z-1.6951
X48.05318 Y13.00162 Z-1.6979
X48.04985 Y12.98611 Z-1.7007
X48.0475 Y12.97042 Z-1.70349
X48.04615 Y12.95462 Z-1.70629
X48.04581 Y12.93875 Z-1.70909
X48.04648 Y12.9229 Z-1.71189
X48.04815 Y12.90713 Z-1.71468
X48.05082 Y12.89149 Z-1.71748
X48.05447 Y12.87605 Z-1.72028
X48.05909 Y12.86088 Z-1.72307
X48.06467 Y12.84603 Z-1.72587
X48.07118 Y12.83156 Z-1.72867
X48.07859 Y12.81753 Z-1.73147
X48.08688 Y12.80401 Z-1.73426
X48.09601 Y12.79104 Z-1.73706
X48.10594 Y12.77867 Z-1.73986
X48.11664 Y12.76695 Z-1.74265
X48.12806 Y12.75594 Z-1.74545
X48.14016 Y12.74568 Z-1.74825
X48.15288 Y12.7362 Z-1.75105
X48.16618 Y12.72755 Z-1.75384
X48.17999 Y12.71976 Z-1.75664
X48.19428 Y12.71286 Z-1.75944
X48.20897 Y12.70688 Z-1.76224
X48.22402 Y12.70184 Z-1.76503
X48.23935 Y12.69777 Z-1.76783
X48.25491 Y12.69468 Z-1.77063
X48.27064 Y12.69259 Z-1.77342
X48.28646 Y12.69149 Z-1.77622
X48.30233 Y12.6914 Z-1.77902
X48.31816 Y12.69232 Z-1.78182
X48.33391 Y12.69424 Z-1.78461
X48.3495 Y12.69715 Z-1.78741
X48.36488 Y12.70105 Z-1.79021
X48.37998 Y12.70592 Z-1.79301
X48.39474 Y12.71173 Z-1.7958
X48.4091 Y12.71847 Z-1.7986
X48.42301 Y12.7261 Z-1.8014
X48.4364 Y12.7346 Z-1.80419
X48.44923 Y12.74394 Z-1.80699
X48.46144 Y12.75407 Z-1.80979
X48.47298 Y12.76495 Z-1.81259
X48.48381 Y12.77654 Z-1.81538
X48.49388 Y12.7888 Z-1.81818
X48.50316 Y12.80167 Z-1.82098
X48.5116 Y12.8151 Z-1.82378
X48.51917 Y12.82904 Z-1.82657
X48.52584 Y12.84343 Z-1.82937
X48.53158 Y12.85822 Z-1.83217
X48.53638 Y12.87334 Z-1.83496
X48.54021 Y12.88874 Z-1.83776
X48.54305 Y12.90435 Z-1.84056
X48.5449 Y12.9201 Z-1.84336
X48.54574 Y12.93594 Z-1.84615
X48.54558 Y12.95181 Z-1.84895
X48.54441 Y12.96763 Z-1.85175
X48.54224 Y12.98334 Z-1.85454
X48.53908 Y12.99889 Z-1.85734
X48.53494 Y13.0142 Z-1.86014
X48.52983 Y13.02922 Z-1.86294
X48.52379 Y13.04389 Z-1.86573
X48.51682 Y13.05814 Z-1.86853
X48.50897 Y13.07192 Z-1.87133
X48.50025 Y13.08518 Z-1.87413
X48.49072 Y13.09786 Z-1.87692
X48.4804 Y13.10991 Z-1.87972
X48.46933 Y13.12127 Z-1.88252
X48.45757 Y13.13192 Z-1.88531
X48.44515 Y13.14179 Z-1.88811
X48.43214 Y13.15086 Z-1.89091
X48.41857 Y13.15909 Z-1.89371
X48.40451 Y13.16644 Z-1.8965
X48.39002 Y13.17288 Z-1.8993
X48.37514 Y13.17839 Z-1.9021
X48.35995 Y13.18294 Z-1.90489
X48.34449 Y13.18653 Z-1.90769
X48.32884 Y13.18912 Z-1.91049
X48.31306 Y13.19072 Z-1.91329
X48.2972 Y13.19131 Z-1.91608
X48.28135 Y13.1909 Z-1.91888
X48.26555 Y13.18948 Z-1.92168
X48.24987 Y13.18706 Z-1.92448
X48.23437 Y13.18365 Z-1.92727
X48.21913 Y13.17927 Z-1.93007
X48.20419 Y13.17392 Z-1.93287
X48.18962 Y13.16765 Z-1.93566
X48.17548 Y13.16046 Z-1.93846
X48.16182 Y13.15238 Z-1.94126
X48.14871 Y13.14346 Z-1.94406
X48.13618 Y13.13373 Z-1.94685
X48.1243 Y13.12321 Z-1.94965
X48.11311 Y13.11197 Z-1.95245
X48.10265 Y13.10004 Z-1.95524
X48.09298 Y13.08747 Z-1.95804
X48.08411 Y13.07431 Z-1.96084
X48.0761 Y13.06062 Z-1.96364
X48.06898 Y13.04644 Z-1.96643
X48.06277 Y13.03185 Z-1.96923
X48.0575 Y13.01689 Z-1.97203
X48.05318 Y13.00162 Z-1.97483
X48.04985 Y12.98611 Z-1.97762
X48.0475 Y12.97042 Z-1.98042
X48.04615 Y12.95462 Z-1.98322
X48.04581 Y12.93875 Z-1.98601
X48.04648 Y12.9229 Z-1.98881
X48.04815 Y12.90713 Z-1.99161
X48.05082 Y12.89149 Z-1.99441
X48.05447 Y12.87605 Z-1.9972
X48.05909 Y12.86088 Z-2.
X48.24711 Y12.6961 F606.
X48.48381 Y12.77654
X48.5325 Y13.02175
X48.34449 Y13.18653
X48.10779 Y13.10609
X48.05909 Y12.86088
X48.27296 Y13.89975 Z-0.93934 F909.
Z-0.33934
G0 Z2.
X48.10786 Y13.10598
G1 Z-2.8 F151.5
Z-3.4 F454.5
X48.10265 Y13.10004 Z-3.40139
X48.09298 Y13.08747 Z-3.40419
X48.08411 Y13.07431 Z-3.40699
X48.0761 Y13.06062 Z-3.40979
X48.06898 Y13.04644 Z-3.41258
X48.06277 Y13.03185 Z-3.41538
X48.0575 Y13.01689 Z-3.41818
X48.05318 Y13.00162 Z-3.42097
X48.04985 Y12.98611 Z-3.42377
X48.0475 Y12.97042 Z-3.42657
X48.04615 Y12.95462 Z-3.42937
X48.04581 Y12.93875 Z-3.43216
X48.04648 Y12.9229 Z-3.43496
X48.04815 Y12.90713 Z-3.43776
X48.05082 Y12.89149 Z-3.44055
X48.05447 Y12.87605 Z-3.44335
X48.05909 Y12.86088 Z-3.44615
X48.06467 Y12.84603 Z-3.44895
X48.07118 Y12.83156 Z-3.45174
X48.07859 Y12.81753 Z-3.45454
X48.08688 Y12.80401 Z-3.45734
X48.09601 Y12.79104 Z-3.46014
X48.10594 Y12.77867 Z-3.46293
X48.11664 Y12.76695 Z-3.46573
X48.12806 Y12.75594 Z-3.46853
X48.14016 Y12.74568 Z-3.47132
X48.15288 Y12.7362 Z-3.47412
X48.16618 Y12.72755 Z-3.47692
X48.17999 Y12.71976 Z-3.47972
X48.19428 Y12.71286 Z-3.48251
X48.20897 Y12.70688 Z-3.48531
X48.22402 Y12.70184 Z-3.48811
X48.23935 Y12.69777 Z-3.4909
X48.25491 Y12.69468 Z-3.4937
X48.27064 Y12.69259 Z-3.4965
X48.28646 Y12.69149 Z-3.4993
X48.30233 Y12.6914 Z-3.50209
X48.31816 Y12.69232 Z-3.50489
X48.33391 Y12.69424 Z-3.50769
X48.3495 Y12.69715 Z-3.51049
X48.36488 Y12.70105 Z-3.51328
X48.37998 Y12.70592 Z-3.51608
X48.39474 Y12.71173 Z-3.51888
X48.4091 Y12.71847 Z-3.52167
X48.42301 Y12.7261 Z-3.52447
X48.4364 Y12.7346 Z-3.52727
X48.44923 Y12.74394 Z-3.53006
X48.46144 Y12.75407 Z-3.53286
X48.47298 Y12.76495 Z-3.53566
X48.48381 Y12.77654 Z-3.53846
X48.49388 Y12.7888 Z-3.54125
X48.50316 Y12.80167 Z-3.54405
X48.5116 Y12.8151 Z-3.54685
X48.51917 Y12.82904 Z-3.54965
X48.52584 Y12.84343 Z-3.55244
X48.53158 Y12.85822 Z-3.55524
X48.53638 Y12.87334 Z-3.55804
X48.54021 Y12.88874 Z-3.56084
X48.54305 Y12.90435 Z-3.56363
X48.5449 Y12.9201 Z-3.56643
X48.54574 Y12.93594 Z-3.56923
X48.54558 Y12.95181 Z-3.57202
X48.54441 Y12.96763 Z-3.57482
X48.54224 Y12.98334 Z-3.57762
X48.53908 Y12.99889 Z-3.58042
X48.53494 Y13.0142 Z-3.58321
X48.52983 Y13.02922 Z-3.58601
X48.52379 Y13.04389 Z-3.58881
X48.51682 Y13.05814 Z-3.5916
X48.50897 Y13.07192 Z-3.5944
X48.50025 Y13.08518 Z-3.5972
X48.49072 Y13.09786 Z-3.6
X48.4804 Y13.10991 Z-3.60279
X48.46933 Y13.12127 Z-3.60559
X48.45757 Y13.13192 Z-3.60839
X48.44515 Y13.14179 Z-3.61119
X48.43214 Y13.15086 Z-3.61398
X48.41857 Y13.15909 Z-3.61678
X48.40451 Y13.16644 Z-3.61958
X48.39002 Y13.17288 Z-3.62237
X48.37514 Y13.17839 Z-3.62517
X48.35995 Y13.18294 Z-3.62797
X48.34449 Y13.18653 Z-3.63077
X48.32884 Y13.18912 Z-3.63356
X48.31306 Y13.19072 Z-3.63636
X48.2972 Y13.19131 Z-3.63916
X48.28135 Y13.1909 Z-3.64196
X48.26555 Y13.18948 Z-3.64475
X48.24987 Y13.18706 Z-3.64755
X48.23437 Y13.18365 Z-3.65035
X48.21913 Y13.17927 Z-3.65314
X48.20419 Y13.17392 Z-3.65594
X48.18962 Y13.16765 Z-3.65874
X48.17548 Y13.16046 Z-3.66154
X48.16182 Y13.15238 Z-3.66433
X48.14871 Y13.14346 Z-3.66713
X48.13618 Y13.13373 Z-3.66993
X48.1243 Y13.12321 Z-3.67272
X48.11311 Y13.11197 Z-3.67552
X48.10265 Y13.10004 Z-3.67832
X48.09298 Y13.08747 Z-3.68112
X48.08411 Y13.07431 Z-3.68391
X48.0761 Y13.06062 Z-3.68671
X48.06898 Y13.04644 Z-3.68951
X48.06277 Y13.03185 Z-3.69231
X48.0575 Y13.01689 Z-3.6951
X48.05318 Y13.00162 Z-3.6979
X48.04985 Y12.98611 Z-3.7007
X48.0475 Y12.97042 Z-3.70349
X48.04615 Y12.95462 Z-3.70629
X48.04581 Y12.93875 Z-3.70909
X48.04648 Y12.9229 Z-3.71189
X48.04815 Y12.90713 Z-3.71468
X48.05082 Y12.89149 Z-3.71748
X48.05447 Y12.87605 Z-3.72028
X48.05909 Y12.86088 Z-3.72307
X48.06467 Y12.84603 Z-3.72587
X48.07118 Y12.83156 Z-3.72867
X48.07859 Y12.81753 Z-3.73147
X48.08688 Y12.80401 Z-3.73426
X48.09601 Y12.79104 Z-3.73706
X48.10594 Y12.77867 Z-3.73986
X48.11664 Y12.76695 Z-3.74265
X48.12806 Y12.75594 Z-3.74545
X48.14016 Y12.74568 Z-3.74825
X48.15288 Y12.7362 Z-3.75105
X48.16618 Y12.72755 Z-3.75384
X48.17999 Y12.71976 Z-3.75664
X48.19428 Y12.71286 Z-3.75944
X48.20897 Y12.70688 Z-3.76224
X48.22402 Y12.70184 Z-3.76503
X48.23935 Y12.69777 Z-3.76783
X48.25491 Y12.69468 Z-3.77063
X48.27064 Y12.69259 Z-3.77342
X48.28646 Y12.69149 Z-3.77622
X48.30233 Y12.6914 Z-3.77902
X48.31816 Y12.69232 Z-3.78182
X48.33391 Y12.69424 Z-3.78461
X48.3495 Y12.69715 Z-3.78741
X48.36488 Y12.70105 Z-3.79021
X48.37998 Y12.70592 Z-3.79301
X48.39474 Y12.71173 Z-3.7958
X48.4091 Y12.71847 Z-3.7986
X48.42301 Y12.7261 Z-3.8014
X48.4364 Y12.7346 Z-3.80419
X48.44923 Y12.74394 Z-3.80699
X48.46144 Y12.75407 Z-3.80979
X48.47298 Y12.76495 Z-3.81259
X48.48381 Y12.77654 Z-3.81538
X48.49388 Y12.7888 Z-3.81818
X48.50316 Y12.80167 Z-3.82098
X48.5116 Y12.8151 Z-3.82378
X48.51917 Y12.82904 Z-3.82657
X48.52584 Y12.84343 Z-3.82937
X48.53158 Y12.85822 Z-3.83217
X48.53638 Y12.87334 Z-3.83496
X48.54021 Y12.88874 Z-3.83776
X48.54305 Y12.90435 Z-3.84056
X48.5449 Y12.9201 Z-3.84335
X48.54574 Y12.93594 Z-3.84615
X48.54558 Y12.95181 Z-3.84895
X48.54441 Y12.96763 Z-3.85175
X48.54224 Y12.98334 Z-3.85454
X48.53908 Y12.99889 Z-3.85734
X48.53494 Y13.0142 Z-3.86014
X48.52983 Y13.02922 Z-3.86294
X48.52379 Y13.04389 Z-3.86573
X48.51682 Y13.05814 Z-3.86853
X48.50897 Y13.07192 Z-3.87133
X48.50025 Y13.08518 Z-3.87413
X48.49072 Y13.09786 Z-3.87692
X48.4804 Y13.10991 Z-3.87972
X48.46933 Y13.12127 Z-3.88252
X48.45757 Y13.13192 Z-3.88531
X48.44515 Y13.14179 Z-3.88811
X48.43214 Y13.15086 Z-3.89091
X48.41857 Y13.15909 Z-3.89371
X48.40451 Y13.16644 Z-3.8965
X48.39002 Y13.17288 Z-3.8993
X48.37514 Y13.17839 Z-3.9021
X48.35995 Y13.18294 Z-3.90489
X48.34449 Y13.18653 Z-3.90769
X48.32884 Y13.18912 Z-3.91049
X48.31306 Y13.19072 Z-3.91329
X48.2972 Y13.19131 Z-3.91608
X48.28135 Y13.1909 Z-3.91888
X48.26555 Y13.18948 Z-3.92168
X48.24987 Y13.18706 Z-3.92448
X48.23437 Y13.18365 Z-3.92727
X48.21913 Y13.17927 Z-3.93007
X48.20419 Y13.17392 Z-3.93287
X48.18962 Y13.16765 Z-3.93566
X48.17548 Y13.16046 Z-3.93846
X48.16182 Y13.15238 Z-3.94126
X48.14871 Y13.14346 Z-3.94406
X48.13618 Y13.13373 Z-3.94685
X48.1243 Y13.12321 Z-3.94965
X48.11311 Y13.11197 Z-3.95245
X48.10265 Y13.10004 Z-3.95524
X48.09298 Y13.08747 Z-3.95804
X48.08411 Y13.07431 Z-3.96084
X48.0761 Y13.06062 Z-3.96364
X48.06898 Y13.04644 Z-3.96643
X48.06277 Y13.03185 Z-3.96923
X48.0575 Y13.01689 Z-3.97203
X48.05318 Y13.00162 Z-3.97483
X48.04985 Y12.98611 Z-3.97762
X48.0475 Y12.97042 Z-3.98042
X48.04615 Y12.95462 Z-3.98322
X48.04581 Y12.93875 Z-3.98601
X48.04648 Y12.9229 Z-3.98881
X48.04815 Y12.90713 Z-3.99161
X48.05082 Y12.89149 Z-3.99441
X48.05447 Y12.87605 Z-3.9972
X48.05909 Y12.86088 Z-4.
X48.24711 Y12.6961 F606.
X48.48381 Y12.77654
X48.5325 Y13.02175
X48.34449 Y13.18653
X48.10779 Y13.10609
X48.05909 Y12.86088
X48.27296 Y13.89975 Z-2.93934 F909.
Z-2.33934
G0 Z2.
X-35.53552 Y35.52934
G1 Z-0.8 F151.5
Z-1.4 F454.5
X-35.541 Y35.52366 Z-1.40139
X-35.55128 Y35.51158 Z-1.40419
X-35.56078 Y35.49887 Z-1.40699
X-35.56944 Y35.48559 Z-1.40978
X-35.57725 Y35.47178 Z-1.41258
X-35.58417 Y35.4575 Z-1.41538
X-35.59016 Y35.44281 Z-1.41818
X-35.59522 Y35.42777 Z-1.42097
X-35.59931 Y35.41245 Z-1.42377
X-35.60242 Y35.39689 Z-1.42657
X-35.60453 Y35.38117 Z-1.42936
X-35.60565 Y35.36534 Z-1.43216
X-35.60575 Y35.34948 Z-1.43496
X-35.60486 Y35.33364 Z-1.43776
X-35.60296 Y35.31789 Z-1.44055
X-35.60006 Y35.3023 Z-1.44335
X-35.59618 Y35.28691 Z-1.44615
X-35.59133 Y35.27181 Z-1.44895
X-35.58554 Y35.25704 Z-1.45174
X-35.57882 Y35.24267 Z-1.45454
X-35.5712 Y35.22875 Z-1.45734
X-35.56272 Y35.21535 Z-1.46013
X-35.5534 Y35.20251 Z-1.46293
X-35.54328 Y35.19029 Z-1.46573
X-35.53242 Y35.17873 Z-1.46853
X-35.52084 Y35.16789 Z-1.47132
X-35.50859 Y35.1578 Z-1.47412
X-35.49573 Y35.14851 Z-1.47692
X-35.48231 Y35.14006 Z-1.47972
X-35.46838 Y35.13247 Z-1.48251
X-35.45399 Y35.12578 Z-1.48531
X-35.43921 Y35.12002 Z-1.48811
X-35.4241 Y35.1152 Z-1.4909
X-35.40871 Y35.11136 Z-1.4937
X-35.3931 Y35.1085 Z-1.4965
X-35.37735 Y35.10663 Z-1.4993
X-35.36151 Y35.10577 Z-1.50209
X-35.34565 Y35.10591 Z-1.50489
X-35.32982 Y35.10706 Z-1.50769
X-35.31411 Y35.10921 Z-1.51048
X-35.29856 Y35.11235 Z-1.51328
X-35.28324 Y35.11647 Z-1.51608
X-35.26821 Y35.12156 Z-1.51888
X-35.25354 Y35.12759 Z-1.52167
X-35.23928 Y35.13454 Z-1.52447
X-35.22548 Y35.14237 Z-1.52727
X-35.21222 Y35.15107 Z-1.53007
X-35.19953 Y35.16059 Z-1.53286
X-35.18747 Y35.1709 Z-1.53566
X-35.17609 Y35.18195 Z-1.53846
X-35.16543 Y35.1937 Z-1.54125
X-35.15554 Y35.2061 Z-1.54405
X-35.14645 Y35.21911 Z-1.54685
X-35.13821 Y35.23266 Z-1.54965
X-35.13084 Y35.24671 Z-1.55244
X-35.12438 Y35.2612 Z-1.55524
X-35.11886 Y35.27607 Z-1.55804
X-35.11428 Y35.29126 Z-1.56083
X-35.11068 Y35.30671 Z-1.56363
X-35.10807 Y35.32236 Z-1.56643
X-35.10645 Y35.33814 Z-1.56923
X-35.10584 Y35.35399 Z-1.57202
X-35.10623 Y35.36985 Z-1.57482
X-35.10763 Y35.38565 Z-1.57762
X-35.11003 Y35.40133 Z-1.58042
X-35.11342 Y35.41683 Z-1.58321
X-35.11779 Y35.43208 Z-1.58601
X-35.12311 Y35.44703 Z-1.58881
X-35.12937 Y35.4616 Z-1.5916
X-35.13654 Y35.47575 Z-1.5944
X-35.1446 Y35.48942 Z-1.5972
X-35.15351 Y35.50255 Z-1.6
X-35.16323 Y35.51508 Z-1.60279
X-35.17372 Y35.52698 Z-1.60559
X-35.18495 Y35.53818 Z-1.60839
X-35.19687 Y35.54865 Z-1.61119
X-35.20943 Y35.55835 Z-1.61398
X-35.22258 Y35.56723 Z-1.61678
X-35.23626 Y35.57525 Z-1.61958
X-35.25043 Y35.58239 Z-1.62237
X-35.26502 Y35.58862 Z-1.62517
X-35.27997 Y35.59391 Z-1.62797
X-35.29523 Y35.59824 Z-1.63076
X-35.31074 Y35.6016 Z-1.63356
X-35.32642 Y35.60397 Z-1.63636
X-35.34223 Y35.60533 Z-1.63916
X-35.35809 Y35.60569 Z-1.64195
X-35.37394 Y35.60504 Z-1.64475
X-35.38972 Y35.60339 Z-1.64755
X-35.40536 Y35.60075 Z-1.65035
X-35.4208 Y35.59711 Z-1.65314
X-35.43598 Y35.59251 Z-1.65594
X-35.45084 Y35.58695 Z-1.65874
X-35.46531 Y35.58045 Z-1.66154
X-35.47935 Y35.57306 Z-1.66433
X-35.49288 Y35.56479 Z-1.66713
X-35.50587 Y35.55567 Z-1.66993
X-35.51825 Y35.54575 Z-1.67272
X-35.52998 Y35.53507 Z-1.67552
X-35.541 Y35.52366 Z-1.67832
X-35.55128 Y35.51158 Z-1.68111
X-35.56078 Y35.49887 Z-1.68391
X-35.56944 Y35.48559 Z-1.68671
X-35.57725 Y35.47178 Z-1.68951
X-35.58417 Y35.4575 Z-1.6923
X-35.59016 Y35.44281 Z-1.6951
X-35.59522 Y35.42777 Z-1.6979
X-35.59931 Y35.41245 Z-1.7007
X-35.60242 Y35.39689 Z-1.70349
X-35.60453 Y35.38117 Z-1.70629
X-35.60565 Y35.36534 Z-1.70909
X-35.60575 Y35.34948 Z-1.71189
X-35.60486 Y35.33364 Z-1.71468
X-35.60296 Y35.31789 Z-1.71748
X-35.60006 Y35.3023 Z-1.72028
X-35.59618 Y35.28691 Z-1.72307
X-35.59133 Y35.27181 Z-1.72587
X-35.58554 Y35.25704 Z-1.72867
X-35.57882 Y35.24267 Z-1.73147
X-35.5712 Y35.22875 Z-1.73426
X-35.56272 Y35.21535 Z-1.73706
X-35.5534 Y35.20251 Z-1.73986
X-35.54328 Y35.19029 Z-1.74265
X-35.53242 Y35.17873 Z-1.74545
X-35.52084 Y35.16789 Z-1.74825
X-35.50859 Y35.1578 Z-1.75105
X-35.49573 Y35.14851 Z-1.75384
X-35.48231 Y35.14006 Z-1.75664
X-35.46838 Y35.13247 Z-1.75944
X-35.45399 Y35.12578 Z-1.76224
X-35.43921 Y35.12002 Z-1.76503
X-35.4241 Y35.1152 Z-1.76783
X-35.40871 Y35.11136 Z-1.77063
X-35.3931 Y35.1085 Z-1.77342
X-35.37735 Y35.10663 Z-1.77622
X-35.36151 Y35.10577 Z-1.77902
X-35.34565 Y35.10591 Z-1.78182
X-35.32982 Y35.10706 Z-1.78461
X-35.31411 Y35.10921 Z-1.78741
X-35.29856 Y35.11235 Z-1.79021
X-35.28324 Y35.11647 Z-1.79301
X-35.26821 Y35.12156 Z-1.7958
X-35.25354 Y35.12759 Z-1.7986
X-35.23928 Y35.13454 Z-1.8014
X-35.22548 Y35.14237 Z-1.80419
X-35.21222 Y35.15107 Z-1.80699
X-35.19953 Y35.16059 Z-1.80979
X-35.18747 Y35.1709 Z-1.81259
X-35.17609 Y35.18195 Z-1.81538
X-35.16543 Y35.1937 Z-1.81818
X-35.15554 Y35.2061 Z-1.82098
X-35.14645 Y35.21911 Z-1.82377
X-35.13821 Y35.23266 Z-1.82657
X-35.13084 Y35.24671 Z-1.82937
X-35.12438 Y35.2612 Z-1.83217
X-35.11886 Y35.27607 Z-1.83496
X-35.11428 Y35.29126 Z-1.83776
X-35.11068 Y35.30671 Z-1.84056
X-35.10807 Y35.32236 Z-1.84336
X-35.10645 Y35.33814 Z-1.84615
X-35.10584 Y35.35399 Z-1.84895
X-35.10623 Y35.36985 Z-1.85175
X-35.10763 Y35.38565 Z-1.85454
X-35.11003 Y35.40133 Z-1.85734
X-35.11342 Y35.41683 Z-1.86014
X-35.11779 Y35.43208 Z-1.86294
X-35.12311 Y35.44703 Z-1.86573
X-35.12937 Y35.4616 Z-1.86853
X-35.13654 Y35.47575 Z-1.87133
X-35.1446 Y35.48942 Z-1.87412
X-35.15351 Y35.50255 Z-1.87692
X-35.16323 Y35.51508 Z-1.87972
X-35.17372 Y35.52698 Z-1.88252
X-35.18495 Y35.53818 Z-1.88531
X-35.19687 Y35.54865 Z-1.88811
X-35.20943 Y35.55835 Z-1.89091
X-35.22258 Y35.56723 Z-1.89371
X-35.23626 Y35.57525 Z-1.8965
X-35.25043 Y35.58239 Z-1.8993
X-35.26502 Y35.58862 Z-1.9021
X-35.27997 Y35.59391 Z-1.90489
X-35.29523 Y35.59824 Z-1.90769
X-35.31074 Y35.6016 Z-1.91049
X-35.32642 Y35.60397 Z-1.91329
X-35.34223 Y35.60533 Z-1.91608
X-35.35809 Y35.60569 Z-1.91888
X-35.37394 Y35.60504 Z-1.92168
X-35.38972 Y35.60339 Z-1.92448
X-35.40536 Y35.60075 Z-1.92727
X-35.4208 Y35.59711 Z-1.93007
X-35.43598 Y35.59251 Z-1.93287
X-35.45084 Y35.58695 Z-1.93566
X-35.46531 Y35.58045 Z-1.93846
X-35.47935 Y35.57306 Z-1.94126
X-35.49288 Y35.56479 Z-1.94406
X-35.50587 Y35.55567 Z-1.94685
X-35.51825 Y35.54575 Z-1.94965
X-35.52998 Y35.53507 Z-1.95245
X-35.541 Y35.52366 Z-1.95524
X-35.55128 Y35.51158 Z-1.95804
X-35.56078 Y35.49887 Z-1.96084
X-35.56944 Y35.48559 Z-1.96364
X-35.57725 Y35.47178 Z-1.96643
X-35.58417 Y35.4575 Z-1.96923
X-35.59016 Y35.44281 Z-1.97203
X-35.59522 Y35.42777 Z-1.97483
X-35.59931 Y35.41245 Z-1.97762
X-35.60242 Y35.39689 Z-1.98042
X-35.60453 Y35.38117 Z-1.98322
X-35.60565 Y35.36534 Z-1.98601
X-35.60575 Y35.34948 Z-1.98881
X-35.60486 Y35.33364 Z-1.99161
X-35.60296 Y35.31789 Z-1.99441
X-35.60006 Y35.3023 Z-1.9972
X-35.59618 Y35.28691 Z-2.
X-35.41643 Y35.11316 F606.
X-35.17609 Y35.18195
X-35.11548 Y35.42449
X-35.29523 Y35.59824
X-35.53558 Y35.52946
X-35.59618 Y35.28691
X-35.35702 Y36.32026 Z-0.93934 F909.
Z-0.33934
G0 Z2.
X-35.53552 Y35.52934
G1 Z-2.8 F151.5
Z-3.4 F454.5
X-35.541 Y35.52366 Z-3.40139
X-35.55128 Y35.51158 Z-3.40419
X-35.56078 Y35.49887 Z-3.40699
X-35.56944 Y35.48559 Z-3.40978
X-35.57725 Y35.47178 Z-3.41258
X-35.58417 Y35.4575 Z-3.41538
X-35.59016 Y35.44281 Z-3.41818
X-35.59522 Y35.42777 Z-3.42097
X-35.59931 Y35.41245 Z-3.42377
X-35.60242 Y35.39689 Z-3.42657
X-35.60453 Y35.38117 Z-3.42936
X-35.60565 Y35.36534 Z-3.43216
X-35.60575 Y35.34948 Z-3.43496
X-35.60486 Y35.33364 Z-3.43776
X-35.60296 Y35.31789 Z-3.44055
X-35.60006 Y35.3023 Z-3.44335
X-35.59618 Y35.28691 Z-3.44615
X-35.59133 Y35.27181 Z-3.44895
X-35.58554 Y35.25704 Z-3.45174
X-35.57882 Y35.24267 Z-3.45454
X-35.5712 Y35.22875 Z-3.45734
X-35.56272 Y35.21535 Z-3.46013
X-35.5534 Y35.20251 Z-3.46293
X-35.54328 Y35.19029 Z-3.46573
X-35.53242 Y35.17873 Z-3.46853
X-35.52084 Y35.16789 Z-3.47132
X-35.50859 Y35.1578 Z-3.47412
X-35.49573 Y35.14851 Z-3.47692
X-35.48231 Y35.14006 Z-3.47972
X-35.46838 Y35.13247 Z-3.48251
X-35.45399 Y35.12578 Z-3.48531
X-35.43921 Y35.12002 Z-3.48811
X-35.4241 Y35.1152 Z-3.4909
X-35.40871 Y35.11136 Z-3.4937
X-35.3931 Y35.1085 Z-3.4965
X-35.37735 Y35.10663 Z-3.4993
X-35.36151 Y35.10577 Z-3.50209
X-35.34565 Y35.10591 Z-3.50489
X-35.32982 Y35.10706 Z-3.50769
X-35.31411 Y35.10921 Z-3.51048
X-35.29856 Y35.11235 Z-3.51328
X-35.28324 Y35.11647 Z-3.51608
X-35.26821 Y35.12156 Z-3.51888
X-35.25354 Y35.12759 Z-3.52167
X-35.23928 Y35.13454 Z-3.52447
X-35.22548 Y35.14237 Z-3.52727
X-35.21222 Y35.15107 Z-3.53006
X-35.19953 Y35.16059 Z-3.53286
X-35.18747 Y35.1709 Z-3.53566
X-35.17609 Y35.18195 Z-3.53846
X-35.16543 Y35.1937 Z-3.54125
X-35.15554 Y35.2061 Z-3.54405
X-35.14645 Y35.21911 Z-3.54685
X-35.13821 Y35.23266 Z-3.54965
X-35.13084 Y35.24671 Z-3.55244
X-35.12438 Y35.2612 Z-3.55524
X-35.11886 Y35.27607 Z-3.55804
X-35.11428 Y35.29126 Z-3.56083
X-35.11068 Y35.30671 Z-3.56363
X-35.10807 Y35.32236 Z-3.56643
X-35.10645 Y35.33814 Z-3.56923
X-35.10584 Y35.35399 Z-3.57202
X-35.10623 Y35.36985 Z-3.57482
X-35.10763 Y35.38565 Z-3.57762
X-35.11003 Y35.40133 Z-3.58042
X-35.11342 Y35.41683 Z-3.58321
X-35.11779 Y35.43208 Z-3.58601
X-35.12311 Y35.44703 Z-3.58881
X-35.12937 Y35.4616 Z-3.5916
X-35.13654 Y35.47575 Z-3.5944
X-35.1446 Y35.48942 Z-3.5972
X-35.15351 Y35.50255 Z-3.6
X-35.16323 Y35.51508 Z-3.60279
X-35.17372 Y35.52698 Z-3.60559
X-35.18495 Y35.53818 Z-3.60839
X-35.19687 Y35.54865 Z-3.61119
X-35.20943 Y35.55835 Z-3.61398
X-35.22258 Y35.56723 Z-3.61678
X-35.23626 Y35.57525 Z-3.61958
X-35.25043 Y35.58239 Z-3.62237
X-35.26502 Y35.58862 Z-3.62517
X-35.27997 Y35.59391 Z-3.62797
X-35.29523 Y35.59824 Z-3.63076
X-35.31074 Y35.6016 Z-3.63356
X-35.32642 Y35.60397 Z-3.63636
X-35.34223 Y35.60533 Z-3.63916
X-35.35809 Y35.60569 Z-3.64195
X-35.37394 Y35.60504 Z-3.64475
X-35.38972 Y35.60339 Z-3.64755
X-35.40536 Y35.60075 Z-3.65035
X-35.4208 Y35.59711 Z-3.65314
X-35.43598 Y35.59251 Z-3.65594
X-35.45084 Y35.58695 Z-3.65874
X-35.46531 Y35.58045 Z-3.66154
X-35.47935 Y35.57306 Z-3.66433
X-35.49288 Y35.56479 Z-3.66713
X-35.50587 Y35.55567 Z-3.66993
X-35.51825 Y35.54575 Z-3.67272
X-35.52998 Y35.53507 Z-3.67552
X-35.541 Y35.52366 Z-3.67832
X-35.55128 Y35.51158 Z-3.68111
X-35.56078 Y35.49887 Z-3.68391
X-35.56944 Y35.48559 Z-3.68671
X-35.57725 Y35.47178 Z-3.68951
X-35.58417 Y35.4575 Z-3.6923
X-35.59016 Y35.44281 Z-3.6951
X-35.59522 Y35.42777 Z-3.6979
X-35.59931 Y35.41245 Z-3.7007
X-35.60242 Y35.39689 Z-3.70349
X-35.60453 Y35.38117 Z-3.70629
X-35.60565 Y35.36534 Z-3.70909
X-35.60575 Y35.34948 Z-3.71189
X-35.60486 Y35.33364 Z-3.71468
X-35.60296 Y35.31789 Z-3.71748
X-35.60006 Y35.3023 Z-3.72028
X-35.59618 Y35.28691 Z-3.72307
X-35.59133 Y35.27181 Z-3.72587
X-35.58554 Y35.25704 Z-3.72867
X-35.57882 Y35.24267 Z-3.73147
X-35.5712 Y35.22875 Z-3.73426
X-35.56272 Y35.21535 Z-3.73706
X-35.5534 Y35.20251 Z-3.73986
X-35.54328 Y35.19029 Z-3.74265
X-35.53242 Y35.17873 Z-3.74545
X-35.52084 Y35.16789 Z-3.74825
X-35.50859 Y35.1578 Z-3.75105
X-35.49573 Y35.14851 Z-3.75384
X-35.48231 Y35.14006 Z-3.75664
X-35.46838 Y35.13247 Z-3.75944
X-35.45399 Y35.12578 Z-3.76224
X-35.43921 Y35.12002 Z-3.76503
X-35.4241 Y35.1152 Z-3.76783
X-35.40871 Y35.11136 Z-3.77063
X-35.3931 Y35.1085 Z-3.77342
X-35.37735 Y35.10663 Z-3.77622
X-35.36151 Y35.10577 Z-3.77902
X-35.34565 Y35.10591 Z-3.78182
X-35.32982 Y35.10706 Z-3.78461
X-35.31411 Y35.10921 Z-3.78741
X-35.29856 Y35.11235 Z-3.79021
X-35.28324 Y35.11647 Z-3.79301
X-35.26821 Y35.12156 Z-3.7958
X-35.25354 Y35.12759 Z-3.7986
X-35.23928 Y35.13454 Z-3.8014
X-35.22548 Y35.14237 Z-3.80419
X-35.21222 Y35.15107 Z-3.80699
X-35.19953 Y35.16059 Z-3.80979
X-35.18747 Y35.1709 Z-3.81259
X-35.17609 Y35.18195 Z-3.81538
X-35.16543 Y35.1937 Z-3.81818
X-35.15554 Y35.2061 Z-3.82098
X-35.14645 Y35.21911 Z-3.82377
X-35.13821 Y35.23266 Z-3.82657
X-35.13084 Y35.24671 Z-3.82937
X-35.12438 Y35.2612 Z-3.83217
X-35.11886 Y35.27607 Z-3.83496
X-35.11428 Y35.29126 Z-3.83776
X-35.11068 Y35.30671 Z-3.84056
X-35.10807 Y35.32236 Z-3.84335
X-35.10645 Y35.33814 Z-3.84615
X-35.10584 Y35.35399 Z-3.84895
X-35.10623 Y35.36985 Z-3.85175
X-35.10763 Y35.38565 Z-3.85454
X-35.11003 Y35.40133 Z-3.85734
X-35.11342 Y35.41683 Z-3.86014
X-35.11779 Y35.43208 Z-3.86294
X-35.12311 Y35.44703 Z-3.86573
X-35.12937 Y35.4616 Z-3.86853
X-35.13654 Y35.47575 Z-3.87133
X-35.1446 Y35.48942 Z-3.87412
X-35.15351 Y35.50255 Z-3.87692
X-35.16323 Y35.51508 Z-3.87972
X-35.17372 Y35.52698 Z-3.88252
X-35.18495 Y35.53818 Z-3.88531
X-35.19687 Y35.54865 Z-3.88811
X-35.20943 Y35.55835 Z-3.89091
X-35.22258 Y35.56723 Z-3.89371
X-35.23626 Y35.57525 Z-3.8965
X-35.25043 Y35.58239 Z-3.8993
X-35.26502 Y35.58862 Z-3.9021
X-35.27997 Y35.59391 Z-3.90489
X-35.29523 Y35.59824 Z-3.90769
X-35.31074 Y35.6016 Z-3.91049
X-35.32642 Y35.60397 Z-3.91329
X-35.34223 Y35.60533 Z-3.91608
X-35.35809 Y35.60569 Z-3.91888
X-35.37394 Y35.60504 Z-3.92168
X-35.38972 Y35.60339 Z-3.92448
X-35.40536 Y35.60075 Z-3.92727
X-35.4208 Y35.59711 Z-3.93007
X-35.43598 Y35.59251 Z-3.93287
X-35.45084 Y35.58695 Z-3.93566
X-35.46531 Y35.58045 Z-3.93846
X-35.47935 Y35.57306 Z-3.94126
X-35.49288 Y35.56479 Z-3.94406
X-35.50587 Y35.55567 Z-3.94685
X-35.51825 Y35.54575 Z-3.94965
X-35.52998 Y35.53507 Z-3.95245
X-35.541 Y35.52366 Z-3.95524
X-35.55128 Y35.51158 Z-3.95804
X-35.56078 Y35.49887 Z-3.96084
X-35.56944 Y35.48559 Z-3.96364
X-35.57725 Y35.47178 Z-3.96643
X-35.58417 Y35.4575 Z-3.96923
X-35.59016 Y35.44281 Z-3.97203
X-35.59522 Y35.42777 Z-3.97483
X-35.59931 Y35.41245 Z-3.97762
X-35.60242 Y35.39689 Z-3.98042
X-35.60453 Y35.38117 Z-3.98322
X-35.60565 Y35.36534 Z-3.98601
X-35.60575 Y35.34948 Z-3.98881
X-35.60486 Y35.33364 Z-3.99161
X-35.60296 Y35.31789 Z-3.99441
X-35.60006 Y35.3023 Z-3.9972
X-35.59618 Y35.28691 Z-4.
X-35.41643 Y35.11316 F606.
X-35.17609 Y35.18195
X-35.11548 Y35.42449
X-35.29523 Y35.59824
X-35.53558 Y35.52946
X-35.59618 Y35.28691
X-35.35702 Y36.32026 Z-2.93934 F909.
Z-2.33934
G0 Z2.
(2 1/2 Axis Pocketing)
(Endmill 4mm Single Flute Carbide)
X-26.04223 Y-42.41079
G1 Z-0.8 F151.5
Z-1.4 F454.5
X-28.5561 Y-40.9594 Z-1.91184
X-28.8061 Y-41.39241 Z-2.
X-21.44488 Y-45.64241 F606.
X-21.19488 Y-45.2094
X-28.5561 Y-40.9594
X-28.8061 Y-41.39241
X-28.27577 Y-40.47386 Z-0.93934 F909.
Z-0.33934
G0 Z2.
X-0.84772 Y-49.74964
G1 Z-0.8 F151.5
Z-1.4 F454.5
X-4.25049 Z-2.
Y-50.24964 F606.
X4.24951
Y-49.74964
X-4.25049
Y-50.8103 Z-0.93934 F909.
Z-0.33934
G0 Z2.
X25.85823 Y-43.0938
G1 Z-0.8 F151.5
Z-1.4 F454.5
X28.80512 Y-41.39241 Z-2.
X28.55512 Y-40.9594 F606.
X21.1939 Y-45.2094
X21.4439 Y-45.64241
X28.80512 Y-41.39241
X27.88656 Y-41.92274 Z-0.93934 F909.
Z-0.33934
G0 Z2.
X44.1909 Y-23.9579
G1 Z-0.8 F151.5
Z-1.4 F454.5
X45.64228 Y-21.44403 Z-1.91184
X45.20927 Y-21.19403 Z-2.
X40.95927 Y-28.55525 F606.
X41.39228 Y-28.80525
X45.64228 Y-21.44403
X45.20927 Y-21.19403
X46.12783 Y-21.72436 Z-0.93934 F909.
Z-0.33934
G0 Z2.
X50.24951 Y1.34759
G1 Z-0.8 F151.5
Z-1.4 F454.5
Y4.25036 Z-1.91184
X49.74951 Z-2.
Y-4.24964 F606.
X50.24951
Y4.25036
X49.74951
Y3.1897 Z-0.93934 F909.
Z-0.33934
G0 Z2.
X43.50789 Y24.14164
G1 Z-0.8 F151.5
Z-1.4 F454.5
X45.20927 Y21.19475 Z-2.
X45.64228 Y21.44475 F606.
X41.39228 Y28.80597
X40.95927 Y28.55597
X45.20927 Y21.19475
X44.67894 Y22.11331 Z-0.93934 F909.
Z-0.33934
G0 Z2.
X25.60823 Y42.66151
G1 Z-0.8 F151.5
Z-1.4 F454.5
X28.55512 Y40.96013 Z-2.
X28.80512 Y41.39314 F606.
X21.4439 Y45.64314
X21.1939 Y45.21013
X28.55512 Y40.96013
X29.47367 Y40.4298 Z-0.93934 F909.
Z-0.33934
G0 Z2.
X-1.34772 Y50.25036
G1 Z-0.8 F151.5
Z-1.4 F454.5
X-4.25049 Z-1.91184
Y49.75036 Z-2.
X4.24951 F606.
Y50.25036
X-4.25049
Y49.75036
X-3.18983 Z-0.93934 F909.
Z-0.33934
G0 Z2.
X-24.14177 Y43.50874
G1 Z-0.8 F151.5
Z-1.4 F454.5
X-21.19488 Y45.21013 Z-2.
X-21.44488 Y45.64314 F606.
X-28.8061 Y41.39314
X-28.5561 Y40.96013
X-21.19488 Y45.21013
X-22.11344 Y44.6798 Z-0.93934 F909.
Z-0.33934
G0 Z2.
X-43.94188 Y24.39164
G1 Z-0.8 F151.5
Z-1.4 F454.5
X-45.64327 Y21.44475 Z-2.
X-45.21026 Y21.19475 F606.
X-40.96026 Y28.55597
X-41.39327 Y28.80597
X-45.64327 Y21.44475
X-46.1736 Y20.5262 Z-0.93934 F909.
Z-0.33934
G0 Z2.
X-49.75049 Y1.34759
G1 Z-0.8 F151.5
Z-1.4 F454.5
Y4.25036 Z-1.91184
X-50.25049 Z-2.
Y-4.24964 F606.
X-49.75049
Y4.25036
X-50.25049
Y3.1897 Z-0.93934 F909.
Z-0.33934
G0 Z2.
X-43.75887 Y-23.7079
G1 Z-0.8 F151.5
Z-1.4 F454.5
X-45.21026 Y-21.19403 Z-1.91184
X-45.64327 Y-21.44403 Z-2.
X-41.39327 Y-28.80525 F606.
X-40.96026 Y-28.55525
X-45.21026 Y-21.19403
X-45.64327 Y-21.44403
X-46.56183 Y-21.97436 Z-0.93934 F909.
Z-0.33934
G0 Z2.
(2 1/2 Axis Profiling)
(Endmill 4mm Single Flute Carbide)
X39.53091 Y6.08486
G1 Z-0.73 F151.5
X39.5763 Y5.80362 Z-0.78023 F454.5
X39.72711 Y4.66058 Z-0.98353
X39.84491 Y3.51368 Z-1.18682
X39.92962 Y2.36385 Z-1.39012
X39.98115 Y1.21206 Z-1.59341
X39.99946 Y0.05927 Z-1.79671
X39.98454 Y-1.09358 Z-2.
G17
G02 X-39.04867 Y8.67447 I-39.98503 J1.09394 F606.
X-38.02843 Y12.40503 I39.04874 J-8.67426
X39.98454 Y-1.09358 I38.02794 J-12.40467
G1 X40.48436 Y-1.10725
G03 X-38.50378 Y12.56009 I-40.48485 J1.10761
X-39.53677 Y8.7829 I38.50385 J-12.55988
X40.48436 Y-1.10725 I39.53628 J-8.78254
G0 Z2.
X39.98454 Y-1.09358
G1 Z-4. F151.5
G02 X-39.04867 Y8.67447 I-39.98503 J1.09394 F606.
X-38.02843 Y12.40503 I39.04874 J-8.67426
X39.98454 Y-1.09358 I38.02794 J-12.40467
G1 X40.48436 Y-1.10725
G03 X-38.50378 Y12.56009 I-40.48485 J1.10761
X-39.53677 Y8.7829 I38.50385 J-12.55988
X40.48436 Y-1.10725 I39.53628 J-8.78254
G0 Z2.
(2 1/2 Axis Profiling)
(Endmill 4mm Single Flute Carbide)
X59.26354 Y5.27785
G1 Z-0.73 F151.5
X59.36857 Y3.94564 Z-0.96563 F454.5
X59.44777 Y2.48123 Z-1.22423
X59.49086 Y1.01532 Z-1.48282
X59.4978 Y-0.45121 Z-1.74141
X59.4686 Y-1.91747 Z-2.
G02 X-49.59244 Y32.87723 I-59.46908 J1.91784 F606.
X-44.19392 Y39.83992 I49.59244 J-32.87723
X59.4686 Y-1.91747 I44.19344 J-39.83955
G1 Z-4.
G02 X-49.59244 Y32.87723 I-59.46908 J1.91784
X-44.19392 Y39.83992 I49.59244 J-32.87723
X59.4686 Y-1.91747 I44.19344 J-39.83955
G0 Z2.
M30
%
