%
N1 G17 G21 G40 G90
(2 1/2 Axis Pocketing)
(1/4in 6.35mm 2 Flute Carbide Router)
N2 T30 M06
N3 S18446 M3
N4 G0 Z3.175
N5 X84.14473 Y87.44724
N6 G1 Z-2.8 F1250.5
N7 Z-3.4 F3751.5
N8 X84.14499 Y87.44717 Z-3.40005
N9 X84.21556 Y87.42826 Z-3.41293
N10 X84.28636 Y87.41021 Z-3.42581
N11 X84.35737 Y87.39303 Z-3.43869
N12 X84.42858 Y87.37671 Z-3.45158
N13 X84.49999 Y87.36126 Z-3.46446
N14 X84.57158 Y87.34668 Z-3.47734
N15 X84.64334 Y87.33297 Z-3.49022
N16 X84.71526 Y87.32014 Z-3.50311
N17 X84.78734 Y87.30818 Z-3.51599
N18 X84.85955 Y87.2971 Z-3.52887
N19 X84.9319 Y87.2869 Z-3.54175
N20 X85.00436 Y87.27759 Z-3.55464
N21 X85.07693 Y87.26916 Z-3.56752
N22 X85.1496 Y87.26161 Z-3.5804
N23 X85.22236 Y87.25495 Z-3.59328
N24 X85.29519 Y87.24917 Z-3.60617
N25 X85.36809 Y87.24428 Z-3.61905
N26 X85.44104 Y87.24028 Z-3.63193
N27 X85.51403 Y87.23717 Z-3.64481
N28 X85.58706 Y87.23494 Z-3.6577
N29 X85.6601 Y87.23361 Z-3.67058
N30 X85.73316 Y87.23316 Z-3.68346
N31 X85.80622 Y87.23361 Z-3.69634
N32 X85.87927 Y87.23494 Z-3.70923
N33 X85.95229 Y87.23717 Z-3.72211
N34 X86.02529 Y87.24028 Z-3.73499
N35 X86.09824 Y87.24428 Z-3.74787
N36 X86.17113 Y87.24917 Z-3.76076
N37 X86.24397 Y87.25495 Z-3.77364
N38 X86.31672 Y87.26161 Z-3.78652
N39 X86.38939 Y87.26916 Z-3.7994
N40 X86.46196 Y87.27759 Z-3.81229
N41 X86.53442 Y87.2869 Z-3.82517
N42 X86.60677 Y87.2971 Z-3.83805
N43 X86.67898 Y87.30818 Z-3.85093
N44 X86.75106 Y87.32014 Z-3.86381
N45 X86.82298 Y87.33297 Z-3.8767
N46 X86.89475 Y87.34668 Z-3.88958
N47 X86.96634 Y87.36126 Z-3.90246
N48 X87.03774 Y87.37671 Z-3.91534
N49 X87.10896 Y87.39303 Z-3.92823
N50 X87.17997 Y87.41021 Z-3.94111
N51 X87.25076 Y87.42826 Z-3.95399
N52 X87.32133 Y87.44717 Z-3.96687
N53 X87.39167 Y87.46694 Z-3.97976
N54 X87.46176 Y87.48756 Z-3.99264
N55 X87.50166 Y87.49983 Z-4.
N56 X87.50169 Y87.49973
N57 X87.60572 Y87.81344 F5000.
N58 X87.36343 Y88.03824
N59 X87.05837 Y87.91107
N60 G17
N61 G03 X87.9712 Y86.30344 I0.55561 J-0.74749
N62 X88.42773 Y89.10368 I-0.37716 J1.49882
N63 X85.54243 Y85.85571 I-1.1817 J-1.8558
N64 X90.42114 Y89.03197 I2.26155 J1.86123
N65 X83.58898 Y86.53533 I-3.27164 J-1.64357
N66 X92.26419 Y87.49973 I4.28098 J0.99164
N67 X82.27355 Y89.14007 I-5.11857 J0.06949
N68 X92.58745 Y83.95994 I5.54791 J-1.81164
N69 X83.05151 Y92.80325 I-5.33668 J3.8084
N70 X90.1109 Y80.33098 I4.62029 J-5.61885
N71 X87.50169 Y95.8341 I-2.65991 J7.52346
N72 X84.70548 Y78.89385 I-0.06515 J-8.69015
N73 X90.27668 Y96.95046 I2.9026 J8.99221
N74 X81.78641 Y78.60658 I-2.93315 J-9.77918
N75 X95.36791 Y95.63333 I5.94246 J9.19002
N76 X77.56037 Y80.6754 I-8.1556 J-8.36967
N77 X98.80024 Y93.56692 I10.26592 J7.02904
N78 X74.56878 Y83.38547 I-11.64626 J-6.20805
N79 X101.46128 Y90.80821 I13.3054 J4.22166
N80 X72.49322 Y85.74549 I-14.3375 J-3.36978
N81 X103.24015 Y85.66016 I15.37846 J1.75703
N82 X71.84861 Y92.97698 I-16.09927 J1.92726
N83 X102.1676 Y78.28453 I15.98525 J-5.64222
N84 X74.90634 Y100.43496 I-14.94724 J9.45482
N85 X98.3122 Y72.10922 I12.83332 J-13.22882
N86 X78.88666 Y105.06266 I-10.99642 J15.72003
N87 X92.5911 Y67.84327 I8.73465 J-17.91657
N88 X87.50169 Y108.5341 I-5.12849 J20.02225
N89 X83.25292 Y66.13968 I-0.04021 J-21.40609
N90 X95.26357 Y108.65369 I4.34432 J21.72626
N91 X76.4922 Y66.9748 I-7.92062 J-21.49928
N92 X100.4706 Y107.77186 I11.20097 J20.86181
N93 X69.76568 Y70.16295 I-13.20516 J-20.55757
N94 X108.30947 Y102.33791 I18.02348 J17.58301
N95 X64.24115 Y75.19049 I-21.13349 J-15.03576
N96 X112.98738 Y96.63798 I23.60896 J12.46052
N97 X59.91931 Y83.91874 I-25.84781 J-9.22274
N98 X116.07669 Y87.49973 I27.96275 J3.60876
N99 X58.5747 Y92.32679 I-28.95076 J0.0338
N100 X115.95088 Y77.73311 I29.29208 J-4.92219
N101 X60.19942 Y101.82906 I-28.79399 J9.92337
N102 X112.75383 Y68.52397 I27.61729 J-14.53794
N103 X66.50798 Y112.0802 I-25.51831 J19.23481
N104 X104.7857 Y59.29479 I21.2141 J-24.88783
N105 X73.65846 Y118.37963 I-17.45685 J28.54502
N106 X96.66896 Y54.14052 I13.96417 J-31.23877
N107 X84.86067 Y122.74168 I-9.22606 J33.72878
N108 X84.80418 Y51.50393 I2.63886 J-35.62099
N109 X93.60523 Y123.85834 I2.73968 J36.37923
N110 X74.56426 Y52.18023 I-6.20151 J-36.72073
N111 X105.47626 Y121.40336 I13.08799 J35.66901
N112 X65.53678 Y55.10391 I-18.17413 J-34.23142
N113 X111.75647 Y119.20561 I22.18907 J32.71476
N114 X57.50424 Y60.03916 I-24.5101 J-31.98196
N115 X121.18824 Y111.62083 I30.292 J27.7045
N116 X50.83498 Y66.61056 I-34.01117 J-24.3268
N117 X126.91062 Y104.61744 I37.01063 J21.0595
N118 X45.39787 Y75.70279 I-39.76806 J-17.24346
N119 X131.11064 Y96.36363 I42.48016 J11.89121
N120 X42.34213 Y84.47665 I-43.98722 J-8.90841
N121 X133.41953 Y84.42589 I45.5404 J3.02597
N122 X41.61895 Y96.62637 I-46.29565 J3.12543
N123 X132.52095 Y72.21775 I46.25048 J-9.22688
N124 X44.79375 Y110.05047 I-45.36244 J15.44083
N125 X126.61534 Y57.90392 I43.02569 J-22.75485
N126 X52.56417 Y122.99603 I-39.39551 J29.84995
N127 X116.82906 Y46.3152 I35.17602 J-35.78965
N128 X66.58631 Y134.34566 I-29.50895 J41.51105
N129 X101.10544 Y37.25121 I21.04093 J-47.20287
N130 X82.62921 Y140.08218 I-13.66176 J50.62066
N131 X82.56028 Y34.1734 I4.87104 J-52.95758
N132 X97.29424 Y140.93594 I4.99361 J53.70881
N133 X71.11246 Y34.90482 I-9.88541 J-53.80707
N134 X107.91143 Y139.50288 I16.51448 J52.96219
N135 X42.1723 Y120.70519 I-20.67024 J-52.06225
N136 X41.85833 Y120.27229 I45.3283 J-33.20621
N137 G1 X40.59395 Y118.43558
N138 X41.24766 Y117.60032 Z-2.93934 F5000.
N139 Z-2.33934
N140 G0 Z3.175
(2 1/2 Axis Profiling)
(1/4in 6.35mm 2 Flute Carbide Router)
N141 S17895 M3
N142 X124.24642 Y111.85531
N143 G1 Z-4. F1235.5
N144 X128.97854 Y116.08964 F3706.5
N145 G03 X129.47632 Y125.05609 I-4.23434 J4.73211
N146 X129.47623 Y125.05619 I-41.96543 J-37.55098 F4942.
N147 X137.69504 Y113.05316 I-41.97563 J-37.55721
N148 G1 X137.69497 Y113.05328
N149 G03 X129.47632 Y125.05609 I-50.17972 J-25.54427
N150 X120.50987 Y125.55387 I-4.73212 J-4.23434 F5000.
N151 G1 X115.77775 Y121.31954
N152 G0 Z3.175
(2 1/2 Axis Profiling-1)
(1/4in 6.35mm 2 Flute Carbide Router)
N153 S17544 M3
N154 X124.61903 Y112.18872
N155 G1 Z-4. F1140.2
N156 X129.35114 Y116.42305 F3420.7
N157 G03 X129.84893 Y125.3895 I-4.23433 J4.73212
N158 X129.84885 Y125.38959 I-42.35559 J-37.9001 F4561.
N159 X138.14061 Y113.28 I-42.34825 J-37.89061
N160 G1 X138.14056 Y113.28011
N161 G03 X129.84893 Y125.3895 I-50.62531 J-25.7711
N162 X120.88248 Y125.88728 I-4.73212 J-4.23433 F5000.
N163 G1 X116.15036 Y121.65295
N164 G0 Z3.175
(2 1/2 Axis Pocketing)
(1/4in 6.35mm 2 Flute Carbide Router)
N165 S20602 M3
N166 X84.14304 Y87.44752
N167 G1 Z-3.8 F1236.
N168 Z-4.4 F3708.
N169 X84.1433 Y87.44744 Z-4.40005
N170 X84.21387 Y87.42853 Z-4.41293
N171 X84.28466 Y87.41048 Z-4.42581
N172 X84.35567 Y87.3933 Z-4.43869
N173 X84.42689 Y87.37698 Z-4.45158
N174 X84.49829 Y87.36153 Z-4.46446
N175 X84.56988 Y87.34695 Z-4.47734
N176 X84.64165 Y87.33324 Z-4.49022
N177 X84.71357 Y87.32041 Z-4.50311
N178 X84.78565 Y87.30845 Z-4.51599
N179 X84.85786 Y87.29738 Z-4.52887
N180 X84.93021 Y87.28718 Z-4.54175
N181 X85.00267 Y87.27786 Z-4.55464
N182 X85.07524 Y87.26943 Z-4.56752
N183 X85.14791 Y87.26188 Z-4.5804
N184 X85.22067 Y87.25522 Z-4.59328
N185 X85.2935 Y87.24944 Z-4.60617
N186 X85.36639 Y87.24455 Z-4.61905
N187 X85.43934 Y87.24055 Z-4.63193
N188 X85.51234 Y87.23744 Z-4.64481
N189 X85.58536 Y87.23521 Z-4.6577
N190 X85.65841 Y87.23388 Z-4.67058
N191 X85.73147 Y87.23344 Z-4.68346
N192 X85.80453 Y87.23388 Z-4.69634
N193 X85.87757 Y87.23521 Z-4.70923
N194 X85.9506 Y87.23744 Z-4.72211
N195 X86.02359 Y87.24055 Z-4.73499
N196 X86.09655 Y87.24455 Z-4.74787
N197 X86.16944 Y87.24944 Z-4.76076
N198 X86.24227 Y87.25522 Z-4.77364
N199 X86.31503 Y87.26188 Z-4.78652
N200 X86.3877 Y87.26943 Z-4.7994
N201 X86.46027 Y87.27786 Z-4.81229
N202 X86.53273 Y87.28718 Z-4.82517
N203 X86.60508 Y87.29738 Z-4.83805
N204 X86.67729 Y87.30845 Z-4.85093
N205 X86.74937 Y87.32041 Z-4.86381
N206 X86.82129 Y87.33324 Z-4.8767
N207 X86.89305 Y87.34695 Z-4.88958
N208 X86.96464 Y87.36153 Z-4.90246
N209 X87.03605 Y87.37698 Z-4.91534
N210 X87.10726 Y87.3933 Z-4.92823
N211 X87.17827 Y87.41048 Z-4.94111
N212 X87.24907 Y87.42853 Z-4.95399
N213 X87.31964 Y87.44744 Z-4.96687
N214 X87.38997 Y87.46721 Z-4.97976
N215 X87.46006 Y87.48783 Z-4.99264
N216 X87.49997 Y87.5001 Z-5.
N217 X87.5 Y87.5
N218 X87.60402 Y87.81371 F4944.
N219 X87.36174 Y88.03852
N220 X87.05668 Y87.91134
N221 G03 X87.96951 Y86.30372 I0.5556 J-0.74749
N222 X87.25161 Y89.50023 I-0.58128 J1.54832
N223 X87.94578 Y84.71722 I0.27246 J-2.40234
N224 X86.84703 Y91.05831 I-0.51543 J3.17643
N225 X88.56986 Y83.20392 I0.7192 J-3.95839
N226 X85.78812 Y92.45608 I-1.18465 J4.68808
N227 X89.99706 Y81.97791 I1.84994 J-5.34132
N228 X83.88229 Y93.35983 I-2.68856 J5.88911
N229 X92.27621 Y81.44829 I3.84503 J-6.20377
N230 X81.32016 Y93.39246 I-5.0532 J6.36177
N231 X95.04107 Y81.94763 I6.49105 J-6.16529
N232 X78.51589 Y92.3178 I-7.89 J5.77882
N233 X97.80704 Y83.59762 I9.358 J-4.99627
N234 X75.93795 Y90.09825 I-10.7035 J4.02758
N235 X100.12061 Y86.31297 I11.96971 J-2.66958
N236 X74.00496 Y87.07675 I-13.03368 J1.2075
N237 X101.60794 Y90.02581 I13.9096 J0.46262
N238 X73.05026 Y82.91794 I-14.51155 J-2.61896
N239 X101.90504 Y94.4371 I14.83746 J4.73238
N240 X73.46568 Y78.23603 I-14.76825 J-7.13757
N241 X100.68903 Y99.22322 I14.3654 J9.51591
N242 X75.37616 Y73.56314 I-13.48331 J-12.01435
N243 X98.04783 Y103.66366 I12.37426 J14.26812
N244 X78.83306 Y69.33336 I-10.75438 J-16.52317
N245 X93.9364 Y107.44256 I8.8195 J18.55214
N246 X83.82255 Y66.02736 I-6.53929 J-20.3456
N247 X88.30346 Y110.09862 I3.71841 J21.88536
N248 X89.884 Y64.18018 I-0.79318 J-23.01373
N249 X81.45063 Y111.00711 I-2.45638 J23.73049
N250 X97.02621 Y64.2764 I6.17712 J-23.9022
N251 X74.20326 Y109.76459 I-9.7119 J23.59683
N252 X104.23835 Y66.61944 I13.53109 J-22.60736
N253 X67.28898 Y106.28394 I-17.02067 J21.18673
N254 X110.77689 Y71.19305 I20.53171 J-19.04778
N255 X61.39335 Y100.69228 I-23.63278 J16.52244
N256 X115.99725 Y77.87072 I26.4889 J-13.35612
N257 X57.08318 Y93.00523 I-28.89994 J9.73586
N258 X119.22496 Y86.46682 I30.83072 J-5.55177
N259 X55.10325 Y84.14693 I-32.13978 J1.02157
N260 X119.88137 Y95.68604 I32.80682 J3.42435
N261 X55.80104 Y74.58487 I-32.77686 J-8.3134
N262 X117.62879 Y105.43053 I32.0726 J13.10026
N263 X59.51901 Y65.02476 I-30.47146 J-18.16563
N264 X112.31314 Y114.57041 I28.28611 J22.75993
N265 X66.37074 Y56.45621 I-25.07321 J-27.39535
N266 X104.15397 Y122.08232 I21.3377 J31.40475
N267 X75.76083 Y50.08456 I-16.80891 J-34.96867
N268 X93.86242 Y127.03538 I11.83458 J37.82056
N269 X86.77539 Y46.63278 I-6.40175 J-39.94936
N270 X82.21841 Y128.86816 I0.70261 J41.28288
N271 X98.82981 Y46.50298 I5.36167 J-41.77634
N272 X69.95225 Y127.15561 I-11.46894 J41.38967
N273 X110.97643 Y50.05642 I17.74086 J-40.02415
N274 X91.33145 Y132.16095 I-23.55324 J37.76694
N275 G0 Z3.175
N276 X42.74403 Y85.01324
N277 G1 Z-5. F1236.
N278 G03 X132.25597 Y89.98676 I44.75597 J2.48676 F4944.
N279 X42.74403 Y85.01324 I-44.75597 J-2.48676
N280 G1 X42.77449 Y86.07346 Z-3.93934 F5000.
N281 Z-3.33934
N282 G0 Z3.175
(2 1/2 Axis Pocketing)
(1/4in 6.35mm 2 Flute Carbide Router)
N283 S17544 M3
N284 X115.41104 Y101.42186
N285 G1 Z-6.63333 F1140.2
N286 Z-7.23333 F3420.7
N287 X112.00827 Z-7.83333
N288 X129.27138 F4561.
N289 G03 X129.55136 Y103.00936 I-1.4725 J1.07814
N290 G1 X111.02213
N291 G03 X109.89482 Y104.59686 I-23.52213 J-15.50936
N292 G1 X128.93648
N293 G03 X128.24534 Y106.18436 I-41.43129 J-17.09353
N294 G1 X108.58851
N295 G03 X107.06738 Y107.77186 I-21.08851 J-18.68436
N296 G1 X127.47927
N297 G03 X126.63388 Y109.35936 I-39.97408 J-20.26853
N298 G1 X105.27636
N299 G03 X103.12291 Y110.94686 I-17.77636 J-21.85936
N300 G1 X125.7039
N301 G03 X124.68298 Y112.53436 I-38.19871 J-23.44353
N302 G1 X100.93957
N303 G02 X100.675 Y113.48076 I1.56043 J0.9464
N304 G1 Y114.12186
N305 X123.5634
N306 G03 X122.33564 Y115.70936 I-36.05821 J-26.61853
N307 G1 X100.675
N308 Y117.29686
N309 X120.98781
N310 G03 X119.50474 Y118.88436 I-33.48262 J-29.79353
N311 G1 X100.675
N312 Y120.47186
N313 X117.86662
N314 G03 X116.04676 Y122.05936 I-30.36143 J-32.96853
N315 G1 X100.675
N316 Y123.64686
N317 X114.00775
N318 G03 X111.69424 Y125.23436 I-26.50256 J-36.14353
N319 G1 X100.675
N320 Y126.82186
N321 X109.01783
N322 G03 X105.82014 Y128.40936 I-21.51264 J-39.31853
N323 G1 X100.78013
N324 G0 Z3.175
N325 X103.02843 Y129.54562
N326 G1 Z-6.63333 F1140.2
N327 Z-7.23333 F3420.7
N328 X102.9981 Y129.55459 Z-7.23891
N329 X102.95894 Y129.56524 Z-7.24607
N330 X102.91955 Y129.575 Z-7.25322
N331 X102.87995 Y129.58389 Z-7.26038
N332 X102.84017 Y129.5919 Z-7.26753
N333 X102.80022 Y129.59902 Z-7.27469
N334 X102.76012 Y129.60525 Z-7.28184
N335 X102.71989 Y129.61059 Z-7.289
N336 X102.67955 Y129.61503 Z-7.29616
N337 X102.63913 Y129.61857 Z-7.30331
N338 X102.59863 Y129.62122 Z-7.31047
N339 X102.55809 Y129.62296 Z-7.31762
N340 X102.51751 Y129.6238 Z-7.32478
N341 X102.47693 Y129.62374 Z-7.33193
N342 X102.43636 Y129.62277 Z-7.33909
N343 X102.39583 Y129.62091 Z-7.34624
N344 X102.35534 Y129.61814 Z-7.3534
N345 X102.31492 Y129.61447 Z-7.36056
N346 X102.2746 Y129.60991 Z-7.36771
N347 X102.23439 Y129.60445 Z-7.37487
N348 X102.19431 Y129.5981 Z-7.38202
N349 X102.15438 Y129.59086 Z-7.38918
N350 X102.11462 Y129.58273 Z-7.39633
N351 X102.07505 Y129.57372 Z-7.40349
N352 X102.03569 Y129.56383 Z-7.41065
N353 X101.99656 Y129.55307 Z-7.4178
N354 X101.95768 Y129.54144 Z-7.42496
N355 X101.91907 Y129.52895 Z-7.43211
N356 X101.88075 Y129.51561 Z-7.43927
N357 X101.84273 Y129.50142 Z-7.44642
N358 X101.80503 Y129.48638 Z-7.45358
N359 X101.76769 Y129.47051 Z-7.46073
N360 X101.7307 Y129.45381 Z-7.46789
N361 X101.69409 Y129.4363 Z-7.47505
N362 X101.65788 Y129.41798 Z-7.4822
N363 X101.62209 Y129.39885 Z-7.48936
N364 X101.58673 Y129.37894 Z-7.49651
N365 X101.55183 Y129.35824 Z-7.50367
N366 X101.51739 Y129.33677 Z-7.51082
N367 X101.48344 Y129.31454 Z-7.51798
N368 X101.44999 Y129.29156 Z-7.52513
N369 X101.41706 Y129.26785 Z-7.53229
N370 X101.38466 Y129.24341 Z-7.53945
N371 X101.35282 Y129.21825 Z-7.5466
N372 X101.32154 Y129.19239 Z-7.55376
N373 X101.29085 Y129.16584 Z-7.56091
N374 X101.26075 Y129.13862 Z-7.56807
N375 X101.23127 Y129.11073 Z-7.57522
N376 X101.20242 Y129.0822 Z-7.58238
N377 X101.1742 Y129.05303 Z-7.58953
N378 X101.14664 Y129.02324 Z-7.59669
N379 X101.11976 Y128.99285 Z-7.60385
N380 X101.09355 Y128.96186 Z-7.611
N381 X101.06804 Y128.9303 Z-7.61816
N382 X101.04324 Y128.89818 Z-7.62531
N383 X101.01915 Y128.86552 Z-7.63247
N384 X100.9958 Y128.83233 Z-7.63962
N385 X100.9732 Y128.79863 Z-7.64678
N386 X100.95134 Y128.76443 Z-7.65393
N387 X100.93026 Y128.72976 Z-7.66109
N388 X100.90995 Y128.69463 Z-7.66825
N389 X100.89042 Y128.65905 Z-7.6754
N390 X100.8717 Y128.62305 Z-7.68256
N391 X100.85377 Y128.58664 Z-7.68971
N392 X100.83667 Y128.54984 Z-7.69687
N393 X100.82038 Y128.51267 Z-7.70402
N394 X100.80486 Y128.475 Z-7.71121
N395 X100.79019 Y128.43699 Z-7.71839
N396 X100.77637 Y128.39866 Z-7.72558
N397 X100.76342 Y128.36004 Z-7.73276
N398 X100.75132 Y128.32113 Z-7.73994
N399 X100.7401 Y128.28197 Z-7.74713
N400 X100.72975 Y128.24256 Z-7.75431
N401 X100.72029 Y128.20293 Z-7.76149
N402 X100.71171 Y128.1631 Z-7.76868
N403 X100.70403 Y128.12309 Z-7.77586
N404 X100.69724 Y128.08292 Z-7.78305
N405 X100.69135 Y128.04261 Z-7.79023
N406 X100.68636 Y128.00217 Z-7.79741
N407 X100.68227 Y127.96163 Z-7.8046
N408 X100.67909 Y127.92102 Z-7.81178
N409 X100.67682 Y127.88034 Z-7.81897
N410 X100.67545 Y127.83962 Z-7.82615
N411 X100.675 Y127.79888 Z-7.83333
N412 Y113.48076 F4561.
N413 G03 X101.5875 Y111.90027 I1.825 J0.
N414 G02 X111.90027 Y101.5875 I-14.0875 J-24.40027
N415 G03 X113.48076 Y100.675 I1.58049 J0.9125
N416 G1 X127.79888
N417 G03 X129.50924 Y103.13663 I0. J1.825
N418 G1 X129.50921 Y103.13671
N419 G03 X103.07566 Y129.53071 I-42.00402 J-15.63338
N420 X100.82038 Y128.51267 I-0.57566 J-1.73182
N421 X100.675 Y127.79888 I1.67964 J-0.7138
N422 G0 Z3.175
N423 X112.00827 Y101.42186
N424 G1 Z-10.66667 F1140.2
N425 X129.27138 F4561.
N426 G03 X129.55136 Y103.00936 I-1.4725 J1.07814
N427 G1 X111.02213
N428 G03 X109.89482 Y104.59686 I-23.52213 J-15.50936
N429 G1 X128.93648
N430 G03 X128.24534 Y106.18436 I-41.43129 J-17.09353
N431 G1 X108.58851
N432 G03 X107.06738 Y107.77186 I-21.08851 J-18.68436
N433 G1 X127.47927
N434 G03 X126.63388 Y109.35936 I-39.97408 J-20.26853
N435 G1 X105.27636
N436 G03 X103.12291 Y110.94686 I-17.77636 J-21.85936
N437 G1 X125.7039
N438 G03 X124.68298 Y112.53436 I-38.19871 J-23.44353
N439 G1 X100.93957
N440 G02 X100.675 Y113.48076 I1.56043 J0.9464
N441 G1 Y114.12186
N442 X123.5634
N443 G03 X122.33564 Y115.70936 I-36.05821 J-26.61853
N444 G1 X100.675
N445 Y117.29686
N446 X120.98781
N447 G03 X119.50474 Y118.88436 I-33.48262 J-29.79353
N448 G1 X100.675
N449 Y120.47186
N450 X117.86662
N451 G03 X116.04676 Y122.05936 I-30.36143 J-32.96853
N452 G1 X100.675
N453 Y123.64686
N454 X114.00775
N455 G03 X111.69424 Y125.23436 I-26.50256 J-36.14353
N456 G1 X100.675
N457 Y126.82186
N458 X109.01783
N459 G03 X105.82014 Y128.40936 I-21.51264 J-39.31853
N460 G1 X100.78013
N461 G0 Z3.175
N462 X100.675 Y127.79888
N463 G1 Z-10.66667 F1140.2
N464 Y113.48076 F4561.
N465 G03 X101.5875 Y111.90027 I1.825 J0.
N466 G02 X111.90027 Y101.5875 I-14.0875 J-24.40027
N467 G03 X113.48076 Y100.675 I1.58049 J0.9125
N468 G1 X127.79888
N469 G03 X129.50924 Y103.13663 I0. J1.825
N470 G1 X129.50921 Y103.13671
N471 G03 X103.07566 Y129.53071 I-42.00402 J-15.63338
N472 X100.82038 Y128.51267 I-0.57566 J-1.73182
N473 X100.675 Y127.79888 I1.67964 J-0.7138
N474 G0 Z3.175
N475 X112.00827 Y101.42186
N476 G1 Z-13.5 F1140.2
N477 X129.27138 F4561.
N478 G03 X129.55136 Y103.00936 I-1.4725 J1.07814
N479 G1 X111.02213
N480 G03 X109.89482 Y104.59686 I-23.52213 J-15.50936
N481 G1 X128.93648
N482 G03 X128.24534 Y106.18436 I-41.43129 J-17.09353
N483 G1 X108.58851
N484 G03 X107.06738 Y107.77186 I-21.08851 J-18.68436
N485 G1 X127.47927
N486 G03 X126.63388 Y109.35936 I-39.97408 J-20.26853
N487 G1 X105.27636
N488 G03 X103.12291 Y110.94686 I-17.77636 J-21.85936
N489 G1 X125.7039
N490 G03 X124.68298 Y112.53436 I-38.19871 J-23.44353
N491 G1 X100.93957
N492 G02 X100.675 Y113.48076 I1.56043 J0.9464
N493 G1 Y114.12186
N494 X123.5634
N495 G03 X122.33564 Y115.70936 I-36.05821 J-26.61853
N496 G1 X100.675
N497 Y117.29686
N498 X120.98781
N499 G03 X119.50474 Y118.88436 I-33.48262 J-29.79353
N500 G1 X100.675
N501 Y120.47186
N502 X117.86662
N503 G03 X116.04676 Y122.05936 I-30.36143 J-32.96853
N504 G1 X100.675
N505 Y123.64686
N506 X114.00775
N507 G03 X111.69424 Y125.23436 I-26.50256 J-36.14353
N508 G1 X100.675
N509 Y126.82186
N510 X109.01783
N511 G03 X105.82014 Y128.40936 I-21.51264 J-39.31853
N512 G1 X100.78013
N513 X101.79299 Y128.09451 Z-12.43934 F5000.
N514 Z-11.83934
N515 G0 Z3.175
N516 X100.675 Y127.79888
N517 G1 Z-13.5 F1140.2
N518 Y113.48076 F4561.
N519 G03 X101.5875 Y111.90027 I1.825 J0.
N520 G02 X111.90027 Y101.5875 I-14.0875 J-24.40027
N521 G03 X113.48076 Y100.675 I1.58049 J0.9125
N522 G1 X127.79888
N523 G03 X129.50924 Y103.13663 I0. J1.825
N524 G1 X129.50921 Y103.13671
N525 G03 X103.07566 Y129.53071 I-42.00402 J-15.63338
N526 X100.82038 Y128.51267 I-0.57566 J-1.73182
N527 X100.675 Y127.79888 I1.67964 J-0.7138
N528 G1 X101.73566 Z-12.43934 F5000.
N529 Z-11.83934
N530 G0 Z3.175
N531 X49.13003 Y101.42372
N532 G1 Z-6.63333 F1140.2
N533 Z-7.23333 F3420.7
N534 X45.72726 Z-7.83333
N535 X62.99309 F4561.
N536 G03 X63.09973 Y101.5875 I-1.47385 J1.07628
N537 G02 X63.9791 Y103.01122 I24.40027 J-14.0875
N538 G1 X45.44918
N539 G02 X45.46929 Y103.07566 I1.75193 J-0.51122
N540 X46.06538 Y104.59872 I42.02738 J-15.57047
N541 G1 X65.1066
N542 G02 X66.41314 Y106.18622 I22.3934 J-17.09872
N543 G1 X46.75652
N544 G02 X47.52259 Y107.77372 I40.74015 J-18.68103
N545 G1 X67.93455
N546 G02 X69.72592 Y109.36122 I19.56545 J-20.27372
N547 G1 X48.36798
N548 G02 X49.29796 Y110.94872 I39.12869 J-21.85603
N549 G1 X71.87988
N550 G02 X73.4125 Y111.90027 I15.62012 J-23.44872
N551 G03 X74.06156 Y112.53622 I-0.9125 J1.58049
N552 G1 X50.31888
N553 G02 X51.43846 Y114.12372 I37.17779 J-25.03103
N554 G1 X74.325
N555 Y115.71122
N556 X52.66621
N557 G02 X54.01404 Y117.29872 I34.83046 J-28.20603
N558 G1 X74.325
N559 Y118.88622
N560 X55.49711
N561 G02 X57.13523 Y120.47372 I31.99956 J-31.38103
N562 G1 X74.325
N563 Y122.06122
N564 X58.95509
N565 G02 X60.9941 Y123.64872 I28.54158 J-34.55603
N566 G1 X74.325
N567 Y125.23622
N568 X63.30762
N569 G02 X65.98402 Y126.82372 I24.18905 J-37.73103
N570 G1 X74.325
N571 Y127.79888
N572 G03 X74.21921 Y128.41122 I-1.825 J0.
N573 G1 X69.18172
N574 G0 Z3.175
N575 X45.45438 Y103.02843
N576 G1 Z-6.63333 F1140.2
N577 Z-7.23333 F3420.7
N578 X45.44541 Y102.9981 Z-7.23891
N579 X45.43476 Y102.95894 Z-7.24607
N580 X45.425 Y102.91955 Z-7.25322
N581 X45.41611 Y102.87995 Z-7.26038
N582 X45.4081 Y102.84017 Z-7.26753
N583 X45.40098 Y102.80022 Z-7.27469
N584 X45.39475 Y102.76012 Z-7.28184
N585 X45.38941 Y102.71989 Z-7.289
N586 X45.38497 Y102.67955 Z-7.29616
N587 X45.38143 Y102.63913 Z-7.30331
N588 X45.37878 Y102.59863 Z-7.31047
N589 X45.37704 Y102.55809 Z-7.31762
N590 X45.3762 Y102.51751 Z-7.32478
N591 X45.37626 Y102.47693 Z-7.33193
N592 X45.37723 Y102.43636 Z-7.33909
N593 X45.37909 Y102.39583 Z-7.34624
N594 X45.38186 Y102.35534 Z-7.3534
N595 X45.38552 Y102.31492 Z-7.36056
N596 X45.39009 Y102.2746 Z-7.36771
N597 X45.39555 Y102.23439 Z-7.37487
N598 X45.4019 Y102.19431 Z-7.38202
N599 X45.40914 Y102.15438 Z-7.38918
N600 X45.41727 Y102.11462 Z-7.39633
N601 X45.42628 Y102.07505 Z-7.40349
N602 X45.43617 Y102.03569 Z-7.41065
N603 X45.44693 Y101.99656 Z-7.4178
N604 X45.45856 Y101.95768 Z-7.42496
N605 X45.47104 Y101.91907 Z-7.43211
N606 X45.48439 Y101.88075 Z-7.43927
N607 X45.49858 Y101.84273 Z-7.44642
N608 X45.51362 Y101.80503 Z-7.45358
N609 X45.52949 Y101.76769 Z-7.46073
N610 X45.54618 Y101.7307 Z-7.46789
N611 X45.5637 Y101.69409 Z-7.47505
N612 X45.58202 Y101.65788 Z-7.4822
N613 X45.60115 Y101.62209 Z-7.48936
N614 X45.62106 Y101.58673 Z-7.49651
N615 X45.64176 Y101.55183 Z-7.50367
N616 X45.66323 Y101.51739 Z-7.51082
N617 X45.68546 Y101.48344 Z-7.51798
N618 X45.70844 Y101.44999 Z-7.52513
N619 X45.73215 Y101.41706 Z-7.53229
N620 X45.75659 Y101.38466 Z-7.53945
N621 X45.78175 Y101.35282 Z-7.5466
N622 X45.80761 Y101.32154 Z-7.55376
N623 X45.83416 Y101.29085 Z-7.56091
N624 X45.86138 Y101.26075 Z-7.56807
N625 X45.88927 Y101.23127 Z-7.57522
N626 X45.9178 Y101.20242 Z-7.58238
N627 X45.94697 Y101.1742 Z-7.58953
N628 X45.97676 Y101.14664 Z-7.59669
N629 X46.00715 Y101.11976 Z-7.60385
N630 X46.03814 Y101.09355 Z-7.611
N631 X46.0697 Y101.06804 Z-7.61816
N632 X46.10182 Y101.04324 Z-7.62531
N633 X46.13448 Y101.01915 Z-7.63247
N634 X46.16767 Y100.9958 Z-7.63962
N635 X46.20137 Y100.9732 Z-7.64678
N636 X46.23557 Y100.95134 Z-7.65393
N637 X46.27024 Y100.93026 Z-7.66109
N638 X46.30537 Y100.90995 Z-7.66825
N639 X46.34095 Y100.89042 Z-7.6754
N640 X46.37695 Y100.8717 Z-7.68256
N641 X46.41336 Y100.85377 Z-7.68971
N642 X46.45016 Y100.83667 Z-7.69687
N643 X46.48733 Y100.82038 Z-7.70402
N644 X46.525 Y100.80486 Z-7.71121
N645 X46.56301 Y100.79019 Z-7.71839
N646 X46.60134 Y100.77637 Z-7.72558
N647 X46.63996 Y100.76342 Z-7.73276
N648 X46.67887 Y100.75132 Z-7.73994
N649 X46.71803 Y100.7401 Z-7.74713
N650 X46.75744 Y100.72975 Z-7.75431
N651 X46.79707 Y100.72029 Z-7.76149
N652 X46.8369 Y100.71171 Z-7.76868
N653 X46.87691 Y100.70403 Z-7.77586
N654 X46.91708 Y100.69724 Z-7.78305
N655 X46.95739 Y100.69135 Z-7.79023
N656 X46.99783 Y100.68636 Z-7.79741
N657 X47.03836 Y100.68227 Z-7.8046
N658 X47.07898 Y100.67909 Z-7.81178
N659 X47.11966 Y100.67682 Z-7.81897
N660 X47.16038 Y100.67545 Z-7.82615
N661 X47.20112 Y100.675 Z-7.83333
N662 X61.51924 F4561.
N663 G03 X63.09973 Y101.5875 I0. J1.825
N664 G02 X73.4125 Y111.90027 I24.40027 J-14.0875
N665 G03 X74.325 Y113.48076 I-0.9125 J1.58049
N666 G1 Y127.79888
N667 G03 X71.86337 Y129.50924 I-1.825 J0.
N668 G1 X71.86329 Y129.50921
N669 G03 X45.46929 Y103.07566 I15.63338 J-42.00402
N670 X46.48733 Y100.82038 I1.73182 J-0.57566
N671 X47.20112 Y100.675 I0.71379 J1.67964
N672 G0 Z3.175
N673 X45.72726 Y101.42372
N674 G1 Z-10.66667 F1140.2
N675 X62.99309 F4561.
N676 G03 X63.09973 Y101.5875 I-1.47385 J1.07628
N677 G02 X63.9791 Y103.01122 I24.40027 J-14.0875
N678 G1 X45.44918
N679 G02 X45.46929 Y103.07566 I1.75193 J-0.51122
N680 X46.06538 Y104.59872 I42.02738 J-15.57047
N681 G1 X65.1066
N682 G02 X66.41314 Y106.18622 I22.3934 J-17.09872
N683 G1 X46.75652
N684 G02 X47.52259 Y107.77372 I40.74015 J-18.68103
N685 G1 X67.93455
N686 G02 X69.72592 Y109.36122 I19.56545 J-20.27372
N687 G1 X48.36798
N688 G02 X49.29796 Y110.94872 I39.12869 J-21.85603
N689 G1 X71.87988
N690 G02 X73.4125 Y111.90027 I15.62012 J-23.44872
N691 G03 X74.06156 Y112.53622 I-0.9125 J1.58049
N692 G1 X50.31888
N693 G02 X51.43846 Y114.12372 I37.17779 J-25.03103
N694 G1 X74.325
N695 Y115.71122
N696 X52.66621
N697 G02 X54.01404 Y117.29872 I34.83046 J-28.20603
N698 G1 X74.325
N699 Y118.88622
N700 X55.49711
N701 G02 X57.13523 Y120.47372 I31.99956 J-31.38103
N702 G1 X74.325
N703 Y122.06122
N704 X58.95509
N705 G02 X60.9941 Y123.64872 I28.54158 J-34.55603
N706 G1 X74.325
N707 Y125.23622
N708 X63.30762
N709 G02 X65.98402 Y126.82372 I24.18905 J-37.73103
N710 G1 X74.325
N711 Y127.79888
N712 G03 X74.21921 Y128.41122 I-1.825 J0.
N713 G1 X69.18172
N714 G0 Z3.175
N715 X47.20112 Y100.675
N716 G1 Z-10.66667 F1140.2
N717 X61.51924 F4561.
N718 G03 X63.09973 Y101.5875 I0. J1.825
N719 G02 X73.4125 Y111.90027 I24.40027 J-14.0875
N720 G03 X74.325 Y113.48076 I-0.9125 J1.58049
N721 G1 Y127.79888
N722 G03 X71.86337 Y129.50924 I-1.825 J0.
N723 G1 X71.86329 Y129.50921
N724 G03 X45.46929 Y103.07566 I15.63338 J-42.00402
N725 X46.48733 Y100.82038 I1.73182 J-0.57566
N726 X47.20112 Y100.675 I0.71379 J1.67964
N727 G0 Z3.175
N728 X45.72726 Y101.42372
N729 G1 Z-13.5 F1140.2
N730 X62.99309 F4561.
N731 G03 X63.09973 Y101.5875 I-1.47385 J1.07628
N732 G02 X63.9791 Y103.01122 I24.40027 J-14.0875
N733 G1 X45.44918
N734 G02 X45.46929 Y103.07566 I1.75193 J-0.51122
N735 X46.06538 Y104.59872 I42.02738 J-15.57047
N736 G1 X65.1066
N737 G02 X66.41314 Y106.18622 I22.3934 J-17.09872
N738 G1 X46.75652
N739 G02 X47.52259 Y107.77372 I40.74015 J-18.68103
N740 G1 X67.93455
N741 G02 X69.72592 Y109.36122 I19.56545 J-20.27372
N742 G1 X48.36798
N743 G02 X49.29796 Y110.94872 I39.12869 J-21.85603
N744 G1 X71.87988
N745 G02 X73.4125 Y111.90027 I15.62012 J-23.44872
N746 G03 X74.06156 Y112.53622 I-0.9125 J1.58049
N747 G1 X50.31888
N748 G02 X51.43846 Y114.12372 I37.17779 J-25.03103
N749 G1 X74.325
N750 Y115.71122
N751 X52.66621
N752 G02 X54.01404 Y117.29872 I34.83046 J-28.20603
N753 G1 X74.325
N754 Y118.88622
N755 X55.49711
N756 G02 X57.13523 Y120.47372 I31.99956 J-31.38103
N757 G1 X74.325
N758 Y122.06122
N759 X58.95509
N760 G02 X60.9941 Y123.64872 I28.54158 J-34.55603
N761 G1 X74.325
N762 Y125.23622
N763 X63.30762
N764 G02 X65.98402 Y126.82372 I24.18905 J-37.73103
N765 G1 X74.325
N766 Y127.79888
N767 G03 X74.21921 Y128.41122 I-1.825 J0.
N768 G1 X69.18172
N769 X69.75518 Y127.51895 Z-12.43934 F5000.
N770 Z-11.83934
N771 G0 Z3.175
N772 X47.20112 Y100.675
N773 G1 Z-13.5 F1140.2
N774 X61.51924 F4561.
N775 G03 X63.09973 Y101.5875 I0. J1.825
N776 G02 X73.4125 Y111.90027 I24.40027 J-14.0875
N777 G03 X74.325 Y113.48076 I-0.9125 J1.58049
N778 G1 Y127.79888
N779 G03 X71.86337 Y129.50924 I-1.825 J0.
N780 G1 X71.86329 Y129.50921
N781 G03 X45.46929 Y103.07566 I15.63338 J-42.00402
N782 X46.48733 Y100.82038 I1.73182 J-0.57566
N783 X47.20112 Y100.675 I0.71379 J1.67964
N784 G1 Y101.73566 Z-12.43934 F5000.
N785 Z-11.83934
N786 G0 Z3.175
N787 X103.46894 Y45.85084
N788 G1 Z-6.63333 F1140.2
N789 Z-7.23333 F3420.7
N790 X104.07198 Z-7.33967
N791 X101.27225 Z-7.83333
N792 X104.07198 F4561.
N793 G03 X107.60854 Y47.43834 I-16.56865 J41.64397
N794 G1 X100.675
N795 Y49.02584
N796 X110.50069
N797 G03 X112.96895 Y50.61334 I-22.99736 J38.46897
N798 G1 X100.675
N799 Y52.20084
N800 X115.12716
N801 G03 X117.04338 Y53.78834 I-27.62383 J35.29397
N802 G1 X100.675
N803 Y55.37584
N804 X118.76212
N805 G03 X120.31445 Y56.96334 I-31.25879 J32.11897
N806 G1 X100.675
N807 Y58.55084
N808 X121.72302
N809 G03 X123.00494 Y60.13834 I-34.21969 J28.94397
N810 G1 X100.675
N811 Y61.51924
N812 G02 X100.68673 Y61.72584 I1.825 J0.
N813 G1 X124.17349
N814 G03 X125.23921 Y63.31334 I-36.67016 J25.76897
N815 G1 X101.95116
N816 G03 X104.32583 Y64.90084 I-14.45116 J24.18666
N817 G1 X126.2106
N818 G03 X127.0946 Y66.48834 I-38.70727 J22.59397
N819 G1 X106.27074
N820 G03 X107.90913 Y68.07584 I-18.77074 J21.01166
N821 G1 X127.89695
N822 G03 X128.62242 Y69.66334 I-40.39362 J19.41897
N823 G1 X109.31018
N824 G03 X110.51728 Y71.25084 I-21.81018 J17.83666
N825 G1 X129.27502
N826 G03 X129.53071 Y71.92433 I-41.77169 J16.24397
N827 X129.59225 Y72.83834 I-1.73183 J0.57567
N828 G1 X111.55964
N829 G0 Z3.175
N830 X128.22833 Y68.78155
N831 G1 Z-6.63333 F1140.2
N832 Z-7.23333 F3420.7
N833 X128.34853 Y69.04461 Z-7.28433
N834 X128.50721 Y69.39999 Z-7.35296
N835 X128.66279 Y69.75673 Z-7.42158
N836 X128.81527 Y70.11481 Z-7.49021
N837 X128.96463 Y70.4742 Z-7.55883
N838 X129.11087 Y70.83488 Z-7.62746
N839 X129.25397 Y71.19681 Z-7.69608
N840 X129.39392 Y71.55997 Z-7.76471
N841 X129.53071 Y71.92433 Z-7.83333
N842 G03 X127.79888 Y74.325 I-1.73183 J0.57567 F4561.
N843 G1 X113.48076
N844 G03 X111.90027 Y73.4125 I0. J-1.825
N845 G02 X101.5875 Y63.09973 I-24.40027 J14.0875
N846 G03 X100.675 Y61.51924 I0.9125 J-1.58049
N847 G1 Y47.20112
N848 G03 X101.06445 Y46.07425 I1.82501 J0.
N849 X103.13663 Y45.49076 I1.43555 J1.12687
N850 G1 X103.13671 Y45.49079
N851 G03 X129.53071 Y71.92433 I-15.63338 J42.00402
N852 G0 Z3.175
N853 X101.27225 Y45.85084
N854 G1 Z-10.66667 F1140.2
N855 X104.07198 F4561.
N856 G03 X107.60854 Y47.43834 I-16.56865 J41.64397
N857 G1 X100.675
N858 Y49.02584
N859 X110.50069
N860 G03 X112.96895 Y50.61334 I-22.99736 J38.46897
N861 G1 X100.675
N862 Y52.20084
N863 X115.12716
N864 G03 X117.04338 Y53.78834 I-27.62383 J35.29397
N865 G1 X100.675
N866 Y55.37584
N867 X118.76212
N868 G03 X120.31445 Y56.96334 I-31.25879 J32.11897
N869 G1 X100.675
N870 Y58.55084
N871 X121.72302
N872 G03 X123.00494 Y60.13834 I-34.21969 J28.94397
N873 G1 X100.675
N874 Y61.51924
N875 G02 X100.68673 Y61.72584 I1.825 J0.
N876 G1 X124.17349
N877 G03 X125.23921 Y63.31334 I-36.67016 J25.76897
N878 G1 X101.95116
N879 G03 X104.32583 Y64.90084 I-14.45116 J24.18666
N880 G1 X126.2106
N881 G03 X127.0946 Y66.48834 I-38.70727 J22.59397
N882 G1 X106.27074
N883 G03 X107.90913 Y68.07584 I-18.77074 J21.01166
N884 G1 X127.89695
N885 G03 X128.62242 Y69.66334 I-40.39362 J19.41897
N886 G1 X109.31018
N887 G03 X110.51728 Y71.25084 I-21.81018 J17.83666
N888 G1 X129.27502
N889 G03 X129.53071 Y71.92433 I-41.77169 J16.24397
N890 X129.59225 Y72.83834 I-1.73183 J0.57567
N891 G1 X111.55964
N892 G0 Z3.175
N893 X129.53071 Y71.92433
N894 G1 Z-10.66667 F1140.2
N895 G03 X127.79888 Y74.325 I-1.73183 J0.57567 F4561.
N896 G1 X113.48076
N897 G03 X111.90027 Y73.4125 I0. J-1.825
N898 G02 X101.5875 Y63.09973 I-24.40027 J14.0875
N899 G03 X100.675 Y61.51924 I0.9125 J-1.58049
N900 G1 Y47.20112
N901 G03 X101.06445 Y46.07425 I1.82501 J0.
N902 X103.13663 Y45.49076 I1.43555 J1.12687
N903 G1 X103.13671 Y45.49079
N904 G03 X129.53071 Y71.92433 I-15.63338 J42.00402
N905 G0 Z3.175
N906 X101.27225 Y45.85084
N907 G1 Z-13.5 F1140.2
N908 X104.07198 F4561.
N909 G03 X107.60854 Y47.43834 I-16.56865 J41.64397
N910 G1 X100.675
N911 Y49.02584
N912 X110.50069
N913 G03 X112.96895 Y50.61334 I-22.99736 J38.46897
N914 G1 X100.675
N915 Y52.20084
N916 X115.12716
N917 G03 X117.04338 Y53.78834 I-27.62383 J35.29397
N918 G1 X100.675
N919 Y55.37584
N920 X118.76212
N921 G03 X120.31445 Y56.96334 I-31.25879 J32.11897
N922 G1 X100.675
N923 Y58.55084
N924 X121.72302
N925 G03 X123.00494 Y60.13834 I-34.21969 J28.94397
N926 G1 X100.675
N927 Y61.51924
N928 G02 X100.68673 Y61.72584 I1.825 J0.
N929 G1 X124.17349
N930 G03 X125.23921 Y63.31334 I-36.67016 J25.76897
N931 G1 X101.95116
N932 G03 X104.32583 Y64.90084 I-14.45116 J24.18666
N933 G1 X126.2106
N934 G03 X127.0946 Y66.48834 I-38.70727 J22.59397
N935 G1 X106.27074
N936 G03 X107.90913 Y68.07584 I-18.77074 J21.01166
N937 G1 X127.89695
N938 G03 X128.62242 Y69.66334 I-40.39362 J19.41897
N939 G1 X109.31018
N940 G03 X110.51728 Y71.25084 I-21.81018 J17.83666
N941 G1 X129.27502
N942 G03 X129.53071 Y71.92433 I-41.77169 J16.24397
N943 X129.59225 Y72.83834 I-1.73183 J0.57567
N944 G1 X111.55964
N945 X112.40112 Y72.19265 Z-12.43934 F5000.
N946 Z-11.83934
N947 G0 Z3.175
N948 X129.53071 Y71.92433
N949 G1 Z-13.5 F1140.2
N950 G03 X127.79888 Y74.325 I-1.73183 J0.57567 F4561.
N951 G1 X113.48076
N952 G03 X111.90027 Y73.4125 I0. J-1.825
N953 G02 X101.5875 Y63.09973 I-24.40027 J14.0875
N954 G03 X100.675 Y61.51924 I0.9125 J-1.58049
N955 G1 Y47.20112
N956 G03 X101.06445 Y46.07425 I1.82501 J0.
N957 X103.13663 Y45.49076 I1.43555 J1.12687
N958 G1 X103.13671 Y45.49079
N959 G03 X129.53071 Y71.92433 I-15.63338 J42.00402
N960 G1 X128.48228 Y71.76372 Z-12.43934 F5000.
N961 Z-11.83934
N962 G0 Z3.175
N963 X73.13065 Y45.8527
N964 G1 Z-6.63333 F1140.2
N965 Z-7.23333 F3420.7
N966 X73.72979 Z-7.33898
N967 X70.92616 Z-7.83333
N968 X73.72979 F4561.
N969 G03 X74.325 Y47.20112 I-1.22979 J1.34842
N970 G1 Y47.4402
N971 X67.3896
N972 G02 X64.49745 Y49.0277 I20.10521 J40.05647
N973 G1 X74.325
N974 Y50.6152
N975 X62.0292
N976 G02 X59.87098 Y52.2027 I25.46561 J36.88147
N977 G1 X74.325
N978 Y53.7902
N979 X57.95477
N980 G02 X56.23602 Y55.3777 I29.54004 J33.70647
N981 G1 X74.325
N982 Y56.9652
N983 X54.68369
N984 G02 X53.27512 Y58.55269 I32.81112 J30.53147
N985 G1 X74.325
N986 Y60.14019
N987 X51.99321
N988 G02 X50.82465 Y61.72769 I35.5016 J27.35648
N989 G1 X74.31306
N990 G03 X73.4125 Y63.09973 I-1.81306 J-0.20845
N991 G02 X73.04573 Y63.3152 I14.0875 J24.40027
N992 G1 X49.75893
N993 G02 X48.78754 Y64.90269 I37.73588 J24.18147
N994 G1 X70.67168
N995 G02 X68.72718 Y66.49019 I16.82832 J22.59731
N996 G1 X47.90354
N997 G02 X47.1012 Y68.0777 I39.59127 J21.00648
N998 G1 X67.0891
N999 G02 X65.6883 Y69.66519 I20.4109 J19.4223
N1000 G1 X46.37573
N1001 G02 X45.72312 Y71.2527 I41.11908 J17.83148
N1002 G1 X64.4814
N1003 G02 X63.43923 Y72.84019 I23.0186 J16.2473
N1004 G1 X45.4081
N1005 G0 Z3.175
N1006 X68.78155 Y46.77167
N1007 G1 Z-6.63333 F1140.2
N1008 Z-7.23333 F3420.7
N1009 X69.04461 Y46.65147 Z-7.28433
N1010 X69.39999 Y46.49279 Z-7.35296
N1011 X69.75673 Y46.33721 Z-7.42158
N1012 X70.11481 Y46.18473 Z-7.49021
N1013 X70.4742 Y46.03537 Z-7.55883
N1014 X70.83488 Y45.88913 Z-7.62746
N1015 X71.19681 Y45.74603 Z-7.69608
N1016 X71.55997 Y45.60608 Z-7.76471
N1017 X71.92433 Y45.46929 Z-7.83333
N1018 G03 X74.325 Y47.20112 I0.57567 J1.73183 F4561.
N1019 G1 Y61.51924
N1020 G03 X73.4125 Y63.09973 I-1.825 J0.
N1021 G02 X63.09973 Y73.4125 I14.0875 J24.40027
N1022 G03 X61.51924 Y74.325 I-1.58049 J-0.9125
N1023 G1 X47.20112
N1024 G03 X45.49076 Y71.86337 I0. J-1.825
N1025 G1 X45.49079 Y71.86329
N1026 G03 X71.92433 Y45.46929 I42.00402 J15.63338
N1027 G0 Z3.175
N1028 X70.92616 Y45.8527
N1029 G1 Z-10.66667 F1140.2
N1030 X73.72979 F4561.
N1031 G03 X74.325 Y47.20112 I-1.22979 J1.34842
N1032 G1 Y47.4402
N1033 X67.3896
N1034 G02 X64.49745 Y49.0277 I20.10521 J40.05647
N1035 G1 X74.325
N1036 Y50.6152
N1037 X62.0292
N1038 G02 X59.87098 Y52.2027 I25.46561 J36.88147
N1039 G1 X74.325
N1040 Y53.7902
N1041 X57.95477
N1042 G02 X56.23602 Y55.3777 I29.54004 J33.70647
N1043 G1 X74.325
N1044 Y56.9652
N1045 X54.68369
N1046 G02 X53.27512 Y58.55269 I32.81112 J30.53147
N1047 G1 X74.325
N1048 Y60.14019
N1049 X51.99321
N1050 G02 X50.82465 Y61.72769 I35.5016 J27.35648
N1051 G1 X74.31306
N1052 G03 X73.4125 Y63.09973 I-1.81306 J-0.20845
N1053 G02 X73.04573 Y63.3152 I14.0875 J24.40027
N1054 G1 X49.75893
N1055 G02 X48.78754 Y64.90269 I37.73588 J24.18147
N1056 G1 X70.67168
N1057 G02 X68.72718 Y66.49019 I16.82832 J22.59731
N1058 G1 X47.90354
N1059 G02 X47.1012 Y68.0777 I39.59127 J21.00648
N1060 G1 X67.0891
N1061 G02 X65.6883 Y69.66519 I20.4109 J19.4223
N1062 G1 X46.37573
N1063 G02 X45.72312 Y71.2527 I41.11908 J17.83148
N1064 G1 X64.4814
N1065 G02 X63.43923 Y72.84019 I23.0186 J16.2473
N1066 G1 X45.4081
N1067 G0 Z3.175
N1068 X71.92433 Y45.46929
N1069 G1 Z-10.66667 F1140.2
N1070 G03 X74.325 Y47.20112 I0.57567 J1.73183 F4561.
N1071 G1 Y61.51924
N1072 G03 X73.4125 Y63.09973 I-1.825 J0.
N1073 G02 X63.09973 Y73.4125 I14.0875 J24.40027
N1074 G03 X61.51924 Y74.325 I-1.58049 J-0.9125
N1075 G1 X47.20112
N1076 G03 X45.49076 Y71.86337 I0. J-1.825
N1077 G1 X45.49079 Y71.86329
N1078 G03 X71.92433 Y45.46929 I42.00402 J15.63338
N1079 G0 Z3.175
N1080 X70.92616 Y45.8527
N1081 G1 Z-13.5 F1140.2
N1082 X73.72979 F4561.
N1083 G03 X74.325 Y47.20112 I-1.22979 J1.34842
N1084 G1 Y47.4402
N1085 X67.3896
N1086 G02 X64.49745 Y49.0277 I20.10521 J40.05647
N1087 G1 X74.325
N1088 Y50.6152
N1089 X62.0292
N1090 G02 X59.87098 Y52.2027 I25.46561 J36.88147
N1091 G1 X74.325
N1092 Y53.7902
N1093 X57.95477
N1094 G02 X56.23602 Y55.3777 I29.54004 J33.70647
N1095 G1 X74.325
N1096 Y56.9652
N1097 X54.68369
N1098 G02 X53.27512 Y58.55269 I32.81112 J30.53147
N1099 G1 X74.325
N1100 Y60.14019
N1101 X51.99321
N1102 G02 X50.82465 Y61.72769 I35.5016 J27.35648
N1103 G1 X74.31306
N1104 G03 X73.4125 Y63.09973 I-1.81306 J-0.20845
N1105 G02 X73.04573 Y63.3152 I14.0875 J24.40027
N1106 G1 X49.75893
N1107 G02 X48.78754 Y64.90269 I37.73588 J24.18147
N1108 G1 X70.67168
N1109 G02 X68.72718 Y66.49019 I16.82832 J22.59731
N1110 G1 X47.90354
N1111 G02 X47.1012 Y68.0777 I39.59127 J21.00648
N1112 G1 X67.0891
N1113 G02 X65.6883 Y69.66519 I20.4109 J19.4223
N1114 G1 X46.37573
N1115 G02 X45.72312 Y71.2527 I41.11908 J17.83148
N1116 G1 X64.4814
N1117 G02 X63.43923 Y72.84019 I23.0186 J16.2473
N1118 G1 X45.4081
N1119 X45.89957 Y71.90027 Z-12.43934 F5000.
N1120 Z-11.83934
N1121 G0 Z3.175
N1122 X71.92433 Y45.46929
N1123 G1 Z-13.5 F1140.2
N1124 G03 X74.325 Y47.20112 I0.57567 J1.73183 F4561.
N1125 G1 Y61.51924
N1126 G03 X73.4125 Y63.09973 I-1.825 J0.
N1127 G02 X63.09973 Y73.4125 I14.0875 J24.40027
N1128 G03 X61.51924 Y74.325 I-1.58049 J-0.9125
N1129 G1 X47.20112
N1130 G03 X45.49076 Y71.86337 I0. J-1.825
N1131 G1 X45.49079 Y71.86329
N1132 G03 X71.92433 Y45.46929 I42.00402 J15.63338
N1133 G1 X71.76372 Y46.51772 Z-12.43934 F5000.
N1134 Z-11.83934
N1135 G0 Z3.175
(2 1/2 Axis Pocketing)
(1/4in 6.35mm 2 Flute Carbide Router)
N1136 S19198 M3
N1137 X87.76704 Y86.29771
N1138 G1 Z-6.3 F1247.7
N1139 Z-6.9 F3743.2
N1140 X87.59141 Y86.29314 Z-6.93098
N1141 X87.2487 Y86.39379 Z-6.99396
N1142 X86.97186 Y86.58274 Z-7.05306
N1143 X86.78063 Y86.83085 Z-7.1083
N1144 X86.68372 Y87.10569 Z-7.15968
N1145 X86.67876 Y87.37535 Z-7.20724
N1146 X86.75351 Y87.61195 Z-7.25099
N1147 X86.88804 Y87.79448 Z-7.29097
N1148 X87.0577 Y87.91063 Z-7.32723
N1149 X87.23644 Y87.95756 Z-7.35981
N1150 X87.40009 Y87.94149 Z-7.38881
N1151 X87.52927 Y87.87621 Z-7.41433
N1152 X87.6115 Y87.78076 Z-7.43654
N1153 X87.64242 Y87.6766 Z-7.4557
N1154 X87.62594 Y87.58445 Z-7.4722
N1155 X87.57326 Y87.52157 Z-7.48667
N1156 X87.50102 Y87.49929 Z-7.5
N1157 X87.60505 Y87.813 F4991.
N1158 X87.36276 Y88.0378
N1159 X87.0577 Y87.91063
N1160 G03 X87.97053 Y86.303 I0.55561 J-0.74749
N1161 X88.42706 Y89.10324 I-0.37715 J1.49882
N1162 X85.54176 Y85.85527 I-1.1817 J-1.8558
N1163 X90.42047 Y89.03153 I2.26155 J1.86123
N1164 X83.58831 Y86.53489 I-3.27164 J-1.64357
N1165 X92.26352 Y87.49929 I4.28098 J0.99164
N1166 X82.27288 Y89.13963 I-5.11857 J0.06949
N1167 X92.58678 Y83.9595 I5.54791 J-1.81164
N1168 X83.05084 Y92.80281 I-5.33668 J3.8084
N1169 X90.11023 Y80.33054 I4.62029 J-5.61885
N1170 X87.50102 Y95.83366 I-2.65991 J7.52346
N1171 X84.70481 Y78.89341 I-0.06515 J-8.69015
N1172 X90.27601 Y96.95002 I2.9026 J8.99221
N1173 X81.78574 Y78.60614 I-2.93315 J-9.77918
N1174 X97.92479 Y91.56742 I5.97659 J9.08671
N1175 X97.16656 Y93.13682 I-10.42415 J-4.06841
N1176 G1 X97.16625 Y93.13734
N1177 G03 X95.836 Y94.96471 I-9.64653 J-5.62444
N1178 X97.92479 Y91.56742 I-8.33536 J-7.4657
N1179 G1 X97.26287 Y92.3962 Z-6.43934 F5000.
N1180 Z-5.83934
N1181 G0 Z3.175
(2 1/2 Axis Profiling)
(1/4in 6.35mm 2 Flute Carbide Router)
N1182 S20602 M3
N1183 X91.08785 Y82.18389
N1184 G1 Z-7.5 F1339.
N1185 X95.81727 Y86.42123 F4017.
N1186 G03 X96.30934 Y95.38799 I-4.23735 J4.72942
N1187 X96.30901 Y95.38837 I-8.78963 J-7.8751 F5000.
N1188 X97.71507 Y93.45675 I-8.80837 J-7.88936
N1189 G1 X97.71482 Y93.45719
N1190 G03 X96.30934 Y95.38799 I-10.1951 J-5.94429
N1191 X87.34258 Y95.88007 I-4.72942 J-4.23734 F5000.
N1192 G1 X82.61316 Y91.64273
N1193 G0 Z3.175
(2 1/2 Axis Pocketing)
(1/4in 6.35mm 2 Flute Carbide Router)
N1194 S17544 M3
N1195 X87.76541 Y86.2999
N1196 G1 Z-9.3 F1140.2
N1197 Z-9.9 F3420.7
N1198 X87.58978 Y86.29533 Z-9.93098
N1199 X87.24707 Y86.39597 Z-9.99396
N1200 X86.97022 Y86.58493 Z-10.05306
N1201 X86.77899 Y86.83304 Z-10.1083
N1202 X86.68208 Y87.10788 Z-10.15968
N1203 X86.67713 Y87.37754 Z-10.20724
N1204 X86.75188 Y87.61414 Z-10.25099
N1205 X86.88641 Y87.79667 Z-10.29097
N1206 X87.05607 Y87.91281 Z-10.32723
N1207 X87.23481 Y87.95974 Z-10.35981
N1208 X87.39846 Y87.94367 Z-10.38881
N1209 X87.52764 Y87.87839 Z-10.41433
N1210 X87.60986 Y87.78295 Z-10.43654
N1211 X87.64079 Y87.67878 Z-10.4557
N1212 X87.62431 Y87.58664 Z-10.47221
N1213 X87.57163 Y87.52375 Z-10.48667
N1214 X87.49939 Y87.50147 Z-10.5
N1215 X87.60341 Y87.81518 F4561.
N1216 X87.36113 Y88.03999
N1217 X87.05607 Y87.91281
N1218 G03 X87.9689 Y86.30519 I0.55561 J-0.74749
N1219 X88.42543 Y89.10542 I-0.37716 J1.49882
N1220 X85.54013 Y85.85745 I-1.1817 J-1.85579
N1221 X90.41884 Y89.03372 I2.26155 J1.86124
N1222 X83.58668 Y86.53708 I-3.27164 J-1.64357
N1223 X85.01026 Y84.13007 I3.94866 J0.71087
N1224 X90.76759 Y90.122 I2.48858 J3.37078
N1225 X89.70301 Y91.0641 I-3.25694 J-2.6078
N1226 G1 X89.70178 Y91.06486
N1227 G03 X85.01026 Y84.13007 I-2.20294 J-3.56401
N1228 G1 X85.86692 Y83.50466 Z-9.43934 F5000.
N1229 Z-8.83934
N1230 G0 Z3.175
N1231 X87.76541 Y86.2999
N1232 G1 Z-12.3 F1140.2
N1233 Z-12.9 F3420.7
N1234 X87.58978 Y86.29533 Z-12.93098
N1235 X87.24707 Y86.39597 Z-12.99396
N1236 X86.97022 Y86.58493 Z-13.05306
N1237 X86.77899 Y86.83304 Z-13.1083
N1238 X86.68208 Y87.10788 Z-13.15968
N1239 X86.67713 Y87.37754 Z-13.20724
N1240 X86.75188 Y87.61414 Z-13.25099
N1241 X86.88641 Y87.79667 Z-13.29097
N1242 X87.05607 Y87.91281 Z-13.32723
N1243 X87.23481 Y87.95974 Z-13.35981
N1244 X87.39846 Y87.94367 Z-13.38881
N1245 X87.52764 Y87.87839 Z-13.41433
N1246 X87.60986 Y87.78295 Z-13.43654
N1247 X87.64079 Y87.67878 Z-13.4557
N1248 X87.62431 Y87.58664 Z-13.47221
N1249 X87.57163 Y87.52375 Z-13.48667
N1250 X87.49939 Y87.50147 Z-13.5
N1251 X87.60341 Y87.81518 F4561.
N1252 X87.36113 Y88.03999
N1253 X87.05607 Y87.91281
N1254 G03 X87.9689 Y86.30519 I0.55561 J-0.74749
N1255 X88.42543 Y89.10542 I-0.37716 J1.49882
N1256 X85.54013 Y85.85745 I-1.1817 J-1.85579
N1257 X90.41884 Y89.03372 I2.26155 J1.86124
N1258 X83.58668 Y86.53708 I-3.27164 J-1.64357
N1259 X85.01026 Y84.13007 I3.94866 J0.71087
N1260 X90.76759 Y90.122 I2.48858 J3.37078
N1261 X89.70301 Y91.0641 I-3.25694 J-2.6078
N1262 G1 X89.70178 Y91.06486
N1263 G03 X85.01026 Y84.13007 I-2.20294 J-3.56401
N1264 G1 X85.86692 Y83.50466 Z-12.43934 F5000.
N1265 Z-11.83934
N1266 G0 Z3.175
(2 1/2 Axis Profiling)
(1/4in 6.35mm 2 Flute Carbide Router)
N1267 S17243 M3
N1268 X89.74405 Y85.45746
N1269 G1 Z-13.5 F1207.
N1270 X90.7977 Y86.30144 F3621.
N1271 G03 X91.26365 Y90.51842 I-1.87551 J2.34146
N1272 G1 X91.26328 Y90.51888 F4828.
N1273 G03 X90.03668 Y91.60437 I-3.75263 J-3.00468
N1274 G1 X90.03565 Y91.60501
N1275 G03 X91.26403 Y90.51794 I-2.53681 J-4.10416
N1276 G1 X91.26365 Y90.51842
N1277 G03 X87.04668 Y90.98436 I-2.34146 J-1.87552 F5000.
N1278 G1 X86.26619 Y90.35919
N1279 G0 Z3.175
(2 1/2 Axis Profiling)
(1/4in 6.35mm 2 Flute Carbide Router)
N1280 S20000 M3
N1281 X191.875 Y123.02
N1282 G1 Z-1.85714 F1250.
N1283 X185.525 F3750.
N1284 G03 X179.175 Y116.67 I0. J-6.35
N1285 G1 Y0. F5000.
N1286 G02 X175. Y-4.175 I-4.18067 J0.00567
N1287 G1 X0.
N1288 G02 X-4.175 Y0. I0.00567 J4.18067
N1289 G1 Y175.
N1290 G02 X0. Y179.175 I4.18067 J-0.00567
N1291 G1 X175.
N1292 G02 X179.175 Y175. I-0.00567 J-4.18067
N1293 G1 Y116.67
N1294 X179.05 Y116.45349
N1295 X178.8
N1296 X178.675 Y116.67
N1297 X178.55 Y116.8865
N1298 X178.3
N1299 X178.175 Y116.67
N1300 Y0.
N1301 G02 X175. Y-3.175 I-3.175 J0.
N1302 G1 X0.
N1303 G02 X-3.175 Y0. I0. J3.175
N1304 G1 Y175.
N1305 G02 X0. Y178.175 I3.175 J0.
N1306 G1 X175.
N1307 G02 X178.175 Y175. I0. J-3.175
N1308 G1 Y116.67
N1309 G03 X184.525 Y110.32 I6.35 J0. F5000.
N1310 G1 X190.875
N1311 G0 Z3.175
N1312 X191.875 Y123.02
N1313 G1 Z-3.71429 F1250.
N1314 X185.525 F3750.
N1315 G03 X179.175 Y116.67 I0. J-6.35
N1316 G1 Y0. F5000.
N1317 G02 X175. Y-4.175 I-4.18067 J0.00567
N1318 G1 X0.
N1319 G02 X-4.175 Y0. I0.00567 J4.18067
N1320 G1 Y175.
N1321 G02 X0. Y179.175 I4.18067 J-0.00567
N1322 G1 X175.
N1323 G02 X179.175 Y175. I-0.00567 J-4.18067
N1324 G1 Y116.67
N1325 X179.05 Y116.45349
N1326 X178.8
N1327 X178.675 Y116.67
N1328 X178.55 Y116.8865
N1329 X178.3
N1330 X178.175 Y116.67
N1331 Y0.
N1332 G02 X175. Y-3.175 I-3.175 J0.
N1333 G1 X0.
N1334 G02 X-3.175 Y0. I0. J3.175
N1335 G1 Y175.
N1336 G02 X0. Y178.175 I3.175 J0.
N1337 G1 X175.
N1338 G02 X178.175 Y175. I0. J-3.175
N1339 G1 Y116.67
N1340 G03 X184.525 Y110.32 I6.35 J0. F5000.
N1341 G1 X190.875
N1342 G0 Z3.175
N1343 X191.875 Y123.02
N1344 G1 Z-5.57143 F1250.
N1345 X185.525 F3750.
N1346 G03 X179.175 Y116.67 I0. J-6.35
N1347 G1 Y0. F5000.
N1348 G02 X175. Y-4.175 I-4.18067 J0.00567
N1349 G1 X0.
N1350 G02 X-4.175 Y0. I0.00567 J4.18067
N1351 G1 Y175.
N1352 G02 X0. Y179.175 I4.18067 J-0.00567
N1353 G1 X175.
N1354 G02 X179.175 Y175. I-0.00567 J-4.18067
N1355 G1 Y116.67
N1356 X179.05 Y116.45349
N1357 X178.8
N1358 X178.675 Y116.67
N1359 X178.55 Y116.8865
N1360 X178.3
N1361 X178.175 Y116.67
N1362 Y0.
N1363 G02 X175. Y-3.175 I-3.175 J0.
N1364 G1 X0.
N1365 G02 X-3.175 Y0. I0. J3.175
N1366 G1 Y175.
N1367 G02 X0. Y178.175 I3.175 J0.
N1368 G1 X175.
N1369 G02 X178.175 Y175. I0. J-3.175
N1370 G1 Y116.67
N1371 G03 X184.525 Y110.32 I6.35 J0. F5000.
N1372 G1 X190.875
N1373 G0 Z3.175
N1374 X191.875 Y123.02
N1375 G1 Z-7.42857 F1250.
N1376 X185.525 F3750.
N1377 G03 X179.175 Y116.67 I0. J-6.35
N1378 G1 Y0. F5000.
N1379 G02 X175. Y-4.175 I-4.18067 J0.00567
N1380 G1 X0.
N1381 G02 X-4.175 Y0. I0.00567 J4.18067
N1382 G1 Y175.
N1383 G02 X0. Y179.175 I4.18067 J-0.00567
N1384 G1 X175.
N1385 G02 X179.175 Y175. I-0.00567 J-4.18067
N1386 G1 Y116.67
N1387 X179.05 Y116.45349
N1388 X178.8
N1389 X178.675 Y116.67
N1390 X178.55 Y116.8865
N1391 X178.3
N1392 X178.175 Y116.67
N1393 Y0.
N1394 G02 X175. Y-3.175 I-3.175 J0.
N1395 G1 X0.
N1396 G02 X-3.175 Y0. I0. J3.175
N1397 G1 Y175.
N1398 G02 X0. Y178.175 I3.175 J0.
N1399 G1 X175.
N1400 G02 X178.175 Y175. I0. J-3.175
N1401 G1 Y116.67
N1402 G03 X184.525 Y110.32 I6.35 J0. F5000.
N1403 G1 X190.875
N1404 G0 Z3.175
N1405 X191.875 Y123.02
N1406 G1 Z-9.28571 F1250.
N1407 X185.525 F3750.
N1408 G03 X179.175 Y116.67 I0. J-6.35
N1409 G1 Y0. F5000.
N1410 G02 X175. Y-4.175 I-4.18067 J0.00567
N1411 G1 X0.
N1412 G02 X-4.175 Y0. I0.00567 J4.18067
N1413 G1 Y175.
N1414 G02 X0. Y179.175 I4.18067 J-0.00567
N1415 G1 X175.
N1416 G02 X179.175 Y175. I-0.00567 J-4.18067
N1417 G1 Y116.67
N1418 X179.05 Y116.45349
N1419 X178.8
N1420 X178.675 Y116.67
N1421 X178.55 Y116.8865
N1422 X178.3
N1423 X178.175 Y116.67
N1424 Y0.
N1425 G02 X175. Y-3.175 I-3.175 J0.
N1426 G1 X0.
N1427 G02 X-3.175 Y0. I0. J3.175
N1428 G1 Y175.
N1429 G02 X0. Y178.175 I3.175 J0.
N1430 G1 X175.
N1431 G02 X178.175 Y175. I0. J-3.175
N1432 G1 Y116.67
N1433 G03 X184.525 Y110.32 I6.35 J0. F5000.
N1434 G1 X190.875
N1435 G0 Z3.175
N1436 X191.875 Y123.02
N1437 G1 Z-11.14286 F1250.
N1438 X185.525 F3750.
N1439 G03 X179.175 Y116.67 I0. J-6.35
N1440 G1 Y0. F5000.
N1441 G02 X175. Y-4.175 I-4.18067 J0.00567
N1442 G1 X0.
N1443 G02 X-4.175 Y0. I0.00567 J4.18067
N1444 G1 Y175.
N1445 G02 X0. Y179.175 I4.18067 J-0.00567
N1446 G1 X175.
N1447 G02 X179.175 Y175. I-0.00567 J-4.18067
N1448 G1 Y116.67
N1449 X179.05 Y116.45349
N1450 X178.8
N1451 X178.675 Y116.67
N1452 X178.55 Y116.8865
N1453 X178.3
N1454 X178.175 Y116.67
N1455 Y0.
N1456 G02 X175. Y-3.175 I-3.175 J0.
N1457 G1 X0.
N1458 G02 X-3.175 Y0. I0. J3.175
N1459 G1 Y175.
N1460 G02 X0. Y178.175 I3.175 J0.
N1461 G1 X175.
N1462 G02 X178.175 Y175. I0. J-3.175
N1463 G1 Y116.67
N1464 G03 X184.525 Y110.32 I6.35 J0. F5000.
N1465 G1 X190.875
N1466 G0 Z3.175
N1467 X191.875 Y123.02
N1468 G1 Z-13. F1250.
N1469 X185.525 F3750.
N1470 G03 X179.175 Y116.67 I0. J-6.35
N1471 G1 Y0. F5000.
N1472 G02 X175. Y-4.175 I-4.18067 J0.00567
N1473 G1 X0.
N1474 G02 X-4.175 Y0. I0.00567 J4.18067
N1475 G1 Y175.
N1476 G02 X0. Y179.175 I4.18067 J-0.00567
N1477 G1 X175.
N1478 G02 X179.175 Y175. I-0.00567 J-4.18067
N1479 G1 Y116.67
N1480 X179.05 Y116.45349
N1481 X178.8
N1482 X178.675 Y116.67
N1483 X178.55 Y116.8865
N1484 X178.3
N1485 X178.175 Y116.67
N1486 Y0.
N1487 G02 X175. Y-3.175 I-3.175 J0.
N1488 G1 X0.
N1489 G02 X-3.175 Y0. I0. J3.175
N1490 G1 Y175.
N1491 G02 X0. Y178.175 I3.175 J0.
N1492 G1 X175.
N1493 G02 X178.175 Y175. I0. J-3.175
N1494 G1 Y116.67
N1495 G03 X184.525 Y110.32 I6.35 J0. F5000.
N1496 G1 X190.875
N1497 G0 Z3.175
N1498 M30
%
