%
G17 G21 G40 G90 G64 P0.1
(2 1/2 Axis Pocketing Rough)
(1/4in 6.35mm 2 Flute Carbide Router)
T30 M06
S22206 M3
G0 Z3.175
X34.1565 Y33.02028
G1 Z1.17143 F1249.
Z0.57143 F3747.
X34.49535 Y32.789 Z0.49909
X35.18078 Y32.58772 Z0.37313
X35.93901 Y32.60743 Z0.23938
X36.69678 Y32.8723 Z0.09784
X37.37347 Y33.3818 Z-0.05152
X37.88947 Y34.10872 Z-0.2087
X37.37347 Y33.3818 Z-0.36589
X36.69678 Y32.8723 Z-0.51524
X35.93901 Y32.60743 Z-0.65679
X35.18078 Y32.58772 Z-0.79053
X34.49535 Y32.789 Z-0.91649
X33.94167 Y33.16691 Z-1.03469
X33.5592 Y33.66314 Z-1.14517
X33.36539 Y34.21281 Z-1.24794
X33.35548 Y34.75213 Z-1.34305
X33.50498 Y35.22534 Z-1.43055
X33.77404 Y35.59039 Z-1.51052
X34.11336 Y35.82269 Z-1.58303
X34.47083 Y35.91654 Z-1.64819
X34.79814 Y35.8844 Z-1.70619
X35.05649 Y35.75384 Z-1.75723
X35.22094 Y35.56296 Z-1.80165
X35.2828 Y35.35462 Z-1.83997
X35.24984 Y35.17034 Z-1.87298
X35.14447 Y35.04456 Z-1.90191
X35. Y35. Z-1.92857
X35.27449 Y35.31399 F4996.
X35.18168 Y35.72059
X34.79814 Y35.8844
G17
G03 X33.5592 Y33.66314 I-0.16218 J-1.36569
X37.88947 Y34.10872 I2.04421 J1.39795
X33.52771 Y38.88212 I-3.2746 J1.3873
X32.01711 Y30.67854 I1.31309 J-4.48266
X41.35 Y35. I3.54167 J4.58986
X30.18133 Y40.74267 I-6.89569 J0.32094
X33.49915 Y26.48825 I4.92931 J-6.366
X42.47119 Y41.47382 I1.81956 J9.08922
X24.07203 Y36.57121 I-8.08711 J-6.62634
X41.59305 Y24.74101 I11.44814 J-1.93462
X36.24074 Y48.3897 I-6.72957 J10.90695
X23.60213 Y25.82817 I-1.57444 J-13.93877
X50.69289 Y33.0568 I12.01685 J9.34278
X24.39511 Y48.29812 I-16.24196 J2.28379
X32.9623 Y16.91488 I10.75535 J-13.92492
X48.40707 Y49.10423 I2.3114 J18.69092
X14.41744 Y32.90696 I-14.00161 J-14.37982
X25.53175 Y16.04299 I20.84412 J1.64299
X44.46825 Y53.95701 I9.46825 J18.95701
X25.53175 Y16.04299 I-9.46825 J-18.95701
G1 X26.05498 Y16.96561 Z-0.86791 F5000.
Z-0.26791
G0 Z3.175
X34.1565 Y33.02028
G1 Z-0.75714 F1249.
Z-1.35714 F3747.
X34.49535 Y32.789 Z-1.42948
X35.18078 Y32.58772 Z-1.55545
X35.93901 Y32.60743 Z-1.68919
X36.69678 Y32.8723 Z-1.83073
X37.37347 Y33.3818 Z-1.98009
X37.88947 Y34.10872 Z-2.13727
X37.37347 Y33.3818 Z-2.29446
X36.69678 Y32.8723 Z-2.44382
X35.93901 Y32.60743 Z-2.58536
X35.18078 Y32.58772 Z-2.7191
X34.49535 Y32.789 Z-2.84506
X33.94167 Y33.16691 Z-2.96327
X33.5592 Y33.66314 Z-3.07374
X33.36539 Y34.21281 Z-3.17651
X33.35548 Y34.75213 Z-3.27162
X33.50498 Y35.22534 Z-3.35913
X33.77404 Y35.59039 Z-3.43909
X34.11336 Y35.82269 Z-3.5116
X34.47083 Y35.91654 Z-3.57677
X34.79814 Y35.8844 Z-3.63476
X35.05649 Y35.75384 Z-3.6858
X35.22094 Y35.56296 Z-3.73022
X35.2828 Y35.35462 Z-3.76854
X35.24984 Y35.17034 Z-3.80155
X35.14447 Y35.04456 Z-3.83048
X35. Y35. Z-3.85714
X35.27449 Y35.31399 F4996.
X35.18168 Y35.72059
X34.79814 Y35.8844
G03 X33.5592 Y33.66314 I-0.16218 J-1.36569
X37.88947 Y34.10872 I2.04421 J1.39795
X33.52771 Y38.88212 I-3.2746 J1.3873
X32.01711 Y30.67854 I1.31309 J-4.48266
X41.35 Y35. I3.54167 J4.58986
X30.18133 Y40.74267 I-6.89569 J0.32094
X33.49915 Y26.48825 I4.92931 J-6.366
X42.47119 Y41.47382 I1.81956 J9.08922
X24.07203 Y36.57121 I-8.08711 J-6.62634
X41.59305 Y24.74101 I11.44814 J-1.93462
X36.24074 Y48.3897 I-6.72957 J10.90695
X23.60213 Y25.82817 I-1.57444 J-13.93877
X50.69289 Y33.0568 I12.01685 J9.34278
X24.39511 Y48.29812 I-16.24196 J2.28379
X32.9623 Y16.91488 I10.75535 J-13.92492
X48.40707 Y49.10423 I2.3114 J18.69092
X14.41744 Y32.90696 I-14.00161 J-14.37982
X25.53175 Y16.04299 I20.84412 J1.64299
X44.46825 Y53.95701 I9.46825 J18.95701
X25.53175 Y16.04299 I-9.46825 J-18.95701
G1 X26.05498 Y16.96561 Z-2.79648 F5000.
Z-2.19648
G0 Z3.175
X34.1565 Y33.02028
G1 Z-2.68571 F1249.
Z-3.28571 F3747.
X34.49535 Y32.789 Z-3.35805
X35.18078 Y32.58772 Z-3.48402
X35.93901 Y32.60743 Z-3.61776
X36.69678 Y32.8723 Z-3.7593
X37.37347 Y33.3818 Z-3.90866
X37.88947 Y34.10872 Z-4.06584
X37.37347 Y33.3818 Z-4.22303
X36.69678 Y32.8723 Z-4.37239
X35.93901 Y32.60743 Z-4.51393
X35.18078 Y32.58772 Z-4.64767
X34.49535 Y32.789 Z-4.77363
X33.94167 Y33.16691 Z-4.89184
X33.5592 Y33.66314 Z-5.00231
X33.36539 Y34.21281 Z-5.10508
X33.35548 Y34.75213 Z-5.20019
X33.50498 Y35.22534 Z-5.2877
X33.77404 Y35.59039 Z-5.36766
X34.11336 Y35.82269 Z-5.44017
X34.47083 Y35.91654 Z-5.50534
X34.79814 Y35.8844 Z-5.56333
X35.05649 Y35.75384 Z-5.61437
X35.22094 Y35.56296 Z-5.65879
X35.2828 Y35.35462 Z-5.69712
X35.24984 Y35.17034 Z-5.73012
X35.14447 Y35.04456 Z-5.75906
X35. Y35. Z-5.78571
X35.27449 Y35.31399 F4996.
X35.18168 Y35.72059
X34.79814 Y35.8844
G03 X33.5592 Y33.66314 I-0.16218 J-1.36569
X37.88947 Y34.10872 I2.04421 J1.39795
X33.52771 Y38.88212 I-3.2746 J1.3873
X32.01711 Y30.67854 I1.31309 J-4.48266
X41.35 Y35. I3.54167 J4.58986
X30.18133 Y40.74267 I-6.89569 J0.32094
X33.49915 Y26.48825 I4.92931 J-6.366
X42.47119 Y41.47382 I1.81956 J9.08922
X24.07203 Y36.57121 I-8.08711 J-6.62634
X41.59305 Y24.74101 I11.44814 J-1.93462
X36.24074 Y48.3897 I-6.72957 J10.90695
X23.60213 Y25.82817 I-1.57444 J-13.93877
X50.69289 Y33.0568 I12.01685 J9.34278
X24.39511 Y48.29812 I-16.24196 J2.28379
X32.9623 Y16.91488 I10.75535 J-13.92492
X48.40707 Y49.10423 I2.3114 J18.69092
X14.41744 Y32.90696 I-14.00161 J-14.37982
X25.53175 Y16.04299 I20.84412 J1.64299
X44.46825 Y53.95701 I9.46825 J18.95701
X25.53175 Y16.04299 I-9.46825 J-18.95701
G1 X26.05498 Y16.96561 Z-4.72505 F5000.
Z-4.12505
G0 Z3.175
X34.1565 Y33.02028
G1 Z-4.61429 F1249.
Z-5.21429 F3747.
X34.49535 Y32.789 Z-5.28663
X35.18078 Y32.58772 Z-5.41259
X35.93901 Y32.60743 Z-5.54633
X36.69678 Y32.8723 Z-5.68787
X37.37347 Y33.3818 Z-5.83723
X37.88947 Y34.10872 Z-5.99442
X37.37347 Y33.3818 Z-6.1516
X36.69678 Y32.8723 Z-6.30096
X35.93901 Y32.60743 Z-6.4425
X35.18078 Y32.58772 Z-6.57624
X34.49535 Y32.789 Z-6.70221
X33.94167 Y33.16691 Z-6.82041
X33.5592 Y33.66314 Z-6.93088
X33.36539 Y34.21281 Z-7.03365
X33.35548 Y34.75213 Z-7.12876
X33.50498 Y35.22534 Z-7.21627
X33.77404 Y35.59039 Z-7.29623
X34.11336 Y35.82269 Z-7.36874
X34.47083 Y35.91654 Z-7.43391
X34.79814 Y35.8844 Z-7.4919
X35.05649 Y35.75384 Z-7.54294
X35.22094 Y35.56296 Z-7.58737
X35.2828 Y35.35462 Z-7.62569
X35.24984 Y35.17034 Z-7.6587
X35.14447 Y35.04456 Z-7.68763
X35. Y35. Z-7.71429
X35.27449 Y35.31399 F4996.
X35.18168 Y35.72059
X34.79814 Y35.8844
G03 X33.5592 Y33.66314 I-0.16218 J-1.36569
X37.88947 Y34.10872 I2.04421 J1.39795
X33.52771 Y38.88212 I-3.2746 J1.3873
X32.01711 Y30.67854 I1.31309 J-4.48266
X41.35 Y35. I3.54167 J4.58986
X30.18133 Y40.74267 I-6.89569 J0.32094
X33.49915 Y26.48825 I4.92931 J-6.366
X42.47119 Y41.47382 I1.81956 J9.08922
X24.07203 Y36.57121 I-8.08711 J-6.62634
X41.59305 Y24.74101 I11.44814 J-1.93462
X36.24074 Y48.3897 I-6.72957 J10.90695
X23.60213 Y25.82817 I-1.57444 J-13.93877
X50.69289 Y33.0568 I12.01685 J9.34278
X24.39511 Y48.29812 I-16.24196 J2.28379
X32.9623 Y16.91488 I10.75535 J-13.92492
X48.40707 Y49.10423 I2.3114 J18.69092
X14.41744 Y32.90696 I-14.00161 J-14.37982
X25.53175 Y16.04299 I20.84412 J1.64299
X44.46825 Y53.95701 I9.46825 J18.95701
X25.53175 Y16.04299 I-9.46825 J-18.95701
G1 X26.05498 Y16.96561 Z-6.65363 F5000.
Z-6.05363
G0 Z3.175
X34.1565 Y33.02028
G1 Z-6.54286 F1249.
Z-7.14286 F3747.
X34.49535 Y32.789 Z-7.2152
X35.18078 Y32.58772 Z-7.34116
X35.93901 Y32.60743 Z-7.4749
X36.69678 Y32.8723 Z-7.61645
X37.37347 Y33.3818 Z-7.7658
X37.88947 Y34.10872 Z-7.92299
X37.37347 Y33.3818 Z-8.08017
X36.69678 Y32.8723 Z-8.22953
X35.93901 Y32.60743 Z-8.37107
X35.18078 Y32.58772 Z-8.50482
X34.49535 Y32.789 Z-8.63078
X33.94167 Y33.16691 Z-8.74898
X33.5592 Y33.66314 Z-8.85945
X33.36539 Y34.21281 Z-8.96222
X33.35548 Y34.75213 Z-9.05734
X33.50498 Y35.22534 Z-9.14484
X33.77404 Y35.59039 Z-9.2248
X34.11336 Y35.82269 Z-9.29731
X34.47083 Y35.91654 Z-9.36248
X34.79814 Y35.8844 Z-9.42047
X35.05649 Y35.75384 Z-9.47151
X35.22094 Y35.56296 Z-9.51594
X35.2828 Y35.35462 Z-9.55426
X35.24984 Y35.17034 Z-9.58727
X35.14447 Y35.04456 Z-9.6162
X35. Y35. Z-9.64286
X35.27449 Y35.31399 F4996.
X35.18168 Y35.72059
X34.79814 Y35.8844
G03 X33.5592 Y33.66314 I-0.16218 J-1.36569
X37.88947 Y34.10872 I2.04421 J1.39795
X33.52771 Y38.88212 I-3.2746 J1.3873
X32.01711 Y30.67854 I1.31309 J-4.48266
X41.35 Y35. I3.54167 J4.58986
X30.18133 Y40.74267 I-6.89569 J0.32094
X33.49915 Y26.48825 I4.92931 J-6.366
X42.47119 Y41.47382 I1.81956 J9.08922
X24.07203 Y36.57121 I-8.08711 J-6.62634
X41.59305 Y24.74101 I11.44814 J-1.93462
X36.24074 Y48.3897 I-6.72957 J10.90695
X23.60213 Y25.82817 I-1.57444 J-13.93877
X50.69289 Y33.0568 I12.01685 J9.34278
X24.39511 Y48.29812 I-16.24196 J2.28379
X32.9623 Y16.91488 I10.75535 J-13.92492
X48.40707 Y49.10423 I2.3114 J18.69092
X14.41744 Y32.90696 I-14.00161 J-14.37982
X25.53175 Y16.04299 I20.84412 J1.64299
X44.46825 Y53.95701 I9.46825 J18.95701
X25.53175 Y16.04299 I-9.46825 J-18.95701
G1 X26.05498 Y16.96561 Z-8.5822 F5000.
Z-7.9822
G0 Z3.175
X34.1565 Y33.02028
G1 Z-8.47143 F1249.
Z-9.07143 F3747.
X34.49535 Y32.789 Z-9.14377
X35.18078 Y32.58772 Z-9.26973
X35.93901 Y32.60743 Z-9.40347
X36.69678 Y32.8723 Z-9.54502
X37.37347 Y33.3818 Z-9.69437
X37.88947 Y34.10872 Z-9.85156
X37.37347 Y33.3818 Z-10.00874
X36.69678 Y32.8723 Z-10.1581
X35.93901 Y32.60743 Z-10.29964
X35.18078 Y32.58772 Z-10.43339
X34.49535 Y32.789 Z-10.55935
X33.94167 Y33.16691 Z-10.67755
X33.5592 Y33.66314 Z-10.78802
X33.36539 Y34.21281 Z-10.89079
X33.35548 Y34.75213 Z-10.98591
X33.50498 Y35.22534 Z-11.07341
X33.77404 Y35.59039 Z-11.15337
X34.11336 Y35.82269 Z-11.22588
X34.47083 Y35.91654 Z-11.29105
X34.79814 Y35.8844 Z-11.34904
X35.05649 Y35.75384 Z-11.40008
X35.22094 Y35.56296 Z-11.44451
X35.2828 Y35.35462 Z-11.48283
X35.24984 Y35.17034 Z-11.51584
X35.14447 Y35.04456 Z-11.54477
X35. Y35. Z-11.57143
X35.27449 Y35.31399 F4996.
X35.18168 Y35.72059
X34.79814 Y35.8844
G03 X33.5592 Y33.66314 I-0.16218 J-1.36569
X37.88947 Y34.10872 I2.04421 J1.39795
X33.52771 Y38.88212 I-3.2746 J1.3873
X32.01711 Y30.67854 I1.31309 J-4.48266
X41.35 Y35. I3.54167 J4.58986
X30.18133 Y40.74267 I-6.89569 J0.32094
X33.49915 Y26.48825 I4.92931 J-6.366
X42.47119 Y41.47382 I1.81956 J9.08922
X24.07203 Y36.57121 I-8.08711 J-6.62634
X41.59305 Y24.74101 I11.44814 J-1.93462
X36.24074 Y48.3897 I-6.72957 J10.90695
X23.60213 Y25.82817 I-1.57444 J-13.93877
X50.69289 Y33.0568 I12.01685 J9.34278
X24.39511 Y48.29812 I-16.24196 J2.28379
X32.9623 Y16.91488 I10.75535 J-13.92492
X48.40707 Y49.10423 I2.3114 J18.69092
X14.41744 Y32.90696 I-14.00161 J-14.37982
X25.53175 Y16.04299 I20.84412 J1.64299
X44.46825 Y53.95701 I9.46825 J18.95701
X25.53175 Y16.04299 I-9.46825 J-18.95701
G1 X26.05498 Y16.96561 Z-10.51077 F5000.
Z-9.91077
G0 Z3.175
X34.1565 Y33.02028
G1 Z-10.4 F1249.
Z-11. F3747.
X34.49535 Y32.789 Z-11.07234
X35.18078 Y32.58772 Z-11.1983
X35.93901 Y32.60743 Z-11.33205
X36.69678 Y32.8723 Z-11.47359
X37.37347 Y33.3818 Z-11.62295
X37.88947 Y34.10872 Z-11.78013
X37.37347 Y33.3818 Z-11.93732
X36.69678 Y32.8723 Z-12.08667
X35.93901 Y32.60743 Z-12.22822
X35.18078 Y32.58772 Z-12.36196
X34.49535 Y32.789 Z-12.48792
X33.94167 Y33.16691 Z-12.60612
X33.5592 Y33.66314 Z-12.71659
X33.36539 Y34.21281 Z-12.81936
X33.35548 Y34.75213 Z-12.91448
X33.50498 Y35.22534 Z-13.00198
X33.77404 Y35.59039 Z-13.08194
X34.11336 Y35.82269 Z-13.15445
X34.47083 Y35.91654 Z-13.21962
X34.79814 Y35.8844 Z-13.27761
X35.05649 Y35.75384 Z-13.32865
X35.22094 Y35.56296 Z-13.37308
X35.2828 Y35.35462 Z-13.4114
X35.24984 Y35.17034 Z-13.44441
X35.14447 Y35.04456 Z-13.47334
X35. Y35. Z-13.5
X35.27449 Y35.31399 F4996.
X35.18168 Y35.72059
X34.79814 Y35.8844
G03 X33.5592 Y33.66314 I-0.16218 J-1.36569
X37.88947 Y34.10872 I2.04421 J1.39795
X33.52771 Y38.88212 I-3.2746 J1.3873
X32.01711 Y30.67854 I1.31309 J-4.48266
X41.35 Y35. I3.54167 J4.58986
X30.18133 Y40.74267 I-6.89569 J0.32094
X33.49915 Y26.48825 I4.92931 J-6.366
X42.47119 Y41.47382 I1.81956 J9.08922
X24.07203 Y36.57121 I-8.08711 J-6.62634
X41.59305 Y24.74101 I11.44814 J-1.93462
X36.24074 Y48.3897 I-6.72957 J10.90695
X23.60213 Y25.82817 I-1.57444 J-13.93877
X50.69289 Y33.0568 I12.01685 J9.34278
X24.39511 Y48.29812 I-16.24196 J2.28379
X32.9623 Y16.91488 I10.75535 J-13.92492
X48.40707 Y49.10423 I2.3114 J18.69092
X14.41744 Y32.90696 I-14.00161 J-14.37982
X25.53175 Y16.04299 I20.84412 J1.64299
X44.46825 Y53.95701 I9.46825 J18.95701
X25.53175 Y16.04299 I-9.46825 J-18.95701
G1 X26.05498 Y16.96561 Z-12.43934 F5000.
Z-11.83934
G0 Z3.175
X34.1565 Y93.02028
G1 Z1.17143 F1249.
Z0.57143 F3747.
X34.49535 Y92.789 Z0.49909
X35.18077 Y92.58772 Z0.37313
X35.93901 Y92.60743 Z0.23938
X36.69678 Y92.8723 Z0.09784
X37.37347 Y93.3818 Z-0.05152
X37.88947 Y94.10872 Z-0.2087
X37.37347 Y93.3818 Z-0.36589
X36.69678 Y92.8723 Z-0.51524
X35.93901 Y92.60743 Z-0.65679
X35.18077 Y92.58772 Z-0.79053
X34.49535 Y92.789 Z-0.91649
X33.94167 Y93.16691 Z-1.03469
X33.5592 Y93.66314 Z-1.14517
X33.36539 Y94.21281 Z-1.24794
X33.35548 Y94.75213 Z-1.34305
X33.50498 Y95.22534 Z-1.43055
X33.77404 Y95.59039 Z-1.51052
X34.11336 Y95.82269 Z-1.58303
X34.47083 Y95.91654 Z-1.64819
X34.79814 Y95.8844 Z-1.70619
X35.05649 Y95.75384 Z-1.75723
X35.22094 Y95.56296 Z-1.80165
X35.2828 Y95.35462 Z-1.83997
X35.24984 Y95.17034 Z-1.87298
X35.14447 Y95.04456 Z-1.90191
X35. Y95. Z-1.92857
X35.27449 Y95.314 F4996.
X35.18168 Y95.72059
X34.79814 Y95.8844
G03 X33.5592 Y93.66314 I-0.16218 J-1.36569
X37.88947 Y94.10872 I2.04421 J1.39795
X33.52771 Y98.88212 I-3.2746 J1.3873
X32.01711 Y90.67854 I1.31309 J-4.48266
X41.35 Y95. I3.54167 J4.58986
X30.18133 Y100.74267 I-6.89569 J0.32094
X33.49915 Y86.48825 I4.92931 J-6.366
X42.47118 Y101.47382 I1.81956 J9.08922
X24.07203 Y96.57121 I-8.0871 J-6.62634
X41.59305 Y84.74101 I11.44814 J-1.93462
X36.24074 Y108.3897 I-6.72957 J10.90695
X23.60213 Y85.82817 I-1.57444 J-13.93877
X50.69289 Y93.0568 I12.01685 J9.34278
X24.39511 Y108.29812 I-16.24196 J2.28379
X32.9623 Y76.91488 I10.75535 J-13.92492
X48.40707 Y109.10423 I2.3114 J18.69092
X14.41744 Y92.90696 I-14.00161 J-14.37982
X52.98928 Y82.47909 I21.21341 J1.91568
X30.15662 Y117.61249 I-18.33341 J13.07139
X17.79268 Y77.99811 I4.63657 J-23.18374
X52.20732 Y112.00189 I17.20732 J17.00189
X17.79268 Y77.99811 I-17.20732 J-17.00189
G1 X18.79488 Y77.65085 Z-0.86791 F5000.
Z-0.26791
G0 Z3.175
X34.1565 Y93.02028
G1 Z-0.75714 F1249.
Z-1.35714 F3747.
X34.49535 Y92.789 Z-1.42948
X35.18077 Y92.58772 Z-1.55545
X35.93901 Y92.60743 Z-1.68919
X36.69678 Y92.8723 Z-1.83073
X37.37347 Y93.3818 Z-1.98009
X37.88947 Y94.10872 Z-2.13727
X37.37347 Y93.3818 Z-2.29446
X36.69678 Y92.8723 Z-2.44382
X35.93901 Y92.60743 Z-2.58536
X35.18077 Y92.58772 Z-2.7191
X34.49535 Y92.789 Z-2.84506
X33.94167 Y93.16691 Z-2.96327
X33.5592 Y93.66314 Z-3.07374
X33.36539 Y94.21281 Z-3.17651
X33.35548 Y94.75213 Z-3.27162
X33.50498 Y95.22534 Z-3.35913
X33.77404 Y95.59039 Z-3.43909
X34.11336 Y95.82269 Z-3.5116
X34.47083 Y95.91654 Z-3.57677
X34.79814 Y95.8844 Z-3.63476
X35.05649 Y95.75384 Z-3.6858
X35.22094 Y95.56296 Z-3.73022
X35.2828 Y95.35462 Z-3.76854
X35.24984 Y95.17034 Z-3.80155
X35.14447 Y95.04456 Z-3.83048
X35. Y95. Z-3.85714
X35.27449 Y95.314 F4996.
X35.18168 Y95.72059
X34.79814 Y95.8844
G03 X33.5592 Y93.66314 I-0.16218 J-1.36569
X37.88947 Y94.10872 I2.04421 J1.39795
X33.52771 Y98.88212 I-3.2746 J1.3873
X32.01711 Y90.67854 I1.31309 J-4.48266
X41.35 Y95. I3.54167 J4.58986
X30.18133 Y100.74267 I-6.89569 J0.32094
X33.49915 Y86.48825 I4.92931 J-6.366
X42.47118 Y101.47382 I1.81956 J9.08922
X24.07203 Y96.57121 I-8.0871 J-6.62634
X41.59305 Y84.74101 I11.44814 J-1.93462
X36.24074 Y108.3897 I-6.72957 J10.90695
X23.60213 Y85.82817 I-1.57444 J-13.93877
X50.69289 Y93.0568 I12.01685 J9.34278
X24.39511 Y108.29812 I-16.24196 J2.28379
X32.9623 Y76.91488 I10.75535 J-13.92492
X48.40707 Y109.10423 I2.3114 J18.69092
X14.41744 Y92.90696 I-14.00161 J-14.37982
X52.98928 Y82.47909 I21.21341 J1.91568
X30.15662 Y117.61249 I-18.33341 J13.07139
X17.79268 Y77.99811 I4.63657 J-23.18374
X52.20732 Y112.00189 I17.20732 J17.00189
X17.79268 Y77.99811 I-17.20732 J-17.00189
G1 X18.79488 Y77.65085 Z-2.79648 F5000.
Z-2.19648
G0 Z3.175
X34.1565 Y93.02028
G1 Z-2.68571 F1249.
Z-3.28571 F3747.
X34.49535 Y92.789 Z-3.35805
X35.18077 Y92.58772 Z-3.48402
X35.93901 Y92.60743 Z-3.61776
X36.69678 Y92.8723 Z-3.7593
X37.37347 Y93.3818 Z-3.90866
X37.88947 Y94.10872 Z-4.06584
X37.37347 Y93.3818 Z-4.22303
X36.69678 Y92.8723 Z-4.37239
X35.93901 Y92.60743 Z-4.51393
X35.18077 Y92.58772 Z-4.64767
X34.49535 Y92.789 Z-4.77363
X33.94167 Y93.16691 Z-4.89184
X33.5592 Y93.66314 Z-5.00231
X33.36539 Y94.21281 Z-5.10508
X33.35548 Y94.75213 Z-5.20019
X33.50498 Y95.22534 Z-5.2877
X33.77404 Y95.59039 Z-5.36766
X34.11336 Y95.82269 Z-5.44017
X34.47083 Y95.91654 Z-5.50534
X34.79814 Y95.8844 Z-5.56333
X35.05649 Y95.75384 Z-5.61437
X35.22094 Y95.56296 Z-5.65879
X35.2828 Y95.35462 Z-5.69712
X35.24984 Y95.17034 Z-5.73012
X35.14447 Y95.04456 Z-5.75906
X35. Y95. Z-5.78571
X35.27449 Y95.314 F4996.
X35.18168 Y95.72059
X34.79814 Y95.8844
G03 X33.5592 Y93.66314 I-0.16218 J-1.36569
X37.88947 Y94.10872 I2.04421 J1.39795
X33.52771 Y98.88212 I-3.2746 J1.3873
X32.01711 Y90.67854 I1.31309 J-4.48266
X41.35 Y95. I3.54167 J4.58986
X30.18133 Y100.74267 I-6.89569 J0.32094
X33.49915 Y86.48825 I4.92931 J-6.366
X42.47118 Y101.47382 I1.81956 J9.08922
X24.07203 Y96.57121 I-8.0871 J-6.62634
X41.59305 Y84.74101 I11.44814 J-1.93462
X36.24074 Y108.3897 I-6.72957 J10.90695
X23.60213 Y85.82817 I-1.57444 J-13.93877
X50.69289 Y93.0568 I12.01685 J9.34278
X24.39511 Y108.29812 I-16.24196 J2.28379
X32.9623 Y76.91488 I10.75535 J-13.92492
X48.40707 Y109.10423 I2.3114 J18.69092
X14.41744 Y92.90696 I-14.00161 J-14.37982
X52.98928 Y82.47909 I21.21341 J1.91568
X30.15662 Y117.61249 I-18.33341 J13.07139
X17.79268 Y77.99811 I4.63657 J-23.18374
X52.20732 Y112.00189 I17.20732 J17.00189
X17.79268 Y77.99811 I-17.20732 J-17.00189
G1 X18.79488 Y77.65085 Z-4.72505 F5000.
Z-4.12505
G0 Z3.175
X34.1565 Y93.02028
G1 Z-4.61429 F1249.
Z-5.21429 F3747.
X34.49535 Y92.789 Z-5.28663
X35.18077 Y92.58772 Z-5.41259
X35.93901 Y92.60743 Z-5.54633
X36.69678 Y92.8723 Z-5.68787
X37.37347 Y93.3818 Z-5.83723
X37.88947 Y94.10872 Z-5.99442
X37.37347 Y93.3818 Z-6.1516
X36.69678 Y92.8723 Z-6.30096
X35.93901 Y92.60743 Z-6.4425
X35.18077 Y92.58772 Z-6.57624
X34.49535 Y92.789 Z-6.70221
X33.94167 Y93.16691 Z-6.82041
X33.5592 Y93.66314 Z-6.93088
X33.36539 Y94.21281 Z-7.03365
X33.35548 Y94.75213 Z-7.12876
X33.50498 Y95.22534 Z-7.21627
X33.77404 Y95.59039 Z-7.29623
X34.11336 Y95.82269 Z-7.36874
X34.47083 Y95.91654 Z-7.43391
X34.79814 Y95.8844 Z-7.4919
X35.05649 Y95.75384 Z-7.54294
X35.22094 Y95.56296 Z-7.58737
X35.2828 Y95.35462 Z-7.62569
X35.24984 Y95.17034 Z-7.6587
X35.14447 Y95.04456 Z-7.68763
X35. Y95. Z-7.71429
X35.27449 Y95.314 F4996.
X35.18168 Y95.72059
X34.79814 Y95.8844
G03 X33.5592 Y93.66314 I-0.16218 J-1.36569
X37.88947 Y94.10872 I2.04421 J1.39795
X33.52771 Y98.88212 I-3.2746 J1.3873
X32.01711 Y90.67854 I1.31309 J-4.48266
X41.35 Y95. I3.54167 J4.58986
X30.18133 Y100.74267 I-6.89569 J0.32094
X33.49915 Y86.48825 I4.92931 J-6.366
X42.47118 Y101.47382 I1.81956 J9.08922
X24.07203 Y96.57121 I-8.0871 J-6.62634
X41.59305 Y84.74101 I11.44814 J-1.93462
X36.24074 Y108.3897 I-6.72957 J10.90695
X23.60213 Y85.82817 I-1.57444 J-13.93877
X50.69289 Y93.0568 I12.01685 J9.34278
X24.39511 Y108.29812 I-16.24196 J2.28379
X32.9623 Y76.91488 I10.75535 J-13.92492
X48.40707 Y109.10423 I2.3114 J18.69092
X14.41744 Y92.90696 I-14.00161 J-14.37982
X52.98928 Y82.47909 I21.21341 J1.91568
X30.15662 Y117.61249 I-18.33341 J13.07139
X17.79268 Y77.99811 I4.63657 J-23.18374
X52.20732 Y112.00189 I17.20732 J17.00189
X17.79268 Y77.99811 I-17.20732 J-17.00189
G1 X18.79488 Y77.65085 Z-6.65363 F5000.
Z-6.05363
G0 Z3.175
X34.1565 Y93.02028
G1 Z-6.54286 F1249.
Z-7.14286 F3747.
X34.49535 Y92.789 Z-7.2152
X35.18077 Y92.58772 Z-7.34116
X35.93901 Y92.60743 Z-7.4749
X36.69678 Y92.8723 Z-7.61645
X37.37347 Y93.3818 Z-7.7658
X37.88947 Y94.10872 Z-7.92299
X37.37347 Y93.3818 Z-8.08017
X36.69678 Y92.8723 Z-8.22953
X35.93901 Y92.60743 Z-8.37107
X35.18077 Y92.58772 Z-8.50482
X34.49535 Y92.789 Z-8.63078
X33.94167 Y93.16691 Z-8.74898
X33.5592 Y93.66314 Z-8.85945
X33.36539 Y94.21281 Z-8.96222
X33.35548 Y94.75213 Z-9.05734
X33.50498 Y95.22534 Z-9.14484
X33.77404 Y95.59039 Z-9.2248
X34.11336 Y95.82269 Z-9.29731
X34.47083 Y95.91654 Z-9.36248
X34.79814 Y95.8844 Z-9.42047
X35.05649 Y95.75384 Z-9.47151
X35.22094 Y95.56296 Z-9.51594
X35.2828 Y95.35462 Z-9.55426
X35.24984 Y95.17034 Z-9.58727
X35.14447 Y95.04456 Z-9.6162
X35. Y95. Z-9.64286
X35.27449 Y95.314 F4996.
X35.18168 Y95.72059
X34.79814 Y95.8844
G03 X33.5592 Y93.66314 I-0.16218 J-1.36569
X37.88947 Y94.10872 I2.04421 J1.39795
X33.52771 Y98.88212 I-3.2746 J1.3873
X32.01711 Y90.67854 I1.31309 J-4.48266
X41.35 Y95. I3.54167 J4.58986
X30.18133 Y100.74267 I-6.89569 J0.32094
X33.49915 Y86.48825 I4.92931 J-6.366
X42.47118 Y101.47382 I1.81956 J9.08922
X24.07203 Y96.57121 I-8.0871 J-6.62634
X41.59305 Y84.74101 I11.44814 J-1.93462
X36.24074 Y108.3897 I-6.72957 J10.90695
X23.60213 Y85.82817 I-1.57444 J-13.93877
X50.69289 Y93.0568 I12.01685 J9.34278
X24.39511 Y108.29812 I-16.24196 J2.28379
X32.9623 Y76.91488 I10.75535 J-13.92492
X48.40707 Y109.10423 I2.3114 J18.69092
X14.41744 Y92.90696 I-14.00161 J-14.37982
X52.98928 Y82.47909 I21.21341 J1.91568
X30.15662 Y117.61249 I-18.33341 J13.07139
X17.79268 Y77.99811 I4.63657 J-23.18374
X52.20732 Y112.00189 I17.20732 J17.00189
X17.79268 Y77.99811 I-17.20732 J-17.00189
G1 X18.79488 Y77.65085 Z-8.5822 F5000.
Z-7.9822
G0 Z3.175
X34.1565 Y93.02028
G1 Z-8.47143 F1249.
Z-9.07143 F3747.
X34.49535 Y92.789 Z-9.14377
X35.18077 Y92.58772 Z-9.26973
X35.93901 Y92.60743 Z-9.40347
X36.69678 Y92.8723 Z-9.54502
X37.37347 Y93.3818 Z-9.69437
X37.88947 Y94.10872 Z-9.85156
X37.37347 Y93.3818 Z-10.00874
X36.69678 Y92.8723 Z-10.1581
X35.93901 Y92.60743 Z-10.29964
X35.18077 Y92.58772 Z-10.43339
X34.49535 Y92.789 Z-10.55935
X33.94167 Y93.16691 Z-10.67755
X33.5592 Y93.66314 Z-10.78802
X33.36539 Y94.21281 Z-10.89079
X33.35548 Y94.75213 Z-10.98591
X33.50498 Y95.22534 Z-11.07341
X33.77404 Y95.59039 Z-11.15337
X34.11336 Y95.82269 Z-11.22588
X34.47083 Y95.91654 Z-11.29105
X34.79814 Y95.8844 Z-11.34904
X35.05649 Y95.75384 Z-11.40008
X35.22094 Y95.56296 Z-11.44451
X35.2828 Y95.35462 Z-11.48283
X35.24984 Y95.17034 Z-11.51584
X35.14447 Y95.04456 Z-11.54477
X35. Y95. Z-11.57143
X35.27449 Y95.314 F4996.
X35.18168 Y95.72059
X34.79814 Y95.8844
G03 X33.5592 Y93.66314 I-0.16218 J-1.36569
X37.88947 Y94.10872 I2.04421 J1.39795
X33.52771 Y98.88212 I-3.2746 J1.3873
X32.01711 Y90.67854 I1.31309 J-4.48266
X41.35 Y95. I3.54167 J4.58986
X30.18133 Y100.74267 I-6.89569 J0.32094
X33.49915 Y86.48825 I4.92931 J-6.366
X42.47118 Y101.47382 I1.81956 J9.08922
X24.07203 Y96.57121 I-8.0871 J-6.62634
X41.59305 Y84.74101 I11.44814 J-1.93462
X36.24074 Y108.3897 I-6.72957 J10.90695
X23.60213 Y85.82817 I-1.57444 J-13.93877
X50.69289 Y93.0568 I12.01685 J9.34278
X24.39511 Y108.29812 I-16.24196 J2.28379
X32.9623 Y76.91488 I10.75535 J-13.92492
X48.40707 Y109.10423 I2.3114 J18.69092
X14.41744 Y92.90696 I-14.00161 J-14.37982
X52.98928 Y82.47909 I21.21341 J1.91568
X30.15662 Y117.61249 I-18.33341 J13.07139
X17.79268 Y77.99811 I4.63657 J-23.18374
X52.20732 Y112.00189 I17.20732 J17.00189
X17.79268 Y77.99811 I-17.20732 J-17.00189
G1 X18.79488 Y77.65085 Z-10.51077 F5000.
Z-9.91077
G0 Z3.175
X34.1565 Y93.02028
G1 Z-10.4 F1249.
Z-11. F3747.
X34.49535 Y92.789 Z-11.07234
X35.18077 Y92.58772 Z-11.1983
X35.93901 Y92.60743 Z-11.33205
X36.69678 Y92.8723 Z-11.47359
X37.37347 Y93.3818 Z-11.62295
X37.88947 Y94.10872 Z-11.78013
X37.37347 Y93.3818 Z-11.93732
X36.69678 Y92.8723 Z-12.08667
X35.93901 Y92.60743 Z-12.22822
X35.18077 Y92.58772 Z-12.36196
X34.49535 Y92.789 Z-12.48792
X33.94167 Y93.16691 Z-12.60612
X33.5592 Y93.66314 Z-12.71659
X33.36539 Y94.21281 Z-12.81936
X33.35548 Y94.75213 Z-12.91448
X33.50498 Y95.22534 Z-13.00198
X33.77404 Y95.59039 Z-13.08194
X34.11336 Y95.82269 Z-13.15445
X34.47083 Y95.91654 Z-13.21962
X34.79814 Y95.8844 Z-13.27761
X35.05649 Y95.75384 Z-13.32865
X35.22094 Y95.56296 Z-13.37308
X35.2828 Y95.35462 Z-13.4114
X35.24984 Y95.17034 Z-13.44441
X35.14447 Y95.04456 Z-13.47334
X35. Y95. Z-13.5
X35.27449 Y95.314 F4996.
X35.18168 Y95.72059
X34.79814 Y95.8844
G03 X33.5592 Y93.66314 I-0.16218 J-1.36569
X37.88947 Y94.10872 I2.04421 J1.39795
X33.52771 Y98.88212 I-3.2746 J1.3873
X32.01711 Y90.67854 I1.31309 J-4.48266
X41.35 Y95. I3.54167 J4.58986
X30.18133 Y100.74267 I-6.89569 J0.32094
X33.49915 Y86.48825 I4.92931 J-6.366
X42.47118 Y101.47382 I1.81956 J9.08922
X24.07203 Y96.57121 I-8.0871 J-6.62634
X41.59305 Y84.74101 I11.44814 J-1.93462
X36.24074 Y108.3897 I-6.72957 J10.90695
X23.60213 Y85.82817 I-1.57444 J-13.93877
X50.69289 Y93.0568 I12.01685 J9.34278
X24.39511 Y108.29812 I-16.24196 J2.28379
X32.9623 Y76.91488 I10.75535 J-13.92492
X48.40707 Y109.10423 I2.3114 J18.69092
X14.41744 Y92.90696 I-14.00161 J-14.37982
X52.98928 Y82.47909 I21.21341 J1.91568
X30.15662 Y117.61249 I-18.33341 J13.07139
X17.79268 Y77.99811 I4.63657 J-23.18374
X52.20732 Y112.00189 I17.20732 J17.00189
X17.79268 Y77.99811 I-17.20732 J-17.00189
G1 X18.79488 Y77.65085 Z-12.43934 F5000.
Z-11.83934
G0 Z3.175
(2 1/2 Axis Pocketing Finish)
(1/4in 6.35mm 2 Flute Carbide Router)
X34.1565 Y33.02028
G1 Z-10.9 F1249.
Z-11.5 F3747.
X34.49535 Y32.789 Z-11.57234
X35.18078 Y32.58772 Z-11.6983
X35.93901 Y32.60743 Z-11.83205
X36.69678 Y32.8723 Z-11.97359
X37.37347 Y33.3818 Z-12.12295
X37.88947 Y34.10872 Z-12.28013
X37.37347 Y33.3818 Z-12.43732
X36.69678 Y32.8723 Z-12.58667
X35.93901 Y32.60743 Z-12.72822
X35.18078 Y32.58772 Z-12.86196
X34.49535 Y32.789 Z-12.98792
X33.94167 Y33.16691 Z-13.10612
X33.5592 Y33.66314 Z-13.21659
X33.36539 Y34.21281 Z-13.31936
X33.35548 Y34.75213 Z-13.41448
X33.50498 Y35.22534 Z-13.50198
X33.77404 Y35.59039 Z-13.58194
X34.11336 Y35.82269 Z-13.65445
X34.47083 Y35.91654 Z-13.71962
X34.79814 Y35.8844 Z-13.77761
X35.05649 Y35.75384 Z-13.82865
X35.22094 Y35.56296 Z-13.87308
X35.2828 Y35.35462 Z-13.9114
X35.24984 Y35.17034 Z-13.94441
X35.14447 Y35.04456 Z-13.97334
X35. Y35. Z-14.
X35.27449 Y35.31399 F4996.
X35.18168 Y35.72059
X34.79814 Y35.8844
G03 X33.5592 Y33.66314 I-0.16218 J-1.36569
X37.88947 Y34.10872 I2.04421 J1.39795
X32.0995 Y38.22674 I-3.43612 J1.29816
X36.23136 Y29.46846 I3.15894 J-3.86349
X37.49838 Y41.49417 I-1.17847 J6.20377
X28.74282 Y29.5472 I-2.92593 J-7.0375
X44.30069 Y37.62488 I6.88382 J5.76287
X24.17715 Y37.06132 I-9.99616 J-2.62458
X44.83708 Y27.49877 I11.44632 J-2.36939
X28.73852 Y47.22247 I-10.27336 J8.04655
X35.23654 Y19.91268 I6.41 J-12.90278
X42.45935 Y49.63979 I-0.07764 J15.75989
X20.84477 Y24.22218 I-7.91984 J-15.16423
X53.71791 Y39.08551 I14.79586 J11.06043
X14.99418 Y39.58159 I-19.41714 J-4.06692
X50.34434 Y19.47964 I20.59105 J-4.92313
X19.65566 Y50.52036 I-15.34434 J15.52036
X50.34434 Y19.47964 I15.34434 J-15.52036
G1 X50.86758 Y20.40226 Z-12.93934 F5000.
Z-12.33934
G0 Z3.175
X34.1565 Y93.02028
G1 Z-10.9 F1249.
Z-11.5 F3747.
X34.49535 Y92.789 Z-11.57234
X35.18077 Y92.58772 Z-11.6983
X35.93901 Y92.60743 Z-11.83205
X36.69678 Y92.8723 Z-11.97359
X37.37347 Y93.3818 Z-12.12295
X37.88947 Y94.10872 Z-12.28013
X37.37347 Y93.3818 Z-12.43732
X36.69678 Y92.8723 Z-12.58667
X35.93901 Y92.60743 Z-12.72822
X35.18077 Y92.58772 Z-12.86196
X34.49535 Y92.789 Z-12.98792
X33.94167 Y93.16691 Z-13.10612
X33.5592 Y93.66314 Z-13.21659
X33.36539 Y94.21281 Z-13.31936
X33.35548 Y94.75213 Z-13.41448
X33.50498 Y95.22534 Z-13.50198
X33.77404 Y95.59039 Z-13.58194
X34.11336 Y95.82269 Z-13.65445
X34.47083 Y95.91654 Z-13.71962
X34.79814 Y95.8844 Z-13.77761
X35.05649 Y95.75384 Z-13.82865
X35.22094 Y95.56296 Z-13.87308
X35.2828 Y95.35462 Z-13.9114
X35.24984 Y95.17034 Z-13.94441
X35.14447 Y95.04456 Z-13.97334
X35. Y95. Z-14.
X35.27449 Y95.314 F4996.
X35.18168 Y95.72059
X34.79814 Y95.8844
G03 X33.5592 Y93.66314 I-0.16218 J-1.36569
X37.88947 Y94.10872 I2.04421 J1.39795
X32.0995 Y98.22674 I-3.43612 J1.29816
X36.23136 Y89.46846 I3.15894 J-3.86349
X37.49837 Y101.49417 I-1.17847 J6.20377
X28.74282 Y89.5472 I-2.92592 J-7.0375
X44.30069 Y97.62488 I6.88382 J5.76287
X24.17715 Y97.06132 I-9.99616 J-2.62458
X44.83708 Y87.49877 I11.44632 J-2.36939
X28.73851 Y107.22247 I-10.27336 J8.04655
X35.23654 Y79.91268 I6.41001 J-12.90278
X42.45935 Y109.6398 I-0.07764 J15.75989
X20.84477 Y84.22218 I-7.91984 J-15.16424
X53.71791 Y99.08551 I14.79586 J11.06043
X14.99418 Y99.58159 I-19.41714 J-4.06692
X52.22259 Y81.49054 I20.63095 J-4.89539
X24.53601 Y115.76732 I-17.65853 J14.05668
X35.4082 Y70.38875 I10.61885 J-21.44756
X45.41684 Y72.46625 I0.09022 J24.7132
X24.58316 Y117.53375 I-10.41684 J22.53375
X45.41684 Y72.46625 I10.41684 J-22.53375
G1 X44.41464 Y72.81351 Z-12.93934 F5000.
Z-12.33934
G0 Z3.175
(2 1/2 Axis Profiling)
(1/4in 6.35mm 2 Flute Carbide Router)
X41.1339 Y36.53055
G1 Z-14.25 F1249.
X41.09699 Y36.68294 Z-14.27765 F3747.
X40.97798 Y37.06624 Z-14.34842
X40.8349 Y37.44123 Z-14.41919
X40.66832 Y37.80639 Z-14.48996
X40.47891 Y38.16024 Z-14.56073
X40.26745 Y38.50137 Z-14.6315
X40.03477 Y38.82841 Z-14.70227
X39.78182 Y39.14003 Z-14.77304
X39.50962 Y39.43497 Z-14.84381
X39.21925 Y39.71206 Z-14.91458
X38.9119 Y39.97017 Z-14.98535
X38.5888 Y40.20828 Z-15.05612
X38.25124 Y40.42541 Z-15.12689
X37.9006 Y40.62069 Z-15.19766
X37.53827 Y40.79334 Z-15.26843
X37.16573 Y40.94266 Z-15.3392
X36.78446 Y41.06806 Z-15.40997
X36.39601 Y41.16902 Z-15.48074
X36.00193 Y41.24514 Z-15.55151
X35.60382 Y41.29611 Z-15.62228
X35.20328 Y41.32173 Z-15.69305
X34.80192 Y41.3219 Z-15.76382
X34.40136 Y41.29661 Z-15.83459
X34.00321 Y41.24596 Z-15.90536
X33.60908 Y41.17017 Z-15.97613
X33.22054 Y41.06953 Z-16.0469
X32.83917 Y40.94445 Z-16.11767
X32.4665 Y40.79543 Z-16.18845
X32.10403 Y40.62308 Z-16.25922
X31.75323 Y40.42808 Z-16.32999
X31.41549 Y40.21123 Z-16.40076
X31.09219 Y39.9734 Z-16.47153
X30.78463 Y39.71553 Z-16.5423
X30.49404 Y39.43868 Z-16.61307
X30.22159 Y39.14396 Z-16.68384
X29.96838 Y38.83255 Z-16.75461
X29.73544 Y38.50571 Z-16.82538
X29.52369 Y38.16476 Z-16.89615
X29.334 Y37.81106 Z-16.96692
X29.16712 Y37.44604 Z-17.03769
X29.02372 Y37.07117 Z-17.10846
X28.90439 Y36.68796 Z-17.17923
X28.80961 Y36.29795 Z-17.25
G03 X41.19039 Y33.70205 I6.19039 J-1.29795 F4996.
X28.80961 Y36.29795 I-6.19039 J1.29795
G1 X28.32025 Y36.40056
G03 X41.67975 Y33.59944 I6.67975 J-1.40056
X28.32025 Y36.40056 I-6.67975 J1.40056
X30.9115 Y32.4344 I3.27871 J-0.68746 F5000.
G1 X34.19021 Y31.74695
G0 Z3.175
X41.1339 Y36.53055
G1 Z-17.5 F1249.
X41.09699 Y36.68294 Z-17.52765 F3747.
X40.97798 Y37.06624 Z-17.59842
X40.8349 Y37.44123 Z-17.66919
X40.66832 Y37.80639 Z-17.73996
X40.47891 Y38.16024 Z-17.81073
X40.26745 Y38.50137 Z-17.8815
X40.03477 Y38.82841 Z-17.95227
X39.78182 Y39.14003 Z-18.02304
X39.50962 Y39.43497 Z-18.09381
X39.21925 Y39.71206 Z-18.16458
X38.9119 Y39.97017 Z-18.23535
X38.5888 Y40.20828 Z-18.30612
X38.25124 Y40.42541 Z-18.37689
X37.9006 Y40.62069 Z-18.44766
X37.53827 Y40.79334 Z-18.51843
X37.16573 Y40.94266 Z-18.5892
X36.78446 Y41.06806 Z-18.65997
X36.39601 Y41.16902 Z-18.73074
X36.00193 Y41.24514 Z-18.80151
X35.60382 Y41.29611 Z-18.87228
X35.20328 Y41.32173 Z-18.94305
X34.80192 Y41.3219 Z-19.01382
X34.40136 Y41.29661 Z-19.08459
X34.00321 Y41.24596 Z-19.15536
X33.60908 Y41.17017 Z-19.22613
X33.22054 Y41.06953 Z-19.29691
X32.83917 Y40.94445 Z-19.36767
X32.4665 Y40.79543 Z-19.43845
X32.10403 Y40.62308 Z-19.50922
X31.75323 Y40.42808 Z-19.57999
X31.41549 Y40.21123 Z-19.65076
X31.09219 Y39.9734 Z-19.72153
X30.78463 Y39.71553 Z-19.7923
X30.49404 Y39.43868 Z-19.86307
X30.22159 Y39.14396 Z-19.93384
X29.96838 Y38.83255 Z-20.00461
X29.73544 Y38.50571 Z-20.07538
X29.52369 Y38.16476 Z-20.14615
X29.334 Y37.81106 Z-20.21692
X29.16712 Y37.44604 Z-20.28769
X29.02372 Y37.07117 Z-20.35846
X28.90439 Y36.68796 Z-20.42923
X28.80961 Y36.29795 Z-20.5
G03 X41.19039 Y33.70205 I6.19039 J-1.29795 F4996.
X28.80961 Y36.29795 I-6.19039 J1.29795
G1 X28.32025 Y36.40056
G03 X41.67975 Y33.59944 I6.67975 J-1.40056
X28.32025 Y36.40056 I-6.67975 J1.40056
X30.9115 Y32.4344 I3.27871 J-0.68746 F5000.
G1 X34.19021 Y31.74695
G0 Z3.175
(2 1/2 Axis Profiling)
(1/4in 6.35mm 2 Flute Carbide Router)
X10.14718 Y203.675
G1 Z0.66667 F1249.
X29.99667 Z-2.83333 F3747.
X90. F4996.
G02 X93.675 Y200. I-0.00322 J-3.67822
G1 Y0.
G02 X90. Y-3.675 I-3.67822 J0.00322
G1 X0.
G02 X-3.675 Y0. I0.00322 J3.67822
G1 Y200.
G02 X0. Y203.675 I3.67822 J-0.00322
G1 X29.99667
Y203.175
X90.
G02 X93.175 Y200. I0. J-3.175
G1 Y0.
G02 X90. Y-3.175 I-3.175 J0.
G1 X0.
G02 X-3.175 Y0. I0. J3.175
G1 Y200.
G02 X0. Y203.175 I3.175 J0.
G1 X29.99667
G0 Z3.175
X10.14718 Y203.675
G1 Z-2.16667 F1249.
X29.99667 Z-5.66667 F3747.
X90. F4996.
G02 X93.675 Y200. I-0.00322 J-3.67822
G1 Y0.
G02 X90. Y-3.675 I-3.67822 J0.00322
G1 X0.
G02 X-3.675 Y0. I0.00322 J3.67822
G1 Y200.
G02 X0. Y203.675 I3.67822 J-0.00322
G1 X29.99667
Y203.175
X90.
G02 X93.175 Y200. I0. J-3.175
G1 Y0.
G02 X90. Y-3.175 I-3.175 J0.
G1 X0.
G02 X-3.175 Y0. I0. J3.175
G1 Y200.
G02 X0. Y203.175 I3.175 J0.
G1 X29.99667
G0 Z3.175
X10.14718 Y203.675
G1 Z-5. F1249.
X29.99667 Z-8.5 F3747.
X90. F4996.
G02 X93.675 Y200. I-0.00322 J-3.67822
G1 Y0.
G02 X90. Y-3.675 I-3.67822 J0.00322
G1 X0.
G02 X-3.675 Y0. I0.00322 J3.67822
G1 Y200.
G02 X0. Y203.675 I3.67822 J-0.00322
G1 X29.99667
Y203.175
X90.
G02 X93.175 Y200. I0. J-3.175
G1 Y0.
G02 X90. Y-3.175 I-3.175 J0.
G1 X0.
G02 X-3.175 Y0. I0. J3.175
G1 Y200.
G02 X0. Y203.175 I3.175 J0.
G1 X29.99667
G0 Z3.175
X10.14718 Y203.675
G1 Z-7.83333 F1249.
X29.99667 Z-11.33333 F3747.
X90. F4996.
G02 X93.675 Y200. I-0.00322 J-3.67822
G1 Y0.
G02 X90. Y-3.675 I-3.67822 J0.00322
G1 X0.
G02 X-3.675 Y0. I0.00322 J3.67822
G1 Y200.
G02 X0. Y203.675 I3.67822 J-0.00322
G1 X29.99667
Y203.175
X90.
G02 X93.175 Y200. I0. J-3.175
G1 Y0.
G02 X90. Y-3.175 I-3.175 J0.
G1 X0.
G02 X-3.175 Y0. I0. J3.175
G1 Y200.
G02 X0. Y203.175 I3.175 J0.
G1 X29.99667
G0 Z3.175
X10.14718 Y203.675
G1 Z-10.66667 F1249.
X29.99667 Z-14.16667 F3747.
X90. F4996.
G02 X93.675 Y200. I-0.00322 J-3.67822
G1 Y0.
G02 X90. Y-3.675 I-3.67822 J0.00322
G1 X0.
G02 X-3.675 Y0. I0.00322 J3.67822
G1 Y200.
G02 X0. Y203.675 I3.67822 J-0.00322
G1 X29.99667
Y203.175
X90.
G02 X93.175 Y200. I0. J-3.175
G1 Y0.
G02 X90. Y-3.175 I-3.175 J0.
G1 X0.
G02 X-3.175 Y0. I0. J3.175
G1 Y200.
G02 X0. Y203.175 I3.175 J0.
G1 X29.99667
G0 Z3.175
X10.14718 Y203.675
G1 Z-13.5 F1249.
X29.99667 Z-17. F3747.
X90. F4996.
G02 X93.675 Y200. I-0.00322 J-3.67822
G1 Y0.
G02 X90. Y-3.675 I-3.67822 J0.00322
G1 X0.
G02 X-3.675 Y0. I0.00322 J3.67822
G1 Y200.
G02 X0. Y203.675 I3.67822 J-0.00322
G1 X29.99667
Y203.175
X90.
G02 X93.175 Y200. I0. J-3.175
G1 Y0.
G02 X90. Y-3.175 I-3.175 J0.
G1 X0.
G02 X-3.175 Y0. I0. J3.175
G1 Y200.
G02 X0. Y203.175 I3.175 J0.
G1 X29.99667
G0 Z3.175
(2 1/2 Axis Profiling-2)
(1/4in 6.35mm 2 Flute Carbide Router)
X10.14718
G1 Z-17. F1249.
X29.99667 Z-20.5 F3747.
X90. F4000.
G02 X93.175 Y200. I0. J-3.175
G1 Y0.
G02 X90. Y-3.175 I-3.175 J0.
G1 X0.
G02 X-3.175 Y0. I0. J3.175
G1 Y200.
G02 X0. Y203.175 I3.175 J0.
G1 X29.99667
G0 Z3.175
M30
%
