%
G17 G21 G40 G90 G64 P0.1
(Standard Drill )
(1/8in Carbide Drill)
T13 M06
S16491 M3
G0 Z4.0875
X127.5 Y80.
G21 S16491 M3
G81 X127.5 Y80. Z-4.91654 R2.5 F600.0
X72.5Y80.
X72.5Y320.
X127.5Y320.
G80
G0 Z4.0875
(SlotDrill 1/8in 3.175mm Carbide Aluminium Cut)
T6 M06
S23960 M3
Z1.5875
X201.5875 Y273.87253
G1 Z-0.73 F575.
Y266.67 Z-2. F1725.
Y0. F2300.
G17
G02 X200. Y-1.5875 I-1.5875 J0.
G1 X0.
G02 X-1.5875 Y0. I0. J1.5875
G1 Y400.
G02 X0. Y401.5875 I1.5875 J0.
G1 X200.
G02 X201.5875 Y400. I0. J-1.5875
G1 Y266.67
Z-4.
Y0.
G02 X200. Y-1.5875 I-1.5875 J0.
G1 X0.
G02 X-1.5875 Y0. I0. J1.5875
G1 Y400.
G02 X0. Y401.5875 I1.5875 J0.
G1 X200.
G02 X201.5875 Y400. I0. J-1.5875
G1 Y266.67
G0 Z1.5875
M30
%
