%
G17 G21 G40 G90 G64 P0.1
(Standard Drill )
(1/8in Carbide Drill)
T13 M06
S16491 M3
G0 Z4.0875
X27.50006 Y119.99999
G21 S16491 M3
G81 X27.50006 Y119.99999 Z-4.91654 R2.5 F600.0
G80
G0 Z4.0875
(SlotDrill 1/8in 3.175mm Carbide Aluminium Cut)
T6 M06
S23960 M3
Z1.5875
X-1.58744 Y247.13152
G1 Z-0.73 F575.
Y254.33404 Z-2. F1725.
Y299.38404 F2300.
G17
G02 X-0.00039 Y300.97154 I1.5875 J0.
X6.87596 Y300.787 I0.03608 J-126.86403
X21.28278 Y299.12295 I-6.23233 J-117.1542
G1 X21.28284 Y299.12294
G02 X38.01958 Y294.72777 I-19.06826 J-106.67582
G1 X38.02028 Y294.72752
G02 X45.58234 Y291.74513 I-34.97422 J-99.75779
G1 X45.58333 Y291.74469
G02 X62.02103 Y282.73076 I-43.57901 J-98.96499
G1 X62.02126 Y282.73061
G02 X74.34341 Y273.27158 I-65.23963 J-97.74221
G1 X74.34352 Y273.27148
G02 X84.86251 Y262.93068 I-87.09834 J-99.1197
X94.17 Y251.64327 I-111.7066 J-101.59331
X102.71824 Y239.08873 I-140.49122 J-104.84637
G1 X102.7183 Y239.08864
G02 X110.83217 Y224.73157 I-175.38134 J-108.58779
X116.47028 Y212.9887 I-212.28308 J-109.14843
G1 X116.47039 Y212.98846
G02 X122.43957 Y198.53771 I-250.94843 J-112.1177
G1 X122.4396 Y198.53763
G02 X127.81966 Y183.21489 I-297.04495 J-112.90301
G1 X127.81978 Y183.21449
G02 X133.43371 Y164.04447 I-352.50943 J-113.63922
G1 X133.43372 Y164.04444
G02 X138.25827 Y143.79649 I-419.59372 J-110.67684
G1 X138.25829 Y143.7964
G02 X142.59111 Y120.8721 I-494.59859 J-105.35344
G1 X142.59112 Y120.87205
G02 X146.26392 Y95.12806 I-583.43279 J-96.37032
X148.95886 Y68.27481 I-679.88079 J-81.79337
G1 X148.95888 Y68.27465
G02 X150.86287 Y36.64728 I-786.15729 J-63.19822
G1 Y36.64717
G02 X151.58756 Y-0.00068 I-906.72634 J-36.26099
X150.00006 Y-1.58751 I-1.5875 J0.00067
G1 X0.00006
G02 X-1.58744 Y-0.00001 I0. J1.5875
G1 Y254.33404
Z-4.
Y299.38404
G02 X-0.00039 Y300.97154 I1.5875 J0.
X6.87596 Y300.787 I0.03608 J-126.86403
X21.28278 Y299.12295 I-6.23233 J-117.1542
G1 X21.28284 Y299.12294
G02 X38.01958 Y294.72777 I-19.06826 J-106.67582
G1 X38.02028 Y294.72752
G02 X45.58234 Y291.74513 I-34.97422 J-99.75779
G1 X45.58333 Y291.74469
G02 X62.02103 Y282.73076 I-43.57901 J-98.96499
G1 X62.02126 Y282.73061
G02 X74.34341 Y273.27158 I-65.23963 J-97.74221
G1 X74.34352 Y273.27148
G02 X84.86251 Y262.93068 I-87.09834 J-99.1197
X94.17 Y251.64327 I-111.7066 J-101.59331
X102.71824 Y239.08873 I-140.49122 J-104.84637
G1 X102.7183 Y239.08864
G02 X110.83217 Y224.73157 I-175.38134 J-108.58779
X116.47028 Y212.9887 I-212.28308 J-109.14843
G1 X116.47039 Y212.98846
G02 X122.43957 Y198.53771 I-250.94843 J-112.1177
G1 X122.4396 Y198.53763
G02 X127.81966 Y183.21489 I-297.04495 J-112.90301
G1 X127.81978 Y183.21449
G02 X133.43371 Y164.04447 I-352.50943 J-113.63922
G1 X133.43372 Y164.04444
G02 X138.25827 Y143.79649 I-419.59372 J-110.67684
G1 X138.25829 Y143.7964
G02 X142.59111 Y120.8721 I-494.59859 J-105.35344
G1 X142.59112 Y120.87205
G02 X146.26392 Y95.12806 I-583.43279 J-96.37032
X148.95886 Y68.27481 I-679.88079 J-81.79337
G1 X148.95888 Y68.27465
G02 X150.86287 Y36.64728 I-786.15729 J-63.19822
G1 Y36.64717
G02 X151.58756 Y-0.00068 I-906.72634 J-36.26099
X150.00006 Y-1.58751 I-1.5875 J0.00067
G1 X0.00006
G02 X-1.58744 Y-0.00001 I0. J1.5875
G1 Y254.33404
G0 Z1.5875
M30
%
