%
G17 G21 G40 G90 G64 P0.1
(Standard Drill )
(2mm Carbide Drill)
T16 M06
S24000 M3
G0 Z26.32735
X11.35551 Y25.84801
G21 S24000 M3
G81 X11.35551 Y25.84801 Z0.0 R15.32735 F350.0
X36.35551Y25.84801
X74.58488Y21.37223
G80
G0 Z26.32735
(SlotDrill 2mm Carbide)
T12 M06
S23873 M3
Z11.
X8.68394 Y9.03071
G1 Z3.2 F238.5
Z2.6 F715.5
X8.73417 Y8.99245 Z2.58887
X8.79222 Y8.95943 Z2.57709
X8.85416 Y8.93444 Z2.56531
X8.91888 Y8.91792 Z2.55353
X8.98522 Y8.91018 Z2.54176
X9.05201 Y8.91136 Z2.52998
X9.11804 Y8.92142 Z2.5182
X9.18214 Y8.94019 Z2.50643
X9.24316 Y8.96734 Z2.49465
X9.30002 Y9.00238 Z2.48287
X9.35171 Y9.04469 Z2.47109
X9.39729 Y9.09351 Z2.45932
X9.43596 Y9.14797 Z2.44754
X9.46703 Y9.2071 Z2.43576
X9.48994 Y9.26984 Z2.42398
X9.50428 Y9.33507 Z2.41221
X9.5098 Y9.40164 Z2.40043
X9.5064 Y9.46834 Z2.38865
X9.49413 Y9.534 Z2.37687
X9.47323 Y9.59744 Z2.3651
X9.44405 Y9.65752 Z2.35332
X9.40713 Y9.71318 Z2.34154
X9.36312 Y9.76342 Z2.32977
X9.31281 Y9.80735 Z2.31799
X9.25708 Y9.84418 Z2.30621
X9.19695 Y9.87325 Z2.29443
X9.13348 Y9.89405 Z2.28266
X9.0678 Y9.90621 Z2.27088
X9.00109 Y9.9095 Z2.2591
X8.93454 Y9.90387 Z2.24732
X8.86932 Y9.88942 Z2.23555
X8.80662 Y9.8664 Z2.22377
X8.74755 Y9.83524 Z2.21199
X8.69315 Y9.79648 Z2.20021
X8.64441 Y9.75081 Z2.18844
X8.60219 Y9.69906 Z2.17666
X8.56724 Y9.64214 Z2.16488
X8.54019 Y9.58107 Z2.1531
X8.52152 Y9.51693 Z2.14133
X8.51157 Y9.45089 Z2.12955
X8.51051 Y9.3841 Z2.11777
X8.51836 Y9.31777 Z2.106
X8.53498 Y9.25308 Z2.09422
X8.56008 Y9.19118 Z2.08244
X8.5932 Y9.13318 Z2.07066
X8.63376 Y9.08011 Z2.05889
X8.68103 Y9.03292 Z2.04711
X8.73417 Y8.99245 Z2.03533
X8.79222 Y8.95943 Z2.02355
X8.85416 Y8.93444 Z2.01178
X8.91888 Y8.91792 Z2.
G17
G03 X9.10084 Y9.90123 I0.09098 J0.49166 F954.
X8.91888 Y8.91792 I-0.09098 J-0.49165
G1 X8.8279 Y8.42627
G03 X9.19183 Y10.39288 I0.18196 J0.98331
X8.8279 Y8.42627 I-0.18197 J-0.9833
G1 X8.73692 Y7.93462
G03 X9.28281 Y10.88453 I0.27294 J1.47496
X8.73692 Y7.93462 I-0.27295 J-1.47495
G1 X8.64594 Y7.44296
G03 X9.37379 Y11.37619 I0.36392 J1.96662
X8.64594 Y7.44296 I-0.36393 J-1.96661
G0 Z11.
X8.91888 Y8.91792
G1 Z1. F238.5
G03 X9.10084 Y9.90123 I0.09098 J0.49166 F954.
X8.91888 Y8.91792 I-0.09098 J-0.49165
G1 X8.8279 Y8.42627
G03 X9.19183 Y10.39288 I0.18196 J0.98331
X8.8279 Y8.42627 I-0.18197 J-0.9833
G1 X8.73692 Y7.93462
G03 X9.28281 Y10.88453 I0.27294 J1.47496
X8.73692 Y7.93462 I-0.27295 J-1.47495
G1 X8.64594 Y7.44296
G03 X9.37379 Y11.37619 I0.36392 J1.96662
X8.64594 Y7.44296 I-0.36393 J-1.96661
G0 Z11.
X8.91888 Y8.91792
G1 Z0. F238.5
G03 X9.10084 Y9.90123 I0.09098 J0.49166 F954.
X8.91888 Y8.91792 I-0.09098 J-0.49165
G1 X8.8279 Y8.42627
G03 X9.19183 Y10.39288 I0.18196 J0.98331
X8.8279 Y8.42627 I-0.18197 J-0.9833
G1 X8.73692 Y7.93462
G03 X9.28281 Y10.88453 I0.27294 J1.47496
X8.73692 Y7.93462 I-0.27295 J-1.47495
G1 X8.64594 Y7.44296
G03 X9.37379 Y11.37619 I0.36392 J1.96662
X8.64594 Y7.44296 I-0.36393 J-1.96661
G1 X7.89594 Y8.19296 Z1.06066 F1431.
Z1.66066
G0 Z11.
(2 1/2 Axis Pocketing)
(SlotDrill 2mm Carbide)
X37.98725 Y26.01134
G1 Z10.2 F238.5
Z9.6 F715.5
X37.98648 Y26.01994 Z9.59848
X37.98058 Y26.0688 Z9.5898
X37.97323 Y26.11746 Z9.58112
X37.96441 Y26.16588 Z9.57244
X37.95415 Y26.21401 Z9.56377
X34.75688 Z9.
G03 Y25.48201 I1.59863 J-0.366 F954.
G1 X37.95415
G03 Y26.21401 I-1.59864 J0.366
G1 X34.75688
X34.26949 Y26.32559
G03 X34.39857 Y24.98201 I2.08602 J-0.47758
G1 X38.31246
G03 Y26.71401 I-1.95695 J0.866
G1 X34.39857
G03 X34.26949 Y26.32559 I1.95694 J-0.866
G1 X33.7821 Y26.43718
G03 X34.09639 Y24.48201 I2.57341 J-0.58917
G1 X38.61464
G03 Y27.21401 I-2.25913 J1.366
G1 X34.09639
G03 X33.7821 Y26.43718 I2.25912 J-1.366
G0 Z11.
X34.75688 Y26.21401
G1 Z8. F238.5
G03 Y25.48201 I1.59863 J-0.366 F954.
G1 X37.95415
G03 Y26.21401 I-1.59864 J0.366
G1 X34.75688
X34.26949 Y26.32559
G03 X34.39857 Y24.98201 I2.08602 J-0.47758
G1 X38.31246
G03 Y26.71401 I-1.95695 J0.866
G1 X34.39857
G03 X34.26949 Y26.32559 I1.95694 J-0.866
G1 X33.7821 Y26.43718
G03 X34.09639 Y24.48201 I2.57341 J-0.58917
G1 X38.61464
G03 Y27.21401 I-2.25913 J1.366
G1 X34.09639
G03 X33.7821 Y26.43718 I2.25912 J-1.366
G0 Z11.
X34.75688 Y26.21401
G1 Z7. F238.5
G03 Y25.48201 I1.59863 J-0.366 F954.
G1 X37.95415
G03 Y26.21401 I-1.59864 J0.366
G1 X34.75688
X34.26949 Y26.32559
G03 X34.39857 Y24.98201 I2.08602 J-0.47758
G1 X38.31246
G03 Y26.71401 I-1.95695 J0.866
G1 X34.39857
G03 X34.26949 Y26.32559 I1.95694 J-0.866
G1 X33.7821 Y26.43718
G03 X34.09639 Y24.48201 I2.57341 J-0.58917
G1 X38.61464
G03 Y27.21401 I-2.25913 J1.366
G1 X34.09639
G03 X33.7821 Y26.43718 I2.25912 J-1.366
G0 Z11.
X34.75688 Y26.21401
G1 Z6. F238.5
G03 Y25.48201 I1.59863 J-0.366 F954.
G1 X37.95415
G03 Y26.21401 I-1.59864 J0.366
G1 X34.75688
X34.26949 Y26.32559
G03 X34.39857 Y24.98201 I2.08602 J-0.47758
G1 X38.31246
G03 Y26.71401 I-1.95695 J0.866
G1 X34.39857
G03 X34.26949 Y26.32559 I1.95694 J-0.866
G1 X33.7821 Y26.43718
G03 X34.09639 Y24.48201 I2.57341 J-0.58917
G1 X38.61464
G03 Y27.21401 I-2.25913 J1.366
G1 X34.09639
G03 X33.7821 Y26.43718 I2.25912 J-1.366
G0 Z11.
X34.75688 Y26.21401
G1 Z5. F238.5
G03 Y25.48201 I1.59863 J-0.366 F954.
G1 X37.95415
G03 Y26.21401 I-1.59864 J0.366
G1 X34.75688
X34.26949 Y26.32559
G03 X34.39857 Y24.98201 I2.08602 J-0.47758
G1 X38.31246
G03 Y26.71401 I-1.95695 J0.866
G1 X34.39857
G03 X34.26949 Y26.32559 I1.95694 J-0.866
G1 X33.7821 Y26.43718
G03 X34.09639 Y24.48201 I2.57341 J-0.58917
G1 X38.61464
G03 Y27.21401 I-2.25913 J1.366
G1 X34.09639
G03 X33.7821 Y26.43718 I2.25912 J-1.366
G0 Z11.
X34.75688 Y26.21401
G1 Z4. F238.5
G03 Y25.48201 I1.59863 J-0.366 F954.
G1 X37.95415
G03 Y26.21401 I-1.59864 J0.366
G1 X34.75688
X34.26949 Y26.32559
G03 X34.39857 Y24.98201 I2.08602 J-0.47758
G1 X38.31246
G03 Y26.71401 I-1.95695 J0.866
G1 X34.39857
G03 X34.26949 Y26.32559 I1.95694 J-0.866
G1 X33.7821 Y26.43718
G03 X34.09639 Y24.48201 I2.57341 J-0.58917
G1 X38.61464
G03 Y27.21401 I-2.25913 J1.366
G1 X34.09639
G03 X33.7821 Y26.43718 I2.25912 J-1.366
G0 Z11.
X34.75688 Y26.21401
G1 Z3. F238.5
G03 Y25.48201 I1.59863 J-0.366 F954.
G1 X37.95415
G03 Y26.21401 I-1.59864 J0.366
G1 X34.75688
X34.26949 Y26.32559
G03 X34.39857 Y24.98201 I2.08602 J-0.47758
G1 X38.31246
G03 Y26.71401 I-1.95695 J0.866
G1 X34.39857
G03 X34.26949 Y26.32559 I1.95694 J-0.866
G1 X33.7821 Y26.43718
G03 X34.09639 Y24.48201 I2.57341 J-0.58917
G1 X38.61464
G03 Y27.21401 I-2.25913 J1.366
G1 X34.09639
G03 X33.7821 Y26.43718 I2.25912 J-1.366
G0 Z11.
X34.75688 Y26.21401
G1 Z2. F238.5
G03 Y25.48201 I1.59863 J-0.366 F954.
G1 X37.95415
G03 Y26.21401 I-1.59864 J0.366
G1 X34.75688
X34.26949 Y26.32559
G03 X34.39857 Y24.98201 I2.08602 J-0.47758
G1 X38.31246
G03 Y26.71401 I-1.95695 J0.866
G1 X34.39857
G03 X34.26949 Y26.32559 I1.95694 J-0.866
G1 X33.7821 Y26.43718
G03 X34.09639 Y24.48201 I2.57341 J-0.58917
G1 X38.61464
G03 Y27.21401 I-2.25913 J1.366
G1 X34.09639
G03 X33.7821 Y26.43718 I2.25912 J-1.366
G1 X34.80379 Y26.15231 Z3.06066 F1431.
Z3.66066
G0 Z11.
(2 1/2 Axis Pocketing)
(SlotDrill 2mm Carbide)
X73.93488 Y20.69023
G1 Z9.2 F238.5
Z8.6 F715.5
Y22.19685 Z8.33434
X73.85953 Y22.13142 Z8.31674
X73.79073 Y22.05912 Z8.29915
X73.72911 Y21.98063 Z8.28155
X73.67521 Y21.89663 Z8.26395
X73.62954 Y21.8079 Z8.24636
X73.59249 Y21.71524 Z8.22876
X73.56441 Y21.61947 Z8.21116
X73.54554 Y21.52147 Z8.19357
X73.53607 Y21.42213 Z8.17597
Y21.32233 Z8.15837
X73.54554 Y21.22298 Z8.14077
X73.56441 Y21.12499 Z8.12318
X73.59249 Y21.02922 Z8.10558
X73.62954 Y20.93655 Z8.08798
X73.67521 Y20.84782 Z8.07039
X73.72911 Y20.76383 Z8.05279
X73.79073 Y20.68533 Z8.03519
X73.85953 Y20.61304 Z8.0176
X73.93488 Y20.54761 Z8.
Y22.19685 F954.
G03 Y20.54761 I0.65 J-0.82462
G1 X74.43488
Y22.91495
G03 X74.19965 Y22.87359 I0.15 J-1.54272
X74.43488 Y19.8295 I0.38523 J-1.50136
G1 Y20.54761
X74.93488
Y23.39213
G03 X74.07538 Y23.3579 I-0.35 J-2.0199
X74.93488 Y19.35233 I0.5095 J-1.98567
G1 Y20.54761
X75.43488
Y23.77639
G03 X73.95111 Y23.84222 I-0.85 J-2.40416
X75.43488 Y18.96807 I0.63377 J-2.46999
G1 Y20.54761
G0 Z11.
X73.93488
G1 Z7. F238.5
Y22.19685 F954.
G03 Y20.54761 I0.65 J-0.82462
G1 X74.43488
Y22.91495
G03 X74.19965 Y22.87359 I0.15 J-1.54272
X74.43488 Y19.8295 I0.38523 J-1.50136
G1 Y20.54761
X74.93488
Y23.39213
G03 X74.07538 Y23.3579 I-0.35 J-2.0199
X74.93488 Y19.35233 I0.5095 J-1.98567
G1 Y20.54761
X75.43488
Y23.77639
G03 X73.95111 Y23.84222 I-0.85 J-2.40416
X75.43488 Y18.96807 I0.63377 J-2.46999
G1 Y20.54761
G0 Z11.
X73.93488
G1 Z6. F238.5
Y22.19685 F954.
G03 Y20.54761 I0.65 J-0.82462
G1 X74.43488
Y22.91495
G03 X74.19965 Y22.87359 I0.15 J-1.54272
X74.43488 Y19.8295 I0.38523 J-1.50136
G1 Y20.54761
X74.93488
Y23.39213
G03 X74.07538 Y23.3579 I-0.35 J-2.0199
X74.93488 Y19.35233 I0.5095 J-1.98567
G1 Y20.54761
X75.43488
Y23.77639
G03 X73.95111 Y23.84222 I-0.85 J-2.40416
X75.43488 Y18.96807 I0.63377 J-2.46999
G1 Y20.54761
G0 Z11.
X73.93488
G1 Z5. F238.5
Y22.19685 F954.
G03 Y20.54761 I0.65 J-0.82462
G1 X74.43488
Y22.91495
G03 X74.19965 Y22.87359 I0.15 J-1.54272
X74.43488 Y19.8295 I0.38523 J-1.50136
G1 Y20.54761
X74.93488
Y23.39213
G03 X74.07538 Y23.3579 I-0.35 J-2.0199
X74.93488 Y19.35233 I0.5095 J-1.98567
G1 Y20.54761
X75.43488
Y23.77639
G03 X73.95111 Y23.84222 I-0.85 J-2.40416
X75.43488 Y18.96807 I0.63377 J-2.46999
G1 Y20.54761
G0 Z11.
X73.93488
G1 Z4. F238.5
Y22.19685 F954.
G03 Y20.54761 I0.65 J-0.82462
G1 X74.43488
Y22.91495
G03 X74.19965 Y22.87359 I0.15 J-1.54272
X74.43488 Y19.8295 I0.38523 J-1.50136
G1 Y20.54761
X74.93488
Y23.39213
G03 X74.07538 Y23.3579 I-0.35 J-2.0199
X74.93488 Y19.35233 I0.5095 J-1.98567
G1 Y20.54761
X75.43488
Y23.77639
G03 X73.95111 Y23.84222 I-0.85 J-2.40416
X75.43488 Y18.96807 I0.63377 J-2.46999
G1 Y20.54761
G0 Z11.
X73.93488
G1 Z3. F238.5
Y22.19685 F954.
G03 Y20.54761 I0.65 J-0.82462
G1 X74.43488
Y22.91495
G03 X74.19965 Y22.87359 I0.15 J-1.54272
X74.43488 Y19.8295 I0.38523 J-1.50136
G1 Y20.54761
X74.93488
Y23.39213
G03 X74.07538 Y23.3579 I-0.35 J-2.0199
X74.93488 Y19.35233 I0.5095 J-1.98567
G1 Y20.54761
X75.43488
Y23.77639
G03 X73.95111 Y23.84222 I-0.85 J-2.40416
X75.43488 Y18.96807 I0.63377 J-2.46999
G1 Y20.54761
G0 Z11.
X73.93488
G1 Z2. F238.5
Y22.19685 F954.
G03 Y20.54761 I0.65 J-0.82462
G1 X74.43488
Y22.91495
G03 X74.19965 Y22.87359 I0.15 J-1.54272
X74.43488 Y19.8295 I0.38523 J-1.50136
G1 Y20.54761
X74.93488
Y23.39213
G03 X74.07538 Y23.3579 I-0.35 J-2.0199
X74.93488 Y19.35233 I0.5095 J-1.98567
G1 Y20.54761
X75.43488
Y23.77639
G03 X73.95111 Y23.84222 I-0.85 J-2.40416
X75.43488 Y18.96807 I0.63377 J-2.46999
G1 Y20.54761
X74.37422 Z3.06066 F1431.
Z3.66066
G0 Z11.
(2 1/2 Axis Profiling)
(SlotDrill 2mm Carbide)
X34.9726 Y33.32113
G1 Z8. F238.5
G02 X37.73843 Y18.37489 I1.38291 J-7.47312 F954.
X34.9726 Y33.32113 I-1.38292 J7.47312
G1 X35.01809 Y33.0753
G02 X37.69294 Y18.62071 I1.33742 J-7.22729
X35.01809 Y33.0753 I-1.33743 J7.2273
G0 Z11.
X34.9726 Y33.32113
G1 Z6. F238.5
G02 X37.73843 Y18.37489 I1.38291 J-7.47312 F954.
X34.9726 Y33.32113 I-1.38292 J7.47312
G1 X35.01809 Y33.0753
G02 X37.69294 Y18.62071 I1.33742 J-7.22729
X35.01809 Y33.0753 I-1.33743 J7.2273
G0 Z11.
X34.9726 Y33.32113
G1 Z4. F238.5
G02 X37.73843 Y18.37489 I1.38291 J-7.47312 F954.
X34.9726 Y33.32113 I-1.38292 J7.47312
G1 X35.01809 Y33.0753
G02 X37.69294 Y18.62071 I1.33742 J-7.22729
X35.01809 Y33.0753 I-1.33743 J7.2273
G0 Z11.
(2 1/2 Axis Profiling-4)
(SlotDrill 2mm Carbide)
X12.77798 Y21.85198
G1 Z5.75 F238.5
G02 X9.92967 Y29.85492 I-1.42416 J4.00147 F954.
X12.77798 Y21.85198 I1.42415 J-4.00147
G1 X12.69415 Y22.08751
G02 X10.0135 Y29.6194 I-1.34033 J3.76594
X12.69415 Y22.08751 I1.34032 J-3.76595
G0 Z11.
X12.77798 Y21.85198
G1 Z4. F238.5
G02 X9.92967 Y29.85492 I-1.42416 J4.00147 F954.
X12.77798 Y21.85198 I1.42415 J-4.00147
G1 X12.69415 Y22.08751
G02 X10.0135 Y29.6194 I-1.34033 J3.76594
X12.69415 Y22.08751 I1.34032 J-3.76595
G0 Z11.
(2 1/2 Axis Profiling)
(SlotDrill 2mm Carbide)
X36.70223 Y33.18591
G1 Z3.5 F238.5
G02 X32.11004 Y19.84801 I-0.3459 J-7.34039 F954.
G1 X11.35551
G02 Y31.84801 I0. J6.
G1 X32.10964
G02 X36.70223 Y33.18591 I4.22915 J-5.96595
G1 Z3.
G02 X32.11004 Y19.84801 I-0.3459 J-7.34039
G1 X11.35551
G02 Y31.84801 I0. J6.
G1 X32.10964
G02 X36.70223 Y33.18591 I4.22915 J-5.96595
G1 Z2.5
G02 X32.11004 Y19.84801 I-0.3459 J-7.34039
G1 X11.35551
G02 Y31.84801 I0. J6.
G1 X32.10964
G02 X36.70223 Y33.18591 I4.22915 J-5.96595
G1 Z2.
G02 X32.11004 Y19.84801 I-0.3459 J-7.34039
G1 X11.35551
G02 Y31.84801 I0. J6.
G1 X32.10964
G02 X36.70223 Y33.18591 I4.22915 J-5.96595
G1 Z1.5
G02 X32.11004 Y19.84801 I-0.3459 J-7.34039
G1 X11.35551
G02 Y31.84801 I0. J6.
G1 X32.10964
G02 X36.70223 Y33.18591 I4.22915 J-5.96595
G1 Z1.
G02 X32.11004 Y19.84801 I-0.3459 J-7.34039
G1 X11.35551
G02 Y31.84801 I0. J6.
G1 X32.10964
G02 X36.70223 Y33.18591 I4.22915 J-5.96595
G1 Z0.5
G02 X32.11004 Y19.84801 I-0.3459 J-7.34039
G1 X11.35551
G02 Y31.84801 I0. J6.
G1 X32.10964
G02 X36.70223 Y33.18591 I4.22915 J-5.96595
G1 Z0.
G02 X32.11004 Y19.84801 I-0.3459 J-7.34039
G1 X11.35551
G02 Y31.84801 I0. J6.
G1 X32.10964
G02 X36.70223 Y33.18591 I4.22915 J-5.96595
G0 Z11.
(2 1/2 Axis Profiling)
(SlotDrill 2mm Carbide)
X59.00986 Y3.40958
G1 Z3.5 F238.5
X9.00986 F954.
G02 Y15.40958 I0. J6.
G1 X59.0938 Y15.40605
X60.09578 Y15.3075
X60.90867 Y15.09809
G02 X61.56552 Y13.70709 I-0.24946 J-0.96838
G1 X60.28141 Y10.95332
G02 X59.19248 Y10.39276 I-0.9063 J0.42262
G03 X59.99621 Y9.24492 I-0.18262 J-0.98318
G02 X60.89541 Y10.07645 I0.98635 J-0.16467
G1 X63.92229 Y10.34127
G02 X65.00936 Y9.33217 I0.08716 J-0.9962
X59.00986 Y3.40958 I-5.9995 J0.07741
G1 Z3.
X9.00986
G02 Y15.40958 I0. J6.
G1 X59.0938 Y15.40605
X60.09578 Y15.3075
X60.90867 Y15.09809
G02 X61.56552 Y13.70709 I-0.24946 J-0.96838
G1 X60.28141 Y10.95332
G02 X59.19248 Y10.39276 I-0.9063 J0.42262
G03 X59.99621 Y9.24492 I-0.18262 J-0.98318
G02 X60.89541 Y10.07645 I0.98635 J-0.16467
G1 X63.92229 Y10.34127
G02 X65.00936 Y9.33217 I0.08716 J-0.9962
X59.00986 Y3.40958 I-5.9995 J0.07741
G1 Z2.5
X9.00986
G02 Y15.40958 I0. J6.
G1 X59.0938 Y15.40605
X60.09578 Y15.3075
X60.90867 Y15.09809
G02 X61.56552 Y13.70709 I-0.24946 J-0.96838
G1 X60.28141 Y10.95332
G02 X59.19248 Y10.39276 I-0.9063 J0.42262
G03 X59.99621 Y9.24492 I-0.18262 J-0.98318
G02 X60.89541 Y10.07645 I0.98635 J-0.16467
G1 X63.92229 Y10.34127
G02 X65.00936 Y9.33217 I0.08716 J-0.9962
X59.00986 Y3.40958 I-5.9995 J0.07741
G1 Z2.
X9.00986
G02 Y15.40958 I0. J6.
G1 X59.0938 Y15.40605
X60.09578 Y15.3075
X60.90867 Y15.09809
G02 X61.56552 Y13.70709 I-0.24946 J-0.96838
G1 X60.28141 Y10.95332
G02 X59.19248 Y10.39276 I-0.9063 J0.42262
G03 X59.99621 Y9.24492 I-0.18262 J-0.98318
G02 X60.89541 Y10.07645 I0.98635 J-0.16467
G1 X63.92229 Y10.34127
G02 X65.00936 Y9.33217 I0.08716 J-0.9962
X59.00986 Y3.40958 I-5.9995 J0.07741
G1 Z1.5
X9.00986
G02 Y15.40958 I0. J6.
G1 X59.0938 Y15.40605
X60.09578 Y15.3075
X60.90867 Y15.09809
G02 X61.56552 Y13.70709 I-0.24946 J-0.96838
G1 X60.28141 Y10.95332
G02 X59.19248 Y10.39276 I-0.9063 J0.42262
G03 X59.99621 Y9.24492 I-0.18262 J-0.98318
G02 X60.89541 Y10.07645 I0.98635 J-0.16467
G1 X63.92229 Y10.34127
G02 X65.00936 Y9.33217 I0.08716 J-0.9962
X59.00986 Y3.40958 I-5.9995 J0.07741
G1 Z1.
X9.00986
G02 Y15.40958 I0. J6.
G1 X59.0938 Y15.40605
X60.09578 Y15.3075
X60.90867 Y15.09809
G02 X61.56552 Y13.70709 I-0.24946 J-0.96838
G1 X60.28141 Y10.95332
G02 X59.19248 Y10.39276 I-0.9063 J0.42262
G03 X59.99621 Y9.24492 I-0.18262 J-0.98318
G02 X60.89541 Y10.07645 I0.98635 J-0.16467
G1 X63.92229 Y10.34127
G02 X65.00936 Y9.33217 I0.08716 J-0.9962
X59.00986 Y3.40958 I-5.9995 J0.07741
G1 Z0.5
X9.00986
G02 Y15.40958 I0. J6.
G1 X59.0938 Y15.40605
X60.09578 Y15.3075
X60.90867 Y15.09809
G02 X61.56552 Y13.70709 I-0.24946 J-0.96838
G1 X60.28141 Y10.95332
G02 X59.19248 Y10.39276 I-0.9063 J0.42262
G03 X59.99621 Y9.24492 I-0.18262 J-0.98318
G02 X60.89541 Y10.07645 I0.98635 J-0.16467
G1 X63.92229 Y10.34127
G02 X65.00936 Y9.33217 I0.08716 J-0.9962
X59.00986 Y3.40958 I-5.9995 J0.07741
G1 Z0.
X9.00986
G02 Y15.40958 I0. J6.
G1 X59.0938 Y15.40605
X60.09578 Y15.3075
X60.90867 Y15.09809
G02 X61.56552 Y13.70709 I-0.24946 J-0.96838
G1 X60.28141 Y10.95332
G02 X59.19248 Y10.39276 I-0.9063 J0.42262
G03 X59.99621 Y9.24492 I-0.18262 J-0.98318
G02 X60.89541 Y10.07645 I0.98635 J-0.16467
G1 X63.92229 Y10.34127
G02 X65.00936 Y9.33217 I0.08716 J-0.9962
X59.00986 Y3.40958 I-5.9995 J0.07741
G0 Z11.
(2 1/2 Axis Profiling)
(SlotDrill 2mm Carbide)
X83.79183 Y27.39154
G1 Z0.5 F238.5
G02 X65.37793 Y15.35292 I-9.20695 J-6.01931 F954.
X83.79183 Y27.39154 I9.20695 J6.01931
G1 Z0.
G02 X65.37793 Y15.35292 I-9.20695 J-6.01931
X83.79183 Y27.39154 I9.20695 J6.01931
G0 Z11.
M30
%
