%
G17 G21 G40 G90 G64 P0.1
(Horizontal Roughing)
(SlotDrill 2mm Carbide)
T12 M06
S23873 M3
G0 Z11.635
X25.42792 Y24.00259
G1 Z11. F715.5
X23.5 Z10.66005 F715.5
Y23.49996 Z10.57143
X64.22826 F954.
Y24.00259
X23.5
Y23.49996
G17
G02 X23.375 Y23.37496 I-0.125 J0.
G03 X23.25 Y23.24996 I0. J-0.125
X23.5 Y22.99996 I0.25 J0.
G1 X64.72826
Y24.50259
X23.
Y22.99996
X23.5
G02 Y22.74996 I0. J-0.125
G03 Y22.49996 I0. J-0.125
G1 X65.22826
Y25.00259
X22.5
Y22.49996
X23.5
G02 Y22.24996 I0. J-0.125
G03 Y21.99996 I0. J-0.125
G1 X65.72826
Y25.50259
X22.
Y21.99996
X23.5
G02 Y21.74996 I0. J-0.125
G03 Y21.49996 I0. J-0.125
G1 X66.22826
Y26.00259
X21.5
Y21.49996
X23.5
G02 Y21.24996 I0. J-0.125
G03 Y20.99996 I0. J-0.125
G1 X66.72826
Y26.50259
X21.
Y20.99996
X23.5
G02 Y20.74996 I0. J-0.125
G03 Y20.49996 I0. J-0.125
G1 X67.22826
Y27.00259
X20.5
Y20.49996
X23.5
G02 Y20.24996 I0. J-0.125
G03 Y19.99996 I0. J-0.125
G1 X67.72826
Y27.50259
X20.
Y19.99996
X23.5
G02 Y19.74996 I0. J-0.125
G03 Y19.49996 I0. J-0.125
G1 X68.22826
Y28.00259
X19.5
Y19.49996
X23.5
G02 Y19.24996 I0. J-0.125
G03 Y18.99996 I0. J-0.125
G1 X68.72826
Y28.50259
X19.
Y18.99996
X23.5
G02 Y18.74996 I0. J-0.125
G03 Y18.49996 I0. J-0.125
G1 X69.22826
Y29.00259
X18.5
Y18.49996
X23.5
G02 Y18.24996 I0. J-0.125
G03 Y17.99996 I0. J-0.125
G1 X69.72826
Y29.50259
X18.
Y17.99996
X23.5
G02 Y17.74996 I0. J-0.125
G03 Y17.49996 I0. J-0.125
G1 X70.22826
Y30.00259
X17.5
Y17.49996
X23.5
G02 Y17.24996 I0. J-0.125
G03 Y16.99996 I0. J-0.125
G1 X70.72826
Y30.50259
X17.
Y16.99996
X23.5
G02 Y16.74996 I0. J-0.125
G03 Y16.49996 I0. J-0.125
G1 X71.22826
Y31.00259
X16.5
Y16.49996
X23.5
G02 Y16.24996 I0. J-0.125
G03 Y15.99996 I0. J-0.125
G1 X71.72826
Y31.50259
X16.
Y15.99996
X23.5
G02 Y15.74996 I0. J-0.125
G03 Y15.49996 I0. J-0.125
G1 X72.22826
Y32.00259
X15.5
Y15.49996
X23.5
G02 Y15.24996 I0. J-0.125
G03 Y14.99996 I0. J-0.125
G1 X72.72826
Y32.50259
X15.
Y14.99996
X23.5
G02 Y14.74996 I0. J-0.125
G03 Y14.49996 I0. J-0.125
G1 X73.22826
Y33.00259
X14.5
Y14.49996
X23.5
G02 Y14.24996 I0. J-0.125
G03 Y13.99996 I0. J-0.125
G1 X73.72826
Y33.50259
X14.
Y13.99996
X23.5
G02 Y13.74996 I0. J-0.125
G03 Y13.49996 I0. J-0.125
G1 X74.22826
Y34.00259
X13.5
Y13.49996
X23.5
G02 Y13.24996 I0. J-0.125
G03 Y12.99996 I0. J-0.125
G1 X74.72826
Y34.50259
X13.
Y12.99996
X23.5
G02 Y12.74996 I0. J-0.125
G03 Y12.49996 I0. J-0.125
G1 X75.22826
Y35.00259
X12.5
Y12.49996
X23.5
G02 Y12.24996 I0. J-0.125
G03 Y11.99996 I0. J-0.125
G1 X75.72826
Y35.50259
X12.
Y11.99996
X23.5
G02 Y11.74996 I0. J-0.125
G03 Y11.49996 I0. J-0.125
G1 X76.22826
Y36.00259
X11.5
Y11.49996
X23.5
G02 Y11.24996 I0. J-0.125
G03 Y10.99996 I0. J-0.125
G1 X76.72826
Y36.50259
X11.
Y10.99996
X23.5
G02 Y10.74996 I0. J-0.125
G03 Y10.49996 I0. J-0.125
G1 X77.22826
Y37.00259
X10.5
Y10.49996
X23.5
G02 Y10.24996 I0. J-0.125
G03 Y9.99996 I0. J-0.125
G1 X77.72826
Y37.50259
X10.
Y9.99996
X23.5
G02 Y9.74996 I0. J-0.125
G03 Y9.49996 I0. J-0.125
G1 X78.22826
Y38.00259
X9.5
Y9.49996
X23.5
G02 Y9.24996 I0. J-0.125
G03 Y8.99996 I0. J-0.125
G1 X78.72826
Y38.50259
X9.
Y8.99996
X23.5
G02 Y8.74996 I0. J-0.125
G03 Y8.49996 I0. J-0.125
G1 X79.22826
Y39.00259
X8.5
Y8.49996
X23.5
G02 Y8.24996 I0. J-0.125
G03 Y7.99996 I0. J-0.125
G1 X79.72826
Y39.50259
X8.
Y7.99996
X23.5
G02 Y7.74996 I0. J-0.125
G03 Y7.49996 I0. J-0.125
G1 X80.22826
Y40.00259
X7.5
Y7.49996
X23.5
G02 Y7.24996 I0. J-0.125
G03 Y6.99996 I0. J-0.125
G1 X80.72826
Y40.50259
X7.
Y6.99996
X23.5
G02 Y6.74996 I0. J-0.125
G03 Y6.49996 I0. J-0.125
G1 X81.22826
Y41.00259
X6.5
Y6.49996
X23.5
G02 Y6.24996 I0. J-0.125
G03 Y5.99996 I0. J-0.125
G1 X81.72826
Y41.50259
X6.
Y5.99996
X23.5
G02 Y5.74996 I0. J-0.125
G03 Y5.49996 I0. J-0.125
G1 X82.22826
Y42.00259
X5.5
Y5.49996
X23.5
G02 Y5.24996 I0. J-0.125
G03 Y4.99996 I0. J-0.125
G1 X82.72826
Y42.50259
X5.
Y4.99996
X23.5
G02 Y4.74996 I0. J-0.125
G03 Y4.49996 I0. J-0.125
G1 X83.22826
Y43.00259
X4.5
Y4.49996
X23.5
G02 Y4.24996 I0. J-0.125
G03 Y3.99996 I0. J-0.125
G1 X83.72826
Y43.50259
X4.
Y3.99996
X23.5
G02 Y3.74996 I0. J-0.125
G03 Y3.49996 I0. J-0.125
G1 X84.22826
Y44.00259
X3.5
Y3.49996
X23.5
G02 Y3.24996 I0. J-0.125
G03 Y2.99996 I0. J-0.125
G1 X84.72826
Y44.50259
X3.
Y2.99996
X23.5
G02 Y2.74996 I0. J-0.125
G03 Y2.49996 I0. J-0.125
G1 X85.22826
Y45.00259
X2.5
Y2.49996
X23.5
G02 Y2.24996 I0. J-0.125
G03 Y1.99996 I0. J-0.125
G1 X85.72826
Y45.50259
X2.
Y1.99996
X23.5
G02 Y1.74996 I0. J-0.125
G03 Y1.49996 I0. J-0.125
G1 X86.22826
Y46.00259
X1.5
Y1.49996
X23.5
G02 Y1.24996 I0. J-0.125
G03 Y0.99996 I0. J-0.125
G1 X86.72826
Y46.50259
X1.
Y0.99996
X23.5
G02 Y0.74996 I0. J-0.125
G03 Y0.49996 I0. J-0.125
G1 X87.22826
Y47.00259
X0.5
Y0.49996
X23.5
G02 Y0.24996 I0. J-0.125
G03 Y-0.00004 I0. J-0.125
G1 X87.72826
Y47.50259
X0.
Y-0.00004
X23.5
Z11.20643 F1431.
G0
X62.82384 Y24.25259
G1 Z11.04786 F238.5
Z10.41286 F715.5
X62.59211 Z10.372 F715.5
X62.36267 Y24.10188 Z10.32359
X62.14514 Y23.59926 Z10.22702
X62.25986 Y23.42461 Z10.19018
X62.37458 Y23.24996 Z10.15333
X64.22826 Z9.82648
X64.47826 Y23.49996 Z9.76414
Y24.00259 Z9.67551
X64.22826 Y24.25259 Z9.61317
X62.59211 Z9.32467
X62.36267 Y24.10188 Z9.27627
X62.14514 Y23.59926 Z9.1797
X62.25986 Y23.42461 Z9.14286
X62.37458 Y23.49996
X64.22826 F954.
Y24.00259
X62.59211
X62.37458 Y23.49996
G03 Y22.99996 I0. J-0.25
G1 X64.72826
Y24.50259
X62.26369
X61.61336 Y22.99996
X62.37458
G02 Y22.74996 I0. J-0.125
G03 Y22.49996 I0. J-0.125
G1 X65.22826
Y25.00259
X61.93526
X60.85215 Y22.49996
X62.37458
G02 Y22.24996 I0. J-0.125
G03 Y21.99996 I0. J-0.125
G1 X65.72826
Y25.50259
X61.60684
X60.09093 Y21.99996
X62.37458
G02 Y21.74996 I0. J-0.125
G03 Y21.49996 I0. J-0.125
G1 X66.22826
Y26.00259
X61.26693
X59.95507 Y22.68623
X59.14217 Y21.49996
X62.37458
G02 Y21.24996 I0. J-0.125
G03 Y20.99996 I0. J-0.125
G1 X66.72826
Y26.50259
X60.92569
X59.54262 Y22.96887
X58.1934 Y20.99996
X62.37458
G02 Y20.74996 I0. J-0.125
G03 Y20.49996 I0. J-0.125
G1 X67.22826
Y27.00259
X60.58317
X59.13017 Y23.25151
X57.24463 Y20.49996
X62.37458
G02 Y20.24996 I0. J-0.125
G03 Y19.99996 I0. J-0.125
G1 X67.72826
Y27.50259
X60.23939
X58.71772 Y23.53414
X56.29587 Y19.99996
X62.37458
G02 Y19.74996 I0. J-0.125
G03 Y19.49996 I0. J-0.125
G1 X68.22826
Y28.00259
X59.89452
X58.30198 Y23.81191
X56.09335 Y20.50617
X55.09774 Y19.49996
X62.37458
G02 Y19.24996 I0. J-0.125
G03 Y18.99996 I0. J-0.125
G1 X68.72826
Y28.50259
X59.54859
X57.88558 Y24.0887
X55.73793 Y20.85784
X53.89961 Y18.99996
X62.37458
G02 Y18.74996 I0. J-0.125
G03 Y18.49996 I0. J-0.125
G1 X69.22826
Y29.00259
X59.13272
X58.93788 Y27.95102
X57.4685 Y24.36447
X55.38251 Y21.20952
X52.70148 Y18.49996
X62.37458
G02 Y18.24996 I0. J-0.125
G03 Y17.99996 I0. J-0.125
G1 X69.72826
Y29.50259
X58.71234
X58.47474 Y28.13944
X57.05071 Y24.63915
X55.02709 Y21.5612
X52.18237 Y18.68621
X51.15553 Y17.99996
X62.37458
G02 Y17.74996 I0. J-0.125
G03 Y17.49996 I0. J-0.125
G1 X70.22826
Y30.00259
X58.28822
X58.01113 Y28.3267
X56.63218 Y24.91271
X54.67077 Y21.91196
X51.90455 Y19.10192
X49.50751 Y17.49996
X62.37458
G02 Y17.24996 I0. J-0.125
G03 Y16.99996 I0. J-0.125
G1 X70.72826
Y30.50259
X57.8609
X57.54704 Y28.51276
X56.21291 Y25.18513
X54.3135 Y22.26176
X51.62673 Y19.51763
X48.62883 Y17.51411
X47.29848 Y16.99996
X62.37458
G02 Y16.74996 I0. J-0.125
G03 Y16.49996 I0. J-0.125
G1 X71.22826
Y31.00259
X57.43079
X57.08246 Y28.6976
X55.79287 Y25.45636
X53.95527 Y22.61058
X51.34747 Y19.93238
X48.44858 Y17.98049
X44.61775 Y16.49996
X62.37458
Z9.77786 F1431.
G0 Z11.20643
X21.7056 Y20.75815
G1 Z11.04786 F238.5
Z10.41286 F715.5
X21.82047 Y20.75841 Z10.3926 F715.5
X22.03034 Y21.14339 Z10.31529
X21.21043 Y22.42159 Z10.04753
X20.98021 Y22.3541 Z10.00522
X20.75 Y22.28661 Z9.96292
Y21.00658 Z9.73722
X21.00056 Y20.75658 Z9.67481
X21.82047 Y20.75841 Z9.53024
X22.03034 Y21.14339 Z9.45292
X21.21043 Y22.42159 Z9.18516
X20.98021 Y22.3541 Z9.14286
X21. Y22.28661
Y21.00658 F954.
X21.81991 Y21.00841
X21. Y22.28661
G03 X20.5 I-0.25 J0.
G1 Y20.50546
X22.73336 Y20.51045
X20.5 Y23.99213
Y22.28661
G02 X20.25 I-0.125 J0.
G03 X20. I-0.125 J0.
G1 Y20.00434
X23.65948 Y20.01252
X21.01923 Y24.02546
X20. Y26.86728
Y22.28661
G02 X19.75 I-0.125 J0.
G03 X19.5 I-0.125 J0.
G1 Y19.50322
X24.83493 Y19.51515
X23.91656 Y20.46607
X21.48988 Y24.19426
X20.124 Y28.00259
X19.5
Y22.28661
G02 X19.25 I-0.125 J0.
G03 X19. I-0.125 J0.
G1 Y19.0021
X26.02217 Y19.0178
X24.33476 Y20.74014
X21.96052 Y24.36306
X20.47586 Y28.50259
X19.
Y22.28661
G02 X18.75 I-0.125 J0.
G03 X18.5 I-0.125 J0.
G1 Y18.50098
X27.21599 Y18.52047
X24.75206 Y21.01557
X22.43117 Y24.53186
X20.82772 Y29.00259
X18.5
Y22.28661
G02 X18.25 I-0.125 J0.
G03 X18. I-0.125 J0.
G1 Y18.00073
X28.86166 Y18.00629
X27.57081 Y18.87276
X25.16856 Y21.29221
X22.8982 Y24.71042
X21.37421 Y28.6964
X21.26403 Y29.50259
X18.
Y22.28661
G02 X17.75 I-0.125 J0.
G03 X17.5 I-0.125 J0.
G1 Y17.50047
X30.52181 Y17.50714
X27.92463 Y19.22603
X25.58424 Y21.57008
X23.36466 Y24.89045
X21.86961 Y28.76411
X21.70034 Y30.00259
X17.5
Y22.28661
G02 X17.25 I-0.125 J0.
G03 X17. I-0.125 J0.
G1 Y17.00022
X32.52766 Y17.00817
X31.63857 Y17.37156
X28.27745 Y19.58032
X25.99907 Y21.8492
X23.83052 Y25.07204
X22.365 Y28.83182
X22.13666 Y30.50259
X17.
Y22.28661
G02 X16.75 I-0.125 J0.
G03 X16.5 I-0.125 J0.
G1 Y16.49996
X35.14189 Y16.50951
X31.91211 Y17.7901
X28.62922 Y19.93565
X26.41303 Y22.12962
X24.29574 Y25.25527
X22.8604 Y28.89952
X22.57297 Y31.00259
X16.5
Y22.28661
G02 X16.25 I-0.125 J0.
G03 X16. I-0.125 J0.
G1 Y15.99996
X71.72826
Y31.50259
X56.99817
X56.61738 Y28.88119
X55.37204 Y25.72637
X53.59606 Y22.95838
X51.06693 Y20.34625
X48.25992 Y18.44353
X44.80093 Y17.03418
X40.91163 Y16.43354
X35.32482 Y16.97484
X32.18457 Y18.20934
X28.9799 Y20.29205
X26.8261 Y22.41135
X24.76026 Y25.44025
X23.35579 Y28.96723
X23.00928 Y31.50259
X16.
Y22.28661
G02 X15.75 I-0.125 J0.
G03 X15.5 I-0.125 J0.
G1 Y15.49996
X72.22826
Y32.00259
X56.56329
X56.1518 Y29.06348
X54.95041 Y25.99511
X53.23584 Y23.30514
X50.78506 Y20.75923
X48.06958 Y18.90588
X44.72266 Y17.52801
X40.95814 Y16.93138
X35.50635 Y17.44072
X32.45594 Y18.62929
X29.32948 Y20.64954
X27.23825 Y22.69443
X25.22404 Y25.62708
X23.85119 Y29.03494
X23.44559 Y32.00259
X15.5
Y22.28661
G02 X15.25 I-0.125 J0.
G03 X15. I-0.125 J0.
G1 Y14.99996
X72.72826
Y32.50259
X56.12637
X55.6857 Y29.24445
X54.52795 Y26.26255
X52.87459 Y23.65083
X50.50185 Y21.17129
X47.87751 Y19.36752
X44.64237 Y18.02152
X41.00289 Y17.42937
X35.68642 Y17.90717
X32.72618 Y19.04997
X29.67789 Y21.00816
X27.64946 Y22.97887
X25.68702 Y25.8159
X24.34658 Y29.10264
X23.88191 Y32.50259
X15.
Y22.28661
G02 X14.75 I-0.125 J0.
G03 X14.5 I-0.125 J0.
G1 Y14.49996
X73.22826
Y33.00259
X55.68756
X55.21907 Y29.42406
X54.10463 Y26.52864
X52.51229 Y23.99541
X50.21725 Y21.58239
X47.68367 Y19.82842
X44.55996 Y18.51469
X41.04584 Y17.92752
X35.86498 Y18.3742
X32.99527 Y19.47139
X30.02511 Y21.36794
X28.05971 Y23.26471
X26.14913 Y26.00684
X24.84198 Y29.17035
X24.30325 Y32.21655
X24.31822 Y33.00259
X14.5
Y22.28661
G02 X14.25 I-0.125 J0.
G03 X14. I-0.125 J0.
G1 Y13.99996
X73.72826
Y33.50259
X55.24702
X54.7519 Y29.60226
X53.68043 Y26.79333
X52.14892 Y24.33886
X49.93123 Y21.9925
X47.48801 Y20.28855
X44.47537 Y19.00748
X41.08693 Y18.42583
X36.04197 Y18.84183
X33.26318 Y19.89355
X30.37108 Y21.72892
X28.46894 Y23.55198
X26.61057 Y26.19936
X25.33406 Y29.25897
X24.80316 Y32.20702
X24.82783 Y33.50259
X14.
Y22.28661
G02 X13.75 I-0.125 J0.
G03 X13.5 I-0.125 J0.
G1 Y13.49996
X74.22826
Y34.00259
X54.71937
X54.77488 Y32.97178
X54.28419 Y29.77901
X53.25533 Y27.05656
X51.78444 Y24.68114
X49.64375 Y22.40159
X47.29048 Y20.74787
X44.3885 Y19.49987
X41.12611 Y18.92429
X36.21732 Y19.31007
X33.52988 Y20.31648
X30.71575 Y22.09113
X28.87714 Y23.84073
X27.07134 Y26.39352
X25.82585 Y29.34923
X25.30307 Y32.1975
X25.33745 Y34.00259
X13.5
Y22.28661
G02 X13.25 I-0.125 J0.
G03 X13. I-0.125 J0.
G1 Y12.99996
X74.72826
Y34.50259
X54.18586
X54.28043 Y33.04607
X53.81591 Y29.95428
X52.8293 Y27.31827
X51.41883 Y25.02221
X49.35476 Y22.80962
X47.09102 Y21.20636
X44.29924 Y19.99184
X41.1633 Y19.42291
X36.39096 Y19.77895
X33.79536 Y20.74018
X31.05908 Y22.45462
X29.28425 Y24.13101
X27.53139 Y26.58937
X26.3173 Y29.44126
X25.80298 Y32.18798
X25.84706 Y34.50259
X13.
Y22.28661
G02 X12.75 I-0.125 J0.
G03 X12.5 I-0.125 J0.
G1 Y12.49996
X75.22826
Y35.00259
X53.64796
X53.78572 Y33.11863
X53.34706 Y30.12801
X52.4023 Y27.5784
X51.05205 Y25.36203
X49.06424 Y23.21656
X46.88957 Y21.66399
X44.2075 Y20.48335
X41.19847 Y19.92167
X36.56281 Y20.24849
X34.05957 Y21.16467
X31.401 Y22.81943
X29.69023 Y24.42286
X27.99069 Y26.78696
X26.8084 Y29.53518
X26.30288 Y32.17846
X26.35668 Y35.00259
X12.5
Y22.28661
G02 X12.25 I-0.125 J0.
G03 X12. I-0.125 J0.
G1 Y11.99996
X75.72826
Y35.50259
X53.10657
X53.29075 Y33.1894
X52.87763 Y30.30016
X51.97429 Y27.83689
X50.68409 Y25.70056
X48.77213 Y23.62235
X46.68609 Y22.12071
X44.11313 Y20.97437
X41.23153 Y20.42057
X36.73278 Y20.71871
X34.32249 Y21.58996
X31.74146 Y23.18562
X30.09503 Y24.71635
X28.44921 Y26.98635
X27.29911 Y29.63114
X26.80279 Y32.16894
X26.86629 Y35.50259
X12.
Y22.28661
G02 X11.75 I-0.125 J0.
G03 X11.5 I-0.125 J0.
G1 Y11.49996
X76.22826
Y36.00259
X52.56226
X52.79553 Y33.25831
X52.40761 Y30.47068
X51.54526 Y28.09365
X50.3149 Y26.03775
X48.47838 Y24.02696
X46.4805 Y22.57649
X44.01601 Y21.46485
X41.26243 Y20.91962
X36.90078 Y21.18965
X34.5841 Y22.01606
X32.08037 Y23.55323
X30.49859 Y25.01154
X28.90692 Y27.18761
X27.78943 Y29.72904
X27.30279 Y32.16645
X27.31814 Y35.25183
X27.51083 Y36.00259
X11.5
Y22.28661
G02 X11.25 I-0.125 J0.
G03 X11. I-0.125 J0.
G1 Y10.99996
X76.72826
Y36.50259
X51.92622
X52.18948 Y35.41915
X52.30003 Y33.32529
X51.93698 Y30.63952
X51.11514 Y28.3486
X49.94445 Y26.37356
X48.18293 Y24.43034
X46.27275 Y23.03129
X43.91599 Y21.95474
X41.29109 Y21.4188
X37.06668 Y21.66132
X34.84436 Y22.44299
X32.41767 Y23.92232
X30.90087 Y25.30849
X29.36376 Y27.3908
X28.27935 Y29.82892
X27.80279 Y32.16651
X27.80244 Y35.12753
X28.15536 Y36.50259
X11.
Y22.28661
G02 X10.75 I-0.125 J0.
G03 X10.5 I-0.125 J0.
G1 Y10.49996
X77.22826
Y37.00259
X51.28491
X51.69029 Y35.3907
X51.80427 Y33.39026
X51.46572 Y30.80661
X50.6839 Y28.60164
X49.57271 Y26.70794
X47.88574 Y24.83243
X46.06278 Y23.48506
X43.81288 Y22.44399
X41.31743 Y21.9181
X37.23037 Y22.13377
X35.10324 Y22.87075
X32.75328 Y24.29295
X31.30178 Y25.60726
X29.81971 Y27.59602
X28.76885 Y29.93084
X28.30278 Y32.16933
X28.28675 Y35.00323
X28.7999 Y37.00259
X10.5
Y22.28661
G02 X10.25 I-0.125 J0.
G03 X10. I-0.125 J0.
G1 Y9.99996
X77.72826
Y37.50259
X50.63997
X51.19123 Y35.36008
X51.30824 Y33.45311
X50.99384 Y30.97191
X50.25148 Y28.85267
X49.19963 Y27.04082
X47.58674 Y25.23318
X45.85053 Y23.93777
X43.7065 Y22.93254
X41.34139 Y22.41753
X37.3917 Y22.60702
X35.36072 Y23.29936
X33.08709 Y24.6652
X31.70127 Y25.90794
X30.27471 Y27.80334
X29.25792 Y30.03484
X28.80275 Y32.1752
X28.77105 Y34.87893
X29.44443 Y37.50259
X10.
Y22.28661
G02 X9.75 I-0.125 J0.
G03 X9.5 I-0.125 J0.
G1 Y9.49996
X78.22826
Y38.00259
X49.79183
X50.15553 Y37.3788
X50.69231 Y35.32717
X50.81193 Y33.51375
X50.52131 Y31.13535
X49.81784 Y29.10158
X48.82517 Y27.37215
X47.28586 Y25.63252
X45.63593 Y24.38938
X43.5966 Y23.42032
X41.36289 Y22.91706
X37.5505 Y23.08114
X35.61677 Y23.72882
X33.41901 Y25.03914
X32.09927 Y26.2106
X30.72869 Y28.01286
X29.74652 Y30.14098
X29.30266 Y32.1844
X29.25535 Y34.75463
X30.08897 Y38.00259
X9.5
Y22.28661
G02 X9.25 I-0.125 J0.
G03 X9. I-0.125 J0.
G1 Y8.99996
X78.72826
Y38.50259
X48.88986
X49.67235 Y37.25021
X50.19356 Y35.29186
X50.31534 Y33.57208
X50.04812 Y31.29689
X49.38291 Y29.34822
X48.4493 Y27.70188
X46.98302 Y26.03038
X45.41894 Y24.83984
X43.48293 Y23.90722
X41.38185 Y23.41671
X37.70657 Y23.55615
X35.87136 Y24.15915
X33.74892 Y25.41485
X32.49567 Y26.51533
X31.1816 Y28.22469
X30.23466 Y30.24927
X29.8025 Y32.19721
X29.7401 Y34.63206
X30.54362 Y37.80992
X30.98113 Y38.50259
X9.
Y22.28661
G02 X8.75 I-0.125 J0.
G03 X8.5 I-0.125 J0.
G1 Y8.49996
X79.22826
Y39.00259
X47.97046
X49.18974 Y37.11949
X49.695 Y35.254
X49.81847 Y33.62796
X49.57426 Y31.45645
X48.94661 Y29.59245
X48.07196 Y28.02992
X46.67815 Y26.42667
X45.1995 Y25.28911
X43.36516 Y24.39316
X41.39819 Y23.91644
X37.85969 Y24.03213
X36.12448 Y24.59035
X34.07669 Y25.79243
X32.89039 Y26.82224
X31.63336 Y28.43897
X30.7223 Y30.35976
X30.30222 Y32.21382
X30.2258 Y34.51333
X30.96636 Y37.54291
X31.88834 Y39.00259
X8.5
Y22.28661
G02 X8.25 I-0.125 J0.
G03 X8. I-0.125 J0.
G1 Y7.99996
X79.72826
Y39.50259
X47.03879
X48.70773 Y36.98658
X49.19664 Y35.21345
X49.32132 Y33.68125
X49.09972 Y31.61397
X48.50887 Y29.83408
X47.6931 Y28.35622
X46.37113 Y26.82131
X44.97757 Y25.73716
X43.2429 Y24.87798
X41.41183 Y24.41625
X38.00958 Y24.50914
X36.37611 Y25.02242
X34.40218 Y26.17198
X33.28334 Y27.13142
X32.08388 Y28.65583
X31.20943 Y30.47246
X30.8018 Y32.23442
X30.71252 Y34.39887
X31.38909 Y37.2759
X32.79554 Y39.50259
X8.
Y22.28661
G02 X7.75 I-0.125 J0.
G03 X7.5 I-0.125 J0.
G1 Y7.49996
X80.22826
Y40.00259
X46.09763
X48.22635 Y36.8514
X48.69853 Y35.17003
X48.82388 Y33.73179
X48.6245 Y31.76941
X48.06959 Y30.0729
X47.31268 Y28.68069
X46.06186 Y27.21418
X44.75316 Y26.18397
X43.11569 Y25.36153
X41.42271 Y24.91613
X38.1559 Y24.98725
X36.62623 Y25.45536
X34.72519 Y26.55364
X33.67439 Y27.443
X32.53306 Y28.87545
X31.69604 Y30.58738
X31.30117 Y32.25935
X31.19993 Y34.28738
X31.82934 Y37.03888
X32.67232 Y38.60469
X33.90025 Y40.00259
X7.5
Y22.28661
G02 X7.25 I-0.125 J0.
G03 X7. I-0.125 J0.
G1 Y6.99996
X80.72826
Y40.50259
X44.70558
X45.85011 Y39.55862
X47.74564 Y36.71384
X48.2007 Y35.12357
X48.32615 Y33.77939
X48.14858 Y31.92271
X47.62867 Y30.30867
X46.93065 Y29.00326
X45.75019 Y27.60516
X44.52626 Y26.62952
X42.98292 Y25.84358
X41.43077 Y25.41607
X38.29821 Y25.46657
X36.87484 Y25.88917
X35.04554 Y26.93753
X34.06342 Y27.75709
X32.98079 Y29.09804
X32.18213 Y30.70452
X31.80029 Y32.289
X31.68804 Y34.17898
X32.27115 Y36.80477
X33.05336 Y38.28095
X34.11669 Y39.53247
X35.28586 Y40.50259
X7.
Y22.28661
G02 X6.75 I-0.125 J0.
G03 X6.5 I-0.125 J0.
G1 Y6.49996
X81.22826
Y41.00259
X42.60495
X44.45316 Y40.07384
X45.43597 Y39.27846
X47.26565 Y36.57384
X47.70318 Y35.07384
X47.82813 Y33.82384
X47.67196 Y32.07384
X47.18597 Y30.54108
X46.54694 Y29.32383
X45.43597 Y27.99409
X44.29694 Y27.07383
X42.84381 Y26.32383
X41.43597 Y25.91604
X38.43597 Y25.94721
X37.12196 Y26.32383
X35.36299 Y27.32383
X34.4503 Y28.07383
X33.4269 Y29.32383
X32.66768 Y30.82383
X32.29908 Y32.32384
X32.17686 Y34.07384
X32.71462 Y36.57384
X33.43597 Y37.95906
X34.43597 Y39.14768
X35.68597 Y40.18486
X37.3614 Y41.00259
X6.5
Y22.28661
G02 X6.25 I-0.125 J0.
G03 X6. I-0.125 J0.
G1 Y5.99996
X81.72826
Y41.50259
X6.
Y22.28661
G02 X5.75 I-0.125 J0.
G03 X5.5 I-0.125 J0.
G1 Y5.49996
X82.22826
Y42.00259
X5.5
Y22.28661
G02 X5.25 I-0.125 J0.
G03 X5. I-0.125 J0.
G1 Y4.99996
X82.72826
Y42.50259
X5.
Y22.28661
G02 X4.75 I-0.125 J0.
G03 X4.5 I-0.125 J0.
G1 Y4.49996
X83.22826
Y43.00259
X4.5
Y22.28661
G02 X4.25 I-0.125 J0.
G03 X4. I-0.125 J0.
G1 Y3.99996
X83.72826
Y43.50259
X4.
Y22.28661
G02 X3.75 I-0.125 J0.
G03 X3.5 I-0.125 J0.
G1 Y3.49996
X84.22826
Y44.00259
X3.5
Y22.28661
G02 X3.25 I-0.125 J0.
G03 X3. I-0.125 J0.
G1 Y2.99996
X84.72826
Y44.50259
X3.
Y22.28661
G02 X2.75 I-0.125 J0.
G03 X2.5 I-0.125 J0.
G1 Y2.49996
X85.22826
Y45.00259
X2.5
Y22.28661
G02 X2.25 I-0.125 J0.
G03 X2. I-0.125 J0.
G1 Y1.99996
X85.72826
Y45.50259
X2.
Y22.28661
G02 X1.75 I-0.125 J0.
G03 X1.5 I-0.125 J0.
G1 Y1.49996
X86.22826
Y46.00259
X1.5
Y22.28661
G02 X1.25 I-0.125 J0.
G03 X1. I-0.125 J0.
G1 Y0.99996
X86.72826
Y46.50259
X1.
Y22.28661
G02 X0.75 I-0.125 J0.
G03 X0.5 I-0.125 J0.
G1 Y0.49996
X87.22826
Y47.00259
X0.5
Y22.28661
G02 X0.25 I-0.125 J0.
G03 X0. I-0.125 J0.
G1 Y-0.00004
X87.72826
Y47.50259
X0.
Y22.28661
Z9.77786 F1431.
G0 Z11.20643
X45.86219 Y28.50424
G1 Z11.04786 F238.5
Z10.41286 F715.5
X45.43597 Y27.99409 Z10.29564 F715.5
X44.29694 Y27.07383 Z10.03744
X42.84381 Y26.32383 Z9.7491
X41.43597 Y25.91604 Z9.49066
X39.46566 Y25.82383 Z9.14286
X38.43597 Y25.94721 F954.
X37.12196 Y26.32383
X35.36299 Y27.32383
X34.4503 Y28.07383
X33.4269 Y29.32383
X32.66768 Y30.82383
X32.29908 Y32.32384
X32.17686 Y34.07384
X32.43597 Y35.64783
X32.71462 Y36.57384
X33.43597 Y37.95906
X34.43597 Y39.14768
X35.68597 Y40.18486
X37.18597 Y40.95049
X38.44328 Y41.32383
X40.18597 Y41.46606
X41.53127 Y41.32383
X42.93597 Y40.90355
X44.45316 Y40.07384
X45.43597 Y39.27846
X46.56761 Y37.82384
X47.26565 Y36.57384
X47.70318 Y35.07384
X47.82813 Y33.82384
X47.67196 Y32.07384
X47.18597 Y30.54108
X46.54694 Y29.32383
X45.43597 Y27.99409
X44.29694 Y27.07383
X42.84381 Y26.32383
X41.43597 Y25.91604
X39.46566 Y25.82383
Z9.77786 F1431.
G0 Z11.20643
X55.60212 Y20.48316
G1 Z9.61929 F238.5
Z8.98429 F715.5
X54.84978 Y19.66971 Z8.78891 F715.5
X55.03331 Y19.24996 Z8.70813
X56.07059 Z8.52523
X56.19102 Y19.40842 Z8.49014
X56.31146 Y19.56688 Z8.45504
X56.07187 Y20.42934 Z8.29721
X55.64745 Y20.53218 Z8.22021
X54.84978 Y19.66971 Z8.01306
X55.03331 Y19.24996 Z7.93228
X56.07059 Z7.74938
X56.19102 Y19.40842 Z7.71429
X56.07059 Y19.49996
X55.83099 Y20.36243 F954.
X55.03331 Y19.49996
X56.07059
G03 X56.55234 Y19.63379 I0.24087 J0.06692
G1 X56.07274 Y21.3602
X53.88981 Y18.99996
X56.72842
X56.55234 Y19.63379
G02 X56.76731 Y19.68615 I0.10749 J0.02618
G03 X56.98229 Y19.7385 I0.10749 J0.02617
G1 X56.28502 Y22.60166
X55.3611 Y21.18402
X52.68534 Y18.49996
X57.59498
X57.05745 Y19.42984
X56.98229 Y19.7385
G02 X57.22519 Y19.79765 I0.12145 J0.02957
G03 X57.46809 Y19.85681 I0.12145 J0.02958
G1 X56.49478 Y23.85349
X55.007 Y21.53702
X52.10995 Y18.63099
X51.1538 Y17.99996
X58.48374
X57.54325 Y19.54815
X57.46809 Y19.85681
G02 X57.71099 Y19.91596 I0.12145 J0.02957
G03 X57.95389 Y19.97511 I0.12145 J0.02957
G1 X56.70294 Y25.11186
X54.65199 Y21.88911
X51.83454 Y19.0483
X49.48845 Y17.49996
X59.38736
X58.02906 Y19.66646
X57.95389 Y19.97511
G02 X58.19335 Y20.03751 I0.11973 J0.0312
G03 X58.43281 Y20.09991 I0.11973 J0.0312
G1 X57.18646 Y24.8829
X57.45406 Y28.28114
X56.4103 Y25.58467
X54.29603 Y22.24024
X51.55912 Y19.46561
X48.46624 Y17.42441
X47.34673 Y16.99996
X60.30132
X58.5129 Y19.79254
X58.43281 Y20.09991
Z8.34929 F1431.
G0 Z11.20643
X57.87165 Y30.02433
G1 Z9.61929 F238.5
Z8.98429 F715.5
X58.05196 Y30.50259 Z8.89416 F715.5
X57.88359 Z8.86447
X57.77914 Y29.77895 Z8.73556
X58.05196 Y30.50259 Z8.59919
X57.88359 Z8.56951
X57.77914 Y29.77895 Z8.44059
X58.05196 Y30.50259 Z8.30422
X57.88359 Z8.27454
X57.77914 Y29.77895 Z8.14562
X58.05196 Y30.50259 Z8.00925
X57.88359 Z7.97957
X57.77914 Y29.77895 Z7.85065
X58.05196 Y30.50259 Z7.71429
X57.88359 F954.
X57.77914 Y29.77895
X58.05196 Y30.50259
G02 X58.28588 Y30.4144 I0.11696 J-0.0441
G03 X58.51981 Y30.3262 I0.11697 J-0.0441
G1 X58.77481 Y31.00259
X57.45058
X57.14183 Y28.86352
X55.9869 Y25.85062
X53.93909 Y22.59038
X51.2823 Y19.88199
X48.28899 Y17.89194
X44.61756 Y16.49996
X61.22347
X58.99605 Y19.92123
X57.68492 Y24.84365
X58.01021 Y28.97451
X58.51981 Y30.3262
Z8.34929 F1431.
G0 Z11.20643
X21.47461 Y20.0011
G1 Z9.61929 F238.5
Z8.98429 F715.5
X21.48429 Y19.97638 Z8.9796 F715.5
X21.56922 Y19.75941 Z8.93852
X23.9609 Y19.7645 Z8.5168
X24.15619 Y20.16991 Z8.43745
X23.14882 Y21.4392 Z8.15172
X22.78368 Y21.46772 Z8.08714
X21.39936 Y20.19334 Z7.75537
X21.48429 Y19.97638 Z7.71429
X21.56869 Y20.00941
X23.96037 Y20.0145 F954.
X22.953 Y21.28379
X21.56869 Y20.00941
G02 X21.39936 Y20.19334 I-0.08467 J0.09197
G03 X21.23004 Y20.37727 I-0.08466 J0.09196
G1 X20.28434 Y19.50668
X24.99379 Y19.5167
X23.01019 Y22.01604
X21.23004 Y20.37727
G02 X21.06072 Y20.5612 I-0.08466 J0.09196
G03 X20.8914 Y20.74513 I-0.08466 J0.09196
G1 X19. Y19.00394
X26.0272 Y19.01889
X23.06737 Y22.74829
X20.8914 Y20.74513
G02 X20.71819 Y20.9351 I-0.08661 J0.09499
G03 X20.54498 Y21.12507 I-0.08661 J0.09499
G1 X18.5 Y19.26052
Y18.50315
X27.5141 Y18.5175
X26.32961 Y19.41708
X23.12749 Y23.47974
X20.54498 Y21.12507
G02 X20.3926 Y21.28696 I-0.07619 J0.08095
G03 X20.24023 Y21.44885 I-0.07618 J0.08095
G1 X18.48854 Y19.80014
X18. Y19.58932
Y18.00235
X29.02538 Y18.01991
X26.72229 Y19.72659
X23.18229 Y24.21795
X20.24023 Y21.44885
G02 X20.07466 Y21.62309 I-0.08279 J0.08712
G03 X19.90909 Y21.79734 I-0.08279 J0.08712
G1 X18.29044 Y20.25922
X17.5 Y19.91813
Y17.50155
X30.55224 Y17.52234
X27.11299 Y20.03861
X23.66695 Y24.35362
X23.25858 Y25.35417
X22.85624 Y24.59787
X19.90909 Y21.79734
G02 X19.74303 Y21.97033 I-0.08303 J0.0865
G03 X19.57698 Y22.14333 I-0.08302 J0.0865
G1 X18.09233 Y20.7183
X17. Y20.24693
Y17.00076
X32.57309 Y17.02555
X31.40046 Y17.52477
X27.50251 Y20.3521
X24.12988 Y24.54257
X23.29864 Y26.57914
X22.51001 Y24.95859
X19.57698 Y22.14333
G02 X19.41043 Y22.31501 I-0.08327 J0.08584
G03 X19.24388 Y22.4867 I-0.08327 J0.08585
G1 X17.89423 Y21.17738
X16.5 Y20.57574
Y16.49996
X35.08184 Y16.52955
X31.69256 Y17.93058
X27.89077 Y20.66715
X24.5928 Y24.73151
X23.32806 Y27.83021
X22.16186 Y25.31747
X19.24388 Y22.4867
G02 X19.07683 Y22.65696 I-0.08353 J0.08513
G03 X18.90978 Y22.82722 I-0.08352 J0.08513
G1 X17.69612 Y21.63646
X16. Y20.90454
Y15.99996
X62.45703
X61.3444 Y17.07924
X59.47848 Y20.05263
X58.18356 Y24.80686
X58.47807 Y28.79812
X59.49767 Y31.50259
X57.01499
X56.67443 Y29.04111
X55.5627 Y26.11529
X53.58116 Y22.9395
X51.00423 Y20.29753
X48.10291 Y18.35602
X44.80979 Y17.03562
X40.90349 Y16.4317
X35.27116 Y16.99232
X31.98315 Y18.33746
X28.27769 Y20.98383
X25.05573 Y24.92046
X23.35003 Y29.09952
X21.81169 Y25.67437
X18.90978 Y22.82722
G02 X18.74224 Y22.99595 I-0.08377 J0.08436
G03 X18.57469 Y23.16467 I-0.08378 J0.08436
G1 X17.49802 Y22.09554
X15.5 Y21.23334
Y15.49996
X63.70765
X61.76628 Y17.34762
X59.96013 Y20.18683
X58.68239 Y24.7727
X58.94592 Y28.62174
X60.22052 Y32.00259
X56.57711
X56.2065 Y29.2173
X55.13769 Y26.37866
X53.22221 Y23.28757
X50.72488 Y20.71221
X47.91515 Y18.81943
X44.73141 Y17.52944
X40.95119 Y16.92942
X35.45874 Y17.4558
X32.27218 Y18.74546
X28.66348 Y21.3019
X25.51263 Y25.12354
X23.92311 Y28.69964
X23.51103 Y31.18654
X23.44503 Y30.56269
X21.45938 Y26.02916
X18.57469 Y23.16467
G02 X18.40665 Y23.33174 I-0.08402 J0.08353
G03 X18.23862 Y23.4988 I-0.08401 J0.08353
G1 X17.29991 Y22.55462
X15. Y21.56215
Y14.99996
X65.45521
X63.89743 Y15.97084
X62.18642 Y17.61869
X60.44096 Y20.32395
X59.18138 Y24.74082
X59.41904 Y28.46
X60.41474 Y31.37265
X61.12622 Y32.50259
X56.13718
X55.73803 Y29.39203
X54.71184 Y26.64068
X52.86222 Y23.63457
X50.44422 Y21.12601
X47.72565 Y19.28213
X44.65097 Y18.02293
X40.99702 Y17.42731
X35.64452 Y17.92
X32.55959 Y19.1546
X29.04809 Y21.62139
X25.96866 Y25.32856
X24.41638 Y28.78137
X23.80563 Y32.46728
X23.08362 Y32.46046
X22.98562 Y30.76004
X21.1048 Y26.38169
X18.23862 Y23.4988
G02 X18.0701 Y23.66405 I-0.08426 J0.08262
G03 X17.90159 Y23.82929 I-0.08425 J0.08262
G1 X17.10181 Y23.0137
X14.5 Y21.89095
Y14.49996
X68.14061
X66.40901 Y15.00037
X64.24227 Y16.3329
X62.60472 Y17.89259
X60.92091 Y20.46412
X59.6805 Y24.71128
X59.89289 Y28.30041
X60.83785 Y31.10623
X62.03192 Y33.00259
X55.69536
X55.26899 Y29.56526
X54.28513 Y26.9013
X52.50116 Y23.98045
X50.16222 Y21.5389
X47.53438 Y19.7441
X44.5684 Y18.51606
X41.04093 Y17.92538
X35.82843 Y18.38495
X32.84533 Y19.5649
X29.43149 Y21.94233
X26.424 Y25.53511
X24.90647 Y28.88045
X24.29108 Y31.92431
X24.31953 Y32.97216
X22.60248 Y32.95594
X22.52477 Y30.95399
X20.7478 Y26.73176
X17.90159 Y23.82929
G02 X17.73262 Y23.99255 I-0.08448 J0.08163
G03 X17.56365 Y24.15581 I-0.08449 J0.08163
G1 X16.9037 Y23.47278
X14. Y22.21976
Y13.99996
X73.72826
Y14.7622
X70.17535 Y14.45399
X66.66913 Y15.42738
X64.58502 Y16.69693
X63.02108 Y18.16945
X61.39992 Y20.60749
X60.17977 Y24.6842
X60.36739 Y28.14278
X61.26616 Y30.84826
X62.27817 Y32.52847
X63.15292 Y33.50259
X55.25185
X54.79938 Y29.73692
X53.85755 Y27.16047
X52.13901 Y24.32519
X49.87884 Y21.95085
X47.34128 Y20.2053
X44.4836 Y19.00882
X41.08288 Y18.42362
X36.0104 Y18.85066
X33.12934 Y19.97641
X29.81364 Y22.26477
X26.87863 Y25.74324
X25.39612 Y28.98163
X24.79089 Y31.91074
X24.83342 Y33.47703
X22.11327 Y33.45134
X22.06245 Y31.1444
X20.38822 Y27.07919
X17.56365 Y24.15581
G02 X17.39425 Y24.31688 I-0.0847 J0.08054
G03 X17.22486 Y24.47796 I-0.08469 J0.08054
G1 X16.7056 Y23.93186
X13.5 Y22.54856
Y13.49996
X74.22826
Y15.31243
X70.30658 Y14.93646
X66.92739 Y15.85552
X64.92559 Y17.06301
X63.43536 Y18.44939
X61.87791 Y20.7542
X60.67917 Y24.65967
X60.84256 Y27.98718
X61.6957 Y30.59234
X62.65019 Y32.1944
X64.27392 Y34.00259
X54.7198
X54.78174 Y33.00615
X54.32919 Y29.90698
X53.42905 Y27.41814
X51.77573 Y24.66874
X49.59407 Y22.36182
X47.14629 Y20.66571
X44.3965 Y19.50117
X41.1228 Y18.92202
X36.19036 Y19.31715
X33.41155 Y20.38916
X30.19447 Y22.58875
X27.33252 Y25.95296
X25.88531 Y29.08506
X25.29071 Y31.89717
X25.34731 Y33.98191
X21.61668 Y33.94667
X21.59861 Y31.33109
X20.02588 Y27.42373
X17.22486 Y24.47796
G02 X17.05508 Y24.6366 I-0.08489 J0.07932
G03 X16.88531 Y24.79525 I-0.08488 J0.07933
G1 X16.50749 Y24.39094
X13. Y22.87736
Y12.99996
X74.72826
Y15.86727
X70.43515 Y15.41965
X67.18373 Y16.28481
X65.26387 Y17.43121
X63.84743 Y18.73259
X62.3548 Y20.90444
X61.17869 Y24.63783
X61.31841 Y27.83366
X62.12654 Y30.33861
X63.02364 Y31.86192
X64.57294 Y33.60213
X65.78977 Y34.50259
X54.18154
X54.28676 Y33.07679
X53.8584 Y30.07536
X52.99963 Y27.67425
X51.4113 Y25.01107
X49.30786 Y22.7718
X46.94937 Y21.1253
X44.30699 Y19.99309
X41.16066 Y19.42059
X36.36823 Y19.78445
X33.69188 Y20.80318
X30.57395 Y22.91432
X27.78565 Y26.16431
X26.37397 Y29.19095
X25.79052 Y31.8836
X25.8612 Y34.48679
X21.1133 Y34.44194
X21.13323 Y31.51391
X19.66056 Y27.76511
X16.88531 Y24.79525
G02 X16.71523 Y24.9512 I-0.08504 J0.07798
G03 X16.54515 Y25.10715 I-0.08504 J0.07797
G1 X16.30939 Y24.85002
X12.5 Y23.20617
Y12.49996
X75.22826
Y16.62937
X74.60543 Y16.34548
X70.56093 Y15.90357
X67.4381 Y16.71527
X65.59976 Y17.80158
X64.25712 Y19.01921
X62.83052 Y21.05838
X61.67833 Y24.61881
X61.79496 Y27.68231
X62.55874 Y30.08722
X63.39866 Y31.53123
X64.87036 Y33.20021
X66.34074 Y34.28829
X67.82308 Y35.00259
X53.63869
X53.79154 Y33.14578
X53.38699 Y30.24201
X52.56924 Y27.92874
X51.04567 Y25.35213
X49.02017 Y23.18075
X46.75045 Y21.58403
X44.21496 Y20.48455
X41.19638 Y19.91931
X36.54393 Y20.25256
X33.97026 Y21.21852
X30.95202 Y23.24153
X28.23801 Y26.37732
X26.86204 Y29.2995
X26.29034 Y31.87003
X26.37509 Y34.99166
X20.60364 Y34.93715
X20.66628 Y31.69268
X19.29202 Y28.10302
X16.54515 Y25.10715
G02 X16.37485 Y25.26006 I-0.08515 J0.07645
G03 X16.20455 Y25.41298 I-0.08515 J0.07646
G1 X16.11128 Y25.3091
X12.33523 Y23.55921
X12. Y23.53497
Y11.99996
X75.72826
Y17.44755
X74.5471 Y16.84206
X70.68377 Y16.38824
X67.69043 Y17.14692
X65.93315 Y18.17421
X64.66426 Y19.30945
X63.30494 Y21.21625
X62.17807 Y24.60276
X62.27221 Y27.53321
X62.99239 Y29.83832
X63.77532 Y31.20241
X65.16982 Y32.7998
X66.55779 Y33.83786
X68.44581 Y34.74764
X70.47138 Y35.20176
X73.38126 Y35.10346
X75.72826 Y34.24598
Y35.50259
X53.09218
X53.29609 Y33.21308
X52.91494 Y30.40685
X52.13785 Y28.18155
X50.67883 Y25.69187
X48.73097 Y23.58862
X46.54947 Y22.04186
X44.12029 Y20.97551
X41.22991 Y20.41818
X36.71735 Y20.72152
X34.24661 Y21.63521
X31.3286 Y23.57044
X28.68958 Y26.59199
X27.34946 Y29.41097
X26.79016 Y31.85646
X26.88898 Y35.49654
X20.08819 Y35.4323
X20.19773 Y31.86721
X18.92 Y28.43707
X16.20455 Y25.41298
G02 X16.05096 Y25.587 I-0.07679 J0.08701
G03 X15.89737 Y25.76103 I-0.07679 J0.08702
G1 X12.29918 Y24.0579
X11.5 Y24.00014
Y11.49996
X76.22826
Y18.29023
X74.48451 Y17.33813
X70.80351 Y16.8737
X67.94069 Y17.57979
X66.2639 Y18.54918
X65.06863 Y19.60353
X63.77796 Y21.37827
X62.6779 Y24.58984
X62.75017 Y27.38642
X63.42757 Y29.59211
X64.1537 Y30.87556
X65.47141 Y32.401
X66.77759 Y33.38876
X68.55902 Y34.26063
X70.45756 Y34.70196
X73.23543 Y34.6252
X75.01805 Y34.08164
X76.22826 Y33.37508
Y36.00259
X52.54263
X52.8004 Y33.27862
X52.44224 Y30.56981
X51.70545 Y28.43259
X50.31072 Y26.03025
X48.44022 Y23.9954
X46.34637 Y22.49875
X44.02285 Y21.46592
X41.2612 Y20.9172
X36.8884 Y21.19135
X34.52084 Y22.0533
X31.70365 Y23.90111
X29.14034 Y26.80837
X27.83631 Y29.52486
X27.29015 Y31.85974
X27.26987 Y34.94772
X27.52695 Y36.00259
X19.56739 Y35.9274
X19.72755 Y32.0373
X18.54474 Y28.76751
X15.89737 Y25.76103
G02 X15.78841 Y25.98604 I-0.05448 J0.1125
G03 X15.67944 Y26.21104 I-0.05449 J0.1125
G1 X12.26313 Y24.5566
X11. Y24.4653
Y10.99996
X76.72826
Y19.15073
X74.41741 Y17.83361
X70.91993 Y17.35995
X68.18879 Y18.0139
X66.59191 Y18.92656
X65.47 Y19.90169
X64.24944 Y21.54472
X63.17781 Y24.58025
X63.22887 Y27.24202
X63.86438 Y29.34881
X64.53387 Y30.55079
X65.77522 Y32.00388
X67.00022 Y32.94106
X68.67637 Y33.77459
X70.44694 Y34.20207
X73.09328 Y34.14583
X74.76596 Y33.64985
X76.72826 Y32.50419
Y36.50259
X51.87528
X52.1918 Y35.42133
X52.30448 Y33.34235
X51.96887 Y30.73081
X51.27197 Y28.68179
X49.94132 Y26.3672
X48.14787 Y24.40102
X46.1411 Y22.95467
X43.92249 Y21.95574
X41.29017 Y21.41636
X37.05696 Y21.66208
X34.79285 Y22.47284
X32.07707 Y24.23361
X29.59025 Y27.02649
X28.32257 Y29.64126
X27.79011 Y31.86556
X27.75565 Y34.82933
X28.16344 Y36.50259
X18.82304
X19.06803 Y35.90207
X19.2557 Y32.20268
X18.16612 Y29.09407
X15.67944 Y26.21104
G02 X15.56827 Y26.43496 I-0.05558 J0.11196
G03 X15.4571 Y26.65889 I-0.05558 J0.11196
G1 X12.22709 Y25.0553
X10.5 Y24.93046
Y10.49996
X77.22826
Y20.28251
X76.71144 Y19.72101
X74.34551 Y18.32841
X71.03283 Y17.84704
X68.43468 Y18.44926
X66.91704 Y19.30641
X65.86808 Y20.20423
X64.71923 Y21.71589
X63.67777 Y24.57421
X63.7083 Y27.10008
X64.30295 Y29.10869
X64.9159 Y30.22822
X66.08136 Y31.60857
X67.22579 Y32.49483
X68.79821 Y33.28967
X70.43968 Y33.70212
X72.95416 Y33.66557
X74.52983 Y33.20912
X76.13126 Y32.35113
X77.22826 Y31.43577
Y37.00259
X51.19906
X51.69264 Y35.39229
X51.80832 Y33.40421
X51.49481 Y30.88976
X50.8374 Y28.92907
X49.57056 Y26.70267
X47.85388 Y24.80546
X45.93357 Y23.40957
X43.81902 Y22.44492
X41.31677 Y21.91566
X37.22291 Y22.13374
X35.06253 Y22.89387
X32.44879 Y24.56801
X30.0393 Y27.2464
X28.8082 Y29.7603
X28.29004 Y31.87412
X28.24143 Y34.71094
X28.79993 Y37.00259
X18.03235
X18.56895 Y35.87175
X18.78213 Y32.3631
X17.78399 Y29.41652
X15.4571 Y26.65889
G02 X15.34349 Y26.88158 I-0.0568 J0.11134
G03 X15.22989 Y27.10427 I-0.0568 J0.11135
G1 X12.19104 Y25.554
X10. Y25.39562
Y9.99996
X77.72826
Y21.62681
X76.45191 Y20.14838
X74.26848 Y18.82244
X71.14195 Y18.33499
X68.67829 Y18.8859
X67.23916 Y19.68882
X66.26254 Y20.51148
X65.18714 Y21.89213
X64.17777 Y24.57197
X64.18847 Y26.96067
X64.74342 Y28.87208
X65.2999 Y29.908
X66.38997 Y31.21517
X67.45435 Y32.05013
X68.92501 Y32.80601
X70.43595 Y33.20213
X72.81829 Y33.18439
X74.29608 Y32.76712
X75.81503 Y31.96384
X76.82507 Y31.13911
X77.72826 Y30.02735
Y37.50259
X50.51659
X51.19361 Y35.36116
X51.31193 Y33.46415
X51.02003 Y31.04656
X50.40168 Y29.17432
X49.19842 Y27.0366
X47.5582 Y25.20866
X45.72374 Y23.86341
X43.71225 Y22.93339
X41.34093 Y22.41507
X37.38612 Y22.60635
X35.32976 Y23.31646
X32.81871 Y24.9044
X30.48745 Y27.46812
X29.29314 Y29.8821
X28.7899 Y31.8857
X28.72721 Y34.59255
X29.43641 Y37.50259
X17.21277
X18.07022 Y35.83618
X18.30681 Y32.51825
X17.39818 Y29.73456
X15.22989 Y27.10427
G02 X15.11356 Y27.32556 I-0.05817 J0.11065
G03 X14.99723 Y27.54685 I-0.05817 J0.11065
G1 X12.15499 Y26.0527
X9.5 Y25.86078
Y9.49996
X78.22826
Y23.86694
X77.93597 Y22.94541
X77.18597 Y21.69472
X76.18597 Y20.57179
X74.18597 Y19.31559
X71.24697 Y18.82383
X68.91955 Y19.32383
X67.55817 Y20.07383
X66.65297 Y20.82383
X65.65296 Y22.07383
X64.67776 Y24.57383
X64.66938 Y26.82383
X65.18597 Y28.63937
X65.68597 Y29.59027
X66.70119 Y30.82383
X67.68597 Y31.60701
X69.05732 Y32.32384
X70.43597 Y32.70213
X72.68597 Y32.70222
X74.06478 Y32.32384
X75.50214 Y31.57383
X76.43699 Y30.82383
X77.45249 Y29.57383
X78.22826 Y27.85914
Y38.00259
X49.82929
X50.69473 Y35.32785
X50.8153 Y33.52209
X50.54452 Y31.20112
X49.96477 Y29.41745
X48.82483 Y27.36891
X47.26078 Y25.61059
X45.51153 Y24.31614
X43.60195 Y23.42107
X41.36257 Y22.9146
X37.54643 Y23.07996
X35.59443 Y23.74067
X33.18674 Y25.24286
X30.93468 Y27.6917
X29.77734 Y30.00678
X29.28968 Y31.90059
X29.21299 Y34.47416
X30.0729 Y38.00259
X16.37184
X17.57191 Y35.79511
X17.8297 Y32.66779
X17.00854 Y30.0479
X14.99723 Y27.54685
G02 X14.87784 Y27.7665 I-0.0597 J0.10982
G03 X14.75844 Y27.98614 I-0.0597 J0.10982
G1 X12.11894 Y26.5514
X9. Y26.32594
Y8.99996
X78.72826
Y38.50259
X48.94811
X49.63289 Y37.35645
X50.196 Y35.29223
X50.31843 Y33.57796
X50.06825 Y31.35331
X49.52662 Y29.65833
X48.44974 Y27.69953
X46.96156 Y26.01117
X45.29689 Y24.76773
X43.48786 Y23.90788
X41.38164 Y23.41424
X37.70366 Y23.55459
X35.85639 Y24.16656
X33.55276 Y25.58349
X31.38096 Y27.91716
X30.26076 Y30.13449
X29.78934 Y31.91898
X29.69957 Y34.35908
X30.49909 Y37.73945
X30.91008 Y38.50259
X15.514
X17.07411 Y35.74822
X17.35074 Y32.81134
X16.61492 Y30.35623
X14.75844 Y27.98614
G02 X14.63611 Y28.20417 I-0.06116 J0.10902
G03 X14.51378 Y28.42219 I-0.06117 J0.10901
G1 X12.0656 Y27.04855
X9.33589 Y26.75569
X8.5 Y26.9712
Y8.49996
X79.22826
Y39.00259
X48.05148
X49.1511 Y37.22274
X49.69745 Y35.25417
X49.82133 Y33.63171
X49.59118 Y31.50301
X49.08717 Y29.89684
X48.07309 Y28.02837
X46.66048 Y26.41036
X45.07976 Y25.21812
X43.36965 Y24.39371
X41.39806 Y23.91397
X37.85764 Y24.03029
X36.11548 Y24.59419
X33.91664 Y25.92641
X31.82626 Y28.14454
X30.74332 Y30.26536
X30.28885 Y31.9411
X30.18672 Y34.24647
X30.93931 Y37.50237
X31.74727 Y39.00259
X14.0448
X15.32629 Y38.0161
X16.57693 Y35.69519
X16.86991 Y32.94845
X16.21712 Y30.65913
X14.51378 Y28.42219
G02 X14.3883 Y28.63842 I-0.06274 J0.10812
G03 X14.26281 Y28.85465 I-0.06275 J0.10811
G1 X12.00609 Y27.54499
X9.46072 Y27.23986
X8. Y27.61646
Y7.99996
X79.72826
Y39.50259
X47.14438
X48.66993 Y37.08681
X49.1991 Y35.2135
X49.32399 Y33.68324
X49.1133 Y31.65008
X48.64636 Y30.13282
X47.69481 Y28.35533
X46.35747 Y26.80808
X44.86011 Y25.66729
X43.24693 Y24.87841
X41.41176 Y24.41378
X38.00813 Y24.50711
X36.37154 Y25.02365
X34.27823 Y26.27174
X32.27057 Y28.37388
X31.22498 Y30.39957
X30.78817 Y31.96727
X30.67449 Y34.13656
X31.37953 Y37.26529
X32.20306 Y38.79442
X32.80613 Y39.50259
X12.50313
X14.88953 Y37.7727
X16.08049 Y35.63565
X16.38715 Y33.07861
X15.81492 Y30.95618
X14.26281 Y28.85465
G02 X14.13394 Y29.06887 I-0.06443 J0.10711
G03 X14.00508 Y29.2831 I-0.06443 J0.10712
G1 X11.93946 Y28.04053
X9.58555 Y27.72403
X7.5 Y28.26172
Y7.49996
X80.22826
Y40.00259
X46.11251
X47.45328 Y38.30453
X48.22882 Y36.85139
X48.701 Y35.17004
X48.82642 Y33.7325
X48.63457 Y31.79436
X48.20412 Y30.36611
X47.31482 Y28.68031
X46.05244 Y27.20426
X44.63791 Y26.11521
X43.11922 Y25.36183
X41.42268 Y24.91366
X38.15489 Y24.98508
X36.62437 Y25.45502
X34.63735 Y26.61964
X32.71384 Y28.60519
X31.70564 Y30.53726
X31.28723 Y31.99782
X31.16288 Y34.02943
X31.82135 Y37.03121
X32.58373 Y38.47025
X33.88868 Y40.00259
X7.50816
X7.51711 Y38.90153
X8.31124 Y39.31039
X10.50454 Y39.53354
X12.55242 Y38.97048
X14.45657 Y37.5226
X15.58492 Y35.56921
X15.90241 Y33.20121
X15.40808 Y31.24685
X14.00508 Y29.2831
G02 X13.87258 Y29.4951 I-0.06625 J0.106
G03 X13.74008 Y29.7071 I-0.06625 J0.106
G1 X11.86449 Y28.53488
X9.71037 Y28.20819
X7.61401 Y28.74868
X7. Y29.18231
Y6.99996
X80.72826
Y40.50259
X44.65587
X45.82971 Y39.58911
X47.01388 Y38.06592
X47.74811 Y36.71384
X48.20316 Y35.12357
X48.32862 Y33.77939
X48.15496 Y31.93568
X47.76038 Y30.59652
X46.93305 Y29.00319
X45.74531 Y27.59882
X44.41318 Y26.56186
X42.98594 Y25.84374
X41.43077 Y25.4136
X38.29762 Y25.46428
X36.87376 Y25.88838
X34.9938 Y26.97027
X33.15607 Y28.8385
X32.18524 Y30.67863
X31.78598 Y32.03317
X31.65189 Y33.92516
X32.26499 Y36.8006
X32.9644 Y38.14607
X34.37981 Y39.80812
X35.27647 Y40.50259
X7.00408
X7.02408 Y38.04256
X8.36939 Y38.81378
X10.38021 Y39.04924
X12.25627 Y38.56762
X14.02789 Y37.26525
X15.0904 Y35.49541
X15.41566 Y33.31556
X14.99634 Y31.53052
X13.74008 Y29.7071
G02 X13.60367 Y29.91661 I-0.0682 J0.10476
G03 X13.46726 Y30.12611 I-0.0682 J0.10475
G1 X11.78035 Y29.02775
X9.82725 Y28.69434
X7.90244 Y29.15709
X6.5 Y30.14755
Y6.49996
X81.22826
Y41.00259
X42.61185
X44.065 Y40.32384
X45.43597 Y39.28093
X46.5764 Y37.82384
X47.26811 Y36.57384
X47.70564 Y35.07384
X47.8306 Y33.82384
X47.67442 Y32.07384
X47.31504 Y30.82383
X46.5494 Y29.32383
X45.43597 Y27.99163
X44.18597 Y27.00725
X42.84627 Y26.32383
X41.43597 Y25.91357
X38.43597 Y25.94476
X37.11948 Y26.32383
X35.34734 Y27.32383
X33.59723 Y29.07383
X32.66369 Y30.82383
X32.28433 Y32.07384
X32.14151 Y33.82384
X32.71061 Y36.57384
X33.34671 Y37.82384
X34.68597 Y39.41282
X35.68597 Y40.18732
X37.35415 Y41.00259
X6.5
X6.53127 Y37.15608
X8.43563 Y38.31819
X10.265 Y38.5627
X11.96722 Y38.15964
X13.60409 Y36.99993
X14.5971 Y35.4138
X14.92686 Y33.42077
X14.57939 Y31.80647
X13.46726 Y30.12611
G02 X13.32662 Y30.3328 I-0.07032 J0.10334
G03 X13.18597 Y30.53948 I-0.07033 J0.10334
G1 X11.68597 Y29.51876
X9.93597 Y29.18238
X8.17872 Y29.57383
X6.93597 Y30.39769
X6. Y31.69977
Y5.99996
X81.72826
Y41.50259
X6.
Y35.57244
X6.93597 Y36.86246
X8.51056 Y37.82384
X10.16005 Y38.07384
X11.68597 Y37.74624
X13.18597 Y36.72575
X14.10526 Y35.32384
X14.43597 Y33.51578
X14.15688 Y32.07384
X13.18597 Y30.53948
Z8.34929 F1431.
G0 Z11.20643
X5.5 Y37.74201
G1 Z9.61929 F238.5
Z8.98429 F715.5
Y30.53948 Z7.71429 F715.5
Y5.49996 F954.
X82.22826
Y42.00259
X5.5
Y30.53948
G02 X5.25 I-0.125 J0.
G03 X5. I-0.125 J0.
G1 Y4.99996
X82.72826
Y42.50259
X5.
Y30.53948
G02 X4.75 I-0.125 J0.
G03 X4.5 I-0.125 J0.
G1 Y4.49996
X83.22826
Y43.00259
X4.5
Y30.53948
G02 X4.25 I-0.125 J0.
G03 X4. I-0.125 J0.
G1 Y3.99996
X83.72826
Y43.50259
X4.
Y30.53948
G02 X3.75 I-0.125 J0.
G03 X3.5 I-0.125 J0.
G1 Y3.49996
X84.22826
Y44.00259
X3.5
Y30.53948
G02 X3.25 I-0.125 J0.
G03 X3. I-0.125 J0.
G1 Y2.99996
X84.72826
Y44.50259
X3.
Y30.53948
G02 X2.75 I-0.125 J0.
G03 X2.5 I-0.125 J0.
G1 Y2.49996
X85.22826
Y45.00259
X2.5
Y30.53948
G02 X2.25 I-0.125 J0.
G03 X2. I-0.125 J0.
G1 Y1.99996
X85.72826
Y45.50259
X2.
Y30.53948
G02 X1.75 I-0.125 J0.
G03 X1.5 I-0.125 J0.
G1 Y1.49996
X86.22826
Y46.00259
X1.5
Y30.53948
G02 X1.25 I-0.125 J0.
G03 X1. I-0.125 J0.
G1 Y0.99996
X86.72826
Y46.50259
X1.
Y30.53948
G02 X0.75 I-0.125 J0.
G03 X0.5 I-0.125 J0.
G1 Y0.49996
X87.22826
Y47.00259
X0.5
Y30.53948
G02 X0.25 I-0.125 J0.
G03 X0. I-0.125 J0.
G1 Y-0.00004
X87.72826
Y47.50259
X0.
Y30.53948
Z8.34929 F1431.
G0 Z11.20643
X14.35303 Y32.77736
G1 Z9.61929 F238.5
Z8.98429 F715.5
X14.15688 Y32.07384 Z8.8555 F715.5
X13.68597 Y31.15574 Z8.67357
X13.18597 Y30.53948 Z8.53364
X12.43597 Y29.91358 Z8.36139
X11.68597 Y29.51876 Z8.21194
X10.68597 Y29.239 Z8.02884
X9.93597 Y29.18238 Z7.89622
X8.91391 Y29.32383 Z7.71429
X8.17872 Y29.57383 F954.
X6.93597 Y30.39769
X6.35284 Y31.07383
X5.93007 Y31.82383
X5.677 Y32.57384
X5.53948 Y33.57384
X5.64381 Y34.57384
X5.93597 Y35.45237
X6.2674 Y36.07384
X6.93597 Y36.86246
X7.68597 Y37.43173
X8.51056 Y37.82384
X9.18597 Y38.00955
X10.16005 Y38.07384
X10.93597 Y37.9764
X11.68597 Y37.74624
X12.47114 Y37.32384
X13.18597 Y36.72575
X13.7103 Y36.07384
X14.10526 Y35.32384
X14.38192 Y34.32384
X14.43597 Y33.51578
X14.36598 Y32.82384
X14.15688 Y32.07384
X13.68597 Y31.15574
X13.18597 Y30.53948
X12.43597 Y29.91358
X11.68597 Y29.51876
X10.68597 Y29.239
X9.93597 Y29.18238
X8.91391 Y29.32383
Z8.34929 F1431.
G0 Z11.20643
X45.86171 Y28.50103
G1 Z9.61929 F238.5
Z8.98429 F715.5
X45.43597 Y27.99163 Z8.86723 F715.5
X44.18597 Y27.00725 Z8.58668
X42.84627 Y26.32383 Z8.32149
X41.43597 Y25.91357 Z8.06251
X39.46314 Y25.82383 Z7.71429
X38.43597 Y25.94476 F954.
X37.11948 Y26.32383
X35.34734 Y27.32383
X34.43597 Y28.08616
X33.59723 Y29.07383
X32.66369 Y30.82383
X32.28433 Y32.07384
X32.14151 Y33.82384
X32.43597 Y35.66526
X32.71061 Y36.57384
X33.34671 Y37.82384
X34.68597 Y39.41282
X35.68597 Y40.18732
X37.18597 Y40.95294
X38.44246 Y41.32383
X39.93597 Y41.48409
X41.53374 Y41.32383
X42.93597 Y40.90601
X44.065 Y40.32384
X45.43597 Y39.28093
X46.5764 Y37.82384
X47.26811 Y36.57384
X47.70564 Y35.07384
X47.8306 Y33.82384
X47.67442 Y32.07384
X47.31504 Y30.82383
X46.5494 Y29.32383
X45.43597 Y27.99163
X44.18597 Y27.00725
X42.84627 Y26.32383
X41.43597 Y25.91357
X39.46314 Y25.82383
Z8.34929 F1431.
G0 Z11.20643
X77.36198 Y21.98823
G1 Z9.61929 F238.5
Z8.98429 F715.5
X77.18597 Y21.69472 Z8.92394 F715.5
X76.18597 Y20.57179 Z8.6588
X74.93597 Y19.69544 Z8.38963
X74.18597 Y19.31559 Z8.24139
X72.68597 Y18.94411 Z7.96891
X71.24697 Y18.82383 Z7.71429
X70.18597 Y18.9453 F954.
X68.91955 Y19.32383
X67.55817 Y20.07383
X66.65297 Y20.82383
X65.65296 Y22.07383
X64.93597 Y23.63471
X64.67776 Y24.57383
X64.66938 Y26.82383
X65.18597 Y28.63937
X65.68597 Y29.59027
X66.70119 Y30.82383
X67.68597 Y31.60701
X69.05732 Y32.32384
X70.43597 Y32.70213
X71.93597 Y32.76318
X72.68597 Y32.70222
X74.06478 Y32.32384
X75.50214 Y31.57383
X76.43699 Y30.82383
X77.45249 Y29.57383
X78.18597 Y28.01293
X78.44422 Y27.07383
X78.56443 Y25.82383
X78.45247 Y24.57383
X77.93597 Y22.94541
X77.18597 Y21.69472
X76.18597 Y20.57179
X74.93597 Y19.69544
X74.18597 Y19.31559
X72.68597 Y18.94411
X71.24697 Y18.82383
Z8.34929 F1431.
G0 Z11.20643
X56.13361 Y19.69906
G1 Z8.19071 F238.5
Z7.55571 F715.5
X55.92849 Y20.23793 Z7.45405 F715.5
X55.51489 Y20.32253 Z7.37961
X54.88897 Y19.67351 Z7.22062
X55.06892 Y19.24996 Z7.13947
X55.94189 Z6.98555
X56.05872 Y19.41943 Z6.94925
X56.17554 Y19.5889 Z6.91296
X55.92849 Y20.23793 Z6.79051
X55.51489 Y20.32253 Z6.71607
X54.88897 Y19.67351 Z6.55708
X55.06892 Y19.24996 Z6.47594
X55.94189 Z6.32201
X56.05872 Y19.41943 Z6.28571
X55.94189 Y19.49996
X55.69484 Y20.14899 F954.
X55.06892 Y19.49996
X55.94189
G02 Y19.24996 I0. J-0.125
G03 Y18.99996 I0. J-0.125
G1 X56.66722
X55.88185 Y21.06319
X53.8921 Y18.99996
X55.94189
G02 Y18.74996 I0. J-0.125
G03 Y18.49996 I0. J-0.125
G1 X57.39254
X56.21703 Y21.58813
X56.10349 Y22.31464
X55.36277 Y21.18314
X52.68751 Y18.49996
X55.94189
G02 Y18.24996 I0. J-0.125
G03 Y17.99996 I0. J-0.125
G1 X58.31279
X57.84021 Y18.71627
X56.71104 Y21.66533
X56.39434 Y23.69178
X55.00869 Y21.53617
X52.1089 Y18.62779
X51.15736 Y17.99996
X55.94189
G02 Y17.74996 I0. J-0.125
G03 Y17.49996 I0. J-0.125
G1 X59.25886
X58.3065 Y18.89674
X57.20504 Y21.74254
X56.68381 Y25.07772
X54.65371 Y21.88829
X51.83353 Y19.04513
X49.49168 Y17.49996
X55.94189
G02 Y17.24996 I0. J-0.125
G03 Y16.99996 I0. J-0.125
G1 X60.21417
X58.77209 Y19.07903
X57.69904 Y21.81974
X57.16105 Y25.26223
X57.44976 Y28.38097
X56.41256 Y25.58433
X54.29777 Y22.23944
X51.55817 Y19.46247
X48.46387 Y17.42084
X47.35219 Y16.99996
X55.94189
G02 Y16.74996 I0. J-0.125
G03 Y16.49996 I0. J-0.125
G1 X61.17581
X59.23694 Y19.26318
X58.19269 Y21.89918
X57.65892 Y25.21614
X58.03286 Y29.25546
X58.66429 Y31.00259
X57.3917
X57.23908 Y29.25869
X55.98917 Y25.8503
X53.94085 Y22.5896
X51.28139 Y19.87888
X48.28684 Y17.88845
X44.61937 Y16.49996
X55.94189
Z6.92071 F1431.
G0 Z11.20643
X23.83115 Y19.81602
G1 Z8.19071 F238.5
Z7.55571 F715.5
X24.00665 Y20.19094 Z7.48272 F715.5
X23.42856 Y20.89251 Z7.32243
X23.04693 Y20.89753 Z7.25513
X22.43094 Y20.18878 Z7.08955
X22.52604 Y19.98178 Z7.04939
X22.62113 Y19.77478 Z7.00922
X23.81521 Y19.78197 Z6.79867
X24.00665 Y20.19094 Z6.71905
X23.42856 Y20.89251 Z6.55876
X23.04693 Y20.89753 Z6.49146
X22.43094 Y20.18878 Z6.32588
X22.52604 Y19.98178 Z6.28571
X22.61963 Y20.02478
X23.81371 Y20.03196 F954.
X23.23563 Y20.73353
X22.61963 Y20.02478
G03 X22.62264 Y19.52479 I0.0015 J-0.25
G1 X24.86836 Y19.5383
X23.2458 Y21.50745
X21.51684 Y19.51813
X22.62264 Y19.52479
G02 X22.62414 Y19.27479 I0.00075 J-0.125
G03 X22.62565 Y19.0248 I0.00075 J-0.125
G1 X26.0098 Y19.04516
X24.03253 Y21.17122
X23.30502 Y22.37732
X21.42756 Y20.0495
X19.72133 Y19.00732
X22.62565 Y19.0248
G02 X22.62715 Y18.7748 I0.00075 J-0.125
G03 X22.62865 Y18.52481 I0.00075 J-0.125
G1 X27.15712 Y18.55206
X24.46067 Y21.42947
X23.36014 Y23.25399
X21.16693 Y20.4762
X18.5 Y18.84721
Y18.49996
X22.62865 Y18.52481
G02 Y18.26238 I0. J-0.13122
G03 Y17.99996 I0. J-0.13121
G1 X28.87423
X27.43612 Y18.96698
X24.88881 Y21.68773
X23.41155 Y24.1368
X20.9063 Y20.90289
X18. Y19.1277
Y17.99996
X22.62865
G02 Y17.74996 I0. J-0.125
G03 Y17.49996 I0. J-0.125
G1 X30.53667
X27.80008 Y19.30981
X25.31695 Y21.94598
X23.45958 Y25.02523
X20.64567 Y21.32959
X17.5 Y19.40819
Y17.49996
X22.62865
G02 Y17.24996 I0. J-0.125
G03 Y16.99996 I0. J-0.125
G1 X32.50453
X31.7361 Y17.31157
X28.16294 Y19.6538
X25.7451 Y22.20423
X23.50446 Y25.91888
X20.38504 Y21.75629
X17. Y19.68868
Y16.99996
X22.62865
G02 Y16.74996 I0. J-0.125
G03 Y16.49996 I0. J-0.125
G1 X35.15651
X32.00891 Y17.73059
X28.52463 Y19.99903
X26.17324 Y22.46248
X23.78186 Y26.42704
X23.63586 Y26.93859
X20.12441 Y22.18299
X16.5 Y19.96917
Y16.49996
X22.62865
G02 Y16.24996 I0. J-0.125
G03 Y15.99996 I0. J-0.125
G1 X62.42705
X61.42887 Y16.94931
X59.70103 Y19.44926
X58.68596 Y21.98094
X58.15698 Y25.17209
X58.50309 Y29.08552
X59.37664 Y31.50259
X56.92871
X56.76913 Y29.42942
X55.56499 Y26.115
X53.58295 Y22.93875
X51.00336 Y20.29445
X48.10073 Y18.35252
X44.82207 Y17.03767
X40.91824 Y16.4281
X35.3607 Y16.95706
X32.28037 Y18.15048
X28.8851 Y20.34553
X26.60038 Y22.72239
X24.26266 Y26.56426
X23.70808 Y28.50742
X23.4614 Y27.54828
X19.86377 Y22.60969
X16. Y20.24966
Y15.99996
X22.62865
G02 Y15.74996 I0. J-0.125
G03 Y15.49996 I0. J-0.125
G1 X63.69286
X61.83902 Y17.23527
X60.16432 Y19.63732
X59.17882 Y22.06514
X58.65521 Y25.13013
X58.97424 Y28.91813
X59.79472 Y31.22759
X60.26074 Y32.00259
X56.46142
X56.29866 Y29.5987
X55.13998 Y26.37839
X53.22403 Y23.28685
X50.72406 Y20.70917
X47.91295 Y18.81592
X44.74299 Y17.53138
X40.96395 Y16.92601
X35.53987 Y17.42386
X32.55045 Y18.57126
X29.24432 Y20.69333
X27.02645 Y22.98405
X24.74346 Y26.70148
X23.6366 Y30.57976
X23.05538 Y27.84008
X19.60314 Y23.03639
X15.5 Y20.53015
Y15.49996
X22.62865
G02 Y15.24996 I0. J-0.125
G03 Y14.99996 I0. J-0.125
G1 X65.4488
X63.88533 Y15.96891
X62.24796 Y17.52296
X60.62677 Y19.82742
X59.67124 Y22.15188
X59.15362 Y25.09033
X59.4461 Y28.75275
X60.22322 Y30.96993
X61.14484 Y32.50259
X55.99025
X55.82764 Y29.76647
X54.71415 Y26.64043
X52.86406 Y23.63387
X50.44344 Y21.123
X47.72345 Y19.27862
X44.66188 Y18.02476
X41.00793 Y17.42407
X35.71752 Y17.89124
X32.81911 Y18.99295
X29.60224 Y21.04245
X27.45137 Y23.24757
X25.22426 Y26.8387
X23.77553 Y31.91483
X23.79003 Y32.4774
X23.49789 Y32.47383
X22.64735 Y28.12907
X19.34251 Y23.46308
X15. Y20.81064
Y14.99996
X22.62865
G02 Y14.74996 I0. J-0.125
G03 Y14.49996 I0. J-0.125
G1 X67.74795
X66.41561 Y14.9946
X64.22796 Y16.33306
X62.65564 Y17.81244
X61.08835 Y20.01963
X60.16318 Y22.24129
X59.65221 Y25.05276
X59.91871 Y28.58955
X60.65171 Y30.71227
X62.02893 Y33.00259
X55.51555
X55.35608 Y29.9327
X54.28746 Y26.90107
X52.50303 Y23.97979
X50.16149 Y21.53592
X47.53219 Y19.74059
X44.57867 Y18.51778
X41.05014 Y17.92228
X35.89361 Y18.3592
X33.08631 Y19.41557
X29.95884 Y21.39293
X27.87509 Y23.51301
X25.70445 Y26.97807
X24.27536 Y31.90195
X24.30324 Y32.98369
X23.0811 Y32.96878
X22.23721 Y28.41505
X19.08188 Y23.88978
X14.5 Y21.09113
Y14.49996
X22.62865
G02 Y14.24996 I0. J-0.125
G03 Y13.99996 I0. J-0.125
G1 X73.72826
Y14.71618
X72.552 Y14.43354
X68.75532 Y14.66571
X66.67481 Y15.42217
X64.56893 Y16.69877
X63.06199 Y18.10378
X61.54901 Y20.21403
X60.6546 Y22.3335
X60.15097 Y25.01751
X60.39201 Y28.42834
X61.08483 Y30.46244
X62.2791 Y32.53294
X63.15062 Y33.50259
X55.0376
X54.88396 Y30.09731
X53.85988 Y27.16026
X52.14091 Y24.32456
X49.87818 Y21.9479
X47.33911 Y20.20181
X44.49328 Y19.01044
X41.09054 Y18.42065
X36.06809 Y18.82777
X33.35201 Y19.83913
X30.31406 Y21.74482
X28.29757 Y23.78042
X26.18396 Y27.11971
X24.7752 Y31.88907
X24.81645 Y33.48999
X22.66022 Y33.46369
X21.82495 Y28.69797
X18.8158 Y24.31311
X14.50489 Y21.60349
X14. Y21.49547
Y13.99996
X22.62865
G02 Y13.74996 I0. J-0.125
G03 Y13.49996 I0. J-0.125
G1 X74.22826
Y15.36369
X72.5798 Y14.93276
X68.92413 Y15.13636
X66.93219 Y15.85084
X64.90815 Y17.06609
X63.46695 Y18.39705
X62.00871 Y20.41068
X61.14546 Y22.42867
X60.64989 Y24.98468
X60.86602 Y28.26921
X61.51913 Y30.21469
X62.65096 Y32.19871
X64.2723 Y34.00259
X54.55665
X54.41126 Y30.26027
X53.4314 Y27.41795
X51.77766 Y24.66814
X49.59346 Y22.35892
X47.14415 Y20.66223
X44.40561 Y19.50269
X41.12907 Y18.91916
X36.2409 Y19.29696
X33.61615 Y20.26366
X30.66785 Y22.09813
X28.71876 Y24.04986
X26.66276 Y27.26376
X25.27503 Y31.87619
X25.32966 Y33.99629
X22.23536 Y33.95854
X21.4105 Y28.97767
X18.54712 Y24.73478
X14.40028 Y22.09242
X13.5 Y21.89981
Y13.49996
X22.62865
G02 Y13.24996 I0. J-0.125
G03 Y12.99996 I0. J-0.125
G1 X74.72826
Y16.02131
X72.60476 Y15.43214
X69.0908 Y15.60776
X67.18767 Y16.28064
X65.24554 Y17.43511
X63.87045 Y18.69232
X62.46741 Y20.60966
X61.6357 Y22.52698
X61.14897 Y24.95437
X61.34074 Y28.11226
X61.95466 Y29.96911
X63.02428 Y31.86609
X64.57038 Y33.60138
X65.79236 Y34.50259
X54.0729
X53.93797 Y30.42151
X53.00199 Y27.67408
X51.41325 Y25.0105
X49.3073 Y22.76894
X46.94728 Y21.12184
X44.31557 Y19.99452
X41.16568 Y19.41782
X36.41196 Y19.76679
X33.8787 Y20.68918
X31.02017 Y22.45291
X29.13861 Y24.3214
X27.14078 Y27.41039
X25.77487 Y31.86331
X25.84287 Y34.50259
X21.80665 Y34.45335
X20.99379 Y29.25398
X18.27564 Y25.15466
X14.29568 Y22.58136
X13. Y22.30416
Y12.99996
X22.62865
G02 Y12.74996 I0. J-0.125
G03 Y12.49996 I0. J-0.125
G1 X75.22826
Y16.68717
X72.62673 Y15.93166
X69.25522 Y16.07995
X67.44119 Y16.7116
X65.58097 Y17.80589
X64.27242 Y18.98968
X62.92507 Y20.81104
X62.12527 Y22.6286
X61.6482 Y24.9267
X61.81621 Y27.95757
X62.39149 Y29.72583
X63.3992 Y31.53528
X64.86715 Y33.19898
X66.37902 Y34.31397
X67.8501 Y35.00259
X53.58656
X53.46408 Y30.58096
X52.57161 Y27.92859
X51.04766 Y25.35159
X49.01967 Y23.17792
X46.74842 Y21.58059
X44.22303 Y20.48588
X41.2003 Y19.91662
X36.58123 Y20.23726
X34.1396 Y21.11572
X31.37096 Y22.80921
X29.55705 Y24.59509
X27.61794 Y27.55978
X26.2747 Y31.85043
X26.35592 Y35.00259
X21.21839
X21.31221 Y34.37896
X20.57473 Y29.52672
X18.00116 Y25.57258
X14.19107 Y23.0703
X12.5 Y22.7085
Y12.49996
X22.62865
G02 Y12.24996 I0. J-0.125
G03 Y11.99996 I0. J-0.125
G1 X75.72826
Y17.35999
X72.64556 Y16.4313
X69.41726 Y16.55297
X67.69266 Y17.14376
X65.91433 Y18.17854
X64.67277 Y19.28922
X63.38162 Y21.01491
X62.61408 Y22.73378
X62.14758 Y24.90178
X62.29245 Y27.80526
X62.82966 Y29.48499
X63.77579 Y31.20637
X65.16612 Y32.79821
X66.591 Y33.86113
X68.56472 Y34.78503
X70.47287 Y35.21534
X73.39504 Y35.11303
X75.72826 Y34.25407
Y35.50259
X53.09779
X52.98957 Y30.73857
X52.14024 Y28.18141
X50.68085 Y25.69136
X48.73052 Y23.58584
X46.54751 Y22.03845
X44.12788 Y20.97674
X41.23289 Y20.41556
X36.74863 Y20.70841
X34.39879 Y21.54329
X31.72016 Y23.16706
X29.97403 Y24.87099
X28.09417 Y27.71211
X26.77454 Y31.83756
X26.86897 Y35.50259
X20.61092
X20.81722 Y34.44958
X20.15325 Y29.79571
X17.72346 Y25.98837
X14.08647 Y23.55923
X12. Y23.11284
Y11.99996
X22.62865
G02 Y11.74996 I0. J-0.125
G03 Y11.49996 I0. J-0.125
G1 X76.22826
Y18.29828
X75.26116 Y17.64854
X72.66108 Y16.93106
X69.57678 Y17.02684
X67.942 Y17.57716
X66.24549 Y18.55316
X65.0714 Y19.59104
X63.83702 Y21.22133
X63.10206 Y22.84277
X62.6471 Y24.87976
X62.76947 Y27.65544
X63.26926 Y29.24676
X64.1541 Y30.87944
X65.46741 Y32.39918
X66.80531 Y33.40939
X68.67887 Y34.29824
X70.45852 Y34.71555
X73.24682 Y34.6355
X75.03187 Y34.08147
X76.22826 Y33.3835
Y36.00259
X52.46901
X52.70654 Y34.97517
X52.51442 Y30.89425
X51.70784 Y28.43247
X50.31277 Y26.02977
X48.43983 Y23.99265
X46.3445 Y22.49539
X44.02997 Y21.46706
X41.26336 Y20.91463
X36.91407 Y21.18024
X34.65622 Y21.97193
X32.06771 Y23.52651
X30.38949 Y25.14919
X28.56961 Y27.8669
X27.27448 Y31.84498
X27.23055 Y34.80152
X27.487 Y36.00259
X19.98518
X20.32159 Y34.51549
X19.72926 Y30.06072
X17.44226 Y26.4018
X13.98186 Y24.04817
X11.5 Y23.51718
Y11.49996
X22.62865
G02 Y11.24996 I0. J-0.125
G03 Y10.99996 I0. J-0.125
G1 X76.72826
Y19.26471
X75.12412 Y18.12939
X72.6731 Y17.43092
X69.73362 Y17.5016
X68.1891 Y18.01183
X66.57427 Y18.92986
X65.46819 Y19.89526
X64.29122 Y21.43038
X63.5891 Y22.95587
X63.14674 Y24.86078
X63.24732 Y27.50824
X63.71034 Y29.01129
X64.53421 Y30.5546
X65.77119 Y32.00204
X67.02198 Y32.95878
X68.79755 Y33.81252
X70.44746 Y34.21567
X73.10211 Y34.1569
X74.77992 Y33.6496
X76.72826 Y32.51294
Y36.50259
X51.82732
X52.20699 Y34.99647
X52.03862 Y31.04792
X51.27438 Y28.68169
X49.9434 Y26.36676
X48.14754 Y24.39832
X46.13932 Y22.95135
X43.92915 Y21.95679
X41.29167 Y21.41382
X37.07747 Y21.65279
X34.91182 Y22.40166
X32.41356 Y23.88761
X30.80333 Y25.42979
X29.04421 Y28.02423
X27.77439 Y31.85463
X27.71952 Y34.69711
X28.10503 Y36.50259
X19.34528
X19.82532 Y34.57644
X19.30268 Y30.32154
X17.15725 Y26.81262
X13.87726 Y24.5371
X11. Y23.92153
Y10.99996
X22.62865
G02 Y10.74996 I0. J-0.125
G03 Y10.49996 I0. J-0.125
G1 X77.22826
Y20.24908
X74.9828 Y18.609
X72.68141 Y17.93085
X69.88758 Y17.97731
X68.4339 Y18.4478
X66.90051 Y19.30876
X65.86303 Y20.20202
X64.74417 Y21.64212
X64.07508 Y23.07345
X63.64649 Y24.845
X63.726 Y27.36379
X64.15301 Y28.77881
X64.91617 Y30.23196
X66.07763 Y31.60695
X67.24101 Y32.5093
X68.92122 Y33.32806
X70.43986 Y33.71573
X72.96026 Y33.67745
X74.54349 Y33.20903
X76.14999 Y32.34689
X77.22826 Y31.4361
Y37.00259
X51.17608
X51.70735 Y35.01548
X51.56215 Y31.1995
X50.83981 Y28.92899
X49.57268 Y26.70227
X47.8536 Y24.80279
X45.93191 Y23.4063
X43.82524 Y22.44588
X41.31774 Y21.91314
X37.23874 Y22.12607
X35.16553 Y22.83251
X32.75761 Y24.25041
X31.21547 Y25.71289
X29.51792 Y28.18422
X28.27424 Y31.86669
X28.2085 Y34.5927
X28.72306 Y37.00259
X18.6938
X19.32843 Y34.63221
X18.87342 Y30.57794
X16.86807 Y27.22052
X13.77265 Y25.02604
X10.5 Y24.32587
Y10.49996
X22.62865
G02 Y10.24996 I0. J-0.125
G03 Y9.99996 I0. J-0.125
G1 X77.72826
Y21.53406
X76.46474 Y20.15629
X74.83686 Y19.08723
X72.68579 Y18.43083
X70.03845 Y18.454
X68.67627 Y18.88513
X67.22398 Y19.69003
X66.25576 Y20.51148
X65.19583 Y21.8566
X64.55984 Y23.19592
X64.14633 Y24.83262
X64.20554 Y27.22223
X64.59735 Y28.54956
X65.30007 Y29.91161
X66.38696 Y31.21413
X67.46236 Y32.06097
X69.05045 Y32.84505
X70.43596 Y33.21574
X72.82147 Y33.1971
X74.30957 Y32.76712
X75.83128 Y31.96164
X76.8248 Y31.1397
X77.72826 Y30.03107
Y37.50259
X50.51717
X51.20763 Y35.03212
X51.085 Y31.3489
X50.4041 Y29.17426
X49.20057 Y27.03624
X47.55798 Y25.20604
X45.7222 Y23.8602
X43.71804 Y22.93425
X41.34148 Y22.41258
X37.39777 Y22.6001
X35.41727 Y23.26451
X33.09981 Y24.61497
X31.6258 Y25.99859
X29.9907 Y28.34697
X28.77403 Y31.88136
X28.69748 Y34.4883
X29.34109 Y37.50259
X18.0326
X18.83097 Y34.68251
X18.4414 Y30.82965
X16.57431 Y27.62512
X13.66804 Y25.51497
X10. Y24.73021
Y9.99996
X22.62865
G02 Y9.74996 I0. J-0.125
G03 Y9.49996 I0. J-0.125
G1 X78.22826
Y23.84511
X77.32798 Y21.82383
X76.18597 Y20.57136
X74.68597 Y19.56392
X72.68597 Y18.93083
X70.18597 Y18.93174
X68.91614 Y19.32383
X67.54444 Y20.07383
X66.64619 Y20.82383
X65.64618 Y22.07383
X65.0432 Y23.32383
X64.64626 Y24.82383
X64.68597 Y27.08372
X65.0435 Y28.32383
X65.68597 Y29.59367
X66.69949 Y30.82383
X67.68597 Y31.61375
X69.18597 Y32.36377
X70.43597 Y32.71574
X72.68597 Y32.71581
X74.07827 Y32.32384
X75.51566 Y31.57383
X76.43721 Y30.82383
X77.45588 Y29.57383
X78.22826 Y27.8337
Y38.00259
X49.85187
X50.70783 Y35.0463
X50.60713 Y31.49602
X49.9672 Y29.4174
X48.82701 Y27.36859
X47.26061 Y25.608
X45.51014 Y24.313
X43.60731 Y23.42183
X41.36284 Y22.91212
X37.55444 Y23.07493
X35.66697 Y23.6977
X33.44007 Y24.98133
X32.03422 Y26.28703
X30.46247 Y28.51258
X29.27372 Y31.89891
X29.18646 Y34.38389
X29.83259 Y37.41002
X30.13288 Y38.00259
X17.13659
X17.52247 Y37.46432
X18.33296 Y34.72704
X18.00653 Y31.0764
X16.27579 Y28.02623
X13.55622 Y26.00231
X10.12651 Y25.21535
X9.5 Y25.33019
Y9.49996
X22.62865
G02 Y9.24996 I0. J-0.125
G03 Y8.99996 I0. J-0.125
G1 X78.72826
Y38.50259
X49.03982
X49.68414 Y37.22463
X50.20797 Y35.05792
X50.12853 Y31.64074
X49.52906 Y29.6583
X48.45196 Y27.69925
X46.96143 Y26.00862
X45.29566 Y24.76466
X43.49278 Y23.90854
X41.38172 Y23.41177
X37.70861 Y23.55056
X35.91454 Y24.1321
X33.77831 Y25.34956
X32.44059 Y26.57833
X30.93319 Y28.68118
X29.7733 Y31.91948
X29.67601 Y34.28223
X30.27859 Y37.18401
X30.9468 Y38.50259
X16.097
X17.04483 Y37.31648
X17.83444 Y34.76547
X17.56871 Y31.31789
X15.9723 Y28.42358
X13.43842 Y26.48823
X10.21666 Y25.70716
X9. Y25.93017
Y8.99996
X22.62865
G02 Y8.74996 I0. J-0.125
G03 Y8.49996 I0. J-0.125
G1 X79.22826
Y39.00259
X48.21924
X49.19907 Y37.1034
X49.70805 Y35.06688
X49.64918 Y31.78295
X49.08962 Y29.89681
X48.07535 Y28.02813
X46.6604 Y26.40784
X45.07872 Y25.21515
X43.37412 Y24.39426
X41.39804 Y23.9115
X37.86015 Y24.02705
X36.1599 Y24.56777
X34.11444 Y25.71972
X32.84478 Y26.87266
X31.40278 Y28.8529
X30.27273 Y31.94323
X30.16618 Y34.18357
X30.72459 Y36.95799
X31.76071 Y39.00259
X15.02452
X16.56917 Y37.16236
X17.33546 Y34.7974
X17.12784 Y31.55376
X15.66357 Y28.81689
X13.31386 Y26.97247
X10.30681 Y26.19896
X8.5 Y26.53015
Y8.49996
X22.62865
G02 Y8.24996 I0. J-0.125
G03 Y7.99996 I0. J-0.125
G1 X79.72826
Y39.50259
X47.07212
X47.768 Y38.78648
X48.71502 Y36.97811
X49.20808 Y35.07307
X49.16905 Y31.92252
X48.64882 Y30.13281
X47.69711 Y28.35514
X46.35742 Y26.80559
X44.85927 Y25.66442
X43.25094 Y24.87884
X41.41171 Y24.41131
X38.00887 Y24.50442
X36.40294 Y25.00472
X34.44837 Y26.09187
X33.24662 Y27.1702
X31.87116 Y29.02786
X30.772 Y31.97034
X30.65701 Y34.08823
X31.1706 Y36.73198
X32.31221 Y38.98475
X32.77385 Y39.50259
X13.62044
X14.2558 Y39.12655
X16.09575 Y37.00151
X16.83608 Y34.82243
X16.68381 Y31.78362
X15.34938 Y29.20583
X13.18158 Y27.45465
X10.39696 Y26.69077
X8. Y27.13013
Y7.99996
X22.62865
G02 Y7.74996 I0. J-0.125
G03 Y7.49996 I0. J-0.125
G1 X80.22826
Y40.00259
X45.84969
X47.32652 Y38.55176
X48.23213 Y36.84841
X48.7081 Y35.07638
X48.68813 Y32.05929
X48.20658 Y30.36611
X47.31717 Y28.68018
X46.05243 Y27.20179
X44.63732 Y26.11245
X43.12275 Y25.36213
X41.42265 Y24.91119
X38.15457 Y24.98272
X36.64355 Y25.44302
X34.78 Y26.46606
X33.64592 Y27.47113
X32.33827 Y29.20623
X31.27105 Y32.00099
X31.1485 Y33.99636
X31.61816 Y36.50907
X32.68543 Y38.65203
X33.88943 Y40.00259
X10.97644
X12.05837 Y39.77429
X13.88207 Y38.7944
X15.62485 Y36.83342
X16.3364 Y34.84005
X16.23649 Y32.00701
X15.02949 Y29.59011
X13.04037 Y27.9343
X10.4871 Y27.18258
X7.81062 Y27.55229
X7.5 Y27.73011
Y7.49996
X22.62865
Z6.92071 F1431.
G0 Z11.20643
X8.57298 Y40.25259
G1 Z8.19071 F238.5
Z7.55571 F715.5
X7.5 Z7.36652 F715.5
X7.375 Y40.12759 Z7.33535
X7.25 Y40.00259 Z7.30418
Y39.52205 Z7.21945
X7.60468 Y39.29502 Z7.14519
X8.23058 Y39.58361 Z7.02366
X9.62987 Y39.75443 Z6.7751
X9.59958 Y40.25259 Z6.6871
X7.5 Z6.31688
X7.375 Y40.12759 Z6.28571
X7.5 Y40.00259
Y39.52205 F954.
X8.16144 Y39.82703
X9.59958 Y40.00259
X7.5
G02 Y40.25259 I0. J0.125
G03 Y40.50259 I0. J0.125
G1 X7.
Y38.70327
X8.22202 Y39.33071
X10.42329 Y39.59943
X11.82828 Y39.33038
X13.5129 Y38.45719
X15.15683 Y36.65747
X15.83649 Y34.84971
X15.78574 Y32.22341
X14.70358 Y29.9693
X12.89112 Y28.4115
X10.54838 Y27.67881
X8.05903 Y27.98622
X7. Y28.59247
Y6.99996
X80.72826
Y40.50259
X44.60679
X46.88654 Y38.31422
X47.75058 Y36.71384
X48.2081 Y35.07668
X48.20637 Y32.19312
X47.76284 Y30.59652
X46.93545 Y29.00312
X45.74531 Y27.59636
X44.41286 Y26.55924
X42.98895 Y25.8439
X41.43077 Y25.41113
X38.29703 Y25.46199
X36.88162 Y25.88271
X35.10923 Y26.84237
X34.04246 Y27.77569
X32.80399 Y29.38816
X31.76987 Y32.03541
X31.64066 Y33.90816
X32.06744 Y36.28966
X33.05866 Y38.3193
X34.43143 Y39.85918
X35.51926 Y40.50259
X7.5
G02 Y40.75259 I0. J0.125
G03 Y41.00259 I0. J0.125
G1 X6.5
Y37.86178
X8.28784 Y38.83506
X10.33628 Y39.10706
X11.60549 Y38.88276
X13.14861 Y38.11471
X14.69215 Y36.47289
X15.33649 Y34.85076
X15.33142 Y32.43219
X14.37128 Y30.3429
X12.73315 Y28.88589
X10.6013 Y28.176
X8.30743 Y28.42015
X6.5 Y29.45483
Y6.49996
X81.22826
Y41.00259
X42.62225
X44.68597 Y39.8922
X46.44812 Y38.07384
X47.27058 Y36.57384
X47.7081 Y35.07384
X47.72376 Y32.32384
X47.3175 Y30.82383
X46.55186 Y29.32383
X45.43597 Y27.98918
X44.18597 Y27.0048
X42.84874 Y26.32383
X41.43597 Y25.9111
X38.43597 Y25.9423
X37.11701 Y26.32383
X35.43597 Y27.22084
X34.43597 Y28.08415
X33.26824 Y29.57383
X32.26839 Y32.07384
X32.13349 Y33.82384
X32.51847 Y36.07384
X33.43597 Y37.99123
X34.68597 Y39.42882
X37.18597 Y40.95539
X37.34681 Y41.00259
X7.5
G02 Y41.25259 I0. J0.125
G03 Y41.50259 I0. J0.125
G1 X6.
Y36.58992
X6.84742 Y37.50693
X8.35908 Y38.34017
X10.25693 Y38.61339
X11.39095 Y38.43112
X12.78953 Y37.76677
X14.23138 Y36.27875
X14.83656 Y34.84243
X14.87335 Y32.63263
X14.03221 Y30.71037
X12.56542 Y29.35692
X10.64726 Y28.67388
X8.52641 Y28.86965
X7.07391 Y29.57723
X6. Y30.70479
Y5.99996
X81.72826
Y41.50259
X7.5
G02 Y41.75259 I0. J0.125
G03 Y42.00259 I0. J0.125
G1 X5.5
Y33.79945
X6.21065 Y36.07384
X7.09727 Y37.07384
X8.43597 Y37.84611
X10.18597 Y38.11845
X11.18597 Y37.97507
X12.43597 Y37.41323
X13.7753 Y36.07384
X14.33691 Y34.82384
X14.41136 Y32.82384
X13.68597 Y31.07109
X12.38656 Y29.82383
X10.68597 Y29.17238
X8.73549 Y29.32383
X7.43597 Y29.92207
X6.18597 Y31.23451
X5.78341 Y32.07384
X5.5 Y33.49973
Y5.49996
X82.22826
Y42.00259
X7.5
G02 Y42.25259 I0. J0.125
G03 Y42.50259 I0. J0.125
G1 X5.
Y4.99996
X82.72826
Y42.50259
X7.5
G02 Y42.75259 I0. J0.125
G03 Y43.00259 I0. J0.125
G1 X4.5
Y4.49996
X83.22826
Y43.00259
X7.5
G02 Y43.25259 I0. J0.125
G03 Y43.50259 I0. J0.125
G1 X4.
Y3.99996
X83.72826
Y43.50259
X7.5
G02 Y43.75259 I0. J0.125
G03 Y44.00259 I0. J0.125
G1 X3.5
Y3.49996
X84.22826
Y44.00259
X7.5
G02 Y44.25259 I0. J0.125
G03 Y44.50259 I0. J0.125
G1 X3.
Y2.99996
X84.72826
Y44.50259
X7.5
G02 Y44.75259 I0. J0.125
G03 Y45.00259 I0. J0.125
G1 X2.5
Y2.49996
X85.22826
Y45.00259
X7.5
G02 Y45.25259 I0. J0.125
G03 Y45.50259 I0. J0.125
G1 X2.
Y1.99996
X85.72826
Y45.50259
X7.5
G02 Y45.75259 I0. J0.125
G03 Y46.00259 I0. J0.125
G1 X1.5
Y1.49996
X86.22826
Y46.00259
X7.5
G02 Y46.25259 I0. J0.125
G03 Y46.50259 I0. J0.125
G1 X1.
Y0.99996
X86.72826
Y46.50259
X7.5
G02 Y46.75259 I0. J0.125
G03 Y47.00259 I0. J0.125
G1 X0.5
Y0.49996
X87.22826
Y47.00259
X7.5
G02 Y47.25259 I0. J0.125
G03 Y47.50259 I0. J0.125
G1 X0.
Y-0.00004
X87.72826
Y47.50259
X7.5
Z6.92071 F1431.
G0 Z11.20643
X14.32995 Y32.52111
G1 Z8.19071 F238.5
Z7.55571 F715.5
X14.18597 Y31.98571 Z7.45795 F715.5
X13.68597 Y31.07109 Z7.27416
X13.02539 Y30.32383 Z7.09829
X12.38656 Y29.82383 Z6.95525
X11.43597 Y29.37322 Z6.76976
X10.68597 Y29.17238 Z6.63285
X9.93597 Y29.12332 Z6.50032
X8.73549 Y29.32383 Z6.28571
X7.43597 Y29.92207 F954.
X6.68597 Y30.58623
X6.18597 Y31.23451
X5.78341 Y32.07384
X5.48527 Y33.57384
X5.53424 Y34.32384
X5.94831 Y35.57384
X6.21065 Y36.07384
X7.09727 Y37.07384
X8.43597 Y37.84611
X9.28513 Y38.07384
X10.18597 Y38.11845
X11.18597 Y37.97507
X12.43597 Y37.41323
X13.18597 Y36.7991
X13.7753 Y36.07384
X14.33691 Y34.82384
X14.48048 Y33.82384
X14.41136 Y32.82384
X14.18597 Y31.98571
X13.68597 Y31.07109
X13.02539 Y30.32383
X12.38656 Y29.82383
X11.43597 Y29.37322
X10.68597 Y29.17238
X9.93597 Y29.12332
X8.73549 Y29.32383
Z6.92071 F1431.
G0 Z11.20643
X45.86042 Y28.49684
G1 Z8.19071 F238.5
Z7.55571 F715.5
X45.43597 Y27.98918 Z7.43903 F715.5
X44.18597 Y27.0048 Z7.15849
X42.84874 Y26.32383 Z6.89388
X41.43597 Y25.9111 Z6.63436
X39.46062 Y25.82383 Z6.28571
X38.43597 Y25.9423 F954.
X37.11701 Y26.32383
X35.43597 Y27.22084
X34.43597 Y28.08415
X33.26824 Y29.57383
X32.65971 Y30.82383
X32.26839 Y32.07384
X32.13349 Y33.82384
X32.26808 Y35.07384
X32.51847 Y36.07384
X33.43597 Y37.99123
X34.68597 Y39.42882
X35.93597 Y40.32998
X37.18597 Y40.95539
X38.44164 Y41.32383
X39.93597 Y41.48656
X41.68597 Y41.28347
X42.93597 Y40.90847
X44.68597 Y39.8922
X45.43597 Y39.28341
X46.44812 Y38.07384
X47.27058 Y36.57384
X47.7081 Y35.07384
X47.83307 Y33.82384
X47.72376 Y32.32384
X47.3175 Y30.82383
X46.55186 Y29.32383
X45.43597 Y27.98918
X44.18597 Y27.0048
X42.84874 Y26.32383
X41.43597 Y25.9111
X39.46062 Y25.82383
Z6.92071 F1431.
G0 Z11.20643
X77.39824 Y21.95187
G1 Z8.19071 F238.5
Z7.55571 F715.5
X77.32798 Y21.82383 Z7.52996 F715.5
X76.18597 Y20.57136 Z7.2311
X74.68597 Y19.56392 Z6.91249
X73.40892 Y19.07383 Z6.6713
X72.68597 Y18.93083 Z6.54135
X71.24013 Y18.82383 Z6.28571
X70.18597 Y18.93174 F954.
X68.91614 Y19.32383
X67.54444 Y20.07383
X66.64619 Y20.82383
X65.64618 Y22.07383
X65.0432 Y23.32383
X64.64626 Y24.82383
X64.60569 Y26.07383
X64.68597 Y27.08372
X65.0435 Y28.32383
X65.68597 Y29.59367
X66.69949 Y30.82383
X67.68597 Y31.61375
X69.18597 Y32.36377
X70.43597 Y32.71574
X71.93597 Y32.76994
X72.68597 Y32.71581
X74.07827 Y32.32384
X75.51566 Y31.57383
X76.43721 Y30.82383
X77.45588 Y29.57383
X78.07868 Y28.32383
X78.43597 Y27.1531
X78.57801 Y25.82383
X78.43597 Y24.49411
X77.93597 Y22.93183
X77.32798 Y21.82383
X76.18597 Y20.57136
X74.68597 Y19.56392
X73.40892 Y19.07383
X72.68597 Y18.93083
X71.24013 Y18.82383
Z6.92071 F1431.
G0 Z11.20643
X56.13082 Y19.55372
G1 Z6.76214 F238.5
Z6.12714 F715.5
X56.15585 Y19.59027 Z6.11933 F715.5
X55.91373 Y20.21529 Z6.00114
X55.50106 Y20.29894 Z5.9269
X54.89548 Y19.67392 Z5.77345
X55.07502 Y19.24996 Z5.69226
X55.92273 Z5.54279
X56.03929 Y19.42011 Z5.50642
X56.15585 Y19.59027 Z5.47005
X55.91373 Y20.21529 Z5.35187
X55.50106 Y20.29894 Z5.27762
X54.89548 Y19.67392 Z5.12417
X55.07502 Y19.24996 Z5.04298
X55.92273 Z4.89351
X56.03929 Y19.42011 Z4.85714
X55.92273 Y19.49996
X55.68061 Y20.12498 F954.
X55.07502 Y19.49996
X55.92273
G03 X56.38897 Y19.68058 I0.23312 J0.09031
G1 X55.86481 Y21.03364
X53.89437 Y18.99996
X56.65263
X56.38897 Y19.68058
G02 X56.62209 Y19.77088 I0.11656 J0.04515
G03 X56.85521 Y19.86119 I0.11656 J0.04516
G1 X56.21978 Y21.50149
X56.08823 Y22.28696
X55.36442 Y21.18226
X52.68966 Y18.49996
X57.38253
X56.85521 Y19.86119
G02 X57.08578 Y19.95139 I0.11528 J0.0451
G03 X57.31634 Y20.04159 I0.11528 J0.0451
G1 X56.71291 Y21.58408
X56.36762 Y23.64578
X55.01037 Y21.53531
X52.10776 Y18.62453
X51.16087 Y17.99996
X58.30062
X57.85002 Y18.6774
X57.31634 Y20.04159
G02 X57.54643 Y20.13254 I0.11504 J0.04547
G03 X57.77651 Y20.22349 I0.11504 J0.04547
G1 X57.20604 Y21.66667
X56.64554 Y25.01331
X54.65541 Y21.88746
X51.83246 Y19.04192
X49.49475 Y17.49996
X59.25151
X58.31501 Y18.86121
X57.77651 Y20.22349
G02 X58.00622 Y20.31525 I0.11486 J0.04588
G03 X58.23593 Y20.40701 I0.11485 J0.04588
G1 X57.69875 Y21.75174
X57.14367 Y24.96681
X57.32503 Y28.03418
X56.41483 Y25.584
X54.2995 Y22.23863
X51.55715 Y19.4593
X48.46097 Y17.41705
X47.35719 Y16.99996
X60.21171
X58.77933 Y19.04669
X58.23593 Y20.40701
Z5.49214 F1431.
G0 Z11.20643
X58.03574 Y29.65764
G1 Z6.76214 F238.5
Z6.12714 F715.5
X58.27067 Y30.42982 Z5.98482 F715.5
X58.15109 Y30.5912 Z5.94941
X58.0315 Y30.75259 Z5.91399
X57.85521 Z5.88291
X57.60621 Y30.52494 Z5.82342
X57.53241 Y29.70294 Z5.67789
X58.02058 Y29.60781 Z5.59019
X58.27067 Y30.42982 Z5.43869
X58.15109 Y30.5912 Z5.40327
X58.0315 Y30.75259 Z5.36786
X57.85521 Z5.33677
X57.60621 Y30.52494 Z5.27728
X57.53241 Y29.70294 Z5.13176
X58.02058 Y29.60781 Z5.04406
X58.27067 Y30.42982 Z4.89256
X58.15109 Y30.5912 Z4.85714
X58.0315 Y30.50259
X57.85521 F954.
X57.78141 Y29.68058
X58.0315 Y30.50259
G02 X58.27067 Y30.42982 I0.11959 J-0.03639
G03 X58.50985 Y30.35705 I0.11959 J-0.03639
G1 X58.70625 Y31.00259
X57.39809
X57.24151 Y29.25862
X55.99145 Y25.84998
X53.94262 Y22.58882
X51.28043 Y19.87574
X48.28423 Y17.88477
X44.61946 Y16.49996
X61.17825
X59.24296 Y19.2339
X58.1911 Y21.83886
X57.6428 Y24.9373
X57.8314 Y28.12711
X58.50985 Y30.35705
Z5.49214 F1431.
G0 Z11.20643
X23.64294 Y19.75179
G1 Z6.76214 F238.5
Z6.12714 F715.5
X23.97063 Y19.75187 Z6.06936 F715.5
X24.16784 Y20.15544 Z5.99016
X23.70968 Y20.74398 Z5.85865
X23.35547 Y20.78502 Z5.79577
X22.62531 Y20.19617 Z5.63037
X22.70381 Y19.97387 Z5.5888
X22.78231 Y19.75157 Z5.54723
X23.97063 Y19.75187 Z5.3377
X24.16784 Y20.15544 Z5.2585
X23.70968 Y20.74398 Z5.12699
X23.35547 Y20.78502 Z5.06411
X22.62531 Y20.19617 Z4.89871
X22.70381 Y19.97387 Z4.85714
X22.78225 Y20.00157
X23.97056 Y20.00187 F954.
X23.51241 Y20.59042
X22.78225 Y20.00157
G03 X22.78238 Y19.50157 I0.00006 J-0.25
G1 X24.99322 Y19.50213
X23.59449 Y21.29895
X21.36533 Y19.5012
X22.78238 Y19.50157
G02 X22.78244 Y19.25157 I0.00003 J-0.125
G03 X22.7825 Y19.00157 I0.00003 J-0.125
G1 X26.01588 Y19.00239
X23.58157 Y22.12952
X23.18651 Y21.58809
X19.93267 Y19.00084
X22.7825 Y19.00157
G02 X22.78257 Y18.75157 I0.00003 J-0.125
G03 X22.78263 Y18.50157 I0.00003 J-0.125
G1 X27.48061 Y18.50277
X26.42015 Y19.29704
X23.55395 Y22.97898
X22.87533 Y21.97945
X18.5 Y18.50047
X22.78263 Y18.50157
G02 X22.7827 Y18.25157 I0.00003 J-0.125
G03 X22.78276 Y18.00157 I0.00003 J-0.125
G1 X29.01969 Y18.00316
X26.8147 Y19.60417
X23.51773 Y23.83949
X22.55776 Y22.36565
X18.53734 Y19.05967
X18. Y18.83475
Y18.00034
X22.78276 Y18.00157
G02 X22.78282 Y17.75157 I0.00003 J-0.125
G03 X22.78289 Y17.50157 I0.00003 J-0.125
G1 X30.57893 Y17.50356
X27.20925 Y19.91131
X23.47506 Y24.70827
X22.23858 Y22.75052
X18.34429 Y19.5209
X17.5 Y19.1675
Y17.50022
X22.78289 Y17.50157
G02 X22.78295 Y17.25157 I0.00003 J-0.125
G03 X22.78301 Y17.00157 I0.00003 J-0.125
G1 X32.56425 Y17.00406
X31.55382 Y17.42614
X27.59778 Y20.22601
X24.08697 Y24.56043
X23.54822 Y25.78011
X21.9177 Y23.13397
X18.15123 Y19.98212
X17. Y19.50024
Y17.00009
X22.78301 Y17.00157
G02 X22.78308 Y16.75157 I0.00004 J-0.125
G03 X22.78314 Y16.50157 I0.00003 J-0.125
G1 X35.13573 Y16.50472
X31.84109 Y17.83538
X27.98531 Y20.54196
X24.54434 Y24.76246
X23.6174 Y26.86094
X21.59502 Y23.51591
X17.95817 Y20.44335
X16.5 Y19.83299
Y16.49996
X22.78314 Y16.50157
G02 Y16.25076 I0. J-0.1254
G03 Y15.99996 I0. J-0.1254
G1 X62.56458
X61.42576 Y16.94426
X59.70587 Y19.42289
X58.68307 Y21.92812
X58.14205 Y24.91004
X58.30975 Y27.98157
X59.381 Y31.50259
X56.93623
X56.77156 Y29.42936
X55.56727 Y26.1147
X53.58474 Y22.938
X51.00246 Y20.29135
X48.09817 Y18.34886
X44.83126 Y17.03918
X40.91255 Y16.42606
X35.32129 Y16.96901
X32.12672 Y18.24576
X28.37177 Y20.85921
X25.00171 Y24.96448
X23.68335 Y27.94911
X21.27043 Y23.89623
X17.76511 Y20.90457
X16. Y20.16574
Y15.99996
X22.78314
G02 Y15.74996 I0. J-0.125
G03 Y15.49996 I0. J-0.125
G1 X63.9803
X61.83542 Y17.23092
X60.16802 Y19.61371
X59.17463 Y22.01959
X58.64144 Y24.88522
X58.7881 Y27.83604
X59.86266 Y31.36792
X60.26476 Y32.00259
X56.47016
X56.30109 Y29.59864
X55.14229 Y26.37812
X53.22584 Y23.28613
X50.7232 Y20.7061
X47.91045 Y18.81228
X44.752 Y17.53286
X40.95911 Y16.92389
X35.50511 Y17.434
X32.41065 Y18.65732
X28.7571 Y21.17783
X25.45908 Y25.16651
X23.9387 Y28.60848
X23.68879 Y30.06254
X23.39176 Y28.43977
X20.94381 Y24.2748
X17.57205 Y21.3658
X15.5 Y20.49848
Y15.49996
X22.78314
G02 Y15.24996 I0. J-0.125
G03 Y14.99996 I0. J-0.125
G1 X65.41261
X62.2439 Y17.51927
X60.62939 Y19.80643
X59.66577 Y22.11333
X59.14094 Y24.86294
X59.26718 Y27.69293
X60.28503 Y31.10033
X61.17345 Y32.50259
X56.0003
X55.83008 Y29.76642
X54.71646 Y26.64017
X52.86591 Y23.63318
X50.44265 Y21.11997
X47.72101 Y19.27501
X44.67069 Y18.02621
X41.00386 Y17.42188
X35.68714 Y17.89969
X32.69281 Y19.0701
X29.14129 Y21.49783
X25.91561 Y25.37042
X24.43148 Y28.69317
X23.77676 Y32.50259
X23.57874
X22.95932 Y28.69075
X20.61502 Y24.6515
X17.37899 Y21.82702
X15. Y20.83123
Y14.99996
X22.78314
G02 Y14.74996 I0. J-0.125
G03 Y14.49996 I0. J-0.125
G1 X67.80362
X65.72568 Y15.38985
X62.65114 Y17.80936
X61.08993 Y20.00111
X60.15644 Y22.20944
X59.64055 Y24.8433
X59.74704 Y27.55244
X60.70739 Y30.83273
X62.08214 Y33.00259
X55.52698
X55.35853 Y29.93265
X54.28978 Y26.90084
X52.5049 Y23.97912
X50.16076 Y21.53293
X47.52981 Y19.73701
X44.58726 Y18.51919
X41.04677 Y17.92004
X35.86732 Y18.36609
X32.97314 Y19.48413
X29.52427 Y21.81927
X26.37148 Y25.5758
X24.92085 Y28.79572
X24.25879 Y31.955
X24.29369 Y33.00259
X23.14969
X22.52546 Y28.93928
X20.28391 Y25.02615
X17.18594 Y22.28825
X14.5 Y21.16397
Y14.49996
X22.78314
G02 Y14.24996 I0. J-0.125
G03 Y13.99996 I0. J-0.125
G1 X73.72826
Y14.61933
X72.79075 Y14.42134
X68.60422 Y14.70652
X66.03284 Y15.78437
X63.0571 Y18.10125
X61.54961 Y20.19781
X60.64663 Y22.308
X60.14027 Y24.82642
X60.22772 Y27.41481
X61.12976 Y30.56513
X62.57737 Y32.85
X63.28339 Y33.50259
X55.05049
X54.8864 Y30.09728
X53.86222 Y27.16005
X52.1428 Y24.32392
X49.8775 Y21.94495
X47.33679 Y20.19825
X44.50163 Y19.01181
X41.08777 Y18.41835
X36.04558 Y18.83324
X33.25155 Y19.89944
X29.90602 Y22.14217
X26.82668 Y25.78267
X25.40974 Y28.90053
X24.75852 Y31.93835
X24.81063 Y33.50259
X22.71705
X22.09016 Y29.18527
X19.95031 Y25.39859
X16.99288 Y22.74947
X14. Y21.49672
Y13.99996
X22.78314
G02 Y13.74996 I0. J-0.125
G03 Y13.49996 I0. J-0.125
G1 X74.22826
Y15.25004
X72.82154 Y14.92039
X68.79462 Y15.16885
X66.33787 Y16.18055
X63.4617 Y18.39502
X62.00839 Y20.39662
X61.1363 Y22.4091
X60.64007 Y24.81241
X60.70925 Y27.28014
X61.55386 Y30.3003
X62.91676 Y32.48282
X64.56094 Y34.00259
X54.57108
X54.41371 Y30.26024
X53.43375 Y27.41776
X51.77958 Y24.66754
X49.59283 Y22.35601
X47.14191 Y20.6587
X44.41369 Y19.50401
X41.12682 Y18.91682
X36.22186 Y19.30113
X33.52797 Y20.31609
X30.28648 Y22.46659
X27.28119 Y25.99105
X25.8981 Y29.00777
X25.25824 Y31.92171
X25.32756 Y34.00259
X22.28097
X21.65338 Y29.42864
X19.614 Y25.76859
X16.79982 Y23.2107
X14.09088 Y21.94746
X13.5 Y21.82947
Y13.49996
X22.78314
G02 Y13.24996 I0. J-0.125
G03 Y12.99996 I0. J-0.125
G1 X74.72826
Y15.89092
X72.84901 Y15.41964
X68.98193 Y15.63244
X66.64066 Y16.57844
X63.86487 Y18.69074
X62.46622 Y20.59761
X61.62542 Y22.51286
X61.13995 Y24.8014
X61.19163 Y27.14857
X61.97987 Y30.03854
X63.25614 Y32.11565
X65.8385 Y34.50259
X54.08894
X53.94042 Y30.42149
X53.00435 Y27.67391
X51.41521 Y25.00993
X49.30673 Y22.76606
X46.9451 Y21.11834
X44.32337 Y19.99579
X41.16388 Y19.41545
X36.3961 Y19.76979
X33.8023 Y20.73411
X30.66561 Y22.79258
X27.73499 Y26.20095
X26.38588 Y29.11765
X25.75796 Y31.90506
X25.8445 Y34.50259
X21.8416
X21.2151 Y29.66927
X19.2755 Y26.13657
X16.58626 Y23.66279
X13.99297 Y22.43778
X13. Y22.23949
Y12.99996
X22.78314
G02 Y12.74996 I0. J-0.125
G03 Y12.49996 I0. J-0.125
G1 X75.22826
Y16.53976
X72.87303 Y15.91906
X69.16597 Y16.09733
X66.94109 Y16.97812
X64.26654 Y18.9885
X62.92304 Y20.80086
X62.11394 Y22.61937
X61.63989 Y24.79355
X61.67487 Y27.02022
X62.40798 Y29.78024
X63.59553 Y31.74848
X66.37765 Y34.32006
X67.83237 Y35.00259
X53.60428
X53.46653 Y30.58095
X52.57398 Y27.92844
X51.04965 Y25.35105
X49.01916 Y23.17509
X46.74632 Y21.57713
X44.23053 Y20.48709
X41.19889 Y19.91422
X36.56822 Y20.23923
X34.07444 Y21.15356
X31.04334 Y23.12017
X28.18808 Y26.4124
X26.873 Y29.23041
X26.25768 Y31.88841
X26.36143 Y35.00259
X21.2489
X21.34867 Y34.43926
X20.77526 Y29.90705
X18.9347 Y26.50244
X16.37026 Y24.11373
X13.89506 Y22.9281
X12.5 Y22.64952
Y12.49996
X22.78314
G02 Y12.24996 I0. J-0.125
G03 Y11.99996 I0. J-0.125
G1 X75.72826
Y17.4231
X74.87057 Y16.90821
X72.89344 Y16.41864
X69.34652 Y16.5636
X67.23903 Y17.37966
X64.66663 Y19.28839
X63.37881 Y21.00647
X62.60183 Y22.72877
X62.13987 Y24.78901
X62.15899 Y26.89519
X62.83832 Y29.52567
X63.93728 Y31.3835
X66.59002 Y33.8674
X68.55449 Y34.7891
X70.47717 Y35.22886
X73.43344 Y35.11496
X75.72826 Y34.26878
Y35.50259
X53.11725
X52.99202 Y30.73855
X52.14262 Y28.18128
X50.68286 Y25.69086
X48.73007 Y23.58305
X46.5455 Y22.03503
X44.13505 Y20.97789
X41.23179 Y20.41314
X36.73814 Y20.70947
X34.34429 Y21.57449
X31.41962 Y23.44944
X28.64045 Y26.62538
X27.35937 Y29.34635
X26.75741 Y31.87176
X26.87837 Y35.50259
X20.62032
X20.85217 Y34.49833
X20.33381 Y30.14185
X18.59152 Y26.86607
X16.15159 Y24.56338
X13.79715 Y23.41842
X12. Y23.05955
Y11.99996
X22.78314
G02 Y11.74996 I0. J-0.125
G03 Y11.49996 I0. J-0.125
G1 X76.22826
Y18.33187
X74.74556 Y17.39233
X72.91011 Y16.91837
X69.52331 Y17.0313
X67.53434 Y17.78313
X65.06503 Y19.59051
X63.83346 Y21.21454
X63.08903 Y22.84118
X62.63987 Y24.78798
X62.64398 Y26.77361
X63.27106 Y29.27519
X64.2815 Y31.02085
X66.80469 Y33.41583
X68.6703 Y34.30269
X70.46129 Y34.72911
X73.27864 Y34.63953
X75.14337 Y34.0324
X76.22826 Y33.39537
Y36.00259
X52.48488
X52.69467 Y35.1175
X52.51687 Y30.89424
X51.71023 Y28.43236
X50.31482 Y26.0293
X48.43944 Y23.9899
X46.34259 Y22.492
X44.03681 Y21.46815
X41.26253 Y20.91219
X36.90578 Y21.18053
X34.61173 Y21.99695
X31.79437 Y23.78044
X29.09208 Y26.83993
X27.84513 Y29.46483
X27.2574 Y31.87438
X27.24162 Y34.88824
X27.51693 Y36.00259
X19.97004
X20.35523 Y34.55355
X19.89072 Y30.3735
X18.24587 Y27.22735
X15.93 Y25.0116
X13.69924 Y23.90874
X11.5 Y23.46957
Y11.49996
X22.78314
G02 Y11.24996 I0. J-0.125
G03 Y10.99996 I0. J-0.125
G1 X76.72826
Y19.25593
X74.61525 Y17.87505
X72.92286 Y17.4182
X69.69605 Y17.50051
X67.82688 Y18.18862
X65.46164 Y19.89498
X64.28692 Y21.42518
X63.57549 Y22.95673
X63.13986 Y24.79066
X63.12985 Y26.65561
X63.70636 Y29.0292
X64.62832 Y30.66069
X67.02165 Y32.96535
X68.79082 Y33.81744
X70.44894 Y34.22926
X73.12683 Y34.16313
X74.8902 Y33.60123
X76.72826 Y32.52197
Y36.50259
X51.83695
X52.19502 Y35.13631
X52.04108 Y31.04791
X51.27678 Y28.6816
X49.94548 Y26.36633
X48.1472 Y24.39561
X46.13751 Y22.94801
X43.93564 Y21.9578
X41.29104 Y21.41138
X37.07106 Y21.65242
X34.87662 Y22.42102
X32.16752 Y24.11324
X29.54296 Y27.05605
X28.33023 Y29.58599
X27.75737 Y31.87963
X27.72703 Y34.76832
X28.15549 Y36.50259
X19.30289
X19.85786 Y34.60474
X19.44591 Y30.60187
X17.89763 Y27.58614
X15.70517 Y25.45819
X13.60133 Y24.39906
X11. Y23.8796
Y10.99996
X22.78314
G02 Y10.74996 I0. J-0.125
G03 Y10.49996 I0. J-0.125
G1 X77.22826
Y20.19067
X74.47908 Y18.35615
X72.93153 Y17.91813
X69.86437 Y17.97133
X68.11646 Y18.59623
X65.85633 Y20.20192
X64.73913 Y21.63852
X64.06116 Y23.07559
X63.63982 Y24.79732
X63.6166 Y26.54126
X64.14445 Y28.7882
X64.97788 Y30.30319
X67.24089 Y32.51598
X68.91653 Y33.3335
X70.4404 Y33.72933
X72.97738 Y33.68599
X74.65262 Y33.16128
X76.16879 Y32.34253
X77.22826 Y31.43642
Y37.00259
X51.17791
X51.69529 Y35.15283
X51.56461 Y31.1995
X50.84223 Y28.92891
X49.57479 Y26.70187
X47.85332 Y24.80013
X45.93022 Y23.40302
X43.83136 Y22.44681
X41.31727 Y21.91069
X37.23389 Y22.12517
X35.13882 Y22.84676
X32.539 Y24.44791
X29.99306 Y27.27378
X28.81462 Y29.70995
X28.25731 Y31.88775
X28.21244 Y34.6484
X28.79405 Y37.00259
X18.6218
X19.36006 Y34.65168
X18.99935 Y30.82676
X17.54672 Y27.94232
X15.47672 Y25.90295
X13.50341 Y24.88938
X10.5 Y24.28963
Y10.49996
X22.78314
G02 Y10.24996 I0. J-0.125
G03 Y9.99996 I0. J-0.125
G1 X77.72826
Y21.5099
X76.70879 Y20.35819
X74.33631 Y18.83533
X72.93596 Y18.41811
X70.02785 Y18.44385
X68.40289 Y19.00605
X66.24898 Y20.51148
X65.18998 Y21.85468
X64.54597 Y23.1979
X64.1397 Y24.80825
X64.10422 Y26.43066
X64.58557 Y28.55281
X65.33036 Y29.94857
X67.46236 Y32.06771
X69.048 Y32.85109
X70.43596 Y33.22935
X72.83039 Y33.20808
X74.41782 Y32.71984
X75.84756 Y31.95937
X76.82453 Y31.14029
X77.72826 Y30.03478
Y37.50259
X50.5101
X51.1955 Y35.16697
X51.08745 Y31.3489
X50.40653 Y29.17419
X49.20272 Y27.03588
X47.55775 Y25.20341
X45.72065 Y23.85698
X43.72377 Y22.9351
X41.34114 Y22.41012
X37.39416 Y22.59878
X35.39816 Y23.27424
X32.9087 Y24.78455
X30.44238 Y27.49313
X29.29825 Y29.83684
X28.75718 Y31.89904
X28.69784 Y34.52847
X29.43261 Y37.50259
X17.9288
X18.86187 Y34.69417
X18.55095 Y31.04799
X17.19305 Y28.29576
X15.24419 Y26.3456
X13.4055 Y25.3797
X10. Y24.69966
Y9.99996
X22.78314
G02 Y9.74996 I0. J-0.125
G03 Y9.49996 I0. J-0.125
G1 X78.22826
Y23.71071
X77.34156 Y21.82383
X76.43597 Y20.77719
X74.18597 Y19.31219
X72.93597 Y18.91811
X70.18597 Y18.91819
X68.68597 Y19.4182
X66.63941 Y20.82383
X65.6394 Y22.07383
X65.02985 Y23.32383
X64.63945 Y24.82383
X64.59267 Y26.32383
X65.03006 Y28.32383
X65.68597 Y29.59708
X67.68597 Y31.62049
X69.18597 Y32.3705
X70.43597 Y32.72935
X72.68597 Y32.7294
X74.18597 Y32.27684
X75.52919 Y31.57383
X76.43742 Y30.82383
X77.45926 Y29.57383
X78.22826 Y27.77832
Y38.00259
X49.83502
X50.69563 Y35.17865
X50.60959 Y31.49602
X49.96964 Y29.41735
X48.8292 Y27.36827
X47.26043 Y25.60541
X45.50873 Y24.30985
X43.61264 Y23.42259
X41.36259 Y22.90966
X37.55178 Y23.07329
X35.65447 Y23.70355
X33.27652 Y25.12323
X30.8909 Y27.7141
X29.78106 Y29.96681
X29.25696 Y31.9138
X29.18325 Y34.40855
X30.07116 Y38.00259
X17.22546
X18.3633 Y34.73194
X18.10066 Y31.26533
X16.83652 Y28.64631
X15.00737 Y26.78596
X13.30214 Y25.8689
X10.09325 Y25.19088
X9.5 Y25.30322
Y9.49996
X22.78314
G02 Y9.24996 I0. J-0.125
G03 Y8.99996 I0. J-0.125
G1 X78.72826
Y38.50259
X48.96704
X49.64346 Y37.33626
X50.21043 Y35.05791
X50.13099 Y31.64074
X49.5315 Y29.65826
X48.45418 Y27.69897
X46.96131 Y26.00607
X45.29442 Y24.76159
X43.49769 Y23.9092
X41.38154 Y23.4093
X37.70665 Y23.5487
X35.90753 Y24.13478
X33.64235 Y25.46407
X31.33861 Y27.93671
X30.26299 Y30.10003
X29.75664 Y31.93167
X29.67187 Y34.30248
X30.36516 Y37.49612
X30.91148 Y38.50259
X16.16968
X16.83488 Y37.6927
X17.86438 Y34.76473
X17.6484 Y31.47854
X16.47703 Y28.99382
X14.76604 Y27.22386
X13.19266 Y26.35676
X10.18628 Y25.68215
X9. Y25.90678
Y8.99996
X22.78314
G02 Y8.74996 I0. J-0.125
G03 Y8.49996 I0. J-0.125
G1 X79.22826
Y39.00259
X48.08337
X49.1592 Y37.21179
X49.71051 Y35.06687
X49.65164 Y31.78295
X49.09207 Y29.89679
X48.07761 Y28.0279
X46.66032 Y26.40532
X45.07766 Y25.21216
X43.37859 Y24.3948
X41.39792 Y23.90903
X37.85866 Y24.02503
X36.15711 Y24.56803
X34.00604 Y25.80718
X31.78551 Y28.16095
X30.74394 Y30.23673
X30.25619 Y31.9528
X30.16116 Y34.19953
X30.80459 Y37.25759
X31.7518 Y39.00259
X15.06662
X16.3654 Y37.52068
X17.36513 Y34.79224
X17.19408 Y31.68733
X16.11447 Y29.33813
X14.51999 Y27.65913
X13.07625 Y26.84302
X10.2793 Y26.17342
X8.5 Y26.51034
Y8.49996
X22.78314
G02 Y8.24996 I0. J-0.125
G03 Y7.99996 I0. J-0.125
G1 X79.72826
Y39.50259
X47.18922
X48.67599 Y37.0833
X49.21055 Y35.07307
X49.17151 Y31.92252
X48.65127 Y30.13279
X47.69942 Y28.35496
X46.35738 Y26.8031
X44.85843 Y25.66154
X43.25495 Y24.87928
X41.41165 Y24.40884
X38.0077 Y24.50231
X36.40294 Y25.00343
X34.36746 Y26.15269
X32.23159 Y28.38681
X31.22382 Y30.37714
X30.75559 Y31.97737
X30.65115 Y34.10001
X31.24403 Y37.01906
X32.33122 Y39.02194
X32.77594 Y39.50259
X13.69904
X14.21169 Y39.20063
X15.89842 Y37.342
X16.86561 Y34.81411
X16.7376 Y31.89137
X15.74871 Y29.67905
X14.26906 Y28.0916
X12.95186 Y27.3273
X10.37232 Y26.66469
X8. Y27.1139
Y7.99996
X22.78314
G02 Y7.74996 I0. J-0.125
G03 Y7.49996 I0. J-0.125
G1 X80.22826
Y40.00259
X46.1249
X47.32795 Y38.55213
X48.2346 Y36.84841
X48.71056 Y35.07638
X48.69058 Y32.05929
X48.20904 Y30.3661
X47.31953 Y28.68005
X46.05241 Y27.19932
X44.63672 Y26.10969
X43.12627 Y25.36244
X41.42262 Y24.90872
X38.15366 Y24.98053
X36.64471 Y25.44109
X34.7264 Y26.50078
X32.67685 Y28.61427
X31.70251 Y30.52156
X31.25479 Y32.00558
X31.14186 Y34.00409
X31.68516 Y36.78369
X32.69822 Y38.68237
X33.91977 Y40.00259
X10.93489
X12.05254 Y39.80622
X13.84598 Y38.85966
X15.43426 Y37.15611
X16.36586 Y34.82998
X16.27887 Y32.09028
X15.37963 Y30.01636
X14.01312 Y28.52113
X12.81812 Y27.80908
X10.46534 Y27.15596
X7.82111 Y27.53944
X7.5 Y27.71746
Y7.49996
X22.78314
Z5.49214 F1431.
G0 Z11.20643
X8.46681 Y40.25259
G1 Z6.76214 F238.5
Z6.12714 F715.5
X7.50784 Z5.95805 F715.5
X7.38284 Y40.12661 Z5.92676
X7.25785 Y40.00063 Z5.89547
X7.26222 Y39.44142 Z5.79686
X7.57678 Y39.20185 Z5.72714
X9.66826 Y39.76107 Z5.3454
X9.60368 Y40.25259 Z5.25799
X7.50784 Z4.88844
X7.38284 Y40.12661 Z4.85714
X7.50784 Y40.00259
X7.51221 Y39.44337 F954.
X9.60368 Y40.00259
X7.50784
G03 X7.00786 Y39.99868 I-0.24999 J-0.00196
G1 X7.01727 Y38.79347
X10.1155 Y39.62187
X11.82521 Y39.36089
X13.48517 Y38.51352
X14.97334 Y36.96231
X15.86595 Y34.83941
X15.81775 Y32.28359
X15.00706 Y30.34981
X13.75197 Y28.94751
X12.67584 Y28.28841
X10.53066 Y27.65168
X8.06354 Y27.97674
X7. Y28.56635
Y6.99996
X80.72826
Y40.50259
X44.67441
X45.8195 Y39.60668
X46.88808 Y38.31441
X47.75305 Y36.71384
X48.21056 Y35.07668
X48.20883 Y32.19313
X47.7653 Y30.59652
X46.93786 Y29.00305
X45.74531 Y27.5939
X44.41254 Y26.55662
X42.99196 Y25.84406
X41.43077 Y25.40866
X38.29645 Y25.4597
X36.88205 Y25.88117
X35.08266 Y26.8516
X33.12131 Y28.8433
X32.17987 Y30.67032
X31.75376 Y32.03765
X31.6333 Y33.91197
X32.12819 Y36.55189
X33.06523 Y38.3428
X34.69282 Y40.10186
X35.41283 Y40.50259
X7.00392
X7.00786 Y39.99868
G02 X6.75786 Y39.99673 I-0.125 J-0.00097
G03 X6.50787 Y39.99478 I-0.12499 J-0.00098
G1 X6.52413 Y37.91276
X7.56954 Y38.54241
X10.04733 Y39.12654
X11.6045 Y38.91224
X13.12965 Y38.16195
X14.5162 Y36.75976
X15.36596 Y34.84191
X15.35411 Y32.47076
X14.63083 Y30.67913
X13.48543 Y29.37054
X12.5241 Y28.76483
X10.58847 Y28.14833
X8.30597 Y28.41403
X6.5 Y29.41523
Y6.49996
X81.22826
Y41.00259
X42.62581
X44.18597 Y40.24751
X45.43597 Y39.28589
X46.44976 Y38.07384
X47.27305 Y36.57384
X47.71057 Y35.07384
X47.72621 Y32.32384
X47.31996 Y30.82383
X46.55432 Y29.32383
X45.43597 Y27.98672
X44.18597 Y27.00234
X42.8512 Y26.32383
X41.43597 Y25.90863
X38.43597 Y25.93984
X37.11453 Y26.32383
X35.43597 Y27.2054
X33.565 Y29.07383
X32.65572 Y30.82383
X32.25245 Y32.07384
X32.12547 Y33.82384
X32.57315 Y36.32384
X33.43597 Y38.00731
X34.93597 Y39.66497
X37.33938 Y41.00259
X6.5
X6.50787 Y39.99478
G02 X6.25394 I-0.12697 J0.
G03 X6. I-0.12697 J0.
G1 Y36.60301
X6.79086 Y37.48985
X7.69056 Y38.05728
X9.98719 Y38.63017
X11.39111 Y38.46006
X12.77979 Y37.80474
X14.06354 Y36.5474
X14.86598 Y34.83693
X14.88777 Y32.65112
X14.25071 Y31.00395
X13.2134 Y29.79006
X12.36147 Y29.23765
X10.64029 Y28.64563
X8.51823 Y28.86674
X7.08242 Y29.53993
X6. Y30.62234
Y5.99996
X81.72826
Y41.50259
X6.
Y39.99478
G02 X5.75 I-0.125 J0.
G03 X5.5 I-0.125 J0.
G1 Y34.20265
X6.20341 Y36.07384
X7.06823 Y37.07384
X7.81816 Y37.57384
X9.93597 Y38.1328
X11.18597 Y38.00408
X12.43597 Y37.44171
X13.61631 Y36.32384
X14.36616 Y34.82384
X14.41855 Y32.82384
X13.86643 Y31.32383
X12.93597 Y30.20604
X12.18597 Y29.70583
X10.68597 Y29.14354
X8.72087 Y29.32383
X7.43597 Y29.89348
X6.25561 Y31.07383
X5.75546 Y32.07384
X5.5 Y33.4201
Y5.49996
X82.22826
Y42.00259
X5.5
Y39.99478
G02 X5.25 I-0.125 J0.
G03 X5. I-0.125 J0.
G1 Y4.99996
X82.72826
Y42.50259
X5.
Y39.99478
G02 X4.75 I-0.125 J0.
G03 X4.5 I-0.125 J0.
G1 Y4.49996
X83.22826
Y43.00259
X4.5
Y39.99478
G02 X4.25 I-0.125 J0.
G03 X4. I-0.125 J0.
G1 Y3.99996
X83.72826
Y43.50259
X4.
Y39.99478
G02 X3.75 I-0.125 J0.
G03 X3.5 I-0.125 J0.
G1 Y3.49996
X84.22826
Y44.00259
X3.5
Y39.99478
G02 X3.25 I-0.125 J0.
G03 X3. I-0.125 J0.
G1 Y2.99996
X84.72826
Y44.50259
X3.
Y39.99478
G02 X2.75 I-0.125 J0.
G03 X2.5 I-0.125 J0.
G1 Y2.49996
X85.22826
Y45.00259
X2.5
Y39.99478
G02 X2.25 I-0.125 J0.
G03 X2. I-0.125 J0.
G1 Y1.99996
X85.72826
Y45.50259
X2.
Y39.99478
G02 X1.75 I-0.125 J0.
G03 X1.5 I-0.125 J0.
G1 Y1.49996
X86.22826
Y46.00259
X1.5
Y39.99478
G02 X1.25 I-0.125 J0.
G03 X1. I-0.125 J0.
G1 Y0.99996
X86.72826
Y46.50259
X1.
Y39.99478
G02 X0.75 I-0.125 J0.
G03 X0.5 I-0.125 J0.
G1 Y0.49996
X87.22826
Y47.00259
X0.5
Y39.99478
G02 X0.25 I-0.125 J0.
G03 X0. I-0.125 J0.
G1 Y-0.00004
X87.72826
Y47.50259
X0.
Y39.99478
Z5.49214 F1431.
G0 Z11.20643
X14.32804 Y32.48619
G1 Z6.76214 F238.5
Z6.12714 F715.5
X14.18597 Y31.95621 Z6.03039 F715.5
X13.86643 Y31.32383 Z5.90546
X12.93597 Y30.20604 Z5.64901
X12.18597 Y29.70583 Z5.49006
X10.68597 Y29.14354 Z5.20759
X9.43597 Y29.14342 Z4.98718
X8.72087 Y29.32383 Z4.85714
X7.43597 Y29.89348 F954.
X6.25561 Y31.07383
X5.75546 Y32.07384
X5.47083 Y33.57384
X5.50562 Y34.32384
X5.81791 Y35.32384
X6.20341 Y36.07384
X7.06823 Y37.07384
X7.81816 Y37.57384
X9.2558 Y38.07384
X9.93597 Y38.1328
X11.18597 Y38.00408
X12.43597 Y37.44171
X13.61631 Y36.32384
X14.36616 Y34.82384
X14.49487 Y33.82384
X14.41855 Y32.82384
X14.18597 Y31.95621
X13.86643 Y31.32383
X12.93597 Y30.20604
X12.18597 Y29.70583
X10.68597 Y29.14354
X9.43597 Y29.14342
X8.72087 Y29.32383
Z5.49214 F1431.
G0 Z11.20643
X45.85912 Y28.49265
G1 Z6.76214 F238.5
Z6.12714 F715.5
X45.43597 Y27.98672 Z6.01084 F715.5
X44.18597 Y27.00234 Z5.73029
X42.8512 Y26.32383 Z5.46628
X41.43597 Y25.90863 Z5.20622
X39.4581 Y25.82383 Z4.85714
X38.43597 Y25.93984 F954.
X37.11453 Y26.32383
X35.43597 Y27.2054
X34.43597 Y28.08215
X33.565 Y29.07383
X32.65572 Y30.82383
X32.25245 Y32.07384
X32.12547 Y33.82384
X32.25239 Y35.07384
X32.57315 Y36.32384
X33.43597 Y38.00731
X34.18597 Y38.93595
X34.93597 Y39.66497
X35.93597 Y40.33228
X37.18597 Y40.95784
X38.44082 Y41.32383
X39.93597 Y41.48903
X41.53868 Y41.32383
X42.93597 Y40.91093
X44.18597 Y40.24751
X45.43597 Y39.28589
X46.44976 Y38.07384
X47.27305 Y36.57384
X47.71057 Y35.07384
X47.83555 Y33.82384
X47.72621 Y32.32384
X47.31996 Y30.82383
X46.55432 Y29.32383
X45.43597 Y27.98672
X44.18597 Y27.00234
X42.8512 Y26.32383
X41.43597 Y25.90863
X39.4581 Y25.82383
Z5.49214 F1431.
G0 Z11.20643
X77.39309 Y21.91752
G1 Z6.76214 F238.5
Z6.12714 F715.5
X77.34156 Y21.82383 Z6.10829 F715.5
X76.43597 Y20.77719 Z5.86425
X74.93597 Y19.66827 Z5.53533
X74.18597 Y19.31219 Z5.38893
X72.93597 Y18.91811 Z5.15783
X71.23329 Y18.82383 Z4.85714
X70.18597 Y18.91819 F954.
X68.68597 Y19.4182
X67.43597 Y20.16796
X66.63941 Y20.82383
X65.6394 Y22.07383
X65.02985 Y23.32383
X64.63945 Y24.82383
X64.59267 Y26.32383
X64.8422 Y27.57383
X65.03006 Y28.32383
X65.68597 Y29.59708
X66.93597 Y31.02663
X67.68597 Y31.62049
X69.18597 Y32.3705
X70.43597 Y32.72935
X71.68597 Y32.8002
X72.68597 Y32.7294
X74.18597 Y32.27684
X75.52919 Y31.57383
X76.43742 Y30.82383
X77.45926 Y29.57383
X78.09205 Y28.32383
X78.52901 Y26.57383
X78.52978 Y25.57383
X78.3418 Y24.07383
X78.02912 Y23.07383
X77.34156 Y21.82383
X76.43597 Y20.77719
X74.93597 Y19.66827
X74.18597 Y19.31219
X72.93597 Y18.91811
X71.23329 Y18.82383
Z5.49214 F1431.
G0 Z11.20643
X7.58089 Y41.58638
G1 Z5.33357 F238.5
Z4.69857 F715.5
X8.67659 Y41.99871 Z4.49214 F715.5
X9.50457 Y42.00259 Z4.34615
X5.5 Z3.64003
Y40.80333 Z3.42857
X8.67659 Y41.99871 F954.
X9.50457 Y42.00259
X5.5
Y40.80333
G03 X5.81435 Y40.4145 I0.15717 J-0.19441
G1 X5.88586 Y40.47232
X8.67894 Y41.49871
X35.09915 Y41.62255
X37.29046 Y42.50259
X5.
Y39.75615
X5.81435 Y40.4145
Z4.06357 F1431.
G0 Z11.20643
X8.58423 Y23.70548
G1 Z5.33357 F238.5
Z4.69857 F715.5
X8.58416 Y24.14154 Z4.62168 F715.5
X7.1369 Y24.54416 Z4.3568
X6.97843 Y24.42076 Z4.32139
X6.81996 Y24.29735 Z4.28597
X6.83904 Y23.4969 Z4.14479
X7.15605 Y23.26202 Z4.07522
X8.58424 Y23.65985 Z3.8138
X8.58416 Y24.14154 Z3.72887
X7.1369 Y24.54416 Z3.46399
X6.97843 Y24.42076 Z3.42857
X7.06989 Y24.30331
X7.08897 Y23.50285 F954.
X8.51716 Y23.90068
X7.06989 Y24.30331
G03 X6.57003 Y24.2914 I-0.24993 J-0.00596
G1 X6.60493 Y22.82677
X8.43242 Y23.40068
X36.68065 Y23.40204
X34.74826 Y24.13375
X9.29158 Y24.20423
X6.55396 Y24.96583
X6.57003 Y24.2914
Z4.06357 F1431.
G0 Z11.20643
X73.38352 Y14.79824
G1 Z5.33357 F238.5
Z4.69857 F715.5
X72.79932 Y14.65726 Z4.5926 F715.5
X71.13741 Y14.71056 Z4.29941
X70.87943 Y14.45647 Z4.23557
X70.88722 Y13.99573 Z4.15431
X71.13718 Y13.74996 Z4.0925
X73.72826 Z3.63563
X73.97826 Y13.99996 Z3.57328
Y14.62425 Z3.46321
X73.82394 Y14.74576 Z3.42857
X73.72826 Y14.62425
X72.8251 Y14.4063 F954.
X71.1294 Y14.46069
X71.13718 Y13.99996
X73.72826
Y14.62425
G03 X73.59996 Y15.10751 I-0.06415 J0.24163
G1 X72.84113 Y14.90605
X70.62059 Y14.97727
X70.64556 Y13.49996
X74.22826
Y15.27432
X73.59996 Y15.10751
G02 X73.53331 Y15.34293 I-0.03332 J0.11771
G03 X73.46666 Y15.57835 I-0.03333 J0.11771
G1 X72.85715 Y15.40579
X70.11179 Y15.49385
X70.15395 Y12.99996
X74.72826
Y15.93552
X73.46666 Y15.57835
G02 X73.39786 Y15.80972 I-0.0344 J0.11569
G03 X73.32906 Y16.04109 I-0.0344 J0.11569
G1 X72.87318 Y15.90553
X69.60298 Y16.01042
X69.66233 Y12.49996
X75.22826
Y16.60584
X73.32906 Y16.04109
G02 X73.25844 Y16.26876 I-0.03531 J0.11384
G03 X73.18782 Y16.49644 I-0.03531 J0.11384
G1 X72.89343 Y16.40512
X69.34997 Y16.54875
X68.78926 Y16.7554
X69.10344 Y15.98915
X69.23633 Y12.86805
X69.02847 Y11.99996
X75.72826
Y17.28444
X73.18782 Y16.49644
G02 X73.11541 Y16.72197 I-0.0362 J0.11276
G03 X73.04301 Y16.94751 I-0.0362 J0.11277
G1 X72.91011 Y16.90484
X69.52288 Y17.0179
X67.82819 Y17.64248
X68.60404 Y15.96468
X68.75008 Y12.98449
X68.39461 Y11.49996
X76.22826
Y18.19439
X75.60174 Y17.76895
X73.04301 Y16.94751
G02 X72.98294 Y17.1761 I-0.03004 J0.11429
G03 X72.92287 Y17.40468 I-0.03004 J0.11429
G1 X69.69579 Y17.48705
X67.82449 Y18.17673
X66.57712 Y19.0648
X68.10482 Y15.93669
X68.26382 Y13.10092
X67.76075 Y10.99996
X76.72826
Y19.17434
X75.4439 Y18.24339
X72.92287 Y17.40468
Z4.06357 F1431.
G0 Z11.20643
X59.49412 Y32.19127
G1 Z5.33357 F238.5
Z4.69857 F715.5
