%
G17 G21 G40 G90 G64 P0.1
(2 1/2 Axis Pocketing Rough)
(1/4in 6.35mm 2 Flute Carbide Router)
T30 M06
S22206 M3
G0 Z3.175
X34.1565 Y53.02028
G1 Z1.17143 F1249.
Z0.57143 F3747.
X34.49536 Y52.789 Z0.49909
X35.18078 Y52.58772 Z0.37313
X35.93901 Y52.60743 Z0.23938
X36.69678 Y52.8723 Z0.09784
X37.37347 Y53.3818 Z-0.05152
X37.88947 Y54.10872 Z-0.2087
X37.37347 Y53.3818 Z-0.36589
X36.69678 Y52.8723 Z-0.51525
X35.93901 Y52.60743 Z-0.65679
X35.18078 Y52.58772 Z-0.79053
X34.49536 Y52.789 Z-0.91649
X33.94167 Y53.16691 Z-1.03469
X33.5592 Y53.66314 Z-1.14517
X33.36539 Y54.21281 Z-1.24794
X33.35548 Y54.75213 Z-1.34305
X33.50498 Y55.22534 Z-1.43055
X33.77404 Y55.59039 Z-1.51052
X34.11336 Y55.82268 Z-1.58303
X34.47083 Y55.91654 Z-1.64819
X34.79814 Y55.8844 Z-1.70619
X35.05649 Y55.75384 Z-1.75723
X35.22094 Y55.56296 Z-1.80165
X35.2828 Y55.35462 Z-1.83997
X35.24984 Y55.17034 Z-1.87298
X35.14447 Y55.04456 Z-1.90191
X35. Y55. Z-1.92857
X35.27449 Y55.31399 F4996.
X35.18168 Y55.72059
X34.79814 Y55.8844
G17
G03 X33.5592 Y53.66314 I-0.16218 J-1.36569
X37.88947 Y54.10872 I2.04421 J1.39795
X33.52771 Y58.88211 I-3.2746 J1.3873
X32.01711 Y50.67854 I1.31309 J-4.48265
X41.35 Y55. I3.54167 J4.58986
X30.18133 Y60.74267 I-6.89569 J0.32094
X33.49915 Y46.48825 I4.92931 J-6.366
X42.47119 Y61.47382 I1.81956 J9.08922
X24.07203 Y56.5712 I-8.08711 J-6.62634
X41.59305 Y44.74101 I11.44814 J-1.93461
X36.24074 Y68.3897 I-6.72957 J10.90695
X23.60213 Y45.82817 I-1.57444 J-13.93877
X50.69289 Y53.0568 I12.01685 J9.34278
X24.39511 Y68.29812 I-16.24196 J2.28378
X32.9623 Y36.91488 I10.75535 J-13.92492
X48.40707 Y69.10423 I2.3114 J18.69092
X14.41744 Y52.90696 I-14.0016 J-14.37982
X25.53175 Y36.04299 I20.84412 J1.64299
G0 Z3.175
X35.23465 Y33.8113
G1 Z-1.92857 F1249.
G03 X34.76535 Y76.1887 I-0.23465 J21.1887 F4996.
X35.23465 Y33.8113 I0.23465 J-21.1887
G1 X34.31203 Y34.33453 Z-0.86791 F5000.
Z-0.26791
G0 Z3.175
X34.1565 Y53.02028
G1 Z-0.75714 F1249.
Z-1.35714 F3747.
X34.49536 Y52.789 Z-1.42948
X35.18078 Y52.58772 Z-1.55545
X35.93901 Y52.60743 Z-1.68919
X36.69678 Y52.8723 Z-1.83073
X37.37347 Y53.3818 Z-1.98009
X37.88947 Y54.10872 Z-2.13727
X37.37347 Y53.3818 Z-2.29446
X36.69678 Y52.8723 Z-2.44382
X35.93901 Y52.60743 Z-2.58536
X35.18078 Y52.58772 Z-2.7191
X34.49536 Y52.789 Z-2.84506
X33.94167 Y53.16691 Z-2.96327
X33.5592 Y53.66314 Z-3.07374
X33.36539 Y54.21281 Z-3.17651
X33.35548 Y54.75213 Z-3.27162
X33.50498 Y55.22534 Z-3.35913
X33.77404 Y55.59039 Z-3.43909
X34.11336 Y55.82268 Z-3.5116
X34.47083 Y55.91654 Z-3.57677
X34.79814 Y55.8844 Z-3.63476
X35.05649 Y55.75384 Z-3.6858
X35.22094 Y55.56296 Z-3.73022
X35.2828 Y55.35462 Z-3.76854
X35.24984 Y55.17034 Z-3.80155
X35.14447 Y55.04456 Z-3.83048
X35. Y55. Z-3.85714
X35.27449 Y55.31399 F4996.
X35.18168 Y55.72059
X34.79814 Y55.8844
G03 X33.5592 Y53.66314 I-0.16218 J-1.36569
X37.88947 Y54.10872 I2.04421 J1.39795
X33.52771 Y58.88211 I-3.2746 J1.3873
X32.01711 Y50.67854 I1.31309 J-4.48265
X41.35 Y55. I3.54167 J4.58986
X30.18133 Y60.74267 I-6.89569 J0.32094
X33.49915 Y46.48825 I4.92931 J-6.366
X42.47119 Y61.47382 I1.81956 J9.08922
X24.07203 Y56.5712 I-8.08711 J-6.62634
X41.59305 Y44.74101 I11.44814 J-1.93461
X36.24074 Y68.3897 I-6.72957 J10.90695
X23.60213 Y45.82817 I-1.57444 J-13.93877
X50.69289 Y53.0568 I12.01685 J9.34278
X24.39511 Y68.29812 I-16.24196 J2.28378
X32.9623 Y36.91488 I10.75535 J-13.92492
X48.40707 Y69.10423 I2.3114 J18.69092
X14.41744 Y52.90696 I-14.0016 J-14.37982
X25.53175 Y36.04299 I20.84412 J1.64299
G0 Z3.175
X35.23465 Y33.8113
G1 Z-3.85714 F1249.
G03 X34.76535 Y76.1887 I-0.23465 J21.1887 F4996.
X35.23465 Y33.8113 I0.23465 J-21.1887
G1 X34.31203 Y34.33453 Z-2.79648 F5000.
Z-2.19648
G0 Z3.175
X34.1565 Y53.02028
G1 Z-2.68572 F1249.
Z-3.28572 F3747.
X34.49536 Y52.789 Z-3.35805
X35.18078 Y52.58772 Z-3.48402
X35.93901 Y52.60743 Z-3.61776
X36.69678 Y52.8723 Z-3.7593
X37.37347 Y53.3818 Z-3.90866
X37.88947 Y54.10872 Z-4.06585
X37.37347 Y53.3818 Z-4.22303
X36.69678 Y52.8723 Z-4.37239
X35.93901 Y52.60743 Z-4.51393
X35.18078 Y52.58772 Z-4.64767
X34.49536 Y52.789 Z-4.77363
X33.94167 Y53.16691 Z-4.89184
X33.5592 Y53.66314 Z-5.00231
X33.36539 Y54.21281 Z-5.10508
X33.35548 Y54.75213 Z-5.20019
X33.50498 Y55.22534 Z-5.2877
X33.77404 Y55.59039 Z-5.36766
X34.11336 Y55.82268 Z-5.44017
X34.47083 Y55.91654 Z-5.50534
X34.79814 Y55.8844 Z-5.56333
X35.05649 Y55.75384 Z-5.61437
X35.22094 Y55.56296 Z-5.65879
X35.2828 Y55.35462 Z-5.69712
X35.24984 Y55.17034 Z-5.73013
X35.14447 Y55.04456 Z-5.75906
X35. Y55. Z-5.78572
X35.27449 Y55.31399 F4996.
X35.18168 Y55.72059
X34.79814 Y55.8844
G03 X33.5592 Y53.66314 I-0.16218 J-1.36569
X37.88947 Y54.10872 I2.04421 J1.39795
X33.52771 Y58.88211 I-3.2746 J1.3873
X32.01711 Y50.67854 I1.31309 J-4.48265
X41.35 Y55. I3.54167 J4.58986
X30.18133 Y60.74267 I-6.89569 J0.32094
X33.49915 Y46.48825 I4.92931 J-6.366
X42.47119 Y61.47382 I1.81956 J9.08922
X24.07203 Y56.5712 I-8.08711 J-6.62634
X41.59305 Y44.74101 I11.44814 J-1.93461
X36.24074 Y68.3897 I-6.72957 J10.90695
X23.60213 Y45.82817 I-1.57444 J-13.93877
X50.69289 Y53.0568 I12.01685 J9.34278
X24.39511 Y68.29812 I-16.24196 J2.28378
X32.9623 Y36.91488 I10.75535 J-13.92492
X48.40707 Y69.10423 I2.3114 J18.69092
X14.41744 Y52.90696 I-14.0016 J-14.37982
X25.53175 Y36.04299 I20.84412 J1.64299
G0 Z3.175
X35.23465 Y33.8113
G1 Z-5.78572 F1249.
G03 X34.76535 Y76.1887 I-0.23465 J21.1887 F4996.
X35.23465 Y33.8113 I0.23465 J-21.1887
G1 X34.31203 Y34.33453 Z-4.72505 F5000.
Z-4.12505
G0 Z3.175
X34.1565 Y53.02028
G1 Z-4.61429 F1249.
Z-5.21429 F3747.
X34.49536 Y52.789 Z-5.28663
X35.18078 Y52.58772 Z-5.41259
X35.93901 Y52.60743 Z-5.54633
X36.69678 Y52.8723 Z-5.68787
X37.37347 Y53.3818 Z-5.83723
X37.88947 Y54.10872 Z-5.99442
X37.37347 Y53.3818 Z-6.1516
X36.69678 Y52.8723 Z-6.30096
X35.93901 Y52.60743 Z-6.4425
X35.18078 Y52.58772 Z-6.57624
X34.49536 Y52.789 Z-6.70221
X33.94167 Y53.16691 Z-6.82041
X33.5592 Y53.66314 Z-6.93088
X33.36539 Y54.21281 Z-7.03365
X33.35548 Y54.75213 Z-7.12876
X33.50498 Y55.22534 Z-7.21627
X33.77404 Y55.59039 Z-7.29623
X34.11336 Y55.82268 Z-7.36874
X34.47083 Y55.91654 Z-7.43391
X34.79814 Y55.8844 Z-7.4919
X35.05649 Y55.75384 Z-7.54294
X35.22094 Y55.56296 Z-7.58737
X35.2828 Y55.35462 Z-7.62569
X35.24984 Y55.17034 Z-7.6587
X35.14447 Y55.04456 Z-7.68763
X35. Y55. Z-7.71429
X35.27449 Y55.31399 F4996.
X35.18168 Y55.72059
X34.79814 Y55.8844
G03 X33.5592 Y53.66314 I-0.16218 J-1.36569
X37.88947 Y54.10872 I2.04421 J1.39795
X33.52771 Y58.88211 I-3.2746 J1.3873
X32.01711 Y50.67854 I1.31309 J-4.48265
X41.35 Y55. I3.54167 J4.58986
X30.18133 Y60.74267 I-6.89569 J0.32094
X33.49915 Y46.48825 I4.92931 J-6.366
X42.47119 Y61.47382 I1.81956 J9.08922
X24.07203 Y56.5712 I-8.08711 J-6.62634
X41.59305 Y44.74101 I11.44814 J-1.93461
X36.24074 Y68.3897 I-6.72957 J10.90695
X23.60213 Y45.82817 I-1.57444 J-13.93877
X50.69289 Y53.0568 I12.01685 J9.34278
X24.39511 Y68.29812 I-16.24196 J2.28378
X32.9623 Y36.91488 I10.75535 J-13.92492
X48.40707 Y69.10423 I2.3114 J18.69092
X14.41744 Y52.90696 I-14.0016 J-14.37982
X25.53175 Y36.04299 I20.84412 J1.64299
G0 Z3.175
X35.23465 Y33.8113
G1 Z-7.71429 F1249.
G03 X34.76535 Y76.1887 I-0.23465 J21.1887 F4996.
X35.23465 Y33.8113 I0.23465 J-21.1887
G1 X34.31203 Y34.33453 Z-6.65363 F5000.
Z-6.05363
G0 Z3.175
X34.1565 Y53.02028
G1 Z-6.54286 F1249.
Z-7.14286 F3747.
X34.49536 Y52.789 Z-7.2152
X35.18078 Y52.58772 Z-7.34116
X35.93901 Y52.60743 Z-7.4749
X36.69678 Y52.8723 Z-7.61645
X37.37347 Y53.3818 Z-7.7658
X37.88947 Y54.10872 Z-7.92299
X37.37347 Y53.3818 Z-8.08017
X36.69678 Y52.8723 Z-8.22953
X35.93901 Y52.60743 Z-8.37107
X35.18078 Y52.58772 Z-8.50482
X34.49536 Y52.789 Z-8.63078
X33.94167 Y53.16691 Z-8.74898
X33.5592 Y53.66314 Z-8.85945
X33.36539 Y54.21281 Z-8.96222
X33.35548 Y54.75213 Z-9.05734
X33.50498 Y55.22534 Z-9.14484
X33.77404 Y55.59039 Z-9.2248
X34.11336 Y55.82268 Z-9.29731
X34.47083 Y55.91654 Z-9.36248
X34.79814 Y55.8844 Z-9.42047
X35.05649 Y55.75384 Z-9.47151
X35.22094 Y55.56296 Z-9.51594
X35.2828 Y55.35462 Z-9.55426
X35.24984 Y55.17034 Z-9.58727
X35.14447 Y55.04456 Z-9.6162
X35. Y55. Z-9.64286
X35.27449 Y55.31399 F4996.
X35.18168 Y55.72059
X34.79814 Y55.8844
G03 X33.5592 Y53.66314 I-0.16218 J-1.36569
X37.88947 Y54.10872 I2.04421 J1.39795
X33.52771 Y58.88211 I-3.2746 J1.3873
X32.01711 Y50.67854 I1.31309 J-4.48265
X41.35 Y55. I3.54167 J4.58986
X30.18133 Y60.74267 I-6.89569 J0.32094
X33.49915 Y46.48825 I4.92931 J-6.366
X42.47119 Y61.47382 I1.81956 J9.08922
X24.07203 Y56.5712 I-8.08711 J-6.62634
X41.59305 Y44.74101 I11.44814 J-1.93461
X36.24074 Y68.3897 I-6.72957 J10.90695
X23.60213 Y45.82817 I-1.57444 J-13.93877
X50.69289 Y53.0568 I12.01685 J9.34278
X24.39511 Y68.29812 I-16.24196 J2.28378
X32.9623 Y36.91488 I10.75535 J-13.92492
X48.40707 Y69.10423 I2.3114 J18.69092
X14.41744 Y52.90696 I-14.0016 J-14.37982
X25.53175 Y36.04299 I20.84412 J1.64299
G0 Z3.175
X35.23465 Y33.8113
G1 Z-9.64286 F1249.
G03 X34.76535 Y76.1887 I-0.23465 J21.1887 F4996.
X35.23465 Y33.8113 I0.23465 J-21.1887
G1 X34.31203 Y34.33453 Z-8.5822 F5000.
Z-7.9822
G0 Z3.175
X34.1565 Y53.02028
G1 Z-8.47143 F1249.
Z-9.07143 F3747.
X34.49536 Y52.789 Z-9.14377
X35.18078 Y52.58772 Z-9.26973
X35.93901 Y52.60743 Z-9.40347
X36.69678 Y52.8723 Z-9.54502
X37.37347 Y53.3818 Z-9.69437
X37.88947 Y54.10872 Z-9.85156
X37.37347 Y53.3818 Z-10.00874
X36.69678 Y52.8723 Z-10.1581
X35.93901 Y52.60743 Z-10.29964
X35.18078 Y52.58772 Z-10.43339
X34.49536 Y52.789 Z-10.55935
X33.94167 Y53.16691 Z-10.67755
X33.5592 Y53.66314 Z-10.78802
X33.36539 Y54.21281 Z-10.89079
X33.35548 Y54.75213 Z-10.98591
X33.50498 Y55.22534 Z-11.07341
X33.77404 Y55.59039 Z-11.15337
X34.11336 Y55.82268 Z-11.22588
X34.47083 Y55.91654 Z-11.29105
X34.79814 Y55.8844 Z-11.34904
X35.05649 Y55.75384 Z-11.40008
X35.22094 Y55.56296 Z-11.44451
X35.2828 Y55.35462 Z-11.48283
X35.24984 Y55.17034 Z-11.51584
X35.14447 Y55.04456 Z-11.54477
X35. Y55. Z-11.57143
X35.27449 Y55.31399 F4996.
X35.18168 Y55.72059
X34.79814 Y55.8844
G03 X33.5592 Y53.66314 I-0.16218 J-1.36569
X37.88947 Y54.10872 I2.04421 J1.39795
X33.52771 Y58.88211 I-3.2746 J1.3873
X32.01711 Y50.67854 I1.31309 J-4.48265
X41.35 Y55. I3.54167 J4.58986
X30.18133 Y60.74267 I-6.89569 J0.32094
X33.49915 Y46.48825 I4.92931 J-6.366
X42.47119 Y61.47382 I1.81956 J9.08922
X24.07203 Y56.5712 I-8.08711 J-6.62634
X41.59305 Y44.74101 I11.44814 J-1.93461
X36.24074 Y68.3897 I-6.72957 J10.90695
X23.60213 Y45.82817 I-1.57444 J-13.93877
X50.69289 Y53.0568 I12.01685 J9.34278
X24.39511 Y68.29812 I-16.24196 J2.28378
X32.9623 Y36.91488 I10.75535 J-13.92492
X48.40707 Y69.10423 I2.3114 J18.69092
X14.41744 Y52.90696 I-14.0016 J-14.37982
X25.53175 Y36.04299 I20.84412 J1.64299
G0 Z3.175
X35.23465 Y33.8113
G1 Z-11.57143 F1249.
G03 X34.76535 Y76.1887 I-0.23465 J21.1887 F4996.
X35.23465 Y33.8113 I0.23465 J-21.1887
G1 X34.31203 Y34.33453 Z-10.51077 F5000.
Z-9.91077
G0 Z3.175
X34.1565 Y53.02028
G1 Z-10.4 F1249.
Z-11. F3747.
X34.49536 Y52.789 Z-11.07234
X35.18078 Y52.58772 Z-11.1983
X35.93901 Y52.60743 Z-11.33205
X36.69678 Y52.8723 Z-11.47359
X37.37347 Y53.3818 Z-11.62295
X37.88947 Y54.10872 Z-11.78013
X37.37347 Y53.3818 Z-11.93732
X36.69678 Y52.8723 Z-12.08667
X35.93901 Y52.60743 Z-12.22822
X35.18078 Y52.58772 Z-12.36196
X34.49536 Y52.789 Z-12.48792
X33.94167 Y53.16691 Z-12.60612
X33.5592 Y53.66314 Z-12.71659
X33.36539 Y54.21281 Z-12.81936
X33.35548 Y54.75213 Z-12.91448
X33.50498 Y55.22534 Z-13.00198
X33.77404 Y55.59039 Z-13.08195
X34.11336 Y55.82268 Z-13.15445
X34.47083 Y55.91654 Z-13.21962
X34.79814 Y55.8844 Z-13.27761
X35.05649 Y55.75384 Z-13.32866
X35.22094 Y55.56296 Z-13.37308
X35.2828 Y55.35462 Z-13.4114
X35.24984 Y55.17034 Z-13.44441
X35.14447 Y55.04456 Z-13.47334
X35. Y55. Z-13.5
X35.27449 Y55.31399 F4996.
X35.18168 Y55.72059
X34.79814 Y55.8844
G03 X33.5592 Y53.66314 I-0.16218 J-1.36569
X37.88947 Y54.10872 I2.04421 J1.39795
X33.52771 Y58.88211 I-3.2746 J1.3873
X32.01711 Y50.67854 I1.31309 J-4.48265
X41.35 Y55. I3.54167 J4.58986
X30.18133 Y60.74267 I-6.89569 J0.32094
X33.49915 Y46.48825 I4.92931 J-6.366
X42.47119 Y61.47382 I1.81956 J9.08922
X24.07203 Y56.5712 I-8.08711 J-6.62634
X41.59305 Y44.74101 I11.44814 J-1.93461
X36.24074 Y68.3897 I-6.72957 J10.90695
X23.60213 Y45.82817 I-1.57444 J-13.93877
X50.69289 Y53.0568 I12.01685 J9.34278
X24.39511 Y68.29812 I-16.24196 J2.28378
X32.9623 Y36.91488 I10.75535 J-13.92492
X48.40707 Y69.10423 I2.3114 J18.69092
X14.41744 Y52.90696 I-14.0016 J-14.37982
X25.53175 Y36.04299 I20.84412 J1.64299
G0 Z3.175
X35.23465 Y33.8113
G1 Z-13.5 F1249.
G03 X34.76535 Y76.1887 I-0.23465 J21.1887 F4996.
X35.23465 Y33.8113 I0.23465 J-21.1887
G1 X34.31203 Y34.33453 Z-12.43934 F5000.
Z-11.83934
G0 Z3.175
X94.1565 Y53.02028
G1 Z1.17143 F1249.
Z0.57143 F3747.
X94.49535 Y52.789 Z0.49909
X95.18078 Y52.58772 Z0.37313
X95.93901 Y52.60743 Z0.23938
X96.69678 Y52.8723 Z0.09784
X97.37347 Y53.3818 Z-0.05152
X97.88947 Y54.10872 Z-0.2087
X97.37347 Y53.3818 Z-0.36589
X96.69678 Y52.8723 Z-0.51525
X95.93901 Y52.60743 Z-0.65679
X95.18078 Y52.58772 Z-0.79053
X94.49535 Y52.789 Z-0.91649
X93.94167 Y53.16691 Z-1.03469
X93.5592 Y53.66314 Z-1.14517
X93.36539 Y54.21281 Z-1.24794
X93.35548 Y54.75213 Z-1.34305
X93.50498 Y55.22534 Z-1.43055
X93.77404 Y55.59039 Z-1.51052
X94.11336 Y55.82268 Z-1.58303
X94.47083 Y55.91654 Z-1.64819
X94.79814 Y55.8844 Z-1.70619
X95.05649 Y55.75384 Z-1.75723
X95.22094 Y55.56296 Z-1.80165
X95.2828 Y55.35462 Z-1.83997
X95.24984 Y55.17034 Z-1.87298
X95.14447 Y55.04456 Z-1.90191
X95. Y55. Z-1.92857
X95.27449 Y55.31399 F4996.
X95.18168 Y55.72059
X94.79814 Y55.8844
G03 X93.5592 Y53.66314 I-0.16218 J-1.36569
X97.88947 Y54.10872 I2.04421 J1.39795
X93.52771 Y58.88212 I-3.2746 J1.3873
X92.01711 Y50.67854 I1.31309 J-4.48266
X101.35 Y55. I3.54167 J4.58986
X90.18132 Y60.74267 I-6.89569 J0.32094
X93.49915 Y46.48825 I4.92932 J-6.366
X102.47119 Y61.47382 I1.81956 J9.08922
X84.07203 Y56.5712 I-8.08711 J-6.62634
X101.59305 Y44.74101 I11.44814 J-1.93461
X96.24074 Y68.3897 I-6.72957 J10.90695
X83.60213 Y45.82817 I-1.57444 J-13.93877
X110.69289 Y53.0568 I12.01685 J9.34278
X84.39511 Y68.29812 I-16.24196 J2.28379
X92.9623 Y36.91488 I10.75535 J-13.92492
X108.40707 Y69.10423 I2.3114 J18.69092
X74.41744 Y52.90696 I-14.0016 J-14.37982
X112.98928 Y42.47909 I21.21341 J1.91568
X90.15662 Y77.61249 I-18.33341 J13.07139
X77.79268 Y37.99811 I4.63657 J-23.18374
X112.20732 Y72.00189 I17.20732 J17.00189
X77.79268 Y37.99811 I-17.20732 J-17.00189
G1 X78.13995 Y39.00031 Z-0.86791 F5000.
Z-0.26791
G0 Z3.175
X94.1565 Y53.02028
G1 Z-0.75714 F1249.
Z-1.35714 F3747.
X94.49535 Y52.789 Z-1.42948
X95.18078 Y52.58772 Z-1.55545
X95.93901 Y52.60743 Z-1.68919
X96.69678 Y52.8723 Z-1.83073
X97.37347 Y53.3818 Z-1.98009
X97.88947 Y54.10872 Z-2.13727
X97.37347 Y53.3818 Z-2.29446
X96.69678 Y52.8723 Z-2.44382
X95.93901 Y52.60743 Z-2.58536
X95.18078 Y52.58772 Z-2.7191
X94.49535 Y52.789 Z-2.84506
X93.94167 Y53.16691 Z-2.96327
X93.5592 Y53.66314 Z-3.07374
X93.36539 Y54.21281 Z-3.17651
X93.35548 Y54.75213 Z-3.27162
X93.50498 Y55.22534 Z-3.35913
X93.77404 Y55.59039 Z-3.43909
X94.11336 Y55.82268 Z-3.5116
X94.47083 Y55.91654 Z-3.57677
X94.79814 Y55.8844 Z-3.63476
X95.05649 Y55.75384 Z-3.6858
X95.22094 Y55.56296 Z-3.73022
X95.2828 Y55.35462 Z-3.76854
X95.24984 Y55.17034 Z-3.80155
X95.14447 Y55.04456 Z-3.83048
X95. Y55. Z-3.85714
X95.27449 Y55.31399 F4996.
X95.18168 Y55.72059
X94.79814 Y55.8844
G03 X93.5592 Y53.66314 I-0.16218 J-1.36569
X97.88947 Y54.10872 I2.04421 J1.39795
X93.52771 Y58.88212 I-3.2746 J1.3873
X92.01711 Y50.67854 I1.31309 J-4.48266
X101.35 Y55. I3.54167 J4.58986
X90.18132 Y60.74267 I-6.89569 J0.32094
X93.49915 Y46.48825 I4.92932 J-6.366
X102.47119 Y61.47382 I1.81956 J9.08922
X84.07203 Y56.5712 I-8.08711 J-6.62634
X101.59305 Y44.74101 I11.44814 J-1.93461
X96.24074 Y68.3897 I-6.72957 J10.90695
X83.60213 Y45.82817 I-1.57444 J-13.93877
X110.69289 Y53.0568 I12.01685 J9.34278
X84.39511 Y68.29812 I-16.24196 J2.28379
X92.9623 Y36.91488 I10.75535 J-13.92492
X108.40707 Y69.10423 I2.3114 J18.69092
X74.41744 Y52.90696 I-14.0016 J-14.37982
X112.98928 Y42.47909 I21.21341 J1.91568
X90.15662 Y77.61249 I-18.33341 J13.07139
X77.79268 Y37.99811 I4.63657 J-23.18374
X112.20732 Y72.00189 I17.20732 J17.00189
X77.79268 Y37.99811 I-17.20732 J-17.00189
G1 X78.13995 Y39.00031 Z-2.79648 F5000.
Z-2.19648
G0 Z3.175
X94.1565 Y53.02028
G1 Z-2.68572 F1249.
Z-3.28572 F3747.
X94.49535 Y52.789 Z-3.35805
X95.18078 Y52.58772 Z-3.48402
X95.93901 Y52.60743 Z-3.61776
X96.69678 Y52.8723 Z-3.7593
X97.37347 Y53.3818 Z-3.90866
X97.88947 Y54.10872 Z-4.06585
X97.37347 Y53.3818 Z-4.22303
X96.69678 Y52.8723 Z-4.37239
X95.93901 Y52.60743 Z-4.51393
X95.18078 Y52.58772 Z-4.64767
X94.49535 Y52.789 Z-4.77363
X93.94167 Y53.16691 Z-4.89184
X93.5592 Y53.66314 Z-5.00231
X93.36539 Y54.21281 Z-5.10508
X93.35548 Y54.75213 Z-5.20019
X93.50498 Y55.22534 Z-5.2877
X93.77404 Y55.59039 Z-5.36766
X94.11336 Y55.82268 Z-5.44017
X94.47083 Y55.91654 Z-5.50534
X94.79814 Y55.8844 Z-5.56333
X95.05649 Y55.75384 Z-5.61437
X95.22094 Y55.56296 Z-5.65879
X95.2828 Y55.35462 Z-5.69712
X95.24984 Y55.17034 Z-5.73013
X95.14447 Y55.04456 Z-5.75906
X95. Y55. Z-5.78572
X95.27449 Y55.31399 F4996.
X95.18168 Y55.72059
X94.79814 Y55.8844
G03 X93.5592 Y53.66314 I-0.16218 J-1.36569
X97.88947 Y54.10872 I2.04421 J1.39795
X93.52771 Y58.88212 I-3.2746 J1.3873
X92.01711 Y50.67854 I1.31309 J-4.48266
X101.35 Y55. I3.54167 J4.58986
X90.18132 Y60.74267 I-6.89569 J0.32094
X93.49915 Y46.48825 I4.92932 J-6.366
X102.47119 Y61.47382 I1.81956 J9.08922
X84.07203 Y56.5712 I-8.08711 J-6.62634
X101.59305 Y44.74101 I11.44814 J-1.93461
X96.24074 Y68.3897 I-6.72957 J10.90695
X83.60213 Y45.82817 I-1.57444 J-13.93877
X110.69289 Y53.0568 I12.01685 J9.34278
X84.39511 Y68.29812 I-16.24196 J2.28379
X92.9623 Y36.91488 I10.75535 J-13.92492
X108.40707 Y69.10423 I2.3114 J18.69092
X74.41744 Y52.90696 I-14.0016 J-14.37982
X112.98928 Y42.47909 I21.21341 J1.91568
X90.15662 Y77.61249 I-18.33341 J13.07139
X77.79268 Y37.99811 I4.63657 J-23.18374
X112.20732 Y72.00189 I17.20732 J17.00189
X77.79268 Y37.99811 I-17.20732 J-17.00189
G1 X78.13995 Y39.00031 Z-4.72505 F5000.
Z-4.12505
G0 Z3.175
X94.1565 Y53.02028
G1 Z-4.61429 F1249.
Z-5.21429 F3747.
X94.49535 Y52.789 Z-5.28663
X95.18078 Y52.58772 Z-5.41259
X95.93901 Y52.60743 Z-5.54633
X96.69678 Y52.8723 Z-5.68787
X97.37347 Y53.3818 Z-5.83723
X97.88947 Y54.10872 Z-5.99442
X97.37347 Y53.3818 Z-6.1516
X96.69678 Y52.8723 Z-6.30096
X95.93901 Y52.60743 Z-6.4425
X95.18078 Y52.58772 Z-6.57624
X94.49535 Y52.789 Z-6.70221
X93.94167 Y53.16691 Z-6.82041
X93.5592 Y53.66314 Z-6.93088
X93.36539 Y54.21281 Z-7.03365
X93.35548 Y54.75213 Z-7.12876
X93.50498 Y55.22534 Z-7.21627
X93.77404 Y55.59039 Z-7.29623
X94.11336 Y55.82268 Z-7.36874
X94.47083 Y55.91654 Z-7.43391
X94.79814 Y55.8844 Z-7.4919
X95.05649 Y55.75384 Z-7.54294
X95.22094 Y55.56296 Z-7.58737
X95.2828 Y55.35462 Z-7.62569
X95.24984 Y55.17034 Z-7.6587
X95.14447 Y55.04456 Z-7.68763
X95. Y55. Z-7.71429
X95.27449 Y55.31399 F4996.
X95.18168 Y55.72059
X94.79814 Y55.8844
G03 X93.5592 Y53.66314 I-0.16218 J-1.36569
X97.88947 Y54.10872 I2.04421 J1.39795
X93.52771 Y58.88212 I-3.2746 J1.3873
X92.01711 Y50.67854 I1.31309 J-4.48266
X101.35 Y55. I3.54167 J4.58986
X90.18132 Y60.74267 I-6.89569 J0.32094
X93.49915 Y46.48825 I4.92932 J-6.366
X102.47119 Y61.47382 I1.81956 J9.08922
X84.07203 Y56.5712 I-8.08711 J-6.62634
X101.59305 Y44.74101 I11.44814 J-1.93461
X96.24074 Y68.3897 I-6.72957 J10.90695
X83.60213 Y45.82817 I-1.57444 J-13.93877
X110.69289 Y53.0568 I12.01685 J9.34278
X84.39511 Y68.29812 I-16.24196 J2.28379
X92.9623 Y36.91488 I10.75535 J-13.92492
X108.40707 Y69.10423 I2.3114 J18.69092
X74.41744 Y52.90696 I-14.0016 J-14.37982
X112.98928 Y42.47909 I21.21341 J1.91568
X90.15662 Y77.61249 I-18.33341 J13.07139
X77.79268 Y37.99811 I4.63657 J-23.18374
X112.20732 Y72.00189 I17.20732 J17.00189
X77.79268 Y37.99811 I-17.20732 J-17.00189
G1 X78.13995 Y39.00031 Z-6.65363 F5000.
Z-6.05363
G0 Z3.175
X94.1565 Y53.02028
G1 Z-6.54286 F1249.
Z-7.14286 F3747.
X94.49535 Y52.789 Z-7.2152
X95.18078 Y52.58772 Z-7.34116
X95.93901 Y52.60743 Z-7.4749
X96.69678 Y52.8723 Z-7.61645
X97.37347 Y53.3818 Z-7.7658
X97.88947 Y54.10872 Z-7.92299
X97.37347 Y53.3818 Z-8.08017
X96.69678 Y52.8723 Z-8.22953
X95.93901 Y52.60743 Z-8.37107
X95.18078 Y52.58772 Z-8.50482
X94.49535 Y52.789 Z-8.63078
X93.94167 Y53.16691 Z-8.74898
X93.5592 Y53.66314 Z-8.85945
X93.36539 Y54.21281 Z-8.96222
X93.35548 Y54.75213 Z-9.05734
X93.50498 Y55.22534 Z-9.14484
X93.77404 Y55.59039 Z-9.2248
X94.11336 Y55.82268 Z-9.29731
X94.47083 Y55.91654 Z-9.36248
X94.79814 Y55.8844 Z-9.42047
X95.05649 Y55.75384 Z-9.47151
X95.22094 Y55.56296 Z-9.51594
X95.2828 Y55.35462 Z-9.55426
X95.24984 Y55.17034 Z-9.58727
X95.14447 Y55.04456 Z-9.6162
X95. Y55. Z-9.64286
X95.27449 Y55.31399 F4996.
X95.18168 Y55.72059
X94.79814 Y55.8844
G03 X93.5592 Y53.66314 I-0.16218 J-1.36569
X97.88947 Y54.10872 I2.04421 J1.39795
X93.52771 Y58.88212 I-3.2746 J1.3873
X92.01711 Y50.67854 I1.31309 J-4.48266
X101.35 Y55. I3.54167 J4.58986
X90.18132 Y60.74267 I-6.89569 J0.32094
X93.49915 Y46.48825 I4.92932 J-6.366
X102.47119 Y61.47382 I1.81956 J9.08922
X84.07203 Y56.5712 I-8.08711 J-6.62634
X101.59305 Y44.74101 I11.44814 J-1.93461
X96.24074 Y68.3897 I-6.72957 J10.90695
X83.60213 Y45.82817 I-1.57444 J-13.93877
X110.69289 Y53.0568 I12.01685 J9.34278
X84.39511 Y68.29812 I-16.24196 J2.28379
X92.9623 Y36.91488 I10.75535 J-13.92492
X108.40707 Y69.10423 I2.3114 J18.69092
X74.41744 Y52.90696 I-14.0016 J-14.37982
X112.98928 Y42.47909 I21.21341 J1.91568
X90.15662 Y77.61249 I-18.33341 J13.07139
X77.79268 Y37.99811 I4.63657 J-23.18374
X112.20732 Y72.00189 I17.20732 J17.00189
X77.79268 Y37.99811 I-17.20732 J-17.00189
G1 X78.13995 Y39.00031 Z-8.5822 F5000.
Z-7.9822
G0 Z3.175
X94.1565 Y53.02028
G1 Z-8.47143 F1249.
Z-9.07143 F3747.
X94.49535 Y52.789 Z-9.14377
X95.18078 Y52.58772 Z-9.26973
X95.93901 Y52.60743 Z-9.40347
X96.69678 Y52.8723 Z-9.54502
X97.37347 Y53.3818 Z-9.69437
X97.88947 Y54.10872 Z-9.85156
X97.37347 Y53.3818 Z-10.00874
X96.69678 Y52.8723 Z-10.1581
X95.93901 Y52.60743 Z-10.29964
X95.18078 Y52.58772 Z-10.43339
X94.49535 Y52.789 Z-10.55935
X93.94167 Y53.16691 Z-10.67755
X93.5592 Y53.66314 Z-10.78802
X93.36539 Y54.21281 Z-10.89079
X93.35548 Y54.75213 Z-10.98591
X93.50498 Y55.22534 Z-11.07341
X93.77404 Y55.59039 Z-11.15337
X94.11336 Y55.82268 Z-11.22588
X94.47083 Y55.91654 Z-11.29105
X94.79814 Y55.8844 Z-11.34904
X95.05649 Y55.75384 Z-11.40008
X95.22094 Y55.56296 Z-11.44451
X95.2828 Y55.35462 Z-11.48283
X95.24984 Y55.17034 Z-11.51584
X95.14447 Y55.04456 Z-11.54477
X95. Y55. Z-11.57143
X95.27449 Y55.31399 F4996.
X95.18168 Y55.72059
X94.79814 Y55.8844
G03 X93.5592 Y53.66314 I-0.16218 J-1.36569
X97.88947 Y54.10872 I2.04421 J1.39795
X93.52771 Y58.88212 I-3.2746 J1.3873
X92.01711 Y50.67854 I1.31309 J-4.48266
X101.35 Y55. I3.54167 J4.58986
X90.18132 Y60.74267 I-6.89569 J0.32094
X93.49915 Y46.48825 I4.92932 J-6.366
X102.47119 Y61.47382 I1.81956 J9.08922
X84.07203 Y56.5712 I-8.08711 J-6.62634
X101.59305 Y44.74101 I11.44814 J-1.93461
X96.24074 Y68.3897 I-6.72957 J10.90695
X83.60213 Y45.82817 I-1.57444 J-13.93877
X110.69289 Y53.0568 I12.01685 J9.34278
X84.39511 Y68.29812 I-16.24196 J2.28379
X92.9623 Y36.91488 I10.75535 J-13.92492
X108.40707 Y69.10423 I2.3114 J18.69092
X74.41744 Y52.90696 I-14.0016 J-14.37982
X112.98928 Y42.47909 I21.21341 J1.91568
X90.15662 Y77.61249 I-18.33341 J13.07139
X77.79268 Y37.99811 I4.63657 J-23.18374
X112.20732 Y72.00189 I17.20732 J17.00189
X77.79268 Y37.99811 I-17.20732 J-17.00189
G1 X78.13995 Y39.00031 Z-10.51077 F5000.
Z-9.91077
G0 Z3.175
X94.1565 Y53.02028
G1 Z-10.4 F1249.
Z-11. F3747.
X94.49535 Y52.789 Z-11.07234
X95.18078 Y52.58772 Z-11.1983
X95.93901 Y52.60743 Z-11.33205
X96.69678 Y52.8723 Z-11.47359
X97.37347 Y53.3818 Z-11.62295
X97.88947 Y54.10872 Z-11.78013
X97.37347 Y53.3818 Z-11.93732
X96.69678 Y52.8723 Z-12.08667
X95.93901 Y52.60743 Z-12.22822
X95.18078 Y52.58772 Z-12.36196
X94.49535 Y52.789 Z-12.48792
X93.94167 Y53.16691 Z-12.60612
X93.5592 Y53.66314 Z-12.71659
X93.36539 Y54.21281 Z-12.81936
X93.35548 Y54.75213 Z-12.91448
X93.50498 Y55.22534 Z-13.00198
X93.77404 Y55.59039 Z-13.08195
X94.11336 Y55.82268 Z-13.15445
X94.47083 Y55.91654 Z-13.21962
X94.79814 Y55.8844 Z-13.27761
X95.05649 Y55.75384 Z-13.32866
X95.22094 Y55.56296 Z-13.37308
X95.2828 Y55.35462 Z-13.4114
X95.24984 Y55.17034 Z-13.44441
X95.14447 Y55.04456 Z-13.47334
X95. Y55. Z-13.5
X95.27449 Y55.31399 F4996.
X95.18168 Y55.72059
X94.79814 Y55.8844
G03 X93.5592 Y53.66314 I-0.16218 J-1.36569
X97.88947 Y54.10872 I2.04421 J1.39795
X93.52771 Y58.88212 I-3.2746 J1.3873
X92.01711 Y50.67854 I1.31309 J-4.48266
X101.35 Y55. I3.54167 J4.58986
X90.18132 Y60.74267 I-6.89569 J0.32094
X93.49915 Y46.48825 I4.92932 J-6.366
X102.47119 Y61.47382 I1.81956 J9.08922
X84.07203 Y56.5712 I-8.08711 J-6.62634
X101.59305 Y44.74101 I11.44814 J-1.93461
X96.24074 Y68.3897 I-6.72957 J10.90695
X83.60213 Y45.82817 I-1.57444 J-13.93877
X110.69289 Y53.0568 I12.01685 J9.34278
X84.39511 Y68.29812 I-16.24196 J2.28379
X92.9623 Y36.91488 I10.75535 J-13.92492
X108.40707 Y69.10423 I2.3114 J18.69092
X74.41744 Y52.90696 I-14.0016 J-14.37982
X112.98928 Y42.47909 I21.21341 J1.91568
X90.15662 Y77.61249 I-18.33341 J13.07139
X77.79268 Y37.99811 I4.63657 J-23.18374
X112.20732 Y72.00189 I17.20732 J17.00189
X77.79268 Y37.99811 I-17.20732 J-17.00189
G1 X78.13995 Y39.00031 Z-12.43934 F5000.
Z-11.83934
G0 Z3.175
(2 1/2 Axis Pocketing Finish)
(1/4in 6.35mm 2 Flute Carbide Router)
X34.1565 Y53.02028
G1 Z-10.9 F1249.
Z-11.5 F3747.
X34.49536 Y52.789 Z-11.57234
X35.18078 Y52.58772 Z-11.6983
X35.93901 Y52.60743 Z-11.83205
X36.69678 Y52.8723 Z-11.97359
X37.37347 Y53.3818 Z-12.12295
X37.88947 Y54.10872 Z-12.28013
X37.37347 Y53.3818 Z-12.43732
X36.69678 Y52.8723 Z-12.58667
X35.93901 Y52.60743 Z-12.72822
X35.18078 Y52.58772 Z-12.86196
X34.49536 Y52.789 Z-12.98792
X33.94167 Y53.16691 Z-13.10612
X33.5592 Y53.66314 Z-13.21659
X33.36539 Y54.21281 Z-13.31936
X33.35548 Y54.75213 Z-13.41448
X33.50498 Y55.22534 Z-13.50198
X33.77404 Y55.59039 Z-13.58195
X34.11336 Y55.82268 Z-13.65445
X34.47083 Y55.91654 Z-13.71962
X34.79814 Y55.8844 Z-13.77761
X35.05649 Y55.75384 Z-13.82866
X35.22094 Y55.56296 Z-13.87308
X35.2828 Y55.35462 Z-13.9114
X35.24984 Y55.17034 Z-13.94441
X35.14447 Y55.04456 Z-13.97334
X35. Y55. Z-14.
X35.27449 Y55.31399 F4996.
X35.18168 Y55.72059
X34.79814 Y55.8844
G03 X33.5592 Y53.66314 I-0.16218 J-1.36569
X37.88947 Y54.10872 I2.04421 J1.39795
X32.0995 Y58.22674 I-3.43612 J1.29816
X36.23136 Y49.46846 I3.15894 J-3.86349
X37.49838 Y61.49417 I-1.17847 J6.20376
X28.74282 Y49.5472 I-2.92593 J-7.0375
X44.30069 Y57.62488 I6.88382 J5.76287
X24.17715 Y57.06132 I-9.99616 J-2.62458
X44.83708 Y47.49877 I11.44632 J-2.36939
X28.73852 Y67.22247 I-10.27336 J8.04655
X35.23654 Y39.91268 I6.41 J-12.90278
X42.45935 Y69.63979 I-0.07764 J15.75989
X20.84477 Y44.22218 I-7.91984 J-15.16423
X53.71791 Y59.08551 I14.79586 J11.06043
X14.99418 Y59.58159 I-19.41714 J-4.06692
X50.34434 Y39.47964 I20.59105 J-4.92313
X19.65566 Y70.52036 I-15.34434 J15.52036
X50.34434 Y39.47964 I15.34434 J-15.52036
G1 X49.42172 Y40.00287 Z-12.93934 F5000.
Z-12.33934
G0 Z3.175
X94.1565 Y53.02028
G1 Z-10.9 F1249.
Z-11.5 F3747.
X94.49535 Y52.789 Z-11.57234
X95.18078 Y52.58772 Z-11.6983
X95.93901 Y52.60743 Z-11.83205
X96.69678 Y52.8723 Z-11.97359
X97.37347 Y53.3818 Z-12.12295
X97.88947 Y54.10872 Z-12.28013
X97.37347 Y53.3818 Z-12.43732
X96.69678 Y52.8723 Z-12.58667
X95.93901 Y52.60743 Z-12.72822
X95.18078 Y52.58772 Z-12.86196
X94.49535 Y52.789 Z-12.98792
X93.94167 Y53.16691 Z-13.10612
X93.5592 Y53.66314 Z-13.21659
X93.36539 Y54.21281 Z-13.31936
X93.35548 Y54.75213 Z-13.41448
X93.50498 Y55.22534 Z-13.50198
X93.77404 Y55.59039 Z-13.58195
X94.11336 Y55.82268 Z-13.65445
X94.47083 Y55.91654 Z-13.71962
X94.79814 Y55.8844 Z-13.77761
X95.05649 Y55.75384 Z-13.82866
X95.22094 Y55.56296 Z-13.87308
X95.2828 Y55.35462 Z-13.9114
X95.24984 Y55.17034 Z-13.94441
X95.14447 Y55.04456 Z-13.97334
X95. Y55. Z-14.
X95.27449 Y55.31399 F4996.
X95.18168 Y55.72059
X94.79814 Y55.8844
G03 X93.5592 Y53.66314 I-0.16218 J-1.36569
X97.88947 Y54.10872 I2.04421 J1.39795
X92.0995 Y58.22674 I-3.43612 J1.29816
X96.23136 Y49.46846 I3.15894 J-3.86349
X97.49837 Y61.49417 I-1.17847 J6.20376
X88.74282 Y49.5472 I-2.92592 J-7.0375
X104.30069 Y57.62488 I6.88382 J5.76287
X84.17715 Y57.06132 I-9.99616 J-2.62458
X104.83708 Y47.49877 I11.44632 J-2.36939
X88.73852 Y67.22247 I-10.27336 J8.04655
X95.23654 Y39.91268 I6.41 J-12.90278
X102.45935 Y69.63979 I-0.07764 J15.75989
X80.84477 Y44.22218 I-7.91984 J-15.16423
X113.71791 Y59.08551 I14.79586 J11.06043
X74.99418 Y59.58159 I-19.41714 J-4.06692
X112.2226 Y41.49054 I20.63095 J-4.89539
X84.53601 Y75.76731 I-17.65854 J14.05668
X95.4082 Y30.38875 I10.61885 J-21.44755
X105.41684 Y32.46624 I0.09022 J24.7132
X84.58316 Y77.53375 I-10.41684 J22.53376
X105.41684 Y32.46624 I10.41684 J-22.53375
G1 X105.7641 Y33.46845 Z-12.93934 F5000.
Z-12.33934
G0 Z3.175
(2 1/2 Axis Profiling)
(1/4in 6.35mm 2 Flute Carbide Router)
X36.53055 Y48.8661
G1 Z-14.25 F1249.
X36.68294 Y48.903 Z-14.27765 F3747.
X37.06624 Y49.02202 Z-14.34842
X37.44123 Y49.1651 Z-14.41919
X37.80639 Y49.33168 Z-14.48996
X38.16024 Y49.52109 Z-14.56073
X38.50137 Y49.73255 Z-14.6315
X38.82841 Y49.96523 Z-14.70227
X39.14003 Y50.21818 Z-14.77304
X39.43497 Y50.49038 Z-14.84381
X39.71206 Y50.78075 Z-14.91458
X39.97017 Y51.0881 Z-14.98535
X40.20828 Y51.4112 Z-15.05612
X40.42541 Y51.74875 Z-15.12689
X40.62069 Y52.0994 Z-15.19766
X40.79334 Y52.46173 Z-15.26843
X40.94266 Y52.83427 Z-15.3392
X41.06806 Y53.21554 Z-15.40997
X41.16902 Y53.60399 Z-15.48074
X41.24514 Y53.99807 Z-15.55151
X41.29611 Y54.39618 Z-15.62228
X41.32173 Y54.79672 Z-15.69305
X41.3219 Y55.19808 Z-15.76382
X41.29661 Y55.59864 Z-15.83459
X41.24596 Y55.99679 Z-15.90537
X41.17017 Y56.39092 Z-15.97613
X41.06953 Y56.77946 Z-16.0469
X40.94445 Y57.16083 Z-16.11767
X40.79543 Y57.5335 Z-16.18845
X40.62308 Y57.89597 Z-16.25922
X40.42808 Y58.24677 Z-16.32999
X40.21123 Y58.58451 Z-16.40076
X39.9734 Y58.90781 Z-16.47153
X39.71553 Y59.21537 Z-16.5423
X39.43868 Y59.50596 Z-16.61307
X39.14396 Y59.77841 Z-16.68384
X38.83255 Y60.03161 Z-16.75461
X38.50571 Y60.26456 Z-16.82538
X38.16476 Y60.47631 Z-16.89615
X37.81106 Y60.666 Z-16.96692
X37.44604 Y60.83288 Z-17.03769
X37.07117 Y60.97628 Z-17.10846
X36.68796 Y61.09561 Z-17.17923
X36.29795 Y61.19039 Z-17.25
G03 X33.70205 Y48.80961 I-1.29795 J-6.19039 F4996.
X36.29795 Y61.19039 I1.29795 J6.19039
G1 X36.40056 Y61.67975
G03 X33.59944 Y48.32025 I-1.40056 J-6.67975
X36.40056 Y61.67975 I1.40056 J6.67975
X32.4344 Y59.0885 I-0.68746 J-3.27871 F5000.
G1 X31.74695 Y55.80979
G0 Z3.175
X36.53055 Y48.8661
G1 Z-17.5 F1249.
X36.68294 Y48.903 Z-17.52765 F3747.
X37.06624 Y49.02202 Z-17.59842
X37.44123 Y49.1651 Z-17.66919
X37.80639 Y49.33168 Z-17.73996
X38.16024 Y49.52109 Z-17.81073
X38.50137 Y49.73255 Z-17.8815
X38.82841 Y49.96523 Z-17.95227
X39.14003 Y50.21818 Z-18.02304
X39.43497 Y50.49038 Z-18.09381
X39.71206 Y50.78075 Z-18.16458
X39.97017 Y51.0881 Z-18.23535
X40.20828 Y51.4112 Z-18.30612
X40.42541 Y51.74875 Z-18.37689
X40.62069 Y52.0994 Z-18.44766
X40.79334 Y52.46173 Z-18.51843
X40.94266 Y52.83427 Z-18.5892
X41.06806 Y53.21554 Z-18.65997
X41.16902 Y53.60399 Z-18.73074
X41.24514 Y53.99807 Z-18.80151
X41.29611 Y54.39618 Z-18.87228
X41.32173 Y54.79672 Z-18.94305
X41.3219 Y55.19808 Z-19.01382
X41.29661 Y55.59864 Z-19.08459
X41.24596 Y55.99679 Z-19.15537
X41.17017 Y56.39092 Z-19.22613
X41.06953 Y56.77946 Z-19.29691
X40.94445 Y57.16083 Z-19.36767
X40.79543 Y57.5335 Z-19.43845
X40.62308 Y57.89597 Z-19.50922
X40.42808 Y58.24677 Z-19.57999
X40.21123 Y58.58451 Z-19.65076
X39.9734 Y58.90781 Z-19.72153
X39.71553 Y59.21537 Z-19.7923
X39.43868 Y59.50596 Z-19.86307
X39.14396 Y59.77841 Z-19.93384
X38.83255 Y60.03161 Z-20.00461
X38.50571 Y60.26456 Z-20.07538
X38.16476 Y60.47631 Z-20.14615
X37.81106 Y60.666 Z-20.21692
X37.44604 Y60.83288 Z-20.28769
X37.07117 Y60.97628 Z-20.35846
X36.68796 Y61.09561 Z-20.42923
X36.29795 Y61.19039 Z-20.5
G03 X33.70205 Y48.80961 I-1.29795 J-6.19039 F4996.
X36.29795 Y61.19039 I1.29795 J6.19039
G1 X36.40056 Y61.67975
G03 X33.59944 Y48.32025 I-1.40056 J-6.67975
X36.40056 Y61.67975 I1.40056 J6.67975
X32.4344 Y59.0885 I-0.68746 J-3.27871 F5000.
G1 X31.74695 Y55.80979
G0 Z3.175
(2 1/2 Axis Profiling)
(1/4in 6.35mm 2 Flute Carbide Router)
X203.675 Y79.85282
G1 Z0.66667 F1249.
Y60.00333 Z-2.83333 F3747.
Y0. F4996.
G02 X200. Y-3.675 I-3.67822 J0.00322
G1 X0.
G02 X-3.675 Y0. I0.00322 J3.67822
G1 Y90.
G02 X0. Y93.675 I3.67822 J-0.00322
G1 X200.
G02 X203.675 Y90. I-0.00322 J-3.67822
G1 Y60.00333
X203.175
Y0.
G02 X200. Y-3.175 I-3.175 J0.
G1 X0.
G02 X-3.175 Y0. I0. J3.175
G1 Y90.
G02 X0. Y93.175 I3.175 J0.
G1 X200.
G02 X203.175 Y90. I0. J-3.175
G1 Y60.00333
G0 Z3.175
X203.675 Y79.85282
G1 Z-2.16667 F1249.
Y60.00333 Z-5.66667 F3747.
Y0. F4996.
G02 X200. Y-3.675 I-3.67822 J0.00322
G1 X0.
G02 X-3.675 Y0. I0.00322 J3.67822
G1 Y90.
G02 X0. Y93.675 I3.67822 J-0.00322
G1 X200.
G02 X203.675 Y90. I-0.00322 J-3.67822
G1 Y60.00333
X203.175
Y0.
G02 X200. Y-3.175 I-3.175 J0.
G1 X0.
G02 X-3.175 Y0. I0. J3.175
G1 Y90.
G02 X0. Y93.175 I3.175 J0.
G1 X200.
G02 X203.175 Y90. I0. J-3.175
G1 Y60.00333
G0 Z3.175
X203.675 Y79.85282
G1 Z-5. F1249.
Y60.00333 Z-8.5 F3747.
Y0. F4996.
G02 X200. Y-3.675 I-3.67822 J0.00322
G1 X0.
G02 X-3.675 Y0. I0.00322 J3.67822
G1 Y90.
G02 X0. Y93.675 I3.67822 J-0.00322
G1 X200.
G02 X203.675 Y90. I-0.00322 J-3.67822
G1 Y60.00333
X203.175
Y0.
G02 X200. Y-3.175 I-3.175 J0.
G1 X0.
G02 X-3.175 Y0. I0. J3.175
G1 Y90.
G02 X0. Y93.175 I3.175 J0.
G1 X200.
G02 X203.175 Y90. I0. J-3.175
G1 Y60.00333
G0 Z3.175
X203.675 Y79.85282
G1 Z-7.83333 F1249.
Y60.00333 Z-11.33333 F3747.
Y0. F4996.
G02 X200. Y-3.675 I-3.67822 J0.00322
G1 X0.
G02 X-3.675 Y0. I0.00322 J3.67822
G1 Y90.
G02 X0. Y93.675 I3.67822 J-0.00322
G1 X200.
G02 X203.675 Y90. I-0.00322 J-3.67822
G1 Y60.00333
X203.175
Y0.
G02 X200. Y-3.175 I-3.175 J0.
G1 X0.
G02 X-3.175 Y0. I0. J3.175
G1 Y90.
G02 X0. Y93.175 I3.175 J0.
G1 X200.
G02 X203.175 Y90. I0. J-3.175
G1 Y60.00333
G0 Z3.175
X203.675 Y79.85282
G1 Z-10.66667 F1249.
Y60.00333 Z-14.16667 F3747.
Y0. F4996.
G02 X200. Y-3.675 I-3.67822 J0.00322
G1 X0.
G02 X-3.675 Y0. I0.00322 J3.67822
G1 Y90.
G02 X0. Y93.675 I3.67822 J-0.00322
G1 X200.
G02 X203.675 Y90. I-0.00322 J-3.67822
G1 Y60.00333
X203.175
Y0.
G02 X200. Y-3.175 I-3.175 J0.
G1 X0.
G02 X-3.175 Y0. I0. J3.175
G1 Y90.
G02 X0. Y93.175 I3.175 J0.
G1 X200.
G02 X203.175 Y90. I0. J-3.175
G1 Y60.00333
G0 Z3.175
X203.675 Y79.85282
G1 Z-13.5 F1249.
Y60.00333 Z-17. F3747.
Y0. F4996.
G02 X200. Y-3.675 I-3.67822 J0.00322
G1 X0.
G02 X-3.675 Y0. I0.00322 J3.67822
G1 Y90.
G02 X0. Y93.675 I3.67822 J-0.00322
G1 X200.
G02 X203.675 Y90. I-0.00322 J-3.67822
G1 Y60.00333
X203.175
Y0.
G02 X200. Y-3.175 I-3.175 J0.
G1 X0.
G02 X-3.175 Y0. I0. J3.175
G1 Y90.
G02 X0. Y93.175 I3.175 J0.
G1 X200.
G02 X203.175 Y90. I0. J-3.175
G1 Y60.00333
G0 Z3.175
(2 1/2 Axis Profiling-2)
(1/4in 6.35mm 2 Flute Carbide Router)
Y79.85282
G1 Z-17. F1249.
Y60.00333 Z-20.5 F3747.
Y0. F4000.
G02 X200. Y-3.175 I-3.175 J0.
G1 X0.
G02 X-3.175 Y0. I0. J3.175
G1 Y90.
G02 X0. Y93.175 I3.175 J0.
G1 X200.
G02 X203.175 Y90. I0. J-3.175
G1 Y60.00333
G0 Z3.175
M30
%
