%
G17 G21 G40 G90 G64 P0.1
(Deep Drill )
(1/8in Carbide Drill)
T13 M06
S9123 M3
G0 Z4.0875
X34. Y273.68898
G21 S9123 M3
G83 X34. Y273.68898 Z-10.91654 R2.5 Q5. F3649.0
X46.Y273.68898
X58.Y273.68898
X58.Y285.68898
X46.Y285.68898
X46.Y297.68898
X58.Y297.68898
X70.Y297.68898
X70.Y309.68898
X82.Y309.68898
X82.Y297.68898
X82.Y285.68898
X82.Y273.68898
X70.Y273.68898
X70.Y285.68898
X94.00095Y285.69
X106.Y285.68898
X106.Y297.68898
X94.00095Y297.69
X94.00095Y309.69
X106.Y309.68898
X118.Y309.68898
X118.Y297.68898
X118.Y285.68898
X130.Y285.68898
X142.Y285.68898
X154.Y285.68898
X154.Y297.68898
X166.Y297.68898
X166.Y285.68898
X166.Y273.68898
X178.Y273.68898
X178.Y285.68898
X190.Y285.68898
X190.Y297.68898
X190.Y309.68898
X178.Y309.68898
X178.Y297.68898
X166.Y309.68898
X154.Y309.68898
X154.Y321.68898
X166.Y321.68898
X166.Y333.68898
X154.Y333.68898
X142.Y333.68898
X142.Y345.68898
X130.Y345.68898
X130.Y333.68898
X118.Y333.68898
X118.Y345.68898
X118.Y357.68898
X106.Y357.68898
X94.00095Y357.69
X94.Y369.68898
X106.Y369.68898
X106.Y381.68898
X94.00095Y381.69
X94.00095Y393.69
X94.Y405.68898
X106.Y405.68898
X106.Y417.68898
X94.00095Y417.69
X94.00095Y429.69
X94.Y441.68898
X82.Y441.68898
X82.Y429.68898
X82.Y417.68898
X70.Y417.68898
X69.99882Y405.68971
X57.99882Y405.68971
X46.Y405.68898
X34.Y405.68898
X34.Y417.68898
X34.Y429.68898
X34.Y441.68898
X46.Y441.68898
X57.99938Y441.6899
X69.99938Y441.6899
X70.Y429.68898
X58.00069Y429.68768
X58.Y417.68898
X46.Y417.68898
X46.Y429.68898
X46.Y393.68898
X58.Y393.68898
X58.Y381.68898
X46.Y381.68898
X46.Y369.68898
X46.Y357.68898
X58.Y357.68898
X58.Y369.68898
X69.99849Y369.68943
X70.Y381.68898
X82.Y381.68898
X82.Y369.68898
X82.Y357.68898
X82.Y345.68898
X94.Y345.68898
X94.00095Y333.69
X106.Y333.68898
X106.Y345.68898
X106.Y321.68898
X94.00095Y321.69
X82.Y321.68898
X82.Y333.68898
X70.Y333.68898
X70.Y321.68898
X58.Y321.68898
X46.Y321.68898
X46.Y333.68898
X46.Y345.68898
X58.Y345.68898
X70.Y345.68898
X70.Y357.68898
X58.Y333.68898
X34.Y333.68898
X34.Y345.68898
X34.Y357.68898
X34.Y369.68898
X34.Y381.68898
X34.Y393.68898
X70.Y393.68898
X82.Y393.68898
X82.Y405.68898
X106.Y393.68898
X118.Y393.68898
X118.Y405.68898
X118.Y417.68898
X130.Y417.68898
X142.Y417.68898
X142.Y405.68898
X130.Y405.68898
X130.Y393.68898
X142.Y393.68898
X154.Y393.68898
X154.Y381.68898
X166.Y381.68898
X166.Y369.68898
X166.Y357.68898
X154.Y357.68898
X154.Y369.68898
X142.Y369.68898
X142.Y357.68898
X130.Y357.68898
X130.Y369.68898
X130.Y381.68898
X142.Y381.68898
X118.Y381.68898
X118.Y369.68898
X154.Y345.68898
X166.Y345.68898
X178.Y345.68898
X178.Y333.68898
X190.Y333.68898
X190.Y321.68898
X202.Y321.68898
X202.00098Y309.69014
X214.Y309.68898
X214.Y297.68898
X226.Y297.68898
X226.Y285.68898
X226.Y273.68898
X214.Y273.68898
X202.00098Y273.69014
X202.Y285.68898
X214.Y285.68898
X202.Y297.68898
X226.Y309.68898
X226.Y321.68898
X226.Y333.68898
X226.Y345.68898
X238.Y345.68898
X238.00088Y333.68998
X250.Y333.68898
X250.Y321.68898
X238.00088Y321.68998
X238.00088Y309.68998
X250.Y309.68898
X250.Y297.68898
X238.00088Y297.68998
X238.00088Y285.68998
X250.Y285.68898
X250.Y273.68898
X238.00088Y273.68998
X190.Y273.68898
X154.Y273.68898
X142.Y273.68898
X130.Y273.68898
X118.Y273.68898
X106.Y273.68898
X94.00095Y273.69
X130.Y297.68898
X130.Y309.68898
X142.Y309.68898
X142.Y297.68898
X142.Y321.68898
X130.Y321.68898
X118.Y321.68898
X178.Y321.68898
X190.Y345.68898
X190.Y357.68898
X202.Y357.68898
X202.Y369.68898
X213.99849Y369.68943
X214.Y381.68898
X202.00098Y381.69014
X202.Y393.68898
X190.Y393.68898
X190.Y405.68898
X201.99882Y405.68971
X213.99882Y405.68971
X214.Y417.68898
X202.00098Y417.69014
X202.00069Y429.68768
X214.Y429.68898
X226.Y429.68898
X226.Y441.68898
X213.99938Y441.6899
X201.99938Y441.6899
X190.Y441.68898
X178.Y441.68898
X166.Y441.68898
X154.Y441.68898
X154.Y429.68898
X166.Y429.68898
X166.Y417.68898
X166.Y405.68898
X154.Y405.68898
X154.Y417.68898
X142.Y429.68898
X142.Y441.68898
X130.Y441.68898
X130.Y429.68898
X118.Y429.68898
X118.Y441.68898
X106.Y441.68898
X106.Y429.68898
X166.Y393.68898
X178.Y393.68898
X178.Y381.68898
X178.Y369.68898
X178.Y357.68898
X190.Y369.68898
X190.Y381.68898
X214.Y393.68898
X226.Y393.68898
X226.Y381.68898
X226.Y369.68898
X238.Y369.68898
X238.00088Y357.68998
X250.Y357.68898
X250.Y345.68898
X250.Y369.68898
X250.Y381.68898
X238.00088Y381.68998
X238.00088Y393.68998
X238.Y405.68898
X226.Y405.68898
X226.Y417.68898
X238.00088Y417.68998
X250.Y417.68898
X250.Y405.68898
X250.Y393.68898
X250.Y429.68898
X238.00088Y429.68998
X238.00088Y441.68998
X250.Y441.68898
X190.Y429.68898
X190.Y417.68898
X178.Y417.68898
X178.Y405.68898
X178.Y429.68898
X214.Y357.68898
X214.Y345.68898
X214.Y333.68898
X214.Y321.68898
X202.Y333.68898
X202.Y345.68898
X226.Y357.68898
X58.Y309.68898
X46.Y309.68898
X34.Y309.68898
X34.Y297.68898
X34.Y285.68898
X34.Y321.68898
G80
G0 Z4.0875
M30
%
