%
G17 G21 G40 G90 G64 P0.1
(2 1/2 Axis Profiling)
(1/4in 6.35mm 2 Flute Carbide Router)
T30 M06
S17544 M3
G0 Z3.175
X103.69791 Y23.21105
G1 Z0.66667 F1228.
X103.80651 Y22.51867 Z0.54309 F3684.
X103.99024 Y21.69333 Z0.394
X104.22595 Y20.8813 Z0.2449
X104.51269 Y20.08585 Z0.09581
X104.8493 Y19.31019 Z-0.05328
X105.23443 Y18.55744 Z-0.20238
X105.66653 Y17.83064 Z-0.35147
X106.14385 Y17.1327 Z-0.50056
X106.66448 Y16.46644 Z-0.64966
X107.22631 Y15.83454 Z-0.79875
X107.82709 Y15.23955 Z-0.94784
X108.4644 Y14.68386 Z-1.09694
X109.13568 Y14.16971 Z-1.24603
X109.8382 Y13.69917 Z-1.39512
X110.56916 Y13.27414 Z-1.54421
X111.3256 Y12.89632 Z-1.69331
X112.10449 Y12.56724 Z-1.8424
X112.90267 Y12.28821 Z-1.9915
X113.71695 Y12.06038 Z-2.14059
X114.54403 Y11.88465 Z-2.28968
X115.3806 Y11.76173 Z-2.43877
X116.22328 Y11.69212 Z-2.58787
X117.06868 Y11.67609 Z-2.73696
X117.91339 Y11.71371 Z-2.88605
X118.75402 Y11.80483 Z-3.03515
X119.58717 Y11.94909 Z-3.18424
X120.4095 Y12.14589 Z-3.33333
G17
G03 X113.38738 Y37.85411 I-3.51106 J12.85411 F4912.
X120.4095 Y12.14589 I3.51106 J-12.85411
G1 X120.67299 Y11.18123
G03 X113.12389 Y38.81877 I-3.77455 J13.81877
X120.67299 Y11.18123 I3.77455 J-13.81877
G0 Z3.175
X103.69791 Y23.21105
G1 Z-2.66667 F1228.
X103.80651 Y22.51867 Z-2.79024 F3684.
X103.99024 Y21.69333 Z-2.93934
X104.22595 Y20.8813 Z-3.08843
X104.51269 Y20.08585 Z-3.23752
X104.8493 Y19.31019 Z-3.38662
X105.23443 Y18.55744 Z-3.53571
X105.66653 Y17.83064 Z-3.6848
X106.14385 Y17.1327 Z-3.8339
X106.66448 Y16.46644 Z-3.98299
X107.22631 Y15.83454 Z-4.13208
X107.82709 Y15.23955 Z-4.28118
X108.4644 Y14.68386 Z-4.43027
X109.13568 Y14.16971 Z-4.57936
X109.8382 Y13.69917 Z-4.72846
X110.56916 Y13.27414 Z-4.87755
X111.3256 Y12.89632 Z-5.02664
X112.10449 Y12.56724 Z-5.17574
X112.90267 Y12.28821 Z-5.32483
X113.71695 Y12.06038 Z-5.47392
X114.54403 Y11.88465 Z-5.62301
X115.3806 Y11.76173 Z-5.77211
X116.22328 Y11.69212 Z-5.9212
X117.06868 Y11.67609 Z-6.07029
X117.91339 Y11.71371 Z-6.21939
X118.75402 Y11.80483 Z-6.36848
X119.58717 Y11.94909 Z-6.51757
X120.4095 Y12.14589 Z-6.66667
G03 X113.38738 Y37.85411 I-3.51106 J12.85411 F4912.
X120.4095 Y12.14589 I3.51106 J-12.85411
G1 X120.67299 Y11.18123
G03 X113.12389 Y38.81877 I-3.77455 J13.81877
X120.67299 Y11.18123 I3.77455 J-13.81877
G0 Z3.175
X103.69791 Y23.21105
G1 Z-6. F1228.
X103.80651 Y22.51867 Z-6.12358 F3684.
X103.99024 Y21.69333 Z-6.27267
X104.22595 Y20.8813 Z-6.42176
X104.51269 Y20.08585 Z-6.57086
X104.8493 Y19.31019 Z-6.71995
X105.23443 Y18.55744 Z-6.86904
X105.66653 Y17.83064 Z-7.01814
X106.14385 Y17.1327 Z-7.16723
X106.66448 Y16.46644 Z-7.31632
X107.22631 Y15.83454 Z-7.46542
X107.82709 Y15.23955 Z-7.61451
X108.4644 Y14.68386 Z-7.7636
X109.13568 Y14.16971 Z-7.9127
X109.8382 Y13.69917 Z-8.06179
X110.56916 Y13.27414 Z-8.21088
X111.3256 Y12.89632 Z-8.35997
X112.10449 Y12.56724 Z-8.50907
X112.90267 Y12.28821 Z-8.65816
X113.71695 Y12.06038 Z-8.80725
X114.54403 Y11.88465 Z-8.95635
X115.3806 Y11.76173 Z-9.10544
X116.22328 Y11.69212 Z-9.25453
X117.06868 Y11.67609 Z-9.40363
X117.91339 Y11.71371 Z-9.55272
X118.75402 Y11.80483 Z-9.70181
X119.58717 Y11.94909 Z-9.85091
X120.4095 Y12.14589 Z-10.
G03 X113.38738 Y37.85411 I-3.51106 J12.85411 F4912.
X120.4095 Y12.14589 I3.51106 J-12.85411
G1 X120.67299 Y11.18123
G03 X113.12389 Y38.81877 I-3.77455 J13.81877
X120.67299 Y11.18123 I3.77455 J-13.81877
G0 Z3.175
(2 1/2 Axis Profiling)
(1/4in 6.35mm 2 Flute Carbide Router)
X1.65718 Y57.35355
G1 Z-1.5 F1228.
Y61.35355 F3684.
Y62.35355
Y112.35355 F4912.
G02 X4.15718 I1.25 J0.
G1 Y62.35355
G03 X6.65718 I1.25 J0.
G1 Y112.35355
Y113.35355 F5000.
Y117.35355
G0 Z3.175
X1.65718 Y57.35355
G1 Z-4. F1228.
Y61.35355 F3684.
Y62.35355
Y112.35355 F4912.
G02 X4.15718 I1.25 J0.
G1 Y62.35355
G03 X6.65718 I1.25 J0.
G1 Y112.35355
Y113.35355 F5000.
Y117.35355
G0 Z3.175
X1.62344 Y-5.
G1 Z-1.5 F1228.
Y-1. F3684.
Y0.
Y50. F4912.
G02 X4.12344 I1.25 J0.
G1 Y0.
G03 X6.62344 I1.25 J0.
G1 Y50.
Y51. F5000.
Y55.
G0 Z3.175
X1.62344 Y-5.
G1 Z-4. F1228.
Y-1. F3684.
Y0.
Y50. F4912.
G02 X4.12344 I1.25 J0.
G1 Y0.
G03 X6.62344 I1.25 J0.
G1 Y50.
Y51. F5000.
Y55.
G0 Z3.175
X232.20718 Y117.35355
G1 Z-1.5 F1228.
Y113.35355 F3684.
Y112.35355
Y62.35355 F4912.
G02 X229.70718 I-1.25 J0.
G1 Y112.35355
G03 X227.20718 I-1.25 J0.
G1 Y62.35355
Y61.35355 F5000.
Y57.35355
G0 Z3.175
X232.20718 Y117.35355
G1 Z-4. F1228.
Y113.35355 F3684.
Y112.35355
Y62.35355 F4912.
G02 X229.70718 I-1.25 J0.
G1 Y112.35355
G03 X227.20718 I-1.25 J0.
G1 Y62.35355
Y61.35355 F5000.
Y57.35355
G0 Z3.175
X232.17344 Y55.
G1 Z-1.5 F1228.
Y51. F3684.
Y50.
Y0. F4912.
G02 X229.67344 I-1.25 J0.
G1 Y50.
G03 X227.17344 I-1.25 J0.
G1 Y0.
Y-1. F5000.
Y-5.
G0 Z3.175
X232.17344 Y55.
G1 Z-4. F1228.
Y51. F3684.
Y50.
Y0. F4912.
G02 X229.67344 I-1.25 J0.
G1 Y50.
G03 X227.17344 I-1.25 J0.
G1 Y0.
Y-1. F5000.
Y-5.
G0 Z3.175
(2 1/2 Axis Profiling)
(1/4in 6.35mm 2 Flute Carbide Router)
X205.35513 Y181.05615
G1 Z0.66667 F1228.
X182.67 Z-3.33333 F3684.
X0. F4912.
G02 X-3.175 Y184.23115 I0. J3.175
G1 Y234.23115
G02 X0. Y237.40615 I3.175 J0.
G1 X274.
G02 X277.175 Y234.23115 I0. J-3.175
G1 Y184.23115
G02 X274. Y181.05615 I-3.175 J0.
G1 X182.67
G0 Z3.175
X205.35513
G1 Z-2.66667 F1228.
X182.67 Z-6.66667 F3684.
X0. F4912.
G02 X-3.175 Y184.23115 I0. J3.175
G1 Y234.23115
G02 X0. Y237.40615 I3.175 J0.
G1 X274.
G02 X277.175 Y234.23115 I0. J-3.175
G1 Y184.23115
G02 X274. Y181.05615 I-3.175 J0.
G1 X182.67
G0 Z3.175
X205.35513
G1 Z-6. F1228.
X182.67 Z-10. F3684.
X0. F4912.
G02 X-3.175 Y184.23115 I0. J3.175
G1 Y234.23115
G02 X0. Y237.40615 I3.175 J0.
G1 X274.
G02 X277.175 Y234.23115 I0. J-3.175
G1 Y184.23115
G02 X274. Y181.05615 I-3.175 J0.
G1 X182.67
G0 Z3.175
X205.77122 Y120.11715
G1 Z0.66667 F1228.
X183.08609 Z-3.33333 F3684.
X0.41609 F4912.
G02 X-2.75891 Y123.29215 I0. J3.175
G1 Y173.29215
G02 X0.41609 Y176.46715 I3.175 J0.
G1 X274.41609
G02 X277.59109 Y173.29215 I0. J-3.175
G1 Y123.29215
G02 X274.41609 Y120.11715 I-3.175 J0.
G1 X183.08609
G0 Z3.175
X205.77122
G1 Z-2.66667 F1228.
X183.08609 Z-6.66667 F3684.
X0.41609 F4912.
G02 X-2.75891 Y123.29215 I0. J3.175
G1 Y173.29215
G02 X0.41609 Y176.46715 I3.175 J0.
G1 X274.41609
G02 X277.59109 Y173.29215 I0. J-3.175
G1 Y123.29215
G02 X274.41609 Y120.11715 I-3.175 J0.
G1 X183.08609
G0 Z3.175
X205.77122
G1 Z-6. F1228.
X183.08609 Z-10. F3684.
X0.41609 F4912.
G02 X-2.75891 Y123.29215 I0. J3.175
G1 Y173.29215
G02 X0.41609 Y176.46715 I3.175 J0.
G1 X274.41609
G02 X277.59109 Y173.29215 I0. J-3.175
G1 Y123.29215
G02 X274.41609 Y120.11715 I-3.175 J0.
G1 X183.08609
G0 Z3.175
X132.95039 Y115.52855
G1 Z0.66667 F1228.
X155.63552 Z-3.33333 F3684.
X233.03218 F4912.
G02 X236.20718 Y112.35355 I0. J-3.175
G1 Y62.35355
G02 X233.03218 Y59.17855 I-3.175 J0.
G1 X0.83218
G02 X-2.34282 Y62.35355 I0. J3.175
G1 Y112.35355
G02 X0.83218 Y115.52855 I3.175 J0.
G1 X155.63552
G0 Z3.175
X132.95039
G1 Z-2.66667 F1228.
X155.63552 Z-6.66667 F3684.
X233.03218 F4912.
G02 X236.20718 Y112.35355 I0. J-3.175
G1 Y62.35355
G02 X233.03218 Y59.17855 I-3.175 J0.
G1 X0.83218
G02 X-2.34282 Y62.35355 I0. J3.175
G1 Y112.35355
G02 X0.83218 Y115.52855 I3.175 J0.
G1 X155.63552
G0 Z3.175
X132.95039
G1 Z-6. F1228.
X155.63552 Z-10. F3684.
X233.03218 F4912.
G02 X236.20718 Y112.35355 I0. J-3.175
G1 Y62.35355
G02 X233.03218 Y59.17855 I-3.175 J0.
G1 X0.83218
G02 X-2.34282 Y62.35355 I0. J3.175
G1 Y112.35355
G02 X0.83218 Y115.52855 I3.175 J0.
G1 X155.63552
G0 Z3.175
X132.91665 Y53.175
G1 Z0.66667 F1228.
X155.60177 Z-3.33333 F3684.
X232.99844 F4912.
G02 X236.17344 Y50. I0. J-3.175
G1 Y0.
G02 X232.99844 Y-3.175 I-3.175 J0.
G1 X0.79844
G02 X-2.37656 Y0. I0. J3.175
G1 Y50.
G02 X0.79844 Y53.175 I3.175 J0.
G1 X155.60177
G0 Z3.175
X132.91665
G1 Z-2.66667 F1228.
X155.60177 Z-6.66667 F3684.
X232.99844 F4912.
G02 X236.17344 Y50. I0. J-3.175
G1 Y0.
G02 X232.99844 Y-3.175 I-3.175 J0.
G1 X0.79844
G02 X-2.37656 Y0. I0. J3.175
G1 Y50.
G02 X0.79844 Y53.175 I3.175 J0.
G1 X155.60177
G0 Z3.175
X132.91665
G1 Z-6. F1228.
X155.60177 Z-10. F3684.
X232.99844 F4912.
G02 X236.17344 Y50. I0. J-3.175
G1 Y0.
G02 X232.99844 Y-3.175 I-3.175 J0.
G1 X0.79844
G02 X-2.37656 Y0. I0. J3.175
G1 Y50.
G02 X0.79844 Y53.175 I3.175 J0.
G1 X155.60177
G0 Z3.175
M30
%
