%
G17 G21 G40 G90 G64 P0.1
(2 1/2 Axis Profiling)
(1/4in 6.35mm 2 Flute Carbide Router)
T30 M06
S17544 M3
G0 Z3.175
X286.164 Y273.47935
G1 Z0.5 F1228.
X286.16267 Y250.27491 Z-3.59157 F3684.
X286.15034 Y249.9613 Z-3.64691
X286.11125 Y249.46462 Z-3.73476
X286.05939 Y249.06475 Z-3.80586
X285.90305 Y248.20258 Z-3.96036
X285.85057 Y247.98398 Z-4.
X285.79809 Y247.76539 F4912.
G17
G02 X285.21998 Y246.08609 I-10.99159 J2.84474
X275.25326 Y239.422 I-10.2279 J4.51162
G1 X274.99981 Y239.41398
X8.68598 Y239.42631
G02 X-2.16698 Y250.33572 I0.31602 J11.16749
G1 X-2.175 Y250.58921
X-2.16267 Y465.10304
G02 X8.74674 Y475.95595 I11.16749 J-0.31607
G1 X9.00018 Y475.96398
X275.31402 Y475.95165
G02 X286.16698 Y465.04223 I-0.31603 J-11.16749
G1 X286.175 Y464.78875
X286.16267 Y250.27491
G02 X286.05939 Y249.06475 I-9.83079 J0.22949
G1 X285.90305 Y248.20258
X285.85057 Y247.98398
G02 X283.9089 Y248.45014 I-0.97083 J0.23308
G03 X281.96724 Y248.91629 I-0.97083 J0.23307
G1 X281.90908 Y248.67407
G02 X275.31384 Y243.42631 I-6.90908 J1.91491
G1 X275. Y243.41398
X9.
G02 X3.02081 Y246.63276 I0.01771 J7.19573
X1.825 Y250.58898 I6.04375 J3.98563
G1 Y464.78898
G02 X5.04379 Y470.76817 I7.19574 J-0.01772
X9. Y471.96398 I3.98562 J-6.04375
G1 X275.
G02 X280.97919 Y468.74519 I-0.01771 J-7.19574
X282.175 Y464.78898 I-6.04375 J-3.98562
G1 Y250.58898
G02 X281.96724 Y248.91629 I-7.27946 J0.05493
G1 X278.07776 Y249.85007
X278.0196 Y249.60785
G02 X275. Y247.41398 I-3.0196 J0.98113
G1 X9.
G02 X5.825 Y250.58898 I0. J3.175
G1 Y464.78898
G02 X9. Y467.96398 I3.175 J0.
G1 X275.
G02 X278.175 Y464.78898 I0. J-3.175
G1 Y250.58898
X278.13591 Y250.0923
X278.07776 Y249.85007
G0 Z3.175
X72.14256 Y234.375
G1 Z0.5 F1228.
X97.66333 Z-4. F3684.
X97.6636 F4912.
X275.31411 Y234.36267
G02 X286.16698 Y223.45325 I-0.31612 J-11.16749
G1 X286.175 Y223.19977
X286.16267 Y8.68593
G02 X275.25326 Y-2.16698 I-11.16749 J0.31607
G1 X274.99981 Y-2.175
X8.68598 Y-2.16267
G02 X-2.16698 Y8.74674 I0.31602 J11.16749
G1 X-2.175 Y9.00023
X-2.16267 Y223.51406
G02 X8.74674 Y234.36697 I11.16749 J-0.31607
G1 X9. Y234.375
X97.66333
G02 Y232.375 I0. J-1.
G03 Y230.375 I0. J-1.
G1 X275.
G02 X280.97919 Y227.15621 I-0.01771 J-7.19574
X282.175 Y223.2 I-6.04375 J-3.98562
G1 Y9.
G02 X278.95621 Y3.02081 I-7.19574 J0.01771
X275. Y1.825 I-3.98562 J6.04375
G1 X9.
G02 X3.02081 Y5.04379 I0.01771 J7.19573
X1.825 Y9. I6.04375 J3.98562
G1 Y223.2
G02 X5.04379 Y229.17919 I7.19574 J-0.01771
X9. Y230.375 I3.98562 J-6.04375
G1 X97.66333
G02 Y228.375 I0. J-1.
G03 Y226.375 I0. J-1.
G1 X275.
G02 X278.175 Y223.2 I0. J-3.175
G1 Y9.
G02 X275. Y5.825 I-3.175 J0.
G1 X9.
G02 X5.825 Y9. I0. J3.175
G1 Y223.2
G02 X9. Y226.375 I3.175 J0.
G1 X97.66333
G0 Z3.175
(2 1/2 Axis Profiling)
(1/4in 6.35mm 2 Flute Carbide Router)
X219.40057 Y476.96398
G1 Z0.66667 F1228.
X242.0857 Z-3.33333 F3684.
X284. F4912.
G02 X287.175 Y473.78898 I0. J-3.175
G1 Y241.58898
G02 X284. Y238.41398 I-3.175 J0.
G1 X0.
G02 X-3.175 Y241.58898 I0. J3.175
G1 Y473.78898
G02 X0. Y476.96398 I3.175 J0.
G1 X242.0857
G0 Z3.175
X219.40057
G1 Z-2.66667 F1228.
X242.0857 Z-6.66667 F3684.
X284. F4912.
G02 X287.175 Y473.78898 I0. J-3.175
G1 Y241.58898
G02 X284. Y238.41398 I-3.175 J0.
G1 X0.
G02 X-3.175 Y241.58898 I0. J3.175
G1 Y473.78898
G02 X0. Y476.96398 I3.175 J0.
G1 X242.0857
G0 Z3.175
X219.40057
G1 Z-6. F1228.
X242.0857 Z-10. F3684.
X284. F4912.
G02 X287.175 Y473.78898 I0. J-3.175
G1 Y241.58898
G02 X284. Y238.41398 I-3.175 J0.
G1 X0.
G02 X-3.175 Y241.58898 I0. J3.175
G1 Y473.78898
G02 X0. Y476.96398 I3.175 J0.
G1 X242.0857
G0 Z3.175
X217.11359 Y235.375
G1 Z0.66667 F1228.
X239.79872 Z-3.33333 F3684.
X284. F4912.
G02 X287.175 Y232.2 I0. J-3.175
G1 Y0.
G02 X284. Y-3.175 I-3.175 J0.
G1 X0.
G02 X-3.175 Y0. I0. J3.175
G1 Y232.2
G02 X0. Y235.375 I3.175 J0.
G1 X239.79872
G0 Z3.175
X217.11359
G1 Z-2.66667 F1228.
X239.79872 Z-6.66667 F3684.
X284. F4912.
G02 X287.175 Y232.2 I0. J-3.175
G1 Y0.
G02 X284. Y-3.175 I-3.175 J0.
G1 X0.
G02 X-3.175 Y0. I0. J3.175
G1 Y232.2
G02 X0. Y235.375 I3.175 J0.
G1 X239.79872
G0 Z3.175
X217.11359
G1 Z-6. F1228.
X239.79872 Z-10. F3684.
X284. F4912.
G02 X287.175 Y232.2 I0. J-3.175
G1 Y0.
G02 X284. Y-3.175 I-3.175 J0.
G1 X0.
G02 X-3.175 Y0. I0. J3.175
G1 Y232.2
G02 X0. Y235.375 I3.175 J0.
G1 X239.79872
G0 Z3.175
M30
%
