%
G17 G21 G40 G90 G64 P0.1
(Standard Drill )
(1/8in Carbide Drill)
T13 M06
S6269 M3
G0 Z5.5875
X1.30832 Y7.75
G21 S6269 M3
G81 X1.30832 Y7.75 Z-1.91654 R4. F72.0
X1.30832Y-7.75
X25.30832Y-7.75
X25.30832Y7.75
X51.40832Y7.75
X51.40832Y-7.75
X75.40832Y-7.75
X75.40832Y7.75
G80
G0 Z5.5875
(1/8in Carbide Drill)
X-8.90877 Y14.11606
G21 S6269 M3
G81 X-8.90877 Y14.11606 Z-1.91654 R2.5 F72.0
X15.02528Y14.06489
X41.23055Y13.93335
X65.09846Y13.8807
G80
G0 Z5.5875
M30
%
