%
N1 G17 G21 G40 G90
(2 1/2 Axis Profiling)
(SlotDrill 1/8in 3.175mm Carbide Aluminium Cut)
N2 T6 M06
N3 S22256 M3
N4 G0 Z1.5875
N5 X25.46712 Y54.93074
N6 G1 Z-1.23 F141.2
N7 X25.56071 Y54.81484 Z-1.24303 F423.7
N8 X25.70136 Y54.61606 Z-1.26434
N9 X25.82912 Y54.40875 Z-1.28564
N10 X25.94348 Y54.19376 Z-1.30695
N11 X26.04397 Y53.97196 Z-1.32825
N12 X26.1302 Y53.74422 Z-1.34956
N13 X26.2018 Y53.51147 Z-1.37086
N14 X26.2585 Y53.27465 Z-1.39217
N15 X26.30006 Y53.03472 Z-1.41347
N16 X26.32633 Y52.79262 Z-1.43477
N17 X26.33718 Y52.54935 Z-1.45608
N18 X26.33259 Y52.30589 Z-1.47738
N19 X26.31256 Y52.0632 Z-1.49869
N20 X26.27718 Y51.82227 Z-1.51999
N21 X26.22659 Y51.58407 Z-1.5413
N22 X26.161 Y51.34956 Z-1.5626
N23 X26.08066 Y51.11968 Z-1.5839
N24 X25.98591 Y50.89536 Z-1.60521
N25 X25.87712 Y50.6775 Z-1.62651
N26 X25.75473 Y50.46698 Z-1.64782
N27 X25.61923 Y50.26465 Z-1.66912
N28 X25.47118 Y50.07131 Z-1.69043
N29 X25.31116 Y49.88776 Z-1.71173
N30 X25.13982 Y49.71473 Z-1.73304
N31 X24.95785 Y49.55291 Z-1.75434
N32 X24.76599 Y49.40295 Z-1.77565
N33 X24.565 Y49.26547 Z-1.79695
N34 X24.3557 Y49.14101 Z-1.81825
N35 X24.13892 Y49.03008 Z-1.83956
N36 X23.91554 Y48.93312 Z-1.86086
N37 X23.68647 Y48.85052 Z-1.88217
N38 X23.45262 Y48.78262 Z-1.90347
N39 X23.21493 Y48.72968 Z-1.92478
N40 X22.97436 Y48.69193 Z-1.94608
N41 X22.73188 Y48.66951 Z-1.96739
N42 X22.48847 Y48.66252 Z-1.98869
N43 X22.24511 Y48.67097 Z-2.01
N44 X22.00277 Y48.69485 Z-2.0313
N45 X21.76243 Y48.73405 Z-2.0526
N46 X21.52506 Y48.78841 Z-2.07391
N47 X21.29162 Y48.85772 Z-2.09521
N48 X21.06305 Y48.94169 Z-2.11652
N49 X20.84026 Y49.03999 Z-2.13782
N50 X20.62415 Y49.15222 Z-2.15913
N51 X20.4156 Y49.27794 Z-2.18043
N52 X20.21544 Y49.41663 Z-2.20174
N53 X20.02448 Y49.56773 Z-2.22304
N54 X19.84349 Y49.73064 Z-2.24435
N55 X19.6732 Y49.9047 Z-2.26565
N56 X19.51428 Y50.08921 Z-2.28696
N57 X19.36739 Y50.28343 Z-2.30826
N58 X19.23312 Y50.48658 Z-2.32956
N59 X19.11199 Y50.69783 Z-2.35087
N60 X19.00452 Y50.91634 Z-2.37217
N61 X18.91111 Y51.14123 Z-2.39348
N62 X18.83216 Y51.37158 Z-2.41478
N63 X18.76797 Y51.60648 Z-2.43609
N64 X18.71882 Y51.84498 Z-2.45739
N65 X18.68489 Y52.08612 Z-2.4787
N66 X18.66632 Y52.32892 Z-2.5
N67 G17
N68 G02 X26.33369 Y52.67108 I3.83368 J0.17108 F565.
N69 X18.66632 Y52.32892 I-3.83369 J-0.17108
N70 G0 Z1.5875
N71 X21.37141 Y18.83413
N72 G1 Z-1.23 F141.2
N73 X21.22935 Y18.87897 Z-1.24303 F423.7
N74 X21.00224 Y18.96685 Z-1.26434
N75 X20.78118 Y19.06896 Z-1.28564
N76 X20.56702 Y19.18488 Z-1.30695
N77 X20.36066 Y19.31415 Z-1.32825
N78 X20.16291 Y19.45625 Z-1.34956
N79 X19.97457 Y19.61061 Z-1.37086
N80 X19.79639 Y19.7766 Z-1.39217
N81 X19.62911 Y19.95355 Z-1.41347
N82 X19.47338 Y20.14076 Z-1.43477
N83 X19.32984 Y20.33747 Z-1.45608
N84 X19.19907 Y20.54289 Z-1.47738
N85 X19.08159 Y20.75619 Z-1.49869
N86 X18.97787 Y20.97651 Z-1.51999
N87 X18.88834 Y21.20296 Z-1.5413
N88 X18.81335 Y21.43464 Z-1.5626
N89 X18.7532 Y21.67061 Z-1.5839
N90 X18.70814 Y21.90992 Z-1.60521
N91 X18.67835 Y22.1516 Z-1.62651
N92 X18.66395 Y22.39468 Z-1.64782
N93 X18.66499 Y22.63819 Z-1.66912
N94 X18.68148 Y22.88115 Z-1.69043
N95 X18.71334 Y23.12256 Z-1.71173
N96 X18.76045 Y23.36148 Z-1.73304
N97 X18.82261 Y23.59692 Z-1.75434
N98 X18.89959 Y23.82794 Z-1.77565
N99 X18.99106 Y24.05362 Z-1.79695
N100 X19.09666 Y24.27305 Z-1.81825
N101 X19.21597 Y24.48533 Z-1.83956
N102 X19.3485 Y24.68962 Z-1.86086
N103 X19.49372 Y24.88509 Z-1.88217
N104 X19.65104 Y25.07096 Z-1.90347
N105 X19.81984 Y25.24647 Z-1.92478
N106 X19.99943 Y25.41093 Z-1.94608
N107 X20.18908 Y25.56367 Z-1.96739
N108 X20.38805 Y25.70407 Z-1.98869
N109 X20.59551 Y25.83156 Z-2.01
N110 X20.81065 Y25.94565 Z-2.0313
N111 X21.03259 Y26.04586 Z-2.0526
N112 X21.26043 Y26.13179 Z-2.07391
N113 X21.49327 Y26.20309 Z-2.09521
N114 X21.73016 Y26.25949 Z-2.11652
N115 X21.97015 Y26.30074 Z-2.13782
N116 X22.21228 Y26.3267 Z-2.15913
N117 X22.45556 Y26.33724 Z-2.18043
N118 X22.69902 Y26.33233 Z-2.20174
N119 X22.94168 Y26.312 Z-2.22304
N120 X23.18257 Y26.27631 Z-2.24435
N121 X23.4207 Y26.22541 Z-2.26565
N122 X23.65513 Y26.15952 Z-2.28696
N123 X23.8849 Y26.07889 Z-2.30826
N124 X24.1091 Y25.98385 Z-2.32956
N125 X24.32682 Y25.87478 Z-2.35087
N126 X24.53718 Y25.75212 Z-2.37217
N127 X24.73935 Y25.61636 Z-2.39348
N128 X24.93249 Y25.46806 Z-2.41478
N129 X25.11584 Y25.30781 Z-2.43609
N130 X25.28865 Y25.13625 Z-2.45739
N131 X25.45024 Y24.95408 Z-2.4787
N132 X25.59995 Y24.76202 Z-2.5
N133 G02 X19.40005 Y20.23798 I-3.09995 J-2.26202 F565.
N134 X25.59995 Y24.76202 I3.09995 J2.26202
N135 G0 Z1.5875
N136 X95.63432 Y22.74046
N137 G1 Z-1.23 F141.2
N138 X95.6426 Y22.59173 Z-1.24303 F423.7
N139 X95.6407 Y22.34822 Z-1.26434
N140 X95.62335 Y22.10533 Z-1.28564
N141 X95.59064 Y21.86403 Z-1.30695
N142 X95.54268 Y21.62528 Z-1.32825
N143 X95.47968 Y21.39006 Z-1.34956
N144 X95.40189 Y21.15931 Z-1.37086
N145 X95.30962 Y20.93396 Z-1.39217
N146 X95.20324 Y20.71491 Z-1.41347
N147 X95.08318 Y20.50305 Z-1.43477
N148 X94.94993 Y20.29923 Z-1.45608
N149 X94.80402 Y20.10427 Z-1.47738
N150 X94.64604 Y19.91896 Z-1.49869
N151 X94.47662 Y19.74405 Z-1.51999
N152 X94.29645 Y19.58023 Z-1.5413
N153 X94.10625 Y19.42817 Z-1.5626
N154 X93.90679 Y19.28847 Z-1.5839
N155 X93.69888 Y19.16171 Z-1.60521
N156 X93.48334 Y19.04839 Z-1.62651
N157 X93.26105 Y18.94897 Z-1.64782
N158 X93.0329 Y18.86385 Z-1.66912
N159 X92.79981 Y18.79336 Z-1.69043
N160 X92.56272 Y18.73781 Z-1.71173
N161 X92.32258 Y18.6974 Z-1.73304
N162 X92.08037 Y18.67231 Z-1.75434
N163 X91.83705 Y18.66262 Z-1.77565
N164 X91.59361 Y18.66839 Z-1.79695
N165 X91.35102 Y18.68959 Z-1.81825
N166 X91.11026 Y18.72613 Z-1.83956
N167 X90.87231 Y18.77787 Z-1.86086
N168 X90.63812 Y18.84459 Z-1.88217
N169 X90.40863 Y18.92604 Z-1.90347
N170 X90.18477 Y19.02187 Z-1.92478
N171 X89.96744 Y19.13171 Z-1.94608
N172 X89.75751 Y19.25512 Z-1.96739
N173 X89.55583 Y19.39159 Z-1.98869
N174 X89.36321 Y19.54057 Z-2.01
N175 X89.18043 Y19.70147 Z-2.0313
N176 X89.00823 Y19.87364 Z-2.0526
N177 X88.84729 Y20.05639 Z-2.07391
N178 X88.69826 Y20.24898 Z-2.09521
N179 X88.56175 Y20.45063 Z-2.11652
N180 X88.4383 Y20.66053 Z-2.13782
N181 X88.32842 Y20.87784 Z-2.15913
N182 X88.23253 Y21.10168 Z-2.18043
N183 X88.15104 Y21.33115 Z-2.20174
N184 X88.08427 Y21.56533 Z-2.22304
N185 X88.03248 Y21.80327 Z-2.24435
N186 X87.99589 Y22.04401 Z-2.26565
N187 X87.97464 Y22.2866 Z-2.28696
N188 X87.96882 Y22.53004 Z-2.30826
N189 X87.97845 Y22.77336 Z-2.32956
N190 X88.00349 Y23.01558 Z-2.35087
N191 X88.04385 Y23.25573 Z-2.37217
N192 X88.09936 Y23.49283 Z-2.39348
N193 X88.16979 Y23.72593 Z-2.41478
N194 X88.25486 Y23.9541 Z-2.43609
N195 X88.35424 Y24.17641 Z-2.45739
N196 X88.46751 Y24.39197 Z-2.4787
N197 X88.59423 Y24.59992 Z-2.5
N198 G02 X95.01817 Y20.40008 I3.21197 J-2.09992 F565.
N199 X88.59423 Y24.59992 I-3.21197 J2.09992
N200 G0 Z1.5875
N201 X92.9348 Y56.16587
N202 G1 Z-1.23 F141.2
N203 X93.07686 Y56.12103 Z-1.24303 F423.7
N204 X93.30396 Y56.03315 Z-1.26434
N205 X93.52503 Y55.93104 Z-1.28564
N206 X93.73918 Y55.81512 Z-1.30695
N207 X93.94554 Y55.68585 Z-1.32825
N208 X94.1433 Y55.54375 Z-1.34956
N209 X94.33164 Y55.38939 Z-1.37086
N210 X94.50981 Y55.2234 Z-1.39217
N211 X94.67709 Y55.04644 Z-1.41347
N212 X94.83282 Y54.85923 Z-1.43477
N213 X94.97636 Y54.66253 Z-1.45608
N214 X95.10713 Y54.45711 Z-1.47738
N215 X95.22461 Y54.24381 Z-1.49869
N216 X95.32833 Y54.02349 Z-1.51999
N217 X95.41786 Y53.79704 Z-1.5413
N218 X95.49286 Y53.56536 Z-1.5626
N219 X95.553 Y53.32939 Z-1.5839
N220 X95.59806 Y53.09008 Z-1.60521
N221 X95.62785 Y52.8484 Z-1.62651
N222 X95.64226 Y52.60532 Z-1.64782
N223 X95.64121 Y52.36181 Z-1.66912
N224 X95.62473 Y52.11885 Z-1.69043
N225 X95.59286 Y51.87743 Z-1.71173
N226 X95.54576 Y51.63852 Z-1.73304
N227 X95.48359 Y51.40308 Z-1.75434
N228 X95.40661 Y51.17205 Z-1.77565
N229 X95.31514 Y50.94638 Z-1.79695
N230 X95.20954 Y50.72695 Z-1.81825
N231 X95.09023 Y50.51467 Z-1.83956
N232 X94.95771 Y50.31038 Z-1.86086
N233 X94.81249 Y50.11491 Z-1.88217
N234 X94.65516 Y49.92904 Z-1.90347
N235 X94.48637 Y49.75352 Z-1.92478
N236 X94.30678 Y49.58907 Z-1.94608
N237 X94.11712 Y49.43633 Z-1.96739
N238 X93.91816 Y49.29593 Z-1.98869
N239 X93.71069 Y49.16843 Z-2.01
N240 X93.49556 Y49.05435 Z-2.0313
N241 X93.27362 Y48.95414 Z-2.0526
N242 X93.04577 Y48.86821 Z-2.07391
N243 X92.81293 Y48.79691 Z-2.09521
N244 X92.57604 Y48.74051 Z-2.11652
N245 X92.33605 Y48.69926 Z-2.13782
N246 X92.09393 Y48.6733 Z-2.15913
N247 X91.85064 Y48.66276 Z-2.18043
N248 X91.60718 Y48.66767 Z-2.20174
N249 X91.36452 Y48.688 Z-2.22304
N250 X91.12364 Y48.72369 Z-2.24435
N251 X90.8855 Y48.77459 Z-2.26565
N252 X90.65108 Y48.84048 Z-2.28696
N253 X90.4213 Y48.92111 Z-2.30826
N254 X90.1971 Y49.01615 Z-2.32956
N255 X89.97938 Y49.12522 Z-2.35087
N256 X89.76902 Y49.24788 Z-2.37217
N257 X89.56686 Y49.38363 Z-2.39348
N258 X89.37372 Y49.53194 Z-2.41478
N259 X89.19037 Y49.69219 Z-2.43609
N260 X89.01755 Y49.86375 Z-2.45739
N261 X88.85596 Y50.04592 Z-2.4787
N262 X88.70626 Y50.23798 Z-2.5
N263 G02 X94.90615 Y54.76202 I3.09994 J2.26202 F565.
N264 X88.70626 Y50.23798 I-3.09995 J-2.26202
N265 G0 Z1.5875
(2 1/2 Axis Facing-1)
(SlotDrill 1/8in 3.175mm Carbide Aluminium Cut)
N266 S24000 M3
N267 X30.07247 Y79.
N268 G1 Z1.27 F152.2
N269 X37.275 Z0. F456.7
N270 X57.2191 F609.
N271 X114.3062
N272 G02 X118.3062 Y75. I0. J-4.
N273 G1 Y0.
N274 G02 X114.3062 Y-4. I-4. J0.
N275 G1 X0.
N276 G02 X-4. Y0. I0. J4.
N277 G1 Y75.
N278 G02 X0. Y79. I4. J0.
N279 G1 X37.275
N280 Y77.4125
N281 X114.28935
N282 G02 X116.7187 Y74.98315 I0.01586 J-2.41349
N283 G1 Y0.01685
N284 G02 X114.28935 Y-2.4125 I-2.41349 J-0.01586
N285 G1 X0.01685
N286 G02 X-2.4125 Y0.01685 I-0.01586 J2.41349
N287 G1 Y74.98315
N288 G02 X0.01685 Y77.4125 I2.41349 J0.01586
N289 G1 X37.275
N290 Y75.825
N291 X114.2725
N292 G02 X115.1312 Y74.9663 I0.03061 J-0.82809
N293 G1 Y0.0337
N294 G02 X114.2725 Y-0.825 I-0.82809 J-0.03061
N295 G1 X0.0337
N296 G02 X-0.825 Y0.0337 I-0.0306 J0.82809
N297 G1 Y74.9663
N298 G02 X0.0337 Y75.825 I0.8281 J0.03061
N299 G1 X37.275
N300 Y74.2375
N301 X113.5437
N302 Y0.7625
N303 X0.7625
N304 Y74.2375
N305 X37.275
N306 Y72.65
N307 X111.9562
N308 Y2.35
N309 X2.35
N310 Y72.65
N311 X37.275
N312 Y71.0625
N313 X110.3687
N314 Y3.9375
N315 X3.9375
N316 Y71.0625
N317 X37.275
N318 Y69.475
N319 X108.7812
N320 Y5.525
N321 X5.525
N322 Y69.475
N323 X37.275
N324 Y67.8875
N325 X107.1937
N326 Y7.1125
N327 X7.1125
N328 Y67.8875
N329 X37.275
N330 Y66.3
N331 X105.6062
N332 Y8.7
N333 X8.7
N334 Y66.3
N335 X37.275
N336 Y64.7125
N337 X104.0187
N338 Y10.2875
N339 X10.2875
N340 Y64.7125
N341 X37.275
N342 Y63.125
N343 X102.4312
N344 Y11.875
N345 X11.875
N346 Y63.125
N347 X37.275
N348 Y61.5375
N349 X100.8437
N350 Y13.4625
N351 X13.4625
N352 Y61.5375
N353 X37.275
N354 Y59.95
N355 X99.2562
N356 Y15.05
N357 X15.05
N358 Y59.95
N359 X37.275
N360 Y58.3625
N361 X97.6687
N362 Y16.6375
N363 X16.6375
N364 Y58.3625
N365 X37.275
N366 Y56.775
N367 X96.0812
N368 Y18.225
N369 X18.225
N370 Y56.775
N371 X37.275
N372 Y55.1875
N373 X94.4937
N374 Y19.8125
N375 X19.8125
N376 Y55.1875
N377 X37.275
N378 Y53.6
N379 X92.9062
N380 Y21.4
N381 X21.4
N382 Y53.6
N383 X37.275
N384 Y52.0125
N385 X91.3187
N386 Y22.9875
N387 X22.9875
N388 Y52.0125
N389 X37.275
N390 Y50.425
N391 X89.7312
N392 Y24.575
N393 X24.575
N394 Y50.425
N395 X37.275
N396 Y48.8375
N397 X88.1437
N398 Y26.1625
N399 X26.1625
N400 Y48.8375
N401 X37.275
N402 Y47.25
N403 X86.5562
N404 Y27.75
N405 X27.75
N406 Y47.25
N407 X37.275
N408 Y45.6625
N409 X84.9687
N410 Y29.3375
N411 X29.3375
N412 Y45.6625
N413 X37.275
N414 Y44.075
N415 X83.3812
N416 Y30.925
N417 X30.925
N418 Y44.075
N419 X37.275
N420 Y42.4875
N421 X81.7937
N422 Y32.5125
N423 X32.5125
N424 Y42.4875
N425 X37.275
N426 Y40.9
N427 X80.2062
N428 Y34.1
N429 X34.1
N430 Y40.9
N431 X37.275
N432 Y39.3125
N433 X78.6187
N434 Y35.6875
N435 X35.6875
N436 Y39.3125
N437 X37.275
N438 Y37.725
N439 X77.0312
N440 Y37.275
N441 X37.275
N442 Y37.725
N443 G0 Z1.5875
N444 M30
%
