%
N1 G17 G21 G40 G90
(2 1/2 Axis Profiling-2)
(SlotDrill 1/8in 3.175mm Carbide Aluminium Cut)
N2 T6 M06
N3 S22256 M3
N4 G0 Z1.5875
N5 X43.13599 Y-1.5875
N6 G1 Z-9.73 F141.2
N7 X28.61983 Z-11. F423.7
N8 X0. F565.
N9 G17
N10 G02 X-1.5875 Y0. I0. J1.5875
N11 G1 Y75.
N12 G02 X0. Y76.5875 I1.5875 J0.
N13 G1 X55.
N14 G02 X56.5875 Y75. I0. J-1.5875
N15 G1 Y0.
N16 G02 X55. Y-1.5875 I-1.5875 J0.
N17 G1 X28.61983
N18 G0 Z1.5875
N19 X92.15237
N20 G1 Z-9.73 F141.2
N21 X77.6362 Z-11. F423.7
N22 X59.3062 F565.
N23 G02 X57.7187 Y0. I0. J1.5875
N24 G1 Y75.
N25 G02 X59.3062 Y76.5875 I1.5875 J0.
N26 G1 X114.3062
N27 G02 X115.8937 Y75. I0. J-1.5875
N28 G1 Y0.
N29 G02 X114.3062 Y-1.5875 I-1.5875 J0.
N30 G1 X77.6362
N31 G0 Z1.5875
N32 X43.13599
N33 G1 Z-10.73 F141.2
N34 X28.61983 Z-12. F423.7
N35 X0. F565.
N36 G02 X-1.5875 Y0. I0. J1.5875
N37 G1 Y75.
N38 G02 X0. Y76.5875 I1.5875 J0.
N39 G1 X55.
N40 G02 X56.5875 Y75. I0. J-1.5875
N41 G1 Y0.
N42 G02 X55. Y-1.5875 I-1.5875 J0.
N43 G1 X28.61983
N44 G0 Z1.5875
N45 X92.15237
N46 G1 Z-10.73 F141.2
N47 X77.6362 Z-12. F423.7
N48 X59.3062 F565.
N49 G02 X57.7187 Y0. I0. J1.5875
N50 G1 Y75.
N51 G02 X59.3062 Y76.5875 I1.5875 J0.
N52 G1 X114.3062
N53 G02 X115.8937 Y75. I0. J-1.5875
N54 G1 Y0.
N55 G02 X114.3062 Y-1.5875 I-1.5875 J0.
N56 G1 X77.6362
N57 G0 Z1.5875
N58 X43.13599
N59 G1 Z-11.73 F141.2
N60 X28.61983 Z-13. F423.7
N61 X0. F565.
N62 G02 X-1.5875 Y0. I0. J1.5875
N63 G1 Y75.
N64 G02 X0. Y76.5875 I1.5875 J0.
N65 G1 X55.
N66 G02 X56.5875 Y75. I0. J-1.5875
N67 G1 Y0.
N68 G02 X55. Y-1.5875 I-1.5875 J0.
N69 G1 X28.61983
N70 G0 Z1.5875
N71 X92.15237
N72 G1 Z-11.73 F141.2
N73 X77.6362 Z-13. F423.7
N74 X59.3062 F565.
N75 G02 X57.7187 Y0. I0. J1.5875
N76 G1 Y75.
N77 G02 X59.3062 Y76.5875 I1.5875 J0.
N78 G1 X114.3062
N79 G02 X115.8937 Y75. I0. J-1.5875
N80 G1 Y0.
N81 G02 X114.3062 Y-1.5875 I-1.5875 J0.
N82 G1 X77.6362
N83 G0 Z1.5875
N84 X43.13599
N85 G1 Z-12.73 F141.2
N86 X28.61983 Z-14. F423.7
N87 X0. F565.
N88 G02 X-1.5875 Y0. I0. J1.5875
N89 G1 Y75.
N90 G02 X0. Y76.5875 I1.5875 J0.
N91 G1 X55.
N92 G02 X56.5875 Y75. I0. J-1.5875
N93 G1 Y0.
N94 G02 X55. Y-1.5875 I-1.5875 J0.
N95 G1 X28.61983
N96 G0 Z1.5875
N97 X92.15237
N98 G1 Z-12.73 F141.2
N99 X77.6362 Z-14. F423.7
N100 X59.3062 F565.
N101 G02 X57.7187 Y0. I0. J1.5875
N102 G1 Y75.
N103 G02 X59.3062 Y76.5875 I1.5875 J0.
N104 G1 X114.3062
N105 G02 X115.8937 Y75. I0. J-1.5875
N106 G1 Y0.
N107 G02 X114.3062 Y-1.5875 I-1.5875 J0.
N108 G1 X77.6362
N109 G0 Z1.5875
N110 X43.13599
N111 G1 Z-13.73 F141.2
N112 X28.61983 Z-15. F423.7
N113 X0. F565.
N114 G02 X-1.5875 Y0. I0. J1.5875
N115 G1 Y75.
N116 G02 X0. Y76.5875 I1.5875 J0.
N117 G1 X55.
N118 G02 X56.5875 Y75. I0. J-1.5875
N119 G1 Y0.
N120 G02 X55. Y-1.5875 I-1.5875 J0.
N121 G1 X28.61983
N122 G0 Z1.5875
N123 X92.15237
N124 G1 Z-13.73 F141.2
N125 X77.6362 Z-15. F423.7
N126 X59.3062 F565.
N127 G02 X57.7187 Y0. I0. J1.5875
N128 G1 Y75.
N129 G02 X59.3062 Y76.5875 I1.5875 J0.
N130 G1 X114.3062
N131 G02 X115.8937 Y75. I0. J-1.5875
N132 G1 Y0.
N133 G02 X114.3062 Y-1.5875 I-1.5875 J0.
N134 G1 X77.6362
N135 G0 Z1.5875
N136 X43.13599
N137 G1 Z-14.73 F141.2
N138 X28.61983 Z-16. F423.7
N139 X0. F565.
N140 G02 X-1.5875 Y0. I0. J1.5875
N141 G1 Y75.
N142 G02 X0. Y76.5875 I1.5875 J0.
N143 G1 X55.
N144 G02 X56.5875 Y75. I0. J-1.5875
N145 G1 Y0.
N146 G02 X55. Y-1.5875 I-1.5875 J0.
N147 G1 X28.61983
N148 G0 Z1.5875
N149 X92.15237
N150 G1 Z-14.73 F141.2
N151 X77.6362 Z-16. F423.7
N152 X59.3062 F565.
N153 G02 X57.7187 Y0. I0. J1.5875
N154 G1 Y75.
N155 G02 X59.3062 Y76.5875 I1.5875 J0.
N156 G1 X114.3062
N157 G02 X115.8937 Y75. I0. J-1.5875
N158 G1 Y0.
N159 G02 X114.3062 Y-1.5875 I-1.5875 J0.
N160 G1 X77.6362
N161 G0 Z1.5875
N162 X43.13599
N163 G1 Z-15.73 F141.2
N164 X28.61983 Z-17. F423.7
N165 X0. F565.
N166 G02 X-1.5875 Y0. I0. J1.5875
N167 G1 Y75.
N168 G02 X0. Y76.5875 I1.5875 J0.
N169 G1 X55.
N170 G02 X56.5875 Y75. I0. J-1.5875
N171 G1 Y0.
N172 G02 X55. Y-1.5875 I-1.5875 J0.
N173 G1 X28.61983
N174 G0 Z1.5875
N175 X92.15237
N176 G1 Z-15.73 F141.2
N177 X77.6362 Z-17. F423.7
N178 X59.3062 F565.
N179 G02 X57.7187 Y0. I0. J1.5875
N180 G1 Y75.
N181 G02 X59.3062 Y76.5875 I1.5875 J0.
N182 G1 X114.3062
N183 G02 X115.8937 Y75. I0. J-1.5875
N184 G1 Y0.
N185 G02 X114.3062 Y-1.5875 I-1.5875 J0.
N186 G1 X77.6362
N187 G0 Z1.5875
N188 M30
%
