%
N1 G17 G21 G40 G90
(2 1/2 Axis Facing)
(SlotDrill 1/8in 3.175mm Carbide Aluminium Cut)
N2 T6 M06
N3 S24000 M3
N4 G0 Z1.5875
N5 X30.07247 Y79.
N6 G1 Z1.27 F152.2
N7 X37.275 Z0. F456.7
N8 X57.2191 F609.
N9 X114.3062
N10 G17
N11 G02 X118.3062 Y75. I0. J-4.
N12 G1 Y0.
N13 G02 X114.3062 Y-4. I-4. J0.
N14 G1 X0.
N15 G02 X-4. Y0. I0. J4.
N16 G1 Y75.
N17 G02 X0. Y79. I4. J0.
N18 G1 X37.275
N19 Y77.4125
N20 X114.28935
N21 G02 X116.7187 Y74.98315 I0.01586 J-2.41349
N22 G1 Y0.01685
N23 G02 X114.28935 Y-2.4125 I-2.41349 J-0.01586
N24 G1 X0.01685
N25 G02 X-2.4125 Y0.01685 I-0.01586 J2.41349
N26 G1 Y74.98315
N27 G02 X0.01685 Y77.4125 I2.41349 J0.01586
N28 G1 X37.275
N29 Y75.825
N30 X114.2725
N31 G02 X115.1312 Y74.9663 I0.03061 J-0.82809
N32 G1 Y0.0337
N33 G02 X114.2725 Y-0.825 I-0.82809 J-0.03061
N34 G1 X0.0337
N35 G02 X-0.825 Y0.0337 I-0.0306 J0.82809
N36 G1 Y74.9663
N37 G02 X0.0337 Y75.825 I0.8281 J0.03061
N38 G1 X37.275
N39 Y74.2375
N40 X113.5437
N41 Y0.7625
N42 X0.7625
N43 Y74.2375
N44 X37.275
N45 Y72.65
N46 X111.9562
N47 Y2.35
N48 X2.35
N49 Y72.65
N50 X37.275
N51 Y71.0625
N52 X110.3687
N53 Y3.9375
N54 X3.9375
N55 Y71.0625
N56 X37.275
N57 Y69.475
N58 X108.7812
N59 Y5.525
N60 X5.525
N61 Y69.475
N62 X37.275
N63 Y67.8875
N64 X107.1937
N65 Y7.1125
N66 X7.1125
N67 Y67.8875
N68 X37.275
N69 Y66.3
N70 X105.6062
N71 Y8.7
N72 X8.7
N73 Y66.3
N74 X37.275
N75 Y64.7125
N76 X104.0187
N77 Y10.2875
N78 X10.2875
N79 Y64.7125
N80 X37.275
N81 Y63.125
N82 X102.4312
N83 Y11.875
N84 X11.875
N85 Y63.125
N86 X37.275
N87 Y61.5375
N88 X100.8437
N89 Y13.4625
N90 X13.4625
N91 Y61.5375
N92 X37.275
N93 Y59.95
N94 X99.2562
N95 Y15.05
N96 X15.05
N97 Y59.95
N98 X37.275
N99 Y58.3625
N100 X97.6687
N101 Y16.6375
N102 X16.6375
N103 Y58.3625
N104 X37.275
N105 Y56.775
N106 X96.0812
N107 Y18.225
N108 X18.225
N109 Y56.775
N110 X37.275
N111 Y55.1875
N112 X94.4937
N113 Y19.8125
N114 X19.8125
N115 Y55.1875
N116 X37.275
N117 Y53.6
N118 X92.9062
N119 Y21.4
N120 X21.4
N121 Y53.6
N122 X37.275
N123 Y52.0125
N124 X91.3187
N125 Y22.9875
N126 X22.9875
N127 Y52.0125
N128 X37.275
N129 Y50.425
N130 X89.7312
N131 Y24.575
N132 X24.575
N133 Y50.425
N134 X37.275
N135 Y48.8375
N136 X88.1437
N137 Y26.1625
N138 X26.1625
N139 Y48.8375
N140 X37.275
N141 Y47.25
N142 X86.5562
N143 Y27.75
N144 X27.75
N145 Y47.25
N146 X37.275
N147 Y45.6625
N148 X84.9687
N149 Y29.3375
N150 X29.3375
N151 Y45.6625
N152 X37.275
N153 Y44.075
N154 X83.3812
N155 Y30.925
N156 X30.925
N157 Y44.075
N158 X37.275
N159 Y42.4875
N160 X81.7937
N161 Y32.5125
N162 X32.5125
N163 Y42.4875
N164 X37.275
N165 Y40.9
N166 X80.2062
N167 Y34.1
N168 X34.1
N169 Y40.9
N170 X37.275
N171 Y39.3125
N172 X78.6187
N173 Y35.6875
N174 X35.6875
N175 Y39.3125
N176 X37.275
N177 Y37.725
N178 X77.0312
N179 Y37.275
N180 X37.275
N181 Y37.725
N182 G0 Z1.5875
(Hole Pocketing)
(SlotDrill 1/8in 3.175mm Carbide Aluminium Cut)
N183 S22256 M3
N184 X5.79934 Y4.99288
N185 G1 Z0.635 F141.2
N186 G3 Z0.38261 I-0.79934 J0.00712 F565.
N187 Z0.13022 I-0.79934 J0.00712
N188 Z-0.12217 I-0.79934 J0.00712
N189 Z-0.37456 I-0.79934 J0.00712
N190 Z-0.62694 I-0.79934 J0.00712
N191 Z-0.87933 I-0.79934 J0.00712
N192 Z-1.13172 I-0.79934 J0.00712
N193 Z-1.38411 I-0.79934 J0.00712
N194 Z-1.6365 I-0.79934 J0.00712
N195 Z-1.88889 I-0.79934 J0.00712
N196 G1 X5.79803 Y5.30101
N197 X5.67529 Y5.60469
N198 X5.41296 Y5.81115
N199 G03 X4.58704 Y4.18886 I-0.41296 J-0.81115
N200 X5.41296 Y5.81115 I0.41296 J0.81114
N201 G1 X5.79934 Y4.99288
N202 G3 Z-2.15873 I-0.79934 J0.00712
N203 Z-2.42857 I-0.79934 J0.00712
N204 Z-2.69841 I-0.79934 J0.00712
N205 Z-2.96825 I-0.79934 J0.00712
N206 Z-3.23809 I-0.79934 J0.00712
N207 Z-3.50794 I-0.79934 J0.00712
N208 Z-3.77778 I-0.79934 J0.00712
N209 G1 X5.79803 Y5.30101
N210 X5.67529 Y5.60469
N211 X5.41296 Y5.81115
N212 G03 X4.58704 Y4.18886 I-0.41296 J-0.81115
N213 X5.41296 Y5.81115 I0.41296 J0.81114
N214 G1 X5.79934 Y4.99288
N215 G3 Z-4.04762 I-0.79934 J0.00712
N216 Z-4.31746 I-0.79934 J0.00712
N217 Z-4.5873 I-0.79934 J0.00712
N218 Z-4.85714 I-0.79934 J0.00712
N219 Z-5.12698 I-0.79934 J0.00712
N220 Z-5.39683 I-0.79934 J0.00712
N221 Z-5.66667 I-0.79934 J0.00712
N222 G1 X5.79803 Y5.30101
N223 X5.67529 Y5.60469
N224 X5.41296 Y5.81115
N225 G03 X4.58704 Y4.18886 I-0.41296 J-0.81115
N226 X5.41296 Y5.81115 I0.41296 J0.81114
N227 G1 X5.79934 Y4.99288
N228 G3 Z-5.93651 I-0.79934 J0.00712
N229 Z-6.20635 I-0.79934 J0.00712
N230 Z-6.47619 I-0.79934 J0.00712
N231 Z-6.74603 I-0.79934 J0.00712
N232 Z-7.01587 I-0.79934 J0.00712
N233 Z-7.28571 I-0.79934 J0.00712
N234 Z-7.55556 I-0.79934 J0.00712
N235 G1 X5.79803 Y5.30101
N236 X5.67529 Y5.60469
N237 X5.41296 Y5.81115
N238 G03 X4.58704 Y4.18886 I-0.41296 J-0.81115
N239 X5.41296 Y5.81115 I0.41296 J0.81114
N240 G1 X5.79934 Y4.99288
N241 G3 Z-7.8254 I-0.79934 J0.00712
N242 Z-8.09524 I-0.79934 J0.00712
N243 Z-8.36508 I-0.79934 J0.00712
N244 Z-8.63492 I-0.79934 J0.00712
N245 Z-8.90476 I-0.79934 J0.00712
N246 Z-9.1746 I-0.79934 J0.00712
N247 Z-9.44444 I-0.79934 J0.00712
N248 G1 X5.79803 Y5.30101
N249 X5.67529 Y5.60469
N250 X5.41296 Y5.81115
N251 G03 X4.58704 Y4.18886 I-0.41296 J-0.81115
N252 X5.41296 Y5.81115 I0.41296 J0.81114
N253 G1 X5.79934 Y4.99288
N254 G3 Z-9.71429 I-0.79934 J0.00712
N255 Z-9.98413 I-0.79934 J0.00712
N256 Z-10.25397 I-0.79934 J0.00712
N257 Z-10.52381 I-0.79934 J0.00712
N258 Z-10.79365 I-0.79934 J0.00712
N259 Z-11.06349 I-0.79934 J0.00712
N260 Z-11.33333 I-0.79934 J0.00712
N261 G1 X5.79803 Y5.30101
N262 X5.67529 Y5.60469
N263 X5.41296 Y5.81115
N264 G03 X4.58704 Y4.18886 I-0.41296 J-0.81115
N265 X5.41296 Y5.81115 I0.41296 J0.81114
N266 G1 X5.79934 Y4.99288
N267 G3 Z-11.60318 I-0.79934 J0.00712
N268 Z-11.87302 I-0.79934 J0.00712
N269 Z-12.14286 I-0.79934 J0.00712
N270 Z-12.4127 I-0.79934 J0.00712
N271 Z-12.68254 I-0.79934 J0.00712
N272 Z-12.95238 I-0.79934 J0.00712
N273 Z-13.22222 I-0.79934 J0.00712
N274 G1 X5.79803 Y5.30101
N275 X5.67529 Y5.60469
N276 X5.41296 Y5.81115
N277 G03 X4.58704 Y4.18886 I-0.41296 J-0.81115
N278 X5.41296 Y5.81115 I0.41296 J0.81114
N279 G1 X5.79934 Y4.99288
N280 G3 Z-13.49206 I-0.79934 J0.00712
N281 Z-13.76191 I-0.79934 J0.00712
N282 Z-14.03175 I-0.79934 J0.00712
N283 Z-14.30159 I-0.79934 J0.00712
N284 Z-14.57143 I-0.79934 J0.00712
N285 Z-14.84127 I-0.79934 J0.00712
N286 Z-15.11111 I-0.79934 J0.00712
N287 G1 X5.79803 Y5.30101
N288 X5.67529 Y5.60469
N289 X5.41296 Y5.81115
N290 G03 X4.58704 Y4.18886 I-0.41296 J-0.81115
N291 X5.41296 Y5.81115 I0.41296 J0.81114
N292 G1 X5.79934 Y4.99288
N293 G3 Z-15.38095 I-0.79934 J0.00712
N294 Z-15.65079 I-0.79934 J0.00712
N295 Z-15.92064 I-0.79934 J0.00712
N296 Z-16.19048 I-0.79934 J0.00712
N297 Z-16.46032 I-0.79934 J0.00712
N298 Z-16.73016 I-0.79934 J0.00712
N299 Z-17. I-0.79934 J0.00712
N300 G1 X5.79803 Y5.30101
N301 X5.67529 Y5.60469
N302 X5.41296 Y5.81115
N303 G03 X4.58704 Y4.18886 I-0.41296 J-0.81115
N304 X5.41296 Y5.81115 I0.41296 J0.81114
N305 G1 X5.79934 Y4.99288
N306 X5. Y5.
N307 G0 Z1.5875
N308 X50.79934 Y4.99288
N309 G1 Z0.635 F141.2
N310 G3 Z0.38261 I-0.79934 J0.00712 F565.
N311 Z0.13022 I-0.79934 J0.00712
N312 Z-0.12217 I-0.79934 J0.00712
N313 Z-0.37456 I-0.79934 J0.00712
N314 Z-0.62694 I-0.79934 J0.00712
N315 Z-0.87933 I-0.79934 J0.00712
N316 Z-1.13172 I-0.79934 J0.00712
N317 Z-1.38411 I-0.79934 J0.00712
N318 Z-1.6365 I-0.79934 J0.00712
N319 Z-1.88889 I-0.79934 J0.00712
N320 G1 X50.79803 Y5.30101
N321 X50.67529 Y5.60469
N322 X50.41296 Y5.81115
N323 G03 X49.58704 Y4.18886 I-0.41296 J-0.81115
N324 X50.41296 Y5.81115 I0.41296 J0.81114
N325 G1 X50.79934 Y4.99288
N326 G3 Z-2.15873 I-0.79934 J0.00712
N327 Z-2.42857 I-0.79934 J0.00712
N328 Z-2.69841 I-0.79934 J0.00712
N329 Z-2.96825 I-0.79934 J0.00712
N330 Z-3.23809 I-0.79934 J0.00712
N331 Z-3.50794 I-0.79934 J0.00712
N332 Z-3.77778 I-0.79934 J0.00712
N333 G1 X50.79803 Y5.30101
N334 X50.67529 Y5.60469
N335 X50.41296 Y5.81115
N336 G03 X49.58704 Y4.18886 I-0.41296 J-0.81115
N337 X50.41296 Y5.81115 I0.41296 J0.81114
N338 G1 X50.79934 Y4.99288
N339 G3 Z-4.04762 I-0.79934 J0.00712
N340 Z-4.31746 I-0.79934 J0.00712
N341 Z-4.5873 I-0.79934 J0.00712
N342 Z-4.85714 I-0.79934 J0.00712
N343 Z-5.12698 I-0.79934 J0.00712
N344 Z-5.39683 I-0.79934 J0.00712
N345 Z-5.66667 I-0.79934 J0.00712
N346 G1 X50.79803 Y5.30101
N347 X50.67529 Y5.60469
N348 X50.41296 Y5.81115
N349 G03 X49.58704 Y4.18886 I-0.41296 J-0.81115
N350 X50.41296 Y5.81115 I0.41296 J0.81114
N351 G1 X50.79934 Y4.99288
N352 G3 Z-5.93651 I-0.79934 J0.00712
N353 Z-6.20635 I-0.79934 J0.00712
N354 Z-6.47619 I-0.79934 J0.00712
N355 Z-6.74603 I-0.79934 J0.00712
N356 Z-7.01587 I-0.79934 J0.00712
N357 Z-7.28571 I-0.79934 J0.00712
N358 Z-7.55556 I-0.79934 J0.00712
N359 G1 X50.79803 Y5.30101
N360 X50.67529 Y5.60469
N361 X50.41296 Y5.81115
N362 G03 X49.58704 Y4.18886 I-0.41296 J-0.81115
N363 X50.41296 Y5.81115 I0.41296 J0.81114
N364 G1 X50.79934 Y4.99288
N365 G3 Z-7.8254 I-0.79934 J0.00712
N366 Z-8.09524 I-0.79934 J0.00712
N367 Z-8.36508 I-0.79934 J0.00712
N368 Z-8.63492 I-0.79934 J0.00712
N369 Z-8.90476 I-0.79934 J0.00712
N370 Z-9.1746 I-0.79934 J0.00712
N371 Z-9.44444 I-0.79934 J0.00712
N372 G1 X50.79803 Y5.30101
N373 X50.67529 Y5.60469
N374 X50.41296 Y5.81115
N375 G03 X49.58704 Y4.18886 I-0.41296 J-0.81115
N376 X50.41296 Y5.81115 I0.41296 J0.81114
N377 G1 X50.79934 Y4.99288
N378 G3 Z-9.71429 I-0.79934 J0.00712
N379 Z-9.98413 I-0.79934 J0.00712
N380 Z-10.25397 I-0.79934 J0.00712
N381 Z-10.52381 I-0.79934 J0.00712
N382 Z-10.79365 I-0.79934 J0.00712
N383 Z-11.06349 I-0.79934 J0.00712
N384 Z-11.33333 I-0.79934 J0.00712
N385 G1 X50.79803 Y5.30101
N386 X50.67529 Y5.60469
N387 X50.41296 Y5.81115
N388 G03 X49.58704 Y4.18886 I-0.41296 J-0.81115
N389 X50.41296 Y5.81115 I0.41296 J0.81114
N390 G1 X50.79934 Y4.99288
N391 G3 Z-11.60318 I-0.79934 J0.00712
N392 Z-11.87302 I-0.79934 J0.00712
N393 Z-12.14286 I-0.79934 J0.00712
N394 Z-12.4127 I-0.79934 J0.00712
N395 Z-12.68254 I-0.79934 J0.00712
N396 Z-12.95238 I-0.79934 J0.00712
N397 Z-13.22222 I-0.79934 J0.00712
N398 G1 X50.79803 Y5.30101
N399 X50.67529 Y5.60469
N400 X50.41296 Y5.81115
N401 G03 X49.58704 Y4.18886 I-0.41296 J-0.81115
N402 X50.41296 Y5.81115 I0.41296 J0.81114
N403 G1 X50.79934 Y4.99288
N404 G3 Z-13.49206 I-0.79934 J0.00712
N405 Z-13.76191 I-0.79934 J0.00712
N406 Z-14.03175 I-0.79934 J0.00712
N407 Z-14.30159 I-0.79934 J0.00712
N408 Z-14.57143 I-0.79934 J0.00712
N409 Z-14.84127 I-0.79934 J0.00712
N410 Z-15.11111 I-0.79934 J0.00712
N411 G1 X50.79803 Y5.30101
N412 X50.67529 Y5.60469
N413 X50.41296 Y5.81115
N414 G03 X49.58704 Y4.18886 I-0.41296 J-0.81115
N415 X50.41296 Y5.81115 I0.41296 J0.81114
N416 G1 X50.79934 Y4.99288
N417 G3 Z-15.38095 I-0.79934 J0.00712
N418 Z-15.65079 I-0.79934 J0.00712
N419 Z-15.92064 I-0.79934 J0.00712
N420 Z-16.19048 I-0.79934 J0.00712
N421 Z-16.46032 I-0.79934 J0.00712
N422 Z-16.73016 I-0.79934 J0.00712
N423 Z-17. I-0.79934 J0.00712
N424 G1 X50.79803 Y5.30101
N425 X50.67529 Y5.60469
N426 X50.41296 Y5.81115
N427 G03 X49.58704 Y4.18886 I-0.41296 J-0.81115
N428 X50.41296 Y5.81115 I0.41296 J0.81114
N429 G1 X50.79934 Y4.99288
N430 X50. Y5.
N431 G0 Z1.5875
N432 X65.10554 Y4.99288
N433 G1 Z0.635 F141.2
N434 G3 Z0.38261 I-0.79934 J0.00712 F565.
N435 Z0.13022 I-0.79934 J0.00712
N436 Z-0.12217 I-0.79934 J0.00712
N437 Z-0.37456 I-0.79934 J0.00712
N438 Z-0.62694 I-0.79934 J0.00712
N439 Z-0.87933 I-0.79934 J0.00712
N440 Z-1.13172 I-0.79934 J0.00712
N441 Z-1.38411 I-0.79934 J0.00712
N442 Z-1.6365 I-0.79934 J0.00712
N443 Z-1.88889 I-0.79934 J0.00712
N444 G1 X65.10423 Y5.30101
N445 X64.98149 Y5.60469
N446 X64.71916 Y5.81115
N447 G03 X63.89324 Y4.18885 I-0.41296 J-0.81115
N448 X64.71916 Y5.81115 I0.41296 J0.81115
N449 G1 X65.10554 Y4.99288
N450 G3 Z-2.15873 I-0.79934 J0.00712
N451 Z-2.42857 I-0.79934 J0.00712
N452 Z-2.69841 I-0.79934 J0.00712
N453 Z-2.96825 I-0.79934 J0.00712
N454 Z-3.23809 I-0.79934 J0.00712
N455 Z-3.50794 I-0.79934 J0.00712
N456 Z-3.77778 I-0.79934 J0.00712
N457 G1 X65.10423 Y5.30101
N458 X64.98149 Y5.60469
N459 X64.71916 Y5.81115
N460 G03 X63.89324 Y4.18885 I-0.41296 J-0.81115
N461 X64.71916 Y5.81115 I0.41296 J0.81115
N462 G1 X65.10554 Y4.99288
N463 G3 Z-4.04762 I-0.79934 J0.00712
N464 Z-4.31746 I-0.79934 J0.00712
N465 Z-4.5873 I-0.79934 J0.00712
N466 Z-4.85714 I-0.79934 J0.00712
N467 Z-5.12698 I-0.79934 J0.00712
N468 Z-5.39683 I-0.79934 J0.00712
N469 Z-5.66667 I-0.79934 J0.00712
N470 G1 X65.10423 Y5.30101
N471 X64.98149 Y5.60469
N472 X64.71916 Y5.81115
N473 G03 X63.89324 Y4.18885 I-0.41296 J-0.81115
N474 X64.71916 Y5.81115 I0.41296 J0.81115
N475 G1 X65.10554 Y4.99288
N476 G3 Z-5.93651 I-0.79934 J0.00712
N477 Z-6.20635 I-0.79934 J0.00712
N478 Z-6.47619 I-0.79934 J0.00712
N479 Z-6.74603 I-0.79934 J0.00712
N480 Z-7.01587 I-0.79934 J0.00712
N481 Z-7.28571 I-0.79934 J0.00712
N482 Z-7.55556 I-0.79934 J0.00712
N483 G1 X65.10423 Y5.30101
N484 X64.98149 Y5.60469
N485 X64.71916 Y5.81115
N486 G03 X63.89324 Y4.18885 I-0.41296 J-0.81115
N487 X64.71916 Y5.81115 I0.41296 J0.81115
N488 G1 X65.10554 Y4.99288
N489 G3 Z-7.8254 I-0.79934 J0.00712
N490 Z-8.09524 I-0.79934 J0.00712
N491 Z-8.36508 I-0.79934 J0.00712
N492 Z-8.63492 I-0.79934 J0.00712
N493 Z-8.90476 I-0.79934 J0.00712
N494 Z-9.1746 I-0.79934 J0.00712
N495 Z-9.44444 I-0.79934 J0.00712
N496 G1 X65.10423 Y5.30101
N497 X64.98149 Y5.60469
N498 X64.71916 Y5.81115
N499 G03 X63.89324 Y4.18885 I-0.41296 J-0.81115
N500 X64.71916 Y5.81115 I0.41296 J0.81115
N501 G1 X65.10554 Y4.99288
N502 G3 Z-9.71429 I-0.79934 J0.00712
N503 Z-9.98413 I-0.79934 J0.00712
N504 Z-10.25397 I-0.79934 J0.00712
N505 Z-10.52381 I-0.79934 J0.00712
N506 Z-10.79365 I-0.79934 J0.00712
N507 Z-11.06349 I-0.79934 J0.00712
N508 Z-11.33333 I-0.79934 J0.00712
N509 G1 X65.10423 Y5.30101
N510 X64.98149 Y5.60469
N511 X64.71916 Y5.81115
N512 G03 X63.89324 Y4.18885 I-0.41296 J-0.81115
N513 X64.71916 Y5.81115 I0.41296 J0.81115
N514 G1 X65.10554 Y4.99288
N515 G3 Z-11.60318 I-0.79934 J0.00712
N516 Z-11.87302 I-0.79934 J0.00712
N517 Z-12.14286 I-0.79934 J0.00712
N518 Z-12.4127 I-0.79934 J0.00712
N519 Z-12.68254 I-0.79934 J0.00712
N520 Z-12.95238 I-0.79934 J0.00712
N521 Z-13.22222 I-0.79934 J0.00712
N522 G1 X65.10423 Y5.30101
N523 X64.98149 Y5.60469
N524 X64.71916 Y5.81115
N525 G03 X63.89324 Y4.18885 I-0.41296 J-0.81115
N526 X64.71916 Y5.81115 I0.41296 J0.81115
N527 G1 X65.10554 Y4.99288
N528 G3 Z-13.49206 I-0.79934 J0.00712
N529 Z-13.76191 I-0.79934 J0.00712
N530 Z-14.03175 I-0.79934 J0.00712
N531 Z-14.30159 I-0.79934 J0.00712
N532 Z-14.57143 I-0.79934 J0.00712
N533 Z-14.84127 I-0.79934 J0.00712
N534 Z-15.11111 I-0.79934 J0.00712
N535 G1 X65.10423 Y5.30101
N536 X64.98149 Y5.60469
N537 X64.71916 Y5.81115
N538 G03 X63.89324 Y4.18885 I-0.41296 J-0.81115
N539 X64.71916 Y5.81115 I0.41296 J0.81115
N540 G1 X65.10554 Y4.99288
N541 G3 Z-15.38095 I-0.79934 J0.00712
N542 Z-15.65079 I-0.79934 J0.00712
N543 Z-15.92064 I-0.79934 J0.00712
N544 Z-16.19048 I-0.79934 J0.00712
N545 Z-16.46032 I-0.79934 J0.00712
N546 Z-16.73016 I-0.79934 J0.00712
N547 Z-17. I-0.79934 J0.00712
N548 G1 X65.10423 Y5.30101
N549 X64.98149 Y5.60469
N550 X64.71916 Y5.81115
N551 G03 X63.89324 Y4.18885 I-0.41296 J-0.81115
N552 X64.71916 Y5.81115 I0.41296 J0.81115
N553 G1 X65.10554 Y4.99288
N554 X64.3062 Y5.
N555 G0 Z1.5875
N556 X110.10554 Y4.99288
N557 G1 Z0.635 F141.2
N558 G3 Z0.38261 I-0.79934 J0.00712 F565.
N559 Z0.13022 I-0.79934 J0.00712
N560 Z-0.12217 I-0.79934 J0.00712
N561 Z-0.37456 I-0.79934 J0.00712
N562 Z-0.62694 I-0.79934 J0.00712
N563 Z-0.87933 I-0.79934 J0.00712
N564 Z-1.13172 I-0.79934 J0.00712
N565 Z-1.38411 I-0.79934 J0.00712
N566 Z-1.6365 I-0.79934 J0.00712
N567 Z-1.88889 I-0.79934 J0.00712
N568 G1 X110.10423 Y5.30101
N569 X109.98149 Y5.60468
N570 X109.71916 Y5.81114
N571 G03 X108.89325 Y4.18885 I-0.41296 J-0.81114
N572 X109.71916 Y5.81114 I0.41295 J0.81115
N573 G1 X110.10554 Y4.99288
N574 G3 Z-2.15873 I-0.79934 J0.00712
N575 Z-2.42857 I-0.79934 J0.00712
N576 Z-2.69841 I-0.79934 J0.00712
N577 Z-2.96825 I-0.79934 J0.00712
N578 Z-3.23809 I-0.79934 J0.00712
N579 Z-3.50794 I-0.79934 J0.00712
N580 Z-3.77778 I-0.79934 J0.00712
N581 G1 X110.10423 Y5.30101
N582 X109.98149 Y5.60468
N583 X109.71916 Y5.81114
N584 G03 X108.89325 Y4.18885 I-0.41296 J-0.81114
N585 X109.71916 Y5.81114 I0.41295 J0.81115
N586 G1 X110.10554 Y4.99288
N587 G3 Z-4.04762 I-0.79934 J0.00712
N588 Z-4.31746 I-0.79934 J0.00712
N589 Z-4.5873 I-0.79934 J0.00712
N590 Z-4.85714 I-0.79934 J0.00712
N591 Z-5.12698 I-0.79934 J0.00712
N592 Z-5.39683 I-0.79934 J0.00712
N593 Z-5.66667 I-0.79934 J0.00712
N594 G1 X110.10423 Y5.30101
N595 X109.98149 Y5.60468
N596 X109.71916 Y5.81114
N597 G03 X108.89325 Y4.18885 I-0.41296 J-0.81114
N598 X109.71916 Y5.81114 I0.41295 J0.81115
N599 G1 X110.10554 Y4.99288
N600 G3 Z-5.93651 I-0.79934 J0.00712
N601 Z-6.20635 I-0.79934 J0.00712
N602 Z-6.47619 I-0.79934 J0.00712
N603 Z-6.74603 I-0.79934 J0.00712
N604 Z-7.01587 I-0.79934 J0.00712
N605 Z-7.28571 I-0.79934 J0.00712
N606 Z-7.55556 I-0.79934 J0.00712
N607 G1 X110.10423 Y5.30101
N608 X109.98149 Y5.60468
N609 X109.71916 Y5.81114
N610 G03 X108.89325 Y4.18885 I-0.41296 J-0.81114
N611 X109.71916 Y5.81114 I0.41295 J0.81115
N612 G1 X110.10554 Y4.99288
N613 G3 Z-7.8254 I-0.79934 J0.00712
N614 Z-8.09524 I-0.79934 J0.00712
N615 Z-8.36508 I-0.79934 J0.00712
N616 Z-8.63492 I-0.79934 J0.00712
N617 Z-8.90476 I-0.79934 J0.00712
N618 Z-9.1746 I-0.79934 J0.00712
N619 Z-9.44444 I-0.79934 J0.00712
N620 G1 X110.10423 Y5.30101
N621 X109.98149 Y5.60468
N622 X109.71916 Y5.81114
N623 G03 X108.89325 Y4.18885 I-0.41296 J-0.81114
N624 X109.71916 Y5.81114 I0.41295 J0.81115
N625 G1 X110.10554 Y4.99288
N626 G3 Z-9.71429 I-0.79934 J0.00712
N627 Z-9.98413 I-0.79934 J0.00712
N628 Z-10.25397 I-0.79934 J0.00712
N629 Z-10.52381 I-0.79934 J0.00712
N630 Z-10.79365 I-0.79934 J0.00712
N631 Z-11.06349 I-0.79934 J0.00712
N632 Z-11.33333 I-0.79934 J0.00712
N633 G1 X110.10423 Y5.30101
N634 X109.98149 Y5.60468
N635 X109.71916 Y5.81114
N636 G03 X108.89325 Y4.18885 I-0.41296 J-0.81114
N637 X109.71916 Y5.81114 I0.41295 J0.81115
N638 G1 X110.10554 Y4.99288
N639 G3 Z-11.60318 I-0.79934 J0.00712
N640 Z-11.87302 I-0.79934 J0.00712
N641 Z-12.14286 I-0.79934 J0.00712
N642 Z-12.4127 I-0.79934 J0.00712
N643 Z-12.68254 I-0.79934 J0.00712
N644 Z-12.95238 I-0.79934 J0.00712
N645 Z-13.22222 I-0.79934 J0.00712
N646 G1 X110.10423 Y5.30101
N647 X109.98149 Y5.60468
N648 X109.71916 Y5.81114
N649 G03 X108.89325 Y4.18885 I-0.41296 J-0.81114
N650 X109.71916 Y5.81114 I0.41295 J0.81115
N651 G1 X110.10554 Y4.99288
N652 G3 Z-13.49206 I-0.79934 J0.00712
N653 Z-13.76191 I-0.79934 J0.00712
N654 Z-14.03175 I-0.79934 J0.00712
N655 Z-14.30159 I-0.79934 J0.00712
N656 Z-14.57143 I-0.79934 J0.00712
N657 Z-14.84127 I-0.79934 J0.00712
N658 Z-15.11111 I-0.79934 J0.00712
N659 G1 X110.10423 Y5.30101
N660 X109.98149 Y5.60468
N661 X109.71916 Y5.81114
N662 G03 X108.89325 Y4.18885 I-0.41296 J-0.81114
N663 X109.71916 Y5.81114 I0.41295 J0.81115
N664 G1 X110.10554 Y4.99288
N665 G3 Z-15.38095 I-0.79934 J0.00712
N666 Z-15.65079 I-0.79934 J0.00712
N667 Z-15.92064 I-0.79934 J0.00712
N668 Z-16.19048 I-0.79934 J0.00712
N669 Z-16.46032 I-0.79934 J0.00712
N670 Z-16.73016 I-0.79934 J0.00712
N671 Z-17. I-0.79934 J0.00712
N672 G1 X110.10423 Y5.30101
N673 X109.98149 Y5.60468
N674 X109.71916 Y5.81114
N675 G03 X108.89325 Y4.18885 I-0.41296 J-0.81114
N676 X109.71916 Y5.81114 I0.41295 J0.81115
N677 G1 X110.10554 Y4.99288
N678 X109.3062 Y5.
N679 G0 Z1.5875
N680 X110.10554 Y69.99288
N681 G1 Z0.635 F141.2
N682 G3 Z0.38261 I-0.79934 J0.00712 F565.
N683 Z0.13022 I-0.79934 J0.00712
N684 Z-0.12217 I-0.79934 J0.00712
N685 Z-0.37456 I-0.79934 J0.00712
N686 Z-0.62694 I-0.79934 J0.00712
N687 Z-0.87933 I-0.79934 J0.00712
N688 Z-1.13172 I-0.79934 J0.00712
N689 Z-1.38411 I-0.79934 J0.00712
N690 Z-1.6365 I-0.79934 J0.00712
N691 Z-1.88889 I-0.79934 J0.00712
N692 G1 X110.10423 Y70.30101
N693 X109.98149 Y70.60469
N694 X109.71916 Y70.81114
N695 G03 X108.89325 Y69.18885 I-0.41296 J-0.81114
N696 X109.71916 Y70.81114 I0.41295 J0.81115
N697 G1 X110.10554 Y69.99288
N698 G3 Z-2.15873 I-0.79934 J0.00712
N699 Z-2.42857 I-0.79934 J0.00712
N700 Z-2.69841 I-0.79934 J0.00712
N701 Z-2.96825 I-0.79934 J0.00712
N702 Z-3.23809 I-0.79934 J0.00712
N703 Z-3.50794 I-0.79934 J0.00712
N704 Z-3.77778 I-0.79934 J0.00712
N705 G1 X110.10423 Y70.30101
N706 X109.98149 Y70.60469
N707 X109.71916 Y70.81114
N708 G03 X108.89325 Y69.18885 I-0.41296 J-0.81114
N709 X109.71916 Y70.81114 I0.41295 J0.81115
N710 G1 X110.10554 Y69.99288
N711 G3 Z-4.04762 I-0.79934 J0.00712
N712 Z-4.31746 I-0.79934 J0.00712
N713 Z-4.5873 I-0.79934 J0.00712
N714 Z-4.85714 I-0.79934 J0.00712
N715 Z-5.12698 I-0.79934 J0.00712
N716 Z-5.39683 I-0.79934 J0.00712
N717 Z-5.66667 I-0.79934 J0.00712
N718 G1 X110.10423 Y70.30101
N719 X109.98149 Y70.60469
N720 X109.71916 Y70.81114
N721 G03 X108.89325 Y69.18885 I-0.41296 J-0.81114
N722 X109.71916 Y70.81114 I0.41295 J0.81115
N723 G1 X110.10554 Y69.99288
N724 G3 Z-5.93651 I-0.79934 J0.00712
N725 Z-6.20635 I-0.79934 J0.00712
N726 Z-6.47619 I-0.79934 J0.00712
N727 Z-6.74603 I-0.79934 J0.00712
N728 Z-7.01587 I-0.79934 J0.00712
N729 Z-7.28571 I-0.79934 J0.00712
N730 Z-7.55556 I-0.79934 J0.00712
N731 G1 X110.10423 Y70.30101
N732 X109.98149 Y70.60469
N733 X109.71916 Y70.81114
N734 G03 X108.89325 Y69.18885 I-0.41296 J-0.81114
N735 X109.71916 Y70.81114 I0.41295 J0.81115
N736 G1 X110.10554 Y69.99288
N737 G3 Z-7.8254 I-0.79934 J0.00712
N738 Z-8.09524 I-0.79934 J0.00712
N739 Z-8.36508 I-0.79934 J0.00712
N740 Z-8.63492 I-0.79934 J0.00712
N741 Z-8.90476 I-0.79934 J0.00712
N742 Z-9.1746 I-0.79934 J0.00712
N743 Z-9.44444 I-0.79934 J0.00712
N744 G1 X110.10423 Y70.30101
N745 X109.98149 Y70.60469
N746 X109.71916 Y70.81114
N747 G03 X108.89325 Y69.18885 I-0.41296 J-0.81114
N748 X109.71916 Y70.81114 I0.41295 J0.81115
N749 G1 X110.10554 Y69.99288
N750 G3 Z-9.71429 I-0.79934 J0.00712
N751 Z-9.98413 I-0.79934 J0.00712
N752 Z-10.25397 I-0.79934 J0.00712
N753 Z-10.52381 I-0.79934 J0.00712
N754 Z-10.79365 I-0.79934 J0.00712
N755 Z-11.06349 I-0.79934 J0.00712
N756 Z-11.33333 I-0.79934 J0.00712
N757 G1 X110.10423 Y70.30101
N758 X109.98149 Y70.60469
N759 X109.71916 Y70.81114
N760 G03 X108.89325 Y69.18885 I-0.41296 J-0.81114
N761 X109.71916 Y70.81114 I0.41295 J0.81115
N762 G1 X110.10554 Y69.99288
N763 G3 Z-11.60318 I-0.79934 J0.00712
N764 Z-11.87302 I-0.79934 J0.00712
N765 Z-12.14286 I-0.79934 J0.00712
N766 Z-12.4127 I-0.79934 J0.00712
N767 Z-12.68254 I-0.79934 J0.00712
N768 Z-12.95238 I-0.79934 J0.00712
N769 Z-13.22222 I-0.79934 J0.00712
N770 G1 X110.10423 Y70.30101
N771 X109.98149 Y70.60469
N772 X109.71916 Y70.81114
N773 G03 X108.89325 Y69.18885 I-0.41296 J-0.81114
N774 X109.71916 Y70.81114 I0.41295 J0.81115
N775 G1 X110.10554 Y69.99288
N776 G3 Z-13.49206 I-0.79934 J0.00712
N777 Z-13.76191 I-0.79934 J0.00712
N778 Z-14.03175 I-0.79934 J0.00712
N779 Z-14.30159 I-0.79934 J0.00712
N780 Z-14.57143 I-0.79934 J0.00712
N781 Z-14.84127 I-0.79934 J0.00712
N782 Z-15.11111 I-0.79934 J0.00712
N783 G1 X110.10423 Y70.30101
N784 X109.98149 Y70.60469
N785 X109.71916 Y70.81114
N786 G03 X108.89325 Y69.18885 I-0.41296 J-0.81114
N787 X109.71916 Y70.81114 I0.41295 J0.81115
N788 G1 X110.10554 Y69.99288
N789 G3 Z-15.38095 I-0.79934 J0.00712
N790 Z-15.65079 I-0.79934 J0.00712
N791 Z-15.92064 I-0.79934 J0.00712
N792 Z-16.19048 I-0.79934 J0.00712
N793 Z-16.46032 I-0.79934 J0.00712
N794 Z-16.73016 I-0.79934 J0.00712
N795 Z-17. I-0.79934 J0.00712
N796 G1 X110.10423 Y70.30101
N797 X109.98149 Y70.60469
N798 X109.71916 Y70.81114
N799 G03 X108.89325 Y69.18885 I-0.41296 J-0.81114
N800 X109.71916 Y70.81114 I0.41295 J0.81115
N801 G1 X110.10554 Y69.99288
N802 X109.3062 Y70.
N803 G0 Z1.5875
N804 X65.10554 Y69.99288
N805 G1 Z0.635 F141.2
N806 G3 Z0.38261 I-0.79934 J0.00712 F565.
N807 Z0.13022 I-0.79934 J0.00712
N808 Z-0.12217 I-0.79934 J0.00712
N809 Z-0.37456 I-0.79934 J0.00712
N810 Z-0.62694 I-0.79934 J0.00712
N811 Z-0.87933 I-0.79934 J0.00712
N812 Z-1.13172 I-0.79934 J0.00712
N813 Z-1.38411 I-0.79934 J0.00712
N814 Z-1.6365 I-0.79934 J0.00712
N815 Z-1.88889 I-0.79934 J0.00712
N816 G1 X65.10423 Y70.30101
N817 X64.98149 Y70.60469
N818 X64.71916 Y70.81114
N819 G03 X63.89325 Y69.18885 I-0.41296 J-0.81114
N820 X64.71916 Y70.81114 I0.41295 J0.81115
N821 G1 X65.10554 Y69.99288
N822 G3 Z-2.15873 I-0.79934 J0.00712
N823 Z-2.42857 I-0.79934 J0.00712
N824 Z-2.69841 I-0.79934 J0.00712
N825 Z-2.96825 I-0.79934 J0.00712
N826 Z-3.23809 I-0.79934 J0.00712
N827 Z-3.50794 I-0.79934 J0.00712
N828 Z-3.77778 I-0.79934 J0.00712
N829 G1 X65.10423 Y70.30101
N830 X64.98149 Y70.60469
N831 X64.71916 Y70.81114
N832 G03 X63.89325 Y69.18885 I-0.41296 J-0.81114
N833 X64.71916 Y70.81114 I0.41295 J0.81115
N834 G1 X65.10554 Y69.99288
N835 G3 Z-4.04762 I-0.79934 J0.00712
N836 Z-4.31746 I-0.79934 J0.00712
N837 Z-4.5873 I-0.79934 J0.00712
N838 Z-4.85714 I-0.79934 J0.00712
N839 Z-5.12698 I-0.79934 J0.00712
N840 Z-5.39683 I-0.79934 J0.00712
N841 Z-5.66667 I-0.79934 J0.00712
N842 G1 X65.10423 Y70.30101
N843 X64.98149 Y70.60469
N844 X64.71916 Y70.81114
N845 G03 X63.89325 Y69.18885 I-0.41296 J-0.81114
N846 X64.71916 Y70.81114 I0.41295 J0.81115
N847 G1 X65.10554 Y69.99288
N848 G3 Z-5.93651 I-0.79934 J0.00712
N849 Z-6.20635 I-0.79934 J0.00712
N850 Z-6.47619 I-0.79934 J0.00712
N851 Z-6.74603 I-0.79934 J0.00712
N852 Z-7.01587 I-0.79934 J0.00712
N853 Z-7.28571 I-0.79934 J0.00712
N854 Z-7.55556 I-0.79934 J0.00712
N855 G1 X65.10423 Y70.30101
N856 X64.98149 Y70.60469
N857 X64.71916 Y70.81114
N858 G03 X63.89325 Y69.18885 I-0.41296 J-0.81114
N859 X64.71916 Y70.81114 I0.41295 J0.81115
N860 G1 X65.10554 Y69.99288
N861 G3 Z-7.8254 I-0.79934 J0.00712
N862 Z-8.09524 I-0.79934 J0.00712
N863 Z-8.36508 I-0.79934 J0.00712
N864 Z-8.63492 I-0.79934 J0.00712
N865 Z-8.90476 I-0.79934 J0.00712
N866 Z-9.1746 I-0.79934 J0.00712
N867 Z-9.44444 I-0.79934 J0.00712
N868 G1 X65.10423 Y70.30101
N869 X64.98149 Y70.60469
N870 X64.71916 Y70.81114
N871 G03 X63.89325 Y69.18885 I-0.41296 J-0.81114
N872 X64.71916 Y70.81114 I0.41295 J0.81115
N873 G1 X65.10554 Y69.99288
N874 G3 Z-9.71429 I-0.79934 J0.00712
N875 Z-9.98413 I-0.79934 J0.00712
N876 Z-10.25397 I-0.79934 J0.00712
N877 Z-10.52381 I-0.79934 J0.00712
N878 Z-10.79365 I-0.79934 J0.00712
N879 Z-11.06349 I-0.79934 J0.00712
N880 Z-11.33333 I-0.79934 J0.00712
N881 G1 X65.10423 Y70.30101
N882 X64.98149 Y70.60469
N883 X64.71916 Y70.81114
N884 G03 X63.89325 Y69.18885 I-0.41296 J-0.81114
N885 X64.71916 Y70.81114 I0.41295 J0.81115
N886 G1 X65.10554 Y69.99288
N887 G3 Z-11.60318 I-0.79934 J0.00712
N888 Z-11.87302 I-0.79934 J0.00712
N889 Z-12.14286 I-0.79934 J0.00712
N890 Z-12.4127 I-0.79934 J0.00712
N891 Z-12.68254 I-0.79934 J0.00712
N892 Z-12.95238 I-0.79934 J0.00712
N893 Z-13.22222 I-0.79934 J0.00712
N894 G1 X65.10423 Y70.30101
N895 X64.98149 Y70.60469
N896 X64.71916 Y70.81114
N897 G03 X63.89325 Y69.18885 I-0.41296 J-0.81114
N898 X64.71916 Y70.81114 I0.41295 J0.81115
N899 G1 X65.10554 Y69.99288
N900 G3 Z-13.49206 I-0.79934 J0.00712
N901 Z-13.76191 I-0.79934 J0.00712
N902 Z-14.03175 I-0.79934 J0.00712
N903 Z-14.30159 I-0.79934 J0.00712
N904 Z-14.57143 I-0.79934 J0.00712
N905 Z-14.84127 I-0.79934 J0.00712
N906 Z-15.11111 I-0.79934 J0.00712
N907 G1 X65.10423 Y70.30101
N908 X64.98149 Y70.60469
N909 X64.71916 Y70.81114
N910 G03 X63.89325 Y69.18885 I-0.41296 J-0.81114
N911 X64.71916 Y70.81114 I0.41295 J0.81115
N912 G1 X65.10554 Y69.99288
N913 G3 Z-15.38095 I-0.79934 J0.00712
N914 Z-15.65079 I-0.79934 J0.00712
N915 Z-15.92064 I-0.79934 J0.00712
N916 Z-16.19048 I-0.79934 J0.00712
N917 Z-16.46032 I-0.79934 J0.00712
N918 Z-16.73016 I-0.79934 J0.00712
N919 Z-17. I-0.79934 J0.00712
N920 G1 X65.10423 Y70.30101
N921 X64.98149 Y70.60469
N922 X64.71916 Y70.81114
N923 G03 X63.89325 Y69.18885 I-0.41296 J-0.81114
N924 X64.71916 Y70.81114 I0.41295 J0.81115
N925 G1 X65.10554 Y69.99288
N926 X64.3062 Y70.
N927 G0 Z1.5875
N928 X50.79934 Y69.99288
N929 G1 Z0.635 F141.2
N930 G3 Z0.38261 I-0.79934 J0.00712 F565.
N931 Z0.13022 I-0.79934 J0.00712
N932 Z-0.12217 I-0.79934 J0.00712
N933 Z-0.37456 I-0.79934 J0.00712
N934 Z-0.62694 I-0.79934 J0.00712
N935 Z-0.87933 I-0.79934 J0.00712
N936 Z-1.13172 I-0.79934 J0.00712
N937 Z-1.38411 I-0.79934 J0.00712
N938 Z-1.6365 I-0.79934 J0.00712
N939 Z-1.88889 I-0.79934 J0.00712
N940 G1 X50.79803 Y70.30101
N941 X50.67529 Y70.60469
N942 X50.41296 Y70.81114
N943 G03 X49.58704 Y69.18885 I-0.41296 J-0.81114
N944 X50.41296 Y70.81114 I0.41296 J0.81115
N945 G1 X50.79934 Y69.99288
N946 G3 Z-2.15873 I-0.79934 J0.00712
N947 Z-2.42857 I-0.79934 J0.00712
N948 Z-2.69841 I-0.79934 J0.00712
N949 Z-2.96825 I-0.79934 J0.00712
N950 Z-3.23809 I-0.79934 J0.00712
N951 Z-3.50794 I-0.79934 J0.00712
N952 Z-3.77778 I-0.79934 J0.00712
N953 G1 X50.79803 Y70.30101
N954 X50.67529 Y70.60469
N955 X50.41296 Y70.81114
N956 G03 X49.58704 Y69.18885 I-0.41296 J-0.81114
N957 X50.41296 Y70.81114 I0.41296 J0.81115
N958 G1 X50.79934 Y69.99288
N959 G3 Z-4.04762 I-0.79934 J0.00712
N960 Z-4.31746 I-0.79934 J0.00712
N961 Z-4.5873 I-0.79934 J0.00712
N962 Z-4.85714 I-0.79934 J0.00712
N963 Z-5.12698 I-0.79934 J0.00712
N964 Z-5.39683 I-0.79934 J0.00712
N965 Z-5.66667 I-0.79934 J0.00712
N966 G1 X50.79803 Y70.30101
N967 X50.67529 Y70.60469
N968 X50.41296 Y70.81114
N969 G03 X49.58704 Y69.18885 I-0.41296 J-0.81114
N970 X50.41296 Y70.81114 I0.41296 J0.81115
N971 G1 X50.79934 Y69.99288
N972 G3 Z-5.93651 I-0.79934 J0.00712
N973 Z-6.20635 I-0.79934 J0.00712
N974 Z-6.47619 I-0.79934 J0.00712
N975 Z-6.74603 I-0.79934 J0.00712
N976 Z-7.01587 I-0.79934 J0.00712
N977 Z-7.28571 I-0.79934 J0.00712
N978 Z-7.55556 I-0.79934 J0.00712
N979 G1 X50.79803 Y70.30101
N980 X50.67529 Y70.60469
N981 X50.41296 Y70.81114
N982 G03 X49.58704 Y69.18885 I-0.41296 J-0.81114
N983 X50.41296 Y70.81114 I0.41296 J0.81115
N984 G1 X50.79934 Y69.99288
N985 G3 Z-7.8254 I-0.79934 J0.00712
N986 Z-8.09524 I-0.79934 J0.00712
N987 Z-8.36508 I-0.79934 J0.00712
N988 Z-8.63492 I-0.79934 J0.00712
N989 Z-8.90476 I-0.79934 J0.00712
N990 Z-9.1746 I-0.79934 J0.00712
N991 Z-9.44444 I-0.79934 J0.00712
N992 G1 X50.79803 Y70.30101
N993 X50.67529 Y70.60469
N994 X50.41296 Y70.81114
N995 G03 X49.58704 Y69.18885 I-0.41296 J-0.81114
N996 X50.41296 Y70.81114 I0.41296 J0.81115
N997 G1 X50.79934 Y69.99288
N998 G3 Z-9.71429 I-0.79934 J0.00712
N999 Z-9.98413 I-0.79934 J0.00712
N1000 Z-10.25397 I-0.79934 J0.00712
N1001 Z-10.52381 I-0.79934 J0.00712
N1002 Z-10.79365 I-0.79934 J0.00712
N1003 Z-11.06349 I-0.79934 J0.00712
N1004 Z-11.33333 I-0.79934 J0.00712
N1005 G1 X50.79803 Y70.30101
N1006 X50.67529 Y70.60469
N1007 X50.41296 Y70.81114
N1008 G03 X49.58704 Y69.18885 I-0.41296 J-0.81114
N1009 X50.41296 Y70.81114 I0.41296 J0.81115
N1010 G1 X50.79934 Y69.99288
N1011 G3 Z-11.60318 I-0.79934 J0.00712
N1012 Z-11.87302 I-0.79934 J0.00712
N1013 Z-12.14286 I-0.79934 J0.00712
N1014 Z-12.4127 I-0.79934 J0.00712
N1015 Z-12.68254 I-0.79934 J0.00712
N1016 Z-12.95238 I-0.79934 J0.00712
N1017 Z-13.22222 I-0.79934 J0.00712
N1018 G1 X50.79803 Y70.30101
N1019 X50.67529 Y70.60469
N1020 X50.41296 Y70.81114
N1021 G03 X49.58704 Y69.18885 I-0.41296 J-0.81114
N1022 X50.41296 Y70.81114 I0.41296 J0.81115
N1023 G1 X50.79934 Y69.99288
N1024 G3 Z-13.49206 I-0.79934 J0.00712
N1025 Z-13.76191 I-0.79934 J0.00712
N1026 Z-14.03175 I-0.79934 J0.00712
N1027 Z-14.30159 I-0.79934 J0.00712
N1028 Z-14.57143 I-0.79934 J0.00712
N1029 Z-14.84127 I-0.79934 J0.00712
N1030 Z-15.11111 I-0.79934 J0.00712
N1031 G1 X50.79803 Y70.30101
N1032 X50.67529 Y70.60469
N1033 X50.41296 Y70.81114
N1034 G03 X49.58704 Y69.18885 I-0.41296 J-0.81114
N1035 X50.41296 Y70.81114 I0.41296 J0.81115
N1036 G1 X50.79934 Y69.99288
N1037 G3 Z-15.38095 I-0.79934 J0.00712
N1038 Z-15.65079 I-0.79934 J0.00712
N1039 Z-15.92064 I-0.79934 J0.00712
N1040 Z-16.19048 I-0.79934 J0.00712
N1041 Z-16.46032 I-0.79934 J0.00712
N1042 Z-16.73016 I-0.79934 J0.00712
N1043 Z-17. I-0.79934 J0.00712
N1044 G1 X50.79803 Y70.30101
N1045 X50.67529 Y70.60469
N1046 X50.41296 Y70.81114
N1047 G03 X49.58704 Y69.18885 I-0.41296 J-0.81114
N1048 X50.41296 Y70.81114 I0.41296 J0.81115
N1049 G1 X50.79934 Y69.99288
N1050 X50. Y70.
N1051 G0 Z1.5875
N1052 X5.79934 Y69.99288
N1053 G1 Z0.635 F141.2
N1054 G3 Z0.38261 I-0.79934 J0.00712 F565.
N1055 Z0.13022 I-0.79934 J0.00712
N1056 Z-0.12217 I-0.79934 J0.00712
N1057 Z-0.37456 I-0.79934 J0.00712
N1058 Z-0.62694 I-0.79934 J0.00712
N1059 Z-0.87933 I-0.79934 J0.00712
N1060 Z-1.13172 I-0.79934 J0.00712
N1061 Z-1.38411 I-0.79934 J0.00712
N1062 Z-1.6365 I-0.79934 J0.00712
N1063 Z-1.88889 I-0.79934 J0.00712
N1064 G1 X5.79803 Y70.30101
N1065 X5.67529 Y70.60469
N1066 X5.41296 Y70.81114
N1067 G03 X4.58704 Y69.18885 I-0.41296 J-0.81114
N1068 X5.41296 Y70.81114 I0.41296 J0.81115
N1069 G1 X5.79934 Y69.99288
N1070 G3 Z-2.15873 I-0.79934 J0.00712
N1071 Z-2.42857 I-0.79934 J0.00712
N1072 Z-2.69841 I-0.79934 J0.00712
N1073 Z-2.96825 I-0.79934 J0.00712
N1074 Z-3.23809 I-0.79934 J0.00712
N1075 Z-3.50794 I-0.79934 J0.00712
N1076 Z-3.77778 I-0.79934 J0.00712
N1077 G1 X5.79803 Y70.30101
N1078 X5.67529 Y70.60469
N1079 X5.41296 Y70.81114
N1080 G03 X4.58704 Y69.18885 I-0.41296 J-0.81114
N1081 X5.41296 Y70.81114 I0.41296 J0.81115
N1082 G1 X5.79934 Y69.99288
N1083 G3 Z-4.04762 I-0.79934 J0.00712
N1084 Z-4.31746 I-0.79934 J0.00712
N1085 Z-4.5873 I-0.79934 J0.00712
N1086 Z-4.85714 I-0.79934 J0.00712
N1087 Z-5.12698 I-0.79934 J0.00712
N1088 Z-5.39683 I-0.79934 J0.00712
N1089 Z-5.66667 I-0.79934 J0.00712
N1090 G1 X5.79803 Y70.30101
N1091 X5.67529 Y70.60469
N1092 X5.41296 Y70.81114
N1093 G03 X4.58704 Y69.18885 I-0.41296 J-0.81114
N1094 X5.41296 Y70.81114 I0.41296 J0.81115
N1095 G1 X5.79934 Y69.99288
N1096 G3 Z-5.93651 I-0.79934 J0.00712
N1097 Z-6.20635 I-0.79934 J0.00712
N1098 Z-6.47619 I-0.79934 J0.00712
N1099 Z-6.74603 I-0.79934 J0.00712
N1100 Z-7.01587 I-0.79934 J0.00712
N1101 Z-7.28571 I-0.79934 J0.00712
N1102 Z-7.55556 I-0.79934 J0.00712
N1103 G1 X5.79803 Y70.30101
N1104 X5.67529 Y70.60469
N1105 X5.41296 Y70.81114
N1106 G03 X4.58704 Y69.18885 I-0.41296 J-0.81114
N1107 X5.41296 Y70.81114 I0.41296 J0.81115
N1108 G1 X5.79934 Y69.99288
N1109 G3 Z-7.8254 I-0.79934 J0.00712
N1110 Z-8.09524 I-0.79934 J0.00712
N1111 Z-8.36508 I-0.79934 J0.00712
N1112 Z-8.63492 I-0.79934 J0.00712
N1113 Z-8.90476 I-0.79934 J0.00712
N1114 Z-9.1746 I-0.79934 J0.00712
N1115 Z-9.44444 I-0.79934 J0.00712
N1116 G1 X5.79803 Y70.30101
N1117 X5.67529 Y70.60469
N1118 X5.41296 Y70.81114
N1119 G03 X4.58704 Y69.18885 I-0.41296 J-0.81114
N1120 X5.41296 Y70.81114 I0.41296 J0.81115
N1121 G1 X5.79934 Y69.99288
N1122 G3 Z-9.71429 I-0.79934 J0.00712
N1123 Z-9.98413 I-0.79934 J0.00712
N1124 Z-10.25397 I-0.79934 J0.00712
N1125 Z-10.52381 I-0.79934 J0.00712
N1126 Z-10.79365 I-0.79934 J0.00712
N1127 Z-11.06349 I-0.79934 J0.00712
N1128 Z-11.33333 I-0.79934 J0.00712
N1129 G1 X5.79803 Y70.30101
N1130 X5.67529 Y70.60469
N1131 X5.41296 Y70.81114
N1132 G03 X4.58704 Y69.18885 I-0.41296 J-0.81114
N1133 X5.41296 Y70.81114 I0.41296 J0.81115
N1134 G1 X5.79934 Y69.99288
N1135 G3 Z-11.60318 I-0.79934 J0.00712
N1136 Z-11.87302 I-0.79934 J0.00712
N1137 Z-12.14286 I-0.79934 J0.00712
N1138 Z-12.4127 I-0.79934 J0.00712
N1139 Z-12.68254 I-0.79934 J0.00712
N1140 Z-12.95238 I-0.79934 J0.00712
N1141 Z-13.22222 I-0.79934 J0.00712
N1142 G1 X5.79803 Y70.30101
N1143 X5.67529 Y70.60469
N1144 X5.41296 Y70.81114
N1145 G03 X4.58704 Y69.18885 I-0.41296 J-0.81114
N1146 X5.41296 Y70.81114 I0.41296 J0.81115
N1147 G1 X5.79934 Y69.99288
N1148 G3 Z-13.49206 I-0.79934 J0.00712
N1149 Z-13.76191 I-0.79934 J0.00712
N1150 Z-14.03175 I-0.79934 J0.00712
N1151 Z-14.30159 I-0.79934 J0.00712
N1152 Z-14.57143 I-0.79934 J0.00712
N1153 Z-14.84127 I-0.79934 J0.00712
N1154 Z-15.11111 I-0.79934 J0.00712
N1155 G1 X5.79803 Y70.30101
N1156 X5.67529 Y70.60469
N1157 X5.41296 Y70.81114
N1158 G03 X4.58704 Y69.18885 I-0.41296 J-0.81114
N1159 X5.41296 Y70.81114 I0.41296 J0.81115
N1160 G1 X5.79934 Y69.99288
N1161 G3 Z-15.38095 I-0.79934 J0.00712
N1162 Z-15.65079 I-0.79934 J0.00712
N1163 Z-15.92064 I-0.79934 J0.00712
N1164 Z-16.19048 I-0.79934 J0.00712
N1165 Z-16.46032 I-0.79934 J0.00712
N1166 Z-16.73016 I-0.79934 J0.00712
N1167 Z-17. I-0.79934 J0.00712
N1168 G1 X5.79803 Y70.30101
N1169 X5.67529 Y70.60469
N1170 X5.41296 Y70.81114
N1171 G03 X4.58704 Y69.18885 I-0.41296 J-0.81114
N1172 X5.41296 Y70.81114 I0.41296 J0.81115
N1173 G1 X5.79934 Y69.99288
N1174 X5. Y70.
N1175 G0 Z1.5875
(2 1/2 Axis Pocketing)
(SlotDrill 1/8in 3.175mm Carbide Aluminium Cut)
N1176 X91.31893 Y36.55106
N1177 G1 Z0.7 F141.2
N1178 Z0.1 F423.7
N1179 X91.31656 Y36.73871 Z0.08358
N1180 X91.31428 Y36.99247 Z0.06138
N1181 X91.31291 Y37.24623 Z0.03918
N1182 X91.31245 Y37.5 Z0.01698
N1183 X91.31291 Y37.75377 Z-0.00523
N1184 X91.31428 Y38.00753 Z-0.02743
N1185 X91.31656 Y38.26129 Z-0.04963
N1186 X91.31976 Y38.51503 Z-0.07183
N1187 X91.32387 Y38.76877 Z-0.09403
N1188 X91.32889 Y39.02248 Z-0.11623
N1189 X91.33483 Y39.27618 Z-0.13844
N1190 X91.34168 Y39.52985 Z-0.16064
N1191 X91.34945 Y39.7835 Z-0.18284
N1192 X91.35812 Y40.03712 Z-0.20504
N1193 X91.36771 Y40.29071 Z-0.22724
N1194 X91.37821 Y40.54426 Z-0.24945
N1195 X91.38963 Y40.79777 Z-0.27165
N1196 X91.40196 Y41.05123 Z-0.29385
N1197 X91.4152 Y41.30465 Z-0.31605
N1198 X91.42935 Y41.55803 Z-0.33825
N1199 X91.44442 Y41.81134 Z-0.36045
N1200 X91.46039 Y42.06461 Z-0.38266
N1201 X91.47728 Y42.31781 Z-0.40486
N1202 X91.41787 Y42.3199 Z-0.41006
N1203 X91.35848 Y42.32234 Z-0.41526
N1204 X91.29911 Y42.32513 Z-0.42046
N1205 X91.23975 Y42.32826 Z-0.42566
N1206 X91.18041 Y42.33174 Z-0.43086
N1207 X91.12109 Y42.33556 Z-0.43606
N1208 X91.0618 Y42.33973 Z-0.44126
N1209 X91.00253 Y42.34425 Z-0.44646
N1210 X90.94328 Y42.34911 Z-0.45166
N1211 X90.88407 Y42.35432 Z-0.45686
N1212 X90.82489 Y42.35987 Z-0.46206
N1213 X90.76574 Y42.36577 Z-0.46726
N1214 X90.70663 Y42.37201 Z-0.47246
N1215 X90.64755 Y42.3786 Z-0.47766
N1216 X90.58852 Y42.38554 Z-0.48286
N1217 X90.56593 Y42.19097 Z-0.5
N1218 X90.58852 Y42.38554 F565.
N1219 G03 X90.5888 Y32.6145 I41.2142 J-4.88434
N1220 G02 X91.47728 Y32.68219 I1.2174 J-10.1145
N1221 Y42.31781 I70.32892 J4.81781
N1222 X90.58852 Y42.38554 I0.32892 J10.18219
N1223 G1 X89.80028 Y42.47895
N1224 G03 X89.90614 Y31.69958 I42.00244 J-4.97775
N1225 G02 X92.33323 Y31.87895 I1.90006 J-9.19958
N1226 Y43.12105 I69.47297 J5.62105
N1227 X89.90581 Y43.30049 I-0.52703 J9.37895
N1228 G03 X89.80028 Y42.47895 I41.89691 J-5.79929
N1229 G1 X89.01205 Y42.57236
N1230 G03 X89.25088 Y30.7116 I42.79067 J-5.07116
N1231 G02 X93.20865 Y30.98488 I2.55532 J-8.2116
N1232 Y44.01512 I68.59755 J6.51512
N1233 X89.25051 Y44.28852 I-1.40245 J8.48488
N1234 G03 X89.01205 Y42.57236 I42.55221 J-6.78732
N1235 G1 X88.22382 Y42.66578
N1236 G03 X88.46951 Y30.57108 I43.5789 J-5.16458
N1237 G1 X88.46966 Y30.57017
N1238 G03 X88.63024 Y29.63098 I43.32371 J6.92427
N1239 G02 X94.11257 Y29.95776 I3.17596 J-7.13098
N1240 Y45.04224 I67.69363 J7.54224
N1241 X88.62994 Y45.36916 I-2.30637 J7.45776
N1242 G03 X88.22382 Y42.66578 I43.17278 J-7.86796
N1243 G1 X87.43558 Y42.75919
N1244 G03 X87.68572 Y30.44574 I44.36714 J-5.25799
N1245 G1 X87.68585 Y30.4449
N1246 G03 X88.05635 Y28.42569 I44.10752 J7.04954
N1247 G02 X95.0638 Y28.70993 I3.74985 J-5.92569
N1248 Y46.29007 I66.7424 J8.79007
N1249 X88.05612 Y46.57446 I-3.2576 J6.20993
N1250 G03 X87.43558 Y42.75919 I43.7466 J-9.07326
N1251 G1 X86.64735 Y42.85261
N1252 G03 X86.90193 Y30.32039 I45.15537 J-5.35141
N1253 G1 X86.90205 Y30.31962
N1254 G03 X87.55173 Y27.03567 I44.89132 J7.17482
N1255 G02 X96.11808 Y26.98113 I4.25447 J-4.53567
N1256 Y48.01887 I65.68812 J10.51887
N1257 X87.55156 Y47.96448 I-4.31188 J4.48113
N1258 G03 X86.64735 Y42.85261 I44.25116 J-10.46328
N1259 G1 X85.85911 Y42.94602
N1260 G03 X86.11814 Y30.19504 I45.94361 J-5.44482
N1261 G1 X86.11825 Y30.19435
N1262 G03 X87.17018 Y25.31744 I45.67512 J7.30009
N1263 G02 X87.2655 Y25.46861 I4.63602 J-2.81744
N1264 X96.94608 Y20.76441 I4.5407 J-2.96861
N1265 G1 X98.2271 Y20.81783
N1266 G02 Y54.18217 I63.5791 J16.68217
N1267 G1 X96.94608 Y54.23559
N1268 G02 X87.42387 Y49.30223 I-5.13988 J-1.73559
N1269 X87.17009 Y49.68272 I4.38233 J3.19777
N1270 G03 X85.85911 Y42.94602 I44.63263 J-12.18152
N1271 G1 X85.07088 Y43.03944
N1272 G03 X85.33435 Y30.06969 I46.73184 J-5.53824
N1273 G1 X85.33445 Y30.06908
N1274 G03 X87.17545 Y22.56767 I46.45892 J7.42536
N1275 G02 X87.92987 Y25.03426 I4.63075 J-0.06767
N1276 X95.6495 Y19.9159 I3.87633 J-2.53426
N1277 G1 X99.2527 Y20.06617
N1278 G02 Y54.93383 I62.5535 J17.43383
N1279 G1 X95.6495 Y55.0841
N1280 G02 X88.06506 Y49.7701 I-3.8433 J-2.5841
N1281 X87.17545 Y52.43248 I3.74114 J2.7299
N1282 G03 X85.07088 Y43.03944 I44.62727 J-14.93128
N1283 G1 X84.28265 Y43.13285
N1284 G03 X84.55056 Y29.94434 I47.52007 J-5.63165
N1285 G1 X84.55064 Y29.94381
N1286 G03 X87.75794 Y18.79236 I47.24273 J7.55063
N1287 G1 X90.46319 Y18.90518
N1288 G02 X88.59423 Y24.59992 I1.34301 J3.59482
N1289 X93.44385 Y19.02948 I3.21197 J-2.09992
N1290 G1 X100.29415 Y19.31516
N1291 G02 Y55.68484 I61.51205 J18.18484
N1292 G1 X93.44385 Y55.97052
N1293 G02 X88.70626 Y50.23798 I-1.63765 J-3.47052
N1294 X90.4632 Y56.09482 I3.09994 J2.26202
N1295 G1 X87.75795 Y56.20764
N1296 G03 X84.28265 Y43.13285 I44.04477 J-18.70644
N1297 G1 X83.49441 Y43.22627
N1298 G03 X83.76677 Y29.81899 I48.30831 J-5.72507
N1299 G1 X83.76684 Y29.81854
N1300 G03 X87.24543 Y17.97655 I48.02653 J7.6759
N1301 G1 X101.35223 Y18.56484
N1302 G02 Y56.43516 I60.45397 J18.93516
N1303 G1 X87.24545 Y57.02345
N1304 G03 X83.49441 Y43.22627 I44.55727 J-19.52225
N1305 G1 X82.70618 Y43.31968
N1306 G03 X82.98298 Y29.69364 I49.09654 J-5.81848
N1307 G1 X82.98304 Y29.69326
N1308 G03 X86.73942 Y17.16101 I48.81033 J7.80118
N1309 G1 X102.4278 Y17.81526
N1310 G02 Y57.18475 I59.3784 J19.68474
N1311 G1 X86.73944 Y57.83899
N1312 G03 X82.70618 Y43.31968 I45.06328 J-20.33779
N1313 G1 X81.91795 Y43.41309
N1314 G03 X82.19919 Y29.56829 I49.88477 J-5.91189
N1315 G1 X82.19924 Y29.56799
N1316 G03 X86.23968 Y16.34573 I49.59413 J7.92645
N1317 G1 X103.52176 Y17.06644
N1318 G02 Y57.93356 I58.28444 J20.43356
N1319 G1 X86.2397 Y58.65427
N1320 G03 X81.91795 Y43.41309 I45.56302 J-21.15307
N1321 G1 X81.12971 Y43.50651
N1322 G03 X81.4154 Y29.44295 I50.67301 J-6.00531
N1323 G1 X81.41544 Y29.44272
N1324 G03 X85.746 Y15.5307 I50.37793 J8.05172
N1325 G1 X104.63515 Y16.31843
N1326 G02 Y58.68157 I57.17105 J21.18157
N1327 G1 X85.74601 Y59.4693
N1328 G03 X81.12971 Y43.50651 I46.05671 J-21.9681
N1329 G1 X80.34148 Y43.59992
N1330 G03 X80.63161 Y29.3176 I51.46124 J-6.09872
N1331 G1 X80.63163 Y29.31745
N1332 G03 X85.25817 Y14.71592 I51.16174 J8.17699
N1333 G1 X105.76906 Y15.57127
N1334 G02 Y59.42873 I56.03714 J21.92873
N1335 G1 X85.25818 Y60.28408
N1336 G03 X80.34148 Y43.59992 I46.54454 J-22.78288
N1337 G1 X79.55324 Y43.69334
N1338 G03 X79.84782 Y29.19225 I52.24948 J-6.19214
N1339 G1 X79.84783 Y29.19217
N1340 G03 X84.77599 Y13.90137 I51.94554 J8.30227
N1341 G1 X106.92471 Y14.82503
N1342 G02 Y60.17497 I54.88149 J22.67497
N1343 G1 X84.77601 Y61.09863
N1344 G03 X79.55324 Y43.69334 I47.02671 J-23.59743
N1345 G1 X78.76501 Y43.78675
N1346 G03 X79.06403 Y29.0669 I53.03771 J-6.28555
N1347 X84.29931 Y13.08705 I52.72934 J8.42754
N1348 G1 X108.10344 Y14.07974
N1349 G02 Y60.92026 I53.70276 J23.42026
N1350 G1 X84.29932 Y61.91295
N1351 G03 X78.76501 Y43.78675 I47.5034 J-24.41175
N1352 G1 X79.77303 Y43.45675 Z0.56066 F847.5
N1353 Z1.16066
N1354 G0 Z1.5875
N1355 X91.31893 Y36.55106
N1356 G1 Z0.2 F141.2
N1357 Z-0.4 F423.7
N1358 X91.31656 Y36.73871 Z-0.41642
N1359 X91.31428 Y36.99247 Z-0.43862
N1360 X91.31291 Y37.24623 Z-0.46082
N1361 X91.31245 Y37.5 Z-0.48302
N1362 X91.31291 Y37.75377 Z-0.50523
N1363 X91.31428 Y38.00753 Z-0.52743
N1364 X91.31656 Y38.26129 Z-0.54963
N1365 X91.31976 Y38.51503 Z-0.57183
N1366 X91.32387 Y38.76877 Z-0.59403
N1367 X91.32889 Y39.02248 Z-0.61623
N1368 X91.33483 Y39.27618 Z-0.63844
N1369 X91.34168 Y39.52985 Z-0.66064
N1370 X91.34945 Y39.7835 Z-0.68284
N1371 X91.35812 Y40.03712 Z-0.70504
N1372 X91.36771 Y40.29071 Z-0.72724
N1373 X91.37821 Y40.54426 Z-0.74945
N1374 X91.38963 Y40.79777 Z-0.77165
N1375 X91.40196 Y41.05123 Z-0.79385
N1376 X91.4152 Y41.30465 Z-0.81605
N1377 X91.42935 Y41.55803 Z-0.83825
N1378 X91.44442 Y41.81134 Z-0.86045
N1379 X91.46039 Y42.06461 Z-0.88266
N1380 X91.47728 Y42.31781 Z-0.90486
N1381 X91.41787 Y42.3199 Z-0.91006
N1382 X91.35848 Y42.32234 Z-0.91526
N1383 X91.29911 Y42.32513 Z-0.92046
N1384 X91.23975 Y42.32826 Z-0.92566
N1385 X91.18041 Y42.33174 Z-0.93086
N1386 X91.12109 Y42.33556 Z-0.93606
N1387 X91.0618 Y42.33973 Z-0.94126
N1388 X91.00253 Y42.34425 Z-0.94646
N1389 X90.94328 Y42.34911 Z-0.95166
N1390 X90.88407 Y42.35432 Z-0.95686
N1391 X90.82489 Y42.35987 Z-0.96206
N1392 X90.76574 Y42.36577 Z-0.96726
N1393 X90.70663 Y42.37201 Z-0.97246
N1394 X90.64755 Y42.3786 Z-0.97766
N1395 X90.58852 Y42.38554 Z-0.98286
N1396 X90.56593 Y42.19097 Z-1.
N1397 X90.58852 Y42.38554 F565.
N1398 G03 X90.5888 Y32.6145 I41.2142 J-4.88434
N1399 G02 X91.47728 Y32.68219 I1.2174 J-10.1145
N1400 Y42.31781 I70.32892 J4.81781
N1401 X90.58852 Y42.38554 I0.32892 J10.18219
N1402 G1 X90.68339 Y43.1736
N1403 G02 X89.90581 Y43.30049 I1.12281 J9.3264
N1404 G03 X89.90614 Y31.69958 I41.89691 J-5.79929
N1405 G02 X92.33323 Y31.87895 I1.90006 J-9.19958
N1406 Y43.12105 I69.47297 J5.62105
N1407 X90.68339 Y43.1736 I-0.52703 J9.37895
N1408 G1 X90.77827 Y43.96165
N1409 G02 X89.25051 Y44.28852 I1.02793 J8.53835
N1410 G03 X89.25088 Y30.7116 I42.55221 J-6.78732
N1411 G02 X93.20865 Y30.98488 I2.55532 J-8.2116
N1412 Y44.01512 I68.59755 J6.51512
N1413 X90.77827 Y43.96165 I-1.40245 J8.48488
N1414 G1 X90.87314 Y44.74971
N1415 G02 X88.62994 Y45.36916 I0.93306 J7.75029
N1416 G03 X88.46951 Y30.57108 I43.17278 J-7.86796
N1417 G1 X88.46966 Y30.57017
N1418 G03 X88.63024 Y29.63098 I43.32371 J6.92427
N1419 G02 X94.11257 Y29.95776 I3.17596 J-7.13098
N1420 Y45.04224 I67.69363 J7.54224
N1421 X90.87314 Y44.74971 I-2.30637 J7.45776
N1422 G1 X90.96802 Y45.53777
N1423 G02 X88.05612 Y46.57446 I0.83818 J6.96223
N1424 G03 X87.68572 Y30.44574 I43.7466 J-9.07326
N1425 G1 X87.68585 Y30.4449
N1426 G03 X88.05635 Y28.42569 I44.10752 J7.04954
N1427 G02 X95.0638 Y28.70993 I3.74985 J-5.92569
N1428 Y46.29007 I66.7424 J8.79007
N1429 X90.96802 Y45.53777 I-3.2576 J6.20993
N1430 G1 X91.06289 Y46.32583
N1431 G02 X87.55156 Y47.96448 I0.74331 J6.17417
N1432 G03 X86.90193 Y30.32039 I44.25116 J-10.46328
N1433 G1 X86.90205 Y30.31962
N1434 G03 X87.55173 Y27.03567 I44.89132 J7.17482
N1435 G02 X96.11808 Y26.98113 I4.25447 J-4.53567
N1436 Y48.01887 I65.68812 J10.51887
N1437 X91.06289 Y46.32583 I-4.31188 J4.48113
N1438 G1 X91.15777 Y47.11389
N1439 G02 X87.42387 Y49.30223 I0.64843 J5.38611
N1440 X87.17009 Y49.68272 I4.38233 J3.19777
N1441 G03 X86.11814 Y30.19504 I44.63263 J-12.18152
N1442 G1 X86.11825 Y30.19435
N1443 G03 X87.17018 Y25.31744 I45.67512 J7.30009
N1444 G02 X87.2655 Y25.46861 I4.63602 J-2.81744
N1445 X96.94608 Y20.76441 I4.5407 J-2.96861
N1446 G1 X98.2271 Y20.81783
N1447 G02 Y54.18217 I63.5791 J16.68217
N1448 G1 X96.94608 Y54.23559
N1449 G02 X91.15777 Y47.11389 I-5.13988 J-1.73559
N1450 G1 X91.25264 Y47.90195
N1451 G02 X88.06506 Y49.7701 I0.55356 J4.59805
N1452 X87.17545 Y52.43248 I3.74114 J2.7299
N1453 G03 X85.33435 Y30.06969 I44.62727 J-14.93128
N1454 G1 X85.33445 Y30.06908
N1455 G03 X87.17545 Y22.56767 I46.45892 J7.42536
N1456 G02 X87.92987 Y25.03426 I4.63075 J-0.06767
N1457 X95.6495 Y19.9159 I3.87633 J-2.53426
N1458 G1 X99.2527 Y20.06617
N1459 G02 Y54.93383 I62.5535 J17.43383
N1460 G1 X95.6495 Y55.0841
N1461 G02 X91.25264 Y47.90195 I-3.8433 J-2.5841
N1462 G1 X91.34752 Y48.69001
N1463 G02 X88.70626 Y50.23798 I0.45868 J3.80999
N1464 X90.4632 Y56.09482 I3.09994 J2.26202
N1465 G1 X87.75795 Y56.20764
N1466 G03 X84.55056 Y29.94434 I44.04477 J-18.70644
N1467 G1 X84.55064 Y29.94381
N1468 G03 X87.75794 Y18.79236 I47.24273 J7.55063
N1469 G1 X90.46319 Y18.90518
N1470 G02 X88.59423 Y24.59992 I1.34301 J3.59482
N1471 X93.44385 Y19.02948 I3.21197 J-2.09992
N1472 G1 X100.29415 Y19.31516
N1473 G02 Y55.68484 I61.51205 J18.18484
N1474 G1 X93.44385 Y55.97052
N1475 G02 X91.34752 Y48.69001 I-1.63765 J-3.47052
N1476 G1 X92.32356 Y48.27487 Z0.06066 F847.5
N1477 Z0.66066
N1478 G0 Z1.5875
N1479 X87.20386 Y56.92797
N1480 G1 Z0.2 F141.2
N1481 Z-0.4 F423.7
N1482 X87.1612 Y56.83003 Z-0.40935
N1483 X87.07779 Y56.63624 Z-0.42781
N1484 X86.99523 Y56.44209 Z-0.44626
N1485 X86.9135 Y56.24759 Z-0.46472
N1486 X86.83262 Y56.05273 Z-0.48318
N1487 X86.75259 Y55.85752 Z-0.50164
N1488 X86.6734 Y55.66197 Z-0.52009
N1489 X86.59507 Y55.46608 Z-0.53855
N1490 X86.51758 Y55.26985 Z-0.55701
N1491 X86.44095 Y55.07329 Z-0.57547
N1492 X86.36516 Y54.87639 Z-0.59393
N1493 X86.29024 Y54.67917 Z-0.61238
N1494 X86.21617 Y54.48163 Z-0.63084
N1495 X86.14295 Y54.28376 Z-0.6493
N1496 X86.0706 Y54.08558 Z-0.66776
N1497 X85.9991 Y53.88709 Z-0.68622
N1498 X85.92847 Y53.68829 Z-0.70467
N1499 X85.8587 Y53.48919 Z-0.72313
N1500 X85.78979 Y53.28978 Z-0.74159
N1501 X85.72175 Y53.09008 Z-0.76005
N1502 X85.65458 Y52.89008 Z-0.77851
N1503 X85.58827 Y52.6898 Z-0.79696
N1504 X85.52283 Y52.48923 Z-0.81542
N1505 X85.45827 Y52.28838 Z-0.83388
N1506 X85.39457 Y52.08725 Z-0.85234
N1507 X85.33175 Y51.88584 Z-0.87079
N1508 X85.2698 Y51.68417 Z-0.88925
N1509 X85.20873 Y51.48223 Z-0.90771
N1510 X85.14853 Y51.28002 Z-0.92617
N1511 X85.08922 Y51.07756 Z-0.94463
N1512 X85.03078 Y50.87484 Z-0.96308
N1513 X84.97322 Y50.67187 Z-0.98154
N1514 X84.91654 Y50.46865 Z-1.
N1515 G03 X83.76677 Y29.81899 I46.88618 J-12.96745 F565.
N1516 G1 X83.76684 Y29.81854
N1517 G03 X87.24543 Y17.97655 I48.02653 J7.6759
N1518 G1 X101.35223 Y18.56484
N1519 G02 Y56.43516 I60.45397 J18.93516
N1520 G1 X87.24545 Y57.02345
N1521 G03 X84.91654 Y50.46865 I44.55727 J-19.52225
N1522 G1 X84.15151 Y50.68023
N1523 G03 X82.98298 Y29.69364 I47.65121 J-13.17903
N1524 G1 X82.98304 Y29.69326
N1525 G03 X86.73942 Y17.16101 I48.81033 J7.80118
N1526 G1 X102.4278 Y17.81526
N1527 G02 Y57.18475 I59.3784 J19.68474
N1528 G1 X86.73944 Y57.83899
N1529 G03 X84.15151 Y50.68023 I45.06328 J-20.33779
N1530 G1 X83.38648 Y50.89182
N1531 G03 X82.19919 Y29.56829 I48.41624 J-13.39062
N1532 G1 X82.19924 Y29.56799
N1533 G03 X86.23968 Y16.34573 I49.59413 J7.92645
N1534 G1 X103.52176 Y17.06644
N1535 G02 Y57.93356 I58.28444 J20.43356
N1536 G1 X86.2397 Y58.65427
N1537 G03 X83.38648 Y50.89182 I45.56302 J-21.15307
N1538 G1 X82.62145 Y51.10341
N1539 G03 X81.4154 Y29.44295 I49.18127 J-13.60221
N1540 G1 X81.41544 Y29.44272
N1541 G03 X85.746 Y15.5307 I50.37793 J8.05172
N1542 G1 X104.63515 Y16.31843
N1543 G02 Y58.68157 I57.17105 J21.18157
N1544 G1 X85.74601 Y59.4693
N1545 G03 X82.62145 Y51.10341 I46.05671 J-21.9681
N1546 G1 X81.85642 Y51.31499
N1547 G03 X80.63161 Y29.3176 I49.9463 J-13.81379
N1548 G1 X80.63163 Y29.31745
N1549 G03 X85.25817 Y14.71592 I51.16174 J8.17699
N1550 G1 X105.76906 Y15.57127
N1551 G02 Y59.42873 I56.03714 J21.92873
N1552 G1 X85.25818 Y60.28408
N1553 G03 X81.85642 Y51.31499 I46.54454 J-22.78288
N1554 G1 X81.09139 Y51.52658
N1555 G03 X79.84782 Y29.19225 I50.71133 J-14.02538
N1556 G1 X79.84783 Y29.19217
N1557 G03 X84.77599 Y13.90137 I51.94554 J8.30227
N1558 G1 X106.92471 Y14.82503
N1559 G02 Y60.17497 I54.88149 J22.67497
N1560 G1 X84.77601 Y61.09863
N1561 G03 X81.09139 Y51.52658 I47.02671 J-23.59743
N1562 G1 X80.32636 Y51.73817
N1563 G03 X79.06403 Y29.0669 I51.47636 J-14.23697
N1564 X84.29931 Y13.08705 I52.72934 J8.42754
N1565 G1 X108.10344 Y14.07974
N1566 G02 Y60.92026 I53.70276 J23.42026
N1567 G1 X84.29932 Y61.91295
N1568 G03 X80.32636 Y51.73817 I47.5034 J-24.41175
N1569 G1 X81.33438 Y51.40816 Z0.06066 F847.5
N1570 Z0.66066
N1571 G0 Z1.5875
N1572 X91.31893 Y36.55106
N1573 G1 Z-0.3 F141.2
N1574 Z-0.9 F423.7
N1575 X91.31656 Y36.73871 Z-0.91642
N1576 X91.31428 Y36.99247 Z-0.93862
N1577 X91.31291 Y37.24623 Z-0.96082
N1578 X91.31245 Y37.5 Z-0.98302
N1579 X91.31291 Y37.75377 Z-1.00523
N1580 X91.31428 Y38.00753 Z-1.02743
N1581 X91.31656 Y38.26129 Z-1.04963
N1582 X91.31976 Y38.51503 Z-1.07183
N1583 X91.32387 Y38.76877 Z-1.09403
N1584 X91.32889 Y39.02248 Z-1.11623
N1585 X91.33483 Y39.27618 Z-1.13844
N1586 X91.34168 Y39.52985 Z-1.16064
N1587 X91.34945 Y39.7835 Z-1.18284
N1588 X91.35812 Y40.03712 Z-1.20504
N1589 X91.36771 Y40.29071 Z-1.22724
N1590 X91.37821 Y40.54426 Z-1.24944
N1591 X91.38963 Y40.79777 Z-1.27165
N1592 X91.40196 Y41.05123 Z-1.29385
N1593 X91.4152 Y41.30465 Z-1.31605
N1594 X91.42935 Y41.55803 Z-1.33825
N1595 X91.44442 Y41.81134 Z-1.36045
N1596 X91.46039 Y42.06461 Z-1.38266
N1597 X91.47728 Y42.31781 Z-1.40486
N1598 X91.41787 Y42.3199 Z-1.41006
N1599 X91.35848 Y42.32234 Z-1.41526
N1600 X91.29911 Y42.32513 Z-1.42046
N1601 X91.23975 Y42.32826 Z-1.42566
N1602 X91.18041 Y42.33174 Z-1.43086
N1603 X91.12109 Y42.33556 Z-1.43606
N1604 X91.0618 Y42.33973 Z-1.44126
N1605 X91.00253 Y42.34425 Z-1.44646
N1606 X90.94328 Y42.34911 Z-1.45166
N1607 X90.88407 Y42.35432 Z-1.45686
N1608 X90.82489 Y42.35987 Z-1.46206
N1609 X90.76574 Y42.36577 Z-1.46726
N1610 X90.70663 Y42.37201 Z-1.47246
N1611 X90.64755 Y42.3786 Z-1.47766
N1612 X90.58852 Y42.38554 Z-1.48286
N1613 X90.56593 Y42.19097 Z-1.5
N1614 X90.58852 Y42.38554 F565.
N1615 G03 X90.5888 Y32.6145 I41.2142 J-4.88434
N1616 G02 X91.47728 Y32.68219 I1.2174 J-10.1145
N1617 Y42.31781 I70.32892 J4.81781
N1618 X90.58852 Y42.38554 I0.32892 J10.18219
N1619 G1 X90.68339 Y43.1736
N1620 G02 X89.90581 Y43.30049 I1.12281 J9.3264
N1621 G03 X89.90614 Y31.69958 I41.89691 J-5.79929
N1622 G02 X92.33323 Y31.87895 I1.90006 J-9.19958
N1623 Y43.12105 I69.47297 J5.62105
N1624 X90.68339 Y43.1736 I-0.52703 J9.37895
N1625 G1 X90.77827 Y43.96165
N1626 G02 X89.25051 Y44.28852 I1.02793 J8.53835
N1627 G03 X89.25088 Y30.7116 I42.55221 J-6.78732
N1628 G02 X93.20865 Y30.98488 I2.55532 J-8.2116
N1629 Y44.01512 I68.59755 J6.51512
N1630 X90.77827 Y43.96165 I-1.40245 J8.48488
N1631 G1 X90.87314 Y44.74971
N1632 G02 X88.62994 Y45.36916 I0.93306 J7.75029
N1633 G03 X88.46951 Y30.57108 I43.17278 J-7.86796
N1634 G1 X88.46966 Y30.57017
N1635 G03 X88.63024 Y29.63098 I43.32371 J6.92427
N1636 G02 X94.11257 Y29.95776 I3.17596 J-7.13098
N1637 Y45.04224 I67.69363 J7.54224
N1638 X90.87314 Y44.74971 I-2.30637 J7.45776
N1639 G1 X90.96802 Y45.53777
N1640 G02 X88.05612 Y46.57446 I0.83818 J6.96223
N1641 G03 X87.68572 Y30.44574 I43.7466 J-9.07326
N1642 G1 X87.68585 Y30.4449
N1643 G03 X88.05635 Y28.42569 I44.10752 J7.04954
N1644 G02 X95.0638 Y28.70993 I3.74985 J-5.92569
N1645 Y46.29007 I66.7424 J8.79007
N1646 X90.96802 Y45.53777 I-3.2576 J6.20993
N1647 G1 X91.06289 Y46.32583
N1648 G02 X87.55156 Y47.96448 I0.74331 J6.17417
N1649 G03 X86.90193 Y30.32039 I44.25116 J-10.46328
N1650 G1 X86.90205 Y30.31962
N1651 G03 X87.55173 Y27.03567 I44.89132 J7.17482
N1652 G02 X96.11808 Y26.98113 I4.25447 J-4.53567
N1653 Y48.01887 I65.68812 J10.51887
N1654 X91.06289 Y46.32583 I-4.31188 J4.48113
N1655 G1 X91.15777 Y47.11389
N1656 G02 X87.42387 Y49.30223 I0.64843 J5.38611
N1657 X87.17009 Y49.68272 I4.38233 J3.19777
N1658 G03 X86.11814 Y30.19504 I44.63263 J-12.18152
N1659 G1 X86.11825 Y30.19435
N1660 G03 X87.17018 Y25.31744 I45.67512 J7.30009
N1661 G02 X87.2655 Y25.46861 I4.63602 J-2.81744
N1662 X96.94608 Y20.76441 I4.5407 J-2.96861
N1663 G1 X98.2271 Y20.81783
N1664 G02 Y54.18217 I63.5791 J16.68217
N1665 G1 X96.94608 Y54.23559
N1666 G02 X91.15777 Y47.11389 I-5.13988 J-1.73559
N1667 G1 X91.25264 Y47.90195
N1668 G02 X88.06506 Y49.7701 I0.55356 J4.59805
N1669 X87.17545 Y52.43248 I3.74114 J2.7299
N1670 G03 X85.33435 Y30.06969 I44.62727 J-14.93128
N1671 G1 X85.33445 Y30.06908
N1672 G03 X87.17545 Y22.56767 I46.45892 J7.42536
N1673 G02 X87.92987 Y25.03426 I4.63075 J-0.06767
N1674 X95.6495 Y19.9159 I3.87633 J-2.53426
N1675 G1 X99.2527 Y20.06617
N1676 G02 Y54.93383 I62.5535 J17.43383
N1677 G1 X95.6495 Y55.0841
N1678 G02 X91.25264 Y47.90195 I-3.8433 J-2.5841
N1679 G1 X91.34752 Y48.69001
N1680 G02 X88.70626 Y50.23798 I0.45868 J3.80999
N1681 X90.4632 Y56.09482 I3.09994 J2.26202
N1682 G1 X87.75795 Y56.20764
N1683 G03 X84.55056 Y29.94434 I44.04477 J-18.70644
N1684 G1 X84.55064 Y29.94381
N1685 G03 X87.75794 Y18.79236 I47.24273 J7.55063
N1686 G1 X90.46319 Y18.90518
N1687 G02 X88.59423 Y24.59992 I1.34301 J3.59482
N1688 X93.44385 Y19.02948 I3.21197 J-2.09992
N1689 G1 X100.29415 Y19.31516
N1690 G02 Y55.68484 I61.51205 J18.18484
N1691 G1 X93.44385 Y55.97052
N1692 G02 X91.34752 Y48.69001 I-1.63765 J-3.47052
N1693 G1 X92.32356 Y48.27487 Z-0.43934 F847.5
N1694 Z0.16066
N1695 G0 Z1.5875
N1696 X87.20386 Y56.92797
N1697 G1 Z-0.3 F141.2
N1698 Z-0.9 F423.7
N1699 X87.1612 Y56.83003 Z-0.90935
N1700 X87.07779 Y56.63624 Z-0.92781
N1701 X86.99523 Y56.44209 Z-0.94626
N1702 X86.9135 Y56.24759 Z-0.96472
N1703 X86.83262 Y56.05273 Z-0.98318
N1704 X86.75259 Y55.85752 Z-1.00164
N1705 X86.6734 Y55.66197 Z-1.02009
N1706 X86.59507 Y55.46608 Z-1.03855
N1707 X86.51758 Y55.26985 Z-1.05701
N1708 X86.44095 Y55.07329 Z-1.07547
N1709 X86.36516 Y54.87639 Z-1.09393
N1710 X86.29024 Y54.67917 Z-1.11238
N1711 X86.21617 Y54.48163 Z-1.13084
N1712 X86.14295 Y54.28376 Z-1.1493
N1713 X86.0706 Y54.08558 Z-1.16776
N1714 X85.9991 Y53.88709 Z-1.18622
N1715 X85.92847 Y53.68829 Z-1.20467
N1716 X85.8587 Y53.48919 Z-1.22313
N1717 X85.78979 Y53.28978 Z-1.24159
N1718 X85.72175 Y53.09008 Z-1.26005
N1719 X85.65458 Y52.89008 Z-1.27851
N1720 X85.58827 Y52.6898 Z-1.29696
N1721 X85.52283 Y52.48923 Z-1.31542
N1722 X85.45827 Y52.28838 Z-1.33388
N1723 X85.39457 Y52.08725 Z-1.35234
N1724 X85.33175 Y51.88584 Z-1.3708
N1725 X85.2698 Y51.68417 Z-1.38925
N1726 X85.20873 Y51.48223 Z-1.40771
N1727 X85.14853 Y51.28002 Z-1.42617
N1728 X85.08922 Y51.07756 Z-1.44463
N1729 X85.03078 Y50.87484 Z-1.46308
N1730 X84.97322 Y50.67187 Z-1.48154
N1731 X84.91654 Y50.46865 Z-1.5
N1732 G03 X83.76677 Y29.81899 I46.88618 J-12.96745 F565.
N1733 G1 X83.76684 Y29.81854
N1734 G03 X87.24543 Y17.97655 I48.02653 J7.6759
N1735 G1 X101.35223 Y18.56484
N1736 G02 Y56.43516 I60.45397 J18.93516
N1737 G1 X87.24545 Y57.02345
N1738 G03 X84.91654 Y50.46865 I44.55727 J-19.52225
N1739 G1 X84.15151 Y50.68023
N1740 G03 X82.98298 Y29.69364 I47.65121 J-13.17903
N1741 G1 X82.98304 Y29.69326
N1742 G03 X86.73942 Y17.16101 I48.81033 J7.80118
N1743 G1 X102.4278 Y17.81526
N1744 G02 Y57.18475 I59.3784 J19.68474
N1745 G1 X86.73944 Y57.83899
N1746 G03 X84.15151 Y50.68023 I45.06328 J-20.33779
N1747 G1 X83.38648 Y50.89182
N1748 G03 X82.19919 Y29.56829 I48.41624 J-13.39062
N1749 G1 X82.19924 Y29.56799
N1750 G03 X86.23968 Y16.34573 I49.59413 J7.92645
N1751 G1 X103.52176 Y17.06644
N1752 G02 Y57.93356 I58.28444 J20.43356
N1753 G1 X86.2397 Y58.65427
N1754 G03 X83.38648 Y50.89182 I45.56302 J-21.15307
N1755 G1 X82.62145 Y51.10341
N1756 G03 X81.4154 Y29.44295 I49.18127 J-13.60221
N1757 G1 X81.41544 Y29.44272
N1758 G03 X85.746 Y15.5307 I50.37793 J8.05172
N1759 G1 X104.63515 Y16.31843
N1760 G02 Y58.68157 I57.17105 J21.18157
N1761 G1 X85.74601 Y59.4693
N1762 G03 X82.62145 Y51.10341 I46.05671 J-21.9681
N1763 G1 X81.85642 Y51.31499
N1764 G03 X80.63161 Y29.3176 I49.9463 J-13.81379
N1765 G1 X80.63163 Y29.31745
N1766 G03 X85.25817 Y14.71592 I51.16174 J8.17699
N1767 G1 X105.76906 Y15.57127
N1768 G02 Y59.42873 I56.03714 J21.92873
N1769 G1 X85.25818 Y60.28408
N1770 G03 X81.85642 Y51.31499 I46.54454 J-22.78288
N1771 G1 X81.09139 Y51.52658
N1772 G03 X79.84782 Y29.19225 I50.71133 J-14.02538
N1773 G1 X79.84783 Y29.19217
N1774 G03 X84.77599 Y13.90137 I51.94554 J8.30227
N1775 G1 X106.92471 Y14.82503
N1776 G02 Y60.17497 I54.88149 J22.67497
N1777 G1 X84.77601 Y61.09863
N1778 G03 X81.09139 Y51.52658 I47.02671 J-23.59743
N1779 G1 X80.32636 Y51.73817
N1780 G03 X79.06403 Y29.0669 I51.47636 J-14.23697
N1781 X84.29931 Y13.08705 I52.72934 J8.42754
N1782 G1 X108.10344 Y14.07974
N1783 G02 Y60.92026 I53.70276 J23.42026
N1784 G1 X84.29932 Y61.91295
N1785 G03 X80.32636 Y51.73817 I47.5034 J-24.41175
N1786 G1 X81.33438 Y51.40816 Z-0.43934 F847.5
N1787 Z0.16066
N1788 G0 Z1.5875
N1789 X91.31893 Y36.55106
N1790 G1 Z-0.8 F141.2
N1791 Z-1.4 F423.7
N1792 X91.31656 Y36.73871 Z-1.41642
N1793 X91.31428 Y36.99247 Z-1.43862
N1794 X91.31291 Y37.24623 Z-1.46082
N1795 X91.31245 Y37.5 Z-1.48302
N1796 X91.31291 Y37.75377 Z-1.50523
N1797 X91.31428 Y38.00753 Z-1.52743
N1798 X91.31656 Y38.26129 Z-1.54963
N1799 X91.31976 Y38.51503 Z-1.57183
N1800 X91.32387 Y38.76877 Z-1.59403
N1801 X91.32889 Y39.02248 Z-1.61623
N1802 X91.33483 Y39.27618 Z-1.63844
N1803 X91.34168 Y39.52985 Z-1.66064
N1804 X91.34945 Y39.7835 Z-1.68284
N1805 X91.35812 Y40.03712 Z-1.70504
N1806 X91.36771 Y40.29071 Z-1.72724
N1807 X91.37821 Y40.54426 Z-1.74945
N1808 X91.38963 Y40.79777 Z-1.77165
N1809 X91.40196 Y41.05123 Z-1.79385
N1810 X91.4152 Y41.30465 Z-1.81605
N1811 X91.42935 Y41.55803 Z-1.83825
N1812 X91.44442 Y41.81134 Z-1.86045
N1813 X91.46039 Y42.06461 Z-1.88266
N1814 X91.47728 Y42.31781 Z-1.90486
N1815 X91.41787 Y42.3199 Z-1.91006
N1816 X91.35848 Y42.32234 Z-1.91526
N1817 X91.29911 Y42.32513 Z-1.92046
N1818 X91.23975 Y42.32826 Z-1.92566
N1819 X91.18041 Y42.33174 Z-1.93086
N1820 X91.12109 Y42.33556 Z-1.93606
N1821 X91.0618 Y42.33973 Z-1.94126
N1822 X91.00253 Y42.34425 Z-1.94646
N1823 X90.94328 Y42.34911 Z-1.95166
N1824 X90.88407 Y42.35432 Z-1.95686
N1825 X90.82489 Y42.35987 Z-1.96206
N1826 X90.76574 Y42.36577 Z-1.96726
N1827 X90.70663 Y42.37201 Z-1.97246
N1828 X90.64755 Y42.3786 Z-1.97766
N1829 X90.58852 Y42.38554 Z-1.98286
N1830 X90.56593 Y42.19097 Z-2.
N1831 X90.58852 Y42.38554 F565.
N1832 G03 X90.5888 Y32.6145 I41.2142 J-4.88434
N1833 G02 X91.47728 Y32.68219 I1.2174 J-10.1145
N1834 Y42.31781 I70.32892 J4.81781
N1835 X90.58852 Y42.38554 I0.32892 J10.18219
N1836 G1 X89.80028 Y42.47895
N1837 G03 X89.90614 Y31.69958 I42.00244 J-4.97775
N1838 G02 X92.33323 Y31.87895 I1.90006 J-9.19958
N1839 Y43.12105 I69.47297 J5.62105
N1840 X89.90581 Y43.30049 I-0.52703 J9.37895
N1841 G03 X89.80028 Y42.47895 I41.89691 J-5.79929
N1842 G1 X89.01205 Y42.57236
N1843 G03 X89.25088 Y30.7116 I42.79067 J-5.07116
N1844 G02 X93.20865 Y30.98488 I2.55532 J-8.2116
N1845 Y44.01512 I68.59755 J6.51512
N1846 X89.25051 Y44.28852 I-1.40245 J8.48488
N1847 G03 X89.01205 Y42.57236 I42.55221 J-6.78732
N1848 G1 X88.22382 Y42.66578
N1849 G03 X88.46951 Y30.57108 I43.5789 J-5.16458
N1850 G1 X88.46966 Y30.57017
N1851 G03 X88.63024 Y29.63098 I43.32371 J6.92427
N1852 G02 X94.11257 Y29.95776 I3.17596 J-7.13098
N1853 Y45.04224 I67.69363 J7.54224
N1854 X88.62994 Y45.36916 I-2.30637 J7.45776
N1855 G03 X88.22382 Y42.66578 I43.17278 J-7.86796
N1856 G1 X87.43558 Y42.75919
N1857 G03 X87.68572 Y30.44574 I44.36714 J-5.25799
N1858 G1 X87.68585 Y30.4449
N1859 G03 X88.05635 Y28.42569 I44.10752 J7.04954
N1860 G02 X95.0638 Y28.70993 I3.74985 J-5.92569
N1861 Y46.29007 I66.7424 J8.79007
N1862 X88.05612 Y46.57446 I-3.2576 J6.20993
N1863 G03 X87.43558 Y42.75919 I43.7466 J-9.07326
N1864 G1 X86.64735 Y42.85261
N1865 G03 X86.90193 Y30.32039 I45.15537 J-5.35141
N1866 G1 X86.90205 Y30.31962
N1867 G03 X87.55173 Y27.03567 I44.89132 J7.17482
N1868 G02 X96.11808 Y26.98113 I4.25447 J-4.53567
N1869 Y48.01887 I65.68812 J10.51887
N1870 X87.55156 Y47.96448 I-4.31188 J4.48113
N1871 G03 X86.64735 Y42.85261 I44.25116 J-10.46328
N1872 G1 X85.85911 Y42.94602
N1873 G03 X86.11814 Y30.19504 I45.94361 J-5.44482
N1874 G1 X86.11825 Y30.19435
N1875 G03 X87.17018 Y25.31744 I45.67512 J7.30009
N1876 G02 X87.2655 Y25.46861 I4.63602 J-2.81744
N1877 X96.94608 Y20.76441 I4.5407 J-2.96861
N1878 G1 X98.2271 Y20.81783
N1879 G02 Y54.18217 I63.5791 J16.68217
N1880 G1 X96.94608 Y54.23559
N1881 G02 X87.42387 Y49.30223 I-5.13988 J-1.73559
N1882 X87.17009 Y49.68272 I4.38233 J3.19777
N1883 G03 X85.85911 Y42.94602 I44.63263 J-12.18152
N1884 G1 X85.07088 Y43.03944
N1885 G03 X85.33435 Y30.06969 I46.73184 J-5.53824
N1886 G1 X85.33445 Y30.06908
N1887 G03 X87.17545 Y22.56767 I46.45892 J7.42536
N1888 G02 X87.92987 Y25.03426 I4.63075 J-0.06767
N1889 X95.6495 Y19.9159 I3.87633 J-2.53426
N1890 G1 X99.2527 Y20.06617
N1891 G02 Y54.93383 I62.5535 J17.43383
N1892 G1 X95.6495 Y55.0841
N1893 G02 X88.06506 Y49.7701 I-3.8433 J-2.5841
N1894 X87.17545 Y52.43248 I3.74114 J2.7299
N1895 G03 X85.07088 Y43.03944 I44.62727 J-14.93128
N1896 G1 X84.28265 Y43.13285
N1897 G03 X84.55056 Y29.94434 I47.52007 J-5.63165
N1898 G1 X84.55064 Y29.94381
N1899 G03 X87.75794 Y18.79236 I47.24273 J7.55063
N1900 G1 X90.46319 Y18.90518
N1901 G02 X88.59423 Y24.59992 I1.34301 J3.59482
N1902 X93.44385 Y19.02948 I3.21197 J-2.09992
N1903 G1 X100.29415 Y19.31516
N1904 G02 Y55.68484 I61.51205 J18.18484
N1905 G1 X93.44385 Y55.97052
N1906 G02 X88.70626 Y50.23798 I-1.63765 J-3.47052
N1907 X90.4632 Y56.09482 I3.09994 J2.26202
N1908 G1 X87.75795 Y56.20764
N1909 G03 X84.28265 Y43.13285 I44.04477 J-18.70644
N1910 G1 X83.49441 Y43.22627
N1911 G03 X83.76677 Y29.81899 I48.30831 J-5.72507
N1912 G1 X83.76684 Y29.81854
N1913 G03 X87.24543 Y17.97655 I48.02653 J7.6759
N1914 G1 X101.35223 Y18.56484
N1915 G02 Y56.43516 I60.45397 J18.93516
N1916 G1 X87.24545 Y57.02345
N1917 G03 X83.49441 Y43.22627 I44.55727 J-19.52225
N1918 G1 X82.70618 Y43.31968
N1919 G03 X82.98298 Y29.69364 I49.09654 J-5.81848
N1920 G1 X82.98304 Y29.69326
N1921 G03 X86.73942 Y17.16101 I48.81033 J7.80118
N1922 G1 X102.4278 Y17.81526
N1923 G02 Y57.18475 I59.3784 J19.68474
N1924 G1 X86.73944 Y57.83899
N1925 G03 X82.70618 Y43.31968 I45.06328 J-20.33779
N1926 G1 X81.91795 Y43.41309
N1927 G03 X82.19919 Y29.56829 I49.88477 J-5.91189
N1928 G1 X82.19924 Y29.56799
N1929 G03 X86.23968 Y16.34573 I49.59413 J7.92645
N1930 G1 X103.52176 Y17.06644
N1931 G02 Y57.93356 I58.28444 J20.43356
N1932 G1 X86.2397 Y58.65427
N1933 G03 X81.91795 Y43.41309 I45.56302 J-21.15307
N1934 G1 X81.12971 Y43.50651
N1935 G03 X81.4154 Y29.44295 I50.67301 J-6.00531
N1936 G1 X81.41544 Y29.44272
N1937 G03 X85.746 Y15.5307 I50.37793 J8.05172
N1938 G1 X104.63515 Y16.31843
N1939 G02 Y58.68157 I57.17105 J21.18157
N1940 G1 X85.74601 Y59.4693
N1941 G03 X81.12971 Y43.50651 I46.05671 J-21.9681
N1942 G1 X80.34148 Y43.59992
N1943 G03 X80.63161 Y29.3176 I51.46124 J-6.09872
N1944 G1 X80.63163 Y29.31745
N1945 G03 X85.25817 Y14.71592 I51.16174 J8.17699
N1946 G1 X105.76906 Y15.57127
N1947 G02 Y59.42873 I56.03714 J21.92873
N1948 G1 X85.25818 Y60.28408
N1949 G03 X80.34148 Y43.59992 I46.54454 J-22.78288
N1950 G1 X79.55324 Y43.69334
N1951 G03 X79.84782 Y29.19225 I52.24948 J-6.19214
N1952 G1 X79.84783 Y29.19217
N1953 G03 X84.77599 Y13.90137 I51.94554 J8.30227
N1954 G1 X106.92471 Y14.82503
N1955 G02 Y60.17497 I54.88149 J22.67497
N1956 G1 X84.77601 Y61.09863
N1957 G03 X79.55324 Y43.69334 I47.02671 J-23.59743
N1958 G1 X78.76501 Y43.78675
N1959 G03 X79.06403 Y29.0669 I53.03771 J-6.28555
N1960 X84.29931 Y13.08705 I52.72934 J8.42754
N1961 G1 X108.10344 Y14.07974
N1962 G02 Y60.92026 I53.70276 J23.42026
N1963 G1 X84.29932 Y61.91295
N1964 G03 X78.76501 Y43.78675 I47.5034 J-24.41175
N1965 G1 X79.77303 Y43.45675 Z-0.93934 F847.5
N1966 Z-0.33934
N1967 G0 Z1.5875
N1968 X91.31893 Y36.55106
N1969 G1 Z-1.3 F141.2
N1970 Z-1.9 F423.7
N1971 X91.31656 Y36.73871 Z-1.91642
N1972 X91.31428 Y36.99247 Z-1.93862
N1973 X91.31291 Y37.24623 Z-1.96082
N1974 X91.31245 Y37.5 Z-1.98302
N1975 X91.31291 Y37.75377 Z-2.00523
N1976 X91.31428 Y38.00753 Z-2.02743
N1977 X91.31656 Y38.26129 Z-2.04963
N1978 X91.31976 Y38.51503 Z-2.07183
N1979 X91.32387 Y38.76877 Z-2.09403
N1980 X91.32889 Y39.02248 Z-2.11623
N1981 X91.33483 Y39.27618 Z-2.13844
N1982 X91.34168 Y39.52985 Z-2.16064
N1983 X91.34945 Y39.7835 Z-2.18284
N1984 X91.35812 Y40.03712 Z-2.20504
N1985 X91.36771 Y40.29071 Z-2.22724
N1986 X91.37821 Y40.54426 Z-2.24945
N1987 X91.38963 Y40.79777 Z-2.27165
N1988 X91.40196 Y41.05123 Z-2.29385
N1989 X91.4152 Y41.30465 Z-2.31605
N1990 X91.42935 Y41.55803 Z-2.33825
N1991 X91.44442 Y41.81134 Z-2.36045
N1992 X91.46039 Y42.06461 Z-2.38266
N1993 X91.47728 Y42.31781 Z-2.40486
N1994 X91.41787 Y42.3199 Z-2.41006
N1995 X91.35848 Y42.32234 Z-2.41526
N1996 X91.29911 Y42.32513 Z-2.42046
N1997 X91.23975 Y42.32826 Z-2.42566
N1998 X91.18041 Y42.33174 Z-2.43086
N1999 X91.12109 Y42.33556 Z-2.43606
N2000 X91.0618 Y42.33973 Z-2.44126
N2001 X91.00253 Y42.34425 Z-2.44646
N2002 X90.94328 Y42.34911 Z-2.45166
N2003 X90.88407 Y42.35432 Z-2.45686
N2004 X90.82489 Y42.35987 Z-2.46206
N2005 X90.76574 Y42.36577 Z-2.46726
N2006 X90.70663 Y42.37201 Z-2.47246
N2007 X90.64755 Y42.3786 Z-2.47766
N2008 X90.58852 Y42.38554 Z-2.48286
N2009 X90.56593 Y42.19097 Z-2.5
N2010 X90.58852 Y42.38554 F565.
N2011 G03 X90.5888 Y32.6145 I41.2142 J-4.88434
N2012 G02 X91.47728 Y32.68219 I1.2174 J-10.1145
N2013 Y42.31781 I70.32892 J4.81781
N2014 X90.58852 Y42.38554 I0.32892 J10.18219
N2015 G1 X89.80028 Y42.47895
N2016 G03 X89.90614 Y31.69958 I42.00244 J-4.97775
N2017 G02 X92.33323 Y31.87895 I1.90006 J-9.19958
N2018 Y43.12105 I69.47297 J5.62105
N2019 X89.90581 Y43.30049 I-0.52703 J9.37895
N2020 G03 X89.80028 Y42.47895 I41.89691 J-5.79929
N2021 G1 X89.01205 Y42.57236
N2022 G03 X89.25088 Y30.7116 I42.79067 J-5.07116
N2023 G02 X93.20865 Y30.98488 I2.55532 J-8.2116
N2024 Y44.01512 I68.59755 J6.51512
N2025 X89.25051 Y44.28852 I-1.40245 J8.48488
N2026 G03 X89.01205 Y42.57236 I42.55221 J-6.78732
N2027 G1 X88.22382 Y42.66578
N2028 G03 X88.46951 Y30.57108 I43.5789 J-5.16458
N2029 G1 X88.46966 Y30.57017
N2030 G03 X88.63024 Y29.63098 I43.32371 J6.92427
N2031 G02 X94.11257 Y29.95776 I3.17596 J-7.13098
N2032 Y45.04224 I67.69363 J7.54224
N2033 X88.62994 Y45.36916 I-2.30637 J7.45776
N2034 G03 X88.22382 Y42.66578 I43.17278 J-7.86796
N2035 G1 X87.43558 Y42.75919
N2036 G03 X87.68572 Y30.44574 I44.36714 J-5.25799
N2037 G1 X87.68585 Y30.4449
N2038 G03 X88.05635 Y28.42569 I44.10752 J7.04954
N2039 G02 X95.0638 Y28.70993 I3.74985 J-5.92569
N2040 Y46.29007 I66.7424 J8.79007
N2041 X88.05612 Y46.57446 I-3.2576 J6.20993
N2042 G03 X87.43558 Y42.75919 I43.7466 J-9.07326
N2043 G1 X86.64735 Y42.85261
N2044 G03 X86.90193 Y30.32039 I45.15537 J-5.35141
N2045 G1 X86.90205 Y30.31962
N2046 G03 X87.55173 Y27.03567 I44.89132 J7.17482
N2047 G02 X96.11808 Y26.98113 I4.25447 J-4.53567
N2048 Y48.01887 I65.68812 J10.51887
N2049 X87.55156 Y47.96448 I-4.31188 J4.48113
N2050 G03 X86.64735 Y42.85261 I44.25116 J-10.46328
N2051 G1 X85.85911 Y42.94602
N2052 G03 X86.11814 Y30.19504 I45.94361 J-5.44482
N2053 G1 X86.11825 Y30.19435
N2054 G03 X87.17018 Y25.31744 I45.67512 J7.30009
N2055 G02 X87.2655 Y25.46861 I4.63602 J-2.81744
N2056 X96.94608 Y20.76441 I4.5407 J-2.96861
N2057 G1 X98.2271 Y20.81783
N2058 G02 Y54.18217 I63.5791 J16.68217
N2059 G1 X96.94608 Y54.23559
N2060 G02 X87.42387 Y49.30223 I-5.13988 J-1.73559
N2061 X87.17009 Y49.68272 I4.38233 J3.19777
N2062 G03 X85.85911 Y42.94602 I44.63263 J-12.18152
N2063 G1 X85.07088 Y43.03944
N2064 G03 X85.33435 Y30.06969 I46.73184 J-5.53824
N2065 G1 X85.33445 Y30.06908
N2066 G03 X87.17545 Y22.56767 I46.45892 J7.42536
N2067 G02 X87.92987 Y25.03426 I4.63075 J-0.06767
N2068 X95.6495 Y19.9159 I3.87633 J-2.53426
N2069 G1 X99.2527 Y20.06617
N2070 G02 Y54.93383 I62.5535 J17.43383
N2071 G1 X95.6495 Y55.0841
N2072 G02 X88.06506 Y49.7701 I-3.8433 J-2.5841
N2073 X87.17545 Y52.43248 I3.74114 J2.7299
N2074 G03 X85.07088 Y43.03944 I44.62727 J-14.93128
N2075 G1 X84.28265 Y43.13285
N2076 G03 X84.55056 Y29.94434 I47.52007 J-5.63165
N2077 G1 X84.55064 Y29.94381
N2078 G03 X87.75794 Y18.79236 I47.24273 J7.55063
N2079 G1 X90.46319 Y18.90518
N2080 G02 X88.59423 Y24.59992 I1.34301 J3.59482
N2081 X93.44385 Y19.02948 I3.21197 J-2.09992
N2082 G1 X100.29415 Y19.31516
N2083 G02 Y55.68484 I61.51205 J18.18484
N2084 G1 X93.44385 Y55.97052
N2085 G02 X88.70626 Y50.23798 I-1.63765 J-3.47052
N2086 X90.4632 Y56.09482 I3.09994 J2.26202
N2087 G1 X87.75795 Y56.20764
N2088 G03 X84.28265 Y43.13285 I44.04477 J-18.70644
N2089 G1 X83.49441 Y43.22627
N2090 G03 X83.76677 Y29.81899 I48.30831 J-5.72507
N2091 G1 X83.76684 Y29.81854
N2092 G03 X87.24543 Y17.97655 I48.02653 J7.6759
N2093 G1 X101.35223 Y18.56484
N2094 G02 Y56.43516 I60.45397 J18.93516
N2095 G1 X87.24545 Y57.02345
N2096 G03 X83.49441 Y43.22627 I44.55727 J-19.52225
N2097 G1 X82.70618 Y43.31968
N2098 G03 X82.98298 Y29.69364 I49.09654 J-5.81848
N2099 G1 X82.98304 Y29.69326
N2100 G03 X86.73942 Y17.16101 I48.81033 J7.80118
N2101 G1 X102.4278 Y17.81526
N2102 G02 Y57.18475 I59.3784 J19.68474
N2103 G1 X86.73944 Y57.83899
N2104 G03 X82.70618 Y43.31968 I45.06328 J-20.33779
N2105 G1 X81.91795 Y43.41309
N2106 G03 X82.19919 Y29.56829 I49.88477 J-5.91189
N2107 G1 X82.19924 Y29.56799
N2108 G03 X86.23968 Y16.34573 I49.59413 J7.92645
N2109 G1 X103.52176 Y17.06644
N2110 G02 Y57.93356 I58.28444 J20.43356
N2111 G1 X86.2397 Y58.65427
N2112 G03 X81.91795 Y43.41309 I45.56302 J-21.15307
N2113 G1 X81.12971 Y43.50651
N2114 G03 X81.4154 Y29.44295 I50.67301 J-6.00531
N2115 G1 X81.41544 Y29.44272
N2116 G03 X85.746 Y15.5307 I50.37793 J8.05172
N2117 G1 X104.63515 Y16.31843
N2118 G02 Y58.68157 I57.17105 J21.18157
N2119 G1 X85.74601 Y59.4693
N2120 G03 X81.12971 Y43.50651 I46.05671 J-21.9681
N2121 G1 X80.34148 Y43.59992
N2122 G03 X80.63161 Y29.3176 I51.46124 J-6.09872
N2123 G1 X80.63163 Y29.31745
N2124 G03 X85.25817 Y14.71592 I51.16174 J8.17699
N2125 G1 X105.76906 Y15.57127
N2126 G02 Y59.42873 I56.03714 J21.92873
N2127 G1 X85.25818 Y60.28408
N2128 G03 X80.34148 Y43.59992 I46.54454 J-22.78288
N2129 G1 X79.55324 Y43.69334
N2130 G03 X79.84782 Y29.19225 I52.24948 J-6.19214
N2131 G1 X79.84783 Y29.19217
N2132 G03 X84.77599 Y13.90137 I51.94554 J8.30227
N2133 G1 X106.92471 Y14.82503
N2134 G02 Y60.17497 I54.88149 J22.67497
N2135 G1 X84.77601 Y61.09863
N2136 G03 X79.55324 Y43.69334 I47.02671 J-23.59743
N2137 G1 X78.76501 Y43.78675
N2138 G03 X79.06403 Y29.0669 I53.03771 J-6.28555
N2139 X84.29931 Y13.08705 I52.72934 J8.42754
N2140 G1 X108.10344 Y14.07974
N2141 G02 Y60.92026 I53.70276 J23.42026
N2142 G1 X84.29932 Y61.91295
N2143 G03 X78.76501 Y43.78675 I47.5034 J-24.41175
N2144 G1 X79.77303 Y43.45675 Z-1.43934 F847.5
N2145 Z-0.83934
N2146 G0 Z1.5875
N2147 X22.98421 Y38.6447
N2148 G1 Z0.7 F141.2
N2149 Z0.1 F423.7
N2150 X22.98631 Y38.51503 Z0.08865
N2151 X22.98951 Y38.26128 Z0.06645
N2152 X22.9918 Y38.00753 Z0.04425
N2153 X22.99317 Y37.75377 Z0.02205
N2154 X22.99363 Y37.5 Z-0.00015
N2155 X22.99318 Y37.24623 Z-0.02236
N2156 X22.99181 Y36.99247 Z-0.04456
N2157 X22.98953 Y36.73871 Z-0.06676
N2158 X22.98634 Y36.48497 Z-0.08896
N2159 X22.98223 Y36.23123 Z-0.11116
N2160 X22.97721 Y35.97752 Z-0.13336
N2161 X22.97128 Y35.72382 Z-0.15557
N2162 X22.96443 Y35.47015 Z-0.17777
N2163 X22.95667 Y35.2165 Z-0.19997
N2164 X22.948 Y34.96288 Z-0.22217
N2165 X22.93841 Y34.70929 Z-0.24437
N2166 X22.92791 Y34.45575 Z-0.26657
N2167 X22.9165 Y34.20224 Z-0.28878
N2168 X22.90417 Y33.94877 Z-0.31098
N2169 X22.89094 Y33.69535 Z-0.33318
N2170 X22.87679 Y33.44198 Z-0.35538
N2171 X22.86173 Y33.18866 Z-0.37758
N2172 X22.84575 Y32.93539 Z-0.39978
N2173 X22.82887 Y32.68219 Z-0.42199
N2174 X22.88828 Y32.6801 Z-0.42719
N2175 X22.94768 Y32.67766 Z-0.43239
N2176 X23.00706 Y32.67487 Z-0.43759
N2177 X23.06642 Y32.67174 Z-0.44279
N2178 X23.12577 Y32.66826 Z-0.44799
N2179 X23.18509 Y32.66444 Z-0.45319
N2180 X23.24439 Y32.66027 Z-0.45839
N2181 X23.30367 Y32.65575 Z-0.46359
N2182 X23.36292 Y32.65089 Z-0.46879
N2183 X23.42214 Y32.64568 Z-0.474
N2184 X23.48132 Y32.64012 Z-0.4792
N2185 X23.54048 Y32.63423 Z-0.4844
N2186 X23.5996 Y32.62798 Z-0.4896
N2187 X23.65868 Y32.62139 Z-0.4948
N2188 X23.71772 Y32.61446 Z-0.5
N2189 G03 Y42.38554 I-41.21772 J4.88554 F565.
N2190 G02 X22.82873 Y42.3178 I-1.21772 J10.11446
N2191 X22.82887 Y32.68219 I-70.32547 J-4.81882
N2192 X23.71772 Y32.61446 I-0.32887 J-10.18219
N2193 G1 X24.50595 Y32.52103
N2194 G03 X24.40041 Y43.30049 I-42.00595 J4.97897
N2195 G02 X21.97276 Y43.12106 I-1.90041 J9.19951
N2196 X21.97293 Y31.87895 I-69.4695 J-5.62208
N2197 X24.40041 Y31.69951 I0.52707 J-9.37895
N2198 G03 X24.50595 Y32.52103 I-41.90041 J5.80049
N2199 G1 X25.29418 Y32.4276
N2200 G03 X25.0557 Y44.28852 I-42.79418 J5.0724
N2201 G02 X21.09732 Y44.01516 I-2.5557 J8.21148
N2202 X21.09752 Y30.98487 I-68.59406 J-6.51618
N2203 X25.0557 Y30.71148 I1.40248 J-8.48487
N2204 G03 X25.29418 Y32.4276 I-42.5557 J6.78852
N2205 G1 X26.08242 Y32.33417
N2206 G03 X25.67626 Y45.36916 I-43.58242 J5.16583
N2207 G02 X20.19337 Y45.04232 I-3.17626 J7.13084
N2208 X20.1936 Y29.95775 I-67.69011 J-7.54334
N2209 X25.67626 Y29.63084 I2.3064 J-7.45775
N2210 G03 X26.08242 Y32.33417 I-43.17626 J7.86916
N2211 G1 X26.87065 Y32.24074
N2212 G03 X26.25007 Y46.57445 I-44.37065 J5.25926
N2213 G02 X19.2421 Y46.29023 I-3.75007 J5.92555
N2214 X19.24239 Y28.70992 I-66.73884 J-8.79125
N2215 X26.25007 Y28.42555 I3.25761 J-6.20992
N2216 G03 X26.87065 Y32.24074 I-43.75007 J9.07445
N2217 G1 X27.65888 Y32.14731
N2218 G03 X26.75461 Y47.96446 I-45.15888 J5.35269
N2219 G02 X18.18777 Y48.01921 I-4.25461 J4.53554
N2220 X18.24819 Y47.63461 I-65.67522 J-10.51419
N2221 X18.18812 Y26.98113 I-65.74493 J-10.13563
N2222 X26.75461 Y27.03554 I4.31188 J-4.48113
N2223 G03 X27.65888 Y32.14731 I-44.25461 J10.46446
N2224 G1 X28.44711 Y32.05388
N2225 G03 X27.13608 Y49.68267 I-45.94711 J5.44612
N2226 G02 X17.0804 Y52.25815 I-4.63608 J2.81733
N2227 X17.36012 Y54.23559 I5.4196 J0.24185
N2228 G1 X16.07904 Y54.18216
N2229 G02 X17.4637 Y47.51369 I-63.56649 J-16.67714
N2230 X16.07914 Y20.81783 I-64.96044 J-10.01471
N2231 G1 X17.36012 Y20.76441
N2232 G02 X26.88234 Y25.69777 I5.13988 J1.73559
N2233 X27.13608 Y25.31733 I-4.38234 J-3.19777
N2234 G03 X28.44711 Y32.05388 I-44.63608 J12.18267
N2235 G1 X29.23535 Y31.96046
N2236 G03 X27.13076 Y52.43234 I-46.73535 J5.53954
N2237 G02 X17.87336 Y52.29354 I-4.63076 J0.06766
N2238 X18.65671 Y55.0841 I4.62664 J0.20646
N2239 G1 X15.05346 Y54.93383
N2240 G02 X16.67921 Y47.39278 I-62.54091 J-17.42881
N2241 X15.05354 Y20.06616 I-64.17595 J-9.8938
N2242 G1 X18.65671 Y19.9159
N2243 G02 X26.24114 Y25.22989 I3.84329 J2.5841
N2244 X27.13076 Y22.56766 I-3.74114 J-2.72989
N2245 G03 X29.23535 Y31.96046 I-44.63076 J14.93234
N2246 G1 X30.02358 Y31.86703
N2247 G03 X26.54821 Y56.20764 I-47.52358 J5.63297
N2248 G1 X23.84301 Y56.09482
N2249 G02 X18.66632 Y52.32892 I-1.34301 J-3.59482
N2250 X20.86235 Y55.97052 I3.83368 J0.17108
N2251 G1 X14.01203 Y55.68484
N2252 G02 X15.89473 Y47.27187 I-61.49948 J-18.17982
N2253 X14.01209 Y19.31516 I-63.39147 J-9.77289
N2254 G1 X20.86235 Y19.02948
N2255 G02 X25.59995 Y24.76202 I1.63765 J3.47052
N2256 X23.84301 Y18.90518 I-3.09995 J-2.26202
N2257 G1 X26.54821 Y18.79236
N2258 G03 X30.02358 Y31.86703 I-44.04821 J18.70764
N2259 G1 X30.81181 Y31.7736
N2260 G03 X27.06072 Y57.02345 I-48.31181 J5.7264
N2261 G1 X12.95396 Y56.43516
N2262 G02 X15.11024 Y47.15095 I-60.44141 J-18.93014
N2263 X12.95401 Y18.56484 I-62.60698 J-9.65197
N2264 G1 X27.06072 Y17.97655
N2265 G03 X30.81181 Y31.7736 I-44.56072 J19.52345
N2266 G1 X31.60004 Y31.68017
N2267 G03 X27.56673 Y57.83899 I-49.10004 J5.81983
N2268 G1 X11.87842 Y57.18475
N2269 G02 X14.32575 Y47.03004 I-59.36587 J-19.67973
N2270 X11.87845 Y17.81525 I-61.82249 J-9.53106
N2271 G1 X27.56673 Y17.16101
N2272 G03 X31.60004 Y31.68017 I-45.06673 J20.33899
N2273 G1 X32.38827 Y31.58674
N2274 G03 X28.06647 Y58.65427 I-49.88827 J5.91326
N2275 G1 X10.78446 Y57.93356
N2276 G02 X13.54127 Y46.90912 I-58.27191 J-20.42854
N2277 X10.78448 Y17.06643 I-61.03801 J-9.41014
N2278 G1 X28.06647 Y16.34573
N2279 G03 X32.38827 Y31.58674 I-45.56647 J21.15427
N2280 G1 X33.17651 Y31.49331
N2281 G03 X28.56016 Y59.4693 I-50.67651 J6.00669
N2282 G1 X9.67109 Y58.68157
N2283 G02 X12.75678 Y46.78821 I-57.15854 J-21.17655
N2284 X9.67109 Y16.31843 I-60.25352 J-9.28923
N2285 G1 X28.56016 Y15.5307
N2286 G03 X33.17651 Y31.49331 I-46.06016 J21.9693
N2287 G1 X33.96474 Y31.39988
N2288 G03 X29.048 Y60.28408 I-51.46474 J6.10012
N2289 G1 X8.53718 Y59.42873
N2290 G02 X11.97229 Y46.6673 I-56.02463 J-21.92371
N2291 X8.53718 Y15.57127 I-59.46903 J-9.16832
N2292 G1 X29.048 Y14.71592
N2293 G03 X33.96474 Y31.39988 I-46.548 J22.78408
N2294 G1 X34.75297 Y31.30645
N2295 G03 X29.53018 Y61.09863 I-52.25297 J6.19355
N2296 G1 X7.38153 Y60.17497
N2297 G02 X11.18781 Y46.54638 I-54.86898 J-22.66995
N2298 X7.38152 Y14.82503 I-58.68455 J-9.0474
N2299 G1 X29.53018 Y13.90137
N2300 G03 X34.75297 Y31.30645 I-47.03018 J23.59863
N2301 G1 X35.5412 Y31.21302
N2302 G03 X30.00688 Y61.91295 I-53.0412 J6.28698
N2303 G1 X6.2028 Y60.92026
N2304 G02 X10.40332 Y46.42547 I-53.69025 J-23.41524
N2305 X6.20278 Y14.07974 I-57.90006 J-8.92649
N2306 G1 X30.00688 Y13.08705
N2307 G03 X35.5412 Y31.21302 I-47.50688 J24.41295
N2308 G1 X34.51028 Y31.46241 Z0.56066 F847.5
N2309 Z1.16066
N2310 G0 Z1.5875
N2311 X22.98421 Y38.6447
N2312 G1 Z0.2 F141.2
N2313 Z-0.4 F423.7
N2314 X22.98631 Y38.51503 Z-0.41135
N2315 X22.98951 Y38.26128 Z-0.43355
N2316 X22.9918 Y38.00753 Z-0.45575
N2317 X22.99317 Y37.75377 Z-0.47795
N2318 X22.99363 Y37.5 Z-0.50015
N2319 X22.99318 Y37.24623 Z-0.52236
N2320 X22.99181 Y36.99247 Z-0.54456
N2321 X22.98953 Y36.73871 Z-0.56676
N2322 X22.98634 Y36.48497 Z-0.58896
N2323 X22.98223 Y36.23123 Z-0.61116
N2324 X22.97721 Y35.97752 Z-0.63336
N2325 X22.97128 Y35.72382 Z-0.65557
N2326 X22.96443 Y35.47015 Z-0.67777
N2327 X22.95667 Y35.2165 Z-0.69997
N2328 X22.948 Y34.96288 Z-0.72217
N2329 X22.93841 Y34.70929 Z-0.74437
N2330 X22.92791 Y34.45575 Z-0.76657
N2331 X22.9165 Y34.20224 Z-0.78878
N2332 X22.90417 Y33.94877 Z-0.81098
N2333 X22.89094 Y33.69535 Z-0.83318
N2334 X22.87679 Y33.44198 Z-0.85538
N2335 X22.86173 Y33.18866 Z-0.87758
N2336 X22.84575 Y32.93539 Z-0.89978
N2337 X22.82887 Y32.68219 Z-0.92199
N2338 X22.88828 Y32.6801 Z-0.92719
N2339 X22.94768 Y32.67766 Z-0.93239
N2340 X23.00706 Y32.67487 Z-0.93759
N2341 X23.06642 Y32.67174 Z-0.94279
N2342 X23.12577 Y32.66826 Z-0.94799
N2343 X23.18509 Y32.66444 Z-0.95319
N2344 X23.24439 Y32.66027 Z-0.95839
N2345 X23.30367 Y32.65575 Z-0.96359
N2346 X23.36292 Y32.65089 Z-0.96879
N2347 X23.42214 Y32.64568 Z-0.974
N2348 X23.48132 Y32.64012 Z-0.9792
N2349 X23.54048 Y32.63423 Z-0.9844
N2350 X23.5996 Y32.62798 Z-0.9896
N2351 X23.65868 Y32.62139 Z-0.9948
N2352 X23.71772 Y32.61446 Z-1.
N2353 G03 Y42.38554 I-41.21772 J4.88554 F565.
N2354 G02 X22.82873 Y42.3178 I-1.21772 J10.11446
N2355 X22.82887 Y32.68219 I-70.32547 J-4.81882
N2356 X23.71772 Y32.61446 I-0.32887 J-10.18219
N2357 G1 X23.62284 Y31.8264
N2358 G02 X24.40041 Y31.69951 I-1.12284 J-9.3264
N2359 G03 Y43.30049 I-41.90041 J5.80049
N2360 G02 X21.97276 Y43.12106 I-1.90041 J9.19951
N2361 X21.97293 Y31.87895 I-69.4695 J-5.62208
N2362 X23.62284 Y31.8264 I0.52707 J-9.37895
N2363 G1 X23.52796 Y31.03834
N2364 G02 X25.0557 Y30.71148 I-1.02796 J-8.53834
N2365 G03 Y44.28852 I-42.5557 J6.78852
N2366 G02 X21.09732 Y44.01516 I-2.5557 J8.21148
N2367 X21.09752 Y30.98487 I-68.59406 J-6.51618
N2368 X23.52796 Y31.03834 I1.40248 J-8.48487
N2369 G1 X23.43309 Y30.25028
N2370 G02 X25.67626 Y29.63084 I-0.93309 J-7.75028
N2371 G03 Y45.36916 I-43.17626 J7.86916
N2372 G02 X20.19337 Y45.04232 I-3.17626 J7.13084
N2373 X20.1936 Y29.95775 I-67.69011 J-7.54334
N2374 X23.43309 Y30.25028 I2.3064 J-7.45775
N2375 G1 X23.33821 Y29.46222
N2376 G02 X26.25007 Y28.42555 I-0.83821 J-6.96222
N2377 G03 Y46.57445 I-43.75007 J9.07445
N2378 G02 X19.2421 Y46.29023 I-3.75007 J5.92555
N2379 X19.24239 Y28.70992 I-66.73884 J-8.79125
N2380 X23.33821 Y29.46222 I3.25761 J-6.20992
N2381 G1 X23.24333 Y28.67416
N2382 G02 X26.75461 Y27.03554 I-0.74333 J-6.17416
N2383 G03 Y47.96446 I-44.25461 J10.46446
N2384 G02 X18.18777 Y48.01921 I-4.25461 J4.53554
N2385 X18.24819 Y47.63461 I-65.67522 J-10.51419
N2386 X18.18812 Y26.98113 I-65.74493 J-10.13563
N2387 X23.24333 Y28.67416 I4.31188 J-4.48113
N2388 G1 X23.14845 Y27.8861
N2389 G02 X26.88234 Y25.69777 I-0.64845 J-5.3861
N2390 X27.13608 Y25.31733 I-4.38234 J-3.19777
N2391 G03 Y49.68267 I-44.63608 J12.18267
N2392 G02 X17.0804 Y52.25815 I-4.63608 J2.81733
N2393 X17.36012 Y54.23559 I5.4196 J0.24185
N2394 G1 X16.07904 Y54.18216
N2395 G02 X17.4637 Y47.51369 I-63.56649 J-16.67714
N2396 X16.07914 Y20.81783 I-64.96044 J-10.01471
N2397 G1 X17.36012 Y20.76441
N2398 G02 X23.14845 Y27.8861 I5.13988 J1.73559
N2399 G1 X23.05358 Y27.09804
N2400 G02 X26.24114 Y25.22989 I-0.55358 J-4.59804
N2401 X27.13076 Y22.56766 I-3.74114 J-2.72989
N2402 G03 Y52.43234 I-44.63076 J14.93234
N2403 G02 X17.87336 Y52.29354 I-4.63076 J0.06766
N2404 X18.65671 Y55.0841 I4.62664 J0.20646
N2405 G1 X15.05346 Y54.93383
N2406 G02 X16.67921 Y47.39278 I-62.54091 J-17.42881
N2407 X15.05354 Y20.06616 I-64.17595 J-9.8938
N2408 G1 X18.65671 Y19.9159
N2409 G02 X23.05358 Y27.09804 I3.84329 J2.5841
N2410 G1 X22.9587 Y26.30999
N2411 G02 X25.59995 Y24.76202 I-0.4587 J-3.80999
N2412 X23.84301 Y18.90518 I-3.09995 J-2.26202
N2413 G1 X26.54821 Y18.79236
N2414 G03 Y56.20764 I-44.04821 J18.70764
N2415 G1 X23.84301 Y56.09482
N2416 G02 X18.66632 Y52.32892 I-1.34301 J-3.59482
N2417 X20.86235 Y55.97052 I3.83368 J0.17108
N2418 G1 X14.01203 Y55.68484
N2419 G02 X15.89473 Y47.27187 I-61.49948 J-18.17982
N2420 X14.01209 Y19.31516 I-63.39147 J-9.77289
N2421 G1 X20.86235 Y19.02948
N2422 G02 X22.9587 Y26.30999 I1.63765 J3.47052
N2423 G1 X21.98266 Y26.72513 Z0.06066 F847.5
N2424 Z0.66066
N2425 G0 Z1.5875
N2426 X27.10229 Y18.07201
N2427 G1 Z0.2 F141.2
N2428 Z-0.4 F423.7
N2429 X27.14496 Y18.16998 Z-0.40935
N2430 X27.22837 Y18.36376 Z-0.42781
N2431 X27.31093 Y18.55791 Z-0.44627
N2432 X27.39266 Y18.75241 Z-0.46472
N2433 X27.47353 Y18.94727 Z-0.48318
N2434 X27.55357 Y19.14248 Z-0.50164
N2435 X27.63275 Y19.33802 Z-0.5201
N2436 X27.71109 Y19.53392 Z-0.53855
N2437 X27.78857 Y19.73015 Z-0.55701
N2438 X27.86521 Y19.92671 Z-0.57547
N2439 X27.94099 Y20.1236 Z-0.59393
N2440 X28.01592 Y20.32082 Z-0.61238
N2441 X28.08999 Y20.51837 Z-0.63084
N2442 X28.1632 Y20.71623 Z-0.6493
N2443 X28.23555 Y20.91441 Z-0.66776
N2444 X28.30705 Y21.1129 Z-0.68622
N2445 X28.37768 Y21.3117 Z-0.70467
N2446 X28.44745 Y21.5108 Z-0.72313
N2447 X28.51636 Y21.71021 Z-0.74159
N2448 X28.5844 Y21.90991 Z-0.76005
N2449 X28.65157 Y22.1099 Z-0.77851
N2450 X28.71788 Y22.31019 Z-0.79696
N2451 X28.78332 Y22.51076 Z-0.81542
N2452 X28.84788 Y22.71161 Z-0.83388
N2453 X28.91158 Y22.91274 Z-0.85234
N2454 X28.9744 Y23.11414 Z-0.87079
N2455 X29.03635 Y23.31582 Z-0.88925
N2456 X29.09742 Y23.51776 Z-0.90771
N2457 X29.15762 Y23.71996 Z-0.92617
N2458 X29.21694 Y23.92243 Z-0.94463
N2459 X29.27538 Y24.12514 Z-0.96308
N2460 X29.33294 Y24.32811 Z-0.98154
N2461 X29.38962 Y24.53133 Z-1.
N2462 G03 X27.06072 Y57.02345 I-46.88962 J12.96867 F565.
N2463 G1 X12.95396 Y56.43516
N2464 G02 X15.11024 Y47.15095 I-60.44141 J-18.93014
N2465 X12.95401 Y18.56484 I-62.60698 J-9.65197
N2466 G1 X27.06072 Y17.97655
N2467 G03 X29.38962 Y24.53133 I-44.56072 J19.52345
N2468 G1 X30.15465 Y24.31974
N2469 G03 X27.56673 Y57.83899 I-47.65465 J13.18026
N2470 G1 X11.87842 Y57.18475
N2471 G02 X14.32575 Y47.03004 I-59.36587 J-19.67973
N2472 X11.87845 Y17.81525 I-61.82249 J-9.53106
N2473 G1 X27.56673 Y17.16101
N2474 G03 X30.15465 Y24.31974 I-45.06673 J20.33899
N2475 G1 X30.91967 Y24.10815
N2476 G03 X28.06647 Y58.65427 I-48.41967 J13.39185
N2477 G1 X10.78446 Y57.93356
N2478 G02 X13.54127 Y46.90912 I-58.27191 J-20.42854
N2479 X10.78448 Y17.06643 I-61.03801 J-9.41014
N2480 G1 X28.06647 Y16.34573
N2481 G03 X30.91967 Y24.10815 I-45.56647 J21.15427
N2482 G1 X31.6847 Y23.89656
N2483 G03 X28.56016 Y59.4693 I-49.1847 J13.60344
N2484 G1 X9.67109 Y58.68157
N2485 G02 X12.75678 Y46.78821 I-57.15854 J-21.17655
N2486 X9.67109 Y16.31843 I-60.25352 J-9.28923
N2487 G1 X28.56016 Y15.5307
N2488 G03 X31.6847 Y23.89656 I-46.06016 J21.9693
N2489 G1 X32.44973 Y23.68497
N2490 G03 X29.048 Y60.28408 I-49.94973 J13.81503
N2491 G1 X8.53718 Y59.42873
N2492 G02 X11.97229 Y46.6673 I-56.02463 J-21.92371
N2493 X8.53718 Y15.57127 I-59.46903 J-9.16832
N2494 G1 X29.048 Y14.71592
N2495 G03 X32.44973 Y23.68497 I-46.548 J22.78408
N2496 G1 X33.21476 Y23.47338
N2497 G03 X29.53018 Y61.09863 I-50.71476 J14.02662
N2498 G1 X7.38153 Y60.17497
N2499 G02 X11.18781 Y46.54638 I-54.86898 J-22.66995
N2500 X7.38152 Y14.82503 I-58.68455 J-9.0474
N2501 G1 X29.53018 Y13.90137
N2502 G03 X33.21476 Y23.47338 I-47.03018 J23.59863
N2503 G1 X33.97979 Y23.26179
N2504 G03 X30.00688 Y61.91295 I-51.47979 J14.23821
N2505 G1 X6.2028 Y60.92026
N2506 G02 X10.40332 Y46.42547 I-53.69025 J-23.41524
N2507 X6.20278 Y14.07974 I-57.90006 J-8.92649
N2508 G1 X30.00688 Y13.08705
N2509 G03 X33.97979 Y23.26179 I-47.50688 J24.41295
N2510 G1 X32.94886 Y23.51117 Z0.06066 F847.5
N2511 Z0.66066
N2512 G0 Z1.5875
N2513 X22.98421 Y38.6447
N2514 G1 Z-0.3 F141.2
N2515 Z-0.9 F423.7
N2516 X22.98631 Y38.51503 Z-0.91135
N2517 X22.98951 Y38.26128 Z-0.93355
N2518 X22.9918 Y38.00753 Z-0.95575
N2519 X22.99317 Y37.75377 Z-0.97795
N2520 X22.99363 Y37.5 Z-1.00015
N2521 X22.99318 Y37.24623 Z-1.02236
N2522 X22.99181 Y36.99247 Z-1.04456
N2523 X22.98953 Y36.73871 Z-1.06676
N2524 X22.98634 Y36.48497 Z-1.08896
N2525 X22.98223 Y36.23123 Z-1.11116
N2526 X22.97721 Y35.97752 Z-1.13336
N2527 X22.97128 Y35.72382 Z-1.15557
N2528 X22.96443 Y35.47015 Z-1.17777
N2529 X22.95667 Y35.2165 Z-1.19997
N2530 X22.948 Y34.96288 Z-1.22217
N2531 X22.93841 Y34.70929 Z-1.24437
N2532 X22.92791 Y34.45575 Z-1.26657
N2533 X22.9165 Y34.20224 Z-1.28878
N2534 X22.90417 Y33.94877 Z-1.31098
N2535 X22.89094 Y33.69535 Z-1.33318
N2536 X22.87679 Y33.44198 Z-1.35538
N2537 X22.86173 Y33.18866 Z-1.37758
N2538 X22.84575 Y32.93539 Z-1.39978
N2539 X22.82887 Y32.68219 Z-1.42199
N2540 X22.88828 Y32.6801 Z-1.42719
N2541 X22.94768 Y32.67766 Z-1.43239
N2542 X23.00706 Y32.67487 Z-1.43759
N2543 X23.06642 Y32.67174 Z-1.44279
N2544 X23.12577 Y32.66826 Z-1.44799
N2545 X23.18509 Y32.66444 Z-1.45319
N2546 X23.24439 Y32.66027 Z-1.45839
N2547 X23.30367 Y32.65575 Z-1.46359
N2548 X23.36292 Y32.65089 Z-1.46879
N2549 X23.42214 Y32.64568 Z-1.474
N2550 X23.48132 Y32.64012 Z-1.4792
N2551 X23.54048 Y32.63423 Z-1.4844
N2552 X23.5996 Y32.62798 Z-1.4896
N2553 X23.65868 Y32.62139 Z-1.4948
N2554 X23.71772 Y32.61446 Z-1.5
N2555 G03 Y42.38554 I-41.21772 J4.88554 F565.
N2556 G02 X22.82873 Y42.3178 I-1.21772 J10.11446
N2557 X22.82887 Y32.68219 I-70.32547 J-4.81882
N2558 X23.71772 Y32.61446 I-0.32887 J-10.18219
N2559 G1 X24.50595 Y32.52103
N2560 G03 X24.40041 Y43.30049 I-42.00595 J4.97897
N2561 G02 X21.97276 Y43.12106 I-1.90041 J9.19951
N2562 X21.97293 Y31.87895 I-69.4695 J-5.62208
N2563 X24.40041 Y31.69951 I0.52707 J-9.37895
N2564 G03 X24.50595 Y32.52103 I-41.90041 J5.80049
N2565 G1 X25.29418 Y32.4276
N2566 G03 X25.0557 Y44.28852 I-42.79418 J5.0724
N2567 G02 X21.09732 Y44.01516 I-2.5557 J8.21148
N2568 X21.09752 Y30.98487 I-68.59406 J-6.51618
N2569 X25.0557 Y30.71148 I1.40248 J-8.48487
N2570 G03 X25.29418 Y32.4276 I-42.5557 J6.78852
N2571 G1 X26.08242 Y32.33417
N2572 G03 X25.67626 Y45.36916 I-43.58242 J5.16583
N2573 G02 X20.19337 Y45.04232 I-3.17626 J7.13084
N2574 X20.1936 Y29.95775 I-67.69011 J-7.54334
N2575 X25.67626 Y29.63084 I2.3064 J-7.45775
N2576 G03 X26.08242 Y32.33417 I-43.17626 J7.86916
N2577 G1 X26.87065 Y32.24074
N2578 G03 X26.25007 Y46.57445 I-44.37065 J5.25926
N2579 G02 X19.2421 Y46.29023 I-3.75007 J5.92555
N2580 X19.24239 Y28.70992 I-66.73884 J-8.79125
N2581 X26.25007 Y28.42555 I3.25761 J-6.20992
N2582 G03 X26.87065 Y32.24074 I-43.75007 J9.07445
N2583 G1 X27.65888 Y32.14731
N2584 G03 X26.75461 Y47.96446 I-45.15888 J5.35269
N2585 G02 X18.18777 Y48.01921 I-4.25461 J4.53554
N2586 X18.24819 Y47.63461 I-65.67522 J-10.51419
N2587 X18.18812 Y26.98113 I-65.74493 J-10.13563
N2588 X26.75461 Y27.03554 I4.31188 J-4.48113
N2589 G03 X27.65888 Y32.14731 I-44.25461 J10.46446
N2590 G1 X28.44711 Y32.05388
N2591 G03 X27.13608 Y49.68267 I-45.94711 J5.44612
N2592 G02 X17.0804 Y52.25815 I-4.63608 J2.81733
N2593 X17.36012 Y54.23559 I5.4196 J0.24185
N2594 G1 X16.07904 Y54.18216
N2595 G02 X17.4637 Y47.51369 I-63.56649 J-16.67714
N2596 X16.07914 Y20.81783 I-64.96044 J-10.01471
N2597 G1 X17.36012 Y20.76441
N2598 G02 X26.88234 Y25.69777 I5.13988 J1.73559
N2599 X27.13608 Y25.31733 I-4.38234 J-3.19777
N2600 G03 X28.44711 Y32.05388 I-44.63608 J12.18267
N2601 G1 X29.23535 Y31.96046
N2602 G03 X27.13076 Y52.43234 I-46.73535 J5.53954
N2603 G02 X17.87336 Y52.29354 I-4.63076 J0.06766
N2604 X18.65671 Y55.0841 I4.62664 J0.20646
N2605 G1 X15.05346 Y54.93383
N2606 G02 X16.67921 Y47.39278 I-62.54091 J-17.42881
N2607 X15.05354 Y20.06616 I-64.17595 J-9.8938
N2608 G1 X18.65671 Y19.9159
N2609 G02 X26.24114 Y25.22989 I3.84329 J2.5841
N2610 X27.13076 Y22.56766 I-3.74114 J-2.72989
N2611 G03 X29.23535 Y31.96046 I-44.63076 J14.93234
N2612 G1 X30.02358 Y31.86703
N2613 G03 X26.54821 Y56.20764 I-47.52358 J5.63297
N2614 G1 X23.84301 Y56.09482
N2615 G02 X18.66632 Y52.32892 I-1.34301 J-3.59482
N2616 X20.86235 Y55.97052 I3.83368 J0.17108
N2617 G1 X14.01203 Y55.68484
N2618 G02 X15.89473 Y47.27187 I-61.49948 J-18.17982
N2619 X14.01209 Y19.31516 I-63.39147 J-9.77289
N2620 G1 X20.86235 Y19.02948
N2621 G02 X25.59995 Y24.76202 I1.63765 J3.47052
N2622 X23.84301 Y18.90518 I-3.09995 J-2.26202
N2623 G1 X26.54821 Y18.79236
N2624 G03 X30.02358 Y31.86703 I-44.04821 J18.70764
N2625 G1 X30.81181 Y31.7736
N2626 G03 X27.06072 Y57.02345 I-48.31181 J5.7264
N2627 G1 X12.95396 Y56.43516
N2628 G02 X15.11024 Y47.15095 I-60.44141 J-18.93014
N2629 X12.95401 Y18.56484 I-62.60698 J-9.65197
N2630 G1 X27.06072 Y17.97655
N2631 G03 X30.81181 Y31.7736 I-44.56072 J19.52345
N2632 G1 X31.60004 Y31.68017
N2633 G03 X27.56673 Y57.83899 I-49.10004 J5.81983
N2634 G1 X11.87842 Y57.18475
N2635 G02 X14.32575 Y47.03004 I-59.36587 J-19.67973
N2636 X11.87845 Y17.81525 I-61.82249 J-9.53106
N2637 G1 X27.56673 Y17.16101
N2638 G03 X31.60004 Y31.68017 I-45.06673 J20.33899
N2639 G1 X32.38827 Y31.58674
N2640 G03 X28.06647 Y58.65427 I-49.88827 J5.91326
N2641 G1 X10.78446 Y57.93356
N2642 G02 X13.54127 Y46.90912 I-58.27191 J-20.42854
N2643 X10.78448 Y17.06643 I-61.03801 J-9.41014
N2644 G1 X28.06647 Y16.34573
N2645 G03 X32.38827 Y31.58674 I-45.56647 J21.15427
N2646 G1 X33.17651 Y31.49331
N2647 G03 X28.56016 Y59.4693 I-50.67651 J6.00669
N2648 G1 X9.67109 Y58.68157
N2649 G02 X12.75678 Y46.78821 I-57.15854 J-21.17655
N2650 X9.67109 Y16.31843 I-60.25352 J-9.28923
N2651 G1 X28.56016 Y15.5307
N2652 G03 X33.17651 Y31.49331 I-46.06016 J21.9693
N2653 G1 X33.96474 Y31.39988
N2654 G03 X29.048 Y60.28408 I-51.46474 J6.10012
N2655 G1 X8.53718 Y59.42873
N2656 G02 X11.97229 Y46.6673 I-56.02463 J-21.92371
N2657 X8.53718 Y15.57127 I-59.46903 J-9.16832
N2658 G1 X29.048 Y14.71592
N2659 G03 X33.96474 Y31.39988 I-46.548 J22.78408
N2660 G1 X34.75297 Y31.30645
N2661 G03 X29.53018 Y61.09863 I-52.25297 J6.19355
N2662 G1 X7.38153 Y60.17497
N2663 G02 X11.18781 Y46.54638 I-54.86898 J-22.66995
N2664 X7.38152 Y14.82503 I-58.68455 J-9.0474
N2665 G1 X29.53018 Y13.90137
N2666 G03 X34.75297 Y31.30645 I-47.03018 J23.59863
N2667 G1 X35.5412 Y31.21302
N2668 G03 X30.00688 Y61.91295 I-53.0412 J6.28698
N2669 G1 X6.2028 Y60.92026
N2670 G02 X10.40332 Y46.42547 I-53.69025 J-23.41524
N2671 X6.20278 Y14.07974 I-57.90006 J-8.92649
N2672 G1 X30.00688 Y13.08705
N2673 G03 X35.5412 Y31.21302 I-47.50688 J24.41295
N2674 G1 X34.51028 Y31.46241 Z-0.43934 F847.5
N2675 Z0.16066
N2676 G0 Z1.5875
N2677 X22.98421 Y38.6447
N2678 G1 Z-0.8 F141.2
N2679 Z-1.4 F423.7
N2680 X22.98631 Y38.51503 Z-1.41135
N2681 X22.98951 Y38.26128 Z-1.43355
N2682 X22.9918 Y38.00753 Z-1.45575
N2683 X22.99317 Y37.75377 Z-1.47795
N2684 X22.99363 Y37.5 Z-1.50015
N2685 X22.99318 Y37.24623 Z-1.52236
N2686 X22.99181 Y36.99247 Z-1.54456
N2687 X22.98953 Y36.73871 Z-1.56676
N2688 X22.98634 Y36.48497 Z-1.58896
N2689 X22.98223 Y36.23123 Z-1.61116
N2690 X22.97721 Y35.97752 Z-1.63336
N2691 X22.97128 Y35.72382 Z-1.65557
N2692 X22.96443 Y35.47015 Z-1.67777
N2693 X22.95667 Y35.2165 Z-1.69997
N2694 X22.948 Y34.96288 Z-1.72217
N2695 X22.93841 Y34.70929 Z-1.74437
N2696 X22.92791 Y34.45575 Z-1.76657
N2697 X22.9165 Y34.20224 Z-1.78878
N2698 X22.90417 Y33.94877 Z-1.81098
N2699 X22.89094 Y33.69535 Z-1.83318
N2700 X22.87679 Y33.44198 Z-1.85538
N2701 X22.86173 Y33.18866 Z-1.87758
N2702 X22.84575 Y32.93539 Z-1.89978
N2703 X22.82887 Y32.68219 Z-1.92199
N2704 X22.88828 Y32.6801 Z-1.92719
N2705 X22.94768 Y32.67766 Z-1.93239
N2706 X23.00706 Y32.67487 Z-1.93759
N2707 X23.06642 Y32.67174 Z-1.94279
N2708 X23.12577 Y32.66826 Z-1.94799
N2709 X23.18509 Y32.66444 Z-1.95319
N2710 X23.24439 Y32.66027 Z-1.95839
N2711 X23.30367 Y32.65575 Z-1.96359
N2712 X23.36292 Y32.65089 Z-1.96879
N2713 X23.42214 Y32.64568 Z-1.97399
N2714 X23.48132 Y32.64012 Z-1.9792
N2715 X23.54048 Y32.63423 Z-1.9844
N2716 X23.5996 Y32.62798 Z-1.9896
N2717 X23.65868 Y32.62139 Z-1.9948
N2718 X23.71772 Y32.61446 Z-2.
N2719 G03 Y42.38554 I-41.21772 J4.88554 F565.
N2720 G02 X22.82873 Y42.3178 I-1.21772 J10.11446
N2721 X22.82887 Y32.68219 I-70.32547 J-4.81882
N2722 X23.71772 Y32.61446 I-0.32887 J-10.18219
N2723 G1 X24.50595 Y32.52103
N2724 G03 X24.40041 Y43.30049 I-42.00595 J4.97897
N2725 G02 X21.97276 Y43.12106 I-1.90041 J9.19951
N2726 X21.97293 Y31.87895 I-69.4695 J-5.62208
N2727 X24.40041 Y31.69951 I0.52707 J-9.37895
N2728 G03 X24.50595 Y32.52103 I-41.90041 J5.80049
N2729 G1 X25.29418 Y32.4276
N2730 G03 X25.0557 Y44.28852 I-42.79418 J5.0724
N2731 G02 X21.09732 Y44.01516 I-2.5557 J8.21148
N2732 X21.09752 Y30.98487 I-68.59406 J-6.51618
N2733 X25.0557 Y30.71148 I1.40248 J-8.48487
N2734 G03 X25.29418 Y32.4276 I-42.5557 J6.78852
N2735 G1 X26.08242 Y32.33417
N2736 G03 X25.67626 Y45.36916 I-43.58242 J5.16583
N2737 G02 X20.19337 Y45.04232 I-3.17626 J7.13084
N2738 X20.1936 Y29.95775 I-67.69011 J-7.54334
N2739 X25.67626 Y29.63084 I2.3064 J-7.45775
N2740 G03 X26.08242 Y32.33417 I-43.17626 J7.86916
N2741 G1 X26.87065 Y32.24074
N2742 G03 X26.25007 Y46.57445 I-44.37065 J5.25926
N2743 G02 X19.2421 Y46.29023 I-3.75007 J5.92555
N2744 X19.24239 Y28.70992 I-66.73884 J-8.79125
N2745 X26.25007 Y28.42555 I3.25761 J-6.20992
N2746 G03 X26.87065 Y32.24074 I-43.75007 J9.07445
N2747 G1 X27.65888 Y32.14731
N2748 G03 X26.75461 Y47.96446 I-45.15888 J5.35269
N2749 G02 X18.18777 Y48.01921 I-4.25461 J4.53554
N2750 X18.24819 Y47.63461 I-65.67522 J-10.51419
N2751 X18.18812 Y26.98113 I-65.74493 J-10.13563
N2752 X26.75461 Y27.03554 I4.31188 J-4.48113
N2753 G03 X27.65888 Y32.14731 I-44.25461 J10.46446
N2754 G1 X28.44711 Y32.05388
N2755 G03 X27.13608 Y49.68267 I-45.94711 J5.44612
N2756 G02 X17.0804 Y52.25815 I-4.63608 J2.81733
N2757 X17.36012 Y54.23559 I5.4196 J0.24185
N2758 G1 X16.07904 Y54.18216
