%
N1 G17 G21 G40 G90
(2 1/2 Axis Facing)
(SlotDrill 1/8in 3.175mm Carbide Aluminium Cut)
N2 T6 M06
N3 S24000 M3
N4 G0 Z1.5875
N5 X30.07247 Y79.
N6 G1 Z1.27 F152.2
N7 X37.275 Z0. F456.7
N8 X57.2191 F609.
N9 X114.3062
N10 G17
N11 G02 X118.3062 Y75. I0. J-4.
N12 G1 Y0.
N13 G02 X114.3062 Y-4. I-4. J0.
N14 G1 X0.
N15 G02 X-4. Y0. I0. J4.
N16 G1 Y75.
N17 G02 X0. Y79. I4. J0.
N18 G1 X37.275
N19 Y77.4125
N20 X114.28935
N21 G02 X116.7187 Y74.98315 I0.01586 J-2.41349
N22 G1 Y0.01685
N23 G02 X114.28935 Y-2.4125 I-2.41349 J-0.01586
N24 G1 X0.01685
N25 G02 X-2.4125 Y0.01685 I-0.01586 J2.41349
N26 G1 Y74.98315
N27 G02 X0.01685 Y77.4125 I2.41349 J0.01586
N28 G1 X37.275
N29 Y75.825
N30 X114.2725
N31 G02 X115.1312 Y74.9663 I0.03061 J-0.82809
N32 G1 Y0.0337
N33 G02 X114.2725 Y-0.825 I-0.82809 J-0.03061
N34 G1 X0.0337
N35 G02 X-0.825 Y0.0337 I-0.0306 J0.82809
N36 G1 Y74.9663
N37 G02 X0.0337 Y75.825 I0.8281 J0.03061
N38 G1 X37.275
N39 Y74.2375
N40 X113.5437
N41 Y0.7625
N42 X0.7625
N43 Y74.2375
N44 X37.275
N45 Y72.65
N46 X111.9562
N47 Y2.35
N48 X2.35
N49 Y72.65
N50 X37.275
N51 Y71.0625
N52 X110.3687
N53 Y3.9375
N54 X3.9375
N55 Y71.0625
N56 X37.275
N57 Y69.475
N58 X108.7812
N59 Y5.525
N60 X5.525
N61 Y69.475
N62 X37.275
N63 Y67.8875
N64 X107.1937
N65 Y7.1125
N66 X7.1125
N67 Y67.8875
N68 X37.275
N69 Y66.3
N70 X105.6062
N71 Y8.7
N72 X8.7
N73 Y66.3
N74 X37.275
N75 Y64.7125
N76 X104.0187
N77 Y10.2875
N78 X10.2875
N79 Y64.7125
N80 X37.275
N81 Y63.125
N82 X102.4312
N83 Y11.875
N84 X11.875
N85 Y63.125
N86 X37.275
N87 Y61.5375
N88 X100.8437
N89 Y13.4625
N90 X13.4625
N91 Y61.5375
N92 X37.275
N93 Y59.95
N94 X99.2562
N95 Y15.05
N96 X15.05
N97 Y59.95
N98 X37.275
N99 Y58.3625
N100 X97.6687
N101 Y16.6375
N102 X16.6375
N103 Y58.3625
N104 X37.275
N105 Y56.775
N106 X96.0812
N107 Y18.225
N108 X18.225
N109 Y56.775
N110 X37.275
N111 Y55.1875
N112 X94.4937
N113 Y19.8125
N114 X19.8125
N115 Y55.1875
N116 X37.275
N117 Y53.6
N118 X92.9062
N119 Y21.4
N120 X21.4
N121 Y53.6
N122 X37.275
N123 Y52.0125
N124 X91.3187
N125 Y22.9875
N126 X22.9875
N127 Y52.0125
N128 X37.275
N129 Y50.425
N130 X89.7312
N131 Y24.575
N132 X24.575
N133 Y50.425
N134 X37.275
N135 Y48.8375
N136 X88.1437
N137 Y26.1625
N138 X26.1625
N139 Y48.8375
N140 X37.275
N141 Y47.25
N142 X86.5562
N143 Y27.75
N144 X27.75
N145 Y47.25
N146 X37.275
N147 Y45.6625
N148 X84.9687
N149 Y29.3375
N150 X29.3375
N151 Y45.6625
N152 X37.275
N153 Y44.075
N154 X83.3812
N155 Y30.925
N156 X30.925
N157 Y44.075
N158 X37.275
N159 Y42.4875
N160 X81.7937
N161 Y32.5125
N162 X32.5125
N163 Y42.4875
N164 X37.275
N165 Y40.9
N166 X80.2062
N167 Y34.1
N168 X34.1
N169 Y40.9
N170 X37.275
N171 Y39.3125
N172 X78.6187
N173 Y35.6875
N174 X35.6875
N175 Y39.3125
N176 X37.275
N177 Y37.725
N178 X77.0312
N179 Y37.275
N180 X37.275
N181 Y37.725
N182 G0 Z1.5875
(Hole Pocketing)
(SlotDrill 1/8in 3.175mm Carbide Aluminium Cut)
N183 S22256 M3
N184 X5.7934 Y4.92881
N185 G1 Z0.635 F141.2
N186 G3 X5.8 Y5. Z-1.88889 I-0.7934 J0.07119 F565.
N187 G1 X5.7959 Y5.30834
N188 X5.67034 Y5.6111
N189 X5.40572 Y5.81479
N190 G03 X4.59428 Y4.18521 I-0.40572 J-0.81479
N191 X5.40572 Y5.81479 I0.40572 J0.81479
N192 G1 X5.8 Y5.
N193 X5.79538 Y4.95017
N194 G3 X5.8 Y5. Z-3.77778 I-0.79538 J0.04983
N195 G1 X5.7959 Y5.30834
N196 X5.67034 Y5.6111
N197 X5.40572 Y5.81479
N198 G03 X4.59428 Y4.18521 I-0.40572 J-0.81479
N199 X5.40572 Y5.81479 I0.40572 J0.81479
N200 G1 X5.8 Y5.
N201 X5.79538 Y4.95017
N202 G3 X5.8 Y5. Z-5.66667 I-0.79538 J0.04983
N203 G1 X5.7959 Y5.30834
N204 X5.67034 Y5.6111
N205 X5.40572 Y5.81479
N206 G03 X4.59428 Y4.18521 I-0.40572 J-0.81479
N207 X5.40572 Y5.81479 I0.40572 J0.81479
N208 G1 X5.8 Y5.
N209 X5.79538 Y4.95017
N210 G3 X5.8 Y5. Z-7.55556 I-0.79538 J0.04983
N211 G1 X5.7959 Y5.30834
N212 X5.67034 Y5.6111
N213 X5.40572 Y5.81479
N214 G03 X4.59428 Y4.18521 I-0.40572 J-0.81479
N215 X5.40572 Y5.81479 I0.40572 J0.81479
N216 G1 X5.8 Y5.
N217 X5.79538 Y4.95017
N218 G3 X5.8 Y5. Z-9.44444 I-0.79538 J0.04983
N219 G1 X5.7959 Y5.30834
N220 X5.67034 Y5.6111
N221 X5.40572 Y5.81479
N222 G03 X4.59428 Y4.18521 I-0.40572 J-0.81479
N223 X5.40572 Y5.81479 I0.40572 J0.81479
N224 G1 X5.8 Y5.
N225 X5.79538 Y4.95017
N226 G3 X5.8 Y5. Z-11.33333 I-0.79538 J0.04983
N227 G1 X5.7959 Y5.30834
N228 X5.67034 Y5.6111
N229 X5.40572 Y5.81479
N230 G03 X4.59428 Y4.18521 I-0.40572 J-0.81479
N231 X5.40572 Y5.81479 I0.40572 J0.81479
N232 G1 X5.8 Y5.
N233 X5.79538 Y4.95017
N234 G3 X5.8 Y5. Z-13.22222 I-0.79538 J0.04983
N235 G1 X5.7959 Y5.30834
N236 X5.67034 Y5.6111
N237 X5.40572 Y5.81479
N238 G03 X4.59428 Y4.18521 I-0.40572 J-0.81479
N239 X5.40572 Y5.81479 I0.40572 J0.81479
N240 G1 X5.8 Y5.
N241 X5.79538 Y4.95017
N242 G3 X5.8 Y5. Z-15.11111 I-0.79538 J0.04983
N243 G1 X5.7959 Y5.30834
N244 X5.67034 Y5.6111
N245 X5.40572 Y5.81479
N246 G03 X4.59428 Y4.18521 I-0.40572 J-0.81479
N247 X5.40572 Y5.81479 I0.40572 J0.81479
N248 G1 X5.8 Y5.
N249 X5.79538 Y4.95017
N250 G3 X5.8 Y5. Z-17. I-0.79538 J0.04983
N251 G1 X5.7959 Y5.30834
N252 X5.67034 Y5.6111
N253 X5.40572 Y5.81479
N254 G03 X4.59428 Y4.18521 I-0.40572 J-0.81479
N255 X5.40572 Y5.81479 I0.40572 J0.81479
N256 G1 X5.8 Y5.
N257 X5.
N258 G0 Z1.5875
N259 X50.7934 Y4.92881
N260 G1 Z0.635 F141.2
N261 G3 X50.8 Y5. Z-1.88889 I-0.7934 J0.07119 F565.
N262 G1 X50.7959 Y5.30834
N263 X50.67034 Y5.6111
N264 X50.40572 Y5.81479
N265 G03 X49.59428 Y4.18521 I-0.40572 J-0.81479
N266 X50.40572 Y5.81479 I0.40572 J0.81479
N267 G1 X50.8 Y5.
N268 X50.79538 Y4.95017
N269 G3 X50.8 Y5. Z-3.77778 I-0.79538 J0.04983
N270 G1 X50.7959 Y5.30834
N271 X50.67034 Y5.6111
N272 X50.40572 Y5.81479
N273 G03 X49.59428 Y4.18521 I-0.40572 J-0.81479
N274 X50.40572 Y5.81479 I0.40572 J0.81479
N275 G1 X50.8 Y5.
N276 X50.79538 Y4.95017
N277 G3 X50.8 Y5. Z-5.66667 I-0.79538 J0.04983
N278 G1 X50.7959 Y5.30834
N279 X50.67034 Y5.6111
N280 X50.40572 Y5.81479
N281 G03 X49.59428 Y4.18521 I-0.40572 J-0.81479
N282 X50.40572 Y5.81479 I0.40572 J0.81479
N283 G1 X50.8 Y5.
N284 X50.79538 Y4.95017
N285 G3 X50.8 Y5. Z-7.55556 I-0.79538 J0.04983
N286 G1 X50.7959 Y5.30834
N287 X50.67034 Y5.6111
N288 X50.40572 Y5.81479
N289 G03 X49.59428 Y4.18521 I-0.40572 J-0.81479
N290 X50.40572 Y5.81479 I0.40572 J0.81479
N291 G1 X50.8 Y5.
N292 X50.79538 Y4.95017
N293 G3 X50.8 Y5. Z-9.44444 I-0.79538 J0.04983
N294 G1 X50.7959 Y5.30834
N295 X50.67034 Y5.6111
N296 X50.40572 Y5.81479
N297 G03 X49.59428 Y4.18521 I-0.40572 J-0.81479
N298 X50.40572 Y5.81479 I0.40572 J0.81479
N299 G1 X50.8 Y5.
N300 X50.79538 Y4.95017
N301 G3 X50.8 Y5. Z-11.33333 I-0.79538 J0.04983
N302 G1 X50.7959 Y5.30834
N303 X50.67034 Y5.6111
N304 X50.40572 Y5.81479
N305 G03 X49.59428 Y4.18521 I-0.40572 J-0.81479
N306 X50.40572 Y5.81479 I0.40572 J0.81479
N307 G1 X50.8 Y5.
N308 X50.79538 Y4.95017
N309 G3 X50.8 Y5. Z-13.22222 I-0.79538 J0.04983
N310 G1 X50.7959 Y5.30834
N311 X50.67034 Y5.6111
N312 X50.40572 Y5.81479
N313 G03 X49.59428 Y4.18521 I-0.40572 J-0.81479
N314 X50.40572 Y5.81479 I0.40572 J0.81479
N315 G1 X50.8 Y5.
N316 X50.79538 Y4.95017
N317 G3 X50.8 Y5. Z-15.11111 I-0.79538 J0.04983
N318 G1 X50.7959 Y5.30834
N319 X50.67034 Y5.6111
N320 X50.40572 Y5.81479
N321 G03 X49.59428 Y4.18521 I-0.40572 J-0.81479
N322 X50.40572 Y5.81479 I0.40572 J0.81479
N323 G1 X50.8 Y5.
N324 X50.79538 Y4.95017
N325 G3 X50.8 Y5. Z-17. I-0.79538 J0.04983
N326 G1 X50.7959 Y5.30834
N327 X50.67034 Y5.6111
N328 X50.40572 Y5.81479
N329 G03 X49.59428 Y4.18521 I-0.40572 J-0.81479
N330 X50.40572 Y5.81479 I0.40572 J0.81479
N331 G1 X50.8 Y5.
N332 X50.
N333 G0 Z1.5875
N334 X65.0996 Y4.92881
N335 G1 Z0.635 F141.2
N336 G3 X65.1062 Y5. Z-1.88889 I-0.7934 J0.07119 F565.
N337 G1 X65.1021 Y5.30833
N338 X64.97654 Y5.6111
N339 X64.71192 Y5.81479
N340 G03 X63.90048 Y4.18521 I-0.40572 J-0.81479
N341 X64.71192 Y5.81479 I0.40572 J0.81479
N342 G1 X65.1062 Y5.
N343 X65.10158 Y4.95017
N344 G3 X65.1062 Y5. Z-3.77778 I-0.79538 J0.04983
N345 G1 X65.1021 Y5.30833
N346 X64.97654 Y5.6111
N347 X64.71192 Y5.81479
N348 G03 X63.90048 Y4.18521 I-0.40572 J-0.81479
N349 X64.71192 Y5.81479 I0.40572 J0.81479
N350 G1 X65.1062 Y5.
N351 X65.10158 Y4.95017
N352 G3 X65.1062 Y5. Z-5.66667 I-0.79538 J0.04983
N353 G1 X65.1021 Y5.30833
N354 X64.97654 Y5.6111
N355 X64.71192 Y5.81479
N356 G03 X63.90048 Y4.18521 I-0.40572 J-0.81479
N357 X64.71192 Y5.81479 I0.40572 J0.81479
N358 G1 X65.1062 Y5.
N359 X65.10158 Y4.95017
N360 G3 X65.1062 Y5. Z-7.55556 I-0.79538 J0.04983
N361 G1 X65.1021 Y5.30833
N362 X64.97654 Y5.6111
N363 X64.71192 Y5.81479
N364 G03 X63.90048 Y4.18521 I-0.40572 J-0.81479
N365 X64.71192 Y5.81479 I0.40572 J0.81479
N366 G1 X65.1062 Y5.
N367 X65.10158 Y4.95017
N368 G3 X65.1062 Y5. Z-9.44444 I-0.79538 J0.04983
N369 G1 X65.1021 Y5.30833
N370 X64.97654 Y5.6111
N371 X64.71192 Y5.81479
N372 G03 X63.90048 Y4.18521 I-0.40572 J-0.81479
N373 X64.71192 Y5.81479 I0.40572 J0.81479
N374 G1 X65.1062 Y5.
N375 X65.10158 Y4.95017
N376 G3 X65.1062 Y5. Z-11.33333 I-0.79538 J0.04983
N377 G1 X65.1021 Y5.30833
N378 X64.97654 Y5.6111
N379 X64.71192 Y5.81479
N380 G03 X63.90048 Y4.18521 I-0.40572 J-0.81479
N381 X64.71192 Y5.81479 I0.40572 J0.81479
N382 G1 X65.1062 Y5.
N383 X65.10158 Y4.95017
N384 G3 X65.1062 Y5. Z-13.22222 I-0.79538 J0.04983
N385 G1 X65.1021 Y5.30833
N386 X64.97654 Y5.6111
N387 X64.71192 Y5.81479
N388 G03 X63.90048 Y4.18521 I-0.40572 J-0.81479
N389 X64.71192 Y5.81479 I0.40572 J0.81479
N390 G1 X65.1062 Y5.
N391 X65.10158 Y4.95017
N392 G3 X65.1062 Y5. Z-15.11111 I-0.79538 J0.04983
N393 G1 X65.1021 Y5.30833
N394 X64.97654 Y5.6111
N395 X64.71192 Y5.81479
N396 G03 X63.90048 Y4.18521 I-0.40572 J-0.81479
N397 X64.71192 Y5.81479 I0.40572 J0.81479
N398 G1 X65.1062 Y5.
N399 X65.10158 Y4.95017
N400 G3 X65.1062 Y5. Z-17. I-0.79538 J0.04983
N401 G1 X65.1021 Y5.30833
N402 X64.97654 Y5.6111
N403 X64.71192 Y5.81479
N404 G03 X63.90048 Y4.18521 I-0.40572 J-0.81479
N405 X64.71192 Y5.81479 I0.40572 J0.81479
N406 G1 X65.1062 Y5.
N407 X64.3062
N408 G0 Z1.5875
N409 X110.09961 Y4.92881
N410 G1 Z0.635 F141.2
N411 G3 X110.1062 Y5. Z-1.88889 I-0.79341 J0.07119 F565.
N412 G1 X110.10211 Y5.30833
N413 X109.97655 Y5.6111
N414 X109.71192 Y5.81479
N415 G03 X108.90048 Y4.18521 I-0.40572 J-0.81479
N416 X109.71192 Y5.81479 I0.40572 J0.81479
N417 G1 X110.1062 Y5.
N418 X110.10158 Y4.95017
N419 G3 X110.1062 Y5. Z-3.77778 I-0.79538 J0.04983
N420 G1 X110.10211 Y5.30833
N421 X109.97655 Y5.6111
N422 X109.71192 Y5.81479
N423 G03 X108.90048 Y4.18521 I-0.40572 J-0.81479
N424 X109.71192 Y5.81479 I0.40572 J0.81479
N425 G1 X110.1062 Y5.
N426 X110.10158 Y4.95017
N427 G3 X110.1062 Y5. Z-5.66667 I-0.79538 J0.04983
N428 G1 X110.10211 Y5.30833
N429 X109.97655 Y5.6111
N430 X109.71192 Y5.81479
N431 G03 X108.90048 Y4.18521 I-0.40572 J-0.81479
N432 X109.71192 Y5.81479 I0.40572 J0.81479
N433 G1 X110.1062 Y5.
N434 X110.10158 Y4.95017
N435 G3 X110.1062 Y5. Z-7.55556 I-0.79538 J0.04983
N436 G1 X110.10211 Y5.30833
N437 X109.97655 Y5.6111
N438 X109.71192 Y5.81479
N439 G03 X108.90048 Y4.18521 I-0.40572 J-0.81479
N440 X109.71192 Y5.81479 I0.40572 J0.81479
N441 G1 X110.1062 Y5.
N442 X110.10158 Y4.95017
N443 G3 X110.1062 Y5. Z-9.44444 I-0.79538 J0.04983
N444 G1 X110.10211 Y5.30833
N445 X109.97655 Y5.6111
N446 X109.71192 Y5.81479
N447 G03 X108.90048 Y4.18521 I-0.40572 J-0.81479
N448 X109.71192 Y5.81479 I0.40572 J0.81479
N449 G1 X110.1062 Y5.
N450 X110.10158 Y4.95017
N451 G3 X110.1062 Y5. Z-11.33333 I-0.79538 J0.04983
N452 G1 X110.10211 Y5.30833
N453 X109.97655 Y5.6111
N454 X109.71192 Y5.81479
N455 G03 X108.90048 Y4.18521 I-0.40572 J-0.81479
N456 X109.71192 Y5.81479 I0.40572 J0.81479
N457 G1 X110.1062 Y5.
N458 X110.10158 Y4.95017
N459 G3 X110.1062 Y5. Z-13.22222 I-0.79538 J0.04983
N460 G1 X110.10211 Y5.30833
N461 X109.97655 Y5.6111
N462 X109.71192 Y5.81479
N463 G03 X108.90048 Y4.18521 I-0.40572 J-0.81479
N464 X109.71192 Y5.81479 I0.40572 J0.81479
N465 G1 X110.1062 Y5.
N466 X110.10158 Y4.95017
N467 G3 X110.1062 Y5. Z-15.11111 I-0.79538 J0.04983
N468 G1 X110.10211 Y5.30833
N469 X109.97655 Y5.6111
N470 X109.71192 Y5.81479
N471 G03 X108.90048 Y4.18521 I-0.40572 J-0.81479
N472 X109.71192 Y5.81479 I0.40572 J0.81479
N473 G1 X110.1062 Y5.
N474 X110.10158 Y4.95017
N475 G3 X110.1062 Y5. Z-17. I-0.79538 J0.04983
N476 G1 X110.10211 Y5.30833
N477 X109.97655 Y5.6111
N478 X109.71192 Y5.81479
N479 G03 X108.90048 Y4.18521 I-0.40572 J-0.81479
N480 X109.71192 Y5.81479 I0.40572 J0.81479
N481 G1 X110.1062 Y5.
N482 X109.3062
N483 G0 Z1.5875
N484 X110.09961 Y69.92881
N485 G1 Z0.635 F141.2
N486 G3 X110.1062 Y70. Z-1.88889 I-0.79341 J0.07119 F565.
N487 G1 X110.10211 Y70.30833
N488 X109.97655 Y70.6111
N489 X109.71192 Y70.81479
N490 G03 X108.90048 Y69.18521 I-0.40572 J-0.81479
N491 X109.71192 Y70.81479 I0.40572 J0.81479
N492 G1 X110.1062 Y70.
N493 X110.10158 Y69.95017
N494 G3 X110.1062 Y70. Z-3.77778 I-0.79538 J0.04983
N495 G1 X110.10211 Y70.30833
N496 X109.97655 Y70.6111
N497 X109.71192 Y70.81479
N498 G03 X108.90048 Y69.18521 I-0.40572 J-0.81479
N499 X109.71192 Y70.81479 I0.40572 J0.81479
N500 G1 X110.1062 Y70.
N501 X110.10158 Y69.95017
N502 G3 X110.1062 Y70. Z-5.66667 I-0.79538 J0.04983
N503 G1 X110.10211 Y70.30833
N504 X109.97655 Y70.6111
N505 X109.71192 Y70.81479
N506 G03 X108.90048 Y69.18521 I-0.40572 J-0.81479
N507 X109.71192 Y70.81479 I0.40572 J0.81479
N508 G1 X110.1062 Y70.
N509 X110.10158 Y69.95017
N510 G3 X110.1062 Y70. Z-7.55556 I-0.79538 J0.04983
N511 G1 X110.10211 Y70.30833
N512 X109.97655 Y70.6111
N513 X109.71192 Y70.81479
N514 G03 X108.90048 Y69.18521 I-0.40572 J-0.81479
N515 X109.71192 Y70.81479 I0.40572 J0.81479
N516 G1 X110.1062 Y70.
N517 X110.10158 Y69.95017
N518 G3 X110.1062 Y70. Z-9.44444 I-0.79538 J0.04983
N519 G1 X110.10211 Y70.30833
N520 X109.97655 Y70.6111
N521 X109.71192 Y70.81479
N522 G03 X108.90048 Y69.18521 I-0.40572 J-0.81479
N523 X109.71192 Y70.81479 I0.40572 J0.81479
N524 G1 X110.1062 Y70.
N525 X110.10158 Y69.95017
N526 G3 X110.1062 Y70. Z-11.33333 I-0.79538 J0.04983
N527 G1 X110.10211 Y70.30833
N528 X109.97655 Y70.6111
N529 X109.71192 Y70.81479
N530 G03 X108.90048 Y69.18521 I-0.40572 J-0.81479
N531 X109.71192 Y70.81479 I0.40572 J0.81479
N532 G1 X110.1062 Y70.
N533 X110.10158 Y69.95017
N534 G3 X110.1062 Y70. Z-13.22222 I-0.79538 J0.04983
N535 G1 X110.10211 Y70.30833
N536 X109.97655 Y70.6111
N537 X109.71192 Y70.81479
N538 G03 X108.90048 Y69.18521 I-0.40572 J-0.81479
N539 X109.71192 Y70.81479 I0.40572 J0.81479
N540 G1 X110.1062 Y70.
N541 X110.10158 Y69.95017
N542 G3 X110.1062 Y70. Z-15.11111 I-0.79538 J0.04983
N543 G1 X110.10211 Y70.30833
N544 X109.97655 Y70.6111
N545 X109.71192 Y70.81479
N546 G03 X108.90048 Y69.18521 I-0.40572 J-0.81479
N547 X109.71192 Y70.81479 I0.40572 J0.81479
N548 G1 X110.1062 Y70.
N549 X110.10158 Y69.95017
N550 G3 X110.1062 Y70. Z-17. I-0.79538 J0.04983
N551 G1 X110.10211 Y70.30833
N552 X109.97655 Y70.6111
N553 X109.71192 Y70.81479
N554 G03 X108.90048 Y69.18521 I-0.40572 J-0.81479
N555 X109.71192 Y70.81479 I0.40572 J0.81479
N556 G1 X110.1062 Y70.
N557 X109.3062
N558 G0 Z1.5875
N559 X65.09961 Y69.92881
N560 G1 Z0.635 F141.2
N561 G3 X65.1062 Y70. Z-1.88889 I-0.79341 J0.07119 F565.
N562 G1 X65.10211 Y70.30833
N563 X64.97655 Y70.6111
N564 X64.71192 Y70.81479
N565 G03 X63.90049 Y69.18521 I-0.40572 J-0.81479
N566 X64.71192 Y70.81479 I0.40571 J0.81479
N567 G1 X65.1062 Y70.
N568 X65.10158 Y69.95017
N569 G3 X65.1062 Y70. Z-3.77778 I-0.79538 J0.04983
N570 G1 X65.10211 Y70.30833
N571 X64.97655 Y70.6111
N572 X64.71192 Y70.81479
N573 G03 X63.90049 Y69.18521 I-0.40572 J-0.81479
N574 X64.71192 Y70.81479 I0.40571 J0.81479
N575 G1 X65.1062 Y70.
N576 X65.10158 Y69.95017
N577 G3 X65.1062 Y70. Z-5.66667 I-0.79538 J0.04983
N578 G1 X65.10211 Y70.30833
N579 X64.97655 Y70.6111
N580 X64.71192 Y70.81479
N581 G03 X63.90049 Y69.18521 I-0.40572 J-0.81479
N582 X64.71192 Y70.81479 I0.40571 J0.81479
N583 G1 X65.1062 Y70.
N584 X65.10158 Y69.95017
N585 G3 X65.1062 Y70. Z-7.55556 I-0.79538 J0.04983
N586 G1 X65.10211 Y70.30833
N587 X64.97655 Y70.6111
N588 X64.71192 Y70.81479
N589 G03 X63.90049 Y69.18521 I-0.40572 J-0.81479
N590 X64.71192 Y70.81479 I0.40571 J0.81479
N591 G1 X65.1062 Y70.
N592 X65.10158 Y69.95017
N593 G3 X65.1062 Y70. Z-9.44444 I-0.79538 J0.04983
N594 G1 X65.10211 Y70.30833
N595 X64.97655 Y70.6111
N596 X64.71192 Y70.81479
N597 G03 X63.90049 Y69.18521 I-0.40572 J-0.81479
N598 X64.71192 Y70.81479 I0.40571 J0.81479
N599 G1 X65.1062 Y70.
N600 X65.10158 Y69.95017
N601 G3 X65.1062 Y70. Z-11.33333 I-0.79538 J0.04983
N602 G1 X65.10211 Y70.30833
N603 X64.97655 Y70.6111
N604 X64.71192 Y70.81479
N605 G03 X63.90049 Y69.18521 I-0.40572 J-0.81479
N606 X64.71192 Y70.81479 I0.40571 J0.81479
N607 G1 X65.1062 Y70.
N608 X65.10158 Y69.95017
N609 G3 X65.1062 Y70. Z-13.22222 I-0.79538 J0.04983
N610 G1 X65.10211 Y70.30833
N611 X64.97655 Y70.6111
N612 X64.71192 Y70.81479
N613 G03 X63.90049 Y69.18521 I-0.40572 J-0.81479
N614 X64.71192 Y70.81479 I0.40571 J0.81479
N615 G1 X65.1062 Y70.
N616 X65.10158 Y69.95017
N617 G3 X65.1062 Y70. Z-15.11111 I-0.79538 J0.04983
N618 G1 X65.10211 Y70.30833
N619 X64.97655 Y70.6111
N620 X64.71192 Y70.81479
N621 G03 X63.90049 Y69.18521 I-0.40572 J-0.81479
N622 X64.71192 Y70.81479 I0.40571 J0.81479
N623 G1 X65.1062 Y70.
N624 X65.10158 Y69.95017
N625 G3 X65.1062 Y70. Z-17. I-0.79538 J0.04983
N626 G1 X65.10211 Y70.30833
N627 X64.97655 Y70.6111
N628 X64.71192 Y70.81479
N629 G03 X63.90049 Y69.18521 I-0.40572 J-0.81479
N630 X64.71192 Y70.81479 I0.40571 J0.81479
N631 G1 X65.1062 Y70.
N632 X64.3062
N633 G0 Z1.5875
N634 X50.79341 Y69.92881
N635 G1 Z0.635 F141.2
N636 G3 X50.8 Y70. Z-1.88889 I-0.79341 J0.07119 F565.
N637 G1 X50.79591 Y70.30833
N638 X50.67035 Y70.6111
N639 X50.40572 Y70.81479
N640 G03 X49.59428 Y69.18521 I-0.40572 J-0.81479
N641 X50.40572 Y70.81479 I0.40572 J0.81479
N642 G1 X50.8 Y70.
N643 X50.79539 Y69.95017
N644 G3 X50.8 Y70. Z-3.77778 I-0.79539 J0.04983
N645 G1 X50.79591 Y70.30833
N646 X50.67035 Y70.6111
N647 X50.40572 Y70.81479
N648 G03 X49.59428 Y69.18521 I-0.40572 J-0.81479
N649 X50.40572 Y70.81479 I0.40572 J0.81479
N650 G1 X50.8 Y70.
N651 X50.79539 Y69.95017
N652 G3 X50.8 Y70. Z-5.66667 I-0.79539 J0.04983
N653 G1 X50.79591 Y70.30833
N654 X50.67035 Y70.6111
N655 X50.40572 Y70.81479
N656 G03 X49.59428 Y69.18521 I-0.40572 J-0.81479
N657 X50.40572 Y70.81479 I0.40572 J0.81479
N658 G1 X50.8 Y70.
N659 X50.79539 Y69.95017
N660 G3 X50.8 Y70. Z-7.55556 I-0.79539 J0.04983
N661 G1 X50.79591 Y70.30833
N662 X50.67035 Y70.6111
N663 X50.40572 Y70.81479
N664 G03 X49.59428 Y69.18521 I-0.40572 J-0.81479
N665 X50.40572 Y70.81479 I0.40572 J0.81479
N666 G1 X50.8 Y70.
N667 X50.79539 Y69.95017
N668 G3 X50.8 Y70. Z-9.44444 I-0.79539 J0.04983
N669 G1 X50.79591 Y70.30833
N670 X50.67035 Y70.6111
N671 X50.40572 Y70.81479
N672 G03 X49.59428 Y69.18521 I-0.40572 J-0.81479
N673 X50.40572 Y70.81479 I0.40572 J0.81479
N674 G1 X50.8 Y70.
N675 X50.79539 Y69.95017
N676 G3 X50.8 Y70. Z-11.33333 I-0.79539 J0.04983
N677 G1 X50.79591 Y70.30833
N678 X50.67035 Y70.6111
N679 X50.40572 Y70.81479
N680 G03 X49.59428 Y69.18521 I-0.40572 J-0.81479
N681 X50.40572 Y70.81479 I0.40572 J0.81479
N682 G1 X50.8 Y70.
N683 X50.79539 Y69.95017
N684 G3 X50.8 Y70. Z-13.22222 I-0.79539 J0.04983
N685 G1 X50.79591 Y70.30833
N686 X50.67035 Y70.6111
N687 X50.40572 Y70.81479
N688 G03 X49.59428 Y69.18521 I-0.40572 J-0.81479
N689 X50.40572 Y70.81479 I0.40572 J0.81479
N690 G1 X50.8 Y70.
N691 X50.79539 Y69.95017
N692 G3 X50.8 Y70. Z-15.11111 I-0.79539 J0.04983
N693 G1 X50.79591 Y70.30833
N694 X50.67035 Y70.6111
N695 X50.40572 Y70.81479
N696 G03 X49.59428 Y69.18521 I-0.40572 J-0.81479
N697 X50.40572 Y70.81479 I0.40572 J0.81479
N698 G1 X50.8 Y70.
N699 X50.79539 Y69.95017
N700 G3 X50.8 Y70. Z-17. I-0.79539 J0.04983
N701 G1 X50.79591 Y70.30833
N702 X50.67035 Y70.6111
N703 X50.40572 Y70.81479
N704 G03 X49.59428 Y69.18521 I-0.40572 J-0.81479
N705 X50.40572 Y70.81479 I0.40572 J0.81479
N706 G1 X50.8 Y70.
N707 X50.
N708 G0 Z1.5875
N709 X5.79341 Y69.92881
N710 G1 Z0.635 F141.2
N711 G3 X5.8 Y70. Z-1.88889 I-0.79341 J0.07119 F565.
N712 G1 X5.79591 Y70.30833
N713 X5.67035 Y70.6111
N714 X5.40572 Y70.81479
N715 G03 X4.59428 Y69.18521 I-0.40572 J-0.81479
N716 X5.40572 Y70.81479 I0.40572 J0.81479
N717 G1 X5.8 Y70.
N718 X5.79538 Y69.95017
N719 G3 X5.8 Y70. Z-3.77778 I-0.79538 J0.04983
N720 G1 X5.79591 Y70.30833
N721 X5.67035 Y70.6111
N722 X5.40572 Y70.81479
N723 G03 X4.59428 Y69.18521 I-0.40572 J-0.81479
N724 X5.40572 Y70.81479 I0.40572 J0.81479
N725 G1 X5.8 Y70.
N726 X5.79538 Y69.95017
N727 G3 X5.8 Y70. Z-5.66667 I-0.79538 J0.04983
N728 G1 X5.79591 Y70.30833
N729 X5.67035 Y70.6111
N730 X5.40572 Y70.81479
N731 G03 X4.59428 Y69.18521 I-0.40572 J-0.81479
N732 X5.40572 Y70.81479 I0.40572 J0.81479
N733 G1 X5.8 Y70.
N734 X5.79538 Y69.95017
N735 G3 X5.8 Y70. Z-7.55556 I-0.79538 J0.04983
N736 G1 X5.79591 Y70.30833
N737 X5.67035 Y70.6111
N738 X5.40572 Y70.81479
N739 G03 X4.59428 Y69.18521 I-0.40572 J-0.81479
N740 X5.40572 Y70.81479 I0.40572 J0.81479
N741 G1 X5.8 Y70.
N742 X5.79538 Y69.95017
N743 G3 X5.8 Y70. Z-9.44444 I-0.79538 J0.04983
N744 G1 X5.79591 Y70.30833
N745 X5.67035 Y70.6111
N746 X5.40572 Y70.81479
N747 G03 X4.59428 Y69.18521 I-0.40572 J-0.81479
N748 X5.40572 Y70.81479 I0.40572 J0.81479
N749 G1 X5.8 Y70.
N750 X5.79538 Y69.95017
N751 G3 X5.8 Y70. Z-11.33333 I-0.79538 J0.04983
N752 G1 X5.79591 Y70.30833
N753 X5.67035 Y70.6111
N754 X5.40572 Y70.81479
N755 G03 X4.59428 Y69.18521 I-0.40572 J-0.81479
N756 X5.40572 Y70.81479 I0.40572 J0.81479
N757 G1 X5.8 Y70.
N758 X5.79538 Y69.95017
N759 G3 X5.8 Y70. Z-13.22222 I-0.79538 J0.04983
N760 G1 X5.79591 Y70.30833
N761 X5.67035 Y70.6111
N762 X5.40572 Y70.81479
N763 G03 X4.59428 Y69.18521 I-0.40572 J-0.81479
N764 X5.40572 Y70.81479 I0.40572 J0.81479
N765 G1 X5.8 Y70.
N766 X5.79538 Y69.95017
N767 G3 X5.8 Y70. Z-15.11111 I-0.79538 J0.04983
N768 G1 X5.79591 Y70.30833
N769 X5.67035 Y70.6111
N770 X5.40572 Y70.81479
N771 G03 X4.59428 Y69.18521 I-0.40572 J-0.81479
N772 X5.40572 Y70.81479 I0.40572 J0.81479
N773 G1 X5.8 Y70.
N774 X5.79538 Y69.95017
N775 G3 X5.8 Y70. Z-17. I-0.79538 J0.04983
N776 G1 X5.79591 Y70.30833
N777 X5.67035 Y70.6111
N778 X5.40572 Y70.81479
N779 G03 X4.59428 Y69.18521 I-0.40572 J-0.81479
N780 X5.40572 Y70.81479 I0.40572 J0.81479
N781 G1 X5.8 Y70.
N782 X5.
N783 G0 Z1.5875
(2 1/2 Axis Pocketing)
(SlotDrill 1/8in 3.175mm Carbide Aluminium Cut)
N784 X91.31893 Y36.55106
N785 G1 Z0.7 F141.2
N786 Z0.1 F423.7
N787 X91.31656 Y36.73871 Z0.08358
N788 X91.31428 Y36.99247 Z0.06138
N789 X91.31291 Y37.24623 Z0.03918
N790 X91.31245 Y37.5 Z0.01698
N791 X91.31291 Y37.75377 Z-0.00523
N792 X91.31428 Y38.00753 Z-0.02743
N793 X91.31656 Y38.26129 Z-0.04963
N794 X91.31976 Y38.51503 Z-0.07183
N795 X91.32387 Y38.76877 Z-0.09403
N796 X91.32889 Y39.02248 Z-0.11623
N797 X91.33483 Y39.27618 Z-0.13844
N798 X91.34168 Y39.52985 Z-0.16064
N799 X91.34945 Y39.7835 Z-0.18284
N800 X91.35812 Y40.03712 Z-0.20504
N801 X91.36771 Y40.29071 Z-0.22724
N802 X91.37821 Y40.54426 Z-0.24945
N803 X91.38963 Y40.79777 Z-0.27165
N804 X91.40196 Y41.05123 Z-0.29385
N805 X91.4152 Y41.30465 Z-0.31605
N806 X91.42935 Y41.55803 Z-0.33825
N807 X91.44442 Y41.81134 Z-0.36045
N808 X91.46039 Y42.06461 Z-0.38266
N809 X91.47728 Y42.31781 Z-0.40486
N810 X91.41787 Y42.3199 Z-0.41006
N811 X91.35848 Y42.32234 Z-0.41526
N812 X91.29911 Y42.32513 Z-0.42046
N813 X91.23975 Y42.32826 Z-0.42566
N814 X91.18041 Y42.33174 Z-0.43086
N815 X91.12109 Y42.33556 Z-0.43606
N816 X91.0618 Y42.33973 Z-0.44126
N817 X91.00253 Y42.34425 Z-0.44646
N818 X90.94328 Y42.34911 Z-0.45166
N819 X90.88407 Y42.35432 Z-0.45686
N820 X90.82489 Y42.35987 Z-0.46206
N821 X90.76574 Y42.36577 Z-0.46726
N822 X90.70663 Y42.37201 Z-0.47246
N823 X90.64755 Y42.3786 Z-0.47766
N824 X90.58852 Y42.38554 Z-0.48286
N825 X90.56593 Y42.19097 Z-0.5
N826 X90.58852 Y42.38554 F565.
N827 G03 X90.5888 Y32.6145 I41.2142 J-4.88434
N828 G02 X91.47728 Y32.68219 I1.2174 J-10.1145
N829 Y42.31781 I70.32892 J4.81781
N830 X90.58852 Y42.38554 I0.32892 J10.18219
N831 G1 X89.80028 Y42.47895
N832 G03 X89.90614 Y31.69958 I42.00244 J-4.97775
N833 G02 X92.33323 Y31.87895 I1.90006 J-9.19958
N834 Y43.12105 I69.47297 J5.62105
N835 X89.90581 Y43.30049 I-0.52703 J9.37895
N836 G03 X89.80028 Y42.47895 I41.89691 J-5.79929
N837 G1 X89.01205 Y42.57236
N838 G03 X89.25088 Y30.7116 I42.79067 J-5.07116
N839 G02 X93.20865 Y30.98488 I2.55532 J-8.2116
N840 Y44.01512 I68.59755 J6.51512
N841 X89.25051 Y44.28852 I-1.40245 J8.48488
N842 G03 X89.01205 Y42.57236 I42.55221 J-6.78732
N843 G1 X88.22382 Y42.66578
N844 G03 X88.46951 Y30.57108 I43.5789 J-5.16458
N845 G1 X88.46966 Y30.57017
N846 G03 X88.63024 Y29.63098 I43.32371 J6.92427
N847 G02 X94.11257 Y29.95776 I3.17596 J-7.13098
N848 Y45.04224 I67.69363 J7.54224
N849 X88.62994 Y45.36916 I-2.30637 J7.45776
N850 G03 X88.22382 Y42.66578 I43.17278 J-7.86796
N851 G1 X87.43558 Y42.75919
N852 G03 X87.68572 Y30.44574 I44.36714 J-5.25799
N853 G1 X87.68585 Y30.4449
N854 G03 X88.05635 Y28.42569 I44.10752 J7.04954
N855 G02 X95.0638 Y28.70993 I3.74985 J-5.92569
N856 Y46.29007 I66.7424 J8.79007
N857 X88.05612 Y46.57446 I-3.2576 J6.20993
N858 G03 X87.43558 Y42.75919 I43.7466 J-9.07326
N859 G1 X86.64735 Y42.85261
N860 G03 X86.90193 Y30.32039 I45.15537 J-5.35141
N861 G1 X86.90205 Y30.31962
N862 G03 X87.55173 Y27.03567 I44.89132 J7.17482
N863 G02 X96.11808 Y26.98113 I4.25447 J-4.53567
N864 Y48.01887 I65.68812 J10.51887
N865 X87.55156 Y47.96448 I-4.31188 J4.48113
N866 G03 X86.64735 Y42.85261 I44.25116 J-10.46328
N867 G1 X85.85911 Y42.94602
N868 G03 X86.11814 Y30.19504 I45.94361 J-5.44482
N869 G1 X86.11825 Y30.19435
N870 G03 X87.17018 Y25.31744 I45.67512 J7.30009
N871 G02 X87.2655 Y25.46861 I4.63602 J-2.81744
N872 X96.94608 Y20.76441 I4.5407 J-2.96861
N873 G1 X98.2271 Y20.81783
N874 G02 Y54.18217 I63.5791 J16.68217
N875 G1 X96.94608 Y54.23559
N876 G02 X87.42387 Y49.30223 I-5.13988 J-1.73559
N877 X87.17009 Y49.68272 I4.38233 J3.19777
N878 G03 X85.85911 Y42.94602 I44.63263 J-12.18152
N879 G1 X85.07088 Y43.03944
N880 G03 X85.33435 Y30.06969 I46.73184 J-5.53824
N881 G1 X85.33445 Y30.06908
N882 G03 X87.17545 Y22.56767 I46.45892 J7.42536
N883 G02 X87.92987 Y25.03426 I4.63075 J-0.06767
N884 X95.6495 Y19.9159 I3.87633 J-2.53426
N885 G1 X99.2527 Y20.06617
N886 G02 Y54.93383 I62.5535 J17.43383
N887 G1 X95.6495 Y55.0841
N888 G02 X88.06506 Y49.7701 I-3.8433 J-2.5841
N889 X87.17545 Y52.43248 I3.74114 J2.7299
N890 G03 X85.07088 Y43.03944 I44.62727 J-14.93128
N891 G1 X84.28265 Y43.13285
N892 G03 X84.55056 Y29.94434 I47.52007 J-5.63165
N893 G1 X84.55064 Y29.94381
N894 G03 X87.75794 Y18.79236 I47.24273 J7.55063
N895 G1 X90.46319 Y18.90518
N896 G02 X88.59423 Y24.59992 I1.34301 J3.59482
N897 X93.44385 Y19.02948 I3.21197 J-2.09992
N898 G1 X100.29415 Y19.31516
N899 G02 Y55.68484 I61.51205 J18.18484
N900 G1 X93.44385 Y55.97052
N901 G02 X88.70626 Y50.23798 I-1.63765 J-3.47052
N902 X90.4632 Y56.09482 I3.09994 J2.26202
N903 G1 X87.75795 Y56.20764
N904 G03 X84.28265 Y43.13285 I44.04477 J-18.70644
N905 G1 X83.49441 Y43.22627
N906 G03 X83.76677 Y29.81899 I48.30831 J-5.72507
N907 G1 X83.76684 Y29.81854
N908 G03 X87.24543 Y17.97655 I48.02653 J7.6759
N909 G1 X101.35223 Y18.56484
N910 G02 Y56.43516 I60.45397 J18.93516
N911 G1 X87.24545 Y57.02345
N912 G03 X83.49441 Y43.22627 I44.55727 J-19.52225
N913 G1 X82.70618 Y43.31968
N914 G03 X82.98298 Y29.69364 I49.09654 J-5.81848
N915 G1 X82.98304 Y29.69326
N916 G03 X86.73942 Y17.16101 I48.81033 J7.80118
N917 G1 X102.4278 Y17.81526
N918 G02 Y57.18475 I59.3784 J19.68474
N919 G1 X86.73944 Y57.83899
N920 G03 X82.70618 Y43.31968 I45.06328 J-20.33779
N921 G1 X81.91795 Y43.41309
N922 G03 X82.19919 Y29.56829 I49.88477 J-5.91189
N923 G1 X82.19924 Y29.56799
N924 G03 X86.23968 Y16.34573 I49.59413 J7.92645
N925 G1 X103.52176 Y17.06644
N926 G02 Y57.93356 I58.28444 J20.43356
N927 G1 X86.2397 Y58.65427
N928 G03 X81.91795 Y43.41309 I45.56302 J-21.15307
N929 G1 X81.12971 Y43.50651
N930 G03 X81.4154 Y29.44295 I50.67301 J-6.00531
N931 G1 X81.41544 Y29.44272
N932 G03 X85.746 Y15.5307 I50.37793 J8.05172
N933 G1 X104.63515 Y16.31843
N934 G02 Y58.68157 I57.17105 J21.18157
N935 G1 X85.74601 Y59.4693
N936 G03 X81.12971 Y43.50651 I46.05671 J-21.9681
N937 G1 X80.34148 Y43.59992
N938 G03 X80.63161 Y29.3176 I51.46124 J-6.09872
N939 G1 X80.63163 Y29.31745
N940 G03 X85.25817 Y14.71592 I51.16174 J8.17699
N941 G1 X105.76906 Y15.57127
N942 G02 Y59.42873 I56.03714 J21.92873
N943 G1 X85.25818 Y60.28408
N944 G03 X80.34148 Y43.59992 I46.54454 J-22.78288
N945 G1 X79.55324 Y43.69334
N946 G03 X79.84782 Y29.19225 I52.24948 J-6.19214
N947 G1 X79.84783 Y29.19217
N948 G03 X84.77599 Y13.90137 I51.94554 J8.30227
N949 G1 X106.92471 Y14.82503
N950 G02 Y60.17497 I54.88149 J22.67497
N951 G1 X84.77601 Y61.09863
N952 G03 X79.55324 Y43.69334 I47.02671 J-23.59743
N953 G1 X78.76501 Y43.78675
N954 G03 X79.06403 Y29.0669 I53.03771 J-6.28555
N955 X84.29931 Y13.08705 I52.72934 J8.42754
N956 G1 X108.10344 Y14.07974
N957 G02 Y60.92026 I53.70276 J23.42026
N958 G1 X84.29932 Y61.91295
N959 G03 X78.76501 Y43.78675 I47.5034 J-24.41175
N960 G1 X79.77303 Y43.45675 Z0.56066 F847.5
N961 Z1.16066
N962 G0 Z1.5875
N963 X91.31893 Y36.55106
N964 G1 Z0.2 F141.2
N965 Z-0.4 F423.7
N966 X91.31656 Y36.73871 Z-0.41642
N967 X91.31428 Y36.99247 Z-0.43862
N968 X91.31291 Y37.24623 Z-0.46082
N969 X91.31245 Y37.5 Z-0.48302
N970 X91.31291 Y37.75377 Z-0.50523
N971 X91.31428 Y38.00753 Z-0.52743
N972 X91.31656 Y38.26129 Z-0.54963
N973 X91.31976 Y38.51503 Z-0.57183
N974 X91.32387 Y38.76877 Z-0.59403
N975 X91.32889 Y39.02248 Z-0.61623
N976 X91.33483 Y39.27618 Z-0.63844
N977 X91.34168 Y39.52985 Z-0.66064
N978 X91.34945 Y39.7835 Z-0.68284
N979 X91.35812 Y40.03712 Z-0.70504
N980 X91.36771 Y40.29071 Z-0.72724
N981 X91.37821 Y40.54426 Z-0.74945
N982 X91.38963 Y40.79777 Z-0.77165
N983 X91.40196 Y41.05123 Z-0.79385
N984 X91.4152 Y41.30465 Z-0.81605
N985 X91.42935 Y41.55803 Z-0.83825
N986 X91.44442 Y41.81134 Z-0.86045
N987 X91.46039 Y42.06461 Z-0.88266
N988 X91.47728 Y42.31781 Z-0.90486
N989 X91.41787 Y42.3199 Z-0.91006
N990 X91.35848 Y42.32234 Z-0.91526
N991 X91.29911 Y42.32513 Z-0.92046
N992 X91.23975 Y42.32826 Z-0.92566
N993 X91.18041 Y42.33174 Z-0.93086
N994 X91.12109 Y42.33556 Z-0.93606
N995 X91.0618 Y42.33973 Z-0.94126
N996 X91.00253 Y42.34425 Z-0.94646
N997 X90.94328 Y42.34911 Z-0.95166
N998 X90.88407 Y42.35432 Z-0.95686
N999 X90.82489 Y42.35987 Z-0.96206
N1000 X90.76574 Y42.36577 Z-0.96726
N1001 X90.70663 Y42.37201 Z-0.97246
N1002 X90.64755 Y42.3786 Z-0.97766
N1003 X90.58852 Y42.38554 Z-0.98286
N1004 X90.56593 Y42.19097 Z-1.
N1005 X90.58852 Y42.38554 F565.
N1006 G03 X90.5888 Y32.6145 I41.2142 J-4.88434
N1007 G02 X91.47728 Y32.68219 I1.2174 J-10.1145
N1008 Y42.31781 I70.32892 J4.81781
N1009 X90.58852 Y42.38554 I0.32892 J10.18219
N1010 G1 X90.68339 Y43.1736
N1011 G02 X89.90581 Y43.30049 I1.12281 J9.3264
N1012 G03 X89.90614 Y31.69958 I41.89691 J-5.79929
N1013 G02 X92.33323 Y31.87895 I1.90006 J-9.19958
N1014 Y43.12105 I69.47297 J5.62105
N1015 X90.68339 Y43.1736 I-0.52703 J9.37895
N1016 G1 X90.77827 Y43.96165
N1017 G02 X89.25051 Y44.28852 I1.02793 J8.53835
N1018 G03 X89.25088 Y30.7116 I42.55221 J-6.78732
N1019 G02 X93.20865 Y30.98488 I2.55532 J-8.2116
N1020 Y44.01512 I68.59755 J6.51512
N1021 X90.77827 Y43.96165 I-1.40245 J8.48488
N1022 G1 X90.87314 Y44.74971
N1023 G02 X88.62994 Y45.36916 I0.93306 J7.75029
N1024 G03 X88.46951 Y30.57108 I43.17278 J-7.86796
N1025 G1 X88.46966 Y30.57017
N1026 G03 X88.63024 Y29.63098 I43.32371 J6.92427
N1027 G02 X94.11257 Y29.95776 I3.17596 J-7.13098
N1028 Y45.04224 I67.69363 J7.54224
N1029 X90.87314 Y44.74971 I-2.30637 J7.45776
N1030 G1 X90.96802 Y45.53777
N1031 G02 X88.05612 Y46.57446 I0.83818 J6.96223
N1032 G03 X87.68572 Y30.44574 I43.7466 J-9.07326
N1033 G1 X87.68585 Y30.4449
N1034 G03 X88.05635 Y28.42569 I44.10752 J7.04954
N1035 G02 X95.0638 Y28.70993 I3.74985 J-5.92569
N1036 Y46.29007 I66.7424 J8.79007
N1037 X90.96802 Y45.53777 I-3.2576 J6.20993
N1038 G1 X91.06289 Y46.32583
N1039 G02 X87.55156 Y47.96448 I0.74331 J6.17417
N1040 G03 X86.90193 Y30.32039 I44.25116 J-10.46328
N1041 G1 X86.90205 Y30.31962
N1042 G03 X87.55173 Y27.03567 I44.89132 J7.17482
N1043 G02 X96.11808 Y26.98113 I4.25447 J-4.53567
N1044 Y48.01887 I65.68812 J10.51887
N1045 X91.06289 Y46.32583 I-4.31188 J4.48113
N1046 G1 X91.15777 Y47.11389
N1047 G02 X87.42387 Y49.30223 I0.64843 J5.38611
N1048 X87.17009 Y49.68272 I4.38233 J3.19777
N1049 G03 X86.11814 Y30.19504 I44.63263 J-12.18152
N1050 G1 X86.11825 Y30.19435
N1051 G03 X87.17018 Y25.31744 I45.67512 J7.30009
N1052 G02 X87.2655 Y25.46861 I4.63602 J-2.81744
N1053 X96.94608 Y20.76441 I4.5407 J-2.96861
N1054 G1 X98.2271 Y20.81783
N1055 G02 Y54.18217 I63.5791 J16.68217
N1056 G1 X96.94608 Y54.23559
N1057 G02 X91.15777 Y47.11389 I-5.13988 J-1.73559
N1058 G1 X91.25264 Y47.90195
N1059 G02 X88.06506 Y49.7701 I0.55356 J4.59805
N1060 X87.17545 Y52.43248 I3.74114 J2.7299
N1061 G03 X85.33435 Y30.06969 I44.62727 J-14.93128
N1062 G1 X85.33445 Y30.06908
N1063 G03 X87.17545 Y22.56767 I46.45892 J7.42536
N1064 G02 X87.92987 Y25.03426 I4.63075 J-0.06767
N1065 X95.6495 Y19.9159 I3.87633 J-2.53426
N1066 G1 X99.2527 Y20.06617
N1067 G02 Y54.93383 I62.5535 J17.43383
N1068 G1 X95.6495 Y55.0841
N1069 G02 X91.25264 Y47.90195 I-3.8433 J-2.5841
N1070 G1 X91.34752 Y48.69001
N1071 G02 X88.70626 Y50.23798 I0.45868 J3.80999
N1072 X90.4632 Y56.09482 I3.09994 J2.26202
N1073 G1 X87.75795 Y56.20764
N1074 G03 X84.55056 Y29.94434 I44.04477 J-18.70644
N1075 G1 X84.55064 Y29.94381
N1076 G03 X87.75794 Y18.79236 I47.24273 J7.55063
N1077 G1 X90.46319 Y18.90518
N1078 G02 X88.59423 Y24.59992 I1.34301 J3.59482
N1079 X93.44385 Y19.02948 I3.21197 J-2.09992
N1080 G1 X100.29415 Y19.31516
N1081 G02 Y55.68484 I61.51205 J18.18484
N1082 G1 X93.44385 Y55.97052
N1083 G02 X91.34752 Y48.69001 I-1.63765 J-3.47052
N1084 G1 X92.32356 Y48.27487 Z0.06066 F847.5
N1085 Z0.66066
N1086 G0 Z1.5875
N1087 X87.20386 Y56.92797
N1088 G1 Z0.2 F141.2
N1089 Z-0.4 F423.7
N1090 X87.1612 Y56.83003 Z-0.40935
N1091 X87.07779 Y56.63624 Z-0.42781
N1092 X86.99523 Y56.44209 Z-0.44626
N1093 X86.9135 Y56.24759 Z-0.46472
N1094 X86.83262 Y56.05273 Z-0.48318
N1095 X86.75259 Y55.85752 Z-0.50164
N1096 X86.6734 Y55.66197 Z-0.52009
N1097 X86.59507 Y55.46608 Z-0.53855
N1098 X86.51758 Y55.26985 Z-0.55701
N1099 X86.44095 Y55.07329 Z-0.57547
N1100 X86.36516 Y54.87639 Z-0.59393
N1101 X86.29024 Y54.67917 Z-0.61238
N1102 X86.21617 Y54.48163 Z-0.63084
N1103 X86.14295 Y54.28376 Z-0.6493
N1104 X86.0706 Y54.08558 Z-0.66776
N1105 X85.9991 Y53.88709 Z-0.68622
N1106 X85.92847 Y53.68829 Z-0.70467
N1107 X85.8587 Y53.48919 Z-0.72313
N1108 X85.78979 Y53.28978 Z-0.74159
N1109 X85.72175 Y53.09008 Z-0.76005
N1110 X85.65458 Y52.89008 Z-0.77851
N1111 X85.58827 Y52.6898 Z-0.79696
N1112 X85.52283 Y52.48923 Z-0.81542
N1113 X85.45827 Y52.28838 Z-0.83388
N1114 X85.39457 Y52.08725 Z-0.85234
N1115 X85.33175 Y51.88584 Z-0.87079
N1116 X85.2698 Y51.68417 Z-0.88925
N1117 X85.20873 Y51.48223 Z-0.90771
N1118 X85.14853 Y51.28002 Z-0.92617
N1119 X85.08922 Y51.07756 Z-0.94463
N1120 X85.03078 Y50.87484 Z-0.96308
N1121 X84.97322 Y50.67187 Z-0.98154
N1122 X84.91654 Y50.46865 Z-1.
N1123 G03 X83.76677 Y29.81899 I46.88618 J-12.96745 F565.
N1124 G1 X83.76684 Y29.81854
N1125 G03 X87.24543 Y17.97655 I48.02653 J7.6759
N1126 G1 X101.35223 Y18.56484
N1127 G02 Y56.43516 I60.45397 J18.93516
N1128 G1 X87.24545 Y57.02345
N1129 G03 X84.91654 Y50.46865 I44.55727 J-19.52225
N1130 G1 X84.15151 Y50.68023
N1131 G03 X82.98298 Y29.69364 I47.65121 J-13.17903
N1132 G1 X82.98304 Y29.69326
N1133 G03 X86.73942 Y17.16101 I48.81033 J7.80118
N1134 G1 X102.4278 Y17.81526
N1135 G02 Y57.18475 I59.3784 J19.68474
N1136 G1 X86.73944 Y57.83899
N1137 G03 X84.15151 Y50.68023 I45.06328 J-20.33779
N1138 G1 X83.38648 Y50.89182
N1139 G03 X82.19919 Y29.56829 I48.41624 J-13.39062
N1140 G1 X82.19924 Y29.56799
N1141 G03 X86.23968 Y16.34573 I49.59413 J7.92645
N1142 G1 X103.52176 Y17.06644
N1143 G02 Y57.93356 I58.28444 J20.43356
N1144 G1 X86.2397 Y58.65427
N1145 G03 X83.38648 Y50.89182 I45.56302 J-21.15307
N1146 G1 X82.62145 Y51.10341
N1147 G03 X81.4154 Y29.44295 I49.18127 J-13.60221
N1148 G1 X81.41544 Y29.44272
N1149 G03 X85.746 Y15.5307 I50.37793 J8.05172
N1150 G1 X104.63515 Y16.31843
N1151 G02 Y58.68157 I57.17105 J21.18157
N1152 G1 X85.74601 Y59.4693
N1153 G03 X82.62145 Y51.10341 I46.05671 J-21.9681
N1154 G1 X81.85642 Y51.31499
N1155 G03 X80.63161 Y29.3176 I49.9463 J-13.81379
N1156 G1 X80.63163 Y29.31745
N1157 G03 X85.25817 Y14.71592 I51.16174 J8.17699
N1158 G1 X105.76906 Y15.57127
N1159 G02 Y59.42873 I56.03714 J21.92873
N1160 G1 X85.25818 Y60.28408
N1161 G03 X81.85642 Y51.31499 I46.54454 J-22.78288
N1162 G1 X81.09139 Y51.52658
N1163 G03 X79.84782 Y29.19225 I50.71133 J-14.02538
N1164 G1 X79.84783 Y29.19217
N1165 G03 X84.77599 Y13.90137 I51.94554 J8.30227
N1166 G1 X106.92471 Y14.82503
N1167 G02 Y60.17497 I54.88149 J22.67497
N1168 G1 X84.77601 Y61.09863
N1169 G03 X81.09139 Y51.52658 I47.02671 J-23.59743
N1170 G1 X80.32636 Y51.73817
N1171 G03 X79.06403 Y29.0669 I51.47636 J-14.23697
N1172 X84.29931 Y13.08705 I52.72934 J8.42754
N1173 G1 X108.10344 Y14.07974
N1174 G02 Y60.92026 I53.70276 J23.42026
N1175 G1 X84.29932 Y61.91295
N1176 G03 X80.32636 Y51.73817 I47.5034 J-24.41175
N1177 G1 X81.33438 Y51.40816 Z0.06066 F847.5
N1178 Z0.66066
N1179 G0 Z1.5875
N1180 X91.31893 Y36.55106
N1181 G1 Z-0.3 F141.2
N1182 Z-0.9 F423.7
N1183 X91.31656 Y36.73871 Z-0.91642
N1184 X91.31428 Y36.99247 Z-0.93862
N1185 X91.31291 Y37.24623 Z-0.96082
N1186 X91.31245 Y37.5 Z-0.98302
N1187 X91.31291 Y37.75377 Z-1.00523
N1188 X91.31428 Y38.00753 Z-1.02743
N1189 X91.31656 Y38.26129 Z-1.04963
N1190 X91.31976 Y38.51503 Z-1.07183
N1191 X91.32387 Y38.76877 Z-1.09403
N1192 X91.32889 Y39.02248 Z-1.11623
N1193 X91.33483 Y39.27618 Z-1.13844
N1194 X91.34168 Y39.52985 Z-1.16064
N1195 X91.34945 Y39.7835 Z-1.18284
N1196 X91.35812 Y40.03712 Z-1.20504
N1197 X91.36771 Y40.29071 Z-1.22724
N1198 X91.37821 Y40.54426 Z-1.24944
N1199 X91.38963 Y40.79777 Z-1.27165
N1200 X91.40196 Y41.05123 Z-1.29385
N1201 X91.4152 Y41.30465 Z-1.31605
N1202 X91.42935 Y41.55803 Z-1.33825
N1203 X91.44442 Y41.81134 Z-1.36045
N1204 X91.46039 Y42.06461 Z-1.38266
N1205 X91.47728 Y42.31781 Z-1.40486
N1206 X91.41787 Y42.3199 Z-1.41006
N1207 X91.35848 Y42.32234 Z-1.41526
N1208 X91.29911 Y42.32513 Z-1.42046
N1209 X91.23975 Y42.32826 Z-1.42566
N1210 X91.18041 Y42.33174 Z-1.43086
N1211 X91.12109 Y42.33556 Z-1.43606
N1212 X91.0618 Y42.33973 Z-1.44126
N1213 X91.00253 Y42.34425 Z-1.44646
N1214 X90.94328 Y42.34911 Z-1.45166
N1215 X90.88407 Y42.35432 Z-1.45686
N1216 X90.82489 Y42.35987 Z-1.46206
N1217 X90.76574 Y42.36577 Z-1.46726
N1218 X90.70663 Y42.37201 Z-1.47246
N1219 X90.64755 Y42.3786 Z-1.47766
N1220 X90.58852 Y42.38554 Z-1.48286
N1221 X90.56593 Y42.19097 Z-1.5
N1222 X90.58852 Y42.38554 F565.
N1223 G03 X90.5888 Y32.6145 I41.2142 J-4.88434
N1224 G02 X91.47728 Y32.68219 I1.2174 J-10.1145
N1225 Y42.31781 I70.32892 J4.81781
N1226 X90.58852 Y42.38554 I0.32892 J10.18219
N1227 G1 X90.68339 Y43.1736
N1228 G02 X89.90581 Y43.30049 I1.12281 J9.3264
N1229 G03 X89.90614 Y31.69958 I41.89691 J-5.79929
N1230 G02 X92.33323 Y31.87895 I1.90006 J-9.19958
N1231 Y43.12105 I69.47297 J5.62105
N1232 X90.68339 Y43.1736 I-0.52703 J9.37895
N1233 G1 X90.77827 Y43.96165
N1234 G02 X89.25051 Y44.28852 I1.02793 J8.53835
N1235 G03 X89.25088 Y30.7116 I42.55221 J-6.78732
N1236 G02 X93.20865 Y30.98488 I2.55532 J-8.2116
N1237 Y44.01512 I68.59755 J6.51512
N1238 X90.77827 Y43.96165 I-1.40245 J8.48488
N1239 G1 X90.87314 Y44.74971
N1240 G02 X88.62994 Y45.36916 I0.93306 J7.75029
N1241 G03 X88.46951 Y30.57108 I43.17278 J-7.86796
N1242 G1 X88.46966 Y30.57017
N1243 G03 X88.63024 Y29.63098 I43.32371 J6.92427
N1244 G02 X94.11257 Y29.95776 I3.17596 J-7.13098
N1245 Y45.04224 I67.69363 J7.54224
N1246 X90.87314 Y44.74971 I-2.30637 J7.45776
N1247 G1 X90.96802 Y45.53777
N1248 G02 X88.05612 Y46.57446 I0.83818 J6.96223
N1249 G03 X87.68572 Y30.44574 I43.7466 J-9.07326
N1250 G1 X87.68585 Y30.4449
N1251 G03 X88.05635 Y28.42569 I44.10752 J7.04954
N1252 G02 X95.0638 Y28.70993 I3.74985 J-5.92569
N1253 Y46.29007 I66.7424 J8.79007
N1254 X90.96802 Y45.53777 I-3.2576 J6.20993
N1255 G1 X91.06289 Y46.32583
N1256 G02 X87.55156 Y47.96448 I0.74331 J6.17417
N1257 G03 X86.90193 Y30.32039 I44.25116 J-10.46328
N1258 G1 X86.90205 Y30.31962
N1259 G03 X87.55173 Y27.03567 I44.89132 J7.17482
N1260 G02 X96.11808 Y26.98113 I4.25447 J-4.53567
N1261 Y48.01887 I65.68812 J10.51887
N1262 X91.06289 Y46.32583 I-4.31188 J4.48113
N1263 G1 X91.15777 Y47.11389
N1264 G02 X87.42387 Y49.30223 I0.64843 J5.38611
N1265 X87.17009 Y49.68272 I4.38233 J3.19777
N1266 G03 X86.11814 Y30.19504 I44.63263 J-12.18152
N1267 G1 X86.11825 Y30.19435
N1268 G03 X87.17018 Y25.31744 I45.67512 J7.30009
N1269 G02 X87.2655 Y25.46861 I4.63602 J-2.81744
N1270 X96.94608 Y20.76441 I4.5407 J-2.96861
N1271 G1 X98.2271 Y20.81783
N1272 G02 Y54.18217 I63.5791 J16.68217
N1273 G1 X96.94608 Y54.23559
N1274 G02 X91.15777 Y47.11389 I-5.13988 J-1.73559
N1275 G1 X91.25264 Y47.90195
N1276 G02 X88.06506 Y49.7701 I0.55356 J4.59805
N1277 X87.17545 Y52.43248 I3.74114 J2.7299
N1278 G03 X85.33435 Y30.06969 I44.62727 J-14.93128
N1279 G1 X85.33445 Y30.06908
N1280 G03 X87.17545 Y22.56767 I46.45892 J7.42536
N1281 G02 X87.92987 Y25.03426 I4.63075 J-0.06767
N1282 X95.6495 Y19.9159 I3.87633 J-2.53426
N1283 G1 X99.2527 Y20.06617
N1284 G02 Y54.93383 I62.5535 J17.43383
N1285 G1 X95.6495 Y55.0841
N1286 G02 X91.25264 Y47.90195 I-3.8433 J-2.5841
N1287 G1 X91.34752 Y48.69001
N1288 G02 X88.70626 Y50.23798 I0.45868 J3.80999
N1289 X90.4632 Y56.09482 I3.09994 J2.26202
N1290 G1 X87.75795 Y56.20764
N1291 G03 X84.55056 Y29.94434 I44.04477 J-18.70644
N1292 G1 X84.55064 Y29.94381
N1293 G03 X87.75794 Y18.79236 I47.24273 J7.55063
N1294 G1 X90.46319 Y18.90518
N1295 G02 X88.59423 Y24.59992 I1.34301 J3.59482
N1296 X93.44385 Y19.02948 I3.21197 J-2.09992
N1297 G1 X100.29415 Y19.31516
N1298 G02 Y55.68484 I61.51205 J18.18484
N1299 G1 X93.44385 Y55.97052
N1300 G02 X91.34752 Y48.69001 I-1.63765 J-3.47052
N1301 G1 X92.32356 Y48.27487 Z-0.43934 F847.5
N1302 Z0.16066
N1303 G0 Z1.5875
N1304 X87.20386 Y56.92797
N1305 G1 Z-0.3 F141.2
N1306 Z-0.9 F423.7
N1307 X87.1612 Y56.83003 Z-0.90935
N1308 X87.07779 Y56.63624 Z-0.92781
N1309 X86.99523 Y56.44209 Z-0.94626
N1310 X86.9135 Y56.24759 Z-0.96472
N1311 X86.83262 Y56.05273 Z-0.98318
N1312 X86.75259 Y55.85752 Z-1.00164
N1313 X86.6734 Y55.66197 Z-1.02009
N1314 X86.59507 Y55.46608 Z-1.03855
N1315 X86.51758 Y55.26985 Z-1.05701
N1316 X86.44095 Y55.07329 Z-1.07547
N1317 X86.36516 Y54.87639 Z-1.09393
N1318 X86.29024 Y54.67917 Z-1.11238
N1319 X86.21617 Y54.48163 Z-1.13084
N1320 X86.14295 Y54.28376 Z-1.1493
N1321 X86.0706 Y54.08558 Z-1.16776
N1322 X85.9991 Y53.88709 Z-1.18622
N1323 X85.92847 Y53.68829 Z-1.20467
N1324 X85.8587 Y53.48919 Z-1.22313
N1325 X85.78979 Y53.28978 Z-1.24159
N1326 X85.72175 Y53.09008 Z-1.26005
N1327 X85.65458 Y52.89008 Z-1.27851
N1328 X85.58827 Y52.6898 Z-1.29696
N1329 X85.52283 Y52.48923 Z-1.31542
N1330 X85.45827 Y52.28838 Z-1.33388
N1331 X85.39457 Y52.08725 Z-1.35234
N1332 X85.33175 Y51.88584 Z-1.3708
N1333 X85.2698 Y51.68417 Z-1.38925
N1334 X85.20873 Y51.48223 Z-1.40771
N1335 X85.14853 Y51.28002 Z-1.42617
N1336 X85.08922 Y51.07756 Z-1.44463
N1337 X85.03078 Y50.87484 Z-1.46308
N1338 X84.97322 Y50.67187 Z-1.48154
N1339 X84.91654 Y50.46865 Z-1.5
N1340 G03 X83.76677 Y29.81899 I46.88618 J-12.96745 F565.
N1341 G1 X83.76684 Y29.81854
N1342 G03 X87.24543 Y17.97655 I48.02653 J7.6759
N1343 G1 X101.35223 Y18.56484
N1344 G02 Y56.43516 I60.45397 J18.93516
N1345 G1 X87.24545 Y57.02345
N1346 G03 X84.91654 Y50.46865 I44.55727 J-19.52225
N1347 G1 X84.15151 Y50.68023
N1348 G03 X82.98298 Y29.69364 I47.65121 J-13.17903
N1349 G1 X82.98304 Y29.69326
N1350 G03 X86.73942 Y17.16101 I48.81033 J7.80118
N1351 G1 X102.4278 Y17.81526
N1352 G02 Y57.18475 I59.3784 J19.68474
N1353 G1 X86.73944 Y57.83899
N1354 G03 X84.15151 Y50.68023 I45.06328 J-20.33779
N1355 G1 X83.38648 Y50.89182
N1356 G03 X82.19919 Y29.56829 I48.41624 J-13.39062
N1357 G1 X82.19924 Y29.56799
N1358 G03 X86.23968 Y16.34573 I49.59413 J7.92645
N1359 G1 X103.52176 Y17.06644
N1360 G02 Y57.93356 I58.28444 J20.43356
N1361 G1 X86.2397 Y58.65427
N1362 G03 X83.38648 Y50.89182 I45.56302 J-21.15307
N1363 G1 X82.62145 Y51.10341
N1364 G03 X81.4154 Y29.44295 I49.18127 J-13.60221
N1365 G1 X81.41544 Y29.44272
N1366 G03 X85.746 Y15.5307 I50.37793 J8.05172
N1367 G1 X104.63515 Y16.31843
N1368 G02 Y58.68157 I57.17105 J21.18157
N1369 G1 X85.74601 Y59.4693
N1370 G03 X82.62145 Y51.10341 I46.05671 J-21.9681
N1371 G1 X81.85642 Y51.31499
N1372 G03 X80.63161 Y29.3176 I49.9463 J-13.81379
N1373 G1 X80.63163 Y29.31745
N1374 G03 X85.25817 Y14.71592 I51.16174 J8.17699
N1375 G1 X105.76906 Y15.57127
N1376 G02 Y59.42873 I56.03714 J21.92873
N1377 G1 X85.25818 Y60.28408
N1378 G03 X81.85642 Y51.31499 I46.54454 J-22.78288
N1379 G1 X81.09139 Y51.52658
N1380 G03 X79.84782 Y29.19225 I50.71133 J-14.02538
N1381 G1 X79.84783 Y29.19217
N1382 G03 X84.77599 Y13.90137 I51.94554 J8.30227
N1383 G1 X106.92471 Y14.82503
N1384 G02 Y60.17497 I54.88149 J22.67497
N1385 G1 X84.77601 Y61.09863
N1386 G03 X81.09139 Y51.52658 I47.02671 J-23.59743
N1387 G1 X80.32636 Y51.73817
N1388 G03 X79.06403 Y29.0669 I51.47636 J-14.23697
N1389 X84.29931 Y13.08705 I52.72934 J8.42754
N1390 G1 X108.10344 Y14.07974
N1391 G02 Y60.92026 I53.70276 J23.42026
N1392 G1 X84.29932 Y61.91295
N1393 G03 X80.32636 Y51.73817 I47.5034 J-24.41175
N1394 G1 X81.33438 Y51.40816 Z-0.43934 F847.5
N1395 Z0.16066
N1396 G0 Z1.5875
N1397 X91.31893 Y36.55106
N1398 G1 Z-0.8 F141.2
N1399 Z-1.4 F423.7
N1400 X91.31656 Y36.73871 Z-1.41642
N1401 X91.31428 Y36.99247 Z-1.43862
N1402 X91.31291 Y37.24623 Z-1.46082
N1403 X91.31245 Y37.5 Z-1.48302
N1404 X91.31291 Y37.75377 Z-1.50523
N1405 X91.31428 Y38.00753 Z-1.52743
N1406 X91.31656 Y38.26129 Z-1.54963
N1407 X91.31976 Y38.51503 Z-1.57183
N1408 X91.32387 Y38.76877 Z-1.59403
N1409 X91.32889 Y39.02248 Z-1.61623
N1410 X91.33483 Y39.27618 Z-1.63844
N1411 X91.34168 Y39.52985 Z-1.66064
N1412 X91.34945 Y39.7835 Z-1.68284
N1413 X91.35812 Y40.03712 Z-1.70504
N1414 X91.36771 Y40.29071 Z-1.72724
N1415 X91.37821 Y40.54426 Z-1.74945
N1416 X91.38963 Y40.79777 Z-1.77165
N1417 X91.40196 Y41.05123 Z-1.79385
N1418 X91.4152 Y41.30465 Z-1.81605
N1419 X91.42935 Y41.55803 Z-1.83825
N1420 X91.44442 Y41.81134 Z-1.86045
N1421 X91.46039 Y42.06461 Z-1.88266
N1422 X91.47728 Y42.31781 Z-1.90486
N1423 X91.41787 Y42.3199 Z-1.91006
N1424 X91.35848 Y42.32234 Z-1.91526
N1425 X91.29911 Y42.32513 Z-1.92046
N1426 X91.23975 Y42.32826 Z-1.92566
N1427 X91.18041 Y42.33174 Z-1.93086
N1428 X91.12109 Y42.33556 Z-1.93606
N1429 X91.0618 Y42.33973 Z-1.94126
N1430 X91.00253 Y42.34425 Z-1.94646
N1431 X90.94328 Y42.34911 Z-1.95166
N1432 X90.88407 Y42.35432 Z-1.95686
N1433 X90.82489 Y42.35987 Z-1.96206
N1434 X90.76574 Y42.36577 Z-1.96726
N1435 X90.70663 Y42.37201 Z-1.97246
N1436 X90.64755 Y42.3786 Z-1.97766
N1437 X90.58852 Y42.38554 Z-1.98286
N1438 X90.56593 Y42.19097 Z-2.
N1439 X90.58852 Y42.38554 F565.
N1440 G03 X90.5888 Y32.6145 I41.2142 J-4.88434
N1441 G02 X91.47728 Y32.68219 I1.2174 J-10.1145
N1442 Y42.31781 I70.32892 J4.81781
N1443 X90.58852 Y42.38554 I0.32892 J10.18219
N1444 G1 X89.80028 Y42.47895
N1445 G03 X89.90614 Y31.69958 I42.00244 J-4.97775
N1446 G02 X92.33323 Y31.87895 I1.90006 J-9.19958
N1447 Y43.12105 I69.47297 J5.62105
N1448 X89.90581 Y43.30049 I-0.52703 J9.37895
N1449 G03 X89.80028 Y42.47895 I41.89691 J-5.79929
N1450 G1 X89.01205 Y42.57236
N1451 G03 X89.25088 Y30.7116 I42.79067 J-5.07116
N1452 G02 X93.20865 Y30.98488 I2.55532 J-8.2116
N1453 Y44.01512 I68.59755 J6.51512
N1454 X89.25051 Y44.28852 I-1.40245 J8.48488
N1455 G03 X89.01205 Y42.57236 I42.55221 J-6.78732
N1456 G1 X88.22382 Y42.66578
N1457 G03 X88.46951 Y30.57108 I43.5789 J-5.16458
N1458 G1 X88.46966 Y30.57017
N1459 G03 X88.63024 Y29.63098 I43.32371 J6.92427
N1460 G02 X94.11257 Y29.95776 I3.17596 J-7.13098
N1461 Y45.04224 I67.69363 J7.54224
N1462 X88.62994 Y45.36916 I-2.30637 J7.45776
N1463 G03 X88.22382 Y42.66578 I43.17278 J-7.86796
N1464 G1 X87.43558 Y42.75919
N1465 G03 X87.68572 Y30.44574 I44.36714 J-5.25799
N1466 G1 X87.68585 Y30.4449
N1467 G03 X88.05635 Y28.42569 I44.10752 J7.04954
N1468 G02 X95.0638 Y28.70993 I3.74985 J-5.92569
N1469 Y46.29007 I66.7424 J8.79007
N1470 X88.05612 Y46.57446 I-3.2576 J6.20993
N1471 G03 X87.43558 Y42.75919 I43.7466 J-9.07326
N1472 G1 X86.64735 Y42.85261
N1473 G03 X86.90193 Y30.32039 I45.15537 J-5.35141
N1474 G1 X86.90205 Y30.31962
N1475 G03 X87.55173 Y27.03567 I44.89132 J7.17482
N1476 G02 X96.11808 Y26.98113 I4.25447 J-4.53567
N1477 Y48.01887 I65.68812 J10.51887
N1478 X87.55156 Y47.96448 I-4.31188 J4.48113
N1479 G03 X86.64735 Y42.85261 I44.25116 J-10.46328
N1480 G1 X85.85911 Y42.94602
N1481 G03 X86.11814 Y30.19504 I45.94361 J-5.44482
N1482 G1 X86.11825 Y30.19435
N1483 G03 X87.17018 Y25.31744 I45.67512 J7.30009
N1484 G02 X87.2655 Y25.46861 I4.63602 J-2.81744
N1485 X96.94608 Y20.76441 I4.5407 J-2.96861
N1486 G1 X98.2271 Y20.81783
N1487 G02 Y54.18217 I63.5791 J16.68217
N1488 G1 X96.94608 Y54.23559
N1489 G02 X87.42387 Y49.30223 I-5.13988 J-1.73559
N1490 X87.17009 Y49.68272 I4.38233 J3.19777
N1491 G03 X85.85911 Y42.94602 I44.63263 J-12.18152
N1492 G1 X85.07088 Y43.03944
N1493 G03 X85.33435 Y30.06969 I46.73184 J-5.53824
N1494 G1 X85.33445 Y30.06908
N1495 G03 X87.17545 Y22.56767 I46.45892 J7.42536
N1496 G02 X87.92987 Y25.03426 I4.63075 J-0.06767
N1497 X95.6495 Y19.9159 I3.87633 J-2.53426
N1498 G1 X99.2527 Y20.06617
N1499 G02 Y54.93383 I62.5535 J17.43383
N1500 G1 X95.6495 Y55.0841
N1501 G02 X88.06506 Y49.7701 I-3.8433 J-2.5841
N1502 X87.17545 Y52.43248 I3.74114 J2.7299
N1503 G03 X85.07088 Y43.03944 I44.62727 J-14.93128
N1504 G1 X84.28265 Y43.13285
N1505 G03 X84.55056 Y29.94434 I47.52007 J-5.63165
N1506 G1 X84.55064 Y29.94381
N1507 G03 X87.75794 Y18.79236 I47.24273 J7.55063
N1508 G1 X90.46319 Y18.90518
N1509 G02 X88.59423 Y24.59992 I1.34301 J3.59482
N1510 X93.44385 Y19.02948 I3.21197 J-2.09992
N1511 G1 X100.29415 Y19.31516
N1512 G02 Y55.68484 I61.51205 J18.18484
N1513 G1 X93.44385 Y55.97052
N1514 G02 X88.70626 Y50.23798 I-1.63765 J-3.47052
N1515 X90.4632 Y56.09482 I3.09994 J2.26202
N1516 G1 X87.75795 Y56.20764
N1517 G03 X84.28265 Y43.13285 I44.04477 J-18.70644
N1518 G1 X83.49441 Y43.22627
N1519 G03 X83.76677 Y29.81899 I48.30831 J-5.72507
N1520 G1 X83.76684 Y29.81854
N1521 G03 X87.24543 Y17.97655 I48.02653 J7.6759
N1522 G1 X101.35223 Y18.56484
N1523 G02 Y56.43516 I60.45397 J18.93516
N1524 G1 X87.24545 Y57.02345
N1525 G03 X83.49441 Y43.22627 I44.55727 J-19.52225
N1526 G1 X82.70618 Y43.31968
N1527 G03 X82.98298 Y29.69364 I49.09654 J-5.81848
N1528 G1 X82.98304 Y29.69326
N1529 G03 X86.73942 Y17.16101 I48.81033 J7.80118
N1530 G1 X102.4278 Y17.81526
N1531 G02 Y57.18475 I59.3784 J19.68474
N1532 G1 X86.73944 Y57.83899
N1533 G03 X82.70618 Y43.31968 I45.06328 J-20.33779
N1534 G1 X81.91795 Y43.41309
N1535 G03 X82.19919 Y29.56829 I49.88477 J-5.91189
N1536 G1 X82.19924 Y29.56799
N1537 G03 X86.23968 Y16.34573 I49.59413 J7.92645
N1538 G1 X103.52176 Y17.06644
N1539 G02 Y57.93356 I58.28444 J20.43356
N1540 G1 X86.2397 Y58.65427
N1541 G03 X81.91795 Y43.41309 I45.56302 J-21.15307
N1542 G1 X81.12971 Y43.50651
N1543 G03 X81.4154 Y29.44295 I50.67301 J-6.00531
N1544 G1 X81.41544 Y29.44272
N1545 G03 X85.746 Y15.5307 I50.37793 J8.05172
N1546 G1 X104.63515 Y16.31843
N1547 G02 Y58.68157 I57.17105 J21.18157
N1548 G1 X85.74601 Y59.4693
N1549 G03 X81.12971 Y43.50651 I46.05671 J-21.9681
N1550 G1 X80.34148 Y43.59992
N1551 G03 X80.63161 Y29.3176 I51.46124 J-6.09872
N1552 G1 X80.63163 Y29.31745
N1553 G03 X85.25817 Y14.71592 I51.16174 J8.17699
N1554 G1 X105.76906 Y15.57127
N1555 G02 Y59.42873 I56.03714 J21.92873
N1556 G1 X85.25818 Y60.28408
N1557 G03 X80.34148 Y43.59992 I46.54454 J-22.78288
N1558 G1 X79.55324 Y43.69334
N1559 G03 X79.84782 Y29.19225 I52.24948 J-6.19214
N1560 G1 X79.84783 Y29.19217
N1561 G03 X84.77599 Y13.90137 I51.94554 J8.30227
N1562 G1 X106.92471 Y14.82503
N1563 G02 Y60.17497 I54.88149 J22.67497
N1564 G1 X84.77601 Y61.09863
N1565 G03 X79.55324 Y43.69334 I47.02671 J-23.59743
N1566 G1 X78.76501 Y43.78675
N1567 G03 X79.06403 Y29.0669 I53.03771 J-6.28555
N1568 X84.29931 Y13.08705 I52.72934 J8.42754
N1569 G1 X108.10344 Y14.07974
N1570 G02 Y60.92026 I53.70276 J23.42026
N1571 G1 X84.29932 Y61.91295
N1572 G03 X78.76501 Y43.78675 I47.5034 J-24.41175
N1573 G1 X79.77303 Y43.45675 Z-0.93934 F847.5
N1574 Z-0.33934
N1575 G0 Z1.5875
N1576 X91.31893 Y36.55106
N1577 G1 Z-1.3 F141.2
N1578 Z-1.9 F423.7
N1579 X91.31656 Y36.73871 Z-1.91642
N1580 X91.31428 Y36.99247 Z-1.93862
N1581 X91.31291 Y37.24623 Z-1.96082
N1582 X91.31245 Y37.5 Z-1.98302
N1583 X91.31291 Y37.75377 Z-2.00523
N1584 X91.31428 Y38.00753 Z-2.02743
N1585 X91.31656 Y38.26129 Z-2.04963
N1586 X91.31976 Y38.51503 Z-2.07183
N1587 X91.32387 Y38.76877 Z-2.09403
N1588 X91.32889 Y39.02248 Z-2.11623
N1589 X91.33483 Y39.27618 Z-2.13844
N1590 X91.34168 Y39.52985 Z-2.16064
N1591 X91.34945 Y39.7835 Z-2.18284
N1592 X91.35812 Y40.03712 Z-2.20504
N1593 X91.36771 Y40.29071 Z-2.22724
N1594 X91.37821 Y40.54426 Z-2.24945
N1595 X91.38963 Y40.79777 Z-2.27165
N1596 X91.40196 Y41.05123 Z-2.29385
N1597 X91.4152 Y41.30465 Z-2.31605
N1598 X91.42935 Y41.55803 Z-2.33825
N1599 X91.44442 Y41.81134 Z-2.36045
N1600 X91.46039 Y42.06461 Z-2.38266
N1601 X91.47728 Y42.31781 Z-2.40486
N1602 X91.41787 Y42.3199 Z-2.41006
N1603 X91.35848 Y42.32234 Z-2.41526
N1604 X91.29911 Y42.32513 Z-2.42046
N1605 X91.23975 Y42.32826 Z-2.42566
N1606 X91.18041 Y42.33174 Z-2.43086
N1607 X91.12109 Y42.33556 Z-2.43606
N1608 X91.0618 Y42.33973 Z-2.44126
N1609 X91.00253 Y42.34425 Z-2.44646
N1610 X90.94328 Y42.34911 Z-2.45166
N1611 X90.88407 Y42.35432 Z-2.45686
N1612 X90.82489 Y42.35987 Z-2.46206
N1613 X90.76574 Y42.36577 Z-2.46726
N1614 X90.70663 Y42.37201 Z-2.47246
N1615 X90.64755 Y42.3786 Z-2.47766
N1616 X90.58852 Y42.38554 Z-2.48286
N1617 X90.56593 Y42.19097 Z-2.5
N1618 X90.58852 Y42.38554 F565.
N1619 G03 X90.5888 Y32.6145 I41.2142 J-4.88434
N1620 G02 X91.47728 Y32.68219 I1.2174 J-10.1145
N1621 Y42.31781 I70.32892 J4.81781
N1622 X90.58852 Y42.38554 I0.32892 J10.18219
N1623 G1 X89.80028 Y42.47895
N1624 G03 X89.90614 Y31.69958 I42.00244 J-4.97775
N1625 G02 X92.33323 Y31.87895 I1.90006 J-9.19958
N1626 Y43.12105 I69.47297 J5.62105
N1627 X89.90581 Y43.30049 I-0.52703 J9.37895
N1628 G03 X89.80028 Y42.47895 I41.89691 J-5.79929
N1629 G1 X89.01205 Y42.57236
N1630 G03 X89.25088 Y30.7116 I42.79067 J-5.07116
N1631 G02 X93.20865 Y30.98488 I2.55532 J-8.2116
N1632 Y44.01512 I68.59755 J6.51512
N1633 X89.25051 Y44.28852 I-1.40245 J8.48488
N1634 G03 X89.01205 Y42.57236 I42.55221 J-6.78732
N1635 G1 X88.22382 Y42.66578
N1636 G03 X88.46951 Y30.57108 I43.5789 J-5.16458
N1637 G1 X88.46966 Y30.57017
N1638 G03 X88.63024 Y29.63098 I43.32371 J6.92427
N1639 G02 X94.11257 Y29.95776 I3.17596 J-7.13098
N1640 Y45.04224 I67.69363 J7.54224
N1641 X88.62994 Y45.36916 I-2.30637 J7.45776
N1642 G03 X88.22382 Y42.66578 I43.17278 J-7.86796
N1643 G1 X87.43558 Y42.75919
N1644 G03 X87.68572 Y30.44574 I44.36714 J-5.25799
N1645 G1 X87.68585 Y30.4449
N1646 G03 X88.05635 Y28.42569 I44.10752 J7.04954
N1647 G02 X95.0638 Y28.70993 I3.74985 J-5.92569
N1648 Y46.29007 I66.7424 J8.79007
N1649 X88.05612 Y46.57446 I-3.2576 J6.20993
N1650 G03 X87.43558 Y42.75919 I43.7466 J-9.07326
N1651 G1 X86.64735 Y42.85261
N1652 G03 X86.90193 Y30.32039 I45.15537 J-5.35141
N1653 G1 X86.90205 Y30.31962
N1654 G03 X87.55173 Y27.03567 I44.89132 J7.17482
N1655 G02 X96.11808 Y26.98113 I4.25447 J-4.53567
N1656 Y48.01887 I65.68812 J10.51887
N1657 X87.55156 Y47.96448 I-4.31188 J4.48113
N1658 G03 X86.64735 Y42.85261 I44.25116 J-10.46328
N1659 G1 X85.85911 Y42.94602
N1660 G03 X86.11814 Y30.19504 I45.94361 J-5.44482
N1661 G1 X86.11825 Y30.19435
N1662 G03 X87.17018 Y25.31744 I45.67512 J7.30009
N1663 G02 X87.2655 Y25.46861 I4.63602 J-2.81744
N1664 X96.94608 Y20.76441 I4.5407 J-2.96861
N1665 G1 X98.2271 Y20.81783
N1666 G02 Y54.18217 I63.5791 J16.68217
N1667 G1 X96.94608 Y54.23559
N1668 G02 X87.42387 Y49.30223 I-5.13988 J-1.73559
N1669 X87.17009 Y49.68272 I4.38233 J3.19777
N1670 G03 X85.85911 Y42.94602 I44.63263 J-12.18152
N1671 G1 X85.07088 Y43.03944
N1672 G03 X85.33435 Y30.06969 I46.73184 J-5.53824
N1673 G1 X85.33445 Y30.06908
N1674 G03 X87.17545 Y22.56767 I46.45892 J7.42536
N1675 G02 X87.92987 Y25.03426 I4.63075 J-0.06767
N1676 X95.6495 Y19.9159 I3.87633 J-2.53426
N1677 G1 X99.2527 Y20.06617
N1678 G02 Y54.93383 I62.5535 J17.43383
N1679 G1 X95.6495 Y55.0841
N1680 G02 X88.06506 Y49.7701 I-3.8433 J-2.5841
N1681 X87.17545 Y52.43248 I3.74114 J2.7299
N1682 G03 X85.07088 Y43.03944 I44.62727 J-14.93128
N1683 G1 X84.28265 Y43.13285
N1684 G03 X84.55056 Y29.94434 I47.52007 J-5.63165
N1685 G1 X84.55064 Y29.94381
N1686 G03 X87.75794 Y18.79236 I47.24273 J7.55063
N1687 G1 X90.46319 Y18.90518
N1688 G02 X88.59423 Y24.59992 I1.34301 J3.59482
N1689 X93.44385 Y19.02948 I3.21197 J-2.09992
N1690 G1 X100.29415 Y19.31516
N1691 G02 Y55.68484 I61.51205 J18.18484
N1692 G1 X93.44385 Y55.97052
N1693 G02 X88.70626 Y50.23798 I-1.63765 J-3.47052
N1694 X90.4632 Y56.09482 I3.09994 J2.26202
N1695 G1 X87.75795 Y56.20764
N1696 G03 X84.28265 Y43.13285 I44.04477 J-18.70644
N1697 G1 X83.49441 Y43.22627
N1698 G03 X83.76677 Y29.81899 I48.30831 J-5.72507
N1699 G1 X83.76684 Y29.81854
N1700 G03 X87.24543 Y17.97655 I48.02653 J7.6759
N1701 G1 X101.35223 Y18.56484
N1702 G02 Y56.43516 I60.45397 J18.93516
N1703 G1 X87.24545 Y57.02345
N1704 G03 X83.49441 Y43.22627 I44.55727 J-19.52225
N1705 G1 X82.70618 Y43.31968
N1706 G03 X82.98298 Y29.69364 I49.09654 J-5.81848
N1707 G1 X82.98304 Y29.69326
N1708 G03 X86.73942 Y17.16101 I48.81033 J7.80118
N1709 G1 X102.4278 Y17.81526
N1710 G02 Y57.18475 I59.3784 J19.68474
N1711 G1 X86.73944 Y57.83899
N1712 G03 X82.70618 Y43.31968 I45.06328 J-20.33779
N1713 G1 X81.91795 Y43.41309
N1714 G03 X82.19919 Y29.56829 I49.88477 J-5.91189
N1715 G1 X82.19924 Y29.56799
N1716 G03 X86.23968 Y16.34573 I49.59413 J7.92645
N1717 G1 X103.52176 Y17.06644
N1718 G02 Y57.93356 I58.28444 J20.43356
N1719 G1 X86.2397 Y58.65427
N1720 G03 X81.91795 Y43.41309 I45.56302 J-21.15307
N1721 G1 X81.12971 Y43.50651
N1722 G03 X81.4154 Y29.44295 I50.67301 J-6.00531
N1723 G1 X81.41544 Y29.44272
N1724 G03 X85.746 Y15.5307 I50.37793 J8.05172
N1725 G1 X104.63515 Y16.31843
N1726 G02 Y58.68157 I57.17105 J21.18157
N1727 G1 X85.74601 Y59.4693
N1728 G03 X81.12971 Y43.50651 I46.05671 J-21.9681
N1729 G1 X80.34148 Y43.59992
N1730 G03 X80.63161 Y29.3176 I51.46124 J-6.09872
N1731 G1 X80.63163 Y29.31745
N1732 G03 X85.25817 Y14.71592 I51.16174 J8.17699
N1733 G1 X105.76906 Y15.57127
N1734 G02 Y59.42873 I56.03714 J21.92873
N1735 G1 X85.25818 Y60.28408
N1736 G03 X80.34148 Y43.59992 I46.54454 J-22.78288
N1737 G1 X79.55324 Y43.69334
N1738 G03 X79.84782 Y29.19225 I52.24948 J-6.19214
N1739 G1 X79.84783 Y29.19217
N1740 G03 X84.77599 Y13.90137 I51.94554 J8.30227
N1741 G1 X106.92471 Y14.82503
N1742 G02 Y60.17497 I54.88149 J22.67497
N1743 G1 X84.77601 Y61.09863
N1744 G03 X79.55324 Y43.69334 I47.02671 J-23.59743
N1745 G1 X78.76501 Y43.78675
N1746 G03 X79.06403 Y29.0669 I53.03771 J-6.28555
N1747 X84.29931 Y13.08705 I52.72934 J8.42754
N1748 G1 X108.10344 Y14.07974
N1749 G02 Y60.92026 I53.70276 J23.42026
N1750 G1 X84.29932 Y61.91295
N1751 G03 X78.76501 Y43.78675 I47.5034 J-24.41175
N1752 G1 X79.77303 Y43.45675 Z-1.43934 F847.5
N1753 Z-0.83934
N1754 G0 Z1.5875
N1755 X22.98421 Y38.6447
N1756 G1 Z0.7 F141.2
N1757 Z0.1 F423.7
N1758 X22.98631 Y38.51503 Z0.08865
N1759 X22.98951 Y38.26128 Z0.06645
N1760 X22.9918 Y38.00753 Z0.04425
N1761 X22.99317 Y37.75377 Z0.02205
N1762 X22.99363 Y37.5 Z-0.00015
N1763 X22.99318 Y37.24623 Z-0.02236
N1764 X22.99181 Y36.99247 Z-0.04456
N1765 X22.98953 Y36.73871 Z-0.06676
N1766 X22.98634 Y36.48497 Z-0.08896
N1767 X22.98223 Y36.23123 Z-0.11116
N1768 X22.97721 Y35.97752 Z-0.13336
N1769 X22.97128 Y35.72382 Z-0.15557
N1770 X22.96443 Y35.47015 Z-0.17777
N1771 X22.95667 Y35.2165 Z-0.19997
N1772 X22.948 Y34.96288 Z-0.22217
N1773 X22.93841 Y34.70929 Z-0.24437
N1774 X22.92791 Y34.45575 Z-0.26657
N1775 X22.9165 Y34.20224 Z-0.28878
N1776 X22.90417 Y33.94877 Z-0.31098
N1777 X22.89094 Y33.69535 Z-0.33318
N1778 X22.87679 Y33.44198 Z-0.35538
N1779 X22.86173 Y33.18866 Z-0.37758
N1780 X22.84575 Y32.93539 Z-0.39978
N1781 X22.82887 Y32.68219 Z-0.42199
N1782 X22.88828 Y32.6801 Z-0.42719
N1783 X22.94768 Y32.67766 Z-0.43239
N1784 X23.00706 Y32.67487 Z-0.43759
N1785 X23.06642 Y32.67174 Z-0.44279
N1786 X23.12577 Y32.66826 Z-0.44799
N1787 X23.18509 Y32.66444 Z-0.45319
N1788 X23.24439 Y32.66027 Z-0.45839
N1789 X23.30367 Y32.65575 Z-0.46359
N1790 X23.36292 Y32.65089 Z-0.46879
N1791 X23.42214 Y32.64568 Z-0.474
N1792 X23.48132 Y32.64012 Z-0.4792
N1793 X23.54048 Y32.63423 Z-0.4844
N1794 X23.5996 Y32.62798 Z-0.4896
N1795 X23.65868 Y32.62139 Z-0.4948
N1796 X23.71772 Y32.61446 Z-0.5
N1797 G03 Y42.38554 I-41.21772 J4.88554 F565.
N1798 G02 X22.82873 Y42.3178 I-1.21772 J10.11446
N1799 X22.82887 Y32.68219 I-70.32547 J-4.81882
N1800 X23.71772 Y32.61446 I-0.32887 J-10.18219
N1801 G1 X24.50595 Y32.52103
N1802 G03 X24.40041 Y43.30049 I-42.00595 J4.97897
N1803 G02 X21.97276 Y43.12106 I-1.90041 J9.19951
N1804 X21.97293 Y31.87895 I-69.4695 J-5.62208
N1805 X24.40041 Y31.69951 I0.52707 J-9.37895
N1806 G03 X24.50595 Y32.52103 I-41.90041 J5.80049
N1807 G1 X25.29418 Y32.4276
N1808 G03 X25.0557 Y44.28852 I-42.79418 J5.0724
N1809 G02 X21.09732 Y44.01516 I-2.5557 J8.21148
N1810 X21.09752 Y30.98487 I-68.59406 J-6.51618
N1811 X25.0557 Y30.71148 I1.40248 J-8.48487
N1812 G03 X25.29418 Y32.4276 I-42.5557 J6.78852
N1813 G1 X26.08242 Y32.33417
N1814 G03 X25.67626 Y45.36916 I-43.58242 J5.16583
N1815 G02 X20.19337 Y45.04232 I-3.17626 J7.13084
N1816 X20.1936 Y29.95775 I-67.69011 J-7.54334
N1817 X25.67626 Y29.63084 I2.3064 J-7.45775
N1818 G03 X26.08242 Y32.33417 I-43.17626 J7.86916
N1819 G1 X26.87065 Y32.24074
N1820 G03 X26.25007 Y46.57445 I-44.37065 J5.25926
N1821 G02 X19.2421 Y46.29023 I-3.75007 J5.92555
N1822 X19.24239 Y28.70992 I-66.73884 J-8.79125
N1823 X26.25007 Y28.42555 I3.25761 J-6.20992
N1824 G03 X26.87065 Y32.24074 I-43.75007 J9.07445
N1825 G1 X27.65888 Y32.14731
N1826 G03 X26.75461 Y47.96446 I-45.15888 J5.35269
N1827 G02 X18.18777 Y48.01921 I-4.25461 J4.53554
N1828 X18.24819 Y47.63461 I-65.67522 J-10.51419
N1829 X18.18812 Y26.98113 I-65.74493 J-10.13563
N1830 X26.75461 Y27.03554 I4.31188 J-4.48113
N1831 G03 X27.65888 Y32.14731 I-44.25461 J10.46446
N1832 G1 X28.44711 Y32.05388
N1833 G03 X27.13608 Y49.68267 I-45.94711 J5.44612
N1834 G02 X17.0804 Y52.25815 I-4.63608 J2.81733
N1835 X17.36012 Y54.23559 I5.4196 J0.24185
N1836 G1 X16.07904 Y54.18216
N1837 G02 X17.4637 Y47.51369 I-63.56649 J-16.67714
N1838 X16.07914 Y20.81783 I-64.96044 J-10.01471
N1839 G1 X17.36012 Y20.76441
N1840 G02 X26.88234 Y25.69777 I5.13988 J1.73559
N1841 X27.13608 Y25.31733 I-4.38234 J-3.19777
N1842 G03 X28.44711 Y32.05388 I-44.63608 J12.18267
N1843 G1 X29.23535 Y31.96046
N1844 G03 X27.13076 Y52.43234 I-46.73535 J5.53954
N1845 G02 X17.87336 Y52.29354 I-4.63076 J0.06766
N1846 X18.65671 Y55.0841 I4.62664 J0.20646
N1847 G1 X15.05346 Y54.93383
N1848 G02 X16.67921 Y47.39278 I-62.54091 J-17.42881
N1849 X15.05354 Y20.06616 I-64.17595 J-9.8938
N1850 G1 X18.65671 Y19.9159
N1851 G02 X26.24114 Y25.22989 I3.84329 J2.5841
N1852 X27.13076 Y22.56766 I-3.74114 J-2.72989
N1853 G03 X29.23535 Y31.96046 I-44.63076 J14.93234
N1854 G1 X30.02358 Y31.86703
N1855 G03 X26.54821 Y56.20764 I-47.52358 J5.63297
N1856 G1 X23.84301 Y56.09482
N1857 G02 X18.66632 Y52.32892 I-1.34301 J-3.59482
N1858 X20.86235 Y55.97052 I3.83368 J0.17108
N1859 G1 X14.01203 Y55.68484
N1860 G02 X15.89473 Y47.27187 I-61.49948 J-18.17982
N1861 X14.01209 Y19.31516 I-63.39147 J-9.77289
N1862 G1 X20.86235 Y19.02948
N1863 G02 X25.59995 Y24.76202 I1.63765 J3.47052
N1864 X23.84301 Y18.90518 I-3.09995 J-2.26202
N1865 G1 X26.54821 Y18.79236
N1866 G03 X30.02358 Y31.86703 I-44.04821 J18.70764
N1867 G1 X30.81181 Y31.7736
N1868 G03 X27.06072 Y57.02345 I-48.31181 J5.7264
N1869 G1 X12.95396 Y56.43516
N1870 G02 X15.11024 Y47.15095 I-60.44141 J-18.93014
N1871 X12.95401 Y18.56484 I-62.60698 J-9.65197
N1872 G1 X27.06072 Y17.97655
N1873 G03 X30.81181 Y31.7736 I-44.56072 J19.52345
N1874 G1 X31.60004 Y31.68017
N1875 G03 X27.56673 Y57.83899 I-49.10004 J5.81983
N1876 G1 X11.87842 Y57.18475
N1877 G02 X14.32575 Y47.03004 I-59.36587 J-19.67973
N1878 X11.87845 Y17.81525 I-61.82249 J-9.53106
N1879 G1 X27.56673 Y17.16101
N1880 G03 X31.60004 Y31.68017 I-45.06673 J20.33899
N1881 G1 X32.38827 Y31.58674
N1882 G03 X28.06647 Y58.65427 I-49.88827 J5.91326
N1883 G1 X10.78446 Y57.93356
N1884 G02 X13.54127 Y46.90912 I-58.27191 J-20.42854
N1885 X10.78448 Y17.06643 I-61.03801 J-9.41014
N1886 G1 X28.06647 Y16.34573
N1887 G03 X32.38827 Y31.58674 I-45.56647 J21.15427
N1888 G1 X33.17651 Y31.49331
N1889 G03 X28.56016 Y59.4693 I-50.67651 J6.00669
N1890 G1 X9.67109 Y58.68157
N1891 G02 X12.75678 Y46.78821 I-57.15854 J-21.17655
N1892 X9.67109 Y16.31843 I-60.25352 J-9.28923
N1893 G1 X28.56016 Y15.5307
N1894 G03 X33.17651 Y31.49331 I-46.06016 J21.9693
N1895 G1 X33.96474 Y31.39988
N1896 G03 X29.048 Y60.28408 I-51.46474 J6.10012
N1897 G1 X8.53718 Y59.42873
N1898 G02 X11.97229 Y46.6673 I-56.02463 J-21.92371
N1899 X8.53718 Y15.57127 I-59.46903 J-9.16832
N1900 G1 X29.048 Y14.71592
N1901 G03 X33.96474 Y31.39988 I-46.548 J22.78408
N1902 G1 X34.75297 Y31.30645
N1903 G03 X29.53018 Y61.09863 I-52.25297 J6.19355
N1904 G1 X7.38153 Y60.17497
N1905 G02 X11.18781 Y46.54638 I-54.86898 J-22.66995
N1906 X7.38152 Y14.82503 I-58.68455 J-9.0474
N1907 G1 X29.53018 Y13.90137
N1908 G03 X34.75297 Y31.30645 I-47.03018 J23.59863
N1909 G1 X35.5412 Y31.21302
N1910 G03 X30.00688 Y61.91295 I-53.0412 J6.28698
N1911 G1 X6.2028 Y60.92026
N1912 G02 X10.40332 Y46.42547 I-53.69025 J-23.41524
N1913 X6.20278 Y14.07974 I-57.90006 J-8.92649
N1914 G1 X30.00688 Y13.08705
N1915 G03 X35.5412 Y31.21302 I-47.50688 J24.41295
N1916 G1 X34.51028 Y31.46241 Z0.56066 F847.5
N1917 Z1.16066
N1918 G0 Z1.5875
N1919 X22.98421 Y38.6447
N1920 G1 Z0.2 F141.2
N1921 Z-0.4 F423.7
N1922 X22.98631 Y38.51503 Z-0.41135
N1923 X22.98951 Y38.26128 Z-0.43355
N1924 X22.9918 Y38.00753 Z-0.45575
N1925 X22.99317 Y37.75377 Z-0.47795
N1926 X22.99363 Y37.5 Z-0.50015
N1927 X22.99318 Y37.24623 Z-0.52236
N1928 X22.99181 Y36.99247 Z-0.54456
N1929 X22.98953 Y36.73871 Z-0.56676
N1930 X22.98634 Y36.48497 Z-0.58896
N1931 X22.98223 Y36.23123 Z-0.61116
N1932 X22.97721 Y35.97752 Z-0.63336
N1933 X22.97128 Y35.72382 Z-0.65557
N1934 X22.96443 Y35.47015 Z-0.67777
N1935 X22.95667 Y35.2165 Z-0.69997
N1936 X22.948 Y34.96288 Z-0.72217
N1937 X22.93841 Y34.70929 Z-0.74437
N1938 X22.92791 Y34.45575 Z-0.76657
N1939 X22.9165 Y34.20224 Z-0.78878
N1940 X22.90417 Y33.94877 Z-0.81098
N1941 X22.89094 Y33.69535 Z-0.83318
N1942 X22.87679 Y33.44198 Z-0.85538
N1943 X22.86173 Y33.18866 Z-0.87758
N1944 X22.84575 Y32.93539 Z-0.89978
N1945 X22.82887 Y32.68219 Z-0.92199
N1946 X22.88828 Y32.6801 Z-0.92719
N1947 X22.94768 Y32.67766 Z-0.93239
N1948 X23.00706 Y32.67487 Z-0.93759
N1949 X23.06642 Y32.67174 Z-0.94279
N1950 X23.12577 Y32.66826 Z-0.94799
N1951 X23.18509 Y32.66444 Z-0.95319
N1952 X23.24439 Y32.66027 Z-0.95839
N1953 X23.30367 Y32.65575 Z-0.96359
N1954 X23.36292 Y32.65089 Z-0.96879
N1955 X23.42214 Y32.64568 Z-0.974
N1956 X23.48132 Y32.64012 Z-0.9792
N1957 X23.54048 Y32.63423 Z-0.9844
N1958 X23.5996 Y32.62798 Z-0.9896
N1959 X23.65868 Y32.62139 Z-0.9948
N1960 X23.71772 Y32.61446 Z-1.
N1961 G03 Y42.38554 I-41.21772 J4.88554 F565.
N1962 G02 X22.82873 Y42.3178 I-1.21772 J10.11446
N1963 X22.82887 Y32.68219 I-70.32547 J-4.81882
N1964 X23.71772 Y32.61446 I-0.32887 J-10.18219
N1965 G1 X23.62284 Y31.8264
N1966 G02 X24.40041 Y31.69951 I-1.12284 J-9.3264
N1967 G03 Y43.30049 I-41.90041 J5.80049
N1968 G02 X21.97276 Y43.12106 I-1.90041 J9.19951
N1969 X21.97293 Y31.87895 I-69.4695 J-5.62208
N1970 X23.62284 Y31.8264 I0.52707 J-9.37895
N1971 G1 X23.52796 Y31.03834
N1972 G02 X25.0557 Y30.71148 I-1.02796 J-8.53834
N1973 G03 Y44.28852 I-42.5557 J6.78852
N1974 G02 X21.09732 Y44.01516 I-2.5557 J8.21148
N1975 X21.09752 Y30.98487 I-68.59406 J-6.51618
N1976 X23.52796 Y31.03834 I1.40248 J-8.48487
N1977 G1 X23.43309 Y30.25028
N1978 G02 X25.67626 Y29.63084 I-0.93309 J-7.75028
N1979 G03 Y45.36916 I-43.17626 J7.86916
N1980 G02 X20.19337 Y45.04232 I-3.17626 J7.13084
N1981 X20.1936 Y29.95775 I-67.69011 J-7.54334
N1982 X23.43309 Y30.25028 I2.3064 J-7.45775
N1983 G1 X23.33821 Y29.46222
N1984 G02 X26.25007 Y28.42555 I-0.83821 J-6.96222
N1985 G03 Y46.57445 I-43.75007 J9.07445
N1986 G02 X19.2421 Y46.29023 I-3.75007 J5.92555
N1987 X19.24239 Y28.70992 I-66.73884 J-8.79125
N1988 X23.33821 Y29.46222 I3.25761 J-6.20992
N1989 G1 X23.24333 Y28.67416
N1990 G02 X26.75461 Y27.03554 I-0.74333 J-6.17416
N1991 G03 Y47.96446 I-44.25461 J10.46446
N1992 G02 X18.18777 Y48.01921 I-4.25461 J4.53554
N1993 X18.24819 Y47.63461 I-65.67522 J-10.51419
N1994 X18.18812 Y26.98113 I-65.74493 J-10.13563
N1995 X23.24333 Y28.67416 I4.31188 J-4.48113
N1996 G1 X23.14845 Y27.8861
N1997 G02 X26.88234 Y25.69777 I-0.64845 J-5.3861
N1998 X27.13608 Y25.31733 I-4.38234 J-3.19777
N1999 G03 Y49.68267 I-44.63608 J12.18267
N2000 G02 X17.0804 Y52.25815 I-4.63608 J2.81733
N2001 X17.36012 Y54.23559 I5.4196 J0.24185
N2002 G1 X16.07904 Y54.18216
N2003 G02 X17.4637 Y47.51369 I-63.56649 J-16.67714
N2004 X16.07914 Y20.81783 I-64.96044 J-10.01471
N2005 G1 X17.36012 Y20.76441
N2006 G02 X23.14845 Y27.8861 I5.13988 J1.73559
N2007 G1 X23.05358 Y27.09804
N2008 G02 X26.24114 Y25.22989 I-0.55358 J-4.59804
N2009 X27.13076 Y22.56766 I-3.74114 J-2.72989
N2010 G03 Y52.43234 I-44.63076 J14.93234
N2011 G02 X17.87336 Y52.29354 I-4.63076 J0.06766
N2012 X18.65671 Y55.0841 I4.62664 J0.20646
N2013 G1 X15.05346 Y54.93383
N2014 G02 X16.67921 Y47.39278 I-62.54091 J-17.42881
N2015 X15.05354 Y20.06616 I-64.17595 J-9.8938
N2016 G1 X18.65671 Y19.9159
N2017 G02 X23.05358 Y27.09804 I3.84329 J2.5841
N2018 G1 X22.9587 Y26.30999
N2019 G02 X25.59995 Y24.76202 I-0.4587 J-3.80999
N2020 X23.84301 Y18.90518 I-3.09995 J-2.26202
N2021 G1 X26.54821 Y18.79236
N2022 G03 Y56.20764 I-44.04821 J18.70764
N2023 G1 X23.84301 Y56.09482
N2024 G02 X18.66632 Y52.32892 I-1.34301 J-3.59482
N2025 X20.86235 Y55.97052 I3.83368 J0.17108
N2026 G1 X14.01203 Y55.68484
N2027 G02 X15.89473 Y47.27187 I-61.49948 J-18.17982
N2028 X14.01209 Y19.31516 I-63.39147 J-9.77289
N2029 G1 X20.86235 Y19.02948
N2030 G02 X22.9587 Y26.30999 I1.63765 J3.47052
N2031 G1 X21.98266 Y26.72513 Z0.06066 F847.5
N2032 Z0.66066
N2033 G0 Z1.5875
N2034 X27.10229 Y18.07201
N2035 G1 Z0.2 F141.2
N2036 Z-0.4 F423.7
N2037 X27.14496 Y18.16998 Z-0.40935
N2038 X27.22837 Y18.36376 Z-0.42781
N2039 X27.31093 Y18.55791 Z-0.44627
N2040 X27.39266 Y18.75241 Z-0.46472
N2041 X27.47353 Y18.94727 Z-0.48318
N2042 X27.55357 Y19.14248 Z-0.50164
N2043 X27.63275 Y19.33802 Z-0.5201
N2044 X27.71109 Y19.53392 Z-0.53855
N2045 X27.78857 Y19.73015 Z-0.55701
N2046 X27.86521 Y19.92671 Z-0.57547
N2047 X27.94099 Y20.1236 Z-0.59393
N2048 X28.01592 Y20.32082 Z-0.61238
N2049 X28.08999 Y20.51837 Z-0.63084
N2050 X28.1632 Y20.71623 Z-0.6493
N2051 X28.23555 Y20.91441 Z-0.66776
N2052 X28.30705 Y21.1129 Z-0.68622
N2053 X28.37768 Y21.3117 Z-0.70467
N2054 X28.44745 Y21.5108 Z-0.72313
N2055 X28.51636 Y21.71021 Z-0.74159
N2056 X28.5844 Y21.90991 Z-0.76005
N2057 X28.65157 Y22.1099 Z-0.77851
N2058 X28.71788 Y22.31019 Z-0.79696
N2059 X28.78332 Y22.51076 Z-0.81542
N2060 X28.84788 Y22.71161 Z-0.83388
N2061 X28.91158 Y22.91274 Z-0.85234
N2062 X28.9744 Y23.11414 Z-0.87079
N2063 X29.03635 Y23.31582 Z-0.88925
N2064 X29.09742 Y23.51776 Z-0.90771
N2065 X29.15762 Y23.71996 Z-0.92617
N2066 X29.21694 Y23.92243 Z-0.94463
N2067 X29.27538 Y24.12514 Z-0.96308
N2068 X29.33294 Y24.32811 Z-0.98154
N2069 X29.38962 Y24.53133 Z-1.
N2070 G03 X27.06072 Y57.02345 I-46.88962 J12.96867 F565.
N2071 G1 X12.95396 Y56.43516
N2072 G02 X15.11024 Y47.15095 I-60.44141 J-18.93014
N2073 X12.95401 Y18.56484 I-62.60698 J-9.65197
N2074 G1 X27.06072 Y17.97655
N2075 G03 X29.38962 Y24.53133 I-44.56072 J19.52345
N2076 G1 X30.15465 Y24.31974
N2077 G03 X27.56673 Y57.83899 I-47.65465 J13.18026
N2078 G1 X11.87842 Y57.18475
N2079 G02 X14.32575 Y47.03004 I-59.36587 J-19.67973
N2080 X11.87845 Y17.81525 I-61.82249 J-9.53106
N2081 G1 X27.56673 Y17.16101
N2082 G03 X30.15465 Y24.31974 I-45.06673 J20.33899
N2083 G1 X30.91967 Y24.10815
N2084 G03 X28.06647 Y58.65427 I-48.41967 J13.39185
N2085 G1 X10.78446 Y57.93356
N2086 G02 X13.54127 Y46.90912 I-58.27191 J-20.42854
N2087 X10.78448 Y17.06643 I-61.03801 J-9.41014
N2088 G1 X28.06647 Y16.34573
N2089 G03 X30.91967 Y24.10815 I-45.56647 J21.15427
N2090 G1 X31.6847 Y23.89656
N2091 G03 X28.56016 Y59.4693 I-49.1847 J13.60344
N2092 G1 X9.67109 Y58.68157
N2093 G02 X12.75678 Y46.78821 I-57.15854 J-21.17655
N2094 X9.67109 Y16.31843 I-60.25352 J-9.28923
N2095 G1 X28.56016 Y15.5307
N2096 G03 X31.6847 Y23.89656 I-46.06016 J21.9693
N2097 G1 X32.44973 Y23.68497
N2098 G03 X29.048 Y60.28408 I-49.94973 J13.81503
N2099 G1 X8.53718 Y59.42873
N2100 G02 X11.97229 Y46.6673 I-56.02463 J-21.92371
N2101 X8.53718 Y15.57127 I-59.46903 J-9.16832
N2102 G1 X29.048 Y14.71592
N2103 G03 X32.44973 Y23.68497 I-46.548 J22.78408
N2104 G1 X33.21476 Y23.47338
N2105 G03 X29.53018 Y61.09863 I-50.71476 J14.02662
N2106 G1 X7.38153 Y60.17497
N2107 G02 X11.18781 Y46.54638 I-54.86898 J-22.66995
N2108 X7.38152 Y14.82503 I-58.68455 J-9.0474
N2109 G1 X29.53018 Y13.90137
N2110 G03 X33.21476 Y23.47338 I-47.03018 J23.59863
N2111 G1 X33.97979 Y23.26179
N2112 G03 X30.00688 Y61.91295 I-51.47979 J14.23821
N2113 G1 X6.2028 Y60.92026
N2114 G02 X10.40332 Y46.42547 I-53.69025 J-23.41524
N2115 X6.20278 Y14.07974 I-57.90006 J-8.92649
N2116 G1 X30.00688 Y13.08705
N2117 G03 X33.97979 Y23.26179 I-47.50688 J24.41295
N2118 G1 X32.94886 Y23.51117 Z0.06066 F847.5
N2119 Z0.66066
N2120 G0 Z1.5875
N2121 X22.98421 Y38.6447
N2122 G1 Z-0.3 F141.2
N2123 Z-0.9 F423.7
N2124 X22.98631 Y38.51503 Z-0.91135
N2125 X22.98951 Y38.26128 Z-0.93355
N2126 X22.9918 Y38.00753 Z-0.95575
N2127 X22.99317 Y37.75377 Z-0.97795
N2128 X22.99363 Y37.5 Z-1.00015
N2129 X22.99318 Y37.24623 Z-1.02236
N2130 X22.99181 Y36.99247 Z-1.04456
N2131 X22.98953 Y36.73871 Z-1.06676
N2132 X22.98634 Y36.48497 Z-1.08896
N2133 X22.98223 Y36.23123 Z-1.11116
N2134 X22.97721 Y35.97752 Z-1.13336
N2135 X22.97128 Y35.72382 Z-1.15557
N2136 X22.96443 Y35.47015 Z-1.17777
N2137 X22.95667 Y35.2165 Z-1.19997
N2138 X22.948 Y34.96288 Z-1.22217
N2139 X22.93841 Y34.70929 Z-1.24437
N2140 X22.92791 Y34.45575 Z-1.26657
N2141 X22.9165 Y34.20224 Z-1.28878
N2142 X22.90417 Y33.94877 Z-1.31098
N2143 X22.89094 Y33.69535 Z-1.33318
N2144 X22.87679 Y33.44198 Z-1.35538
N2145 X22.86173 Y33.18866 Z-1.37758
N2146 X22.84575 Y32.93539 Z-1.39978
N2147 X22.82887 Y32.68219 Z-1.42199
N2148 X22.88828 Y32.6801 Z-1.42719
N2149 X22.94768 Y32.67766 Z-1.43239
N2150 X23.00706 Y32.67487 Z-1.43759
N2151 X23.06642 Y32.67174 Z-1.44279
N2152 X23.12577 Y32.66826 Z-1.44799
N2153 X23.18509 Y32.66444 Z-1.45319
N2154 X23.24439 Y32.66027 Z-1.45839
N2155 X23.30367 Y32.65575 Z-1.46359
N2156 X23.36292 Y32.65089 Z-1.46879
N2157 X23.42214 Y32.64568 Z-1.474
N2158 X23.48132 Y32.64012 Z-1.4792
N2159 X23.54048 Y32.63423 Z-1.4844
N2160 X23.5996 Y32.62798 Z-1.4896
N2161 X23.65868 Y32.62139 Z-1.4948
N2162 X23.71772 Y32.61446 Z-1.5
N2163 G03 Y42.38554 I-41.21772 J4.88554 F565.
N2164 G02 X22.82873 Y42.3178 I-1.21772 J10.11446
N2165 X22.82887 Y32.68219 I-70.32547 J-4.81882
N2166 X23.71772 Y32.61446 I-0.32887 J-10.18219
N2167 G1 X24.50595 Y32.52103
N2168 G03 X24.40041 Y43.30049 I-42.00595 J4.97897
N2169 G02 X21.97276 Y43.12106 I-1.90041 J9.19951
N2170 X21.97293 Y31.87895 I-69.4695 J-5.62208
N2171 X24.40041 Y31.69951 I0.52707 J-9.37895
N2172 G03 X24.50595 Y32.52103 I-41.90041 J5.80049
N2173 G1 X25.29418 Y32.4276
N2174 G03 X25.0557 Y44.28852 I-42.79418 J5.0724
N2175 G02 X21.09732 Y44.01516 I-2.5557 J8.21148
N2176 X21.09752 Y30.98487 I-68.59406 J-6.51618
N2177 X25.0557 Y30.71148 I1.40248 J-8.48487
N2178 G03 X25.29418 Y32.4276 I-42.5557 J6.78852
N2179 G1 X26.08242 Y32.33417
N2180 G03 X25.67626 Y45.36916 I-43.58242 J5.16583
N2181 G02 X20.19337 Y45.04232 I-3.17626 J7.13084
N2182 X20.1936 Y29.95775 I-67.69011 J-7.54334
N2183 X25.67626 Y29.63084 I2.3064 J-7.45775
N2184 G03 X26.08242 Y32.33417 I-43.17626 J7.86916
N2185 G1 X26.87065 Y32.24074
N2186 G03 X26.25007 Y46.57445 I-44.37065 J5.25926
N2187 G02 X19.2421 Y46.29023 I-3.75007 J5.92555
N2188 X19.24239 Y28.70992 I-66.73884 J-8.79125
N2189 X26.25007 Y28.42555 I3.25761 J-6.20992
N2190 G03 X26.87065 Y32.24074 I-43.75007 J9.07445
N2191 G1 X27.65888 Y32.14731
N2192 G03 X26.75461 Y47.96446 I-45.15888 J5.35269
N2193 G02 X18.18777 Y48.01921 I-4.25461 J4.53554
N2194 X18.24819 Y47.63461 I-65.67522 J-10.51419
N2195 X18.18812 Y26.98113 I-65.74493 J-10.13563
N2196 X26.75461 Y27.03554 I4.31188 J-4.48113
N2197 G03 X27.65888 Y32.14731 I-44.25461 J10.46446
N2198 G1 X28.44711 Y32.05388
N2199 G03 X27.13608 Y49.68267 I-45.94711 J5.44612
N2200 G02 X17.0804 Y52.25815 I-4.63608 J2.81733
N2201 X17.36012 Y54.23559 I5.4196 J0.24185
N2202 G1 X16.07904 Y54.18216
N2203 G02 X17.4637 Y47.51369 I-63.56649 J-16.67714
N2204 X16.07914 Y20.81783 I-64.96044 J-10.01471
N2205 G1 X17.36012 Y20.76441
N2206 G02 X26.88234 Y25.69777 I5.13988 J1.73559
N2207 X27.13608 Y25.31733 I-4.38234 J-3.19777
N2208 G03 X28.44711 Y32.05388 I-44.63608 J12.18267
N2209 G1 X29.23535 Y31.96046
N2210 G03 X27.13076 Y52.43234 I-46.73535 J5.53954
N2211 G02 X17.87336 Y52.29354 I-4.63076 J0.06766
N2212 X18.65671 Y55.0841 I4.62664 J0.20646
N2213 G1 X15.05346 Y54.93383
N2214 G02 X16.67921 Y47.39278 I-62.54091 J-17.42881
N2215 X15.05354 Y20.06616 I-64.17595 J-9.8938
N2216 G1 X18.65671 Y19.9159
N2217 G02 X26.24114 Y25.22989 I3.84329 J2.5841
N2218 X27.13076 Y22.56766 I-3.74114 J-2.72989
N2219 G03 X29.23535 Y31.96046 I-44.63076 J14.93234
N2220 G1 X30.02358 Y31.86703
N2221 G03 X26.54821 Y56.20764 I-47.52358 J5.63297
N2222 G1 X23.84301 Y56.09482
N2223 G02 X18.66632 Y52.32892 I-1.34301 J-3.59482
N2224 X20.86235 Y55.97052 I3.83368 J0.17108
N2225 G1 X14.01203 Y55.68484
N2226 G02 X15.89473 Y47.27187 I-61.49948 J-18.17982
N2227 X14.01209 Y19.31516 I-63.39147 J-9.77289
N2228 G1 X20.86235 Y19.02948
N2229 G02 X25.59995 Y24.76202 I1.63765 J3.47052
N2230 X23.84301 Y18.90518 I-3.09995 J-2.26202
N2231 G1 X26.54821 Y18.79236
N2232 G03 X30.02358 Y31.86703 I-44.04821 J18.70764
N2233 G1 X30.81181 Y31.7736
N2234 G03 X27.06072 Y57.02345 I-48.31181 J5.7264
N2235 G1 X12.95396 Y56.43516
N2236 G02 X15.11024 Y47.15095 I-60.44141 J-18.93014
N2237 X12.95401 Y18.56484 I-62.60698 J-9.65197
N2238 G1 X27.06072 Y17.97655
N2239 G03 X30.81181 Y31.7736 I-44.56072 J19.52345
N2240 G1 X31.60004 Y31.68017
N2241 G03 X27.56673 Y57.83899 I-49.10004 J5.81983
N2242 G1 X11.87842 Y57.18475
N2243 G02 X14.32575 Y47.03004 I-59.36587 J-19.67973
N2244 X11.87845 Y17.81525 I-61.82249 J-9.53106
N2245 G1 X27.56673 Y17.16101
N2246 G03 X31.60004 Y31.68017 I-45.06673 J20.33899
N2247 G1 X32.38827 Y31.58674
N2248 G03 X28.06647 Y58.65427 I-49.88827 J5.91326
N2249 G1 X10.78446 Y57.93356
N2250 G02 X13.54127 Y46.90912 I-58.27191 J-20.42854
N2251 X10.78448 Y17.06643 I-61.03801 J-9.41014
N2252 G1 X28.06647 Y16.34573
N2253 G03 X32.38827 Y31.58674 I-45.56647 J21.15427
N2254 G1 X33.17651 Y31.49331
N2255 G03 X28.56016 Y59.4693 I-50.67651 J6.00669
N2256 G1 X9.67109 Y58.68157
N2257 G02 X12.75678 Y46.78821 I-57.15854 J-21.17655
N2258 X9.67109 Y16.31843 I-60.25352 J-9.28923
N2259 G1 X28.56016 Y15.5307
N2260 G03 X33.17651 Y31.49331 I-46.06016 J21.9693
N2261 G1 X33.96474 Y31.39988
N2262 G03 X29.048 Y60.28408 I-51.46474 J6.10012
N2263 G1 X8.53718 Y59.42873
N2264 G02 X11.97229 Y46.6673 I-56.02463 J-21.92371
N2265 X8.53718 Y15.57127 I-59.46903 J-9.16832
N2266 G1 X29.048 Y14.71592
N2267 G03 X33.96474 Y31.39988 I-46.548 J22.78408
N2268 G1 X34.75297 Y31.30645
N2269 G03 X29.53018 Y61.09863 I-52.25297 J6.19355
N2270 G1 X7.38153 Y60.17497
N2271 G02 X11.18781 Y46.54638 I-54.86898 J-22.66995
N2272 X7.38152 Y14.82503 I-58.68455 J-9.0474
N2273 G1 X29.53018 Y13.90137
N2274 G03 X34.75297 Y31.30645 I-47.03018 J23.59863
N2275 G1 X35.5412 Y31.21302
N2276 G03 X30.00688 Y61.91295 I-53.0412 J6.28698
N2277 G1 X6.2028 Y60.92026
N2278 G02 X10.40332 Y46.42547 I-53.69025 J-23.41524
N2279 X6.20278 Y14.07974 I-57.90006 J-8.92649
N2280 G1 X30.00688 Y13.08705
N2281 G03 X35.5412 Y31.21302 I-47.50688 J24.41295
N2282 G1 X34.51028 Y31.46241 Z-0.43934 F847.5
N2283 Z0.16066
N2284 G0 Z1.5875
N2285 X22.98421 Y38.6447
N2286 G1 Z-0.8 F141.2
N2287 Z-1.4 F423.7
N2288 X22.98631 Y38.51503 Z-1.41135
N2289 X22.98951 Y38.26128 Z-1.43355
N2290 X22.9918 Y38.00753 Z-1.45575
N2291 X22.99317 Y37.75377 Z-1.47795
N2292 X22.99363 Y37.5 Z-1.50015
N2293 X22.99318 Y37.24623 Z-1.52236
N2294 X22.99181 Y36.99247 Z-1.54456
N2295 X22.98953 Y36.73871 Z-1.56676
N2296 X22.98634 Y36.48497 Z-1.58896
N2297 X22.98223 Y36.23123 Z-1.61116
N2298 X22.97721 Y35.97752 Z-1.63336
N2299 X22.97128 Y35.72382 Z-1.65557
N2300 X22.96443 Y35.47015 Z-1.67777
N2301 X22.95667 Y35.2165 Z-1.69997
N2302 X22.948 Y34.96288 Z-1.72217
N2303 X22.93841 Y34.70929 Z-1.74437
N2304 X22.92791 Y34.45575 Z-1.76657
N2305 X22.9165 Y34.20224 Z-1.78878
N2306 X22.90417 Y33.94877 Z-1.81098
N2307 X22.89094 Y33.69535 Z-1.83318
N2308 X22.87679 Y33.44198 Z-1.85538
N2309 X22.86173 Y33.18866 Z-1.87758
N2310 X22.84575 Y32.93539 Z-1.89978
N2311 X22.82887 Y32.68219 Z-1.92199
N2312 X22.88828 Y32.6801 Z-1.92719
N2313 X22.94768 Y32.67766 Z-1.93239
N2314 X23.00706 Y32.67487 Z-1.93759
N2315 X23.06642 Y32.67174 Z-1.94279
N2316 X23.12577 Y32.66826 Z-1.94799
N2317 X23.18509 Y32.66444 Z-1.95319
N2318 X23.24439 Y32.66027 Z-1.95839
N2319 X23.30367 Y32.65575 Z-1.96359
N2320 X23.36292 Y32.65089 Z-1.96879
N2321 X23.42214 Y32.64568 Z-1.97399
N2322 X23.48132 Y32.64012 Z-1.9792
N2323 X23.54048 Y32.63423 Z-1.9844
N2324 X23.5996 Y32.62798 Z-1.9896
N2325 X23.65868 Y32.62139 Z-1.9948
N2326 X23.71772 Y32.61446 Z-2.
N2327 G03 Y42.38554 I-41.21772 J4.88554 F565.
N2328 G02 X22.82873 Y42.3178 I-1.21772 J10.11446
N2329 X22.82887 Y32.68219 I-70.32547 J-4.81882
N2330 X23.71772 Y32.61446 I-0.32887 J-10.18219
N2331 G1 X24.50595 Y32.52103
N2332 G03 X24.40041 Y43.30049 I-42.00595 J4.97897
N2333 G02 X21.97276 Y43.12106 I-1.90041 J9.19951
N2334 X21.97293 Y31.87895 I-69.4695 J-5.62208
N2335 X24.40041 Y31.69951 I0.52707 J-9.37895
N2336 G03 X24.50595 Y32.52103 I-41.90041 J5.80049
N2337 G1 X25.29418 Y32.4276
N2338 G03 X25.0557 Y44.28852 I-42.79418 J5.0724
N2339 G02 X21.09732 Y44.01516 I-2.5557 J8.21148
N2340 X21.09752 Y30.98487 I-68.59406 J-6.51618
N2341 X25.0557 Y30.71148 I1.40248 J-8.48487
N2342 G03 X25.29418 Y32.4276 I-42.5557 J6.78852
N2343 G1 X26.08242 Y32.33417
N2344 G03 X25.67626 Y45.36916 I-43.58242 J5.16583
N2345 G02 X20.19337 Y45.04232 I-3.17626 J7.13084
N2346 X20.1936 Y29.95775 I-67.69011 J-7.54334
N2347 X25.67626 Y29.63084 I2.3064 J-7.45775
N2348 G03 X26.08242 Y32.33417 I-43.17626 J7.86916
N2349 G1 X26.87065 Y32.24074
N2350 G03 X26.25007 Y46.57445 I-44.37065 J5.25926
N2351 G02 X19.2421 Y46.29023 I-3.75007 J5.92555
N2352 X19.24239 Y28.70992 I-66.73884 J-8.79125
N2353 X26.25007 Y28.42555 I3.25761 J-6.20992
N2354 G03 X26.87065 Y32.24074 I-43.75007 J9.07445
N2355 G1 X27.65888 Y32.14731
N2356 G03 X26.75461 Y47.96446 I-45.15888 J5.35269
N2357 G02 X18.18777 Y48.01921 I-4.25461 J4.53554
N2358 X18.24819 Y47.63461 I-65.67522 J-10.51419
N2359 X18.18812 Y26.98113 I-65.74493 J-10.13563
N2360 X26.75461 Y27.03554 I4.31188 J-4.48113
N2361 G03 X27.65888 Y32.14731 I-44.25461 J10.46446
N2362 G1 X28.44711 Y32.05388
N2363 G03 X27.13608 Y49.68267 I-45.94711 J5.44612
N2364 G02 X17.0804 Y52.25815 I-4.63608 J2.81733
N2365 X17.36012 Y54.23559 I5.4196 J0.24185
N2366 G1 X16.07904 Y54.18216
N2367 G02 X17.4637 Y47.51369 I-63.56649 J-16.67714
N2368 X16.07914 Y20.81783 I-64.96044 J-10.01471
N2369 G1 X17.36012 Y20.76441
N2370 G02 X26.88234 Y25.69777 I5.13988 J1.73559
N2371 X27.13608 Y25.31733 I-4.38234 J-3.19777
N2372 G03 X28.44711 Y32.05388 I-44.63608 J12.18267
N2373 G1 X29.23535 Y31.96046
N2374 G03 X27.13076 Y52.43234 I-46.73535 J5.53954
N2375 G02 X17.87336 Y52.29354 I-4.63076 J0.06766
N2376 X18.65671 Y55.0841 I4.62664 J0.20646
N2377 G1 X15.05346 Y54.93383
N2378 G02 X16.67921 Y47.39278 I-62.54091 J-17.42881
N2379 X15.05354 Y20.06616 I-64.17595 J-9.8938
N2380 G1 X18.65671 Y19.9159
N2381 G02 X26.24114 Y25.22989 I3.84329 J2.5841
N2382 X27.13076 Y22.56766 I-3.74114 J-2.72989
N2383 G03 X29.23535 Y31.96046 I-44.63076 J14.93234
N2384 G1 X30.02358 Y31.86703
N2385 G03 X26.54821 Y56.20764 I-47.52358 J5.63297
N2386 G1 X23.84301 Y56.09482
N2387 G02 X18.66632 Y52.32892 I-1.34301 J-3.59482
N2388 X20.86235 Y55.97052 I3.83368 J0.17108
N2389 G1 X14.01203 Y55.68484
N2390 G02 X15.89473 Y47.27187 I-61.49948 J-18.17982
N2391 X14.01209 Y19.31516 I-63.39147 J-9.77289
N2392 G1 X20.86235 Y19.02948
N2393 G02 X25.59995 Y24.76202 I1.63765 J3.47052
N2394 X23.84301 Y18.90518 I-3.09995 J-2.26202
N2395 G1 X26.54821 Y18.79236
N2396 G03 X30.02358 Y31.86703 I-44.04821 J18.70764
N2397 G1 X30.81181 Y31.7736
N2398 G03 X27.06072 Y57.02345 I-48.31181 J5.7264
N2399 G1 X12.95396 Y56.43516
N2400 G02 X15.11024 Y47.15095 I-60.44141 J-18.93014
N2401 X12.95401 Y18.56484 I-62.60698 J-9.65197
N2402 G1 X27.06072 Y17.97655
N2403 G03 X30.81181 Y31.7736 I-44.56072 J19.52345
N2404 G1 X31.60004 Y31.68017
N2405 G03 X27.56673 Y57.83899 I-49.10004 J5.81983
N2406 G1 X11.87842 Y57.18475
N2407 G02 X14.32575 Y47.03004 I-59.36587 J-19.67973
N2408 X11.87845 Y17.81525 I-61.82249 J-9.53106
N2409 G1 X27.56673 Y17.16101
N2410 G03 X31.60004 Y31.68017 I-45.06673 J20.33899
N2411 G1 X32.38827 Y31.58674
N2412 G03 X28.06647 Y58.65427 I-49.88827 J5.91326
N2413 G1 X10.78446 Y57.93356
N2414 G02 X13.54127 Y46.90912 I-58.27191 J-20.42854
N2415 X10.78448 Y17.06643 I-61.03801 J-9.41014
N2416 G1 X28.06647 Y16.34573
N2417 G03 X32.38827 Y31.58674 I-45.56647 J21.15427
N2418 G1 X33.17651 Y31.49331
N2419 G03 X28.56016 Y59.4693 I-50.67651 J6.00669
N2420 G1 X9.67109 Y58.68157
N2421 G02 X12.75678 Y46.78821 I-57.15854 J-21.17655
N2422 X9.67109 Y16.31843 I-60.25352 J-9.28923
N2423 G1 X28.56016 Y15.5307
N2424 G03 X33.17651 Y31.49331 I-46.06016 J21.9693
N2425 G1 X33.96474 Y31.39988
N2426 G03 X29.048 Y60.28408 I-51.46474 J6.10012
N2427 G1 X8.53718 Y59.42873
N2428 G02 X11.97229 Y46.6673 I-56.02463 J-21.92371
N2429 X8.53718 Y15.57127 I-59.46903 J-9.16832
N2430 G1 X29.048 Y14.71592
N2431 G03 X33.96474 Y31.39988 I-46.548 J22.78408
N2432 G1 X34.75297 Y31.30645
N2433 G03 X29.53018 Y61.09863 I-52.25297 J6.19355
N2434 G1 X7.38153 Y60.17497
N2435 G02 X11.18781 Y46.54638 I-54.86898 J-22.66995
N2436 X7.38152 Y14.82503 I-58.68455 J-9.0474
N2437 G1 X29.53018 Y13.90137
N2438 G03 X34.75297 Y31.30645 I-47.03018 J23.59863
N2439 G1 X35.5412 Y31.21302
N2440 G03 X30.00688 Y61.91295 I-53.0412 J6.28698
N2441 G1 X6.2028 Y60.92026
N2442 G02 X10.40332 Y46.42547 I-53.69025 J-23.41524
N2443 X6.20278 Y14.07974 I-57.90006 J-8.92649
N2444 G1 X30.00688 Y13.08705
N2445 G03 X35.5412 Y31.21302 I-47.50688 J24.41295
N2446 G1 X34.51028 Y31.46241 Z-0.93934 F847.5
N2447 Z-0.33934
N2448 G0 Z1.5875
N2449 X22.98421 Y38.6447
N2450 G1 Z-1.3 F141.2
N2451 Z-1.9 F423.7
N2452 X22.98631 Y38.51503 Z-1.91135
N2453 X22.98951 Y38.26128 Z-1.93355
N2454 X22.9918 Y38.00753 Z-1.95575
N2455 X22.99317 Y37.75377 Z-1.97795
N2456 X22.99363 Y37.5 Z-2.00015
N2457 X22.99318 Y37.24623 Z-2.02236
N2458 X22.99181 Y36.99247 Z-2.04456
N2459 X22.98953 Y36.73871 Z-2.06676
N2460 X22.98634 Y36.48497 Z-2.08896
N2461 X22.98223 Y36.23123 Z-2.11116
N2462 X22.97721 Y35.97752 Z-2.13336
N2463 X22.97128 Y35.72382 Z-2.15557
N2464 X22.96443 Y35.47015 Z-2.17777
N2465 X22.95667 Y35.2165 Z-2.19997
N2466 X22.948 Y34.96288 Z-2.22217
N2467 X22.93841 Y34.70929 Z-2.24437
N2468 X22.92791 Y34.45575 Z-2.26657
N2469 X22.9165 Y34.20224 Z-2.28877
N2470 X22.90417 Y33.94877 Z-2.31098
N2471 X22.89094 Y33.69535 Z-2.33318
N2472 X22.87679 Y33.44198 Z-2.35538
N2473 X22.86173 Y33.18866 Z-2.37758
N2474 X22.84575 Y32.93539 Z-2.39978
N2475 X22.82887 Y32.68219 Z-2.42199
N2476 X22.88828 Y32.6801 Z-2.42719
N2477 X22.94768 Y32.67766 Z-2.43239
N2478 X23.00706 Y32.67487 Z-2.43759
N2479 X23.06642 Y32.67174 Z-2.44279
N2480 X23.12577 Y32.66826 Z-2.44799
N2481 X23.18509 Y32.66444 Z-2.45319
N2482 X23.24439 Y32.66027 Z-2.45839
N2483 X23.30367 Y32.65575 Z-2.46359
N2484 X23.36292 Y32.65089 Z-2.46879
N2485 X23.42214 Y32.64568 Z-2.47399
N2486 X23.48132 Y32.64012 Z-2.4792
N2487 X23.54048 Y32.63423 Z-2.4844
N2488 X23.5996 Y32.62798 Z-2.4896
N2489 X23.65868 Y32.62139 Z-2.4948
N2490 X23.71772 Y32.61446 Z-2.5
N2491 G03 Y42.38554 I-41.21772 J4.88554 F565.
N2492 G02 X22.82873 Y42.3178 I-1.21772 J10.11446
N2493 X22.82887 Y32.68219 I-70.32547 J-4.81882
N2494 X23.71772 Y32.61446 I-0.32887 J-10.18219
N2495 G1 X24.50595 Y32.52103
N2496 G03 X24.40041 Y43.30049 I-42.00595 J4.97897
N2497 G02 X21.97276 Y43.12106 I-1.90041 J9.19951
N2498 X21.97293 Y31.87895 I-69.4695 J-5.62208
N2499 X24.40041 Y31.69951 I0.52707 J-9.37895
N2500 G03 X24.50595 Y32.52103 I-41.90041 J5.80049
N2501 G1 X25.29418 Y32.4276
N2502 G03 X25.0557 Y44.28852 I-42.79418 J5.0724
N2503 G02 X21.09732 Y44.01516 I-2.5557 J8.21148
N2504 X21.09752 Y30.98487 I-68.59406 J-6.51618
N2505 X25.0557 Y30.71148 I1.40248 J-8.48487
N2506 G03 X25.29418 Y32.4276 I-42.5557 J6.78852
N2507 G1 X26.08242 Y32.33417
N2508 G03 X25.67626 Y45.36916 I-43.58242 J5.16583
N2509 G02 X20.19337 Y45.04232 I-3.17626 J7.13084
N2510 X20.1936 Y29.95775 I-67.69011 J-7.54334
N2511 X25.67626 Y29.63084 I2.3064 J-7.45775
N2512 G03 X26.08242 Y32.33417 I-43.17626 J7.86916
N2513 G1 X26.87065 Y32.24074
N2514 G03 X26.25007 Y46.57445 I-44.37065 J5.25926
N2515 G02 X19.2421 Y46.29023 I-3.75007 J5.92555
N2516 X19.24239 Y28.70992 I-66.73884 J-8.79125
N2517 X26.25007 Y28.42555 I3.25761 J-6.20992
N2518 G03 X26.87065 Y32.24074 I-43.75007 J9.07445
N2519 G1 X27.65888 Y32.14731
N2520 G03 X26.75461 Y47.96446 I-45.15888 J5.35269
N2521 G02 X18.18777 Y48.01921 I-4.25461 J4.53554
N2522 X18.24819 Y47.63461 I-65.67522 J-10.51419
N2523 X18.18812 Y26.98113 I-65.74493 J-10.13563
N2524 X26.75461 Y27.03554 I4.31188 J-4.48113
N2525 G03 X27.65888 Y32.14731 I-44.25461 J10.46446
N2526 G1 X28.44711 Y32.05388
N2527 G03 X27.13608 Y49.68267 I-45.94711 J5.44612
N2528 G02 X17.0804 Y52.25815 I-4.63608 J2.81733
N2529 X17.36012 Y54.23559 I5.4196 J0.24185
N2530 G1 X16.07904 Y54.18216
N2531 G02 X17.4637 Y47.51369 I-63.56649 J-16.67714
N2532 X16.07914 Y20.81783 I-64.96044 J-10.01471
N2533 G1 X17.36012 Y20.76441
N2534 G02 X26.88234 Y25.69777 I5.13988 J1.73559
N2535 X27.13608 Y25.31733 I-4.38234 J-3.19777
N2536 G03 X28.44711 Y32.05388 I-44.63608 J12.18267
N2537 G1 X29.23535 Y31.96046
N2538 G03 X27.13076 Y52.43234 I-46.73535 J5.53954
N2539 G02 X17.87336 Y52.29354 I-4.63076 J0.06766
N2540 X18.65671 Y55.0841 I4.62664 J0.20646
N2541 G1 X15.05346 Y54.93383
N2542 G02 X16.67921 Y47.39278 I-62.54091 J-17.42881
N2543 X15.05354 Y20.06616 I-64.17595 J-9.8938
N2544 G1 X18.65671 Y19.9159
N2545 G02 X26.24114 Y25.22989 I3.84329 J2.5841
N2546 X27.13076 Y22.56766 I-3.74114 J-2.72989
N2547 G03 X29.23535 Y31.96046 I-44.63076 J14.93234
N2548 G1 X30.02358 Y31.86703
N2549 G03 X26.54821 Y56.20764 I-47.52358 J5.63297
N2550 G1 X23.84301 Y56.09482
N2551 G02 X18.66632 Y52.32892 I-1.34301 J-3.59482
N2552 X20.86235 Y55.97052 I3.83368 J0.17108
N2553 G1 X14.01203 Y55.68484
N2554 G02 X15.89473 Y47.27187 I-61.49948 J-18.17982
N2555 X14.01209 Y19.31516 I-63.39147 J-9.77289
N2556 G1 X20.86235 Y19.02948
N2557 G02 X25.59995 Y24.76202 I1.63765 J3.47052
N2558 X23.84301 Y18.90518 I-3.09995 J-2.26202
N2559 G1 X26.54821 Y18.79236
N2560 G03 X30.02358 Y31.86703 I-44.04821 J18.70764
N2561 G1 X30.81181 Y31.7736
N2562 G03 X27.06072 Y57.02345 I-48.31181 J5.7264
N2563 G1 X12.95396 Y56.43516
N2564 G02 X15.11024 Y47.15095 I-60.44141 J-18.93014
N2565 X12.95401 Y18.56484 I-62.60698 J-9.65197
N2566 G1 X27.06072 Y17.97655
N2567 G03 X30.81181 Y31.7736 I-44.56072 J19.52345
N2568 G1 X31.60004 Y31.68017
N2569 G03 X27.56673 Y57.83899 I-49.10004 J5.81983
N2570 G1 X11.87842 Y57.18475
N2571 G02 X14.32575 Y47.03004 I-59.36587 J-19.67973
N2572 X11.87845 Y17.81525 I-61.82249 J-9.53106
N2573 G1 X27.56673 Y17.16101
N2574 G03 X31.60004 Y31.68017 I-45.06673 J20.33899
N2575 G1 X32.38827 Y31.58674
N2576 G03 X28.06647 Y58.65427 I-49.88827 J5.91326
N2577 G1 X10.78446 Y57.93356
N2578 G02 X13.54127 Y46.90912 I-58.27191 J-20.42854
N2579 X10.78448 Y17.06643 I-61.03801 J-9.41014
N2580 G1 X28.06647 Y16.34573
N2581 G03 X32.38827 Y31.58674 I-45.56647 J21.15427
N2582 G1 X33.17651 Y31.49331
N2583 G03 X28.56016 Y59.4693 I-50.67651 J6.00669
N2584 G1 X9.67109 Y58.68157
N2585 G02 X12.75678 Y46.78821 I-57.15854 J-21.17655
N2586 X9.67109 Y16.31843 I-60.25352 J-9.28923
N2587 G1 X28.56016 Y15.5307
N2588 G03 X33.17651 Y31.49331 I-46.06016 J21.9693
N2589 G1 X33.96474 Y31.39988
N2590 G03 X29.048 Y60.28408 I-51.46474 J6.10012
N2591 G1 X8.53718 Y59.42873
N2592 G02 X11.97229 Y46.6673 I-56.02463 J-21.92371
N2593 X8.53718 Y15.57127 I-59.46903 J-9.16832
N2594 G1 X29.048 Y14.71592
N2595 G03 X33.96474 Y31.39988 I-46.548 J22.78408
N2596 G1 X34.75297 Y31.30645
N2597 G03 X29.53018 Y61.09863 I-52.25297 J6.19355
N2598 G1 X7.38153 Y60.17497
N2599 G02 X11.18781 Y46.54638 I-54.86898 J-22.66995
N2600 X7.38152 Y14.82503 I-58.68455 J-9.0474
N2601 G1 X29.53018 Y13.90137
N2602 G03 X34.75297 Y31.30645 I-47.03018 J23.59863
N2603 G1 X35.5412 Y31.21302
N2604 G03 X30.00688 Y61.91295 I-53.0412 J6.28698
N2605 G1 X6.2028 Y60.92026
N2606 G02 X10.40332 Y46.42547 I-53.69025 J-23.41524
N2607 X6.20278 Y14.07974 I-57.90006 J-8.92649
N2608 G1 X30.00688 Y13.08705
N2609 G03 X35.5412 Y31.21302 I-47.50688 J24.41295
N2610 G1 X34.51028 Y31.46241 Z-1.43934 F847.5
N2611 Z-0.83934
N2612 G0 Z1.5875
(2 1/2 Axis Profiling)
(SlotDrill 1/8in 3.175mm Carbide Aluminium Cut)
N2613 X77.66767 Y39.02524
N2614 G1 Z-0.23 F141.2
N2615 X77.69967 Y39.95949 Z-0.31178 F423.7
N2616 X77.76852 Y41.17302 Z-0.41812
N2617 X77.86459 Y42.38469 Z-0.52446
N2618 X77.98783 Y43.5939 Z-0.6308
N2619 X78.13818 Y44.80004 Z-0.73714
N2620 X78.31556 Y46.0025 Z-0.84348
N2621 X78.51988 Y47.20068 Z-0.94982
N2622 X78.51999 Y47.20129 Z-0.94988
N2623 X78.56327 Y47.43648 Z-0.9708
N2624 X78.6076 Y47.67147 Z-0.99172
N2625 X78.65298 Y47.90627 Z-1.01264
N2626 X78.69939 Y48.14086 Z-1.03357
N2627 X78.74685 Y48.37525 Z-1.05449
N2628 X78.79535 Y48.60942 Z-1.07541
N2629 X78.84488 Y48.84337 Z-1.09633
N2630 X78.89546 Y49.0771 Z-1.11725
N2631 X78.94707 Y49.3106 Z-1.13818
N2632 X78.99972 Y49.54388 Z-1.1591
N2633 X79.0534 Y49.77691 Z-1.18002
N2634 X79.10812 Y50.00971 Z-1.20094
N2635 X79.16387 Y50.24226 Z-1.22186
N2636 X79.22066 Y50.47456 Z-1.24279
N2637 X79.27847 Y50.7066 Z-1.26371
N2638 X80.0021 Y53.30866 Z-1.5
N2639 G02 X83.85379 Y62.68218 I51.8054 J-15.80929 F565.
N2640 G1 X109.23975 Y61.62352
N2641 G03 Y13.37648 I52.56645 J-24.12352
N2642 G1 X83.85379 Y12.31782
N2643 G02 X80.00212 Y21.69135 I47.95241 J25.18218
N2644 G1 X79.27849 Y24.29334
N2645 G02 X78.51988 Y47.20068 I52.51931 J13.20549
N2646 G1 X78.51999 Y47.20129
N2647 G02 X79.27847 Y50.7066 I52.97985 J-9.62913
N2648 G1 X80.0021 Y53.30866
N2649 X79.76208 Y53.37864
N2650 G02 X83.7063 Y62.93855 I52.04542 J-15.87927
N2651 G1 X109.62363 Y61.85773
N2652 G03 Y13.14227 I52.18257 J-24.35773
N2653 G1 X83.7063 Y12.06145
N2654 G02 X79.76209 Y21.62136 I48.0999 J25.43855
N2655 G1 X79.0368 Y24.22935
N2656 G02 X78.27392 Y47.24547 I52.761 J13.26948
N2657 G1 X78.27402 Y47.24599
N2658 G02 X79.03678 Y50.7706 I53.22582 J-9.67383
N2659 G1 X79.76208 Y53.37864
N2660 G0 Z1.5875
N2661 X26.08864 Y62.5002
N2662 G1 Z-0.23 F141.2
N2663 X30.45242 Y62.68218 Z-0.61211 F423.7
N2664 X30.76323 Y62.08123 Z-0.6713
N2665 X31.06652 Y61.47644 Z-0.7305
N2666 X31.36223 Y60.86791 Z-0.78969
N2667 X31.65031 Y60.25574 Z-0.84888
N2668 X31.93072 Y59.64001 Z-0.90807
N2669 X32.20343 Y59.02083 Z-0.96727
N2670 X32.46837 Y58.39829 Z-1.02646
N2671 X32.72552 Y57.77249 Z-1.08565
N2672 X32.97483 Y57.14353 Z-1.14484
N2673 X33.21626 Y56.5115 Z-1.20404
N2674 X33.44979 Y55.8765 Z-1.26323
N2675 X33.67536 Y55.23864 Z-1.32242
N2676 X33.89294 Y54.59801 Z-1.38161
N2677 X34.10251 Y53.95471 Z-1.44081
N2678 X34.30402 Y53.30885 Z-1.5
N2679 X35.02771 Y50.70667 F565.
N2680 G02 X35.81254 Y47.05772 I-52.52788 J-13.2067
N2681 X35.02771 Y24.29332 I-53.31254 J-9.55772
N2682 G1 X34.30408 Y21.69135
N2683 G02 X30.45242 Y12.31782 I-51.80408 J15.80865
N2684 G1 X5.06646 Y13.37648
N2685 G03 Y61.62352 I-52.56646 J24.12352
N2686 G1 X30.45242 Y62.68218
N2687 G02 X34.30402 Y53.30885 I-47.95236 J-25.18215
N2688 G1 X34.54405 Y53.37883
N2689 X35.2694 Y50.77066
N2690 G02 X36.05861 Y47.10183 I-52.76957 J-13.27069
N2691 X35.2694 Y24.22934 I-53.55861 J-9.60183
N2692 G1 X34.54411 Y21.62136
N2693 G02 X30.5999 Y12.06145 I-52.04411 J15.87864
N2694 G1 X4.68258 Y13.14227
N2695 G03 Y61.85773 I-52.18258 J24.35773
N2696 G1 X30.5999 Y62.93855
N2697 G02 X34.54405 Y53.37883 I-48.09984 J-25.43852
N2698 G0 Z1.5875
(Radial Machining)
(SlotDrill 1/8in 3.175mm Carbide Aluminium Cut)
N2699 X25.74986 Y52.5
N2700 G1 Z-0.31236 F141.2
N2701 Z-0.91236 F423.7
N2702 X24.84449 Z-0.00699 F565.
N2703 X24.83209 Z0.
N2704 X22.56
N2705 X22.55826 Y52.51436
N2706 X24.75742 Y53.0564
N2707 X24.78 Y53.06197 Z-0.0108
N2708 X25.65264 Y53.27706 Z-0.9097
N2709 X25.6303 Y53.37391 Z-0.91257
N2710 X25.53786 Y53.65494 Z-0.91281
N2711 X25.40897 Y53.94705 Z-0.91189
N2712 X25.37515 Y54.00899 Z-0.90964
N2713 X24.57348 Y53.58824 Z-0.00423
N2714 X24.54053 Y53.57095 Z0.
N2715 X22.55313 Y52.52788
N2716 X22.54491 Y52.53979
N2717 X24.23447 Y54.0366
N2718 X24.25304 Y54.05305 Z-0.00457
N2719 X24.93238 Y54.6549 Z-0.91226
N2720 X24.72052 Y54.87314 Z-0.91297
N2721 X24.55177 Y55.01721 Z-0.90998
N2722 X24.49552 Y55.06523 Z-0.91301
N2723 X24.34442 Y55.1721 Z-0.90989
N2724 X23.83011 Y54.42699 Z-0.00422
N2725 X23.80897 Y54.39637 Z0.
N2726 X22.53409 Y52.54938
N2727 X22.52128 Y52.5561
N2728 X23.3217 Y54.66664
N2729 X23.3305 Y54.68984 Z-0.00465
N2730 X23.6515 Y55.53626 Z-0.91012
N2731 X23.45076 Y55.60782 Z-0.91293
N2732 X23.16421 Y55.6814 Z-0.91297
N2733 X22.89164 Y55.72547 Z-0.912
N2734 X22.78251 Y54.8267 Z-0.00642
N2735 X22.78102 Y54.81439 Z0.
