%
G17 G21 G40 G90 G64 P0.1
(Parallel Finishing)
(Ballnose 1/4" carbide)
T41 M06
S24000 M3
G0 Z57.70068
X-35.29813 Y-67.76853
G1 Z18.75483 F1200.
Z18.15483 F3600.
X-35.28382 Z18.14697 F4800.
X-35.24135 Y-67.76785 Z18.1255
X-35.19888 Y-67.76719 Z18.10016
X-35.15641 Y-67.76651 Z18.07094
X-35.11394 Y-67.76584 Z18.03782
X-35.0927 Y-67.76517 Z18.02194
X-35.07146 Y-67.7645 Z18.00452
X-35.05818 Y-67.76407 Z17.99274
X-35.05022 Y-67.76382 Z17.99397
X-34.94932 Y-67.76062 Z18.01425
X-34.94401 Y-67.76045 Z18.01578
X-34.90155 Y-67.75843 Z18.07237
X-34.85909 Y-67.7564 Z18.12481
X-34.81664 Y-67.75438 Z18.17334
X-34.77418 Y-67.75235 Z18.21797
X-34.73176 Y-67.74965 Z18.26321
X-34.68934 Y-67.74695 Z18.30459
X-34.64692 Y-67.74425 Z18.34213
X-34.6045 Y-67.74155 Z18.37585
X-34.56213 Y-67.73818 Z18.41021
X-34.51976 Y-67.7348 Z18.44078
X-34.47739 Y-67.73143 Z18.46754
X-34.43502 Y-67.72805 Z18.49051
X-34.3927 Y-67.724 Z18.51417
X-34.35039 Y-67.71995 Z18.53404
X-34.30808 Y-67.7159 Z18.55011
X-34.26577 Y-67.71185 Z18.56239
X-34.22386 Y-67.7107 Z18.55183
X-34.18196 Y-67.70954 Z18.53752
X-34.14005 Y-67.70839 Z18.51947
X-34.09814 Y-67.70723 Z18.49764
X-34.05626 Y-67.70541 Z18.47651
X-34.01438 Y-67.70359 Z18.45157
X-33.9725 Y-67.70176 Z18.42283
X-33.93062 Y-67.69994 Z18.39057
X-33.92016 Y-67.69931 Z18.38346
X-33.76323 Y-67.68996 Z18.34394
X-33.59602 Y-67.6773 Z18.31757
X-33.42904 Y-67.66196 Z18.30684
X-33.26233 Y-67.64395 Z18.31175
X-33.09592 Y-67.62328 Z18.33229
X-32.92987 Y-67.59994 Z18.36846
X-32.76421 Y-67.57394 Z18.42026
X-32.66094 Y-67.55604 Z18.46213
X-32.64029 Y-67.55246 Z18.46951
X-32.59899 Y-67.5453 Z18.48184
X-32.5578 Y-67.53748 Z18.49487
X-32.51662 Y-67.52966 Z18.50467
X-32.47543 Y-67.52183 Z18.51121
X-32.43425 Y-67.51401 Z18.51448
X-32.39319 Y-67.50553 Z18.51842
X-32.35214 Y-67.49705 Z18.51906
X-32.31108 Y-67.48857 Z18.51638
X-32.27003 Y-67.48009 Z18.51034
X-32.22912 Y-67.47095 Z18.50493
X-32.1882 Y-67.46182 Z18.49612
X-32.14729 Y-67.45268 Z18.48389
X-32.10637 Y-67.44354 Z18.46819
X-32.0758 Y-67.4362 Z18.45716
X-31.94333 Y-67.40438 Z18.40302
X-31.78093 Y-67.36261 Z18.35257
X-31.61922 Y-67.31825 Z18.31839
X-31.45824 Y-67.2713 Z18.3005
X-31.43766 Y-67.26494 Z18.30029
X-32.08258 Z19.46124
X-32.13219 Z19.54646
X-32.1818 Z19.62656
X-32.23141 Z19.70162
X-32.28102 Z19.77169
X-32.33063 Z19.83683
X-32.38024 Z19.8971
X-32.42985 Z19.95254
X-32.47946 Z20.00319
X-32.52907 Z20.04909
X-32.57868 Z20.09029
X-32.62829 Z20.12681
X-32.6779 Z20.15868
X-33.15229 Z20.4417
X-33.34762 Z20.65131
X-33.37243 Z20.67527
X-33.39723 Z20.697
X-33.42204 Z20.71673
X-33.44684 Z20.73464
X-33.47165 Z20.75091
X-33.49645 Z20.76566
X-34.14137 Z21.11871
X-34.16618 Z21.13124
X-34.21579 Z21.15313
X-34.2654 Z21.1708
X-34.31501 Z21.18428
X-34.36462 Z21.19357
X-34.41423 Z21.19867
X-34.46383 Z21.19959
X-34.51344 Z21.19634
X-34.56305 Z21.1889
X-34.61266 Z21.17728
X-34.66227 Z21.16146
X-34.71188 Z21.14144
X-34.76149 Z21.11719
X-34.8111 Z21.08871
X-34.86071 Z21.05596
X-34.91032 Z21.01892
X-34.94753 Z20.98845
X-35.05295 Z20.98873
X-35.10876 Z21.03367
X-35.15837 Z21.06906
X-35.20798 Z21.10016
X-35.25758 Z21.12702
X-35.30719 Z21.14964
X-35.3568 Z21.16804
X-35.40641 Z21.18225
X-35.45602 Z21.19226
X-35.50563 Z21.19809
X-35.55524 Z21.19974
X-35.60485 Z21.1972
X-35.65446 Z21.19049
X-35.70407 Z21.1796
X-35.75368 Z21.16451
X-35.80329 Z21.14521
X-35.8529 Z21.1217
X-35.90251 Z21.09395
X-35.95212 Z21.06194
X-36.00173 Z21.02565
X-36.43891 Z20.68571
X-37.34118 Z20.14699
X-37.39079 Z20.11334
X-37.4404 Z20.07503
X-37.49001 Z20.03202
X-37.53962 Z19.9843
X-37.58923 Z19.93181
X-37.63883 Z19.87452
X-37.68844 Z19.81239
X-37.73805 Z19.74536
X-37.78766 Z19.67338
X-37.83892 Z19.59374
X-37.89019 Z19.50868
X-37.93504 Z19.42975
X-38.60785 Z18.21828
X-39.24285
X-39.37323 Y-67.4455 Z18.13353
X-39.56291 Y-67.57607 Z18.07225
X-39.78996 Y-67.64156 Z18.04151
X-40.02812 Y-67.6344 Z18.04487
X-40.24987 Y-67.5554 Z18.08195
X-40.42955 Y-67.41372 Z18.14845
X-40.54641 Y-67.22572 Z18.23669
X-40.58692 Y-67.01315 Z18.33646
X-40.57238 Y-66.88458 Z18.3968
X-40.52936 Y-66.76135 Z18.45464
X-39.89436
X-39.84475 Z18.60706
X-39.79514 Z18.75304
X-39.74553 Z18.89272
X-39.69592 Z19.02627
X-39.64631 Z19.15383
X-39.5967 Z19.27553
X-39.54709 Z19.39149
X-39.49748 Z19.50183
X-39.44787 Z19.60666
X-39.39826 Z19.70607
X-39.34866 Z19.80014
X-38.14563 Z21.96715
X-38.13323 Z21.98865
X-38.10842 Z22.02941
X-38.08362 Z22.06763
X-38.05881 Z22.10372
X-38.0092 Z22.17134
X-37.90998 Z22.30419
X-37.86037 Z22.3671
X-37.81076 Z22.4262
X-37.76116 Z22.48155
X-37.71154 Z22.53319
X-37.66194 Z22.58117
X-37.61233 Z22.62552
X-37.56272 Z22.66628
X-37.51311 Z22.70348
X-37.4635 Z22.73715
X-37.41389 Z22.76731
X-37.36428 Z22.79399
X-37.32087 Z22.8145
X-36.66975 Z23.10422
X-35.9008 Z23.46857
X-35.876 Z23.47987
X-35.82639 Z23.49996
X-35.77678 Z23.51672
X-35.72717 Z23.53016
X-35.67756 Z23.54029
X-35.62795 Z23.54711
X-35.57834 Z23.55064
X-35.52873 Z23.55088
X-35.47912 Z23.54782
X-35.42951 Z23.54146
X-35.37991 Z23.5318
X-35.33029 Z23.51884
X-35.28069 Z23.50256
X-35.23108 Z23.48294
X-35.18147 Z23.45998
X-35.13186 Z23.43366
X-35.08225 Z23.40396
X-35.03419 Z23.37194
X-35.03264 Z23.3715
X-34.97063
X-34.96443 Z23.37291
X-34.93342 Z23.39387
X-34.88381 Z23.42465
X-34.8342 Z23.45203
X-34.78459 Z23.47605
X-34.73498 Z23.49672
X-34.68537 Z23.51405
X-34.63576 Z23.52807
X-34.58616 Z23.53877
X-34.53654 Z23.54617
X-34.48694 Z23.55027
X-34.43733 Z23.55107
X-34.38772 Z23.54858
X-34.33811 Z23.5428
X-34.2885 Z23.53371
X-34.23889 Z23.52132
X-34.18928 Z23.50561
X-34.13347 Z23.48396
X-33.66838 Z23.28313
X-33.64358 Z23.27175
X-33.58777 Z23.24274
X-33.39553 Z23.13411
X-33.38313 Z23.12765
X-32.67619 Z22.8132
X-32.65139 Z22.8017
X-32.60178 Z22.77611
X-32.55217 Z22.74705
X-32.50256 Z22.71449
X-32.45295 Z22.67841
X-32.40334 Z22.63878
X-32.35373 Z22.59557
X-32.30412 Z22.54874
X-32.25451 Z22.49826
X-32.20491 Z22.44408
X-32.1553 Z22.38617
X-32.10569 Z22.32447
X-32.05608 Z22.25902
X-31.95686 Z22.12557
X-31.93205 Z22.09065
X-31.90725 Z22.05382
X-31.88244 Z22.01472
X-31.85144 Z21.96193
X-30.66701 Z19.82876
X-30.61741 Z19.73635
X-30.5678 Z19.63863
X-30.51819 Z19.53553
X-30.46858 Z19.42694
X-30.41897 Z19.31277
X-30.36936 Z19.19289
X-30.33663 Z19.11064
X-30.30391 Z19.02582
X-30.27118 Z18.93839
X-30.23846 Z18.84831
X-30.20573 Z18.75555
X-30.17301 Z18.66005
X-30.12392 Z18.51156
X-30.10756 Z18.46065
X-29.47256
X-29.36276 Y-66.90141 Z18.48864
X-29.21245 Y-66.99881 Z18.5081
X-29.03801 Y-67.04293 Z18.51692
X-28.85841 Y-67.02897 Z18.51413
X-28.69323 Y-66.95846 Z18.50004
X-28.56044 Y-66.83907 Z18.47618
X-28.4745 Y-66.6838 Z18.44515
X-28.44478 Y-66.50956 Z18.41033
X-28.46106 Y-66.37979 Z18.3844
X-28.50893 Y-66.25776 Z18.36001
X-29.14393
X-30.13611 Z21.46449
X-30.18572 Z21.61293
X-30.23533 Z21.75503
X-30.27254 Z21.85752
X-30.28494 Z21.88972
X-30.29734 Z21.91979
X-30.30975 Z21.94804
X-30.33455 Z22.00008
X-30.35936 Z22.04747
X-30.38416 Z22.09312
X-30.43377 Z22.18118
X-30.48338 Z22.26502
X-30.53299 Z22.34473
X-30.5826 Z22.42036
X-30.63221 Z22.492
X-30.68182 Z22.55981
X-31.82283 Z24.09244
X-31.87244 Z24.15617
X-31.92205 Z24.2152
X-32.07088 Z24.38351
X-32.12049 Z24.43768
X-32.1701 Z24.48864
X-32.21971 Z24.53642
X-32.26932 Z24.58107
X-32.31893 Z24.62262
X-32.36854 Z24.6611
X-32.41814 Z24.69656
X-32.46775 Z24.72901
X-32.51736 Z24.75848
X-32.56697 Z24.78499
X-32.61658 Z24.80857
X-32.66619 Z24.82923
X-33.49715 Z25.14046
X-34.12967 Z25.39411
X-34.15447 Z25.40315
X-34.20408 Z25.41902
X-34.25369 Z25.43197
X-34.3033 Z25.442
X-34.35291 Z25.44913
X-34.40252 Z25.45335
X-34.45213 Z25.45468
X-34.50174 Z25.4531
X-34.55135 Z25.44863
X-34.60096 Z25.44125
X-34.65057 Z25.43097
X-34.70018 Z25.41777
X-34.74979 Z25.40165
X-34.79939 Z25.38259
X-34.849 Z25.36058
X-34.89861 Z25.3356
X-34.94822 Z25.30763
X-34.99938 Z25.27564
X-35.00093 Z25.27585
X-35.04744 Z25.30505
X-35.09705 Z25.33328
X-35.14666 Z25.35852
X-35.19627 Z25.38079
X-35.24588 Z25.4001
X-35.29549 Z25.41648
X-35.3451 Z25.42994
X-35.39471 Z25.44047
X-35.44432 Z25.4481
X-35.49393 Z25.45283
X-35.54354 Z25.45465
X-35.59314 Z25.45358
X-35.64275 Z25.44961
X-35.69236 Z25.44274
X-35.74197 Z25.43296
X-35.79158 Z25.42027
X-35.84119 Z25.40465
X-35.8908 Z25.38634
X-36.58533 Z25.12244
X-36.68455 Z25.08246
X-36.78377 Z25.03974
X-36.85198 Z25.00957
X-37.32947 Z24.8309
X-37.37908 Z24.81049
X-37.42869 Z24.78717
X-37.4783 Z24.76092
X-37.52791 Z24.73171
X-37.57752 Z24.69952
X-37.62713 Z24.66433
X-37.67674 Z24.62611
X-37.72635 Z24.58483
X-37.77596 Z24.54045
X-37.82557 Z24.49294
X-37.87518 Z24.44227
X-37.93719 Z24.37441
X-38.07361 Z24.22018
X-38.12322 Z24.1615
X-38.17903 Z24.08995
X-39.34798 Z22.51952
X-39.38193 Z22.47199
X-39.41588 Z22.42262
X-39.44984 Z22.37137
X-39.48379 Z22.31824
X-39.51774 Z22.26318
X-39.55169 Z22.20619
X-39.58565 Z22.14723
X-39.6196 Z22.08628
X-39.65355 Z22.02326
X-39.67053 Z21.98987
X-39.6875 Z21.9541
X-39.70448 Z21.91549
X-39.72146 Z21.87341
X-39.75541 Z21.78086
X-39.78936 Z21.68509
X-39.82331 Z21.58638
X-39.85727 Z21.48468
X-39.89122 Z21.37994
X-40.84189 Z18.40397
X-41.47689
X-41.58211 Y-66.35164 Z18.35799
X-41.71445 Y-66.41177 Z18.32854
X-41.86099 Y-66.43229 Z18.31849
X-42.00743 Y-66.41119 Z18.32883
X-42.13948 Y-66.35054 Z18.35853
X-42.24424 Y-66.25625 Z18.40471
X-42.31148 Y-66.13753 Z18.46285
X-42.33465 Y-66.00597 Z18.52728
X-42.31116 Y-65.87352 Z18.59215
X-42.24301 Y-65.75418 Z18.6506
X-41.60801
X-41.5584 Z18.86741
X-41.50879 Z19.0756
X-41.45918 Z19.27549
X-41.40957 Z19.46743
X-41.35996 Z19.65168
X-41.31035 Z19.82852
X-41.26074 Z19.9982
X-41.21114 Z20.16092
X-40.70264 Z21.75367
X-40.69024 Z21.79082
X-40.67783 Z21.82558
X-40.66543 Z21.85835
X-40.64063 Z21.9191
X-39.87168 Z23.71509
X-39.82207 Z23.82647
X-39.77246 Z23.93311
X-39.74766 Z23.98439
X-39.72285 Z24.03182
X-39.69805 Z24.07552
X-39.67324 Z24.11632
X-39.62364 Z24.19464
X-39.57403 Z24.26931
X-39.52442 Z24.34042
X-39.47481 Z24.40803
X-39.4252 Z24.47222
X-39.37559 Z24.53303
X-39.32598 Z24.59053
X-37.91211 Z26.18793
X-37.88731 Z26.21479
X-37.8377 Z26.26422
X-37.78809 Z26.3084
X-37.73848 Z26.34806
X-37.68887 Z26.38406
X-37.63926 Z26.41741
X-37.58965 Z26.44816
X-37.54004 Z26.47633
X-37.49043 Z26.50195
X-37.44082 Z26.52503
X-37.39121 Z26.5456
X-37.3292 Z26.5678
X-35.85332 Z27.04006
X-35.80371 Z27.05383
X-35.7541 Z27.06513
X-35.70449 Z27.07398
X-35.65489 Z27.08037
X-35.60528 Z27.08431
X-35.55567 Z27.08582
X-35.50606 Z27.08487
X-35.45645 Z27.08149
X-35.40684 Z27.07565
X-35.35723 Z27.06737
X-35.30762 Z27.05663
X-35.25801 Z27.04342
X-35.2084 Z27.02774
X-35.15879 Z27.00957
X-35.10918 Z26.9889
X-35.05957 Z26.96572
X-35.01151 Z26.94084
X-34.98826 Z26.94096
X-34.96035 Z26.95569
X-34.91074 Z26.97989
X-34.86114 Z27.00156
X-34.81153 Z27.02073
X-34.76192 Z27.03741
X-34.71231 Z27.05161
X-34.6627 Z27.06334
X-34.61309 Z27.07261
X-34.56348 Z27.07943
X-34.51387 Z27.0838
X-34.46426 Z27.08572
X-34.41465 Z27.0852
X-34.36504 Z27.08224
X-34.31543 Z27.07683
X-34.26582 Z27.06897
X-34.21621 Z27.05866
X-34.1666 Z27.04588
X-34.11699 Z27.0307
X-32.67832 Z26.57023
X-32.62871 Z26.55316
X-32.5791 Z26.5336
X-32.52949 Z26.51152
X-32.47989 Z26.48693
X-32.43028 Z26.45978
X-32.38067 Z26.43007
X-32.33106 Z26.39777
X-32.28145 Z26.36286
X-32.23184 Z26.32484
X-32.18223 Z26.28255
X-32.13262 Z26.23533
X-32.08301 Z26.18254
X-30.66914 Z24.58501
X-30.64434 Z24.55651
X-30.59473 Z24.49704
X-30.54512 Z24.43421
X-30.49551 Z24.36798
X-30.4459 Z24.29829
X-30.39629 Z24.22505
X-30.34668 Z24.14821
X-30.29707 Z24.06718
X-30.27227 Z24.02279
X-30.24746 Z23.97454
X-30.19785 Z23.86986
X-30.14824 Z23.76039
X-30.09864 Z23.64617
X-29.35449 Z21.90759
X-29.32969 Z21.84567
X-29.31729 Z21.81215
X-29.29713 Z21.75296
X-28.80747 Z20.22021
X-28.77396 Z20.11275
X-28.74045 Z20.00218
X-28.70693 Z19.88845
X-28.67342 Z19.77149
X-28.63991 Z19.65122
X-28.6064 Z19.52756
X-28.57288 Z19.40044
X-28.53937 Z19.26978
X-28.50586 Z19.13547
X-28.47235 Z18.99743
X-28.43883 Z18.85556
X-28.40532 Z18.70973
X-28.37181 Z18.55984
X-27.73681
X-27.64084 Y-65.834 Z18.58936
X-27.52368 Y-65.88299 Z18.60747
X-27.39622 Y-65.89657 Z18.61249
X-27.27033 Y-65.87349 Z18.60396
X-27.15771 Y-65.81589 Z18.58266
X-27.06884 Y-65.72914 Z18.55058
X-27.01198 Y-65.62129 Z18.51071
X-26.99242 Y-65.50238 Z18.46674
X-27.01736 Y-65.36855 Z18.41726
X-27.08923 Y-65.25059 Z18.37364
X-27.72423
X-28.31954 Z21.23066
X-28.36915 Z21.46079
X-28.39396 Z21.57237
X-28.41876 Z21.68077
X-28.43116 Z21.72894
X-28.44356 Z21.77266
X-28.46837 Z21.8519
X-28.51798 Z22.00382
X-28.56759 Z22.14969
X-28.6172 Z22.28974
X-28.66681 Z22.42417
X-28.71642 Z22.55317
X-28.76603 Z22.67692
X-28.82804 Z22.82455
X-29.26212 Z23.83866
X-29.28692 Z23.8941
X-29.32103 Z23.96417
X-30.13028 Z25.55472
X-30.15509 Z25.60202
X-30.2047 Z25.69358
X-30.25431 Z25.7812
X-30.30392 Z25.86498
X-30.35353 Z25.94499
X-30.40314 Z26.02133
X-30.42794 Z26.05812
X-30.45274 Z26.09304
X-30.47755 Z26.12587
X-30.50235 Z26.15684
X-30.55196 Z26.21398
X-30.60157 Z26.26735
X-30.66358 Z26.33005
X-32.08985 Z27.7085
X-32.13946 Z27.7538
X-32.18907 Z27.79636
X-32.23868 Z27.83622
X-32.28829 Z27.87341
X-32.3379 Z27.90796
X-32.38751 Z27.9399
X-32.43712 Z27.96926
X-32.48673 Z27.99605
X-32.53634 Z28.0203
X-32.58595 Z28.04203
X-32.63556 Z28.06124
X-32.68517 Z28.078
X-33.57814 Z28.36369
X-33.67735 Z28.39498
X-33.87579 Z28.45515
X-34.09283 Z28.51792
X-34.12384 Z28.52755
X-34.17345 Z28.54113
X-34.22306 Z28.55246
X-34.27267 Z28.56155
X-34.32227 Z28.5684
X-34.37189 Z28.57302
X-34.42149 Z28.57541
X-34.4711 Z28.57558
X-34.52071 Z28.57352
X-34.57032 Z28.56923
X-34.61993 Z28.56271
X-34.66954 Z28.55396
X-34.71915 Z28.54297
X-34.76876 Z28.52972
X-34.81837 Z28.51422
X-34.86798 Z28.49644
X-34.90829 Z28.48032
X-35.09122 Z28.48011
X-35.11603 Z28.49022
X-35.16564 Z28.50873
X-35.21524 Z28.52497
X-35.26485 Z28.53894
X-35.31446 Z28.55066
X-35.36407 Z28.56013
X-35.41368 Z28.56737
X-35.46329 Z28.57238
X-35.5129 Z28.57516
X-35.56251 Z28.57571
X-35.61212 Z28.57403
X-35.66173 Z28.57013
X-35.71134 Z28.564
X-35.76095 Z28.55564
X-35.81056 Z28.54503
X-35.87257 Z28.52861
X-36.0586 Z28.4744
X-36.25704 Z28.41521
X-36.43067 Z28.36088
X-37.32364 Z28.07518
X-37.34845 Z28.06691
X-37.39806 Z28.0485
X-37.44767 Z28.02758
X-37.49728 Z28.00415
X-37.54689 Z27.97818
X-37.59649 Z27.94965
X-37.6461 Z27.91855
X-37.69571 Z27.88484
X-37.74532 Z27.8485
X-37.79493 Z27.80951
X-37.84454 Z27.76782
X-37.89415 Z27.72341
X-37.94376 Z27.6763
X-39.33282 Z26.33354
X-39.38243 Z26.28395
X-39.43204 Z26.2315
X-39.48165 Z26.17591
X-39.50646 Z26.14605
X-39.53126 Z26.11444
X-39.55606 Z26.08089
X-39.58087 Z26.04518
X-39.63048 Z25.97001
X-39.68009 Z25.89119
X-39.7297 Z25.80863
X-39.77931 Z25.72227
X-39.82892 Z25.63198
X-39.89093 Z25.51347
X-40.68141 Z23.95936
X-40.70998 Z23.90073
X-40.73856 Z23.83709
X-41.19576 Z22.76875
X-41.22434 Z22.70036
X-41.25291 Z22.63029
X-41.28149 Z22.55851
X-41.31006 Z22.48498
X-41.33864 Z22.40969
X-41.36721 Z22.33258
X-41.39579 Z22.25363
X-41.42436 Z22.17281
X-41.45294 Z22.09006
X-41.48151 Z22.00534
X-41.51009 Z21.91863
X-41.55295 Z21.78429
X-41.56724 Z21.73481
X-41.58153 Z21.6796
X-41.62439 Z21.49007
X-41.65296 Z21.35937
X-41.70297 Z21.12313
X-42.25305 Z18.48187
X-42.88805
X-42.98109 Y-65.31232 Z18.45199
X-43.09001 Y-65.34711 Z18.43514
X-43.20547 Y-65.352 Z18.43278
X-43.31754 Y-65.32654 Z18.4451
X-43.4166 Y-65.27293 Z18.47106
X-43.49414 Y-65.19578 Z18.50841
X-43.5435 Y-65.10171 Z18.55395
X-43.56043 Y-64.9988 Z18.60378
X-43.53018 Y-64.86244 Z18.66979
X-43.44404 Y-64.747 Z18.72568
X-42.80904
X-42.21373 Z21.58112
X-42.20133 Z21.63348
X-42.18272 Z21.70348
X-41.69283 Z23.46013
X-41.64322 Z23.63355
X-41.61842 Z23.7176
X-41.60602 Z23.75733
X-41.59361 Z23.79444
X-41.56881 Z23.86314
X-41.5192 Z23.99499
X-41.46959 Z24.12159
X-41.41998 Z24.24314
X-41.37037 Z24.35984
X-41.32076 Z24.47185
X-41.27115 Z24.57933
X-41.22154 Z24.68242
X-41.17193 Z24.78133
X-40.60143 Z25.90304
X-40.57662 Z25.95028
X-40.55181 Z25.99512
X-40.52701 Z26.03789
X-39.88209 Z27.12253
X-39.83248 Z27.20349
X-39.78287 Z27.281
X-39.73326 Z27.35516
X-39.68365 Z27.42605
X-39.63404 Z27.49374
X-39.58443 Z27.55829
X-39.53482 Z27.61979
X-39.48521 Z27.67828
X-39.4356 Z27.73383
X-39.386 Z27.78647
X-39.32398 Z27.8483
X-38.96431 Z28.19585
X-38.93951 Z28.21933
X-38.8899 Z28.26487
X-38.81549 Z28.33003
X-37.92252 Z29.07939
X-37.89771 Z29.09966
X-37.8481 Z29.13842
X-37.7985 Z29.1748
X-37.74889 Z29.20884
X-37.69928 Z29.24057
X-37.64967 Z29.27001
X-37.60006 Z29.29719
X-37.55045 Z29.32213
X-37.50084 Z29.34485
X-37.45123 Z29.36537
X-37.40162 Z29.38369
X-37.35201 Z29.39984
X-37.25279 Z29.42778
X-36.50865 Z29.63455
X-35.88853 Z29.82259
X-35.86373 Z29.82946
X-35.81412 Z29.84163
X-35.76451 Z29.85169
X-35.7149 Z29.85965
X-35.66529 Z29.86553
X-35.61568 Z29.86933
X-35.56607 Z29.87104
X-35.51646 Z29.87068
X-35.46685 Z29.86823
X-35.41725 Z29.8637
X-35.36764 Z29.85709
X-35.31803 Z29.84839
X-35.26842 Z29.83758
X-35.21881 Z29.82468
X-35.1692 Z29.80966
X-35.11959 Z29.79252
X-35.06998 Z29.77323
X-35.05758 Z29.77261
X-34.93355
X-34.93045 Z29.77305
X-34.87154 Z29.79574
X-34.82193 Z29.8125
X-34.77232 Z29.82714
X-34.72271 Z29.83967
X-34.6731 Z29.85009
X-34.62349 Z29.85842
X-34.57389 Z29.86466
X-34.52428 Z29.86882
X-34.47467 Z29.87089
X-34.42506
X-34.37545 Z29.8688
X-34.32584 Z29.86463
X-34.27623 Z29.85838
X-34.22662 Z29.85004
X-34.17701 Z29.8396
X-34.1274 Z29.82707
X-33.53209 Z29.6649
X-33.48248 Z29.64968
X-33.43287 Z29.6326
X-33.26854 Z29.57265
X-32.66393 Z29.40457
X-32.63912 Z29.39711
X-32.58951 Z29.38057
X-32.5399 Z29.36186
X-32.49029 Z29.34095
X-32.44068 Z29.31784
X-32.39107 Z29.2925
X-32.34146 Z29.26491
X-32.29185 Z29.23506
X-32.24225 Z29.20292
X-32.19264 Z29.16846
X-32.14303 Z29.13166
X-32.09342 Z29.09248
X-31.20045 Z28.34354
X-31.15084 Z28.30098
X-31.10123 Z28.25686
X-31.05162 Z28.21099
X-30.65475 Z27.82758
X-30.60514 Z27.77727
X-30.55553 Z27.72411
X-30.50592 Z27.66804
X-30.45631 Z27.60902
X-30.4067 Z27.54698
X-30.35709 Z27.48186
X-30.30748 Z27.41361
X-30.25787 Z27.34214
X-30.20826 Z27.26739
X-30.15865 Z27.18927
X-30.10904 Z27.10769
X-29.46564 Z26.02542
X-29.44266 Z25.98533
X-29.41969 Z25.94341
X-29.37373 Z25.85419
X-28.79926 Z24.72439
X-28.77629 Z24.678
X-28.73033 Z24.58248
X-28.68437 Z24.48319
X-28.63841 Z24.38002
X-28.59246 Z24.27285
X-28.5465 Z24.16156
X-28.50054 Z24.04599
X-28.45459 Z23.92599
X-28.40863 Z23.8009
X-28.39714 Z23.76701
X-28.38565 Z23.73096
X-28.33969 Z23.57463
X-28.27076 Z23.32963
X-27.81119 Z21.68147
X-27.7997 Z21.63757
X-27.78246 Z21.56384
X-27.16779 Z18.61454
X-26.53279
X-26.45003 Y-64.80596 Z18.6129
X-26.3538 Y-64.83862 Z18.612
X-26.25224 Y-64.84219 Z18.6119
X-26.15395 Y-64.8164 Z18.61261
X-26.06725 Y-64.76341 Z18.61408
X-25.99948 Y-64.68771 Z18.61618
X-25.95638 Y-64.59571 Z18.61873
X-25.94159 Y-64.49521 Z18.62152
X-25.96954 Y-64.35836 Z18.62532
X-26.04891 Y-64.24342 Z18.6285
X-26.68391
X-26.73352 Z18.98499
X-26.75833 Z19.15902
X-26.80794 Z19.49459
X-26.85755 Z19.81463
X-26.90716 Z20.12027
X-26.95677 Z20.4125
X-27.00638 Z20.69221
X-27.05598 Z20.96014
X-27.10559 Z21.21698
X-27.1304 Z21.34142
X-27.1552 Z21.46266
X-27.16761 Z21.51639
X-27.18621 Z21.58734
X-27.75052 Z23.61029
X-27.76292 Z23.65147
X-27.80013 Z23.76516
X-28.32102 Z25.33717
X-28.37063 Z25.4815
X-28.42024 Z25.62006
X-28.46985 Z25.75309
X-28.49466 Z25.81492
X-28.51946 Z25.87137
X-28.56907 Z25.97641
X-28.61868 Z26.07722
X-28.66829 Z26.17398
X-28.7179 Z26.26683
X-28.76751 Z26.3559
X-28.82952 Z26.46216
X-29.7597 Z28.02652
X-29.80931 Z28.10547
X-29.85891 Z28.17926
X-30.13177 Z28.57726
X-30.15657 Z28.61238
X-30.20618 Z28.68037
X-30.25579 Z28.74542
X-30.3054 Z28.80762
X-30.35501 Z28.86703
X-30.40462 Z28.92371
X-30.45423 Z28.97771
X-30.50384 Z29.0291
X-30.55345 Z29.07791
X-30.60306 Z29.1242
X-30.66507 Z29.17857
X-32.09134 Z30.37463
X-32.14095 Z30.41364
X-32.19056 Z30.44933
X-32.24016 Z30.48193
X-32.28977 Z30.51168
X-32.33938 Z30.53879
X-32.38899 Z30.56342
X-32.4386 Z30.58582
X-32.48821 Z30.60625
X-32.53782 Z30.62474
X-32.58743 Z30.6413
X-32.63704 Z30.65594
X-32.68665 Z30.66871
X-33.87727 Z30.95995
X-34.12532 Z31.0261
X-34.17493 Z31.03759
X-34.22454 Z31.04717
X-34.27415 Z31.05484
X-34.32376 Z31.0606
X-34.37337 Z31.06448
X-34.42298 Z31.06645
X-34.47259 Z31.06654
X-34.5222 Z31.06473
X-34.5718 Z31.06103
X-34.62141 Z31.05543
X-34.67102 Z31.04793
X-34.71443 Z31.03981
X-35.28494 Z31.03968
X-35.31595 Z31.04565
X-35.36556 Z31.05365
X-35.41516 Z31.05974
X-35.46477 Z31.06394
X-35.51438 Z31.06625
X-35.56399 Z31.06666
X-35.6136 Z31.06518
X-35.66321 Z31.06181
X-35.71282 Z31.05654
X-35.76243 Z31.04937
X-35.81204 Z31.0403
X-35.87405 Z31.02627
X-37.25071 Z30.6853
X-37.34993 Z30.65947
X-37.39954 Z30.64533
X-37.44915 Z30.62928
X-37.49876 Z30.6113
X-37.54837 Z30.59138
X-37.59798 Z30.5695
X-37.64759 Z30.5455
X-37.6972 Z30.51905
X-37.74681 Z30.49001
X-37.79641 Z30.45819
X-37.84602 Z30.42334
X-37.89563 Z30.38519
X-37.94524 Z30.34422
X-39.33431 Z29.1791
X-39.38391 Z29.13594
X-39.43352 Z29.09031
X-39.48313 Z29.04217
X-39.53274 Z28.99146
X-39.58235 Z28.93816
X-39.63196 Z28.88218
X-39.68157 Z28.8235
X-39.73118 Z28.76204
X-39.78079 Z28.69774
X-39.8304 Z28.63053
X-39.89241 Z28.5423
X-40.17766 Z28.12529
X-40.22727 Z28.04784
X-40.27688 Z27.96518
X-41.19466 Z26.42136
X-41.21946 Z26.37868
X-41.26907 Z26.29059
X-41.31868 Z26.19874
X-41.36829 Z26.10302
X-41.4179 Z26.00329
X-41.46751 Z25.89941
X-41.49231 Z25.84517
X-41.51712 Z25.78632
X-41.54192 Z25.722
X-41.56673 Z25.65552
X-41.61634 Z25.51844
X-41.66595 Z25.37566
X-41.76516 Z25.07755
X-42.22405 Z23.69217
X-42.23645 Z23.65349
X-42.25816 Z23.57981
X-42.82312 Z21.55288
X-42.83461 Z21.50724
X-42.8461 Z21.4566
X-42.88056 Z21.28674
X-42.92651 Z21.05199
X-42.97246 Z20.80791
X-43.01841 Z20.55398
X-43.06436 Z20.28964
X-43.11031 Z20.01424
X-43.15626 Z19.72706
X-43.20221 Z19.42727
X-43.24816 Z19.11393
X-43.29411 Z18.78664
X-43.92911
X-44.01091 Y-64.28984 Z18.80165
X-44.10303 Y-64.31285 Z18.80909
X-44.19825 Y-64.31063 Z18.80837
X-44.28908 Y-64.28337 Z18.79955
X-44.3684 Y-64.23319 Z18.78333
X-44.42997 Y-64.16404 Z18.76097
X-44.46896 Y-64.08136 Z18.73424
X-44.4823 Y-63.99162 Z18.70522
X-44.44903 Y-63.85206 Z18.66009
X-44.35572 Y-63.73983 Z18.62381
X-43.72072
X-43.34244 Z21.34803
X-43.33624 Z21.3903
X-43.32307 Z21.46785
X-43.27423 Z21.73064
X-43.24943 Z21.86161
X-43.19982 Z22.11411
X-43.15021 Z22.35486
X-43.1006 Z22.58473
X-43.05099 Z22.80448
X-43.00138 Z23.01479
X-42.95177 Z23.21621
X-42.88976 Z23.45628
X-42.87735 Z23.50091
X-42.86495 Z23.54219
X-42.82775 Z23.65651
X-42.18282 Z25.60385
X-42.15802 Z25.67486
X-42.13322 Z25.74029
X-41.68673 Z26.89347
X-41.63712 Z27.01782
X-41.58751 Z27.13719
X-41.5379 Z27.2518
X-41.48829 Z27.36185
X-41.43868 Z27.46751
X-41.38907 Z27.56896
X-41.33946 Z27.66635
X-41.28985 Z27.7598
X-41.24025 Z27.84926
X-41.21544 Z27.89097
X-41.19064 Z27.93028
X-41.14103 Z28.0039
X-39.87599 Z29.85056
X-39.85118 Z29.88592
X-39.80157 Z29.95437
X-39.75196 Z30.01989
X-39.70235 Z30.08253
X-39.65275 Z30.14237
X-39.60314 Z30.19931
X-39.55353 Z30.25179
X-39.50392 Z30.2999
X-39.45431 Z30.34414
X-39.4047 Z30.38526
X-39.35509 Z30.42417
X-37.91642 Z31.4861
X-37.86681 Z31.52101
X-37.8172 Z31.55383
X-37.76759 Z31.58458
X-37.71798 Z31.61328
X-37.66837 Z31.63996
X-37.61876 Z31.66464
X-37.56915 Z31.68734
X-37.51954 Z31.70808
X-37.46993 Z31.72687
X-37.42032 Z31.74373
X-37.37071 Z31.75867
X-37.3211 Z31.77171
X-36.35372 Z32.00827
X-36.08087 Z32.09188
X-35.98165 Z32.12009
X-35.89484 Z32.14257
X-35.83282 Z32.15738
X-35.78321 Z32.16725
X-35.7336 Z32.17522
X-35.684 Z32.18128
X-35.63439 Z32.18543
X-35.58478 Z32.18769
X-35.53517 Z32.18806
X-35.48556 Z32.18656
X-35.43595 Z32.18317
X-35.38634 Z32.17788
X-35.33673 Z32.17068
X-35.28712 Z32.16158
X-35.23751 Z32.15056
X-35.1879 Z32.13762
X-35.13209 Z32.12108
X-34.87784
X-34.86544 Z32.12155
X-34.84064 Z32.1293
X-34.79103 Z32.14335
X-34.74142 Z32.15547
X-34.69181 Z32.16568
X-34.6422 Z32.17397
X-34.59259 Z32.18036
X-34.54298 Z32.18484
X-34.49337 Z32.18743
X-34.44376 Z32.18813
X-34.39415 Z32.18696
X-34.34454 Z32.1839
X-34.29493 Z32.17894
X-34.24532 Z32.17207
X-34.19571 Z32.16329
X-34.1461 Z32.1526
X-34.0965 Z32.14002
X-33.14152 Z31.88477
X-32.65782 Z31.7664
X-32.60822 Z31.75256
X-32.5586 Z31.73681
X-32.509 Z31.71913
X-32.45939 Z31.69951
X-32.40978 Z31.67794
X-32.36017 Z31.6544
X-32.31056 Z31.62887
X-32.26095 Z31.60134
X-32.21134 Z31.57177
X-32.16173 Z31.54015
X-32.11212 Z31.50644
X-32.06251 Z31.47064
X-30.67345 Z30.44557
X-30.62384 Z30.40791
X-30.57423 Z30.36807
X-30.52462 Z30.32579
X-30.47501 Z30.27996
X-30.4254 Z30.23006
X-30.37579 Z30.17554
X-30.32618 Z30.11728
X-30.27657 Z30.05626
X-30.22697 Z29.99241
X-30.17735 Z29.92566
X-30.11534 Z29.83802
X-28.8379 Z27.97309
X-28.8131 Z27.936
X-28.78829 Z27.89704
X-28.76349 Z27.8557
X-28.73868 Z27.81183
X-28.68907 Z27.72058
X-28.63947 Z27.62547
X-28.58985 Z27.52638
X-28.54025 Z27.42316
X-28.49064 Z27.31565
X-28.44103 Z27.20369
X-28.39142 Z27.08708
X-28.34181 Z26.96563
X-28.2922 Z26.83919
X-27.84571 Z25.68501
X-27.82092 Z25.61501
X-27.13912 Z23.55512
X-27.12672 Z23.51482
X-27.11433 Z23.47139
X-27.07714 Z23.32968
X-27.02755 Z23.13329
X-26.97797 Z22.92833
X-26.92838 Z22.71428
X-26.8788 Z22.49051
X-26.82921 Z22.25634
X-26.77962 Z22.01095
X-26.73004 Z21.75342
X-26.67426 Z21.45314
X-26.66186 Z21.37785
X-26.25898 Z18.47925
X-25.62398
X-25.5438 Y-63.77678 Z18.46354
X-25.45579 Y-63.79259 Z18.45682
X-25.3664 Y-63.78613 Z18.45957
X-25.28216 Y-63.75785 Z18.47159
X-25.20925 Y-63.70983 Z18.492
X-25.15298 Y-63.64558 Z18.51932
X-25.11748 Y-63.5698 Z18.55153
X-25.10536 Y-63.48804 Z18.58629
X-25.14365 Y-63.34569 Z18.64681
X-25.2497 Y-63.23624 Z18.69334
X-25.8847
X-26.24436 Z21.27877
X-26.25677 Z21.35252
X-26.62884 Z23.35526
X-26.64434 Z23.4297
X-26.72806 Z23.80915
X-26.77767 Z24.0266
X-26.82727 Z24.23378
X-26.87688 Z24.43148
X-26.92649 Z24.62037
X-26.9761 Z24.80106
X-27.02571 Z24.97406
X-27.07532 Z25.13982
X-27.12493 Z25.29875
X-27.17454 Z25.45121
X-27.19934 Z25.5221
X-27.22415 Z25.58745
X-28.0303 Z27.67021
X-28.0427 Z27.70119
X-28.06751 Z27.76023
X-28.31556 Z28.31667
X-28.36517 Z28.42449
X-28.41477 Z28.52799
X-28.46438 Z28.62737
X-28.51399 Z28.72279
X-28.5636 Z28.81442
X-28.61321 Z28.90238
X-28.66282 Z28.98683
X-28.71243 Z29.06786
X-28.76204 Z29.14559
X-28.82405 Z29.23828
X-29.33255 Z29.98052
X-29.35735 Z30.01594
X-29.40696 Z30.08393
X-29.45657 Z30.14862
X-30.1263 Z31.00837
X-30.1511 Z31.03944
X-30.20071 Z31.09958
X-30.25032 Z31.15714
X-30.29993 Z31.21218
X-30.34954 Z31.26475
X-30.39915 Z31.31491
X-30.44876 Z31.36271
X-30.49837 Z31.4082
X-30.54798 Z31.45143
X-30.59759 Z31.49242
X-30.6472 Z31.53123
X-31.88743 Z32.44641
X-31.93704 Z32.48241
X-32.03626 Z32.55208
X-32.08587 Z32.58574
X-32.13548 Z32.61727
X-32.18509 Z32.64648
X-32.2347 Z32.67381
X-32.28431 Z32.69931
X-32.33391 Z32.72301
X-32.38352 Z32.74493
X-32.43313 Z32.76509
X-32.48274 Z32.78349
X-32.53235 Z32.80017
X-32.58196 Z32.81512
X-32.63157 Z32.82836
X-32.68118 Z32.8399
X-33.98653 Z33.12398
X-34.02063 Z33.13505
X-34.07024 Z33.14962
X-34.11985 Z33.16238
X-34.16946 Z33.17334
X-34.21907 Z33.1825
X-34.26868 Z33.18988
X-34.31829 Z33.19548
X-34.3679 Z33.1993
X-34.41751 Z33.20134
X-34.61595 Z33.20171
X-35.55852 Z33.2017
X-35.60813 Z33.20051
X-35.65774 Z33.19754
X-35.70735 Z33.1928
X-35.75696 Z33.18629
X-35.80657 Z33.17799
X-35.85618 Z33.1679
X-35.90579 Z33.15601
X-35.9554 Z33.14232
X-36.01741 Z33.12311
X-37.34446 Z32.83414
X-37.39407 Z32.82172
X-37.44368 Z32.8076
X-37.49329 Z32.79176
X-37.5429 Z32.77419
X-37.59251 Z32.75489
X-37.64212 Z32.73382
X-37.69173 Z32.71098
X-37.74134 Z32.68635
X-37.79095 Z32.65991
X-37.84056 Z32.63164
X-37.89017 Z32.60128
X-37.98938 Z32.53435
X-38.0886 Z32.4639
X-39.32884 Z31.54921
X-39.37845 Z31.51144
X-39.42806 Z31.47151
X-39.47767 Z31.42937
X-39.52727 Z31.38498
X-39.57688 Z31.3383
X-39.62649 Z31.28929
X-39.6761 Z31.23789
X-39.72571 Z31.18405
X-39.77532 Z31.12772
X-39.82493 Z31.06883
X-39.89004 Z30.98754
X-40.56907 Z30.11555
X-40.61868 Z30.04924
X-40.68069 Z29.96123
X-41.18919 Z29.21889
X-41.21399 Z29.18199
X-41.2636 Z29.10581
X-41.31321 Z29.02639
X-41.36282 Z28.94361
X-41.41243 Z28.85736
X-41.46204 Z28.76752
X-41.51165 Z28.67395
X-41.56126 Z28.5765
X-41.61087 Z28.47502
X-41.66048 Z28.36931
X-41.71009 Z28.25935
X-41.92406 Z27.77949
X-41.94233 Z27.73725
X-41.96972 Z27.67015
X-42.78471 Z25.56456
X-42.80069 Z25.52202
X-42.82809 Z25.44332
X-42.85548 Z25.35972
X-42.89201 Z25.24525
X-42.92853 Z25.12721
X-42.96506 Z25.00545
X-43.00158 Z24.8798
X-43.03811 Z24.75011
X-43.07464 Z24.61617
X-43.11116 Z24.47778
X-43.14769 Z24.3347
X-43.18422 Z24.18668
X-43.22074 Z24.03342
X-43.25727 Z23.87462
X-43.35772 Z23.42038
X-43.3737 Z23.34206
X-43.74581 Z21.3382
X-43.75494 Z21.28328
X-43.76864 Z21.18722
X-44.09737 Z18.82171
X-44.73237
X-44.89914 Y-63.27519 Z18.79982
X-45.06591 Y-63.23624 Z18.82172
X-45.18799 Y-63.12982 Z18.88154
X-45.23267 Y-62.98445 Z18.96326
X-45.18799 Y-62.83908 Z19.04499
X-45.0659 Y-62.73265 Z19.10482
X-44.4309
X-44.3937 Z19.44414
X-44.35649 Z19.76804
X-44.33168 Z19.97609
X-44.30688 Z20.17827
X-44.28207 Z20.37489
X-44.25727 Z20.56624
X-44.23247 Z20.75258
X-44.17665 Z21.15643
X-44.16425 Z21.23235
X-43.79218 Z23.23491
X-43.77358 Z23.32234
X-43.3333 Z25.31882
X-43.31159 Z25.40804
X-43.26508 Z25.58808
X-43.21547 Z25.77303
X-43.16586 Z25.94927
X-43.11625 Z26.11748
X-43.06665 Z26.27823
X-43.01704 Z26.43202
X-42.96743 Z26.57928
X-42.94262 Z26.65059
X-42.89301 Z26.78876
X-42.8279 Z26.96158
X-42.62016 Z27.49804
X-42.59536 Z27.55848
X-42.54575 Z27.67103
X-41.68999 Z29.58974
X-41.65278 Z29.67139
X-41.60317 Z29.7764
X-41.57836 Z29.82582
X-41.55356 Z29.87227
X-41.52875 Z29.91613
X-41.50395 Z29.95832
X-41.45434 Z30.04017
X-41.40473 Z30.11876
X-41.35512 Z30.19421
X-41.30551 Z30.26661
X-41.2559 Z30.33609
X-41.20629 Z30.40271
X-40.46215 Z31.35884
X-39.86684 Z32.12236
X-39.81723 Z32.18346
X-39.76762 Z32.24135
X-39.71801 Z32.29477
X-39.6684 Z32.34419
X-39.61879 Z32.39006
X-39.56918 Z32.43343
X-39.51957 Z32.47471
X-39.46997 Z32.51396
X-39.42036 Z32.55122
X-39.37075 Z32.58651
X-39.32114 Z32.61987
X-37.90727 Z33.54882
X-37.88247 Z33.56444
X-37.83286 Z33.59429
X-37.78325 Z33.62228
X-37.73364 Z33.64843
X-37.68403 Z33.67279
X-37.63442 Z33.69535
X-37.58481 Z33.71614
X-37.5352 Z33.73518
X-37.48559 Z33.75247
X-37.43598 Z33.76805
X-37.38637 Z33.7819
X-37.32436 Z33.79683
X-35.84848 Z34.11778
X-35.79887 Z34.12701
X-35.74926 Z34.13455
X-35.69965 Z34.14042
X-35.65004 Z34.14462
X-35.60043 Z34.14715
X-35.55082 Z34.14801
X-35.50122 Z34.1472
X-35.45161 Z34.14473
X-35.402 Z34.14059
X-35.35239 Z34.13478
X-35.33999 Z34.13381
X-34.73227 Z34.13405
X-34.67026 Z34.13555
X-34.64545 Z34.13557
X-34.60825 Z34.13953
X-34.55864 Z34.14401
X-34.50903 Z34.14683
X-34.45942 Z34.14798
X-34.40981 Z34.14746
X-34.3602 Z34.14528
X-34.31059 Z34.14143
X-34.26098 Z34.1359
X-34.21137 Z34.12871
X-34.16176 Z34.11983
X-34.11215 Z34.10938
X-32.67348 Z33.79636
X-32.62387 Z33.78456
X-32.57426 Z33.77105
X-32.52465 Z33.75583
X-32.47504 Z33.73889
X-32.42543 Z33.72022
X-32.37582 Z33.69979
X-32.32621 Z33.67759
X-32.27661 Z33.65361
X-32.227 Z33.62783
X-32.17739 Z33.60022
X-32.12778 Z33.57076
X-32.06577 Z33.53131
X-30.6643 Z32.61027
X-30.6395 Z32.59355
X-30.58989 Z32.55866
X-30.54028 Z32.52182
X-30.49067 Z32.48298
X-30.44106 Z32.44212
X-30.39145 Z32.39919
X-30.34184 Z32.35394
X-30.29223 Z32.30529
X-30.24262 Z32.25273
X-30.19301 Z32.19574
X-30.1434 Z32.13519
X-30.04418 Z32.00841
X-28.80395 Z30.41612
X-28.75434 Z30.35008
X-28.70473 Z30.2812
X-28.65512 Z30.20941
X-28.60551 Z30.1346
X-28.5559 Z30.05667
X-28.50901 Z29.98003
X-28.46211 Z29.90026
X-28.43866 Z29.858
X-28.41521 Z29.81333
X-28.39176 Z29.7659
X-28.36831 Z29.71658
X-28.30969 Z29.58903
X-27.41864 Z27.59095
X-27.40691 Z27.56382
X-27.38347 Z27.50712
X-27.14898 Z26.90127
X-27.10208 Z26.77533
X-27.05518 Z26.64432
X-27.00829 Z26.50796
X-26.96139 Z26.36595
X-26.91449 Z26.21794
X-26.86759 Z26.06354
X-26.82069 Z25.90232
X-26.7738 Z25.73377
X-26.7269 Z25.55731
X-26.68 Z25.37486
X-26.66242 Z25.29959
X-26.21689 Z23.27888
X-26.20223 Z23.20589
X-25.83585 Z21.23291
X-25.82412 Z21.16162
X-25.78895 Z20.90961
X-25.74205 Z20.56107
X-25.69515 Z20.19459
X-25.67171 Z20.00406
X-25.64826 Z19.80831
X-25.61308 Z19.50426
X-25.57791 Z19.18666
X-25.55446 Z18.96676
X-24.91946
X-24.76471 Y-62.76531 Z18.9816
X-24.61232 Y-62.72449 Z18.96306
X-24.50164 Y-62.62074 Z18.91592
X-24.46128 Y-62.48086 Z18.85238
X-24.50624 Y-62.33381 Z18.78558
X-24.6282 Y-62.22907 Z18.73799
X-25.2632
X-25.46164 Z20.92689
X-25.47714 Z21.08993
X-25.49885 Z21.26269
X-25.53605 Z21.5418
X-25.56086 Z21.71996
X-25.58566 Z21.89232
X-25.61047 Z22.05927
X-25.63527 Z22.22114
X-25.66008 Z22.37826
X-25.68488 Z22.5309
X-25.70969 Z22.6793
X-25.73449 Z22.82369
X-25.7717 Z23.0332
X-25.7841 Z23.10046
X-25.7965 Z23.1605
X-26.24299 Z25.18488
X-26.26159 Z25.25995
X-26.72668 Z27.06514
X-26.77629 Z27.2516
X-26.80109 Z27.34055
X-26.8135 Z27.38152
X-26.8507 Z27.49462
X-26.90031 Z27.63854
X-26.94992 Z27.77613
X-26.99953 Z27.90781
X-27.04914 Z28.03392
X-27.09875 Z28.15481
X-27.14836 Z28.27074
X-27.73127 Z29.57833
X-27.76848 Z29.65734
X-27.84289 Z29.80496
X-28.31418 Z30.73415
X-28.33898 Z30.78215
X-28.38859 Z30.87525
X-28.4382 Z30.96462
X-28.48781 Z31.05044
X-28.53742 Z31.13285
X-28.58703 Z31.21197
X-28.63664 Z31.28793
X-28.68625 Z31.36084
X-28.73586 Z31.43079
X-28.78547 Z31.49787
X-28.83508 Z31.56228
X-29.15754 Z31.97609
X-29.18234 Z32.00717
X-29.23195 Z32.06746
X-29.30637 Z32.15386
X-30.12492 Z33.08956
X-30.17453 Z33.14441
X-30.22414 Z33.19693
X-30.27375 Z33.24716
X-30.32336 Z33.29517
X-30.37297 Z33.34101
X-30.42258 Z33.38472
X-30.47219 Z33.42634
X-30.5218 Z33.46593
X-30.57141 Z33.50351
X-30.62102 Z33.53913
X-30.69543 Z33.5891
X-32.08449 Z34.50167
X-32.1093 Z34.51745
X-32.15891 Z34.5476
X-32.20852 Z34.57561
X-32.25813 Z34.60142
X-32.30773 Z34.62516
X-32.35734 Z34.64693
X-32.40695 Z34.66679
X-32.45656 Z34.68484
X-32.50617 Z34.70112
X-32.55578 Z34.7157
X-32.60539 Z34.72862
X-32.70461 Z34.74984
X-33.91694 Z34.98569
X-34.01926 Z35.0147
X-34.04406 Z35.02132
X-34.09367 Z35.03338
X-34.14328 Z35.04384
X-34.19289 Z35.05273
X-34.2425 Z35.06004
X-34.29211 Z35.06579
X-34.34172 Z35.06997
X-34.39133 Z35.07259
X-34.44094 Z35.07365
X-34.49055 Z35.07316
X-34.54016 Z35.07111
X-34.58977 Z35.0675
X-34.63938 Z35.06232
X-34.66418 Z35.05915
X-34.67658 Z35.05827
X-35.23469 Z35.05844
X-35.33391 Z35.05961
X-35.34631 Z35.06054
X-35.38352 Z35.0649
X-35.43312 Z35.06936
X-35.48273 Z35.07225
X-35.53234 Z35.07358
X-35.58195 Z35.07335
X-35.63156 Z35.07157
X-35.68117 Z35.06823
X-35.73078 Z35.06333
X-35.78039 Z35.05686
X-35.83 Z35.04882
X-35.87961 Z35.03924
X-37.16945 Z34.7767
X-37.36789 Z34.7349
X-37.4175 Z34.72286
X-37.46711 Z34.70918
X-37.51672 Z34.69382
X-37.56633 Z34.67673
X-37.61594 Z34.65785
X-37.66555 Z34.63712
X-37.71516 Z34.61446
X-37.76477 Z34.58977
X-37.81437 Z34.56296
X-37.86398 Z34.53392
X-37.9322 Z34.49079
X-39.35227 Z33.55751
X-39.40187 Z33.52294
X-39.45148 Z33.48642
X-39.50109 Z33.44792
X-39.5507 Z33.4074
X-39.60031 Z33.36481
X-39.64992 Z33.32013
X-39.69953 Z33.27329
X-39.74914 Z33.22427
X-39.79875 Z33.17299
X-39.84836 Z33.1194
X-39.89797 Z33.0635
X-40.74133 Z32.09898
X-40.79094 Z32.03995
X-40.85605 Z31.95878
X-41.18781 Z31.53285
X-41.23742 Z31.46727
X-41.28703 Z31.39887
X-41.33664 Z31.32757
X-41.38625 Z31.25327
X-41.43586 Z31.17586
X-41.48547 Z31.09524
X-41.53508 Z31.01128
X-41.58469 Z30.92384
X-41.6343 Z30.83276
X-41.69631 Z30.71356
X-42.21721 Z29.68634
X-42.25441 Z29.6094
X-42.27922 Z29.55499
X-42.84973 Z28.27512
X-42.87453 Z28.21785
X-42.92414 Z28.09967
X-42.97375 Z27.97641
X-43.02336 Z27.84777
X-43.07297 Z27.71341
X-43.12258 Z27.57296
X-43.17219 Z27.42596
X-43.18459 Z27.38763
X-43.19699 Z27.34705
X-43.2218 Z27.25862
X-43.27141 Z27.07252
X-43.7427 Z25.24331
X-43.7613 Z25.16632
X-44.20778 Z23.14056
X-44.22019 Z23.07779
X-44.26359 Z22.83467
X-44.2884 Z22.69058
X-44.3132 Z22.54249
X-44.33895 Z22.38429
X-44.36471 Z22.22127
X-44.39046 Z22.05312
X-44.42909 Z21.79051
X-44.46771 Z21.51421
X-44.50634 Z21.22256
X-44.52244 Z21.09373
X-44.53209 Z20.99493
X-44.72523 Z18.86394
X-45.36023
X-45.50044 Y-62.26012 Z18.86136
X-45.63797 Y-62.21883 Z18.86479
X-45.73764 Y-62.11576 Z18.87334
X-45.77396 Y-61.97727 Z18.88484
X-45.73233 Y-61.82976 Z18.89708
X-45.61966 Y-61.72548 Z18.90574
X-44.98466
X-44.79862 Z20.95791
X-44.78932 Z21.04114
X-44.55678 Z22.96274
X-44.54438 Z23.0532
X-44.51337 Z23.26334
X-44.48857 Z23.42443
X-44.46376 Z23.57983
X-44.43896 Z23.72996
X-44.41415 Z23.8752
X-44.38935 Z24.01589
X-44.36454 Z24.1523
X-44.33974 Z24.28471
X-44.31493 Z24.41334
X-44.29013 Z24.5384
X-44.26532 Z24.66008
X-44.24052 Z24.77856
X-44.19091 Z25.00671
X-44.17076 Z25.09042
X-43.64521 Z27.13127
X-43.6328 Z27.17748
X-43.608 Z27.26299
X-43.27314 Z28.3912
X-43.22353 Z28.55316
X-43.17392 Z28.70746
X-43.12431 Z28.8547
X-43.0747 Z28.99538
X-43.04989 Z29.0634
X-43.00028 Z29.19505
X-42.95067 Z29.32115
X-42.92587 Z29.38175
X-42.90107 Z29.43825
X-42.87626 Z29.49095
X-42.82665 Z29.59088
X-41.73524 Z31.7427
X-41.71044 Z31.78991
X-41.68564 Z31.83542
X-41.66083 Z31.87877
X-41.61122 Z31.96172
X-41.56161 Z32.04135
X-41.512 Z32.11781
X-41.46239 Z32.19123
X-41.41278 Z32.26172
X-41.36318 Z32.32939
X-41.31357 Z32.39435
X-41.26396 Z32.45667
X-41.21435 Z32.51644
X-41.11513 Z32.63056
X-39.87489 Z34.04812
X-39.82528 Z34.10297
X-39.77568 Z34.15547
X-39.72607 Z34.20569
X-39.67646 Z34.2537
X-39.62685 Z34.29918
X-39.57724 Z34.34154
X-39.52763 Z34.381
X-39.47802 Z34.4178
X-39.42841 Z34.45213
X-39.3788 Z34.48415
X-39.30439 Z34.5288
X-37.91532 Z35.34403
X-37.89052 Z35.35813
X-37.84091 Z35.38507
X-37.7913 Z35.41035
X-37.74169 Z35.434
X-37.69208 Z35.45602
X-37.64247 Z35.47645
X-37.59286 Z35.49528
X-37.54325 Z35.51255
X-37.49364 Z35.52826
X-37.44403 Z35.54243
X-37.39443 Z35.55506
X-37.34482 Z35.56617
X-36.65028 Z35.70159
X-36.06427 Z35.83138
X-36.00536 Z35.84867
X-35.95575 Z35.86157
X-35.90614 Z35.87296
X-35.85653 Z35.88285
X-35.75732 Z35.89816
X-35.6581 Z35.90753
X-35.55888 Z35.91101
X-35.45966 Z35.90859
X-35.41005 Z35.90517
X-35.37904 Z35.90231
X-34.88915
X-34.86435 Z35.9029
X-34.76513 Z35.90959
X-34.69691 Z35.91103
X-34.41786 Z35.91072
X-34.36825 Z35.90903
X-34.26903 Z35.90122
X-34.16982 Z35.8875
X-34.0706 Z35.86781
X-34.02099 Z35.85571
X-33.98378 Z35.84564
X-33.67372 Z35.7862
X-33.5745 Z35.76435
X-33.50009 Z35.74488
X-33.33886 Z35.69923
X-32.65673 Z35.5665
X-32.63193 Z35.56116
X-32.58232 Z35.54933
X-32.53271 Z35.53598
X-32.4831 Z35.52109
X-32.43349 Z35.50465
X-32.38388 Z35.48665
X-32.33427 Z35.46707
X-32.28466 Z35.4459
X-32.23505 Z35.42312
X-32.18544 Z35.39871
X-32.13583 Z35.37265
X-32.06762 Z35.33409
X-30.64755 Z34.50034
X-30.59794 Z34.46941
X-30.54833 Z34.43633
X-30.49872 Z34.40086
X-30.44911 Z34.36284
X-30.3995 Z34.32205
X-30.34989 Z34.27825
X-30.30028 Z34.23146
X-30.25068 Z34.18242
X-30.20107 Z34.13114
X-30.15146 Z34.07754
X-30.10185 Z34.02162
X-28.812 Z32.54718
X-28.76239 Z32.48873
X-28.71278 Z32.42777
X-28.66318 Z32.36422
X-28.61357 Z32.29801
X-28.56396 Z32.22902
X-28.51435 Z32.15717
X-28.46474 Z32.08234
X-28.41513 Z32.00441
X-28.36552 Z31.92325
X-28.31591 Z31.83818
X-28.29111 Z31.79279
X-28.2539 Z31.72148
X-27.17489 Z29.59392
X-27.12528 Z29.49412
X-27.10048 Z29.44163
X-27.07568 Z29.38538
X-27.05087 Z29.32498
X-27.02607 Z29.26269
X-26.97646 Z29.13403
X-26.92685 Z28.99965
X-26.87724 Z28.85917
X-26.82763 Z28.71214
X-26.77802 Z28.55807
X-26.72841 Z28.39636
X-26.38114 Z27.22633
X-26.36874 Z27.18304
X-26.34394 Z27.08913
X-25.82606 Z25.07787
X-25.80615 Z24.9935
X-25.7609 Z24.78523
X-25.73194 Z24.64681
X-25.70298 Z24.50399
X-25.67402 Z24.3565
X-25.64506 Z24.20402
X-25.6161 Z24.0462
X-25.57266 Z23.79857
X-25.52922 Z23.53641
X-25.50026 Z23.3526
X-25.4713 Z23.16073
X-25.44596 Z22.98426
X-25.20704 Z21.01079
X-25.1998 Z20.94138
X-25.00794 Z18.82651
X-24.37294
X-24.20736 Y-61.73569 Z18.81742
X-24.05368 Y-61.68853 Z18.85942
X-23.94557 Y-61.59432 Z18.94333
X-23.90669 Y-61.47369 Z19.05076
X-23.92395 Y-61.39203 Z19.12348
X-23.97404 Y-61.31832 Z19.18914
X-24.0521 Y-61.25971 Z19.24134
X-24.15053 Y-61.22189 Z19.27501
X-24.78553
X-24.92816 Z20.84654
X-24.93746 Z20.93025
X-25.17 Z22.851
X-25.46146 Z24.88176
X-25.48006 Z24.99169
X-25.50487 Z25.13105
X-25.52967 Z25.26542
X-25.55448 Z25.39519
X-25.57928 Z25.52069
X-25.60409 Z25.64221
X-25.62889 Z25.76002
X-25.6537 Z25.87433
X-25.6785 Z25.98536
X-25.70331 Z26.09328
X-25.72811 Z26.19827
X-25.75292 Z26.30047
X-25.79632 Z26.47302
X-25.92655 Z26.97794
X-25.94825 Z27.05449
X-26.57147 Z29.1548
X-26.59627 Z29.23417
X-26.7451 Z29.67478
X-26.79471 Z29.81479
X-26.84432 Z29.94826
X-26.86913 Z30.0127
X-26.91874 Z30.13725
X-26.96834 Z30.25638
X-27.01795 Z30.37042
X-27.06756 Z30.47968
X-27.11717 Z30.58443
X-27.17918 Z30.70941
X-27.58846 Z31.51582
X-27.61327 Z31.56244
X-27.65667 Z31.64036
X-28.3078 Z32.78323
X-28.35741 Z32.86835
X-28.40702 Z32.95006
X-28.45663 Z33.02851
X-28.50624 Z33.10384
X-28.55584 Z33.17617
X-28.60545 Z33.24561
X-28.65506 Z33.31227
X-28.70467 Z33.37625
X-28.75428 Z33.43762
X-28.8225 Z33.51791
X-29.25038 Z34.00686
X-29.29999 Z34.06198
X-29.34959 Z34.11545
X-29.42401 Z34.19287
X-30.14334 Z34.92684
X-30.19295 Z34.97507
X-30.24256 Z35.02124
X-30.29217 Z35.06539
X-30.34178 Z35.10757
X-30.39139 Z35.14782
X-30.441 Z35.18619
X-30.49061 Z35.22271
X-30.54022 Z35.25742
X-30.58983 Z35.29035
X-30.63944 Z35.32153
X-30.73866 Z35.38018
X-32.07811 Z36.16624
X-32.12772 Z36.19424
X-32.17733 Z36.22057
X-32.22694 Z36.24525
X-32.27655 Z36.2683
X-32.32616 Z36.28973
X-32.37577 Z36.30957
X-32.42538 Z36.32783
X-32.47499 Z36.34452
X-32.52459 Z36.35967
X-32.5742 Z36.37327
X-32.62381 Z36.38534
X-32.67342 Z36.39589
X-32.77264 Z36.41541
X-32.82225 Z36.42785
X-32.93387 Z36.45165
X-33.91366 Z36.63886
X-33.92606 Z36.64179
X-33.96327 Z36.65319
X-34.01288 Z36.66705
X-34.06249 Z36.67939
X-34.11209 Z36.69023
X-34.21131 Z36.70742
X-34.31053 Z36.71866
X-34.40975 Z36.724
X-34.48416 Z36.72444
X-34.50897 Z36.72408
X-34.60819 Z36.71923
X-34.70741 Z36.70903
X-34.76942 Z36.7
X-34.78182 Z36.69958
X-35.2159
X-35.22831 Z36.70036
X-35.40194 Z36.71792
X-35.50116 Z36.72377
X-35.60038 Z36.72373
X-35.69959 Z36.71779
X-35.79881 Z36.70593
X-35.89803 Z36.68814
X-35.94764 Z36.67699
X-35.99725 Z36.66434
X-36.04686 Z36.65017
X-36.09337 Z36.63554
X-37.3367 Z36.39386
X-37.38631 Z36.383
X-37.43592 Z36.37062
X-37.48553 Z36.3567
X-37.53514 Z36.34124
X-37.58475 Z36.32423
X-37.63436 Z36.30565
X-37.68397 Z36.28549
X-37.73358 Z36.26373
X-37.78319 Z36.24035
X-37.8328 Z36.21534
X-37.88241 Z36.18866
X-37.93202 Z36.16032
X-39.34588 Z35.33043
X-39.37069 Z35.31531
X-39.4203 Z35.28377
X-39.46991 Z35.25048
X-39.51952 Z35.21541
X-39.56913 Z35.17851
X-39.61874 Z35.13976
X-39.66834 Z35.09912
X-39.71795 Z35.05654
X-39.76756 Z35.01199
X-39.81717 Z34.9654
X-39.88539 Z34.89794
X-40.61092 Z34.15692
X-40.66053 Z34.10466
X-40.71014 Z34.05086
X-40.78456 Z33.96707
X-41.20624 Z33.48466
X-41.25584 Z33.4253
X-41.30545 Z33.3634
X-41.35506 Z33.29889
X-41.40467 Z33.23166
X-41.45428 Z33.16164
X-41.50389 Z33.08871
X-41.5535 Z33.01275
X-41.60311 Z32.93365
X-41.65272 Z32.85126
X-41.70233 Z32.76547
X-42.35965 Z31.61156
X-42.39686 Z31.54361
X-42.43407 Z31.472
X-42.84334 Z30.66475
X-42.89295 Z30.56342
X-42.94256 Z30.45777
X-42.99217 Z30.34755
X-43.04178 Z30.2325
X-43.09139 Z30.11229
X-43.141 Z29.98658
X-43.19061 Z29.85495
X-43.24022 Z29.71693
X-43.28983 Z29.57219
X-43.40145 Z29.24113
X-43.42625 Z29.16239
X-44.05561 Z27.04141
X-44.07171 Z26.98438
X-44.222 Z26.40113
X-44.26494 Z26.22717
X-44.30788 Z26.04497
X-44.35083 Z25.85375
X-44.39377 Z25.65256
X-44.43671 Z25.44027
X-44.45818 Z25.32954
X-44.47965 Z25.21549
X-44.50112 Z25.09789
X-44.53333 Z24.91412
X-44.54674 Z24.82597
X-44.82855 Z22.862
X-45.06741 Z20.889
X-45.07546 Z20.80734
X-45.20965 Z19.32795
X-45.84465
X-46.05397 Y-61.21705 Z19.33574
X-46.23981 Y-61.16594 Z19.41791
X-46.36735 Y-61.07814 Z19.55907
X-46.41269 Y-60.9701 Z19.73277
X-46.38349 Y-60.88264 Z19.87338
X-46.29941 Y-60.80574 Z19.99702
X-46.17059 Y-60.74867 Z20.08879
X-46.01258 Y-60.71831 Z20.1376
X-45.37758
X-45.35277 Z20.49249
X-45.33417 Z20.74505
X-45.32797 Z20.81224
X-45.30316 Z21.0508
X-45.26595 Z21.38794
X-45.22875 Z21.70371
X-45.10472 Z22.72713
X-44.81947 Z24.7158
X-44.80707 Z24.79285
X-44.53422 Z26.41958
X-44.50941 Z26.562
X-44.4722 Z26.76596
X-44.4598 Z26.82882
X-44.435 Z26.94071
X-44.41019 Z27.04825
X-44.38539 Z27.15244
X-44.36058 Z27.25348
X-44.33578 Z27.35156
X-44.31097 Z27.44686
X-44.28617 Z27.53953
X-44.26137 Z27.62971
X-44.23656 Z27.71752
X-44.18695 Z27.88689
X-43.86449 Z28.97311
X-43.83814 Z29.05479
X-43.26918 Z30.74023
X-43.21957 Z30.88222
X-43.16996 Z31.01752
X-43.14515 Z31.08282
X-43.09554 Z31.20901
X-43.07074 Z31.26961
X-43.04594 Z31.32635
X-43.02113 Z31.37949
X-42.99633 Z31.43036
X-42.94672 Z31.52888
X-42.89711 Z31.62332
X-42.8351 Z31.73596
X-41.70648 Z33.71686
X-41.68168 Z33.75956
X-41.65687 Z33.80036
X-41.63207 Z33.83936
X-41.60726 Z33.87672
X-41.55765 Z33.94776
X-41.50804 Z34.01586
X-41.45844 Z34.08125
X-41.40883 Z34.14404
X-41.35922 Z34.20431
X-41.30961 Z34.26216
X-41.26 Z34.31767
X-41.21039 Z34.3709
X-41.01195 Z34.57401
X-39.87094 Z35.73868
X-39.82133 Z35.78753
X-39.77172 Z35.83429
X-39.72211 Z35.87901
X-39.6725 Z35.92175
X-39.62289 Z35.96255
X-39.57328 Z36.00146
X-39.52367 Z36.03851
X-39.47406 Z36.07374
X-39.42445 Z36.10718
X-39.37484 Z36.13886
X-39.32523 Z36.16881
X-38.87875 Z36.43073
X-38.82914 Z36.45941
X-38.6307 Z36.57071
X-38.40746 Z36.69006
X-37.91136 Z36.94848
X-37.88656 Z36.96095
X-37.83695 Z36.98478
X-37.73773 Z37.02804
X-37.63851 Z37.06554
X-37.53929 Z37.09741
X-37.44008 Z37.12375
X-37.34086 Z37.14463
X-37.15172 Z37.17752
X-37.0432 Z37.20087
X-36.91918 Z37.22424
X-36.28666 Z37.33599
X-36.27425 Z37.33879
X-36.24945 Z37.34909
X-36.19984 Z37.36848
X-36.15023 Z37.38624
X-36.10062 Z37.40244
X-36.05101 Z37.41712
X-35.95179 Z37.44204
X-35.85258 Z37.46131
X-35.75336 Z37.47512
X-35.65414 Z37.48349
X-35.55492 Z37.48646
X-35.4557 Z37.48611
X-34.46351 Z37.48646
X-34.4139 Z37.4861
X-34.36429 Z37.48445
X-34.26508 Z37.47708
X-34.16586 Z37.46429
X-34.06664 Z37.44604
X-33.96742 Z37.42219
X-33.91781 Z37.40807
X-33.8682 Z37.39244
X-33.66976 Z37.31914
X-32.67758 Z37.14792
X-32.57836 Z37.12804
X-32.47914 Z37.10272
X-32.37992 Z37.07188
X-32.2807 Z37.03544
X-32.18148 Z36.99326
X-32.08226 Z36.94522
X-31.58617 Z36.68673
X-31.48695 Z36.63433
X-31.28851 Z36.52603
X-31.09008 Z36.41252
X-30.64359 Z36.15018
X-30.59398 Z36.11915
X-30.54437 Z36.08637
X-30.49476 Z36.05181
X-30.44515 Z36.01544
X-30.39554 Z35.97723
X-30.34594 Z35.93713
X-30.29633 Z35.89512
X-30.24672 Z35.85114
X-30.19711 Z35.80514
X-30.1475 Z35.75708
X-30.09789 Z35.70698
X-28.80804 Z34.39011
X-28.75844 Z34.33771
X-28.70883 Z34.28306
X-28.65922 Z34.22609
X-28.60961 Z34.16672
X-28.56 Z34.10488
X-28.51039 Z34.04047
X-28.46078 Z33.97339
X-28.41117 Z33.90352
X-28.38637 Z33.86728
X-28.36156 Z33.82951
X-28.33676 Z33.79006
X-28.29955 Z33.72739
X-27.17094 Z31.7466
X-27.12133 Z31.65741
X-27.07172 Z31.56443
X-27.02211 Z31.46745
X-26.9725 Z31.36614
X-26.94769 Z31.31214
X-26.92289 Z31.25437
X-26.87328 Z31.13037
X-26.82367 Z31.00049
X-26.77406 Z30.86436
X-26.72445 Z30.72147
X-26.15147 Z29.02341
X-26.12522 Z28.93912
X-25.7857 Z27.79441
X-25.75861 Z27.7006
X-25.73152 Z27.60408
X-25.70442 Z27.50469
X-25.67733 Z27.40227
X-25.65024 Z27.29661
X-25.62314 Z27.18753
X-25.59605 Z27.07477
X-25.55541 Z26.89816
X-25.54186 Z26.83672
X-25.52832 Z26.76873
X-25.48767 Z26.54555
X-25.44703 Z26.3084
X-25.18287 Z24.73121
X-24.895 Z22.72505
X-24.75615 Z21.57786
X-24.72905 Z21.34402
X-24.70196 Z21.09861
X-24.67148 Z20.80677
X-24.66471 Z20.73067
X-24.63423 Z20.30906
X-24.60713 Z19.90774
X-24.59359 Z19.69618
X-23.95859
X-23.83255 Y-60.7269 Z19.69831
X-23.71611 Y-60.6793 Z19.68648
X-23.6344 Y-60.58578 Z19.66323
X-23.60505 Y-60.46651 Z19.63359
X-23.61857 Y-60.38435 Z19.61317
X-23.65777 Y-60.31035 Z19.59478
X-23.71875 Y-60.25187 Z19.58024
X-23.79547 Y-60.21472 Z19.57101
X-24.43047
X-24.48783 Z20.66577
X-24.54829 Z21.53237
X-24.57309 Z21.85968
X-24.5917 Z22.08883
X-24.6165 Z22.37621
X-24.63821 Z22.61034
X-24.66611 Z22.85311
X-24.69092 Z23.0568
X-24.72812 Z23.34437
X-24.76533 Z23.6134
X-24.90176 Z24.5638
X-24.91416 Z24.64061
X-25.24902 Z26.63705
X-25.47226 Z27.79292
X-25.49707 Z27.91544
X-25.52187 Z28.03351
X-25.54668 Z28.14748
X-25.57148 Z28.25765
X-25.59629 Z28.3643
X-25.62109 Z28.46764
X-25.6459 Z28.5679
X-25.6707 Z28.66524
X-25.69551 Z28.75937
X-25.70791 Z28.803
X-25.72031 Z28.84403
X-25.74512 Z28.92283
X-25.76992 Z28.99957
X-25.81953 Z29.14788
X-26.45205 Z31.02192
X-26.46445 Z31.05733
X-26.50166 Z31.15758
X-26.7373 Z31.7785
X-26.76211 Z31.84211
X-26.81172 Z31.96477
X-26.86133 Z32.08176
X-26.91094 Z32.19351
X-26.96055 Z32.30036
X-27.01016 Z32.40264
X-27.05976 Z32.50062
X-27.10937 Z32.59454
X-27.17449 Z32.71202
X-27.60547 Z33.46798
X-27.65508 Z33.55072
X-27.70469 Z33.62954
X-28.3248 Z34.60119
X-28.34961 Z34.63907
X-28.39922 Z34.71255
X-28.44883 Z34.78311
X-28.49844 Z34.85085
X-28.54804 Z34.91589
X-28.59765 Z34.97835
X-28.64726 Z35.0383
X-28.69687 Z35.09584
X-28.74648 Z35.15104
X-28.79609 Z35.20398
X-29.68906 Z36.11571
X-29.78828 Z36.21355
X-29.8875 Z36.30722
X-30.13555 Z36.53234
X-30.18516 Z36.57551
X-30.23476 Z36.61684
X-30.28437 Z36.65636
X-30.33398 Z36.69413
X-30.38359 Z36.73018
X-30.4332 Z36.76455
X-30.48281 Z36.79727
X-30.53242 Z36.82838
X-30.58203 Z36.8579
X-30.63164 Z36.88586
X-30.68125 Z36.91229
X-32.07031 Z37.63599
X-32.16953 Z37.68475
X-32.26875 Z37.72763
X-32.36797 Z37.76476
X-32.46719 Z37.79626
X-32.56641 Z37.82224
X-32.66562 Z37.84278
X-33.19892 Z37.93514
X-33.64541 Z38.02334
X-33.65781 Z38.02894
X-33.75703 Z38.07048
X-33.85625 Z38.10622
X-33.95547 Z38.13626
X-34.05469 Z38.1607
X-34.15391 Z38.17961
X-34.25312 Z38.19306
X-34.35234 Z38.20108
X-34.40195 Z38.20306
X-34.49497 Z38.2037
X-34.55078 Z38.20295
X-34.65 Z38.19797
X-34.74922 Z38.18848
X-34.82363 Z38.17849
X-35.24531 Z38.17837
X-35.29492 Z38.18583
X-35.34453 Z38.19211
X-35.44375 Z38.2006
X-35.54297 Z38.20368
X-35.64219 Z38.20136
X-35.74141 Z38.19364
X-35.84062 Z38.1805
X-35.93984 Z38.16189
X-36.03906 Z38.13775
X-36.13828 Z38.10802
X-36.2375 Z38.07261
X-36.33672 Z38.03139
X-36.35222 Z38.02441
X-36.53516 Z37.98062
X-37.32891 Z37.84375
X-37.42812 Z37.82351
X-37.52734 Z37.79784
X-37.62656 Z37.76664
X-37.72578 Z37.72982
X-37.825 Z37.68727
X-37.92422 Z37.63884
X-39.33808 Z36.90217
X-39.36289 Z36.88885
X-39.4125 Z36.86106
X-39.46211 Z36.83171
X-39.51172 Z36.80078
X-39.56133 Z36.76824
X-39.61094 Z36.73406
X-39.66054 Z36.69819
X-39.71016 Z36.66062
X-39.75976 Z36.62129
X-39.80937 Z36.58016
X-39.85898 Z36.53719
X-40.10703 Z36.31227
X-40.20625 Z36.21882
X-40.30547 Z36.12122
X-41.19844 Z35.20968
X-41.24804 Z35.15699
X-41.29766 Z35.10204
X-41.34726 Z35.04476
X-41.39687 Z34.98508
X-41.44648 Z34.92291
X-41.49609 Z34.85815
X-41.5457 Z34.79071
X-41.59531 Z34.72048
X-41.64492 Z34.64732
X-41.69453 Z34.57112
X-42.31465 Z33.5992
X-42.33945 Z33.55958
X-42.38906 Z33.47732
X-42.48828 Z33.30396
X-42.83555 Z32.69434
X-42.88516 Z32.60467
X-42.93476 Z32.51118
X-42.98437 Z32.41366
X-43.03398 Z32.31187
X-43.08359 Z32.20553
X-43.1332 Z32.09434
X-43.18281 Z31.97795
X-43.23242 Z31.85593
X-43.28203 Z31.72785
X-43.51248 Z31.1203
X-43.52848 Z31.07701
X-43.55649 Z30.99685
X-44.21668 Z29.0402
X-44.24869 Z28.94218
X-44.2807 Z28.84078
X-44.2967 Z28.7871
X-44.31271 Z28.7288
X-44.34472 Z28.60506
X-44.37673 Z28.47658
X-44.40874 Z28.34297
X-44.44074 Z28.2038
X-44.47275 Z28.05853
X-44.50476 Z27.90654
X-44.54477 Z27.70598
X-44.74483 Z26.67006
X-44.76084 Z26.57992
X-45.09293 Z24.59793
X-45.11294 Z24.46192
X-45.24098 Z23.569
X-45.27298 Z23.33609
X-45.30499 Z23.08941
X-45.337 Z22.82679
X-45.36101 Z22.61759
X-45.36901 Z22.53569
X-45.39302 Z22.26816
X-45.41703 Z21.98296
X-45.44103 Z21.67661
X-45.46504 Z21.34439
X-45.51305 Z20.65111
X-45.52906 Z20.34523
X-46.16406
X-46.28521 Y-60.22191 Z20.34529
X-46.39668 Y-60.17394 Z20.3449
X-46.47474 Y-60.08101 Z20.34416
X-46.50275 Y-59.96293 Z20.34321
X-46.48943 Y-59.8803 Z20.34254
X-46.45082 Y-59.80605 Z20.34194
X-46.39083 Y-59.74769 Z20.34147
X-46.31554 Y-59.71113 Z20.34118
X-45.68054
X-45.66814 Z20.57208
X-45.53481 Z22.48525
X-45.4511 Z23.49701
X-45.43249 Z23.70577
X-45.40769 Z23.96553
X-45.38288 Z24.20756
X-45.35808 Z24.43287
X-45.33328 Z24.61732
X-45.30847 Z24.79167
X-45.27126 Z25.03784
X-45.23406 Z25.26817
X-45.03562 Z26.45133
X-44.88679 Z27.2246
X-44.62634 Z28.57123
X-44.53952 Z28.96783
X-44.51472 Z29.07762
X-44.48992 Z29.18333
X-44.46511 Z29.2853
X-44.44031 Z29.38381
X-44.4155 Z29.47911
X-44.3907 Z29.5714
X-44.36589 Z29.6609
X-44.34109 Z29.74775
X-44.31628 Z29.83213
X-44.29148 Z29.91416
X-44.26667 Z29.99397
X-44.24187 Z30.07168
X-44.19226 Z30.2213
X-44.00622 Z30.77242
X-43.99382 Z30.80802
X-43.95662 Z30.90865
X-43.27449 Z32.70689
X-43.22488 Z32.83404
X-43.20007 Z32.89533
X-43.15046 Z33.01363
X-43.10085 Z33.12659
X-43.07605 Z33.18094
X-43.05124 Z33.23238
X-43.02644 Z33.28101
X-43.00163 Z33.32717
X-42.95202 Z33.4156
X-42.90242 Z33.50035
X-42.85281 Z33.58163
X-41.68699 Z35.4092
X-41.66218 Z35.44745
X-41.61257 Z35.52166
X-41.56296 Z35.59289
X-41.51335 Z35.66129
X-41.46374 Z35.72697
X-41.41413 Z35.78992
X-41.36453 Z35.84895
X-41.31492 Z35.90405
X-41.26531 Z35.95565
X-41.2157 Z36.00408
X-41.16609 Z36.04978
X-39.87624 Z37.21903
X-39.82663 Z37.26265
X-39.77703 Z37.30441
X-39.72742 Z37.34436
X-39.67781 Z37.38254
X-39.6282 Z37.41899
X-39.57859 Z37.45376
X-39.52898 Z37.48687
X-39.47937 Z37.51836
X-39.42976 Z37.54825
X-39.38015 Z37.57658
X-39.30574 Z37.61631
X-37.91667 Z38.33969
X-37.89187 Z38.35225
X-37.84226 Z38.37623
X-37.74304 Z38.4198
X-37.64382 Z38.45761
X-37.5446 Z38.48977
X-37.44538 Z38.51641
X-37.34616 Z38.53758
X-36.36638 Z38.70648
X-36.36018 Z38.70799
X-36.25476 Z38.75107
X-36.15554 Z38.78587
X-36.05632 Z38.81522
X-35.9571 Z38.83921
X-35.85788 Z38.85791
X-35.75867 Z38.87138
X-35.65945 Z38.87966
X-35.56023 Z38.88277
X-35.31218 Z38.88257
X-35.26257 Z38.88126
X-35.16335 Z38.87503
X-35.11995 Z38.87075
X-34.66726 Z38.87055
X-34.61765 Z38.87543
X-34.56804 Z38.87915
X-34.46882 Z38.8827
X-34.3696 Z38.8811
X-34.27038 Z38.87434
X-34.17117 Z38.86239
X-34.07195 Z38.84523
X-33.97273 Z38.8228
X-33.87351 Z38.79503
X-33.77429 Z38.76183
X-33.67507 Z38.7231
X-33.64407 Z38.70985
X-33.63787 Z38.70833
X-33.07976 Z38.61585
X-32.98054 Z38.59889
X-32.83171 Z38.57132
X-32.70769 Z38.54705
X-32.63328 Z38.53364
X-32.58367 Z38.52317
X-32.48445 Z38.49814
X-32.38523 Z38.46761
X-32.28601 Z38.43146
X-32.18679 Z38.3896
X-32.08757 Z38.34187
X-30.6489 Z37.59245
X-30.59929 Z37.56502
X-30.54968 Z37.53605
X-30.50007 Z37.5055
X-30.45046 Z37.47334
X-30.40085 Z37.43955
X-30.35124 Z37.40409
X-30.30163 Z37.36692
X-30.25203 Z37.32801
X-30.20241 Z37.28732
X-30.15281 Z37.24479
X-30.1032 Z37.20043
X-28.81335 Z36.03109
X-28.76374 Z35.98438
X-28.71413 Z35.93467
X-28.66453 Z35.88166
X-28.61492 Z35.82499
X-28.56531 Z35.7642
X-28.5157 Z35.70007
X-28.46609 Z35.63328
X-28.41648 Z35.56372
X-28.36687 Z35.49127
X-28.30486 Z35.39645
X-27.17624 Z33.62769
X-27.12663 Z33.54836
X-27.07703 Z33.46566
X-27.02742 Z33.37941
X-26.97781 Z33.28907
X-26.953 Z33.24089
X-26.9282 Z33.18996
X-26.90339 Z33.13602
X-26.87859 Z33.0804
X-26.82898 Z32.96527
X-26.77937 Z32.84463
X-26.72976 Z32.71802
X-26.02837 Z30.86896
X-26.01013 Z30.81911
X-25.97363 Z30.71284
X-25.79116 Z30.17204
X-25.75466 Z30.06093
X-25.71817 Z29.94545
X-25.68167 Z29.82526
X-25.64518 Z29.69997
X-25.60868 Z29.56913
X-25.57219 Z29.4322
X-25.53569 Z29.28855
X-25.4992 Z29.13742
X-25.4627 Z28.97786
X-25.38059 Z28.60417
X-25.36234 Z28.51391
X-24.97002 Z26.48197
X-24.95634 Z26.4046
X-24.75105 Z25.17773
X-24.71456 Z24.94603
X-24.69631 Z24.82427
X-24.67806 Z24.69811
X-24.65069 Z24.49967
X-24.64157 Z24.43
X-24.62332 Z24.26568
X-24.59595 Z24.00205
X-24.56858 Z23.7174
X-24.54121 Z23.40657
X-24.46251 Z22.4501
X-24.33022 Z20.54605
X-24.29486 Z19.87092
X-23.65986
X-23.46974 Y-59.70143 Z19.88538
X-23.30349 Y-59.64911 Z19.96332
X-23.19039 Y-59.56338 Z20.09102
X-23.15034 Y-59.45934 Z20.24601
X-23.17994 Y-59.36936 Z20.38005
X-23.26489 Y-59.29108 Z20.49666
X-23.39415 Y-59.2347 Z20.58065
X-23.55089 Y-59.20755 Z20.6211
X-24.18589
X-24.30681 Z22.35577
X-24.46688 Z24.29343
X-24.54556 Z25.10921
X-24.57036 Z25.34805
X-24.59517 Z25.56877
X-24.61997 Z25.77462
X-24.64478 Z25.96799
X-24.66958 Z26.15064
X-24.68818 Z26.2796
X-24.71919 Z26.46082
X-24.7564 Z26.66429
X-25.07886 Z28.33559
X-25.09746 Z28.42393
X-25.46333 Z30.08901
X-25.50054 Z30.25144
X-25.52534 Z30.35481
X-25.55015 Z30.45462
X-25.57495 Z30.55065
X-25.58735 Z30.59511
X-25.59976 Z30.63697
X-25.62456 Z30.71759
X-25.64936 Z30.79581
X-25.67417 Z30.87177
X-25.69897 Z30.9456
X-25.72378 Z31.01741
X-25.74858 Z31.0873
X-25.77339 Z31.15538
X-25.97183 Z31.67948
X-26.44311 Z32.92126
X-26.48032 Z33.01282
X-26.74077 Z33.62548
X-26.76558 Z33.68211
X-26.81519 Z33.79133
X-26.86479 Z33.89551
X-26.9144 Z33.99503
X-26.96401 Z34.0902
X-27.01362 Z34.1813
X-27.06323 Z34.26857
X-27.11284 Z34.35224
X-27.17485 Z34.45204
X-27.83218 Z35.48186
X-27.85698 Z35.51966
X-27.90659 Z35.59309
X-27.9686 Z35.68118
X-28.32827 Z36.18159
X-28.35308 Z36.21518
X-28.40269 Z36.28033
X-28.45229 Z36.34289
X-28.5019 Z36.40295
X-28.55151 Z36.46062
X-28.60112 Z36.516
X-28.65073 Z36.56915
X-28.70034 Z36.62017
X-28.74995 Z36.66911
X-28.79956 Z36.71605
X-30.13901 Z37.92986
X-30.18862 Z37.9729
X-30.23823 Z38.0141
X-30.28784 Z38.05351
X-30.33745 Z38.09115
X-30.38706 Z38.12708
X-30.43667 Z38.16134
X-30.48628 Z38.19394
X-30.53589 Z38.22494
X-30.5855 Z38.25435
X-30.63511 Z38.2822
X-30.68472 Z38.30852
X-30.73433 Z38.33414
X-30.93276 Z38.43436
X-31.1312 Z38.53123
X-32.07378 Z38.97689
X-32.12339 Z38.99963
X-32.22261 Z39.04106
X-32.32183 Z39.07721
X-32.42104 Z39.1082
X-32.52026 Z39.13414
X-32.61948 Z39.15509
X-32.6939 Z39.16762
X-33.46904 Z39.28887
X-33.51245 Z39.31079
X-33.61167 Z39.35729
X-33.71089 Z39.39822
X-33.81011 Z39.43373
X-33.90933 Z39.46393
X-34.00854 Z39.48891
X-34.10776 Z39.50876
X-34.20698 Z39.52353
X-34.3062 Z39.53327
X-34.40542 Z39.53801
X-34.64106 Z39.53851
X-34.70308 Z39.53779
X-34.80229 Z39.5339
X-34.87051 Z39.5297
X-35.3604
X-35.39761 Z39.53263
X-35.49683 Z39.5378
X-35.59604 Z39.53798
X-35.69526 Z39.53317
X-35.79448 Z39.52335
X-35.8937 Z39.50851
X-35.99292 Z39.48858
X-36.09214 Z39.46352
X-36.19136 Z39.43324
X-36.29058 Z39.39765
X-36.38979 Z39.35664
X-36.4394 Z39.33406
X-36.48281 Z39.31314
X-36.58823 Z39.29568
X-36.68745 Z39.27826
X-36.83628 Z39.2499
X-37.05952 Z39.20615
X-37.33237 Z39.16348
X-37.38198 Z39.15481
X-37.4812 Z39.13379
X-37.58042 Z39.10778
X-37.67964 Z39.07671
X-37.77886 Z39.04048
X-37.87808 Z38.99897
X-37.92769 Z38.9762
X-38.77104 Z38.57783
X-38.87026 Z38.53053
X-39.0687 Z38.43364
X-39.26714 Z38.3334
X-39.34155 Z38.29478
X-39.36636 Z38.28141
X-39.41597 Z38.25351
X-39.46558 Z38.22405
X-39.51519 Z38.19301
X-39.56479 Z38.16035
X-39.6144 Z38.12605
X-39.66401 Z38.09007
X-39.71362 Z38.05237
X-39.76323 Z38.01292
X-39.81284 Z37.97167
X-39.88105 Z37.91192
X-41.2019 Z36.71469
X-41.25151 Z36.6677
X-41.30112 Z36.61869
X-41.35073 Z36.56762
X-41.40034 Z36.5144
X-41.44995 Z36.45896
X-41.49956 Z36.40121
X-41.54917 Z36.34108
X-41.59878 Z36.27845
X-41.64839 Z36.21322
X-41.698 Z36.14528
X-42.04526 Z35.66181
X-42.09487 Z35.59096
X-42.14448 Z35.51745
X-42.19409 Z35.44099
X-42.83901 Z34.43017
X-42.88862 Z34.34982
X-42.93823 Z34.26605
X-42.98784 Z34.17867
X-43.03745 Z34.08745
X-43.08706 Z33.99216
X-43.13667 Z33.89251
X-43.18628 Z33.78818
X-43.23589 Z33.6788
X-43.27591 Z33.5866
X-43.51602 Z33.02149
X-43.53603 Z32.97336
X-43.57105 Z32.88463
X-44.21635 Z31.18303
X-44.23636 Z31.12884
X-44.27638 Z31.01696
X-44.3164 Z30.90009
X-44.35642 Z30.77778
X-44.39644 Z30.64951
X-44.41645 Z30.58179
X-44.43646 Z30.50715
X-44.47647 Z30.34737
X-44.51649 Z30.17824
X-44.55651 Z29.99899
X-44.90668 Z28.40509
X-44.92419 Z28.32001
X-45.23683 Z26.69995
X-45.25684 Z26.5934
X-45.27685 Z26.48312
X-45.30687 Z26.30995
X-45.31687 Z26.24633
X-45.34689 Z26.03052
X-45.3769 Z25.79968
X-45.40691 Z25.55088
X-45.42692 Z25.37304
X-45.44693 Z25.1837
X-45.47695 Z24.87706
X-45.53697 Z24.25032
X-45.69611 Z22.3172
X-45.7971 Z20.86568
X-46.4321
X-46.5556 Y-59.20538 Z20.87042
X-46.6755 Y-59.19289 Z20.89779
X-46.78682 Y-59.17057 Z20.94668
X-46.88495 Y-59.13937 Z21.01506
X-46.96585 Y-59.10056 Z21.10009
X-47.02615 Y-59.05575 Z21.19826
X-47.06335 Y-59.00681 Z21.3055
X-47.07593 Y-58.95575 Z21.41738
X-47.0331 Y-58.86272 Z21.62122
X-46.91064 Y-58.7828 Z21.79632
X-46.72582 Y-58.72727 Z21.91799
X-46.50471 Y-58.70396 Z21.96907
X-45.86971
X-45.85111 Z22.23187
X-45.69375 Z24.13762
X-45.50384 Z26.10812
X-45.46043 Z26.4996
X-45.43563 Z26.71148
X-45.41082 Z26.90677
X-45.38602 Z27.08855
X-45.36121 Z27.25903
X-45.33641 Z27.41987
X-45.3116 Z27.57234
X-45.2744 Z27.78751
X-45.23719 Z27.98873
X-45.21239 Z28.11741
X-45.19378 Z28.20663
X-44.7349 Z30.29591
X-44.71629 Z30.37513
X-44.53026 Z31.12768
X-44.50545 Z31.22404
X-44.48065 Z31.31689
X-44.45584 Z31.4065
X-44.43104 Z31.49311
X-44.40623 Z31.57694
X-44.38143 Z31.65816
X-44.35662 Z31.73695
X-44.33182 Z31.81344
X-44.30701 Z31.88777
X-44.28221 Z31.96006
X-44.25741 Z32.03041
X-44.2326 Z32.09892
X-44.18299 Z32.23117
X-44.03416 Z32.62323
X-44.00936 Z32.6857
X-43.98455 Z32.74534
X-43.26522 Z34.43813
X-43.24041 Z34.4951
X-43.1908 Z34.60495
X-43.14119 Z34.70972
X-43.09158 Z34.80979
X-43.04198 Z34.90547
X-42.99237 Z34.99704
X-42.94276 Z35.08477
X-42.89315 Z35.16832
X-42.86834 Z35.20764
X-42.84354 Z35.24537
X-42.78153 Z35.33457
X-41.67772 Z36.87104
X-41.65291 Z36.90479
X-41.6033 Z36.97026
X-41.55369 Z37.03313
X-41.50408 Z37.09349
X-41.45448 Z37.15144
X-41.40487 Z37.20709
X-41.35526 Z37.26051
X-41.30565 Z37.31178
X-41.25604 Z37.36097
X-41.20643 Z37.40814
X-40.61112 Z37.94783
X-40.5119 Z38.03545
X-40.41268 Z38.12029
X-40.31346 Z38.20263
X-39.86698 Z38.56943
X-39.81737 Z38.60875
X-39.76776 Z38.64639
X-39.71815 Z38.68239
X-39.66854 Z38.71679
X-39.61893 Z38.74963
X-39.51971 Z38.81074
X-39.42049 Z38.86598
X-39.37088 Z38.89146
X-39.32127 Z38.91555
X-37.9074 Z39.5831
X-37.8826 Z39.59438
X-37.83299 Z39.61593
X-37.73377 Z39.65502
X-37.63455 Z39.6889
X-37.53533 Z39.71765
X-37.43612 Z39.74139
X-37.3369 Z39.76017
X-36.59431 Z39.87627
X-36.54315 Z39.90288
X-36.44393 Z39.95059
X-36.34471 Z39.99289
X-36.24549 Z40.0299
X-36.14627 Z40.06175
X-36.04705 Z40.08855
X-35.94783 Z40.11038
X-35.84862 Z40.12729
X-35.7494 Z40.13935
X-35.65018 Z40.14659
X-35.55096 Z40.14904
X-35.45174
X-35.35252 Z40.14664
X-35.2533 Z40.13959
X-35.19749 Z40.13362
X-34.7262 Z40.13372
X-34.60838 Z40.14293
X-34.55877 Z40.14616
X-34.45955 Z40.14901
X-34.36033 Z40.14708
X-34.26112 Z40.14035
X-34.1619 Z40.1288
X-34.06268 Z40.1124
X-33.96346 Z40.0911
X-33.86424 Z40.06483
X-33.76502 Z40.03352
X-33.6658 Z39.99706
X-33.56658 Z39.95533
X-33.46737 Z39.90819
X-33.43326 Z39.89092
X-33.20692 Z39.8453
X-32.67362 Z39.76187
X-32.5744 Z39.74361
X-32.47518 Z39.7204
X-32.37596 Z39.69218
X-32.27674 Z39.65886
X-32.17752 Z39.62032
X-32.0659 Z39.5706
X-30.66444 Z38.90875
X-30.63963 Z38.89668
X-30.59002 Z38.8715
X-30.4908 Z38.81687
X-30.39158 Z38.75638
X-30.34198 Z38.72387
X-30.29237 Z38.6898
X-30.24276 Z38.65415
X-30.19315 Z38.61686
X-30.14354 Z38.5779
X-29.64744 Z38.17044
X-29.59783 Z38.12912
X-29.49862 Z38.04457
X-29.37459 Z37.93496
X-28.80408 Z37.41789
X-28.75448 Z37.37113
X-28.70487 Z37.32237
X-28.65526 Z37.27155
X-28.60565 Z37.21859
X-28.55604 Z37.16342
X-28.50643 Z37.10596
X-28.45682 Z37.04612
X-28.40721 Z36.9838
X-28.3576 Z36.91889
X-28.30799 Z36.85127
X-27.21658 Z35.33191
X-27.16698 Z35.26091
X-27.14217 Z35.22381
X-27.11737 Z35.18518
X-27.09256 Z35.14488
X-27.06776 Z35.10288
X-27.01815 Z35.01594
X-26.96854 Z34.9252
X-26.91893 Z34.83042
X-26.86932 Z34.73131
X-26.81971 Z34.62756
X-26.77725 Z34.53482
X-26.72153 Z34.4071
X-26.01302 Z32.73962
X-25.99179 Z32.68853
X-25.95597 Z32.59749
X-25.80073 Z32.18823
X-25.75828 Z32.07393
X-25.71582 Z31.95439
X-25.67336 Z31.82914
X-25.6309 Z31.69763
X-25.58845 Z31.55919
X-25.54599 Z31.413
X-25.52476 Z31.33669
X-25.50353 Z31.25806
X-25.48231 Z31.17693
X-25.43985 Z31.00727
X-25.28063 Z30.36255
X-25.2594 Z30.27006
X-24.80299 Z28.19189
X-24.78441 Z28.10086
X-24.76053 Z27.97676
X-24.7393 Z27.8631
X-24.71807 Z27.74517
X-24.69685 Z27.62255
X-24.665 Z27.42875
X-24.63316 Z27.22125
X-24.60132 Z26.99727
X-24.58009 Z26.83692
X-24.55886 Z26.66595
X-24.53232 Z26.43438
X-24.49252 Z26.07283
X-24.30279 Z24.09896
X-24.14556 Z22.1886
X-24.10244 Z21.56724
X-23.46744
X-23.2361 Y-58.68856 Z21.59924
X-23.03749 Y-58.63486 Z21.71084
X-22.90381 Y-58.55157 Z21.88397
X-22.8567 Y-58.45216 Z22.09056
X-22.89821 Y-58.35862 Z22.28498
X-23.0168 Y-58.27844 Z22.45164
X-23.19555 Y-58.22305 Z22.56676
X-23.40894 Y-58.20037 Z22.61389
X-24.04394
X-24.06254 Z22.91266
X-24.08114 Z23.18078
X-24.09975 Z23.42574
X-24.1447 Z23.97201
X-24.33229 Z25.92062
X-24.54003 Z27.79437
X-24.55863 Z27.95283
X-24.57724 Z28.08562
X-24.60204 Z28.25098
X-24.62685 Z28.40554
X-24.65165 Z28.55096
X-24.67646 Z28.68852
X-24.71366 Z28.88221
X-24.73847 Z29.00402
X-24.77567 Z29.17733
X-24.97411 Z30.07983
X-24.98651 Z30.13175
X-25.4578 Z32.03975
X-25.48261 Z32.13791
X-25.50741 Z32.23242
X-25.53222 Z32.32355
X-25.54462 Z32.36711
X-25.55702 Z32.40823
X-25.58183 Z32.48497
X-25.60663 Z32.55862
X-25.63144 Z32.63002
X-25.65624 Z32.69931
X-25.68105 Z32.76662
X-25.70585 Z32.83205
X-25.73065 Z32.89571
X-25.75546 Z32.95768
X-25.80507 Z33.07691
X-26.54921 Z34.8281
X-26.57401 Z34.88473
X-26.59882 Z34.93937
X-26.67323 Z35.09597
X-26.74765 Z35.25099
X-26.77245 Z35.30102
X-26.82206 Z35.39753
X-26.87167 Z35.48961
X-26.92128 Z35.57758
X-26.97089 Z35.66172
X-27.0205 Z35.74227
X-27.07011 Z35.81944
X-27.11972 Z35.89343
X-27.18173 Z35.98171
X-28.31034 Z37.55219
X-28.35995 Z37.61878
X-28.40956 Z37.68099
X-28.45917 Z37.73931
X-28.50878 Z37.79414
X-28.55839 Z37.84626
X-28.608 Z37.8963
X-28.65761 Z37.94433
X-28.70722 Z37.99042
X-28.75683 Z38.03464
X-28.82814 Z38.09504
X-30.14589 Z39.17748
X-30.1955 Z39.21636
X-30.24511 Z39.25357
X-30.29472 Z39.28915
X-30.34433 Z39.32314
X-30.39394 Z39.35558
X-30.49315 Z39.41593
X-30.59237 Z39.47042
X-30.64198 Z39.49553
X-32.08065 Z40.17498
X-32.17987 Z40.21873
X-32.27909 Z40.25714
X-32.37831 Z40.29034
X-32.47753 Z40.31844
X-32.57675 Z40.34153
X-32.67597 Z40.35968
X-32.73798 Z40.36959
X-32.77519 Z40.37704
X-32.8744 Z40.39524
X-32.97362 Z40.41113
X-33.42631 Z40.48034
X-33.46972 Z40.50246
X-33.56894 Z40.54947
X-33.66815 Z40.59107
X-33.76737 Z40.62741
X-33.86659 Z40.6586
X-33.96581 Z40.68475
X-34.06503 Z40.70593
X-34.16425 Z40.72222
X-34.26347 Z40.73365
X-34.36269 Z40.74027
X-34.4619 Z40.74209
X-34.56112 Z40.73912
X-34.59213 Z40.73754
X-35.10683
X-35.13163 Z40.7379
X-35.15644 Z40.73932
X-35.26806 Z40.74212
X-35.55331
X-35.65253 Z40.73957
X-35.75175 Z40.73221
X-35.85097 Z40.72004
X-35.95019 Z40.703
X-36.0494 Z40.68106
X-36.14862 Z40.65415
X-36.24784 Z40.62217
X-36.34706 Z40.58503
X-36.44628 Z40.54261
X-36.5455 Z40.49476
X-36.5827 Z40.47552
X-37.33925 Z40.35721
X-37.43847 Z40.33831
X-37.53769 Z40.31446
X-37.6369 Z40.28558
X-37.73612 Z40.25159
X-37.83534 Z40.21237
X-37.88495 Z40.19076
X-37.93456 Z40.16782
X-39.32362 Z39.51213
X-39.42284 Z39.46244
X-39.52206 Z39.40706
X-39.62128 Z39.3458
X-39.67089 Z39.31289
X-39.7205 Z39.27841
X-39.77011 Z39.24234
X-39.81972 Z39.20462
X-39.88173 Z39.1551
X-41.18397 Z38.08504
X-41.20878 Z38.06423
X-41.25839 Z38.02128
X-41.308 Z37.97649
X-41.35761 Z37.92981
X-41.40722 Z37.88117
X-41.45683 Z37.8305
X-41.50644 Z37.77767
X-41.55604 Z37.72181
X-41.60565 Z37.66234
X-41.65526 Z37.59885
X-41.70487 Z37.53104
X-42.84589 Z35.94295
X-42.8955 Z35.87107
X-42.94511 Z35.79612
X-42.99472 Z35.71793
X-43.04433 Z35.63631
X-43.09394 Z35.55102
X-43.13808 Z35.47186
X-43.18222 Z35.3894
X-43.22636 Z35.3034
X-43.28153 Z35.19058
X-43.38085 Z34.98283
X-43.42499 Z34.88697
X-43.46912 Z34.78506
X-44.21951 Z33.01861
X-44.24158 Z32.96498
X-44.28572 Z32.8539
X-44.32986 Z32.73728
X-44.374 Z32.61457
X-44.41814 Z32.48508
X-44.44021 Z32.41713
X-44.46228 Z32.34323
X-44.48435 Z32.26306
X-44.50642 Z32.18017
X-44.54504 Z32.02827
X-45.01403 Z30.12956
X-45.03472 Z30.04072
X-45.23473 Z29.12989
X-45.2568 Z29.02669
X-45.27887 Z28.91949
X-45.30094 Z28.80789
X-45.32301 Z28.69143
X-45.35611 Z28.50636
X-45.38922 Z28.3066
X-45.41129 Z28.16361
X-45.43887 Z27.9714
X-45.44439 Z27.92907
X-45.46646 Z27.73603
X-45.67061 Z25.89222
X-45.85786 Z23.94267
X-45.90234 Z23.39921
X-45.9189 Z23.18025
X-46.5539
X-46.76848 Y-58.1846 Z23.21023
X-46.95247 Y-58.13081 Z23.31246
X-47.07622 Y-58.04767 Z23.47047
X-47.11982 Y-57.94858 Z23.65882
X-47.08093 Y-57.85477 Z23.83711
X-46.96986 Y-57.77444 Z23.98978
X-46.80257 Y-57.71913 Z24.09491
X-46.60308 Y-57.69678 Z24.13739
X-45.96808
X-45.94948 Z24.41592
X-45.93088 Z24.66186
X-45.91227 Z24.88415
X-45.88902 Z25.13691
X-45.83011 Z25.74686
X-45.60841 Z27.74539
X-45.45959 Z28.92505
X-45.43478 Z29.1109
X-45.40998 Z29.28226
X-45.38517 Z29.44181
X-45.36037 Z29.59148
X-45.33556 Z29.73271
X-45.31696 Z29.83298
X-45.29836 Z29.92128
X-45.27355 Z30.03208
X-45.23634 Z30.18937
X-44.76505 Z32.09653
X-44.72785 Z32.23285
X-44.52941 Z32.94927
X-44.50461 Z33.03523
X-44.4798 Z33.11806
X-44.455 Z33.198
X-44.43019 Z33.27528
X-44.40539 Z33.35007
X-44.38058 Z33.42254
X-44.35578 Z33.49284
X-44.33097 Z33.5611
X-44.30617 Z33.62742
X-44.28136 Z33.69193
X-44.25656 Z33.75471
X-44.20695 Z33.87541
X-43.9341 Z34.51724
X-43.90929 Z34.57329
X-43.86589 Z34.66686
X-43.26437 Z35.92457
X-43.23957 Z35.97521
X-43.18996 Z36.07284
X-43.14035 Z36.16596
X-43.09074 Z36.2549
X-43.04113 Z36.33994
X-42.99152 Z36.42134
X-42.94191 Z36.49932
X-42.8923 Z36.57406
X-42.83029 Z36.66322
X-42.44582 Z37.19816
X-42.39621 Z37.26557
X-42.3466 Z37.33108
X-42.27218 Z37.4262
X-41.67687 Z38.17732
X-41.65207 Z38.20798
X-41.60246 Z38.26743
X-41.55285 Z38.32452
X-41.50324 Z38.37933
X-41.45363 Z38.43196
X-41.40402 Z38.4825
X-41.35441 Z38.53101
X-41.3048 Z38.57757
X-41.25519 Z38.62224
X-41.20558 Z38.66508
X-40.41183 Z39.31767
X-39.86613 Z39.76551
X-39.81652 Z39.8048
X-39.76691 Z39.84241
X-39.7173 Z39.87838
X-39.66769 Z39.91275
X-39.61808 Z39.94556
X-39.51886 Z40.00663
X-39.41965 Z40.06182
X-39.37004 Z40.08728
X-39.32043 Z40.11134
X-39.12199 Z40.20475
X-39.02277 Z40.25072
X-38.82433 Z40.34089
X-38.57629 Z40.4505
X-37.90656 Z40.74226
X-37.83214 Z40.7726
X-37.73293 Z40.80873
X-37.63371 Z40.84003
X-37.53449 Z40.86659
X-37.43527 Z40.88851
X-37.32365 Z40.9077
X-37.10041 Z40.94005
X-36.68028 Z41.00817
X-36.64152 Z41.02962
X-36.59191 Z41.05612
X-36.5423 Z41.08108
X-36.44308 Z41.12657
X-36.34386 Z41.16645
X-36.24464 Z41.20121
X-36.14543 Z41.23113
X-36.04621 Z41.2563
X-35.94699 Z41.27678
X-35.84777 Z41.29266
X-35.74855 Z41.30396
X-35.64933 Z41.31073
X-35.55011 Z41.31299
X-35.4509 Z41.31093
X-35.37028 Z41.30679
X-34.84318 Z41.30694
X-34.75636 Z41.30864
X-34.45871 Z41.31297
X-34.35949 Z41.31112
X-34.26027 Z41.30475
X-34.16105 Z41.29384
X-34.06183 Z41.27838
X-33.96261 Z41.25831
X-33.86339 Z41.23356
X-33.76418 Z41.20407
X-33.66496 Z41.16974
X-33.56574 Z41.13034
X-33.46652 Z41.08536
X-33.41691 Z41.06067
X-33.3673 Z41.03444
X-33.30219 Z40.99802
X-32.67277 Z40.90717
X-32.57355 Z40.89024
X-32.47433 Z40.86873
X-32.37511 Z40.84258
X-32.27589 Z40.8117
X-32.17668 Z40.77601
X-32.07746 Z40.73537
X-31.38293 Z40.4327
X-31.28371 Z40.38904
X-31.08527 Z40.3001
X-30.88683 Z40.20886
X-30.66359 Z40.10373
X-30.63879 Z40.09165
X-30.58918 Z40.06645
X-30.48996 Z40.01177
X-30.39074 Z39.95124
X-30.34113 Z39.9187
X-30.29152 Z39.88461
X-30.24191 Z39.84892
X-30.1923 Z39.8116
X-30.14269 Z39.77261
X-28.80324 Z38.6725
X-28.75363 Z38.62999
X-28.70402 Z38.58565
X-28.65441 Z38.53943
X-28.6048 Z38.49127
X-28.55519 Z38.4411
X-28.50558 Z38.38885
X-28.45597 Z38.33443
X-28.40636 Z38.27776
X-28.35675 Z38.21873
X-28.30714 Z38.15724
X-27.71183 Z37.40602
X-27.66222 Z37.34254
X-27.61261 Z37.27735
X-27.5382 Z37.17601
X-27.16613 Z36.65819
X-27.11652 Z36.58703
X-27.06691 Z36.51284
X-27.0173 Z36.43545
X-26.96769 Z36.35467
X-26.91808 Z36.2703
X-26.87264 Z36.18964
X-26.8272 Z36.10555
X-26.78176 Z36.01776
X-26.72497 Z35.90241
X-26.12289 Z34.64317
X-26.10017 Z34.59416
X-26.07745 Z34.54359
X-26.03201 Z34.43786
X-25.7821 Z33.84929
X-25.73666 Z33.7377
X-25.69122 Z33.62051
X-25.64578 Z33.49717
X-25.60034 Z33.36699
X-25.57762 Z33.29908
X-25.5549 Z33.22913
X-25.53218 Z33.15701
X-25.50946 Z33.08256
X-25.48674 Z33.0056
X-25.45266 Z32.88507
X-25.24818 Z32.14615
X-25.22546 Z32.05934
X-24.75971 Z30.17315
X-24.73699 Z30.07766
X-24.71427 Z29.97831
X-24.69155 Z29.87462
X-24.68019 Z29.81829
X-24.64611 Z29.62912
X-24.62339 Z29.49451
X-24.60067 Z29.35206
X-24.57795 Z29.20047
X-24.55523 Z29.03799
X-24.53251 Z28.86256
X-24.38767 Z27.71215
X-24.16616 Z25.7105
X-24.10084 Z25.02961
X-24.07812 Z24.77186
X-24.06108 Z24.55878
X-24.04404 Z24.32315
X-24.027 Z24.05646
X-24.01422 Z23.82702
X-24.00996 Z23.73171
X-23.37496
X-23.23749 Y-57.69225 Z23.74348
X-23.10515 Y-57.67813 Z23.78017
X-22.98309 Y-57.65497 Z23.84035
X-22.87603 Y-57.62367 Z23.92168
X-22.78812 Y-57.58544 Z24.02102
X-22.72277 Y-57.54176 Z24.13451
X-22.68252 Y-57.49433 Z24.25775
X-22.66893 Y-57.44499 Z24.38596
X-22.68228 Y-57.39608 Z24.51303
X-22.72182 Y-57.34904 Z24.63526
X-22.78604 Y-57.30566 Z24.748
X-22.87251 Y-57.26757 Z24.84695
X-22.97791 Y-57.23625 Z24.92834
X-23.09825 Y-57.21287 Z24.98908
X-23.22894 Y-57.19834 Z25.02685
X-23.365 Y-57.1932 Z25.04021
X-24.
X-24.0124 Z25.30712
X-24.02481 Z25.53464
X-24.03721 Z25.71165
X-24.05581 Z25.94458
X-24.07441 Z26.15185
X-24.09302 Z26.34014
X-24.11162 Z26.51366
X-24.22324 Z27.52031
X-24.48679 Z29.60864
X-24.5457 Z30.02312
X-24.57051 Z30.1855
X-24.59531 Z30.33558
X-24.62012 Z30.47556
X-24.64492 Z30.60704
X-24.66973 Z30.73125
X-24.69453 Z30.84912
X-24.71934 Z30.96141
X-24.74414 Z31.06871
X-24.79375 Z31.27197
X-24.91777 Z31.77411
X-24.94258 Z31.86878
X-25.46348 Z33.75084
X-25.48828 Z33.83775
X-25.51309 Z33.92145
X-25.53789 Z34.0022
X-25.5627 Z34.08022
X-25.5999 Z34.19229
X-25.6123 Z34.22735
X-25.63711 Z34.29344
X-25.66191 Z34.35512
X-25.68672 Z34.41463
X-25.71152 Z34.47249
X-25.73633 Z34.52879
X-25.79834 Z34.66321
X-26.72852 Z36.60809
X-26.77813 Z36.70883
X-26.82773 Z36.80482
X-26.85254 Z36.85067
X-26.87734 Z36.89449
X-26.90215 Z36.93647
X-26.92695 Z36.97677
X-26.97656 Z37.05316
X-27.02617 Z37.126
X-27.07578 Z37.19579
X-27.12539 Z37.26271
X-27.1874 Z37.34257
X-28.31602 Z38.76655
X-28.36563 Z38.8276
X-28.41523 Z38.8862
X-28.46484 Z38.94246
X-28.51445 Z38.99648
X-28.56406 Z39.04836
X-28.61367 Z39.09816
X-28.66328 Z39.14597
X-28.71289 Z39.19185
X-28.7625 Z39.23586
X-28.83071 Z39.29343
X-29.40742 Z39.76683
X-29.45703 Z39.80688
X-29.55625 Z39.88553
X-29.69268 Z39.9907
X-30.15156 Z40.33822
X-30.20117 Z40.37401
X-30.25078 Z40.40827
X-30.35 Z40.4723
X-30.44922 Z40.53059
X-30.54844 Z40.58337
X-30.64766 Z40.63085
X-32.08633 Z41.25789
X-32.13594 Z41.27861
X-32.23516 Z41.31631
X-32.33438 Z41.34915
X-32.43359 Z41.37723
X-32.53281 Z41.40064
X-32.63203 Z41.41945
X-32.73125 Z41.43431
X-33.2661 Z41.51149
X-33.32656 Z41.54545
X-33.42578 Z41.59728
X-33.525 Z41.64379
X-33.62422 Z41.68515
X-33.72344 Z41.7215
X-33.82266 Z41.75297
X-33.92188 Z41.77965
X-34.02109 Z41.80163
X-34.12031 Z41.81899
X-34.21953 Z41.83175
X-34.31875 Z41.83998
X-34.41797 Z41.84369
X-34.51719 Z41.84316
X-34.66602 Z41.84087
X-34.71563 Z41.83924
X-34.77764 Z41.83571
X-35.27373 Z41.83582
X-35.36055 Z41.83904
X-35.50938 Z41.84355
X-35.60859 Z41.84314
X-35.70781 Z41.83822
X-35.80703 Z41.82878
X-35.90625 Z41.81479
X-36.00547 Z41.79621
X-36.10469 Z41.77297
X-36.20391 Z41.74502
X-36.30313 Z41.71225
X-36.40234 Z41.67457
X-36.50156 Z41.63184
X-36.60078 Z41.58393
X-36.7 Z41.53065
X-36.73411 Z41.51138
X-37.34492 Z41.42317
X-37.39453 Z41.41486
X-37.49375 Z41.39483
X-37.59297 Z41.37018
X-37.69219 Z41.34083
X-37.79141 Z41.3067
X-37.89063 Z41.26767
X-39.31689 Z40.64657
X-39.37891 Z40.61865
X-39.47813 Z40.56977
X-39.57734 Z40.51553
X-39.67656 Z40.45573
X-39.77578 Z40.39012
X-39.82539 Z40.35505
X-39.89981 Z40.29964
X-40.37109 Z39.94195
X-40.47031 Z39.86466
X-40.56953 Z39.7855
X-41.18965 Z39.27659
X-41.21445 Z39.25568
X-41.26406 Z39.21252
X-41.31367 Z39.16752
X-41.36328 Z39.12062
X-41.41289 Z39.07175
X-41.4625 Z39.02085
X-41.51211 Z38.96783
X-41.56172 Z38.91262
X-41.61133 Z38.85512
X-41.66094 Z38.79522
X-42.25625 Z38.04508
X-42.85156 Z37.29287
X-42.90117 Z37.22723
X-42.95078 Z37.15879
X-43.00039 Z37.08739
X-43.05 Z37.01284
X-43.09609 Z36.93938
X-43.11914 Z36.90055
X-43.14219 Z36.86015
X-43.16523 Z36.81804
X-43.18828 Z36.77433
X-43.23438 Z36.68391
X-43.28047 Z36.58933
X-43.7875 Z35.52997
X-44.20234 Z34.66178
X-44.24844 Z34.56263
X-44.29453 Z34.45852
X-44.34063 Z34.34893
X-44.36367 Z34.29143
X-44.38672 Z34.23006
X-44.40977 Z34.16388
X-44.43281 Z34.09408
X-44.45586 Z34.02211
X-44.47891 Z33.94783
X-44.50195 Z33.87108
X-44.54229 Z33.73017
X-45.0666 Z31.83481
X-45.08965 Z31.74411
X-45.23945 Z31.13718
X-45.2625 Z31.04044
X-45.28555 Z30.93971
X-45.30859 Z30.83459
X-45.33164 Z30.72458
X-45.36621 Z30.54899
X-45.38926 Z30.42372
X-45.41231 Z30.29065
X-45.43535 Z30.14835
X-45.46128 Z29.97478
X-45.51746 Z29.57671
X-45.77817 Z27.50815
X-45.89629 Z26.44147
X-45.91934 Z26.21698
X-45.93662 Z26.03154
X-45.95391 Z25.8267
X-45.97119 Z25.59523
X-45.97695 Z25.5042
X-45.99136 Z25.23125
X-46. Z25.04021
X-46.635
X-46.77645 Y-57.18836 Z25.05327
X-46.91247 Y-57.17403 Z25.09196
X-47.03783 Y-57.15076 Z25.1548
X-47.1477 Y-57.11945 Z25.23936
X-47.23787 Y-57.08129 Z25.34239
X-47.30487 Y-57.03776 Z25.45995
X-47.34613 Y-56.99053 Z25.5875
X-47.36007 Y-56.9414 Z25.72015
X-47.34613 Y-56.89228 Z25.8528
X-47.30487 Y-56.84505 Z25.98035
X-47.23787 Y-56.80151 Z26.0979
X-47.1477 Y-56.76336 Z26.20094
X-47.03783 Y-56.73204 Z26.2855
X-46.91247 Y-56.70878 Z26.34833
X-46.77645 Y-56.69445 Z26.38702
X-46.635 Y-56.68961 Z26.40009
X-46.
X-45.9876 Z26.63204
X-45.9752 Z26.82976
X-45.96279 Z27.00481
X-45.94419 Z27.23774
X-45.93799 Z27.30864
X-45.91939 Z27.48563
X-45.89458 Z27.69739
X-45.68374 Z29.36776
X-45.4543 Z30.9837
X-45.42949 Z31.14608
X-45.40469 Z31.29616
X-45.37988 Z31.43614
X-45.36128 Z31.5343
X-45.34268 Z31.62056
X-45.33027 Z31.67526
X-45.30547 Z31.78051
X-45.28066 Z31.88077
X-45.25586 Z31.97659
X-45.20625 Z32.15807
X-44.73496 Z33.86095
X-44.71016 Z33.94623
X-44.53652 Z34.50447
X-44.51172 Z34.58181
X-44.48691 Z34.65629
X-44.46211 Z34.72815
X-44.43731 Z34.79759
X-44.4125 Z34.86476
X-44.3877 Z34.92984
X-44.36289 Z34.99294
X-44.33809 Z35.05419
X-44.31328 Z35.1137
X-44.28848 Z35.17156
X-44.26367 Z35.22786
X-44.20166 Z35.36228
X-43.66836 Z36.47675
X-43.60635 Z36.59936
X-43.27148 Z37.23429
X-43.22188 Z37.32584
X-43.17227 Z37.41307
X-43.12266 Z37.49631
X-43.07305 Z37.57584
X-43.02344 Z37.65192
X-42.97383 Z37.72476
X-42.92422 Z37.79456
X-42.87461 Z37.86148
X-42.8126 Z37.94135
X-41.70879 Z39.33329
X-41.68398 Z39.36405
X-41.63438 Z39.42321
X-41.58477 Z39.47894
X-41.53516 Z39.53157
X-41.48555 Z39.58157
X-41.43594 Z39.62955
X-41.38633 Z39.67562
X-41.33672 Z39.71985
X-41.28711 Z39.76229
X-41.2375 Z39.803
X-41.16929 Z39.85625
X-39.84844 Z40.8571
X-39.79883 Z40.89289
X-39.74922 Z40.92714
X-39.65 Z40.99117
X-39.55078 Z41.04946
X-39.45156 Z41.10225
X-39.35234 Z41.14973
X-37.93848 Z41.76579
X-37.86406 Z41.79729
X-37.76484 Z41.83499
X-37.66563 Z41.86783
X-37.56641 Z41.89591
X-37.46719 Z41.91932
X-37.36797 Z41.93813
X-37.26875 Z41.95298
X-36.76025 Z42.02653
X-36.72305 Z42.04842
X-36.67344 Z42.07639
X-36.57422 Z42.12821
X-36.475 Z42.17472
X-36.37578 Z42.21608
X-36.27656 Z42.25243
X-36.17734 Z42.2839
X-36.07813 Z42.31059
X-35.97891 Z42.33257
X-35.87969 Z42.34992
X-35.78047 Z42.36269
X-35.68125 Z42.37092
X-35.58203 Z42.37463
X-35.48281 Z42.37383
X-35.17275 Z42.36435
X-34.67976 Z42.36462
X-34.63945 Z42.36801
X-34.58984 Z42.37123
X-34.51543 Z42.37407
X-34.49063 Z42.3745
X-34.39141 Z42.37408
X-34.29219 Z42.36916
X-34.19297 Z42.35972
X-34.09375 Z42.34573
X-33.99453 Z42.32714
X-33.89531 Z42.30391
X-33.79609 Z42.27595
X-33.69688 Z42.24319
X-33.59766 Z42.2055
X-33.49844 Z42.16278
X-33.39922 Z42.11487
X-33.3 Z42.06159
X-33.24884 Z42.03233
X-33.00234 Z41.99691
X-32.90313 Z41.98008
X-32.85352 Z41.97063
X-32.65508 Z41.94184
X-32.60547 Z41.93354
X-32.50625 Z41.91351
X-32.40703 Z41.88886
X-32.30781 Z41.85951
X-32.20859 Z41.82538
X-32.10938 Z41.78635
X-30.6707 Z41.16002
X-30.62109 Z41.13753
X-30.52188 Z41.08864
X-30.42266 Z41.0344
X-30.32344 Z40.9746
X-30.22422 Z40.90899
X-30.17461 Z40.87392
X-30.10019 Z40.81849
X-28.81035 Z39.84068
X-28.78555 Z39.82134
X-28.73594 Z39.78141
X-28.68633 Z39.73978
X-28.63672 Z39.6964
X-28.58711 Z39.65119
X-28.5375 Z39.6041
X-28.48789 Z39.55506
X-28.43828 Z39.50376
X-28.38867 Z39.44951
X-28.33906 Z39.39198
X-28.26465 Z39.29995
X-27.17324 Z37.92344
X-27.14844 Z37.89163
X-27.09883 Z37.82599
X-27.04922 Z37.75755
X-26.99961 Z37.68615
X-26.95 Z37.6116
X-26.90391 Z37.53934
X-26.85781 Z37.46399
X-26.81172 Z37.38536
X-26.76563 Z37.30319
X-26.71953 Z37.21726
X-26.39688 Z36.60552
X-26.35078 Z36.51543
X-26.30469 Z36.42093
X-25.79766 Z35.36085
X-25.75156 Z35.2617
X-25.70547 Z35.15759
X-25.65938 Z35.048
X-25.61328 Z34.93236
X-25.59023 Z34.87204
X-25.56719 Z34.80991
X-25.54414 Z34.74587
X-25.52109 Z34.67976
X-25.49805 Z34.61146
X-25.45772 Z34.48606
X-25.29063 Z33.94881
X-25.26182 Z33.84938
X-24.76055 Z32.03774
X-24.7375 Z31.95135
X-24.71445 Z31.86141
X-24.69141 Z31.76754
X-24.66836 Z31.66931
X-24.64531 Z31.56599
X-24.63379 Z31.5094
X-24.61074 Z31.38431
X-24.5877 Z31.25124
X-24.56465 Z31.10894
X-24.53872 Z30.93537
X-24.3169 Z29.37234
X-24.10371 Z27.68351
X-24.08066 Z27.48607
X-24.06338 Z27.32285
X-24.05186 Z27.19066
X-24.03457 Z26.96914
X-24.02305 Z26.80331
X-24.00864 Z26.56611
X-24. Z26.40009
X-23.365
X-23.23612 Y-56.68477 Z26.41182
X-23.1122 Y-56.67044 Z26.44658
X-22.99798 Y-56.64717 Z26.50302
X-22.89788 Y-56.61586 Z26.57897
X-22.81572 Y-56.5777 Z26.67152
X-22.75467 Y-56.53417 Z26.77711
X-22.71708 Y-56.48694 Z26.89168
X-22.70439 Y-56.43782 Z27.01083
X-22.71708 Y-56.38869 Z27.12998
X-22.75467 Y-56.34146 Z27.24455
X-22.81572 Y-56.29793 Z27.35014
X-22.89788 Y-56.25977 Z27.44269
X-22.99798 Y-56.22846 Z27.51865
X-23.1122 Y-56.20519 Z27.57509
X-23.23612 Y-56.19086 Z27.60984
X-23.365 Y-56.18602 Z27.62158
X-24.
X-24.0124 Z27.82558
X-24.02481 Z27.99948
X-24.03721 Z28.15343
X-24.05581 Z28.35829
X-24.07441 Z28.54058
X-24.08682 Z28.65258
X-24.11085 Z28.85263
X-24.14573 Z29.12687
X-24.44648 Z31.2458
X-24.5457 Z31.87018
X-24.57051 Z32.01518
X-24.59531 Z32.14919
X-24.62012 Z32.27418
X-24.64492 Z32.39159
X-24.66973 Z32.5025
X-24.69453 Z32.60775
X-24.71934 Z32.70801
X-24.74414 Z32.80382
X-24.79375 Z32.98528
X-24.95498 Z33.5669
X-24.98289 Z33.6599
X-25.46348 Z35.20354
X-25.48828 Z35.28088
X-25.51309 Z35.35536
X-25.53789 Z35.42723
X-25.5627 Z35.49666
X-25.5875 Z35.56384
X-25.6123 Z35.62891
X-25.63711 Z35.69201
X-25.66191 Z35.75327
X-25.68672 Z35.81278
X-25.71152 Z35.87064
X-25.73633 Z35.92694
X-25.79834 Z36.06135
X-25.83555 Z36.13737
X-25.89756 Z36.25777
X-26.72852 Z37.83305
X-26.77813 Z37.9246
X-26.82773 Z38.01183
X-26.87734 Z38.09507
X-26.92695 Z38.17461
X-26.97656 Z38.25068
X-27.02617 Z38.32353
X-27.07578 Z38.39332
X-27.12539 Z38.46024
X-27.1874 Z38.5401
X-27.47266 Z38.8997
X-27.57188 Z39.02088
X-27.67109 Z39.13742
X-28.31602 Z39.88806
X-28.36563 Z39.94453
X-28.41523 Z39.99874
X-28.46484 Z40.05078
X-28.51445 Z40.10076
X-28.56406 Z40.14875
X-28.61367 Z40.19482
X-28.66328 Z40.23904
X-28.71289 Z40.28148
X-28.7625 Z40.32219
X-28.83071 Z40.37545
X-30.15156 Z41.37597
X-30.20117 Z41.41176
X-30.25078 Z41.44601
X-30.35 Z41.51004
X-30.44922 Z41.56833
X-30.54844 Z41.62112
X-30.64766 Z41.6686
X-31.54063 Z42.05765
X-31.73906 Z42.14275
X-31.9375 Z42.22619
X-32.13594 Z42.30725
X-32.23516 Z42.34264
X-32.33438 Z42.37345
X-32.43359 Z42.39979
X-32.53281 Z42.42174
X-32.63203 Z42.43939
X-32.73125 Z42.45331
X-33.19634 Z42.51634
X-33.22734 Z42.53466
X-33.27695 Z42.56272
X-33.32656 Z42.58927
X-33.42578 Z42.63822
X-33.525 Z42.68215
X-33.62422 Z42.72122
X-33.72344 Z42.75555
X-33.82266 Z42.78527
X-33.92188 Z42.81047
X-34.02109 Z42.83124
X-34.12031 Z42.84762
X-34.21953 Z42.85969
X-34.31875 Z42.86746
X-34.41797 Z42.87096
X-34.79004 Z42.87108
X-34.88926 Z42.86889
X-35.43496
X-35.50938 Z42.87082
X-35.60859 Z42.87044
X-35.70781 Z42.86579
X-35.80703 Z42.85688
X-35.90625 Z42.84366
X-36.00547 Z42.82611
X-36.10469 Z42.80417
X-36.20391 Z42.77776
X-36.30313 Z42.74682
X-36.40234 Z42.71123
X-36.50156 Z42.67087
X-36.60078 Z42.62562
X-36.7 Z42.57523
X-36.74961 Z42.54789
X-36.80077 Z42.51814
X-37.2457 Z42.45745
X-37.34492 Z42.44287
X-37.39453 Z42.43508
X-37.49375 Z42.41629
X-37.59297 Z42.39317
X-37.69219 Z42.36564
X-37.79141 Z42.33362
X-37.89063 Z42.29695
X-38.08906 Z42.21511
X-38.2875 Z42.13145
X-38.53555 Z42.02454
X-39.3293 Z41.67889
X-39.37891 Z41.6564
X-39.47813 Z41.60752
X-39.57734 Z41.55328
X-39.67656 Z41.49347
X-39.77578 Z41.42786
X-39.82539 Z41.39279
X-39.89981 Z41.33738
X-41.18965 Z40.35987
X-41.21445 Z40.34053
X-41.26406 Z40.30061
X-41.31367 Z40.25898
X-41.36328 Z40.21559
X-41.41289 Z40.17039
X-41.4625 Z40.1233
X-41.51211 Z40.07425
X-41.56172 Z40.02318
X-41.61133 Z39.96999
X-41.66094 Z39.91458
X-42.38027 Z39.07755
X-42.45469 Z38.98894
X-42.5291 Z38.89751
X-42.82676 Z38.52221
X-42.85156 Z38.4904
X-42.90117 Z38.42476
X-42.95078 Z38.35632
X-43.00039 Z38.28492
X-43.05 Z38.21037
X-43.09609 Z38.13811
X-43.14219 Z38.06276
X-43.18828 Z37.98413
X-43.23438 Z37.90196
X-43.28047 Z37.81604
X-44.11016 Z36.24314
X-44.15625 Z36.15371
X-44.20234 Z36.05992
X-44.24844 Z35.96077
X-44.29453 Z35.85666
X-44.34063 Z35.74708
X-44.38672 Z35.63143
X-44.40977 Z35.57111
X-44.43281 Z35.50899
X-44.45586 Z35.44494
X-44.47891 Z35.37884
X-44.50195 Z35.31053
X-44.54229 Z35.18514
X-45.03203 Z33.61109
X-45.06084 Z33.51072
X-45.23945 Z32.86497
X-45.2625 Z32.77858
X-45.28555 Z32.68864
X-45.30859 Z32.59477
X-45.33164 Z32.49654
X-45.35469 Z32.39338
X-45.37773 Z32.28463
X-45.40078 Z32.16943
X-45.42383 Z32.04666
X-45.44688 Z31.91487
X-45.55059 Z31.2652
X-45.85596 Z29.11459
X-45.89629 Z28.7953
X-45.91934 Z28.59786
X-45.93662 Z28.43477
X-45.95391 Z28.25462
X-45.97119 Z28.05104
X-45.98272 Z27.89692
X-45.99424 Z27.72109
X-46. Z27.62158
X-46.635
X-46.86854 Y-56.16685 Z27.6639
X-47.06652 Y-56.11227 Z27.7844
X-47.19881 Y-56.03058 Z27.96474
X-47.24526 Y-55.93423 Z28.17748
X-47.19881 Y-55.83787 Z28.39021
X-47.06652 Y-55.75618 Z28.57056
X-46.86854 Y-55.7016 Z28.69106
X-46.635 Y-55.68244 Z28.73337
X-46.
X-45.9907 Z28.88686
X-45.9814 Z29.00916
X-45.96899 Z29.15415
X-45.95039 Z29.34478
X-45.93179 Z29.51286
X-45.91318 Z29.66464
X-45.88915 Z29.84255
X-45.72715 Z30.98242
X-45.4543 Z32.69742
X-45.42949 Z32.84241
X-45.40469 Z32.97642
X-45.37988 Z33.10141
X-45.35508 Z33.21868
X-45.34268 Z33.27235
X-45.33027 Z33.32199
X-45.30547 Z33.41571
X-45.28066 Z33.50499
X-45.25586 Z33.59031
X-45.20625 Z33.75184
X-44.58613 Z35.74253
X-44.54893 Z35.85345
X-44.51172 Z35.95977
X-44.48691 Z36.02746
X-44.46211 Z36.09277
X-44.43731 Z36.15588
X-44.4125 Z36.21693
X-44.3877 Z36.27607
X-44.36289 Z36.33342
X-44.33809 Z36.38909
X-44.31328 Z36.44317
X-44.26367 Z36.54692
X-44.20166 Z36.66909
X-43.27148 Z38.43182
X-43.24668 Z38.4779
X-43.22188 Z38.52202
X-43.19707 Z38.56435
X-43.17227 Z38.60503
X-43.12266 Z38.68225
X-43.07305 Z38.75581
X-43.02344 Z38.82618
X-42.97383 Z38.89355
X-42.92422 Z38.9581
X-42.87461 Z39.02
X-42.8126 Z39.09385
X-41.68398 Z40.40726
X-41.63438 Z40.46372
X-41.58477 Z40.51793
X-41.53516 Z40.56998
X-41.48555 Z40.61996
X-41.43594 Z40.66794
X-41.38633 Z40.71401
X-41.33672 Z40.75824
X-41.28711 Z40.80068
X-41.2375 Z40.84139
X-41.16929 Z40.89464
X-40.24531 Z41.59424
X-40.04688 Z41.73979
X-39.84844 Z41.88076
X-39.74922 Z41.94645
X-39.65 Z42.00651
X-39.55078 Z42.06119
X-39.45156 Z42.1107
X-39.35234 Z42.15523
X-37.91367 Z42.74203
X-37.86406 Z42.76146
X-37.76484 Z42.79683
X-37.66563 Z42.82764
X-37.56641 Z42.85398
X-37.46719 Z42.87594
X-37.36797 Z42.89358
X-37.26875 Z42.90749
X-36.87188 Z42.96113
X-36.84397 Z42.96625
X-36.77266 Z43.0085
X-36.67344 Z43.06265
X-36.57422 Z43.1116
X-36.475 Z43.15553
X-36.37578 Z43.19459
X-36.27656 Z43.22893
X-36.17734 Z43.25865
X-36.07813 Z43.28385
X-35.97891 Z43.30461
X-35.87969 Z43.321
X-35.78047 Z43.33306
X-35.68125 Z43.34083
X-35.58203 Z43.34433
X-35.48281 Z43.34358
X-35.38359 Z43.33857
X-35.30918 Z43.333
X-34.82549 Z43.33323
X-34.78828 Z43.33646
X-34.68906 Z43.34246
X-34.58984 Z43.34455
X-34.49063 Z43.34456
X-34.39141 Z43.34381
X-34.29219 Z43.33917
X-34.19297 Z43.33025
X-34.09375 Z43.31704
X-33.99453 Z43.29949
X-33.89531 Z43.27754
X-33.79609 Z43.25114
X-33.69688 Z43.22019
X-33.59766 Z43.1846
X-33.49844 Z43.14425
X-33.39922 Z43.09899
X-33.3 Z43.04867
X-33.20078 Z42.9931
X-33.15272 Z42.9644
X-32.65508 Z42.89706
X-32.60547 Z42.88927
X-32.50625 Z42.87048
X-32.40703 Z42.84736
X-32.30781 Z42.81983
X-32.20859 Z42.78782
X-32.10938 Z42.7512
X-30.6707 Z42.16488
X-30.62109 Z42.14379
X-30.52188 Z42.09794
X-30.42266 Z42.04706
X-30.32344 Z41.99097
X-30.22422 Z41.92943
X-30.125 Z41.86217
X-30.02578 Z41.79179
X-29.92656 Z41.72061
X-29.70332 Z41.55566
X-28.81035 Z40.87907
X-28.78555 Z40.85973
X-28.73594 Z40.8198
X-28.68633 Z40.77817
X-28.63672 Z40.73479
X-28.58711 Z40.68958
X-28.5375 Z40.64249
X-28.48789 Z40.59345
X-28.43828 Z40.54237
X-28.38867 Z40.48918
X-28.33906 Z40.43378
X-27.17324 Z39.07731
X-27.14844 Z39.04788
X-27.09883 Z38.98718
X-27.04922 Z38.92388
X-26.99961 Z38.85783
X-26.95 Z38.78888
X-26.90391 Z38.72205
X-26.85781 Z38.65236
X-26.81172 Z38.57894
X-26.76563 Z38.50002
X-26.72529 Z38.42571
X-25.79766 Z36.66778
X-25.75156 Z36.57768
X-25.70547 Z36.48306
X-25.65938 Z36.38346
X-25.61328 Z36.27836
X-25.59023 Z36.22354
X-25.56719 Z36.16708
X-25.54414 Z36.10888
X-25.52109 Z36.0488
X-25.49805 Z35.98672
X-25.45772 Z35.87277
X-25.42891 Z35.78829
X-25.39434 Z35.68082
X-24.76055 Z33.64476
X-24.7375 Z33.56783
X-24.71445 Z33.48774
X-24.69141 Z33.40416
X-24.66836 Z33.31669
X-24.65684 Z33.27031
X-24.64531 Z33.22044
X-24.62227 Z33.11186
X-24.59922 Z32.99666
X-24.57617 Z32.8739
X-24.55313 Z32.7421
X-24.50703 Z32.45505
X-24.2708 Z30.9689
X-24.10371 Z29.79155
X-24.08066 Z29.61598
X-24.06338 Z29.47094
X-24.04609 Z29.31073
X-24.02881 Z29.12969
X-24.01729 Z28.99263
X-24.0072 Z28.85625
X-24. Z28.73337
X-23.365
X-23.15487 Y-55.66327 Z28.77051
X-22.97673 Y-55.60869 Z28.87629
X-22.8577 Y-55.527 Z29.03459
X-22.81591 Y-55.43064 Z29.22133
X-22.8577 Y-55.33428 Z29.40806
X-22.97673 Y-55.2526 Z29.56636
X-23.15487 Y-55.19801 Z29.67214
X-23.365 Y-55.17885 Z29.70928
X-24.
X-24.0124 Z29.8907
X-24.02481 Z30.04534
X-24.03721 Z30.18225
X-24.05581 Z30.36443
X-24.07441 Z30.52654
X-24.09302 Z30.67352
X-24.10852 Z30.77691
X-24.44648 Z32.90165
X-24.45889 Z32.97413
X-24.5457 Z33.45901
X-24.57051 Z33.58812
X-24.59531 Z33.70745
X-24.62012 Z33.81875
X-24.64492 Z33.9233
X-24.66973 Z34.02206
X-24.69453 Z34.11578
X-24.71934 Z34.20506
X-24.74414 Z34.29037
X-24.78135 Z34.41199
X-25.0666 Z35.32814
X-25.09141 Z35.4048
X-25.46348 Z36.48907
X-25.48828 Z36.55936
X-25.51309 Z36.62705
X-25.53789 Z36.69236
X-25.5627 Z36.75546
X-25.5875 Z36.81652
X-25.6123 Z36.87566
X-25.63711 Z36.93301
X-25.66191 Z36.98867
X-25.68672 Z37.04276
X-25.73633 Z37.14651
X-25.79834 Z37.26867
X-26.20762 Z38.04402
X-26.23242 Z38.08984
X-26.29443 Z38.20065
X-26.72852 Z38.95955
X-26.77813 Z39.04423
X-26.82773 Z39.12491
X-26.87734 Z39.2019
X-26.92695 Z39.27546
X-26.97656 Z39.34583
X-27.02617 Z39.4132
X-27.07578 Z39.47775
X-27.12539 Z39.53965
X-27.1874 Z39.61349
X-28.31602 Z40.92645
X-28.36563 Z40.98292
X-28.41523 Z41.03713
X-28.46484 Z41.08892
X-28.51445 Z41.13797
X-28.56406 Z41.18448
X-28.61367 Z41.22863
X-28.66328 Z41.27058
X-28.71289 Z41.31047
X-28.7625 Z41.34865
X-28.83381 Z41.4008
X-30.15156 Z42.33504
X-30.25078 Z42.40074
X-30.35 Z42.4608
X-30.44922 Z42.51547
X-30.54844 Z42.56498
X-30.64766 Z42.60952
X-32.08633 Z43.19622
X-32.13594 Z43.21565
X-32.23516 Z43.25102
X-32.33438 Z43.28183
X-32.43359 Z43.30817
X-32.53281 Z43.33013
X-32.63203 Z43.34777
X-32.73125 Z43.36169
X-33.11417 Z43.41349
X-33.12813 Z43.42231
X-33.22734 Z43.48188
X-33.32656 Z43.53603
X-33.42578 Z43.58496
X-33.525 Z43.62856
X-33.62422 Z43.66702
X-33.72344 Z43.70058
X-33.82266 Z43.72947
X-33.92188 Z43.75394
X-34.02109 Z43.7741
X-34.12031 Z43.79001
X-34.21953 Z43.80172
X-34.31875 Z43.80927
X-34.41797 Z43.81267
X-34.51719 Z43.81194
X-34.61641 Z43.80707
X-34.72803 Z43.79701
X-35.18691 Z43.79722
X-35.31094 Z43.80637
X-35.41016 Z43.81122
X-35.50938 Z43.81288
X-35.60859 Z43.81217
X-35.70781 Z43.80766
X-35.80703 Z43.799
X-35.90625 Z43.78617
X-36.00547 Z43.76912
X-36.10469 Z43.74781
X-36.20391 Z43.72217
X-36.30313 Z43.69206
X-36.40234 Z43.65721
X-36.50156 Z43.61741
X-36.60078 Z43.57237
X-36.7 Z43.52205
X-36.79922 Z43.46647
X-36.84883 Z43.43664
X-36.88604 Z43.41335
X-37.34492 Z43.35126
X-37.39453 Z43.34347
X-37.49375 Z43.32468
X-37.59297 Z43.30155
X-37.69219 Z43.27403
X-37.79141 Z43.24201
X-37.89063 Z43.20539
X-39.3293 Z42.61917
X-39.37891 Z42.59808
X-39.47813 Z42.55223
X-39.57734 Z42.50135
X-39.67656 Z42.44526
X-39.77578 Z42.38372
X-39.875 Z42.31646
X-41.18965 Z41.38399
X-41.21445 Z41.36585
X-41.26406 Z41.32841
X-41.31367 Z41.28936
X-41.36328 Z41.24838
X-41.41289 Z41.20527
X-41.4625 Z41.15988
X-41.51211 Z41.11203
X-41.56172 Z41.06154
X-41.61133 Z41.00838
X-41.66094 Z40.95297
X-42.80195 Z39.6259
X-42.85156 Z39.56754
X-42.90117 Z39.50683
X-42.95078 Z39.44353
X-43.00039 Z39.37749
X-43.05 Z39.30854
X-43.09609 Z39.2417
X-43.14219 Z39.17202
X-43.18828 Z39.09929
X-43.23438 Z39.02329
X-43.28047 Z38.94387
X-43.71836 Z38.17821
X-43.74141 Z38.13724
X-43.7875 Z38.05311
X-44.20234 Z37.26737
X-44.24844 Z37.17726
X-44.29453 Z37.08264
X-44.34063 Z36.98305
X-44.38672 Z36.87795
X-44.40977 Z36.82313
X-44.43281 Z36.76667
X-44.45586 Z36.70846
X-44.47891 Z36.64839
X-44.50195 Z36.58631
X-44.54229 Z36.47235
X-44.89375 Z35.4488
X-44.92832 Z35.34417
X-45.23945 Z34.34483
X-45.2625 Z34.2679
X-45.28555 Z34.18781
X-45.30859 Z34.10423
X-45.33164 Z34.01675
X-45.35469 Z33.92489
X-45.37773 Z33.82806
X-45.40078 Z33.72547
X-45.42383 Z33.61616
X-45.44688 Z33.4988
X-45.49297 Z33.24355
X-45.55059 Z32.91943
X-45.89629 Z30.7461
X-45.90781 Z30.66739
X-45.91934 Z30.57749
X-45.93662 Z30.43245
X-45.95391 Z30.27224
X-45.97119 Z30.0912
X-45.98272 Z29.95414
X-45.99424 Z29.79778
X-46. Z29.70929
X-46.635
X-46.83783 Y-55.15968 Z29.74479
X-47.00979 Y-55.1051 Z29.84589
X-47.12468 Y-55.02341 Z29.99721
X-47.16503 Y-54.92705 Z30.17569
X-47.12468 Y-54.8307 Z30.35417
X-47.00979 Y-54.74901 Z30.50548
X-46.83783 Y-54.69443 Z30.60659
X-46.635 Y-54.67526 Z30.64209
X-46.
X-45.9876 Z30.80402
X-45.9752 Z30.94206
X-45.96279 Z31.06427
X-45.94419 Z31.22689
X-45.92559 Z31.37159
X-45.91318 Z31.46049
X-45.88915 Z31.6193
X-45.73335 Z32.59777
X-45.4605 Z34.12499
X-45.4419 Z34.22499
X-45.41709 Z34.34895
X-45.39229 Z34.46408
X-45.36748 Z34.57187
X-45.35508 Z34.62336
X-45.33027 Z34.72212
X-45.30547 Z34.81585
X-45.26826 Z34.94821
X-45.24346 Z35.02861
X-45.20625 Z35.13839
X-44.56133 Z37.01655
X-44.51172 Z37.15895
X-44.48691 Z37.22664
X-44.46211 Z37.29195
X-44.43731 Z37.35505
X-44.4125 Z37.4161
X-44.3877 Z37.47524
X-44.36289 Z37.53259
X-44.33809 Z37.58824
X-44.31328 Z37.64139
X-44.28848 Z37.69186
X-44.26367 Z37.73996
X-44.20166 Z37.85299
X-43.24668 Z39.52207
X-43.22188 Z39.56389
X-43.17227 Z39.64457
X-43.12266 Z39.72156
X-43.07305 Z39.79512
X-43.02344 Z39.86548
X-42.97383 Z39.93286
X-42.92422 Z39.99741
X-42.87461 Z40.0593
X-42.8126 Z40.13315
X-42.42813 Z40.58026
X-42.32891 Z40.69277
X-42.22969 Z40.80187
X-41.65918 Z41.42271
X-41.63438 Z41.44892
X-41.58477 Z41.49976
X-41.53516 Z41.54857
X-41.48555 Z41.59544
X-41.43594 Z41.64044
X-41.38633 Z41.68365
X-41.33672 Z41.72512
X-41.28711 Z41.76492
X-41.2375 Z41.8031
X-41.16619 Z41.85524
X-39.84844 Z42.78933
X-39.74922 Z42.85503
X-39.65 Z42.91509
X-39.55078 Z42.96976
X-39.45156 Z43.01927
X-39.35234 Z43.06381
X-37.91367 Z43.65041
X-37.86406 Z43.66984
X-37.76484 Z43.70522
X-37.66563 Z43.73602
X-37.56641 Z43.76236
X-37.46719 Z43.78432
X-37.36797 Z43.80196
X-37.26875 Z43.81588
X-36.87808 Z43.8686
X-36.77266 Z43.93019
X-36.67344 Z43.98277
X-36.57422 Z44.0303
X-36.475 Z44.07295
X-36.37578 Z44.11082
X-36.27656 Z44.14389
X-36.17734 Z44.17236
X-36.07813 Z44.19638
X-35.97891 Z44.21611
X-35.87969 Z44.23166
X-35.78047 Z44.24311
X-35.68125 Z44.25049
X-35.58203 Z44.25381
X-34.49063 Z44.25402
X-34.39141 Z44.25332
X-34.29219 Z44.24891
X-34.19297 Z44.24045
X-34.09375 Z44.2279
X-33.99453 Z44.21124
X-33.89531 Z44.19038
X-33.79609 Z44.16518
X-33.69688 Z44.13549
