%
G17 G21 G40 G90 G64 P0.1
(Parallel Finishing)
(Ballnose 1/4" carbide)
T43 M06
S24000 M3
G0 Z57.70068
X26.99998 Y-68.28618
G1 Z2.79737 F1200.
Z2.19737 F3600.
X27.19842 Z2.70803 F4800.
X27.21082 Z2.73642
X27.22323 Z2.76272
X27.24803 Z2.81031
X27.25423 Z2.82134
X27.26043 Z2.8351
X27.29764 Z2.92452
X27.31004 Z2.95144
X27.32245 Z2.97653
X27.34725 Z3.02223
X27.39686 Z3.10367
X28.09139 Z4.2308
X28.141 Z4.31209
X28.1658 Z4.3516
X28.28983 Z4.53005
X28.33944 Z4.60065
X28.36424 Z4.63279
X28.58749 Z4.89728
X28.78592 Z5.13041
X29.26341 Z5.61826
X29.33162 Z5.69606
X29.35643 Z5.72327
X29.38123 Z5.74865
X29.43084 Z5.79461
X29.50526 Z5.85741
X29.57967 Z5.92823
X29.62928 Z5.9738
X29.67889 Z6.01409
X29.82772 Z6.12891
X30.07577 Z6.3374
X30.12537 Z6.37488
X30.17498 Z6.40854
X30.81991 Z6.83978
X30.86952 Z6.87062
X30.91913 Z6.89777
X31.06795 Z6.97347
X31.11756 Z7.00104
X31.16717 Z7.02546
X31.21678 Z7.04915
X31.56405 Z7.22576
X31.66327 Z7.27577
X31.71288 Z7.29772
X31.76249 Z7.31668
X32.55624 Z7.59947
X32.75467 Z7.65091
X32.95311 Z7.69101
X33.15155 Z7.7303
X33.4492 Z7.79336
X33.49881 Z7.80187
X33.54842 Z7.80794
X34.39178 Z7.86757
X34.44139 Z7.86917
X35.5328 Z7.86921
X35.58241 Z7.8687
X35.63202 Z7.86598
X36.47537 Z7.80383
X36.52499 Z7.7984
X36.92186 Z7.71833
X37.21952 Z7.66017
X37.26912 Z7.64837
X37.31873 Z7.63398
X37.36834 Z7.61714
X37.39315 Z7.60962
X37.46756 Z7.59233
X37.51717 Z7.57799
X37.71561 Z7.50522
X38.36053 Z7.2639
X38.41014 Z7.24364
X38.45975 Z7.22029
X38.7326 Z7.07524
X38.85662 Z7.01766
X38.90624 Z6.99178
X38.95584 Z6.96238
X39.03026 Z6.91612
X39.20389 Z6.82344
X39.2535 Z6.79635
X39.30311 Z6.7659
X39.99764 Z6.27768
X40.04725 Z6.24217
X40.09686 Z6.20253
X40.19608 Z6.11456
X40.22088 Z6.09316
X40.34491 Z5.99759
X40.39452 Z5.95497
X40.64256 Z5.71756
X40.76659 Z5.60623
X40.79139 Z5.58215
X40.841 Z5.52922
X41.3867 Z4.92954
X41.41151 Z4.90176
X41.63475 Z4.63563
X41.65955 Z4.6037
X41.68436 Z4.56903
X41.95721 Z4.17473
X41.98202 Z4.14082
X42.00682 Z4.10393
X42.03162 Z4.06326
X42.05643 Z4.02053
X42.65174 Z3.04436
X42.67655 Z3.00103
X42.68895 Z2.97744
X42.70135 Z2.95229
X42.71375 Z2.92533
X42.85018 Z2.59676
X42.87499 Z2.55025
X42.89061 Z2.51988
X42.90624 Z2.48679
X42.92187 Z2.45028
X42.9375 Z2.40935
X43.00001 Z2.23766
X43.63501
X43.79698 Y-68.30879 Z2.33626
X43.97127 Y-68.32622 Z2.41231
X44.15461 Y-68.33816 Z2.46438
X44.34353 Y-68.34438 Z2.49149
X44.53448 Y-68.34475 Z2.49313
X44.72387 Y-68.33928 Z2.46927
X44.90811 Y-68.32807 Z2.42036
X45.08376 Y-68.31132 Z2.34732
X45.24748 Y-68.28936 Z2.25153
X45.39621 Y-68.2626 Z2.13479
X45.52714 Y-68.23153 Z1.99929
X45.6378 Y-68.19675 Z1.8476
X45.72611 Y-68.15892 Z1.68257
X45.7904 Y-68.11873 Z1.50731
X45.82947 Y-68.07696 Z1.32512
X45.84257 Y-68.03439 Z1.13943
X45.80402 Y-67.9617 Z0.82239
X45.69049 Y-67.89304 Z0.52292
X45.50828 Y-67.83222 Z0.25762
X45.26749 Y-67.7826 Z0.04119
X44.63249
X44.60769 Z0.15391
X44.45886 Z0.87199
X44.44646 Z0.92613
X44.43405 Z0.97429
X44.42165 Z1.01803
X44.40925 Z1.05832
X44.39685 Z1.09582
X44.36584 Z1.18236
X44.31003 Z1.37841
X44.29763 Z1.41826
X44.28523 Z1.4554
X44.27283 Z1.49028
X43.93796 Z2.35866
X43.78913 Z2.76493
X43.76433 Z2.8262
X43.73952 Z2.88217
X43.6403 Z3.08253
X43.54109 Z3.30076
X43.51628 Z3.35392
X43.49148 Z3.40336
X43.46667 Z3.44961
X43.44187 Z3.4931
X42.84655 Z4.49572
X42.82175 Z4.53903
X42.79695 Z4.57994
X42.77214 Z4.61872
X42.74734 Z4.6556
X42.64812 Z4.79425
X42.40007 Z5.14345
X42.35046 Z5.20783
X42.15202 Z5.45357
X42.10241 Z5.51268
X42.0528 Z5.56781
X41.5071 Z6.16749
X41.45749 Z6.22012
X41.40788 Z6.26907
X41.35827 Z6.31472
X41.25905 Z6.40329
X41.06062 Z6.58859
X40.66374 Z6.93054
X40.61413 Z6.96971
X40.56452 Z7.00638
X39.86999 Z7.49544
X39.82038 Z7.52949
X39.77077 Z7.56139
X39.72116 Z7.59124
X39.67155 Z7.61914
X39.47312 Z7.72512
X39.3739 Z7.78309
X39.32429 Z7.81053
X39.27468 Z7.83616
X39.17546 Z7.88475
X38.8778 Z8.04233
X38.8282 Z8.06655
X38.77859 Z8.08908
X38.72898 Z8.10997
X38.67937 Z8.12929
X37.88562 Z8.42628
X37.7864 Z8.46007
X37.68718 Z8.4881
X37.58796 Z8.51141
X37.48874 Z8.53938
X37.38952 Z8.56204
X37.09187 Z8.6232
X36.89343 Z8.66517
X36.79421 Z8.6871
X36.69499 Z8.7055
X36.59577 Z8.71869
X36.49655 Z8.72707
X35.7028 Z8.7855
X35.60359 Z8.79071
X35.50437 Z8.79144
X34.51218
X34.41296 Z8.79109
X34.31374 Z8.7867
X33.51999 Z8.73085
X33.42077 Z8.72171
X33.32156 Z8.70747
X33.22234 Z8.6881
X33.12312 Z8.66704
X32.62702 Z8.56466
X32.52781 Z8.54278
X32.4782 Z8.53016
X32.42859 Z8.51941
X32.32937 Z8.49406
X32.23015 Z8.46307
X31.4364 Z8.17946
X31.38679 Z8.16061
X31.33718 Z8.14019
X31.28757 Z8.11816
X31.23796 Z8.09445
X30.74187 Z7.84346
X30.54343 Z7.74136
X30.44421 Z7.68959
X30.3946 Z7.66122
X30.34499 Z7.63088
X29.65046 Z7.16722
X29.60085 Z7.13347
X29.55124 Z7.09753
X29.50163 Z7.05914
X29.45202 Z7.01818
X29.25359 Z6.8511
X29.05515 Z6.69172
X29.00554 Z6.64895
X28.90632 Z6.55872
X28.85671 Z6.51695
X28.8071 Z6.47418
X28.75749 Z6.42842
X28.70788 Z6.37934
X28.65827 Z6.32658
X28.60866 Z6.27082
X28.16218 Z5.81312
X28.11257 Z5.76143
X28.06296 Z5.70596
X27.66609 Z5.22763
X27.61648 Z5.165
X27.44284 Z4.92733
X27.41804 Z4.89216
X27.39323 Z4.85526
X27.36843 Z4.81645
X26.57468 Z3.51387
X26.54988 Z3.47156
X26.52507 Z3.42667
X26.50027 Z3.3788
X26.47546 Z3.32743
X26.37624 Z3.12894
X26.35144 Z3.07296
X26.32663 Z3.01171
X26.05378 Z2.30813
X25.75613 Z1.55952
X25.73132 Z1.49548
X25.71892 Z1.46086
X25.70652 Z1.42403
X25.68791 Z1.36469
X25.66931 Z1.31562
X25.65691 Z1.28061
X25.6445 Z1.2433
X25.6321 Z1.20323
X25.6197 Z1.15977
X25.6073 Z1.11198
X25.59489 Z1.05838
X25.36751 Z0.02165
X24.73251
X24.64358 Y-67.8589 Z0.02493
X24.53587 Y-67.9051 Z0.02692
X24.41925 Y-67.91697 Z0.02743
X24.30442 Y-67.89341 Z0.02642
X24.20192 Y-67.83659 Z0.02397
X24.12115 Y-67.75171 Z0.02033
X24.06953 Y-67.64657 Z0.0158
X24.05177 Y-67.5308 Z0.01083
X24.07585 Y-67.39655 Z0.00505
X24.14508 Y-67.27901 Z0.
X24.78008
X24.84031
X24.85449 Z0.06282
X25.10254 Z1.19332
X25.11494 Z1.24507
X25.12735 Z1.29247
X25.13975 Z1.33642
X25.15215 Z1.37753
X25.16455 Z1.41627
X25.18936 Z1.48788
X25.20796 Z1.53738
X25.23897 Z1.63079
X25.25137 Z1.66549
X25.27617 Z1.73044
X25.57383 Z2.48115
X25.77227 Z2.99252
X25.87149 Z3.24693
X25.89629 Z3.30507
X25.9211 Z3.35943
X25.9459 Z3.41056
X25.97071 Z3.45889
X26.00791 Z3.52733
X26.04512 Z3.60417
X26.06992 Z3.65248
X26.09473 Z3.69833
X26.11953 Z3.742
X26.16914 Z3.82453
X26.93809 Z5.09003
X26.96289 Z5.12887
X27.0125 Z5.20209
X27.21094 Z5.4716
X27.26055 Z5.53482
X27.65742 Z6.01645
X27.70703 Z6.07368
X27.75664 Z6.12754
X28.20313 Z6.58623
X28.25274 Z6.63791
X28.30235 Z6.69287
X28.35196 Z6.74468
X28.40156 Z6.7936
X28.45117 Z6.83987
X28.50078 Z6.88369
X28.55039 Z6.92563
X28.6 Z6.96865
X28.64961 Z7.01337
X28.69922 Z7.05721
X28.74883 Z7.09879
X28.94727 Z7.25979
X29.14571 Z7.42681
X29.19531 Z7.46703
X29.24492 Z7.50519
X29.29453 Z7.54141
X29.34414 Z7.57578
X30.03867 Z8.04011
X30.08828 Z8.07178
X30.13789 Z8.10182
X30.23711 Z8.15728
X30.93164 Z8.51087
X31.03086 Z8.56081
X31.13008 Z8.6062
X31.2293 Z8.64645
X31.32852 Z8.68246
X32.02305 Z8.93077
X32.12227 Z8.9643
X32.22149 Z8.99327
X32.32071 Z9.01781
X32.38272 Z9.03153
X32.41992 Z9.04083
X32.49434 Z9.05764
X32.91602 Z9.14436
X33.11446 Z9.18648
X33.21367 Z9.20627
X33.31289 Z9.22198
X33.41211 Z9.2336
X33.51133 Z9.24142
X34.30508 Z9.2979
X34.4043 Z9.3018
X35.59492 Z9.30181
X35.69414 Z9.29795
X35.79336 Z9.29013
X36.58711 Z9.23164
X36.68633 Z9.22156
X36.78555 Z9.2074
X36.88477 Z9.1891
X37.08321 Z9.14568
X37.52969 Z9.05247
X37.5793 Z9.04102
X37.65371 Z9.02184
X37.67852 Z9.01491
X37.77774 Z8.99095
X37.87696 Z8.96507
X37.97617 Z8.93472
X38.07539 Z8.89973
X38.86914 Z8.6027
X38.96836 Z8.56258
X39.06758 Z8.51732
X39.46446 Z8.31022
X39.56367 Z8.25971
X39.66289 Z8.20391
X39.7125 Z8.17536
X39.86133 Z8.09592
X39.96055 Z8.04182
X40.01016 Z8.01271
X40.05977 Z7.98202
X40.10938 Z7.94968
X40.15899 Z7.91559
X40.85352 Z7.42658
X40.90313 Z7.39045
X40.95274 Z7.35239
X41.00235 Z7.31226
X41.05196 Z7.26995
X41.15117 Z7.18174
X41.3 Z7.05805
X41.34961 Z7.01423
X41.59766 Z6.78456
X41.74649 Z6.65068
X41.7961 Z6.6028
X41.84571 Z6.55213
X42.44102 Z5.89884
X42.49063 Z5.84335
X42.54024 Z5.78442
X42.73867 Z5.53608
X42.78828 Z5.47284
X42.83789 Z5.40525
X43.03633 Z5.12743
X43.13555 Z4.98983
X43.18516 Z4.91855
X43.20996 Z4.8808
X43.23477 Z4.84148
X43.89523 Z3.71964
X43.91694 Z3.68065
X43.93866 Z3.63993
X43.96038 Z3.59727
X43.98209 Z3.55245
X44.11239 Z3.27335
X44.15582 Z3.19148
X44.17754 Z3.1483
X44.19926 Z3.10288
X44.22097 Z3.05491
X44.24269 Z3.00402
X44.2644 Z2.94969
X44.40556 Z2.56339
X44.74216 Z1.68606
X44.76388 Z1.62606
X44.78559 Z1.56062
X44.80731 Z1.48839
X44.84803 Z1.34841
X44.87246 Z1.28065
X44.89418 Z1.21603
X44.91589 Z1.14465
X44.92675 Z1.10573
X44.93761 Z1.0641
X44.94847 Z1.01917
X44.95932 Z0.97006
X45.10048 Z0.28847
X45.16359 Z0.
X45.21992
X45.85492
X45.93124 Y-67.32179
X46.01636 Y-67.34203
X46.10376 Y-67.33816
X46.18677 Y-67.3105
X46.25901 Y-67.26114
X46.31496 Y-67.19388
X46.35035 Y-67.11387
X46.36245 Y-67.02721
X46.32951 Y-66.88668
X46.23753 Y-66.77542
X45.60253
X45.50363
X45.4289 Z0.34192
X45.28007 Z1.05949
X45.26767 Z1.11368
X45.25527 Z1.16349
X45.24287 Z1.20978
X45.23046 Z1.25318
X45.21806 Z1.29414
X45.20566 Z1.333
X45.15605 Z1.47761
X45.10644 Z1.64474
X45.08164 Z1.7209
X45.05683 Z1.79051
X44.70957 Z2.6999
X44.58554 Z3.04024
X44.56074 Z3.10428
X44.53593 Z3.16405
X44.51113 Z3.22022
X44.48632 Z3.27329
X44.46152 Z3.32365
X44.43671 Z3.37161
X44.41191 Z3.41742
X44.3623 Z3.52075
X44.26308 Z3.72954
X44.23828 Z3.77895
X44.21347 Z3.82606
X44.18867 Z3.87112
X44.16386 Z3.91431
X43.61816 Z4.84465
X43.54375 Z4.97286
X43.51894 Z5.01388
X43.46933 Z5.09148
X43.41972 Z5.16385
X43.07246 Z5.64621
X43.02285 Z5.71116
X42.82441 Z5.96136
X42.7748 Z6.02233
X42.72519 Z6.07998
X42.12988 Z6.73459
X42.08027 Z6.78776
X42.03066 Z6.83828
X41.93144 Z6.93618
X41.81982 Z7.0425
X41.48496 Z7.35138
X41.43535 Z7.39501
X41.38574 Z7.4369
X41.33613 Z7.47711
X41.28652 Z7.5157
X41.23691 Z7.55271
X41.21211 Z7.57064
X41.13769 Z7.62964
X41.08808 Z7.6671
X41.03847 Z7.70287
X40.84003 Z7.84275
X40.6416 Z7.98464
X40.1455 Z8.33205
X40.04628 Z8.39959
X39.94707 Z8.46391
X39.84785 Z8.52504
X39.74863 Z8.58314
X39.64941 Z8.6402
X39.55019 Z8.69321
X39.45097 Z8.74121
X39.35175 Z8.78438
X38.85566 Z8.98249
X37.91308 Z9.35675
X37.86347 Z9.37549
X37.76425 Z9.40958
X37.66503 Z9.43927
X37.56582 Z9.46466
X37.4666 Z9.48582
X37.36738 Z9.50281
X37.26816 Z9.51629
X35.85429 Z9.70219
X35.77988 Z9.71035
X35.68066 Z9.71768
X35.58144 Z9.72097
X35.48222 Z9.72023
X35.39541 Z9.71638
X34.61406 Z9.71615
X34.49003 Z9.72085
X34.39082 Z9.72046
X34.2916 Z9.71604
X34.19238 Z9.70757
X34.14277 Z9.70182
X32.65449 Z9.506
X32.60488 Z9.49848
X32.50566 Z9.48032
X32.40644 Z9.45799
X32.30722 Z9.43141
X32.208 Z9.4005
X32.10878 Z9.36515
X31.17861 Z8.99634
X30.91816 Z8.90215
X30.81894 Z8.86388
X30.71972 Z8.82216
X30.6205 Z8.77674
X30.47167 Z8.70421
X30.42207 Z8.6789
X30.32285 Z8.62445
X30.22363 Z8.56472
X30.11201 Z8.49087
X29.93837 Z8.37025
X29.82675 Z8.29998
X29.72753 Z8.23858
X29.65312 Z8.19006
X29.13222 Z7.84324
X29.08261 Z7.80873
X29.033 Z7.77251
X28.98339 Z7.73449
X28.63613 Z7.45483
X28.58652 Z7.41369
X28.53691 Z7.37084
X28.4873 Z7.3262
X28.43769 Z7.27972
X28.38808 Z7.23131
X28.34157 Z7.18431
X28.28886 Z7.13981
X28.23925 Z7.09633
X28.18964 Z7.05072
X28.14003 Z7.00283
X27.9416 Z6.79544
X27.54472 Z6.38766
X27.49511 Z6.33522
X27.4455 Z6.28008
X27.38349 Z6.207
X26.99902 Z5.73858
X26.94941 Z5.6753
X26.75097 Z5.40789
X26.70136 Z5.33601
X26.65175 Z5.25899
X25.8454 Z3.92917
X25.81173 Z3.8708
X25.77806 Z3.80897
X25.74438 Z3.74317
X25.71913 Z3.69159
X25.67704 Z3.61455
X25.64336 Z3.54863
X25.60969 Z3.47804
X25.59285 Z3.44072
X25.57602 Z3.40188
X25.55918 Z3.36133
X25.27296 Z2.62425
X24.95307 Z1.8154
X24.93623 Z1.77009
X24.9194 Z1.72221
X24.90256 Z1.67132
X24.86889 Z1.57886
X24.85205 Z1.52986
X24.83521 Z1.47765
X24.81838 Z1.42159
X24.80154 Z1.36076
X24.7847 Z1.29384
X24.76787 Z1.21927
X24.51532 Z0.06864
X24.49979 Z0.
X24.39746
X23.76246
X23.63146 Y-66.79485
X23.50675 Y-66.75024
X23.41781 Y-66.6521
X23.38563 Y-66.52363
X23.43156 Y-66.37221
X23.55387 Y-66.27183
X24.18887
X24.28031
X24.3129 Z0.1441
X24.57334 Z1.33023
X24.58575 Z1.38127
X24.59815 Z1.42881
X24.61055 Z1.47345
X24.62295 Z1.51563
X24.64776 Z1.59391
X24.66016 Z1.63049
X24.68497 Z1.69943
X24.69737 Z1.73205
X24.70977 Z1.76941
X24.73458 Z1.84091
X24.75938 Z1.90716
X24.98262 Z2.472
X25.3795 Z3.48675
X25.4043 Z3.54349
X25.42911 Z3.59726
X25.45391 Z3.64842
X25.47872 Z3.69726
X25.50352 Z3.74402
X25.52988 Z3.79186
X25.55313 Z3.84218
X25.57793 Z3.89413
X25.60274 Z3.94443
X25.62755 Z3.99319
X25.67715 Z4.08645
X25.72676 Z4.17456
X25.77637 Z4.25808
X26.4709 Z5.40328
X26.52051 Z5.47988
X26.57012 Z5.55158
X26.65694 Z5.66917
X26.66934 Z5.68805
X26.74376 Z5.80681
X26.76856 Z5.84519
X26.81817 Z5.91922
X26.86778 Z5.98985
X26.91739 Z6.05732
X26.967 Z6.12185
X27.01661 Z6.18361
X27.26465 Z6.48571
X27.31426 Z6.5446
X27.36387 Z6.6005
X27.42898 Z6.66971
X27.81036 Z7.06144
X27.85997 Z7.11049
X27.90958 Z7.15732
X27.97159 Z7.2136
X28.30645 Z7.57066
X28.35606 Z7.62243
X28.40567 Z7.67213
X28.45528 Z7.71985
X28.50489 Z7.76566
X28.5545 Z7.80966
X28.60411 Z7.8519
X28.65372 Z7.89247
X28.75294 Z7.97238
X28.80254 Z8.01093
X28.85215 Z8.04765
X28.90176 Z8.08263
X29.1002 Z8.21509
X29.18702 Z8.2717
X30.142 Z8.93148
X30.24122 Z8.99539
X30.34044 Z9.05383
X30.43965 Z9.10706
X30.53887 Z9.15529
X30.63809 Z9.19871
X32.07676 Z9.77034
X32.12637 Z9.7893
X32.22559 Z9.82386
X32.32481 Z9.85399
X32.42403 Z9.87982
X32.52325 Z9.9014
X32.62247 Z9.91882
X32.67208 Z9.92598
X34.16036 Z10.12153
X34.20997 Z10.12693
X34.30919 Z10.13467
X34.4084 Z10.13838
X34.50762 Z10.13805
X34.60684 Z10.13369
X34.65645 Z10.13073
X35.35098 Z10.13117
X35.40059 Z10.13416
X35.49981 Z10.13821
X35.59903 Z10.13824
X35.69825 Z10.13423
X35.79747 Z10.12618
X35.87188 Z10.11748
X37.33536 Z9.92497
X37.38497 Z9.91765
X37.48418 Z9.89993
X37.5834 Z9.87803
X37.68262 Z9.85188
X37.78184 Z9.82142
X37.88106 Z9.78653
X37.98028 Z9.74769
X39.34454 Z9.20582
X39.36934 Z9.19561
X39.46856 Z9.15185
X39.56778 Z9.10325
X39.667 Z9.04964
X39.76622 Z8.9908
X39.87784 Z8.91803
X40.7584 Z8.30962
X41.20489 Z7.99922
X41.2545 Z7.9632
X41.30411 Z7.92563
X41.35372 Z7.88648
X41.40333 Z7.84568
X41.45293 Z7.80318
X41.52115 Z7.74185
X41.65137 Z7.62143
X41.75059 Z7.52616
X41.84981 Z7.42567
X41.92422 Z7.34676
X42.24668 Z6.99442
X42.3459 Z6.88408
X42.46993 Z6.7428
X42.842 Z6.34594
X42.89161 Z6.29118
X42.94122 Z6.23409
X42.99083 Z6.17453
X43.04043 Z6.11236
X43.09004 Z6.04741
X43.13965 Z5.9795
X43.39964 Z5.61673
X43.43983 Z5.55857
X43.48002 Z5.49875
X43.52021 Z5.43718
X43.5604 Z5.37379
X43.6006 Z5.30849
X43.66088 Z5.20687
X44.10299 Z4.45162
X44.20347 Z4.29075
X44.24366 Z4.22486
X44.28385 Z4.15611
X44.32404 Z4.08426
X44.36423 Z4.00902
X44.40442 Z3.93006
X44.44462 Z3.84715
X44.60538 Z3.51107
X44.64557 Z3.43397
X44.66567 Z3.39395
X44.68577 Z3.35239
X44.70586 Z3.30912
X44.72596 Z3.26396
X44.74605 Z3.21669
X44.76615 Z3.16705
X44.78624 Z3.11469
X44.92691 Z2.72994
X45.24845 Z1.88692
X45.26854 Z1.8325
X45.28864 Z1.77457
X45.30873 Z1.71247
X45.364 Z1.52826
X45.38912 Z1.4586
X45.40921 Z1.39925
X45.42931 Z1.33542
X45.4494 Z1.26605
X45.4695 Z1.18955
X45.47955 Z1.14789
X45.48959 Z1.10339
X45.63027 Z0.42486
X45.72262 Z0.
X45.81113
X46.44613
X46.56283 Y-66.27384
X46.66861 Y-66.22449
X46.74206 Y-66.13377
X46.76831 Y-66.02004
X46.75417 Y-65.93554
X46.71328 Y-65.86026
X46.65011 Y-65.80239
X46.57153 Y-65.76825
X45.93653
X45.84582
X45.7443 Z0.46625
X45.61407 Z1.09513
X45.60167 Z1.15252
X45.58927 Z1.20529
X45.57687 Z1.25438
X45.56446 Z1.30041
X45.53966 Z1.38574
X45.51486 Z1.47855
X45.48075 Z1.59691
X45.36603 Z1.97843
X45.34122 Z2.05565
X45.31642 Z2.1288
X45.29161 Z2.19836
X45.26681 Z2.26475
X45.2296 Z2.35908
X45.12418 Z2.6187
X44.77071 Z3.54593
X44.74591 Z3.60956
X44.72111 Z3.67108
X44.6963 Z3.73064
X44.6715 Z3.78839
X44.64669 Z3.84443
X44.62189 Z3.89888
X44.57228 Z4.00372
X44.42345 Z4.31471
X44.39864 Z4.36511
X44.34903 Z4.46134
X44.29943 Z4.5521
X44.24982 Z4.63797
X44.20021 Z4.71943
X43.80333 Z5.3551
X43.53048 Z5.82118
X43.50568 Z5.86266
X43.45607 Z5.94333
X43.40646 Z6.0211
X43.35685 Z6.09613
X43.30724 Z6.16858
X43.25763 Z6.23859
X43.1088 Z6.44553
X43.05919 Z6.51158
X43.00958 Z6.57478
X42.95997 Z6.63531
X42.91036 Z6.69332
X42.86075 Z6.74894
X42.76153 Z6.8553
X41.86857 Z7.80713
X41.67013 Z8.01724
X41.62052 Z8.06773
X41.57091 Z8.1162
X41.5213 Z8.16275
X41.47169 Z8.20744
X41.42208 Z8.25035
X41.37247 Z8.29155
X41.32286 Z8.33109
X41.27325 Z8.36903
X41.22364 Z8.40542
X41.17404 Z8.44032
X39.88419 Z9.33122
X39.78497 Z9.39662
X39.68575 Z9.45648
X39.58653 Z9.51106
X39.48732 Z9.56059
X39.3881 Z9.60526
X39.31368 Z9.63571
X37.89982 Z10.19699
X37.8006 Z10.23272
X37.70138 Z10.26402
X37.60216 Z10.29097
X37.50294 Z10.31366
X37.40372 Z10.33218
X37.32931 Z10.34335
X35.86583 Z10.53583
X35.81622 Z10.54176
X35.717 Z10.55057
X35.61778 Z10.55534
X35.51857 Z10.55608
X35.41935 Z10.55279
X35.32013 Z10.54596
X34.70001 Z10.5453
X34.67521 Z10.5459
X34.6256 Z10.54997
X34.52638 Z10.55509
X34.42716 Z10.55618
X34.32794 Z10.55324
X34.22872 Z10.54626
X34.1295 Z10.53522
X32.64122 Z10.3392
X32.542 Z10.32257
X32.44279 Z10.30177
X32.34357 Z10.27676
X32.24435 Z10.24744
X32.14513 Z10.21374
X32.07071 Z10.1855
X30.65685 Z9.62394
X30.55763 Z9.58142
X30.45841 Z9.53411
X30.35919 Z9.48185
X30.25997 Z9.42441
X30.16075 Z9.36155
X30.06154 Z9.29374
X28.8213 Z8.43709
X28.77169 Z8.40206
X28.72208 Z8.36553
X28.67247 Z8.32743
X28.62286 Z8.28774
X28.57325 Z8.24639
X28.52364 Z8.20331
X28.47404 Z8.15845
X28.42443 Z8.11173
X28.37482 Z8.06307
X28.3066 Z7.99283
X27.97794 Z7.6438
X27.59967 Z7.24088
X27.53146 Z7.17531
X27.48185 Z7.12498
X27.28341 Z6.92067
X27.2338 Z6.86688
X27.18419 Z6.81028
X27.13458 Z6.75074
X26.98575 Z6.56895
X26.93614 Z6.50549
X26.88654 Z6.43916
X26.84242 Z6.37761
X26.79831 Z6.31346
X26.7542 Z6.24653
X26.71009 Z6.17673
X26.45646 Z5.77122
X26.40132 Z5.69627
X26.35721 Z5.63284
X26.3131 Z5.5656
X26.26899 Z5.49418
X25.76172 Z4.65729
X25.73966 Z4.62014
X25.69555 Z4.54314
X25.65144 Z4.46224
X25.60733 Z4.37701
X25.56322 Z4.28696
X25.51911 Z4.19146
X25.49705 Z4.14143
X25.45846 Z4.04978
X25.39229 Z3.88785
X25.34267 Z3.7869
X25.32061 Z3.73966
X25.29856 Z3.6903
X25.2765 Z3.63858
X25.25445 Z3.58418
X24.74718 Z2.30091
X24.72512 Z2.24348
X24.70307 Z2.18372
X24.68101 Z2.12139
X24.65896 Z2.0562
X24.6369 Z1.98778
X24.61485 Z1.91571
X24.59279 Z1.83942
X24.57073 Z1.7582
X24.55419 Z1.69428
X24.52662 Z1.6098
X24.50457 Z1.53882
X24.48251 Z1.46111
X24.47149 Z1.41911
X24.46046 Z1.37454
X24.4384 Z1.27671
X24.23991 Z0.37277
X24.15571 Z0.
X24.06346
X23.42846
X23.32205 Y-65.759
X23.22887 Y-65.7068
X23.16542 Y-65.62087
X23.14295 Y-65.51645
X23.15934 Y-65.42673
X23.20639 Y-65.34859
X23.27803 Y-65.29214
X23.365 Y-65.26466
X24.
X24.06359
X24.07441 Z0.05614
X24.08682 Z0.11652
X24.11162 Z0.22849
X24.42168 Z1.60054
X24.43408 Z1.6527
X24.44648 Z1.70169
X24.45889 Z1.74799
X24.48369 Z1.83393
X24.49997 Z1.88735
X24.5457 Z2.08228
X24.57051 Z2.18079
X24.59531 Z2.27183
X24.62012 Z2.35675
X24.64492 Z2.43651
X24.66973 Z2.51186
X24.69453 Z2.58337
X24.71934 Z2.65148
X24.75654 Z2.74812
X25.16582 Z3.78334
X25.19062 Z3.84346
X25.21543 Z3.90036
X25.24023 Z3.95444
X25.28364 Z4.04368
X25.46348 Z4.48545
X25.48828 Z4.54452
X25.51309 Z4.6014
X25.53789 Z4.65628
X25.5627 Z4.7093
X25.5875 Z4.7606
X25.6123 Z4.8103
X25.63711 Z4.85849
X25.68672 Z4.95071
X25.73633 Z5.03789
X25.78594 Z5.12075
X26.1332 Z5.69295
X26.18281 Z5.76932
X26.23242 Z5.84081
X26.25723 Z5.87518
X26.72852 Z6.62963
X26.77812 Z6.70662
X26.82773 Z6.77998
X26.87734 Z6.84998
X26.92695 Z6.91687
X26.97656 Z6.98085
X27.03857 Z7.05719
X27.07578 Z7.10117
X27.12539 Z7.15721
X27.175 Z7.2107
X28.31602 Z8.42032
X28.36562 Z8.47139
X28.41523 Z8.52042
X28.46484 Z8.56749
X28.51445 Z8.61269
X28.56406 Z8.65609
X28.61367 Z8.69776
X28.66328 Z8.73776
X28.71289 Z8.77614
X28.7625 Z8.81296
X28.83691 Z8.86543
X30.12676 Z9.75628
X30.15156 Z9.773
X30.25078 Z9.83637
X30.35 Z9.8943
X30.44922 Z9.94704
X30.54844 Z9.99479
X30.64766 Z10.03775
X32.08633 Z10.60919
X32.13594 Z10.62794
X32.23516 Z10.66206
X32.33437 Z10.69178
X32.43359 Z10.71719
X32.53281 Z10.73837
X32.63203 Z10.75539
X32.73125 Z10.76888
X34.14512 Z10.95478
X34.21953 Z10.96296
X34.31875 Z10.97032
X34.41797 Z10.97363
X34.51719 Z10.97292
X34.61641 Z10.96817
X34.71562 Z10.95988
X35.21172 Z10.95989
X35.26133 Z10.96071
X35.31094 Z10.96213
X35.41016 Z10.96984
X35.50937 Z10.9735
X35.60859 Z10.97314
X35.70781 Z10.96874
X35.80703 Z10.9603
X35.85664 Z10.95456
X37.34492 Z10.75875
X37.39453 Z10.75124
X37.49375 Z10.73311
X37.59297 Z10.7108
X37.69219 Z10.68425
X37.79141 Z10.65336
X37.89062 Z10.61804
X39.3293 Z10.04706
X39.37891 Z10.02671
X39.47812 Z9.98249
X39.57734 Z9.93342
X39.67656 Z9.87931
X39.77578 Z9.81995
X39.8874 Z9.74657
X41.21445 Z8.82955
X41.26406 Z8.79344
X41.31367 Z8.75579
X41.36328 Z8.71655
X41.41289 Z8.67566
X41.4625 Z8.63307
X41.51211 Z8.58872
X41.56172 Z8.54253
X41.61133 Z8.49442
X41.66094 Z8.44431
X41.85937 Z8.23443
X42.85156 Z7.18224
X42.90117 Z7.12724
X42.95078 Z7.06968
X43.00039 Z7.00964
X43.05 Z6.94694
X43.09609 Z6.88617
X43.18828 Z6.75834
X43.23437 Z6.69197
X43.28047 Z6.6234
X43.32656 Z6.55255
X43.37266 Z6.47927
X43.41875 Z6.40344
X43.5167 Z6.2371
X44.20234 Z5.13945
X44.24844 Z5.06374
X44.29453 Z4.98422
X44.34062 Z4.90054
X44.38672 Z4.81222
X44.43281 Z4.71872
X44.54805 Z4.4778
X44.57109 Z4.42878
X44.61719 Z4.32681
X44.64023 Z4.2737
X44.66328 Z4.21906
X44.68633 Z4.16279
X44.72666 Z4.06003
X44.98018 Z3.39542
X45.23945 Z2.75812
X45.2625 Z2.69943
X45.28555 Z2.63832
X45.30859 Z2.57456
X45.33164 Z2.50781
X45.35469 Z2.43773
X45.38926 Z2.3255
X45.46992 Z2.05632
X45.49297 Z1.97618
X45.51602 Z1.8912
X45.53906 Z1.80053
X45.56211 Z1.70301
X45.82139 Z0.51398
X45.89629 Z0.19345
X45.91934 Z0.08702
X45.93636 Z0.
X46.
X46.635
X46.73142 Y-65.24549 Z0.0007
X46.81316 Y-65.19091 Z0.00269
X46.86778 Y-65.10922 Z0.00567
X46.88696 Y-65.01287 Z0.00919
X46.86778 Y-64.91651 Z0.01271
X46.81316 Y-64.83482 Z0.01569
X46.73142 Y-64.78024 Z0.01768
X46.635 Y-64.76107 Z0.01838
X46.
X45.96279 Z0.27089
X45.95039 Z0.34607
X45.93799 Z0.41524
X45.92559 Z0.47959
X45.91318 Z0.53997
X45.88915 Z0.64782
X45.74885 Z1.24839
X45.55352 Z2.14512
X45.52871 Z2.25299
X45.50391 Z2.35242
X45.4791 Z2.44497
X45.44499 Z2.56306
X45.37988 Z2.78019
X45.35508 Z2.85996
X45.33027 Z2.93531
X45.30547 Z3.00682
X45.28066 Z3.07493
X45.25586 Z3.14003
X45.20625 Z3.26336
X44.82488 Z4.20087
X44.66055 Z4.63122
X44.63574 Z4.69343
X44.61094 Z4.75363
X44.58613 Z4.81196
X44.56133 Z4.86856
X44.53652 Z4.92353
X44.48691 Z5.02906
X44.4125 Z5.18405
X44.3877 Z5.23374
X44.36289 Z5.28193
X44.31328 Z5.37416
X44.26367 Z5.46134
X44.20166 Z5.56399
X43.51953 Z6.65538
X43.27148 Z7.05016
X43.22187 Z7.12671
X43.17227 Z7.19965
X43.12266 Z7.26925
X43.07305 Z7.33575
X43.02344 Z7.39936
X42.97383 Z7.46027
X42.92422 Z7.51863
X42.87461 Z7.57458
X42.825 Z7.62826
X41.68398 Z8.83787
X41.63437 Z8.88894
X41.58477 Z8.93797
X41.53516 Z8.98505
X41.48555 Z9.03025
X41.43594 Z9.07365
X41.38633 Z9.11532
X41.33672 Z9.15531
X41.28711 Z9.1937
X41.2375 Z9.23052
X41.16309 Z9.28299
X39.87324 Z10.17383
X39.84844 Z10.19056
X39.74922 Z10.25393
X39.65 Z10.31185
X39.55078 Z10.36459
X39.45156 Z10.41235
X39.35234 Z10.45531
X37.91367 Z11.02675
X37.86406 Z11.0455
X37.76484 Z11.07962
X37.66562 Z11.10934
X37.56641 Z11.13474
X37.46719 Z11.15593
X37.36797 Z11.17294
X37.26875 Z11.18644
X35.85488 Z11.37234
X35.78047 Z11.38052
X35.68125 Z11.38787
X35.58203 Z11.39119
X35.48281 Z11.39048
X35.38359 Z11.38573
X35.27197 Z11.37555
X35.23477 Z11.37468
X34.73867 Z11.37445
X34.68906 Z11.37969
X34.58984 Z11.3874
X34.49062 Z11.39106
X34.39141 Z11.3907
X34.29219 Z11.3863
X34.19297 Z11.37786
X34.14336 Z11.37212
X32.65508 Z11.17631
X32.60547 Z11.16879
X32.50625 Z11.15067
X32.40703 Z11.12836
X32.30781 Z11.10181
X32.20859 Z11.07092
X32.10937 Z11.0356
X30.6707 Z10.46462
X30.62109 Z10.44427
X30.52187 Z10.40004
X30.42266 Z10.35097
X30.32344 Z10.29686
X30.22422 Z10.2375
X30.1126 Z10.16412
X28.78555 Z9.2471
X28.73594 Z9.21099
X28.68633 Z9.17334
X28.63672 Z9.1341
X28.58711 Z9.09321
X28.5375 Z9.05063
X28.48789 Z9.00627
X28.43828 Z8.96008
X28.38867 Z8.91197
X28.33906 Z8.86186
X28.14062 Z8.65197
X27.14844 Z7.59979
X27.09883 Z7.54491
X27.04922 Z7.48768
X26.99961 Z7.42798
X26.95 Z7.36565
X26.90391 Z7.30522
X26.85781 Z7.24223
X26.81172 Z7.17648
X26.76562 Z7.10778
X26.71953 Z7.03589
X26.39687 Z6.52219
X26.05117 Z5.96875
X25.98203 Z5.86556
X25.94746 Z5.81058
X25.75156 Z5.48718
X25.70547 Z5.40767
X25.65937 Z5.32399
X25.61328 Z5.23567
X25.56719 Z5.14216
X25.54414 Z5.09325
X25.52109 Z5.04277
X25.49805 Z4.99061
X25.45771 Z4.89485
X25.17251 Z4.1943
X25.15234 Z4.15272
X25.1293 Z4.10323
X25.10625 Z4.0514
X25.07168 Z3.96862
X24.7375 Z3.12288
X24.71445 Z3.06177
X24.69141 Z2.998
X24.66836 Z2.93126
X24.64531 Z2.86118
X24.62227 Z2.7873
X24.59922 Z2.70903
X24.57617 Z2.62563
X24.55312 Z2.53608
X24.44509 Z2.07727
X24.42637 Z2.01498
X24.40332 Z1.93199
X24.3918 Z1.88729
X24.37163 Z1.80262
X24.09219 Z0.56504
X24.08066 Z0.51047
X24.06914 Z0.45276
X24.05762 Z0.39134
X24.04033 Z0.29048
X24.01152 Z0.0994
X24. Z0.01214
X23.365
X23.23948 Y-64.74191 Z0.02814
X23.13307 Y-64.68732 Z0.0737
X23.06197 Y-64.60564 Z0.14189
X23.03701 Y-64.50928 Z0.22233
X23.06197 Y-64.41292 Z0.30277
X23.13307 Y-64.33123 Z0.37096
X23.23948 Y-64.27665 Z0.41652
X23.365 Y-64.25749 Z0.43252
X24.
X24.0124 Z0.52808
X24.03721 Z0.69434
X24.04961 Z0.76952
X24.06201 Z0.83869
X24.07441 Z0.90304
X24.08682 Z0.96342
X24.11162 Z1.07539
X24.33486 Z2.06226
X24.34727 Z2.11271
X24.35967 Z2.16027
X24.39377 Z2.28041
X24.5457 Z2.92917
X24.57051 Z3.02768
X24.59531 Z3.11873
X24.62012 Z3.20364
X24.64492 Z3.28341
X24.66973 Z3.35876
X24.69453 Z3.43027
X24.71934 Z3.49838
X24.75654 Z3.59501
X24.97978 Z4.15948
X24.99219 Z4.18973
X25.01699 Z4.24775
X25.0635 Z4.34964
X25.46348 Z5.33234
X25.48828 Z5.39141
X25.51309 Z5.44829
X25.53789 Z5.50317
X25.5627 Z5.55619
X25.5875 Z5.60749
X25.6123 Z5.65719
X25.63711 Z5.70538
X25.68672 Z5.7976
X25.73633 Z5.88478
X25.78594 Z5.96732
X26.72852 Z7.46771
X26.77812 Z7.54426
X26.82773 Z7.6172
X26.87734 Z7.6868
X26.92695 Z7.7533
X26.97656 Z7.81691
X27.02617 Z7.87782
X27.07578 Z7.93618
X27.12539 Z7.99213
X27.175 Z8.04581
X28.31602 Z9.25542
X28.36562 Z9.30649
X28.41523 Z9.35552
X28.46484 Z9.4026
X28.51445 Z9.4478
X28.56406 Z9.4912
X28.61367 Z9.53287
X28.66328 Z9.57286
X28.71289 Z9.61125
X28.7625 Z9.64807
X28.83691 Z9.70054
X30.12676 Z10.59139
X30.15156 Z10.60811
X30.25078 Z10.67148
X30.35 Z10.72941
X30.44922 Z10.78215
X30.54844 Z10.8299
X30.64766 Z10.87286
X32.08633 Z11.44431
X32.13594 Z11.46305
X32.23516 Z11.49718
X32.33437 Z11.52689
X32.43359 Z11.5523
X32.53281 Z11.57348
X32.63203 Z11.5905
X32.73125 Z11.60399
X34.14512 Z11.78989
X34.21953 Z11.79807
X34.31875 Z11.80543
X34.41797 Z11.80874
X34.51719 Z11.80803
X34.61641 Z11.80329
X34.71562 Z11.7945
X34.76523 Z11.78903
X35.23652
X35.31094 Z11.79725
X35.41016 Z11.80495
X35.50937 Z11.80862
X35.60859 Z11.80825
X35.70781 Z11.80386
X35.80703 Z11.79542
X35.85664 Z11.78967
X37.34492 Z11.59386
X37.39453 Z11.58635
X37.49375 Z11.56822
X37.59297 Z11.54592
X37.69219 Z11.51936
X37.79141 Z11.48848
X37.89062 Z11.45316
X39.3293 Z10.88217
X39.37891 Z10.86182
X39.47812 Z10.8176
X39.57734 Z10.76853
X39.67656 Z10.71442
X39.77578 Z10.65506
X39.8874 Z10.58168
X41.21445 Z9.66466
X41.26406 Z9.62855
X41.31367 Z9.5909
X41.36328 Z9.55166
X41.41289 Z9.51077
X41.4625 Z9.46818
X41.51211 Z9.42383
X41.56172 Z9.37763
X41.61133 Z9.32952
X41.66094 Z9.27941
X41.85937 Z9.06953
X42.85156 Z8.01735
X42.90117 Z7.96246
X42.95078 Z7.90524
X43.00039 Z7.84554
X43.05 Z7.7832
X43.09609 Z7.72278
X43.14219 Z7.65978
X43.18828 Z7.59403
X43.23437 Z7.52533
X43.28047 Z7.45345
X44.20234 Z5.98612
X44.24844 Z5.91063
X44.29453 Z5.83112
X44.34062 Z5.74743
X44.38672 Z5.65911
X44.44434 Z5.54152
X44.47891 Z5.46829
X44.525 Z5.36615
X44.54805 Z5.31295
X44.57109 Z5.25822
X44.59414 Z5.20184
X44.63447 Z5.09887
X44.68057 Z4.97851
X45.23945 Z3.60502
X45.2625 Z3.54633
X45.28555 Z3.48522
X45.30859 Z3.42145
X45.33164 Z3.35471
X45.35469 Z3.28463
X45.38926 Z3.1724
X45.44687 Z2.97898
X45.46992 Z2.89648
X45.49297 Z2.80873
X45.51602 Z2.71475
X45.53906 Z2.61316
X45.68599 Z1.93954
X45.89629 Z1.04036
X45.91934 Z0.93392
X45.93086 Z0.87621
X45.94238 Z0.81479
X45.95967 Z0.71394
X45.97695 Z0.59993
X46. Z0.43989
X46.635
X46.76053 Y-64.23832 Z0.45589
X46.86695 Y-64.18374 Z0.50146
X46.93805 Y-64.10205 Z0.56967
X46.96302 Y-64.00569 Z0.65012
X46.93805 Y-63.90934 Z0.73058
X46.86695 Y-63.82765 Z0.79878
X46.76053 Y-63.77306 Z0.84436
X46.635 Y-63.7539 Z0.86036
X46.
X45.9845 Z0.97203
X45.96279 Z1.11779
X45.95039 Z1.19297
X45.93799 Z1.26215
X45.92559 Z1.3265
X45.91318 Z1.38687
X45.88915 Z1.49472
X45.61243 Z2.67797
X45.51631 Z3.11903
X45.4915 Z3.22599
X45.4667 Z3.32467
X45.4543 Z3.37141
X45.42949 Z3.46041
X45.37988 Z3.62709
X45.35508 Z3.70686
X45.33027 Z3.78221
X45.30547 Z3.85372
X45.28066 Z3.92183
X45.25586 Z3.98693
X45.20625 Z4.11026
X44.66055 Z5.45055
X44.53652 Z5.75343
X44.51172 Z5.81215
X44.48691 Z5.86871
X44.46211 Z5.92327
X44.4373 Z5.97599
X44.4125 Z6.027
X44.36289 Z6.12432
X44.31328 Z6.21601
X44.26367 Z6.30269
X44.20166 Z6.40476
X43.27148 Z7.88527
X43.22187 Z7.96182
X43.17227 Z8.03475
X43.12266 Z8.10435
X43.07305 Z8.17085
X43.02344 Z8.23447
X42.97383 Z8.29537
X42.92422 Z8.35373
X42.87461 Z8.40968
X42.825 Z8.46336
X41.68398 Z9.67298
X41.63437 Z9.72405
X41.58477 Z9.77308
X41.53516 Z9.82015
X41.48555 Z9.86535
X41.43594 Z9.90875
X41.38633 Z9.95042
X41.33672 Z9.99042
X41.28711 Z10.0288
X41.2375 Z10.06563
X41.16309 Z10.11809
X39.87324 Z11.00894
X39.84844 Z11.02567
X39.74922 Z11.08904
X39.65 Z11.14697
X39.55078 Z11.1997
X39.45156 Z11.24746
X39.35234 Z11.29042
X37.91367 Z11.86186
X37.86406 Z11.88061
X37.76484 Z11.91473
X37.66562 Z11.94445
X37.56641 Z11.96986
X37.46719 Z11.99104
X37.36797 Z12.00806
X37.26875 Z12.02155
X35.85488 Z12.20745
X35.78047 Z12.21563
X35.68125 Z12.22299
X35.58203 Z12.2263
X35.48281 Z12.22559
X35.38359 Z12.22084
X35.28437 Z12.21205
X35.22236 Z12.20449
X35.20996 Z12.2036
X34.78828
X34.68906 Z12.2148
X34.58984 Z12.22251
X34.49062 Z12.22617
X34.39141 Z12.22581
X34.29219 Z12.22141
X34.19297 Z12.21297
X34.14336 Z12.20723
X32.65508 Z12.01142
X32.60547 Z12.00391
X32.50625 Z11.98578
X32.40703 Z11.96347
X32.30781 Z11.93692
X32.20859 Z11.90603
X32.10937 Z11.87071
X30.6707 Z11.29973
X30.62109 Z11.27938
X30.52187 Z11.23515
X30.42266 Z11.18608
X30.32344 Z11.13197
X30.22422 Z11.07262
X30.1126 Z10.99923
X28.78555 Z10.08221
X28.73594 Z10.0461
X28.68633 Z10.00845
X28.63672 Z9.96921
X28.58711 Z9.92832
X28.5375 Z9.88573
X28.48789 Z9.84138
X28.43828 Z9.79518
X28.38867 Z9.74707
X28.33906 Z9.69696
X28.14062 Z9.48708
X27.14844 Z8.4349
X27.09883 Z8.38002
X27.04922 Z8.32279
X26.99961 Z8.26309
X26.95 Z8.20075
X26.90391 Z8.14033
X26.85781 Z8.07733
X26.81172 Z8.01158
X26.76562 Z7.94288
X26.71953 Z7.87099
X25.79766 Z6.40367
X25.75156 Z6.32839
X25.70547 Z6.24933
X25.65937 Z6.16613
X25.61328 Z6.07832
X25.56719 Z5.98535
X25.54414 Z5.93672
X25.52109 Z5.88653
X25.49805 Z5.83467
X25.45771 Z5.73946
X25.29062 Z5.33118
X24.94492 Z4.48198
X24.92187 Z4.43069
X24.89883 Z4.37684
X24.87578 Z4.32009
X24.7375 Z3.96978
X24.71445 Z3.90867
X24.69141 Z3.8449
X24.66836 Z3.77816
X24.64531 Z3.70808
X24.62227 Z3.63419
X24.59922 Z3.55593
X24.57617 Z3.47253
X24.55312 Z3.38298
X24.33706 Z2.46271
X24.32266 Z2.41252
X24.29961 Z2.32576
X24.27944 Z2.24154
X24.09219 Z1.41195
X24.08066 Z1.35738
X24.06914 Z1.29966
X24.05762 Z1.23824
X24.04033 Z1.13739
X24.01729 Z0.98529
X24.00576 Z0.89966
X24. Z0.85247
X23.365
X23.23959 Y-63.73473 Z0.86844
X23.13327 Y-63.68015 Z0.91391
X23.06223 Y-63.59846 Z0.98196
X23.03729 Y-63.50211 Z1.06223
X23.06223 Y-63.40575 Z1.14249
X23.13327 Y-63.32406 Z1.21054
X23.23959 Y-63.26948 Z1.25601
X23.365 Y-63.25031 Z1.27198
X24.
X24.0124 Z1.37211
X24.0279 Z1.48033
X24.04341 Z1.57968
X24.06201 Z1.6856
X24.07441 Z1.74995
X24.08682 Z1.81032
X24.11162 Z1.9223
X24.23565 Z2.47102
X24.24805 Z2.52306
X24.26045 Z2.57196
X24.28525 Z2.66353
X24.5457 Z3.77607
X24.57051 Z3.87458
X24.59531 Z3.96563
X24.62012 Z4.05054
X24.64492 Z4.13031
X24.66973 Z4.20566
X24.69453 Z4.27717
X24.71934 Z4.34528
X24.74414 Z4.41037
X24.79375 Z4.53556
X24.81855 Z4.59475
X25.46348 Z6.17098
X25.48828 Z6.2297
X25.51309 Z6.28626
X25.53789 Z6.34082
X25.5627 Z6.39354
X25.5875 Z6.44455
X25.63711 Z6.54187
X25.68672 Z6.63356
X25.73633 Z6.72024
X25.79834 Z6.82231
X26.72852 Z8.30282
X26.77812 Z8.37937
X26.82773 Z8.4523
X26.87734 Z8.5219
X26.92695 Z8.5884
X26.97656 Z8.65202
X27.02617 Z8.71292
X27.07578 Z8.77128
X27.12539 Z8.82724
X27.175 Z8.88091
X28.31602 Z10.09053
X28.36562 Z10.1416
X28.41523 Z10.19063
X28.46484 Z10.2377
X28.51445 Z10.2829
X28.56406 Z10.32631
X28.61367 Z10.36797
X28.66328 Z10.40797
X28.71289 Z10.44636
X28.7625 Z10.48318
X28.83691 Z10.53565
X30.12676 Z11.4265
X30.15156 Z11.44322
X30.25078 Z11.50659
X30.35 Z11.56452
X30.44922 Z11.61726
X30.54844 Z11.66502
X30.64766 Z11.70797
X32.08633 Z12.27942
X32.13594 Z12.29817
X32.23516 Z12.33229
X32.33437 Z12.362
X32.43359 Z12.38741
X32.53281 Z12.40859
X32.63203 Z12.42561
X32.73125 Z12.43911
X34.14512 Z12.62501
X34.21953 Z12.63319
X34.31875 Z12.64054
X34.41797 Z12.64386
X34.51719 Z12.64314
X34.61641 Z12.6384
X34.71562 Z12.62961
X34.80244 Z12.61858
X34.81484 Z12.61818
X35.18691
X35.19932 Z12.61883
X35.31094 Z12.63236
X35.41016 Z12.64006
X35.50937 Z12.64373
X35.60859 Z12.64336
X35.70781 Z12.63897
X35.80703 Z12.63053
X35.85664 Z12.62479
X37.34492 Z12.42898
X37.39453 Z12.42146
X37.49375 Z12.40333
X37.59297 Z12.38103
X37.69219 Z12.35447
X37.79141 Z12.32359
X37.89062 Z12.28827
X39.3293 Z11.71728
X39.37891 Z11.69693
X39.47812 Z11.65271
X39.57734 Z11.60364
X39.67656 Z11.54953
X39.77578 Z11.49017
X39.8874 Z11.41679
X41.21445 Z10.49977
X41.26406 Z10.46366
X41.31367 Z10.42601
X41.36328 Z10.38676
X41.41289 Z10.34588
X41.4625 Z10.30329
X41.51211 Z10.25893
X41.56172 Z10.21274
X41.61133 Z10.16463
X41.66094 Z10.11452
X41.85937 Z9.90464
X42.85156 Z8.85245
X42.90117 Z8.79757
X42.95078 Z8.74034
X43.00039 Z8.68064
X43.05 Z8.61831
X43.09609 Z8.55788
X43.14219 Z8.49489
X43.18828 Z8.42914
X43.23437 Z8.36043
X43.28047 Z8.28855
X44.20234 Z6.82122
X44.24844 Z6.74594
X44.29453 Z6.66688
X44.34062 Z6.58368
X44.38672 Z6.49587
X44.43281 Z6.4029
X44.45586 Z6.35427
X44.47891 Z6.30408
X44.50195 Z6.25222
X44.54228 Z6.15701
X45.17031 Z4.62201
X45.23945 Z4.45192
X45.2625 Z4.39323
X45.28555 Z4.33212
X45.30859 Z4.26835
X45.33164 Z4.20161
X45.35469 Z4.13153
X45.38926 Z4.0193
X45.42383 Z3.90049
X45.44687 Z3.81543
X45.46992 Z3.72465
X45.49297 Z3.62701
X45.55059 Z3.3651
X45.89629 Z1.88726
X45.91934 Z1.78083
X45.93086 Z1.72311
X45.94238 Z1.66169
X45.95967 Z1.56084
X45.98271 Z1.40761
X45.99424 Z1.32487
X46. Z1.27968
X46.635
X46.76023 Y-63.23115 Z1.29559
X46.86639 Y-63.17656 Z1.3409
X46.93733 Y-63.09488 Z1.40871
X46.96224 Y-62.99852 Z1.48869
X46.93733 Y-62.90216 Z1.56868
X46.86639 Y-62.82047 Z1.63648
X46.76023 Y-62.76589 Z1.68179
X46.635 Y-62.74672 Z1.6977
X46.
X45.9876 Z1.79553
X45.96899 Z1.92432
X45.95039 Z2.03988
X45.93799 Z2.10905
X45.92559 Z2.1734
X45.91318 Z2.23377
X45.88915 Z2.34162
X45.4543 Z4.19921
X45.42949 Z4.29715
X45.40469 Z4.38767
X45.37988 Z4.4721
X45.35508 Z4.55141
X45.33027 Z4.62632
X45.30547 Z4.69742
X45.28066 Z4.76514
X45.25586 Z4.82986
X45.20625 Z4.95248
X44.53652 Z6.58853
X44.51172 Z6.64725
X44.48691 Z6.70381
X44.46211 Z6.75837
X44.4373 Z6.81109
X44.4125 Z6.8621
X44.36289 Z6.95942
X44.31328 Z7.05111
X44.26367 Z7.1378
X44.20166 Z7.23986
X43.27148 Z8.72037
X43.22187 Z8.79692
X43.17227 Z8.86986
X43.12266 Z8.93946
X43.07305 Z9.00596
X43.02344 Z9.06957
X42.97383 Z9.13048
X42.92422 Z9.18883
X42.87461 Z9.24479
X42.825 Z9.29846
X41.68398 Z10.50809
X41.63437 Z10.55916
X41.58477 Z10.60819
X41.53516 Z10.65526
X41.48555 Z10.70046
X41.43594 Z10.74386
X41.38633 Z10.78553
X41.33672 Z10.82553
X41.28711 Z10.86391
X41.2375 Z10.90073
X41.16309 Z10.9532
X39.87324 Z11.84405
X39.84844 Z11.86078
X39.74922 Z11.92415
X39.65 Z11.98208
X39.55078 Z12.03481
X39.45156 Z12.08257
X39.35234 Z12.12553
X37.91367 Z12.69697
X37.86406 Z12.71572
X37.76484 Z12.74984
X37.66562 Z12.77956
X37.56641 Z12.80497
X37.46719 Z12.82615
X37.36797 Z12.84317
X37.26875 Z12.85666
X35.85488 Z13.04256
X35.78047 Z13.05074
X35.68125 Z13.0581
X35.58203 Z13.06141
X35.48281 Z13.0607
X35.38359 Z13.05596
X35.28437 Z13.04716
X35.17275 Z13.03275
X34.82549
X34.78828 Z13.03815
X34.68906 Z13.04992
X34.58984 Z13.05762
X34.49062 Z13.06129
X34.39141 Z13.06092
X34.29219 Z13.05653
X34.19297 Z13.04809
X34.14336 Z13.04234
X32.65508 Z12.84653
X32.60547 Z12.83902
X32.50625 Z12.82089
X32.40703 Z12.79858
X32.30781 Z12.77203
X32.20859 Z12.74114
X32.10937 Z12.70583
X30.6707 Z12.13484
X30.62109 Z12.11449
X30.52187 Z12.07026
X30.42266 Z12.02119
X30.32344 Z11.96709
X30.22422 Z11.90772
X30.1126 Z11.83434
X28.78555 Z10.91732
X28.73594 Z10.88121
X28.68633 Z10.84356
X28.63672 Z10.80432
X28.58711 Z10.76343
X28.5375 Z10.72084
X28.48789 Z10.67649
X28.43828 Z10.63029
X28.38867 Z10.58218
X28.33906 Z10.53207
X28.14062 Z10.32219
X27.14844 Z9.27
X27.09883 Z9.21512
X27.04922 Z9.15789
X26.99961 Z9.09819
X26.95 Z9.03586
X26.90391 Z8.97543
X26.85781 Z8.91244
X26.81172 Z8.84669
X26.76562 Z8.77798
X26.71953 Z8.7061
X25.79766 Z7.23877
X25.75156 Z7.16349
X25.70547 Z7.08443
X25.65937 Z7.00123
X25.61328 Z6.91342
X25.56719 Z6.82045
X25.54414 Z6.77182
X25.52109 Z6.72163
X25.49805 Z6.66977
X25.45771 Z6.57456
X24.76055 Z4.87117
X24.7375 Z4.81281
X24.71445 Z4.75206
X24.69141 Z4.68865
X24.66836 Z4.6223
X24.64531 Z4.55262
X24.62227 Z4.47916
X24.59922 Z4.40134
X24.57617 Z4.31842
X24.55312 Z4.22939
X24.53008 Z4.13328
X24.22615 Z2.83502
X24.20742 Z2.7642
X24.18581 Z2.6741
X24.09219 Z2.25885
X24.08066 Z2.20428
X24.06914 Z2.14657
X24.05762 Z2.08514
X24.04033 Z1.98429
X24.02305 Z1.87097
X24.01152 Z1.78688
X24. Z1.69099
X23.365
X23.23972 Y-62.72756 Z1.70691
X23.1335 Y-62.67298 Z1.75227
X23.06254 Y-62.59129 Z1.82015
X23.03762 Y-62.49493 Z1.90022
X23.06254 Y-62.39857 Z1.98029
X23.1335 Y-62.31689 Z2.04818
X23.23972 Y-62.2623 Z2.09353
X23.365 Y-62.24314 Z2.10946
X24.
X24.0124 Z2.21486
X24.0279 Z2.32716
X24.04341 Z2.42658
X24.06201 Z2.5325
X24.07441 Z2.59685
X24.08682 Z2.65723
X24.11162 Z2.7692
X24.14883 Z2.93268
X24.17363 Z3.0334
X24.29766 Z3.56333
X24.5457 Z4.61675
X24.57051 Z4.7147
X24.59531 Z4.80522
X24.62012 Z4.88965
X24.64492 Z4.96895
X24.66973 Z5.04387
X24.69453 Z5.11496
X24.71934 Z5.18269
X24.74414 Z5.24741
X24.79375 Z5.37003
X25.46348 Z7.00608
X25.48828 Z7.0648
X25.51309 Z7.12136
X25.53789 Z7.17592
X25.5627 Z7.22864
X25.5875 Z7.27965
X25.63711 Z7.37697
X25.68672 Z7.46866
X25.73633 Z7.55534
X25.79834 Z7.65741
X26.72852 Z9.13792
X26.77812 Z9.21447
X26.82773 Z9.28741
X26.87734 Z9.35701
X26.92695 Z9.42351
X26.97656 Z9.48712
X27.02617 Z9.54803
X27.07578 Z9.60639
X27.12539 Z9.66234
X27.175 Z9.71602
X28.31602 Z10.92564
X28.36562 Z10.97671
X28.41523 Z11.02574
X28.46484 Z11.07281
X28.51445 Z11.11801
X28.56406 Z11.16141
X28.61367 Z11.20308
X28.66328 Z11.24308
X28.71289 Z11.28146
X28.7625 Z11.31828
X28.83691 Z11.37075
X30.12676 Z12.26161
X30.15156 Z12.27833
X30.25078 Z12.3417
X30.35 Z12.39963
X30.44922 Z12.45237
X30.54844 Z12.50013
X30.64766 Z12.54308
X32.08633 Z13.11453
X32.13594 Z13.13328
X32.23516 Z13.1674
X32.33437 Z13.19712
X32.43359 Z13.22253
X32.53281 Z13.24371
X32.63203 Z13.26073
X32.73125 Z13.27422
X34.14512 Z13.46012
X34.21953 Z13.4683
X34.31875 Z13.47565
X34.41797 Z13.47897
X34.51719 Z13.47826
X34.61641 Z13.47351
X34.71562 Z13.46472
X34.81484 Z13.45186
X34.83965 Z13.448
X34.85205 Z13.44733
X35.14971
X35.16211 Z13.44828
X35.21172 Z13.4557
X35.31094 Z13.46747
X35.41016 Z13.47518
X35.50937 Z13.47884
X35.60859 Z13.47848
X35.70781 Z13.47408
X35.80703 Z13.46564
X35.85664 Z13.4599
X37.34492 Z13.26409
X37.39453 Z13.25657
X37.49375 Z13.23845
X37.59297 Z13.21614
X37.69219 Z13.18959
X37.79141 Z13.1587
X37.89062 Z13.12338
X39.3293 Z12.55239
X39.37891 Z12.53204
X39.47812 Z12.48782
X39.57734 Z12.43875
X39.67656 Z12.38464
X39.77578 Z12.32528
X39.8874 Z12.2519
X41.21445 Z11.33487
X41.26406 Z11.29876
X41.31367 Z11.26111
X41.36328 Z11.22187
X41.41289 Z11.18099
X41.4625 Z11.1384
X41.51211 Z11.09404
X41.56172 Z11.04785
X41.61133 Z10.99974
X41.66094 Z10.94963
X41.85937 Z10.73975
X42.85156 Z9.68755
X42.90117 Z9.63267
X42.95078 Z9.57545
X43.00039 Z9.51574
X43.05 Z9.45341
X43.09609 Z9.39299
X43.14219 Z9.32999
X43.18828 Z9.26424
X43.23437 Z9.19554
X43.28047 Z9.12365
X44.20234 Z7.65632
X44.24844 Z7.58104
X44.29453 Z7.50199
X44.34062 Z7.41878
X44.38672 Z7.33097
X44.43281 Z7.238
X44.45586 Z7.18937
X44.47891 Z7.13918
X44.50195 Z7.08732
X44.54228 Z6.99211
X45.23945 Z5.28871
X45.2625 Z5.23036
X45.28555 Z5.16961
X45.30859 Z5.1062
X45.33164 Z5.03984
X45.35469 Z4.97016
X45.37773 Z4.8967
X45.40078 Z4.81889
X45.42383 Z4.73597
X45.44687 Z4.64694
X45.49297 Z4.45296
X45.72344 Z3.47329
X45.89629 Z2.73417
X45.91934 Z2.62773
X45.93086 Z2.57002
X45.94238 Z2.50859
X45.95967 Z2.40774
X45.97695 Z2.29366
X45.98848 Z2.20966
X46. Z2.11422
X46.635
X46.75984 Y-62.22397 Z2.13001
X46.86567 Y-62.16939 Z2.17497
X46.93638 Y-62.0877 Z2.24225
X46.96121 Y-61.99134 Z2.32162
X46.93638 Y-61.89499 Z2.40099
X46.86567 Y-61.8133 Z2.46827
X46.75984 Y-61.75872 Z2.51323
X46.635 Y-61.73955 Z2.52902
X46.
X45.9876 Z2.6362
X45.97209 Z2.75025
X45.95659 Z2.85004
X45.93799 Z2.95589
X45.92559 Z3.01987
X45.91318 Z3.0799
X45.88915 Z3.18712
X45.4543 Z5.0343
X45.42949 Z5.13224
X45.40469 Z5.22276
X45.37988 Z5.30719
X45.35508 Z5.3865
X45.33027 Z5.46142
X45.30547 Z5.53251
X45.28066 Z5.60024
X45.25586 Z5.66496
X45.20625 Z5.78758
X44.53652 Z7.42363
X44.51172 Z7.48235
X44.48691 Z7.53891
X44.46211 Z7.59347
X44.4373 Z7.64619
X44.4125 Z7.6972
X44.36289 Z7.79452
X44.31328 Z7.88621
X44.26367 Z7.9729
X44.20166 Z8.07496
X43.27148 Z9.55547
X43.22187 Z9.63203
X43.17227 Z9.70496
X43.12266 Z9.77456
X43.07305 Z9.84106
X43.02344 Z9.90467
X42.97383 Z9.96558
X42.92422 Z10.02394
X42.87461 Z10.07989
X42.825 Z10.13357
X41.68398 Z11.34319
X41.63437 Z11.39427
X41.58477 Z11.44329
X41.53516 Z11.49037
X41.48555 Z11.53557
X41.43594 Z11.57897
X41.38633 Z11.62064
X41.33672 Z11.66064
X41.28711 Z11.69902
X41.2375 Z11.73584
X41.16309 Z11.78831
X39.87324 Z12.67916
X39.84844 Z12.69589
X39.74922 Z12.75926
X39.65 Z12.81719
X39.55078 Z12.86993
X39.45156 Z12.91768
X39.35234 Z12.96064
X37.91367 Z13.53209
X37.86406 Z13.55083
X37.76484 Z13.58496
X37.66562 Z13.61467
X37.56641 Z13.64008
X37.46719 Z13.66126
X37.36797 Z13.67828
X37.26875 Z13.69177
X35.87969 Z13.87381
X35.78047 Z13.88513
X35.68125 Z13.89242
X35.58203 Z13.89571
X35.48281 Z13.895
X35.38359 Z13.8903
X35.28437 Z13.88158
X35.18516 Z13.86883
X35.14795 Z13.863
X35.13555 Z13.8619
X34.8627
X34.85029 Z13.86329
X34.78828 Z13.87264
X34.68906 Z13.88431
X34.58984 Z13.89195
X34.49062 Z13.89558
X34.39141 Z13.89522
X34.29219 Z13.89086
X34.19297 Z13.88249
X34.14336 Z13.8768
X33.3 Z13.76657
X32.65508 Z13.68164
X32.60547 Z13.67413
X32.50625 Z13.656
X32.40703 Z13.6337
X32.30781 Z13.60714
X32.20859 Z13.57626
X32.10937 Z13.54094
X30.6707 Z12.96995
X30.62109 Z12.9496
X30.52187 Z12.90537
X30.42266 Z12.8563
X30.32344 Z12.8022
X30.22422 Z12.74283
X30.1126 Z12.66945
X28.78555 Z11.75243
X28.73594 Z11.71631
X28.68633 Z11.67866
X28.63672 Z11.63942
X28.58711 Z11.59854
X28.5375 Z11.55595
X28.48789 Z11.51159
X28.43828 Z11.4654
X28.38867 Z11.41729
X28.33906 Z11.36718
X28.14062 Z11.1573
X27.14844 Z10.10511
X27.09883 Z10.05022
X27.04922 Z9.993
X26.99961 Z9.93329
X26.95 Z9.87096
X26.90391 Z9.81054
X26.85781 Z9.74754
X26.81172 Z9.68179
X26.76562 Z9.61309
X26.71953 Z9.5412
X25.79766 Z8.07387
X25.75156 Z7.99859
X25.70547 Z7.91953
X25.65937 Z7.83633
X25.61328 Z7.74852
X25.56719 Z7.65555
X25.54414 Z7.60692
X25.52109 Z7.55673
X25.49805 Z7.50487
X25.45771 Z7.40966
X24.76055 Z5.70626
X24.7375 Z5.64791
X24.71445 Z5.58715
X24.69141 Z5.52375
X24.66836 Z5.45739
X24.64531 Z5.38771
X24.62227 Z5.31425
X24.59922 Z5.23644
X24.57617 Z5.15351
X24.55312 Z5.06448
X24.50703 Z4.87051
X24.10371 Z3.15639
X24.08066 Z3.05057
X24.06914 Z2.99319
X24.05762 Z2.93205
X24.04033 Z2.83119
X24.02305 Z2.7163
X24.01152 Z2.62862
X24. Z2.52735
X23.365
X23.23983 Y-61.72038 Z2.54324
X23.13372 Y-61.6658 Z2.58849
X23.06282 Y-61.58411 Z2.65621
X23.03793 Y-61.48776 Z2.7361
X23.06282 Y-61.3914 Z2.81598
X23.13372 Y-61.30971 Z2.88371
X23.23983 Y-61.25513 Z2.92896
X23.365 Y-61.23596 Z2.94485
X24.
X24.0124 Z3.05419
X24.0248 Z3.14739
X24.03721 Z3.22991
X24.04961 Z3.30466
X24.06201 Z3.37343
X24.07441 Z3.43741
X24.08682 Z3.49744
X24.11085 Z3.60467
X24.5457 Z5.45185
X24.57051 Z5.54979
X24.59531 Z5.64031
X24.62012 Z5.72474
X24.64492 Z5.80405
X24.66973 Z5.87896
X24.69453 Z5.95006
X24.71934 Z6.01778
X24.74414 Z6.0825
X24.79375 Z6.20512
X25.46348 Z7.84118
X25.48828 Z7.8999
X25.51309 Z7.95646
X25.53789 Z8.01102
X25.5627 Z8.06374
X25.5875 Z8.11475
X25.63711 Z8.21207
X25.68672 Z8.30376
X25.73633 Z8.39044
X25.79834 Z8.49251
X26.72852 Z9.97302
X26.77812 Z10.04958
X26.82773 Z10.12251
X26.87734 Z10.19211
X26.92695 Z10.25861
X26.97656 Z10.32223
X27.02617 Z10.38313
X27.07578 Z10.44149
X27.12539 Z10.49744
X27.175 Z10.55112
X28.31602 Z11.76075
X28.36562 Z11.81182
X28.41523 Z11.86085
X28.46484 Z11.90792
X28.51445 Z11.95312
X28.56406 Z11.99652
X28.61367 Z12.03819
X28.66328 Z12.07819
X28.71289 Z12.11657
X28.7625 Z12.15339
X28.83691 Z12.20586
X30.12676 Z13.09672
X30.15156 Z13.11344
X30.25078 Z13.17679
X30.35 Z13.23426
X30.44922 Z13.28637
X30.54844 Z13.33355
X30.64766 Z13.376
X32.08633 Z13.94061
X32.13594 Z13.95914
X32.23516 Z13.99285
X32.33437 Z14.02221
X32.43359 Z14.04732
X32.53281 Z14.06825
X32.63203 Z14.08506
X32.78086 Z14.10519
X32.92969 Z14.12734
X34.14512 Z14.28582
X34.21953 Z14.29393
X34.31875 Z14.30122
X34.41797 Z14.30451
X34.51719 Z14.3038
X34.61641 Z14.2991
X34.71562 Z14.29038
X34.81484 Z14.27763
X34.82725 Z14.27647
X35.17451
X35.21172 Z14.28144
X35.31094 Z14.29311
X35.41016 Z14.30075
X35.50937 Z14.30439
X35.60859 Z14.30402
X35.70781 Z14.29967
X35.80703 Z14.2913
X35.90625 Z14.2789
X36.04268 Z14.25772
X37.34492 Z14.08838
X37.39453 Z14.08096
X37.49375 Z14.06305
X37.59297 Z14.04101
X37.69219 Z14.01477
X37.79141 Z13.98426
X37.89062 Z13.94936
X39.3293 Z13.3852
X39.37891 Z13.36509
X39.47812 Z13.3214
X39.57734 Z13.27291
X39.67656 Z13.21944
X39.77578 Z13.16039
X39.8874 Z13.08701
X41.21445 Z12.16998
X41.26406 Z12.13387
X41.31367 Z12.09622
X41.36328 Z12.05698
X41.41289 Z12.01609
X41.4625 Z11.97351
X41.51211 Z11.92915
X41.56172 Z11.88296
X41.61133 Z11.83485
X41.66094 Z11.78473
X41.85937 Z11.57486
X42.85156 Z10.52266
X42.90117 Z10.46778
X42.95078 Z10.41055
X43.00039 Z10.35085
X43.05 Z10.28851
X43.09609 Z10.22809
X43.14219 Z10.16509
X43.18828 Z10.09934
X43.23437 Z10.03064
X43.28047 Z9.95876
X44.20234 Z8.49142
X44.24844 Z8.41614
X44.29453 Z8.33709
X44.34062 Z8.25388
X44.38672 Z8.16607
X44.43281 Z8.0731
X44.45586 Z8.02447
X44.47891 Z7.97428
X44.50195 Z7.92242
X44.54228 Z7.82721
X45.23945 Z6.12381
X45.2625 Z6.06545
X45.28555 Z6.0047
X45.30859 Z5.9413
X45.33164 Z5.87494
X45.35469 Z5.80526
X45.37773 Z5.7318
X45.40078 Z5.65398
X45.42383 Z5.57106
X45.44687 Z5.48203
X45.49297 Z5.28806
X45.89629 Z3.57394
X45.91934 Z3.46811
X45.93086 Z3.41073
X45.94238 Z3.34966
X45.95967 Z3.24939
X45.97695 Z3.13492
X45.98848 Z3.04706
X46. Z2.94485
X46.635
X46.76017 Y-61.2168 Z2.96074
X46.86628 Y-61.16221 Z3.006
X46.93719 Y-61.08053 Z3.07373
X46.96209 Y-60.98417 Z3.15362
X46.93719 Y-60.88781 Z3.23351
X46.86628 Y-60.80612 Z3.30124
X46.76017 Y-60.75154 Z3.3465
X46.635 Y-60.73238 Z3.36239
X46.
X45.9876 Z3.47173
X45.97519 Z3.56494
X45.96279 Z3.64745
X45.95039 Z3.7222
X45.93799 Z3.79098
X45.92559 Z3.85496
X45.91318 Z3.91499
X45.88915 Z4.02221
X45.4543 Z5.8694
X45.42949 Z5.96734
X45.40469 Z6.05786
X45.37988 Z6.14229
X45.35508 Z6.22159
X45.33027 Z6.29651
X45.30547 Z6.36761
X45.28066 Z6.43533
X45.25586 Z6.50005
X45.20625 Z6.62267
X44.53652 Z8.25873
X44.51172 Z8.31745
X44.48691 Z8.37401
X44.46211 Z8.42857
X44.4373 Z8.48129
X44.4125 Z8.5323
X44.36289 Z8.62962
X44.31328 Z8.72131
X44.26367 Z8.808
X44.20166 Z8.91006
X43.27148 Z10.39058
X43.22187 Z10.46713
X43.17227 Z10.54007
X43.12266 Z10.60966
X43.07305 Z10.67617
X43.02344 Z10.73978
X42.97383 Z10.80068
X42.92422 Z10.85904
X42.87461 Z10.915
X42.825 Z10.96867
X41.68398 Z12.1783
X41.63437 Z12.22937
X41.58477 Z12.2784
X41.53516 Z12.32548
X41.48555 Z12.37068
X41.43594 Z12.41408
X41.38633 Z12.45575
X41.33672 Z12.49574
X41.28711 Z12.53413
X41.2375 Z12.57089
X40.44375 Z13.1138
X39.87324 Z13.50308
X39.84844 Z13.51961
X39.74922 Z13.58222
X39.65 Z13.63946
X39.55078 Z13.69156
X39.45156 Z13.73875
X39.35234 Z13.78119
X37.91367 Z14.34581
X37.86406 Z14.36433
X37.76484 Z14.39804
X37.66562 Z14.42741
X37.56641 Z14.45251
X37.46719 Z14.47344
X37.36797 Z14.49025
X37.26875 Z14.50359
X36.16494 Z14.6472
X35.9293 Z14.68424
X35.87969 Z14.69142
X35.78047 Z14.70274
X35.68125 Z14.71003
X35.58203 Z14.71332
X35.48281 Z14.71261
X35.38359 Z14.7079
X35.28437 Z14.69919
X35.22236 Z14.69169
X35.20996 Z14.69105
X34.78828
X34.77588 Z14.69193
X34.73867 Z14.69659
X34.68906 Z14.70191
X34.58984 Z14.70956
X34.49062 Z14.71319
X34.39141 Z14.71283
X34.29219 Z14.70847
X34.19297 Z14.7001
X34.14336 Z14.69441
X33.25039 Z14.57799
X33.15117 Z14.56362
X32.89072 Z14.52431
X32.65508 Z14.49358
X32.60547 Z14.48615
X32.50625 Z14.46824
X32.40703 Z14.4462
X32.30781 Z14.41997
X32.20859 Z14.38945
X32.10937 Z14.35455
X30.6707 Z13.79039
X30.62109 Z13.77028
X30.52187 Z13.72659
X30.42266 Z13.6781
X30.32344 Z13.62464
X30.22422 Z13.56599
X30.1126 Z13.49349
X28.83516 Z12.62168
X28.78555 Z12.58737
X28.73594 Z12.55142
X28.68633 Z12.51377
X28.63672 Z12.47453
X28.58711 Z12.43364
X28.5375 Z12.39106
X28.48789 Z12.3467
X28.43828 Z12.30051
X28.38867 Z12.2524
X28.33906 Z12.20229
X28.14062 Z11.99241
X27.14844 Z10.94021
X27.09883 Z10.88533
X27.04922 Z10.8281
X26.99961 Z10.7684
X26.95 Z10.70607
X26.90391 Z10.64564
X26.85781 Z10.58264
X26.81172 Z10.5169
X26.76562 Z10.44819
X26.71953 Z10.37631
X25.79766 Z8.90897
X25.75156 Z8.83369
X25.70547 Z8.75463
X25.65937 Z8.67143
X25.61328 Z8.58362
X25.56719 Z8.49065
X25.54414 Z8.44202
X25.52109 Z8.39183
X25.49805 Z8.33997
X25.45771 Z8.24476
X24.76055 Z6.54135
X24.7375 Z6.483
X24.71445 Z6.42225
X24.69141 Z6.35884
X24.66836 Z6.29249
X24.64531 Z6.22281
X24.62227 Z6.14935
X24.59922 Z6.07153
X24.57617 Z5.98861
X24.55312 Z5.89958
X24.50703 Z5.7056
X24.10371 Z3.99148
X24.08066 Z3.88566
X24.06914 Z3.82828
X24.05762 Z3.76721
X24.04033 Z3.66694
X24.02305 Z3.55247
X24.01152 Z3.4646
X24. Z3.36239
X23.365
X23.23983 Y-60.71321 Z3.37828
X23.13371 Y-60.65863 Z3.42354
X23.06281 Y-60.57694 Z3.49127
X23.03791 Y-60.48058 Z3.57116
X23.06281 Y-60.38423 Z3.65106
X23.13371 Y-60.30254 Z3.71879
X23.23983 Y-60.24796 Z3.76405
X23.365 Y-60.22879 Z3.77994
X24.
X24.0124 Z3.88928
X24.0248 Z3.98248
X24.03721 Z4.065
X24.04961 Z4.13975
X24.06201 Z4.20852
X24.07441 Z4.2725
X24.08682 Z4.33253
X24.11085 Z4.43976
X24.5457 Z6.28694
X24.57051 Z6.38489
X24.59531 Z6.4754
X24.62012 Z6.55983
X24.64492 Z6.63914
X24.66973 Z6.71406
X24.69453 Z6.78515
X24.71934 Z6.85288
X24.74414 Z6.9176
X24.79375 Z7.04022
X25.46348 Z8.67628
X25.48828 Z8.735
X25.51309 Z8.79156
X25.53789 Z8.84612
X25.5627 Z8.89884
X25.5875 Z8.94985
X25.63711 Z9.04717
X25.68672 Z9.13886
X25.73633 Z9.22554
X25.79834 Z9.32761
X26.72852 Z10.80813
X26.77812 Z10.88468
X26.82773 Z10.95762
X26.87734 Z11.02722
X26.92695 Z11.09372
X26.97656 Z11.15733
X27.02617 Z11.21824
X27.07578 Z11.27659
X27.12539 Z11.33255
X27.175 Z11.38622
X27.74551 Z11.99072
X28.31602 Z12.58827
X28.36562 Z12.63874
X28.41523 Z12.68718
X28.46484 Z12.73369
X28.51445 Z12.77835
X28.56406 Z12.82123
X28.61367 Z12.8624
X28.66328 Z12.90192
X28.71289 Z12.93985
X28.7625 Z12.97623
X28.83691 Z13.02807
X30.12676 Z13.90827
X30.15156 Z13.9248
X30.25078 Z13.98741
X30.35 Z14.04465
X30.44922 Z14.09675
X30.54844 Z14.14394
X30.64766 Z14.18638
X32.08633 Z14.751
X32.13594 Z14.76952
X32.23516 Z14.80324
X32.33437 Z14.8326
X32.43359 Z14.8577
X32.53281 Z14.87863
X32.63203 Z14.89545
X32.73125 Z14.90878
X33.04131 Z14.94912
X33.525 Z15.02241
X34.14512 Z15.10343
X34.21953 Z15.11154
X34.31875 Z15.11883
X34.41797 Z15.12212
X34.51719 Z15.12141
X34.61641 Z15.11671
X34.72803 Z15.10662
X34.74043 Z15.106
X35.26133 Z15.10562
X35.31094 Z15.11072
X35.41016 Z15.11836
X35.50937 Z15.12199
X35.60859 Z15.12163
X35.70781 Z15.11727
X35.80703 Z15.1089
X35.90625 Z15.0965
X36.31553 Z15.03265
X37.34492 Z14.89877
X37.39453 Z14.89135
X37.49375 Z14.87344
X37.59297 Z14.8514
X37.69219 Z14.82516
X37.79141 Z14.79464
X37.89062 Z14.75974
X39.3293 Z14.19558
X39.37891 Z14.17548
X39.47812 Z14.13178
X39.57734 Z14.0833
X39.67656 Z14.02984
X39.77578 Z13.97119
X39.8874 Z13.89868
X41.21445 Z12.99262
X41.26406 Z12.95694
X41.31367 Z12.91974
X41.36328 Z12.88096
X41.41289 Z12.84057
X41.4625 Z12.79849
X41.51211 Z12.75466
X41.56172 Z12.70902
X41.61133 Z12.66149
X41.66094 Z12.61197
X41.85937 Z12.4046
X42.31826 Z11.92346
X42.85156 Z11.35776
X42.90117 Z11.30288
X42.95078 Z11.24565
X43.00039 Z11.18595
X43.05 Z11.12362
X43.09609 Z11.06319
X43.14219 Z11.0002
X43.18828 Z10.93445
X43.23437 Z10.86575
X43.28047 Z10.79386
X44.20234 Z9.32652
X44.24844 Z9.25124
X44.29453 Z9.17219
X44.34062 Z9.08898
X44.38672 Z9.00117
X44.43281 Z8.9082
X44.45586 Z8.85957
X44.47891 Z8.80938
X44.50195 Z8.75752
X44.54228 Z8.66231
X45.23945 Z6.9589
X45.2625 Z6.90055
X45.28555 Z6.83979
X45.30859 Z6.77639
X45.33164 Z6.71003
X45.35469 Z6.64035
X45.37773 Z6.56689
X45.40078 Z6.48908
X45.42383 Z6.40615
X45.44687 Z6.31713
X45.49297 Z6.12315
X45.89629 Z4.40903
X45.91934 Z4.3032
X45.93086 Z4.24582
X45.94238 Z4.18475
X45.95967 Z4.08448
X45.97695 Z3.97001
X45.98848 Z3.88215
X46. Z3.77994
X46.635
X46.76017 Y-60.20962 Z3.79583
X46.86628 Y-60.15504 Z3.84109
X46.93719 Y-60.07335 Z3.90882
X46.96209 Y-59.977 Z3.98871
X46.93719 Y-59.88064 Z4.0686
X46.86628 Y-59.79895 Z4.13633
X46.76017 Y-59.74437 Z4.18159
X46.635 Y-59.7252 Z4.19748
X46.
X45.9876 Z4.30682
X45.97519 Z4.40003
X45.96279 Z4.48254
X45.95039 Z4.55729
X45.93799 Z4.62607
X45.92559 Z4.69005
X45.91318 Z4.75007
X45.88915 Z4.8573
X45.4543 Z6.70449
X45.42949 Z6.80243
X45.40469 Z6.89295
X45.37988 Z6.97738
X45.35508 Z7.05669
X45.33027 Z7.13161
X45.30547 Z7.2027
X45.28066 Z7.27043
X45.25586 Z7.33515
X45.20625 Z7.45777
X44.53652 Z9.09383
X44.51172 Z9.15255
X44.48691 Z9.20911
X44.46211 Z9.26367
X44.4373 Z9.31639
X44.4125 Z9.3674
X44.36289 Z9.46472
X44.31328 Z9.55641
X44.26367 Z9.6431
X44.20166 Z9.74516
X43.27148 Z11.22568
X43.22187 Z11.30223
X43.17227 Z11.37481
X43.12266 Z11.44358
X43.07305 Z11.50929
X43.02344 Z11.57214
X42.97383 Z11.63232
X42.92422 Z11.68998
X42.87461 Z11.74526
X42.825 Z11.7983
X41.68398 Z12.99347
X41.63437 Z13.04393
X41.58477 Z13.09237
X41.53516 Z13.13888
X41.48555 Z13.18354
X41.43594 Z13.22642
X41.38633 Z13.26759
X41.33672 Z13.30711
X41.28711 Z13.34504
X41.2375 Z13.38142
X41.16309 Z13.43326
X39.87324 Z14.31347
X39.84844 Z14.32999
X39.74922 Z14.3926
X39.65 Z14.44984
X39.55078 Z14.50195
X39.45156 Z14.54914
X39.35234 Z14.59158
X37.91367 Z15.15619
X37.86406 Z15.17472
X37.76484 Z15.20843
X37.66562 Z15.23779
X37.56641 Z15.2629
X37.46719 Z15.28383
X37.36797 Z15.30064
X37.26875 Z15.31397
X36.43779 Z15.42195
X35.9293 Z15.50184
X35.87969 Z15.50902
X35.78047 Z15.52034
X35.68125 Z15.52763
X35.58203 Z15.53092
X35.48281 Z15.53021
X35.38359 Z15.52551
X35.33398 Z15.52166
X35.30918 Z15.5202
X34.8875
X34.67666 Z15.52141
X34.66426 Z15.52181
X34.58984 Z15.52716
X34.49062 Z15.5308
X34.39141 Z15.53043
X34.29219 Z15.52608
X34.19297 Z15.51771
X34.14336 Z15.51201
X33.8457 Z15.47315
X33.17598 Z15.37176
X32.65508 Z15.30396
X32.60547 Z15.29654
X32.50625 Z15.27863
X32.40703 Z15.25659
X32.30781 Z15.23035
X32.20859 Z15.19984
X32.10937 Z15.16494
X30.6707 Z14.60077
X30.62109 Z14.58067
X30.52187 Z14.53697
X30.42266 Z14.48849
X30.32344 Z14.43503
X30.22422 Z14.37638
X30.1126 Z14.30387
X28.78555 Z13.39781
X28.73594 Z13.36213
X28.68633 Z13.32493
X28.63672 Z13.28616
X28.58711 Z13.24576
X28.5375 Z13.20368
X28.48789 Z13.15985
X28.43828 Z13.11421
X28.38867 Z13.06668
X28.33906 Z13.01717
X28.14062 Z12.80979
X27.14844 Z11.77018
X27.09883 Z11.71595
X27.04922 Z11.65941
X26.99961 Z11.60042
X26.95 Z11.53883
X26.90391 Z11.47913
X26.85781 Z11.41689
X26.81172 Z11.35188
X26.76562 Z11.2833
X26.71953 Z11.21141
X25.79766 Z9.74407
X25.75156 Z9.66879
X25.70547 Z9.58973
X25.65937 Z9.50653
X25.61328 Z9.41872
X25.56719 Z9.32575
X25.54414 Z9.27712
X25.52109 Z9.22693
X25.49805 Z9.17507
X25.45771 Z9.07986
X24.76055 Z7.37645
X24.7375 Z7.31809
X24.71445 Z7.25734
X24.69141 Z7.19394
X24.66836 Z7.12758
X24.64531 Z7.0579
X24.62227 Z6.98444
X24.59922 Z6.90662
X24.57617 Z6.8237
X24.55312 Z6.73467
X24.50703 Z6.5407
X24.10371 Z4.82657
X24.08066 Z4.72075
X24.06914 Z4.66337
X24.05762 Z4.6023
X24.04033 Z4.50203
X24.02305 Z4.38756
X24.01152 Z4.29969
X24. Z4.19748
X23.365
X23.23983 Y-59.70603 Z4.21337
X23.13371 Y-59.65145 Z4.25863
X23.06281 Y-59.56977 Z4.32636
X23.03791 Y-59.47341 Z4.40625
X23.06281 Y-59.37705 Z4.48615
X23.13371 Y-59.29536 Z4.55388
X23.23983 Y-59.24078 Z4.59914
X23.365 Y-59.22161 Z4.61503
X24.
X24.0124 Z4.72437
X24.0248 Z4.81757
X24.03721 Z4.90009
X24.04961 Z4.97484
X24.06201 Z5.04361
X24.07441 Z5.10759
X24.08682 Z5.16762
X24.11085 Z5.27484
X24.5457 Z7.12204
X24.57051 Z7.21998
X24.59531 Z7.3105
X24.62012 Z7.39493
X24.64492 Z7.47424
X24.66973 Z7.54915
X24.69453 Z7.62025
X24.71934 Z7.68797
X24.74414 Z7.75269
X24.79375 Z7.87531
X25.46348 Z9.51138
X25.48828 Z9.5701
X25.51309 Z9.62666
X25.53789 Z9.68122
X25.5627 Z9.73394
X25.5875 Z9.78495
X25.63711 Z9.88227
X25.68672 Z9.97396
X25.73633 Z10.06065
X25.79834 Z10.16271
X26.18281 Z10.77413
X26.72852 Z11.6323
X26.77812 Z11.70794
X26.82773 Z11.78001
X26.87734 Z11.84877
X26.92695 Z11.91448
X26.97656 Z11.97733
X27.02617 Z12.03751
X27.07578 Z12.09517
X27.12539 Z12.15045
X27.175 Z12.20349
X28.31602 Z13.39866
X28.36562 Z13.44912
X28.41523 Z13.49756
X28.46484 Z13.54407
X28.51445 Z13.58873
X28.56406 Z13.63161
X28.61367 Z13.67278
X28.66328 Z13.7123
X28.71289 Z13.75023
X28.7625 Z13.78661
X28.83691 Z13.83845
X30.12676 Z14.71866
X30.15156 Z14.73518
X30.25078 Z14.7978
X30.35 Z14.85503
X30.44922 Z14.90714
X30.54844 Z14.95433
X30.64766 Z14.99677
X32.08633 Z15.56139
X32.13594 Z15.57991
X32.23516 Z15.61363
X32.33437 Z15.64299
X32.43359 Z15.66809
X32.53281 Z15.68902
X32.63203 Z15.70584
X32.73125 Z15.71917
X33.32656 Z15.79682
X34.09551 Z15.91352
X34.12031 Z15.91696
X34.21953 Z15.9282
X34.31875 Z15.93545
X34.41797 Z15.93872
X34.51719 Z15.93801
X34.5668 Z15.93662
X34.91406 Z15.93477
X35.41016 Z15.93498
X35.50937 Z15.93859
X35.60859 Z15.93823
X35.70781 Z15.9339
X35.80703 Z15.92559
X35.88144 Z15.91675
X35.96826 Z15.90453
X36.57598 Z15.80919
X37.34492 Z15.70916
X37.39453 Z15.70173
X37.49375 Z15.68382
X37.59297 Z15.66178
X37.69219 Z15.63555
X37.79141 Z15.60503
X37.89062 Z15.57013
X39.3293 Z15.00597
X39.37891 Z14.98587
X39.47812 Z14.94217
X39.57734 Z14.89368
X39.67656 Z14.84022
X39.77578 Z14.78157
X39.8874 Z14.70907
X41.21445 Z13.803
X41.26406 Z13.76732
X41.31367 Z13.73012
X41.36328 Z13.69135
X41.41289 Z13.65095
X41.4625 Z13.60887
X41.51211 Z13.56505
X41.56172 Z13.51941
X41.61133 Z13.47187
X41.66094 Z13.42236
X41.85937 Z13.21499
X42.85156 Z12.17537
X42.90117 Z12.12114
X42.95078 Z12.0646
X43.00039 Z12.00561
X43.05 Z11.94402
X43.09609 Z11.88432
X43.14219 Z11.82208
X43.18828 Z11.75711
X43.23437 Z11.68923
X43.28047 Z11.61821
X43.86816 Z10.69353
X44.20234 Z10.16162
X44.24844 Z10.08634
X44.29453 Z10.00729
X44.34062 Z9.92408
X44.38672 Z9.83627
X44.43281 Z9.7433
X44.45586 Z9.69467
X44.47891 Z9.64448
X44.50195 Z9.59262
X44.54228 Z9.49741
X45.23945 Z7.794
X45.2625 Z7.73564
X45.28555 Z7.67489
X45.30859 Z7.61149
X45.33164 Z7.54513
X45.35469 Z7.47545
X45.37773 Z7.40199
X45.40078 Z7.32417
X45.42383 Z7.24125
X45.44687 Z7.15222
X45.49297 Z6.95825
X45.89629 Z5.24412
X45.91934 Z5.13829
X45.93086 Z5.08091
X45.94238 Z5.01984
X45.95967 Z4.91957
X45.97695 Z4.8051
X45.98848 Z4.71724
X46. Z4.61503
X46.635
X46.76017 Y-59.20245 Z4.63092
X46.86628 Y-59.14787 Z4.67617
X46.93719 Y-59.06618 Z4.74391
X46.96209 Y-58.96982 Z4.8238
X46.93719 Y-58.87346 Z4.90369
X46.86628 Y-58.79178 Z4.97142
X46.76017 Y-58.73719 Z5.01668
X46.635 Y-58.71803 Z5.03257
X46.
X45.9876 Z5.14191
X45.97519 Z5.23512
X45.96279 Z5.31763
X45.95039 Z5.39238
X45.93799 Z5.46115
X45.92559 Z5.52514
X45.91318 Z5.58516
X45.88915 Z5.69239
X45.4543 Z7.53958
X45.42949 Z7.63753
X45.40469 Z7.72805
X45.37988 Z7.81248
X45.35508 Z7.89178
X45.33027 Z7.9667
X45.30547 Z8.0378
X45.28066 Z8.10552
X45.25586 Z8.17024
X45.20625 Z8.29286
X44.53652 Z9.92893
X44.51172 Z9.98765
X44.48691 Z10.04421
X44.46211 Z10.09877
X44.4373 Z10.15103
X44.4125 Z10.20143
X44.36289 Z10.29759
X44.31328 Z10.38818
X44.26367 Z10.47383
X44.20166 Z10.57467
X43.27148 Z12.0375
X43.22187 Z12.11313
X43.17227 Z12.1852
X43.12266 Z12.25396
X43.07305 Z12.31967
X43.02344 Z12.38252
X42.97383 Z12.4427
X42.92422 Z12.50036
X42.87461 Z12.55564
X42.825 Z12.60868
X41.68398 Z13.80385
X41.63437 Z13.85431
X41.58477 Z13.90275
X41.53516 Z13.94926
X41.48555 Z13.99392
X41.43594 Z14.03681
X41.38633 Z14.07798
X41.33672 Z14.1175
X41.28711 Z14.15542
X41.2375 Z14.1918
X41.16309 Z14.24364
X39.87324 Z15.12385
X39.84844 Z15.14038
X39.74922 Z15.20299
X39.65 Z15.26023
X39.55078 Z15.31233
X39.45156 Z15.35952
X39.35234 Z15.40196
X37.91367 Z15.96658
X37.86406 Z15.9851
X37.76484 Z16.01882
X37.66562 Z16.04818
X37.56641 Z16.07328
X37.46719 Z16.09421
X37.36797 Z16.11103
X37.26875 Z16.12436
X36.69824 Z16.19859
X36.17734 Z16.28028
X35.85488 Z16.32233
X35.78047 Z16.33039
X35.68125 Z16.33764
X35.58203 Z16.3409
X35.48281 Z16.3402
X35.37119 Z16.33472
X34.63945
X34.58984 Z16.33717
X34.49062 Z16.34078
X34.39141 Z16.34042
X34.29219 Z16.33609
X34.19297 Z16.32777
X34.08135 Z16.31363
X33.44883 Z16.21761
X32.65508 Z16.11435
X32.60547 Z16.10693
X32.50625 Z16.08902
X32.40703 Z16.06698
X32.30781 Z16.04074
X32.20859 Z16.01022
X32.10937 Z15.97533
X30.6707 Z15.41116
X30.62109 Z15.39106
X30.52187 Z15.34736
X30.42266 Z15.29887
X30.32344 Z15.24542
X30.22422 Z15.18676
X30.1126 Z15.11426
X28.78555 Z14.20819
X28.73594 Z14.17251
X28.68633 Z14.13531
X28.63672 Z14.09654
X28.58711 Z14.05614
X28.5375 Z14.01406
X28.48789 Z13.97024
X28.43828 Z13.9246
X28.38867 Z13.87706
X28.33906 Z13.82755
X28.14062 Z13.62018
X27.14844 Z12.58056
X27.09883 Z12.52633
X27.04922 Z12.46979
X26.99961 Z12.4108
X26.95 Z12.34921
X26.90391 Z12.28951
X26.85781 Z12.22727
X26.81172 Z12.1623
X26.76562 Z12.09442
X26.71953 Z12.0234
X25.79766 Z10.57359
X25.75156 Z10.49921
X25.70547 Z10.4211
X25.65937 Z10.3389
X25.61328 Z10.25213
X25.56719 Z10.16028
X25.54414 Z10.11217
X25.52109 Z10.06203
X25.49805 Z10.01017
X25.45771 Z9.91496
X24.76055 Z8.21154
X24.7375 Z8.15319
X24.71445 Z8.09244
X24.69141 Z8.02903
X24.66836 Z7.96268
X24.64531 Z7.893
X24.62227 Z7.81954
X24.59922 Z7.74172
X24.57617 Z7.6588
X24.55312 Z7.56977
X24.50703 Z7.37579
X24.10371 Z5.66166
X24.08066 Z5.55584
X24.06914 Z5.49846
X24.05762 Z5.43739
X24.04033 Z5.33711
X24.02305 Z5.22265
X24.01152 Z5.13478
X24. Z5.03257
X23.365
X23.23983 Y-58.69886 Z5.04846
X23.13371 Y-58.64428 Z5.09372
X23.06281 Y-58.56259 Z5.16145
X23.03791 Y-58.46623 Z5.24134
X23.06281 Y-58.36988 Z5.32124
X23.13371 Y-58.28819 Z5.38897
X23.23983 Y-58.23361 Z5.43422
X23.365 Y-58.21444 Z5.45012
X24.
X24.0124 Z5.55945
X24.0248 Z5.65266
X24.03721 Z5.73518
X24.04961 Z5.80993
X24.06201 Z5.8787
X24.07441 Z5.94268
X24.08682 Z6.00271
X24.11085 Z6.10993
X24.5457 Z7.95713
X24.57051 Z8.05507
X24.59531 Z8.1456
X24.62012 Z8.23002
X24.64492 Z8.30933
X24.66973 Z8.38425
X24.69453 Z8.45534
X24.71934 Z8.52307
X24.74414 Z8.58779
X24.79375 Z8.71041
X25.14102 Z9.55805
X25.46348 Z10.33631
X25.48828 Z10.39434
X25.51309 Z10.45022
X25.53789 Z10.50413
X25.5627 Z10.55622
X25.5875 Z10.60661
X25.63711 Z10.70277
X25.68672 Z10.79337
X25.73633 Z10.87902
X25.79834 Z10.97986
X26.72852 Z12.44269
X26.77812 Z12.51832
X26.82773 Z12.59039
X26.87734 Z12.65915
X26.92695 Z12.72486
X26.97656 Z12.78771
X27.02617 Z12.84789
X27.07578 Z12.90555
X27.12539 Z12.96084
X27.175 Z13.01387
X28.31602 Z14.20904
X28.36562 Z14.2595
X28.41523 Z14.30794
X28.46484 Z14.35446
X28.51445 Z14.39912
X28.56406 Z14.442
X28.61367 Z14.48317
X28.66328 Z14.52269
X28.71289 Z14.56061
X28.7625 Z14.59699
X28.83691 Z14.64884
X30.12676 Z15.52905
X30.15156 Z15.54557
X30.25078 Z15.60818
X30.35 Z15.66542
X30.44922 Z15.71753
X30.54844 Z15.76471
X30.64766 Z15.80716
X32.08633 Z16.37177
X32.13594 Z16.3903
X32.23516 Z16.42401
X32.33437 Z16.45337
X32.43359 Z16.47848
X32.53281 Z16.49941
X32.63203 Z16.51622
X32.73125 Z16.52955
X33.59941 Z16.64263
X34.09551 Z16.71789
X34.12031 Z16.72133
X34.21953 Z16.73258
X34.31875 Z16.73983
X34.41797 Z16.74309
X34.51719 Z16.74239
X34.61641 Z16.73772
X34.70322 Z16.73036
X35.29854 Z16.73054
X35.41016 Z16.73936
X35.50937 Z16.74297
X35.60859 Z16.74261
X35.70781 Z16.73828
X35.80703 Z16.72996
X35.85664 Z16.72431
X36.40234 Z16.6535
X36.83643 Z16.58573
X37.34492 Z16.51954
X37.39453 Z16.51212
X37.49375 Z16.49421
X37.59297 Z16.47217
X37.69219 Z16.44593
X37.79141 Z16.41542
X37.89062 Z16.38052
X39.3293 Z15.81635
X39.37891 Z15.79625
X39.47812 Z15.75255
X39.57734 Z15.70407
X39.67656 Z15.65061
X39.77578 Z15.59196
X39.8874 Z15.51945
X41.21445 Z14.61338
X41.26406 Z14.5777
X41.31367 Z14.5405
X41.36328 Z14.50173
X41.41289 Z14.46133
X41.4625 Z14.41925
X41.51211 Z14.37543
X41.56172 Z14.32979
X41.61133 Z14.28225
X41.66094 Z14.23274
X41.85937 Z14.02537
X42.85156 Z12.98575
X42.90117 Z12.93152
X42.95078 Z12.87498
X43.00039 Z12.81599
X43.05 Z12.7544
X43.09609 Z12.6947
X43.14219 Z12.63246
X43.18828 Z12.5675
X43.23437 Z12.49961
X43.28047 Z12.42859
X44.20234 Z10.97878
X44.24844 Z10.9044
X44.29453 Z10.82629
X44.34062 Z10.74408
X44.38672 Z10.65733
X44.43281 Z10.56547
X44.45586 Z10.51742
X44.47891 Z10.46783
X44.50195 Z10.41658
X44.54228 Z10.32251
X44.89375 Z9.47386
X45.23945 Z8.62909
X45.2625 Z8.57074
X45.28555 Z8.50998
X45.30859 Z8.44658
X45.33164 Z8.38022
X45.35469 Z8.31054
X45.37773 Z8.23708
X45.40078 Z8.15927
X45.42383 Z8.07634
X45.44687 Z7.98732
X45.49297 Z7.79334
X45.89629 Z6.07921
X45.91934 Z5.97338
X45.93086 Z5.916
X45.94238 Z5.85493
X45.95967 Z5.75466
X45.97695 Z5.64019
X45.98848 Z5.55233
X46. Z5.45012
X46.635
X46.76017 Y-58.19527 Z5.46601
X46.86628 Y-58.14069 Z5.51127
X46.93719 Y-58.059 Z5.57899
X46.96209 Y-57.96265 Z5.65889
X46.93719 Y-57.86629 Z5.73878
X46.86628 Y-57.7846 Z5.80651
X46.76017 Y-57.73002 Z5.85177
X46.635 Y-57.71085 Z5.86766
X46.
X45.9876 Z5.977
X45.97519 Z6.07021
X45.96279 Z6.15272
X45.95039 Z6.22747
X45.93799 Z6.29624
X45.92559 Z6.36023
X45.91318 Z6.42025
X45.88915 Z6.52748
X45.4543 Z8.37468
X45.42949 Z8.47262
X45.40469 Z8.56314
X45.37988 Z8.64757
X45.35508 Z8.72688
X45.33027 Z8.8018
X45.30547 Z8.87288
X45.28066 Z8.93989
X45.25586 Z9.00384
X45.20625 Z9.12499
X44.53652 Z10.74151
X44.51172 Z10.79953
X44.48691 Z10.85541
X44.46211 Z10.90932
X44.4373 Z10.96141
X44.4125 Z11.0118
X44.36289 Z11.10796
X44.31328 Z11.19856
X44.26367 Z11.28421
X44.20166 Z11.38505
X43.27148 Z12.84788
X43.22187 Z12.92351
X43.17227 Z12.99558
X43.12266 Z13.06434
X43.07305 Z13.13005
X43.02344 Z13.1929
X42.97383 Z13.25308
X42.92422 Z13.31074
X42.87461 Z13.36603
X42.825 Z13.41906
X41.68398 Z14.61423
X41.63437 Z14.6647
X41.58477 Z14.71314
X41.53516 Z14.75965
X41.48555 Z14.80431
X41.43594 Z14.84719
X41.38633 Z14.88836
X41.33672 Z14.92788
X41.28711 Z14.96581
X41.2375 Z15.00219
X41.16309 Z15.05403
X39.87324 Z15.93424
X39.84844 Z15.95077
X39.74922 Z16.01338
X39.65 Z16.07061
X39.55078 Z16.12272
X39.45156 Z16.16991
X39.35234 Z16.21235
X37.91367 Z16.77697
X37.86406 Z16.79549
X37.76484 Z16.82921
X37.66562 Z16.85857
X37.56641 Z16.88367
X37.46719 Z16.9046
X37.36797 Z16.92142
X36.95869 Z16.97526
X36.67344 Z17.02006
X36.59902 Z17.03034
X35.85488 Z17.12671
X35.78047 Z17.13477
X35.68125 Z17.14202
X35.58203 Z17.14528
X35.48281 Z17.14458
X35.38359 Z17.1399
X35.28437 Z17.13124
X35.23477 Z17.12579
X34.76348
X34.68906 Z17.13395
X34.58984 Z17.14154
X34.49062 Z17.14516
X34.39141 Z17.1448
X34.29219 Z17.14047
X34.19297 Z17.13215
X34.08135 Z17.118
X33.72168 Z17.06345
X32.65508 Z16.92474
X32.60547 Z16.91731
X32.50625 Z16.8994
X32.40703 Z16.87736
X32.30781 Z16.85113
X32.20859 Z16.82061
X32.10937 Z16.78571
X30.6707 Z16.22155
X30.62109 Z16.20144
X30.52187 Z16.15775
X30.42266 Z16.10926
X30.32344 Z16.0558
X30.22422 Z15.99715
X30.1126 Z15.92464
X28.78555 Z15.01858
X28.73594 Z14.9829
X28.68633 Z14.94569
X28.63672 Z14.90692
X28.58711 Z14.86653
X28.5375 Z14.82445
X28.48789 Z14.78062
X28.43828 Z14.73498
X28.38867 Z14.68745
X28.33906 Z14.63793
X28.14062 Z14.43056
X27.14844 Z13.39094
X27.09883 Z13.33671
X27.04922 Z13.28017
X26.99961 Z13.22118
X26.95 Z13.15959
X26.90391 Z13.09989
X26.85781 Z13.03765
X26.81172 Z12.97269
X26.76562 Z12.9048
X26.71953 Z12.83378
X25.79766 Z11.38397
X25.75156 Z11.30959
X25.70547 Z11.23148
X25.65937 Z11.14927
X25.61328 Z11.06251
X25.56719 Z10.97066
X25.54414 Z10.92261
X25.52109 Z10.87302
X25.49805 Z10.82177
X25.45771 Z10.7277
X24.76055 Z9.04465
X24.7375 Z8.98699
X24.71445 Z8.92696
X24.69141 Z8.86413
X24.66836 Z8.79777
X24.64531 Z8.72809
X24.62227 Z8.65463
X24.59922 Z8.57681
X24.57617 Z8.49389
X24.55312 Z8.40486
X24.50703 Z8.21089
X24.10371 Z6.49675
X24.08066 Z6.39093
X24.06914 Z6.33355
X24.05762 Z6.27248
X24.04033 Z6.1722
X24.02305 Z6.05773
X24.01152 Z5.96987
X24. Z5.86766
X23.365
X23.23983 Y-57.69169 Z5.88355
X23.13371 Y-57.6371 Z5.92881
X23.06281 Y-57.55542 Z5.99654
X23.03791 Y-57.45906 Z6.07643
X23.06281 Y-57.3627 Z6.15633
X23.13371 Y-57.28101 Z6.22406
X23.23983 Y-57.22643 Z6.26931
X23.365 Y-57.20727 Z6.28521
X24.
X24.0124 Z6.39454
X24.0248 Z6.48775
X24.03721 Z6.57027
X24.04961 Z6.64502
X24.06201 Z6.71379
X24.07441 Z6.77777
X24.08682 Z6.8378
X24.11085 Z6.94502
X24.44648 Z8.36988
X24.5457 Z8.78591
X24.57051 Z8.88268
X24.59531 Z8.97212
X24.62012 Z9.05554
X24.64492 Z9.1339
X24.66973 Z9.20792
X24.69453 Z9.27817
X24.71934 Z9.34508
X24.74414 Z9.40902
X24.79375 Z9.53018
X25.46348 Z11.14669
X25.48828 Z11.20471
X25.51309 Z11.26059
X25.53789 Z11.3145
X25.5627 Z11.36659
X25.5875 Z11.41699
X25.63711 Z11.51315
X25.68672 Z11.60375
X25.73633 Z11.68939
X25.79834 Z11.79024
X26.72852 Z13.25307
X26.77812 Z13.3287
X26.82773 Z13.40077
X26.87734 Z13.46953
X26.92695 Z13.53524
X26.97656 Z13.59809
X27.02617 Z13.65827
X27.07578 Z13.71593
X27.12539 Z13.77122
X27.175 Z13.82425
X28.31602 Z15.01943
X28.36562 Z15.06989
X28.41523 Z15.11833
X28.46484 Z15.16484
X28.51445 Z15.2095
X28.56406 Z15.25238
X28.61367 Z15.29355
X28.66328 Z15.33307
X28.71289 Z15.371
X28.7625 Z15.40738
X28.83691 Z15.45922
X30.12676 Z16.33943
X30.15156 Z16.35596
X30.25078 Z16.41857
X30.35 Z16.47581
X30.44922 Z16.52791
X30.54844 Z16.5751
X30.64766 Z16.61754
X32.08633 Z17.18216
X32.13594 Z17.20068
X32.23516 Z17.2344
X32.33437 Z17.26376
X32.43359 Z17.28887
X32.53281 Z17.30979
X32.63203 Z17.32661
X32.73125 Z17.33994
X33.87226 Z17.48845
X34.12031 Z17.52571
X34.21953 Z17.53696
X34.31875 Z17.5442
X34.41797 Z17.54747
X34.51719 Z17.54677
X34.61641 Z17.54209
X34.71562 Z17.53343
X34.81484 Z17.52133
X35.18691
X35.31094 Z17.53614
X35.41016 Z17.54373
X35.50937 Z17.54734
X35.60859 Z17.54699
X35.70781 Z17.54265
X35.80703 Z17.53434
X35.85664 Z17.52868
X36.87363 Z17.39688
X37.10928 Z17.36066
X37.34492 Z17.32993
X37.39453 Z17.32251
X37.49375 Z17.3046
X37.59297 Z17.28256
X37.69219 Z17.25632
X37.79141 Z17.2258
X37.89062 Z17.19091
X39.3293 Z16.62674
X39.37891 Z16.60664
X39.47812 Z16.56294
X39.57734 Z16.51446
X39.67656 Z16.46099
X39.77578 Z16.40234
X39.8874 Z16.32984
X41.21445 Z15.42377
X41.26406 Z15.38809
X41.31367 Z15.35089
X41.36328 Z15.31211
X41.41289 Z15.27172
X41.4625 Z15.22964
X41.51211 Z15.18581
X41.56172 Z15.14017
X41.61133 Z15.09264
X41.66094 Z15.04313
X41.85937 Z14.83575
X42.85156 Z13.79613
X42.90117 Z13.7419
X42.95078 Z13.68536
X43.00039 Z13.62637
X43.05 Z13.56478
X43.09609 Z13.50508
X43.14219 Z13.44284
X43.18828 Z13.37788
X43.23437 Z13.30999
X43.28047 Z13.23897
X44.20234 Z11.78916
X44.24844 Z11.71478
X44.29453 Z11.63667
X44.34062 Z11.55446
X44.38672 Z11.4677
X44.43281 Z11.37584
X44.45586 Z11.3278
X44.47891 Z11.27821
X44.50195 Z11.22696
X44.54228 Z11.13289
X45.23945 Z9.44984
X45.2625 Z9.39218
X45.28555 Z9.33215
X45.30859 Z9.26951
X45.33164 Z9.20394
X45.35469 Z9.1351
X45.37773 Z9.06251
X45.40078 Z8.98563
X45.42383 Z8.9037
X45.44687 Z8.81573
X45.49297 Z8.62407
X45.58516 Z8.23672
X45.89629 Z6.91429
X45.91934 Z6.80847
X45.93086 Z6.75109
X45.94238 Z6.69002
X45.95967 Z6.58975
X45.97695 Z6.47528
X45.98848 Z6.38742
X46. Z6.28521
X46.635
X46.76017 Y-57.1881 Z6.3011
X46.86628 Y-57.13352 Z6.34635
X46.93719 Y-57.05183 Z6.41408
X46.96209 Y-56.95547 Z6.49398
X46.93719 Y-56.85912 Z6.57387
X46.86628 Y-56.77743 Z6.6416
X46.76017 Y-56.72285 Z6.68686
X46.635 Y-56.70368 Z6.70275
X46.
X45.9876 Z6.81209
X45.97519 Z6.9053
X45.96279 Z6.98781
X45.95039 Z7.06256
X45.93799 Z7.13133
X45.92559 Z7.19531
X45.91318 Z7.25534
X45.88915 Z7.36257
X45.80156 Z7.73371
X45.4543 Z9.1911
X45.42949 Z9.28787
X45.40469 Z9.37731
X45.37988 Z9.46072
X45.35508 Z9.53908
X45.33027 Z9.61311
X45.30547 Z9.68335
X45.28066 Z9.75027
X45.25586 Z9.81421
X45.20625 Z9.93537
X44.53652 Z11.55188
X44.51172 Z11.6099
X44.48691 Z11.66578
X44.46211 Z11.71969
X44.4373 Z11.77178
X44.4125 Z11.82218
X44.36289 Z11.91834
X44.31328 Z12.00894
X44.26367 Z12.09458
X44.20166 Z12.19543
X43.27148 Z13.65826
X43.22187 Z13.73389
X43.17227 Z13.80596
X43.12266 Z13.87473
X43.07305 Z13.94043
X43.02344 Z14.00328
X42.97383 Z14.06346
X42.92422 Z14.12112
X42.87461 Z14.17641
X42.825 Z14.22944
X41.68398 Z15.42462
X41.63437 Z15.47508
X41.58477 Z15.52352
X41.53516 Z15.57003
X41.48555 Z15.61469
X41.43594 Z15.65757
X41.38633 Z15.69874
X41.33672 Z15.73827
X41.28711 Z15.77619
X41.2375 Z15.81257
X41.16309 Z15.86441
X39.87324 Z16.74463
X39.84844 Z16.76115
X39.74922 Z16.82376
X39.65 Z16.881
X39.55078 Z16.93311
X39.45156 Z16.98029
X39.35234 Z17.02274
X37.91367 Z17.58735
X37.86406 Z17.60588
X37.76484 Z17.63959
X37.66562 Z17.66895
X37.56641 Z17.69406
X37.46719 Z17.71499
X37.36797 Z17.7318
X37.21914 Z17.75192
X37.11992 Z17.7671
X35.85488 Z17.93109
X35.78047 Z17.93915
X35.68125 Z17.94639
X35.58203 Z17.94966
X35.48281 Z17.94896
X35.38359 Z17.94428
X35.28437 Z17.93562
X35.18516 Z17.92295
X35.14795 Z17.91716
X34.8627 Z17.91687
X34.85029 Z17.91744
X34.78828 Z17.92674
X34.68906 Z17.93833
X34.58984 Z17.94592
X34.49062 Z17.94953
X34.39141 Z17.94917
X34.29219 Z17.94484
X34.19297 Z17.93653
X34.08135 Z17.92238
X33.99453 Z17.90929
X32.65508 Z17.73513
X32.60547 Z17.7277
X32.50625 Z17.70979
X32.40703 Z17.68775
X32.30781 Z17.66152
X32.20859 Z17.631
X32.10937 Z17.5961
X30.6707 Z17.03193
X30.62109 Z17.01183
X30.52187 Z16.96813
X30.42266 Z16.91965
X30.32344 Z16.86619
X30.22422 Z16.80754
X30.1126 Z16.73503
X28.78555 Z15.82896
X28.73594 Z15.79328
X28.68633 Z15.75608
X28.63672 Z15.71731
X28.58711 Z15.67691
X28.5375 Z15.63483
X28.48789 Z15.59101
X28.43828 Z15.54536
X28.38867 Z15.49783
X28.33906 Z15.44832
X28.14062 Z15.24094
X27.14844 Z14.20132
X27.09883 Z14.14709
X27.04922 Z14.09055
X26.99961 Z14.03156
X26.95 Z13.96997
X26.90391 Z13.91027
X26.85781 Z13.84803
X26.81172 Z13.78307
X26.76562 Z13.71518
X26.71953 Z13.64416
X25.79766 Z12.19435
X25.75156 Z12.11997
X25.70547 Z12.04186
X25.65937 Z11.95965
X25.61328 Z11.87289
X25.56719 Z11.78103
X25.54414 Z11.73299
X25.52109 Z11.6834
X25.49805 Z11.63215
X25.45771 Z11.53808
X24.76055 Z9.85502
X24.7375 Z9.79737
X24.71445 Z9.73734
X24.69141 Z9.67469
X24.66836 Z9.60913
X24.64531 Z9.54028
X24.62227 Z9.4677
X24.59922 Z9.39081
X24.57617 Z9.30888
X24.55312 Z9.22092
X24.50703 Z9.02926
X24.16133 Z7.57707
X24.10371 Z7.33184
X24.08066 Z7.22602
X24.06914 Z7.16864
X24.05762 Z7.10757
X24.04033 Z7.00729
X24.02305 Z6.89282
X24.01152 Z6.80496
X24. Z6.70275
X23.365
X23.23996 Y-56.68451 Z6.7186
X23.13395 Y-56.62993 Z6.76374
X23.06312 Y-56.54824 Z6.8313
X23.03825 Y-56.45189 Z6.91099
X23.06312 Y-56.35553 Z6.99068
X23.13395 Y-56.27384 Z7.05824
X23.23996 Y-56.21926 Z7.10338
X23.365 Y-56.20009 Z7.11923
X24.
X24.0124 Z7.22726
X24.0248 Z7.31935
X24.03721 Z7.40088
X24.04961 Z7.47474
X24.06201 Z7.54269
X24.07441 Z7.6059
X24.08682 Z7.66522
X24.11085 Z7.77116
X24.5457 Z9.59628
X24.57051 Z9.69305
X24.59531 Z9.78249
X24.62012 Z9.86591
X24.64492 Z9.94427
X24.66973 Z10.01829
X24.69453 Z10.08854
X24.71934 Z10.15545
X24.74414 Z10.2194
X24.79375 Z10.34055
X25.46348 Z11.95707
X25.48828 Z12.01509
X25.51309 Z12.07097
X25.53789 Z12.12488
X25.5627 Z12.17697
X25.5875 Z12.22737
X25.63711 Z12.32353
X25.68672 Z12.41413
X25.73633 Z12.49977
X25.79834 Z12.60062
X26.72852 Z14.06345
X26.77812 Z14.13908
X26.82773 Z14.21115
X26.87734 Z14.27992
X26.92695 Z14.34562
X26.97656 Z14.40847
X27.02617 Z14.46865
X27.07578 Z14.52631
X27.12539 Z14.5816
X27.175 Z14.63463
X28.31602 Z15.82981
X28.36562 Z15.88027
X28.41523 Z15.92871
X28.46484 Z15.97522
X28.51445 Z16.01988
X28.56406 Z16.06277
X28.61367 Z16.10394
X28.66328 Z16.14346
X28.71289 Z16.18138
X28.7625 Z16.21776
X28.83691 Z16.2696
X30.12676 Z17.14982
X30.15156 Z17.16634
X30.25078 Z17.22895
X30.35 Z17.28619
X30.44922 Z17.3383
X30.54844 Z17.38548
X30.64766 Z17.42793
X32.08633 Z17.99255
X32.13594 Z18.01107
X32.23516 Z18.04479
X32.33437 Z18.07415
X32.43359 Z18.0992
X32.53281 Z18.12
X32.63203 Z18.13666
X32.83047 Z18.16257
X34.14512 Z18.33112
X34.21953 Z18.3391
X34.31875 Z18.34627
X34.41797 Z18.3495
X34.51719 Z18.34881
X34.61641 Z18.34418
X34.71562 Z18.33561
X34.81484 Z18.32307
X34.87686 Z18.3132
X34.88926 Z18.31241
X35.1125
X35.1249 Z18.3135
X35.16211 Z18.31958
X35.21172 Z18.32682
X35.31094 Z18.33829
X35.41016 Z18.34581
X35.50937 Z18.34938
X35.60859 Z18.34902
X35.70781 Z18.34474
X35.80703 Z18.33651
X35.88144 Z18.32774
X37.29531 Z18.14644
X37.39453 Z18.1326
X37.49375 Z18.11484
X37.59297 Z18.09291
X37.69219 Z18.06671
X37.79141 Z18.03619
X37.89062 Z18.00129
X39.3293 Z17.43713
X39.37891 Z17.41702
X39.47812 Z17.37332
X39.57734 Z17.32484
X39.67656 Z17.27138
X39.77578 Z17.21273
X39.8874 Z17.14022
X41.21445 Z16.23415
X41.26406 Z16.19847
X41.31367 Z16.16127
X41.36328 Z16.1225
X41.41289 Z16.0821
X41.4625 Z16.04002
X41.51211 Z15.9962
X41.56172 Z15.95056
X41.61133 Z15.90302
X41.66094 Z15.85351
X41.85937 Z15.64614
X42.85156 Z14.60651
X42.90117 Z14.55228
X42.95078 Z14.49574
X43.00039 Z14.43675
X43.05 Z14.37517
X43.09609 Z14.31546
X43.14219 Z14.25322
X43.18828 Z14.18826
X43.23437 Z14.12038
X43.28047 Z14.04935
X44.20234 Z12.59954
X44.24844 Z12.52516
X44.29453 Z12.44705
X44.34062 Z12.36484
X44.38672 Z12.27808
X44.43281 Z12.18622
X44.45586 Z12.13818
X44.47891 Z12.08859
X44.50195 Z12.03734
X44.54228 Z11.94327
X45.23945 Z10.26021
X45.2625 Z10.20255
X45.28555 Z10.14253
X45.30859 Z10.07988
X45.33164 Z10.01432
X45.35469 Z9.94547
X45.37773 Z9.87289
X45.40078 Z9.796
X45.42383 Z9.71407
X45.44687 Z9.62611
X45.49297 Z9.43445
X45.89629 Z7.7408
X45.91934 Z7.63624
X45.93086 Z7.57954
X45.94238 Z7.5192
X45.95967 Z7.42013
X45.97695 Z7.30703
X45.98848 Z7.22022
X46. Z7.11923
X46.635
X46.75867 Y-56.18093 Z7.13465
X46.86352 Y-56.12634 Z7.17857
X46.93358 Y-56.04466 Z7.24429
X46.95818 Y-55.9483 Z7.32182
X46.93358 Y-55.85194 Z7.39935
X46.86352 Y-55.77025 Z7.46507
X46.75867 Y-55.71567 Z7.50899
X46.635 Y-55.6965 Z7.52441
X46.
X45.9876 Z7.63244
X45.97519 Z7.72454
X45.96279 Z7.80607
X45.95039 Z7.87992
X45.93799 Z7.94787
X45.92559 Z8.01109
X45.91318 Z8.0704
X45.88915 Z8.17634
X45.4543 Z10.00147
X45.42949 Z10.09824
X45.40469 Z10.18768
X45.37988 Z10.2711
X45.35508 Z10.34946
X45.33027 Z10.42348
X45.30547 Z10.49373
X45.28066 Z10.56064
X45.25586 Z10.62459
X45.20625 Z10.74574
X44.53652 Z12.36226
X44.51172 Z12.42028
X44.48691 Z12.47616
X44.46211 Z12.53007
X44.4373 Z12.58216
X44.4125 Z12.63256
X44.36289 Z12.72872
X44.31328 Z12.81932
X44.26367 Z12.90496
X44.20166 Z13.00581
X43.27148 Z14.46864
X43.22187 Z14.54428
X43.17227 Z14.61634
X43.12266 Z14.68511
X43.07305 Z14.75081
X43.02344 Z14.81367
X42.97383 Z14.87384
X42.92422 Z14.9315
X42.87461 Z14.98679
X42.825 Z15.03982
X41.68398 Z16.235
X41.63437 Z16.28546
X41.58477 Z16.33391
X41.53516 Z16.38042
X41.48555 Z16.42508
X41.43594 Z16.46796
X41.38633 Z16.50913
X41.33672 Z16.54865
X41.28711 Z16.58657
X41.2375 Z16.62295
X41.16309 Z16.67479
X39.94766 Z17.50393
X39.84844 Z17.57028
X39.74922 Z17.63204
X39.65 Z17.68851
X39.55078 Z17.73991
X39.45156 Z17.78646
X39.35234 Z17.82833
X37.91367 Z18.38532
X37.86406 Z18.40359
X37.76484 Z18.43685
X37.66562 Z18.46581
X37.56641 Z18.49058
X37.46719 Z18.51122
X37.36797 Z18.52781
X37.26875 Z18.54096
X36.07812 Z18.69359
X35.85488 Z18.72267
X35.78047 Z18.73064
X35.68125 Z18.73781
X35.58203 Z18.74105
X35.48281 Z18.74035
X35.38359 Z18.73572
X35.28437 Z18.72715
X35.18516 Z18.71461
X35.14795 Z18.70888
X35.13555 Z18.70795
X34.8627
X34.85029 Z18.70916
X34.78828 Z18.71836
X34.68906 Z18.72983
X34.58984 Z18.73735
X34.49062 Z18.74092
X34.39141 Z18.74057
X34.29219 Z18.73628
X34.19297 Z18.72805
X34.14336 Z18.72245
X32.65508 Z18.53109
X32.60547 Z18.52377
X32.50625 Z18.5061
X32.40703 Z18.48436
X32.30781 Z18.45847
X32.20859 Z18.42837
X32.10937 Z18.39394
X30.6707 Z17.8374
X30.62109 Z17.81757
X30.52187 Z17.77446
X30.42266 Z17.72664
X30.32344 Z17.6739
X30.22422 Z17.61604
X30.1126 Z17.54451
X29.92656 Z17.41845
X28.78555 Z16.63934
X28.73594 Z16.60366
X28.68633 Z16.56646
X28.63672 Z16.52769
X28.58711 Z16.48729
X28.5375 Z16.44522
X28.48789 Z16.40139
X28.43828 Z16.35575
X28.38867 Z16.30821
X28.33906 Z16.2587
X28.14062 Z16.05133
X27.14844 Z15.0117
X27.09883 Z14.95747
X27.04922 Z14.90093
X26.99961 Z14.84194
X26.95 Z14.78035
X26.90391 Z14.72065
X26.85781 Z14.65841
X26.81172 Z14.59345
X26.76562 Z14.52557
X26.71953 Z14.45454
X25.79766 Z13.00473
X25.75156 Z12.93035
X25.70547 Z12.85224
X25.65937 Z12.77003
X25.61328 Z12.68327
X25.56719 Z12.59141
X25.54414 Z12.54336
X25.52109 Z12.49377
X25.49805 Z12.44253
X25.45771 Z12.34846
X24.76055 Z10.6654
X24.7375 Z10.60774
X24.71445 Z10.54771
X24.69141 Z10.48507
X24.66836 Z10.4195
X24.64531 Z10.35066
X24.62227 Z10.27807
X24.59922 Z10.20119
X24.57617 Z10.11926
X24.55312 Z10.03129
X24.50703 Z9.83963
X24.10371 Z8.14598
X24.08066 Z8.04143
X24.06914 Z7.98473
X24.05762 Z7.92439
X24.04033 Z7.82532
X24.02305 Z7.71221
X24.01152 Z7.6254
X24. Z7.52441
X23.365
X23.24132 Y-55.67734 Z7.53983
X23.13648 Y-55.62276 Z7.58375
X23.06642 Y-55.54107 Z7.64948
X23.04182 Y-55.44471 Z7.727
X23.06642 Y-55.34835 Z7.80453
X23.13648 Y-55.26667 Z7.87026
X23.24132 Y-55.21208 Z7.91418
X23.365 Y-55.19292 Z7.9296
X24.
X24.0124 Z8.03763
X24.0248 Z8.12972
X24.03721 Z8.21125
X24.04961 Z8.28511
X24.06201 Z8.35306
X24.07441 Z8.41628
X24.08682 Z8.47558
X24.11085 Z8.58153
X24.5457 Z10.40666
X24.57051 Z10.50343
X24.59531 Z10.59287
X24.62012 Z10.67629
X24.64492 Z10.75465
X24.66973 Z10.82867
X24.69453 Z10.89891
X24.71934 Z10.96583
X24.74414 Z11.02977
X24.79375 Z11.15093
X25.46348 Z12.76745
X25.48828 Z12.82547
X25.51309 Z12.88135
X25.53789 Z12.93526
X25.5627 Z12.98735
X25.5875 Z13.03775
X25.63711 Z13.13391
X25.68672 Z13.2245
X25.73633 Z13.31015
X25.79834 Z13.41099
X26.72852 Z14.87383
X26.77812 Z14.94946
X26.82773 Z15.02153
X26.87734 Z15.0903
X26.92695 Z15.156
X26.97656 Z15.21885
X27.02617 Z15.27903
X27.07578 Z15.33669
X27.12539 Z15.39198
X27.175 Z15.44501
X28.31602 Z16.64019
X28.36562 Z16.69066
X28.41523 Z16.7391
X28.46484 Z16.78561
X28.51445 Z16.83021
X28.56406 Z16.87273
X28.61367 Z16.91334
X28.66328 Z16.95233
X28.71289 Z16.98974
X28.7625 Z17.02563
X28.83691 Z17.07677
X30.12676 Z17.94509
X30.15156 Z17.96139
X30.25078 Z18.02316
X30.35 Z18.07962
X30.44922 Z18.13102
X30.54844 Z18.17757
X30.64766 Z18.21944
X32.08633 Z18.77643
X32.13594 Z18.7947
X32.23516 Z18.82796
X32.33437 Z18.85693
X32.43359 Z18.88169
X32.53281 Z18.90234
X32.63203 Z18.91892
X32.90488 Z18.95458
X32.9793 Z18.96474
X34.14512 Z19.11421
X34.21953 Z19.12218
X34.31875 Z19.12935
X34.41797 Z19.13259
X34.51719 Z19.13189
X34.61641 Z19.12726
X34.71562 Z19.11869
X34.82725 Z19.1043
X34.83965 Z19.10348
X35.16211
X35.17451 Z19.10457
X35.21172 Z19.1099
X35.31094 Z19.12138
X35.41016 Z19.12889
X35.50937 Z19.13246
X35.60859 Z19.13211
X35.70781 Z19.12782
X35.80703 Z19.11959
X35.88144 Z19.11082
X36.30312 Z19.05586
X37.34492 Z18.9222
X37.39453 Z18.91488
X37.49375 Z18.89721
X37.59297 Z18.87547
X37.69219 Z18.84959
X37.79141 Z18.81948
X37.89062 Z18.78505
X39.3293 Z18.22852
X39.37891 Z18.20868
X39.47812 Z18.16558
X39.57734 Z18.11775
X39.67656 Z18.06501
X39.77578 Z18.00715
X39.8874 Z17.93563
X41.18965 Z17.05885
X41.26406 Z17.0066
X41.31367 Z16.9699
X41.36328 Z16.93166
X41.41289 Z16.8918
X41.4625 Z16.85022
X41.51211 Z16.80658
X41.56172 Z16.76094
X41.61133 Z16.7134
X41.66094 Z16.66389
X41.85937 Z16.45652
X42.85156 Z15.41689
X42.90117 Z15.36267
X42.95078 Z15.30612
X43.00039 Z15.24713
X43.05 Z15.18555
X43.09609 Z15.12585
X43.14219 Z15.0636
X43.18828 Z14.99864
X43.23437 Z14.93076
X43.28047 Z14.85973
X44.20234 Z13.40992
X44.24844 Z13.33554
X44.29453 Z13.25743
X44.34062 Z13.17522
X44.38672 Z13.08846
X44.43281 Z12.9966
X44.45586 Z12.94855
X44.47891 Z12.89896
X44.50195 Z12.84772
X44.54228 Z12.75365
X45.23945 Z11.07058
X45.2625 Z11.01293
X45.28555 Z10.9529
X45.30859 Z10.89025
X45.33164 Z10.82469
X45.35469 Z10.75584
X45.37773 Z10.68326
X45.40078 Z10.60637
X45.42383 Z10.52444
X45.44687 Z10.43648
X45.49297 Z10.24482
X45.89629 Z8.55117
X45.91934 Z8.44661
X45.93086 Z8.38992
X45.94238 Z8.32957
X45.95967 Z8.2305
X45.97695 Z8.1174
X45.98848 Z8.03059
X46. Z7.9296
X46.635
X46.75867 Y-55.17375 Z7.94502
X46.86352 Y-55.11917 Z7.98894
X46.93358 Y-55.03748 Z8.05466
X46.95818 Y-54.94112 Z8.13219
X46.93358 Y-54.84477 Z8.20972
X46.86352 Y-54.76308 Z8.27544
X46.75867 Y-54.7085 Z8.31936
X46.635 Y-54.68933 Z8.33478
X46.
X45.9876 Z8.44281
X45.97519 Z8.53491
X45.96279 Z8.61644
X45.95039 Z8.69029
X45.93799 Z8.75824
X45.92559 Z8.82146
X45.91318 Z8.88077
X45.88915 Z8.98672
X45.4543 Z10.81184
X45.42949 Z10.90862
X45.40469 Z10.99805
X45.37988 Z11.08147
X45.35508 Z11.15983
X45.33027 Z11.23385
X45.30547 Z11.3041
X45.28066 Z11.37101
X45.25586 Z11.43496
X45.20625 Z11.55612
X44.53652 Z13.17264
X44.51172 Z13.23066
X44.48691 Z13.28654
X44.46211 Z13.34045
X44.4373 Z13.39254
X44.4125 Z13.44294
X44.36289 Z13.5391
X44.31328 Z13.62969
X44.26367 Z13.71534
X44.20166 Z13.81618
X43.27148 Z15.27902
X43.22187 Z15.35466
X43.17227 Z15.42672
X43.12266 Z15.49549
X43.07305 Z15.56119
X43.02344 Z15.62405
X42.97383 Z15.68422
X42.92422 Z15.74188
X42.87461 Z15.79717
X42.825 Z15.85021
X42.45293 Z16.23949
X41.68398 Z17.03403
X41.63437 Z17.08381
X41.58477 Z17.1316
X41.53516 Z17.17748
X41.48555 Z17.22154
X41.43594 Z17.26384
X41.38633 Z17.30446
X41.33672 Z17.34344
X41.28711 Z17.38085
X41.2375 Z17.41674
X41.16309 Z17.46788
X39.87324 Z18.3362
X39.84844 Z18.3525
X39.74922 Z18.41427
X39.65 Z18.47073
X39.55078 Z18.52213
X39.45156 Z18.56868
X39.35234 Z18.61055
X37.91367 Z19.16754
X37.86406 Z19.18581
X37.76484 Z19.21907
X37.66562 Z19.24804
X37.56641 Z19.2728
X37.46719 Z19.29345
X37.36797 Z19.31003
X37.26875 Z19.32318
X36.475 Z19.42493
X35.85488 Z19.50575
X35.78047 Z19.51372
X35.68125 Z19.5209
X35.58203 Z19.52413
X35.48281 Z19.52343
X35.38359 Z19.51881
X35.28437 Z19.51023
X35.19756 Z19.49948
X35.18516 Z19.49902
X34.81309
X34.80068 Z19.49973
X34.68906 Z19.51292
X34.58984 Z19.52043
X34.49062 Z19.524
X34.39141 Z19.52365
X34.29219 Z19.51936
X34.19297 Z19.51113
X34.14336 Z19.50553
X33.3 Z19.39741
X32.90312 Z19.34522
X32.65508 Z19.31331
X32.60547 Z19.30599
X32.50625 Z19.28832
X32.40703 Z19.26658
X32.30781 Z19.2407
X32.20859 Z19.21059
X32.10937 Z19.17617
X30.6707 Z18.61963
X30.62109 Z18.59979
X30.52187 Z18.55669
X30.42266 Z18.50886
X30.32344 Z18.45612
X30.22422 Z18.39826
X30.1126 Z18.32674
X28.81035 Z17.44996
X28.73594 Z17.39772
X28.68633 Z17.36102
X28.63672 Z17.32277
X28.58711 Z17.28292
X28.5375 Z17.24141
X28.48789 Z17.19817
X28.43828 Z17.15315
X28.38867 Z17.10626
X28.33906 Z17.05741
X28.14062 Z16.85284
X27.4833 Z16.17315
X27.14844 Z15.82208
X27.09883 Z15.76786
X27.04922 Z15.71132
X26.99961 Z15.65232
X26.95 Z15.59074
X26.90391 Z15.53103
X26.85781 Z15.46879
X26.81172 Z15.40383
X26.76562 Z15.33595
X26.71953 Z15.26492
X25.79766 Z13.81511
X25.75156 Z13.74072
X25.70547 Z13.66262
X25.65937 Z13.58041
X25.61328 Z13.49365
X25.56719 Z13.40179
X25.54414 Z13.35374
X25.52109 Z13.30415
X25.49805 Z13.2529
X25.45771 Z13.15883
X24.76055 Z11.47577
X24.7375 Z11.41811
X24.71445 Z11.35809
X24.69141 Z11.29544
X24.66836 Z11.22988
X24.64531 Z11.16103
X24.62227 Z11.08845
X24.59922 Z11.01156
X24.57617 Z10.92963
X24.55312 Z10.84167
X24.50703 Z10.65001
X24.10371 Z8.95635
X24.08066 Z8.85179
X24.06914 Z8.7951
X24.05762 Z8.73476
X24.04033 Z8.63569
X24.02305 Z8.52258
X24.01152 Z8.43577
X24. Z8.33478
X23.365
X23.24132 Y-54.67016 Z8.3502
X23.13648 Y-54.61558 Z8.39412
X23.06642 Y-54.53389 Z8.45985
X23.04182 Y-54.43754 Z8.53737
X23.06642 Y-54.34118 Z8.6149
X23.13648 Y-54.25949 Z8.68063
X23.24132 Y-54.20491 Z8.72455
X23.365 Y-54.18574 Z8.73997
X24.
X24.0124 Z8.848
X24.0248 Z8.94009
X24.03721 Z9.02162
X24.04961 Z9.09548
X24.06201 Z9.16343
X24.07441 Z9.22664
X24.08682 Z9.28595
X24.11085 Z9.3919
X24.5457 Z11.21703
X24.57051 Z11.3138
X24.59531 Z11.40324
X24.62012 Z11.48666
X24.64492 Z11.56502
X24.66973 Z11.63904
X24.69453 Z11.70929
X24.71934 Z11.7762
X24.74414 Z11.84015
X24.79375 Z11.9613
X25.46348 Z13.57783
X25.48828 Z13.63585
X25.51309 Z13.69173
X25.53789 Z13.74564
X25.5627 Z13.79773
X25.5875 Z13.84812
X25.63711 Z13.94428
X25.68672 Z14.03488
X25.73633 Z14.12053
X25.79834 Z14.22137
X26.67891 Z15.60572
X26.72852 Z15.68265
X26.77812 Z15.75727
X26.82773 Z15.82836
X26.87734 Z15.89619
X26.92695 Z15.96101
X26.97656 Z16.02302
X27.02617 Z16.08238
X27.07578 Z16.13926
X27.12539 Z16.1938
X27.175 Z16.24612
X28.31602 Z17.42515
X28.36562 Z17.47493
X28.41523 Z17.52271
X28.46484 Z17.5686
X28.51445 Z17.61265
X28.56406 Z17.65496
X28.61367 Z17.69557
X28.66328 Z17.73456
X28.71289 Z17.77197
X28.7625 Z17.80786
X28.83691 Z17.859
X30.12676 Z18.72731
X30.15156 Z18.74361
X30.25078 Z18.80538
X30.35 Z18.86184
X30.44922 Z18.91325
X30.54844 Z18.95979
X30.64766 Z19.00166
X32.08633 Z19.55865
X32.13594 Z19.57692
X32.23516 Z19.61018
X32.33437 Z19.63915
X32.43359 Z19.66391
X32.53281 Z19.68456
X32.63203 Z19.70114
X32.73125 Z19.7143
X33.15293 Z19.76838
X33.23975 Z19.78121
X34.14512 Z19.89729
X34.21953 Z19.90527
X34.31875 Z19.91244
X34.41797 Z19.91567
X34.51719 Z19.91497
X34.61641 Z19.91035
X34.71562 Z19.90178
X34.77764 Z19.89456
X35.22412 Z19.89464
X35.26133 Z19.89922
X35.31094 Z19.90446
X35.41016 Z19.91197
X35.50937 Z19.91555
X35.60859 Z19.91519
X35.70781 Z19.9109
X35.80703 Z19.90268
X35.88144 Z19.8939
X36.7 Z19.7872
X37.34492 Z19.70442
X37.39453 Z19.6971
X37.49375 Z19.67943
X37.59297 Z19.65769
X37.69219 Z19.63181
X37.79141 Z19.6017
X37.89062 Z19.56727
X39.3293 Z19.01074
X39.37891 Z18.9909
X39.47812 Z18.9478
X39.57734 Z18.89997
X39.67656 Z18.84723
X39.77578 Z18.78937
X39.8874 Z18.71785
X41.18965 Z17.84107
X41.26406 Z17.78883
X41.31367 Z17.75213
X41.36328 Z17.71388
X41.41289 Z17.67403
X41.4625 Z17.63252
X41.51211 Z17.58929
X41.56172 Z17.54426
X41.61133 Z17.49737
X41.66094 Z17.44853
X41.85937 Z17.24396
X42.85156 Z16.21838
X42.90117 Z16.16489
X42.95078 Z16.10911
X43.00039 Z16.05092
X43.05 Z15.99016
X43.09609 Z15.93126
X43.14219 Z15.86986
X43.18828 Z15.80578
X43.23437 Z15.73881
X43.28047 Z15.66874
X43.37266 Z15.52513
X44.20234 Z14.2203
X44.24844 Z14.14592
X44.29453 Z14.06781
X44.34062 Z13.9856
X44.38672 Z13.89884
X44.43281 Z13.80698
X44.45586 Z13.75893
X44.47891 Z13.70934
X44.50195 Z13.65809
X44.54228 Z13.56402
X45.23945 Z11.88096
X45.2625 Z11.8233
X45.28555 Z11.76328
X45.30859 Z11.70063
X45.33164 Z11.63506
X45.35469 Z11.56622
X45.37773 Z11.49364
X45.40078 Z11.41675
X45.42383 Z11.33482
X45.44687 Z11.24685
X45.49297 Z11.0552
X45.89629 Z9.36154
X45.91934 Z9.25698
X45.93086 Z9.20028
X45.94238 Z9.13994
X45.95967 Z9.04087
X45.97695 Z8.92777
X45.98848 Z8.84096
X46. Z8.73997
X46.635
X46.75867 Y-54.16658 Z8.75539
X46.86352 Y-54.11199 Z8.79931
X46.93358 Y-54.03031 Z8.86503
X46.95818 Y-53.93395 Z8.94256
X46.93358 Y-53.83759 Z9.02009
X46.86352 Y-53.7559 Z9.08582
X46.75867 Y-53.70132 Z9.12973
X46.635 Y-53.68216 Z9.14515
X46.
X45.9876 Z9.25318
X45.97519 Z9.34528
X45.96279 Z9.42681
X45.95039 Z9.50066
X45.93799 Z9.56861
X45.92559 Z9.63183
X45.91318 Z9.69114
X45.88915 Z9.79708
X45.4543 Z11.62222
X45.42949 Z11.71899
X45.40469 Z11.80843
X45.37988 Z11.89185
X45.35508 Z11.97021
X45.33027 Z12.04423
X45.30547 Z12.11447
X45.28066 Z12.18139
X45.25586 Z12.24533
X45.20625 Z12.36649
X44.53652 Z13.98302
X44.51172 Z14.04104
X44.48691 Z14.09692
X44.46211 Z14.15083
X44.4373 Z14.20292
X44.4125 Z14.25331
X44.36289 Z14.34948
X44.31328 Z14.44007
X44.26367 Z14.52572
X44.20166 Z14.62656
X43.99082 Z14.9578
X43.27148 Z16.07377
X43.22187 Z16.14838
X43.17227 Z16.21947
X43.12266 Z16.28731
X43.07305 Z16.35213
X43.02344 Z16.41413
X42.97383 Z16.4735
X42.92422 Z16.53038
X42.87461 Z16.58492
X42.825 Z16.63724
X41.68398 Z17.81626
X41.63437 Z17.86604
X41.58477 Z17.91383
X41.53516 Z17.95971
X41.48555 Z18.00376
X41.43594 Z18.04607
X41.38633 Z18.08668
X41.33672 Z18.12567
X41.28711 Z18.16308
X41.2375 Z18.19897
X41.16309 Z18.25011
X39.87324 Z19.11842
X39.84844 Z19.13472
X39.74922 Z19.19649
X39.65 Z19.25295
X39.55078 Z19.30436
X39.45156 Z19.35091
X39.35234 Z19.39277
X37.91367 Z19.94976
X37.86406 Z19.96803
X37.76484 Z20.00129
X37.66562 Z20.03026
X37.56641 Z20.05502
X37.46719 Z20.07567
X37.36797 Z20.09226
X37.26875 Z20.10541
X36.475 Z20.2074
X35.85488 Z20.28883
X35.78047 Z20.29681
X35.68125 Z20.30398
X35.58203 Z20.30721
X35.48281 Z20.30652
X35.38359 Z20.30189
X35.28437 Z20.29332
X35.25957 Z20.29056
X35.23477 Z20.2901
X34.75107
X34.73867 Z20.29076
X34.68906 Z20.296
X34.58984 Z20.30351
X34.49062 Z20.30709
X34.39141 Z20.30673
X34.29219 Z20.30245
X34.19297 Z20.29422
X34.14336 Z20.28862
X33.37441 Z20.18998
X33.2752 Z20.17513
X32.65508 Z20.09553
X32.60547 Z20.08821
X32.50625 Z20.07054
X32.40703 Z20.0488
X32.30781 Z20.02292
X32.20859 Z19.99281
X32.10937 Z19.95839
X30.6707 Z19.40185
X30.62109 Z19.38201
X30.52187 Z19.33891
X30.42266 Z19.29108
X30.32344 Z19.23834
X30.22422 Z19.18048
X30.1126 Z19.10896
X28.81035 Z18.23219
X28.73594 Z18.17994
X28.68633 Z18.14324
X28.63672 Z18.10499
X28.58711 Z18.06514
X28.5375 Z18.02363
X28.48789 Z17.9804
X28.43828 Z17.93537
X28.38867 Z17.88848
X28.33906 Z17.83964
X28.14062 Z17.63507
X27.14844 Z16.60949
X27.09883 Z16.556
X27.04922 Z16.50022
X26.99961 Z16.44203
X26.95 Z16.38127
X26.90391 Z16.32238
X26.85781 Z16.26097
X26.81172 Z16.19689
X26.76562 Z16.12992
X26.71953 Z16.05986
X25.97051 Z14.89733
X25.79766 Z14.62548
X25.75156 Z14.5511
X25.70547 Z14.47299
X25.65937 Z14.39078
X25.61328 Z14.30402
X25.56719 Z14.21217
X25.54414 Z14.16412
X25.52109 Z14.11453
X25.49805 Z14.06328
X25.45771 Z13.96921
X24.76055 Z12.28615
X24.7375 Z12.22849
X24.71445 Z12.16846
X24.69141 Z12.10582
X24.66836 Z12.04025
X24.64531 Z11.97141
X24.62227 Z11.89882
X24.59922 Z11.82194
X24.57617 Z11.74
X24.55312 Z11.65204
X24.50703 Z11.46038
X24.10371 Z9.76672
X24.08066 Z9.66216
X24.06914 Z9.60547
X24.05762 Z9.54513
X24.04033 Z9.44606
X24.02305 Z9.33295
X24.01152 Z9.24614
X24. Z9.14515
X23.365
X23.24132 Y-53.66299 Z9.16057
X23.13648 Y-53.60841 Z9.20449
X23.06642 Y-53.52672 Z9.27022
X23.04182 Y-53.43036 Z9.34774
X23.06642 Y-53.334 Z9.42527
X23.13648 Y-53.25232 Z9.491
X23.24132 Y-53.19774 Z9.53491
X23.365 Y-53.17857 Z9.55034
X24.
X24.0124 Z9.65837
X24.0248 Z9.75046
X24.03721 Z9.83199
X24.04961 Z9.90585
X24.06201 Z9.9738
X24.07441 Z10.03701
X24.08682 Z10.09632
X24.11085 Z10.20227
X24.5457 Z12.0274
X24.57051 Z12.12418
X24.59531 Z12.21362
X24.62012 Z12.29703
X24.64492 Z12.37539
X24.66973 Z12.44942
X24.69453 Z12.51966
X24.71934 Z12.58657
X24.74414 Z12.65052
X24.79375 Z12.77168
X25.43867 Z14.328
X25.46348 Z14.38695
X25.48828 Z14.44419
X25.51309 Z14.49932
X25.53789 Z14.5525
X25.5627 Z14.60389
X25.5875 Z14.6536
X25.63711 Z14.74846
X25.68672 Z14.83784
X25.73633 Z14.92233
X25.79834 Z15.02181
X26.72852 Z16.46488
X26.77812 Z16.53949
X26.82773 Z16.61058
X26.87734 Z16.67842
X26.92695 Z16.74324
X26.97656 Z16.80524
X27.02617 Z16.86461
X27.07578 Z16.92149
X27.12539 Z16.97603
X27.175 Z17.02835
