%
G17 G21 G40 G90 G64 P0.1
(Hole Pocketing)
(SlotDrill 2mm Carbide)
T12 M06
S23873 M3
G0 Z1.
X12.22493 Y11.99806
G1 Z0.635 F596.7
G17
G3 Z0.25125 I-0.17362 J0.00692 F2387.
Z-0.1325 I-0.17362 J0.00692
Z-0.51625 I-0.17362 J0.00692
Z-0.9 I-0.17362 J0.00692
G1 X12.22489 Y12.16526
X12.0632 Y12.3035
X11.80623 Y12.27039
X11.62788 Y12.02184
X11.69406 Y11.6751
X12.02947 Y11.45665
X12.46599 Y11.55589
X12.72454 Y11.97816
X12.70821 Y12.26664
X12.56826 Y12.53507
X12.31048 Y12.70632
G03 X11.79214 Y11.30364 I-0.25917 J-0.70134
X12.31048 Y12.70632 I0.25917 J0.70134
G1 X12.22493 Y11.99806
G3 Z-1.35 I-0.17362 J0.00692
Z-1.8 I-0.17362 J0.00692
G1 X12.22489 Y12.16526
X12.0632 Y12.3035
X11.80623 Y12.27039
X11.62788 Y12.02184
X11.69406 Y11.6751
X12.02947 Y11.45665
X12.46599 Y11.55589
X12.72454 Y11.97816
X12.70821 Y12.26664
X12.56826 Y12.53507
X12.31048 Y12.70632
G03 X11.79214 Y11.30364 I-0.25917 J-0.70134
X12.31048 Y12.70632 I0.25917 J0.70134
G1 X12.22493 Y11.99806
G3 Z-2.25 I-0.17362 J0.00692
Z-2.7 I-0.17362 J0.00692
G1 X12.22489 Y12.16526
X12.0632 Y12.3035
X11.80623 Y12.27039
X11.62788 Y12.02184
X11.69406 Y11.6751
X12.02947 Y11.45665
X12.46599 Y11.55589
X12.72454 Y11.97816
X12.70821 Y12.26664
X12.56826 Y12.53507
X12.31048 Y12.70632
G03 X11.79214 Y11.30364 I-0.25917 J-0.70134
X12.31048 Y12.70632 I0.25917 J0.70134
G1 X12.22493 Y11.99806
G3 Z-3.15 I-0.17362 J0.00692
Z-3.6 I-0.17362 J0.00692
G1 X12.22489 Y12.16526
X12.0632 Y12.3035
X11.80623 Y12.27039
X11.62788 Y12.02184
X11.69406 Y11.6751
X12.02947 Y11.45665
X12.46599 Y11.55589
X12.72454 Y11.97816
X12.70821 Y12.26664
X12.56826 Y12.53507
X12.31048 Y12.70632
G03 X11.79214 Y11.30364 I-0.25917 J-0.70134
X12.31048 Y12.70632 I0.25917 J0.70134
G1 X12.22493 Y11.99806
G3 Z-4.05 I-0.17362 J0.00692
Z-4.5 I-0.17362 J0.00692
G1 X12.22489 Y12.16526
X12.0632 Y12.3035
X11.80623 Y12.27039
X11.62788 Y12.02184
X11.69406 Y11.6751
X12.02947 Y11.45665
X12.46599 Y11.55589
X12.72454 Y11.97816
X12.70821 Y12.26664
X12.56826 Y12.53507
X12.31048 Y12.70632
G03 X11.79214 Y11.30364 I-0.25917 J-0.70134
X12.31048 Y12.70632 I0.25917 J0.70134
G1 X12.22493 Y11.99806
X12.05131 Y12.00498
G0 Z1.
X29.22493 Y35.99806
G1 Z0.635 F596.7
G3 Z0.25125 I-0.17362 J0.00692 F2387.
Z-0.1325 I-0.17362 J0.00692
Z-0.51625 I-0.17362 J0.00692
Z-0.9 I-0.17362 J0.00692
G1 X29.22489 Y36.16526
X29.0632 Y36.3035
X28.80623 Y36.27039
X28.62788 Y36.02184
X28.69406 Y35.6751
X29.02947 Y35.45665
X29.46599 Y35.55589
X29.72454 Y35.97816
X29.70821 Y36.26664
X29.56826 Y36.53507
X29.31048 Y36.70632
G03 X28.79214 Y35.30364 I-0.25917 J-0.70134
X29.31048 Y36.70632 I0.25917 J0.70134
G1 X29.22493 Y35.99806
G3 Z-1.35 I-0.17362 J0.00692
Z-1.8 I-0.17362 J0.00692
G1 X29.22489 Y36.16526
X29.0632 Y36.3035
X28.80623 Y36.27039
X28.62788 Y36.02184
X28.69406 Y35.6751
X29.02947 Y35.45665
X29.46599 Y35.55589
X29.72454 Y35.97816
X29.70821 Y36.26664
X29.56826 Y36.53507
X29.31048 Y36.70632
G03 X28.79214 Y35.30364 I-0.25917 J-0.70134
X29.31048 Y36.70632 I0.25917 J0.70134
G1 X29.22493 Y35.99806
G3 Z-2.25 I-0.17362 J0.00692
Z-2.7 I-0.17362 J0.00692
G1 X29.22489 Y36.16526
X29.0632 Y36.3035
X28.80623 Y36.27039
X28.62788 Y36.02184
X28.69406 Y35.6751
X29.02947 Y35.45665
X29.46599 Y35.55589
X29.72454 Y35.97816
X29.70821 Y36.26664
X29.56826 Y36.53507
X29.31048 Y36.70632
G03 X28.79214 Y35.30364 I-0.25917 J-0.70134
X29.31048 Y36.70632 I0.25917 J0.70134
G1 X29.22493 Y35.99806
G3 Z-3.15 I-0.17362 J0.00692
Z-3.6 I-0.17362 J0.00692
G1 X29.22489 Y36.16526
X29.0632 Y36.3035
X28.80623 Y36.27039
X28.62788 Y36.02184
X28.69406 Y35.6751
X29.02947 Y35.45665
X29.46599 Y35.55589
X29.72454 Y35.97816
X29.70821 Y36.26664
X29.56826 Y36.53507
X29.31048 Y36.70632
G03 X28.79214 Y35.30364 I-0.25917 J-0.70134
X29.31048 Y36.70632 I0.25917 J0.70134
G1 X29.22493 Y35.99806
G3 Z-4.05 I-0.17362 J0.00692
Z-4.5 I-0.17362 J0.00692
G1 X29.22489 Y36.16526
X29.0632 Y36.3035
X28.80623 Y36.27039
X28.62788 Y36.02184
X28.69406 Y35.6751
X29.02947 Y35.45665
X29.46599 Y35.55589
X29.72454 Y35.97816
X29.70821 Y36.26664
X29.56826 Y36.53507
X29.31048 Y36.70632
G03 X28.79214 Y35.30364 I-0.25917 J-0.70134
X29.31048 Y36.70632 I0.25917 J0.70134
G1 X29.22493 Y35.99806
X29.05131 Y36.00498
G0 Z1.
X46.22493 Y11.99806
G1 Z0.635 F596.7
G3 Z0.25125 I-0.17362 J0.00692 F2387.
Z-0.1325 I-0.17362 J0.00692
Z-0.51625 I-0.17362 J0.00692
Z-0.9 I-0.17362 J0.00692
G1 X46.22489 Y12.16526
X46.0632 Y12.3035
X45.80623 Y12.27039
X45.62788 Y12.02184
X45.69406 Y11.6751
X46.02947 Y11.45665
X46.46599 Y11.55589
X46.72454 Y11.97816
X46.70821 Y12.26664
X46.56826 Y12.53507
X46.31048 Y12.70632
G03 X45.79214 Y11.30364 I-0.25917 J-0.70134
X46.31048 Y12.70632 I0.25917 J0.70134
G1 X46.22493 Y11.99806
G3 Z-1.35 I-0.17362 J0.00692
Z-1.8 I-0.17362 J0.00692
G1 X46.22489 Y12.16526
X46.0632 Y12.3035
X45.80623 Y12.27039
X45.62788 Y12.02184
X45.69406 Y11.6751
X46.02947 Y11.45665
X46.46599 Y11.55589
X46.72454 Y11.97816
X46.70821 Y12.26664
X46.56826 Y12.53507
X46.31048 Y12.70632
G03 X45.79214 Y11.30364 I-0.25917 J-0.70134
X46.31048 Y12.70632 I0.25917 J0.70134
G1 X46.22493 Y11.99806
G3 Z-2.25 I-0.17362 J0.00692
Z-2.7 I-0.17362 J0.00692
G1 X46.22489 Y12.16526
X46.0632 Y12.3035
X45.80623 Y12.27039
X45.62788 Y12.02184
X45.69406 Y11.6751
X46.02947 Y11.45665
X46.46599 Y11.55589
X46.72454 Y11.97816
X46.70821 Y12.26664
X46.56826 Y12.53507
X46.31048 Y12.70632
G03 X45.79214 Y11.30364 I-0.25917 J-0.70134
X46.31048 Y12.70632 I0.25917 J0.70134
G1 X46.22493 Y11.99806
G3 Z-3.15 I-0.17362 J0.00692
Z-3.6 I-0.17362 J0.00692
G1 X46.22489 Y12.16526
X46.0632 Y12.3035
X45.80623 Y12.27039
X45.62788 Y12.02184
X45.69406 Y11.6751
X46.02947 Y11.45665
X46.46599 Y11.55589
X46.72454 Y11.97816
X46.70821 Y12.26664
X46.56826 Y12.53507
X46.31048 Y12.70632
G03 X45.79214 Y11.30364 I-0.25917 J-0.70134
X46.31048 Y12.70632 I0.25917 J0.70134
G1 X46.22493 Y11.99806
G3 Z-4.05 I-0.17362 J0.00692
Z-4.5 I-0.17362 J0.00692
G1 X46.22489 Y12.16526
X46.0632 Y12.3035
X45.80623 Y12.27039
X45.62788 Y12.02184
X45.69406 Y11.6751
X46.02947 Y11.45665
X46.46599 Y11.55589
X46.72454 Y11.97816
X46.70821 Y12.26664
X46.56826 Y12.53507
X46.31048 Y12.70632
G03 X45.79214 Y11.30364 I-0.25917 J-0.70134
X46.31048 Y12.70632 I0.25917 J0.70134
G1 X46.22493 Y11.99806
X46.05131 Y12.00498
G0 Z1.
X63.22493 Y35.99806
G1 Z0.635 F596.7
G3 Z0.25125 I-0.17362 J0.00692 F2387.
Z-0.1325 I-0.17362 J0.00692
Z-0.51625 I-0.17362 J0.00692
Z-0.9 I-0.17362 J0.00692
G1 X63.22489 Y36.16526
X63.0632 Y36.3035
X62.80623 Y36.27039
X62.62788 Y36.02184
X62.69406 Y35.6751
X63.02947 Y35.45665
X63.46599 Y35.55589
X63.72454 Y35.97816
X63.70821 Y36.26664
X63.56826 Y36.53507
X63.31048 Y36.70632
G03 X62.79214 Y35.30364 I-0.25917 J-0.70134
X63.31048 Y36.70632 I0.25917 J0.70134
G1 X63.22493 Y35.99806
G3 Z-1.35 I-0.17362 J0.00692
Z-1.8 I-0.17362 J0.00692
G1 X63.22489 Y36.16526
X63.0632 Y36.3035
X62.80623 Y36.27039
X62.62788 Y36.02184
X62.69406 Y35.6751
X63.02947 Y35.45665
X63.46599 Y35.55589
X63.72454 Y35.97816
X63.70821 Y36.26664
X63.56826 Y36.53507
X63.31048 Y36.70632
G03 X62.79214 Y35.30364 I-0.25917 J-0.70134
X63.31048 Y36.70632 I0.25917 J0.70134
G1 X63.22493 Y35.99806
G3 Z-2.25 I-0.17362 J0.00692
Z-2.7 I-0.17362 J0.00692
G1 X63.22489 Y36.16526
X63.0632 Y36.3035
X62.80623 Y36.27039
X62.62788 Y36.02184
X62.69406 Y35.6751
X63.02947 Y35.45665
X63.46599 Y35.55589
X63.72454 Y35.97816
X63.70821 Y36.26664
X63.56826 Y36.53507
X63.31048 Y36.70632
G03 X62.79214 Y35.30364 I-0.25917 J-0.70134
X63.31048 Y36.70632 I0.25917 J0.70134
G1 X63.22493 Y35.99806
G3 Z-3.15 I-0.17362 J0.00692
Z-3.6 I-0.17362 J0.00692
G1 X63.22489 Y36.16526
X63.0632 Y36.3035
X62.80623 Y36.27039
X62.62788 Y36.02184
X62.69406 Y35.6751
X63.02947 Y35.45665
X63.46599 Y35.55589
X63.72454 Y35.97816
X63.70821 Y36.26664
X63.56826 Y36.53507
X63.31048 Y36.70632
G03 X62.79214 Y35.30364 I-0.25917 J-0.70134
X63.31048 Y36.70632 I0.25917 J0.70134
G1 X63.22493 Y35.99806
G3 Z-4.05 I-0.17362 J0.00692
Z-4.5 I-0.17362 J0.00692
G1 X63.22489 Y36.16526
X63.0632 Y36.3035
X62.80623 Y36.27039
X62.62788 Y36.02184
X62.69406 Y35.6751
X63.02947 Y35.45665
X63.46599 Y35.55589
X63.72454 Y35.97816
X63.70821 Y36.26664
X63.56826 Y36.53507
X63.31048 Y36.70632
G03 X62.79214 Y35.30364 I-0.25917 J-0.70134
X63.31048 Y36.70632 I0.25917 J0.70134
G1 X63.22493 Y35.99806
X63.05131 Y36.00498
G0 Z1.
X80.22493 Y11.99806
G1 Z0.635 F596.7
G3 Z0.25125 I-0.17362 J0.00692 F2387.
Z-0.1325 I-0.17362 J0.00692
Z-0.51625 I-0.17362 J0.00692
Z-0.9 I-0.17362 J0.00692
G1 X80.22489 Y12.16526
X80.0632 Y12.3035
X79.80623 Y12.27039
X79.62788 Y12.02184
X79.69406 Y11.6751
X80.02947 Y11.45665
X80.46599 Y11.55589
X80.72454 Y11.97816
X80.70821 Y12.26664
X80.56826 Y12.53507
X80.31048 Y12.70632
G03 X79.79214 Y11.30364 I-0.25917 J-0.70134
X80.31048 Y12.70632 I0.25917 J0.70134
G1 X80.22493 Y11.99806
G3 Z-1.35 I-0.17362 J0.00692
Z-1.8 I-0.17362 J0.00692
G1 X80.22489 Y12.16526
X80.0632 Y12.3035
X79.80623 Y12.27039
X79.62788 Y12.02184
X79.69406 Y11.6751
X80.02947 Y11.45665
X80.46599 Y11.55589
X80.72454 Y11.97816
X80.70821 Y12.26664
X80.56826 Y12.53507
X80.31048 Y12.70632
G03 X79.79214 Y11.30364 I-0.25917 J-0.70134
X80.31048 Y12.70632 I0.25917 J0.70134
G1 X80.22493 Y11.99806
G3 Z-2.25 I-0.17362 J0.00692
Z-2.7 I-0.17362 J0.00692
G1 X80.22489 Y12.16526
X80.0632 Y12.3035
X79.80623 Y12.27039
X79.62788 Y12.02184
X79.69406 Y11.6751
X80.02947 Y11.45665
X80.46599 Y11.55589
X80.72454 Y11.97816
X80.70821 Y12.26664
X80.56826 Y12.53507
X80.31048 Y12.70632
G03 X79.79214 Y11.30364 I-0.25917 J-0.70134
X80.31048 Y12.70632 I0.25917 J0.70134
G1 X80.22493 Y11.99806
G3 Z-3.15 I-0.17362 J0.00692
Z-3.6 I-0.17362 J0.00692
G1 X80.22489 Y12.16526
X80.0632 Y12.3035
X79.80623 Y12.27039
X79.62788 Y12.02184
X79.69406 Y11.6751
X80.02947 Y11.45665
X80.46599 Y11.55589
X80.72454 Y11.97816
X80.70821 Y12.26664
X80.56826 Y12.53507
X80.31048 Y12.70632
G03 X79.79214 Y11.30364 I-0.25917 J-0.70134
X80.31048 Y12.70632 I0.25917 J0.70134
G1 X80.22493 Y11.99806
G3 Z-4.05 I-0.17362 J0.00692
Z-4.5 I-0.17362 J0.00692
G1 X80.22489 Y12.16526
X80.0632 Y12.3035
X79.80623 Y12.27039
X79.62788 Y12.02184
X79.69406 Y11.6751
X80.02947 Y11.45665
X80.46599 Y11.55589
X80.72454 Y11.97816
X80.70821 Y12.26664
X80.56826 Y12.53507
X80.31048 Y12.70632
G03 X79.79214 Y11.30364 I-0.25917 J-0.70134
X80.31048 Y12.70632 I0.25917 J0.70134
G1 X80.22493 Y11.99806
X80.05131 Y12.00498
G0 Z1.
X97.22493 Y35.99806
G1 Z0.635 F596.7
G3 Z0.25125 I-0.17362 J0.00692 F2387.
Z-0.1325 I-0.17362 J0.00692
Z-0.51625 I-0.17362 J0.00692
Z-0.9 I-0.17362 J0.00692
G1 X97.22489 Y36.16526
X97.0632 Y36.3035
X96.80623 Y36.27039
X96.62788 Y36.02184
X96.69406 Y35.6751
X97.02947 Y35.45665
X97.46599 Y35.55589
X97.72454 Y35.97816
X97.70821 Y36.26664
X97.56826 Y36.53507
X97.31048 Y36.70632
G03 X96.79214 Y35.30364 I-0.25917 J-0.70134
X97.31048 Y36.70632 I0.25917 J0.70134
G1 X97.22493 Y35.99806
G3 Z-1.35 I-0.17362 J0.00692
Z-1.8 I-0.17362 J0.00692
G1 X97.22489 Y36.16526
X97.0632 Y36.3035
X96.80623 Y36.27039
X96.62788 Y36.02184
X96.69406 Y35.6751
X97.02947 Y35.45665
X97.46599 Y35.55589
X97.72454 Y35.97816
X97.70821 Y36.26664
X97.56826 Y36.53507
X97.31048 Y36.70632
G03 X96.79214 Y35.30364 I-0.25917 J-0.70134
X97.31048 Y36.70632 I0.25917 J0.70134
G1 X97.22493 Y35.99806
G3 Z-2.25 I-0.17362 J0.00692
Z-2.7 I-0.17362 J0.00692
G1 X97.22489 Y36.16526
X97.0632 Y36.3035
X96.80623 Y36.27039
X96.62788 Y36.02184
X96.69406 Y35.6751
X97.02947 Y35.45665
X97.46599 Y35.55589
X97.72454 Y35.97816
X97.70821 Y36.26664
X97.56826 Y36.53507
X97.31048 Y36.70632
G03 X96.79214 Y35.30364 I-0.25917 J-0.70134
X97.31048 Y36.70632 I0.25917 J0.70134
G1 X97.22493 Y35.99806
G3 Z-3.15 I-0.17362 J0.00692
Z-3.6 I-0.17362 J0.00692
G1 X97.22489 Y36.16526
X97.0632 Y36.3035
X96.80623 Y36.27039
X96.62788 Y36.02184
X96.69406 Y35.6751
X97.02947 Y35.45665
X97.46599 Y35.55589
X97.72454 Y35.97816
X97.70821 Y36.26664
X97.56826 Y36.53507
X97.31048 Y36.70632
G03 X96.79214 Y35.30364 I-0.25917 J-0.70134
X97.31048 Y36.70632 I0.25917 J0.70134
G1 X97.22493 Y35.99806
G3 Z-4.05 I-0.17362 J0.00692
Z-4.5 I-0.17362 J0.00692
G1 X97.22489 Y36.16526
X97.0632 Y36.3035
X96.80623 Y36.27039
X96.62788 Y36.02184
X96.69406 Y35.6751
X97.02947 Y35.45665
X97.46599 Y35.55589
X97.72454 Y35.97816
X97.70821 Y36.26664
X97.56826 Y36.53507
X97.31048 Y36.70632
G03 X96.79214 Y35.30364 I-0.25917 J-0.70134
X97.31048 Y36.70632 I0.25917 J0.70134
G1 X97.22493 Y35.99806
X97.05131 Y36.00498
G0 Z1.
X80.22493 Y59.99806
G1 Z0.635 F596.7
G3 Z0.25125 I-0.17362 J0.00692 F2387.
Z-0.1325 I-0.17362 J0.00692
Z-0.51625 I-0.17362 J0.00692
Z-0.9 I-0.17362 J0.00692
G1 X80.22489 Y60.16526
X80.0632 Y60.3035
X79.80623 Y60.27039
X79.62788 Y60.02184
X79.69406 Y59.6751
X80.02947 Y59.45665
X80.46599 Y59.55589
X80.72454 Y59.97816
X80.70821 Y60.26664
X80.56826 Y60.53507
X80.31048 Y60.70632
G03 X79.79214 Y59.30364 I-0.25917 J-0.70134
X80.31048 Y60.70632 I0.25917 J0.70134
G1 X80.22493 Y59.99806
G3 Z-1.35 I-0.17362 J0.00692
Z-1.8 I-0.17362 J0.00692
G1 X80.22489 Y60.16526
X80.0632 Y60.3035
X79.80623 Y60.27039
X79.62788 Y60.02184
X79.69406 Y59.6751
X80.02947 Y59.45665
X80.46599 Y59.55589
X80.72454 Y59.97816
X80.70821 Y60.26664
X80.56826 Y60.53507
X80.31048 Y60.70632
G03 X79.79214 Y59.30364 I-0.25917 J-0.70134
X80.31048 Y60.70632 I0.25917 J0.70134
G1 X80.22493 Y59.99806
G3 Z-2.25 I-0.17362 J0.00692
Z-2.7 I-0.17362 J0.00692
G1 X80.22489 Y60.16526
X80.0632 Y60.3035
X79.80623 Y60.27039
X79.62788 Y60.02184
X79.69406 Y59.6751
X80.02947 Y59.45665
X80.46599 Y59.55589
X80.72454 Y59.97816
X80.70821 Y60.26664
X80.56826 Y60.53507
X80.31048 Y60.70632
G03 X79.79214 Y59.30364 I-0.25917 J-0.70134
X80.31048 Y60.70632 I0.25917 J0.70134
G1 X80.22493 Y59.99806
G3 Z-3.15 I-0.17362 J0.00692
Z-3.6 I-0.17362 J0.00692
G1 X80.22489 Y60.16526
X80.0632 Y60.3035
X79.80623 Y60.27039
X79.62788 Y60.02184
X79.69406 Y59.6751
X80.02947 Y59.45665
X80.46599 Y59.55589
X80.72454 Y59.97816
X80.70821 Y60.26664
X80.56826 Y60.53507
X80.31048 Y60.70632
G03 X79.79214 Y59.30364 I-0.25917 J-0.70134
X80.31048 Y60.70632 I0.25917 J0.70134
G1 X80.22493 Y59.99806
G3 Z-4.05 I-0.17362 J0.00692
Z-4.5 I-0.17362 J0.00692
G1 X80.22489 Y60.16526
X80.0632 Y60.3035
X79.80623 Y60.27039
X79.62788 Y60.02184
X79.69406 Y59.6751
X80.02947 Y59.45665
X80.46599 Y59.55589
X80.72454 Y59.97816
X80.70821 Y60.26664
X80.56826 Y60.53507
X80.31048 Y60.70632
G03 X79.79214 Y59.30364 I-0.25917 J-0.70134
X80.31048 Y60.70632 I0.25917 J0.70134
G1 X80.22493 Y59.99806
X80.05131 Y60.00498
G0 Z1.
X97.22493 Y83.99806
G1 Z0.635 F596.7
G3 Z0.25125 I-0.17362 J0.00692 F2387.
Z-0.1325 I-0.17362 J0.00692
Z-0.51625 I-0.17362 J0.00692
Z-0.9 I-0.17362 J0.00692
G1 X97.22489 Y84.16526
X97.0632 Y84.3035
X96.80623 Y84.27039
X96.62788 Y84.02184
X96.69406 Y83.6751
X97.02947 Y83.45665
X97.46599 Y83.55589
X97.72454 Y83.97816
X97.70821 Y84.26664
X97.56826 Y84.53507
X97.31048 Y84.70632
G03 X96.79214 Y83.30364 I-0.25917 J-0.70134
X97.31048 Y84.70632 I0.25917 J0.70134
G1 X97.22493 Y83.99806
G3 Z-1.35 I-0.17362 J0.00692
Z-1.8 I-0.17362 J0.00692
G1 X97.22489 Y84.16526
X97.0632 Y84.3035
X96.80623 Y84.27039
X96.62788 Y84.02184
X96.69406 Y83.6751
X97.02947 Y83.45665
X97.46599 Y83.55589
X97.72454 Y83.97816
X97.70821 Y84.26664
X97.56826 Y84.53507
X97.31048 Y84.70632
G03 X96.79214 Y83.30364 I-0.25917 J-0.70134
X97.31048 Y84.70632 I0.25917 J0.70134
G1 X97.22493 Y83.99806
G3 Z-2.25 I-0.17362 J0.00692
Z-2.7 I-0.17362 J0.00692
G1 X97.22489 Y84.16526
X97.0632 Y84.3035
X96.80623 Y84.27039
X96.62788 Y84.02184
X96.69406 Y83.6751
X97.02947 Y83.45665
X97.46599 Y83.55589
X97.72454 Y83.97816
X97.70821 Y84.26664
X97.56826 Y84.53507
X97.31048 Y84.70632
G03 X96.79214 Y83.30364 I-0.25917 J-0.70134
X97.31048 Y84.70632 I0.25917 J0.70134
G1 X97.22493 Y83.99806
G3 Z-3.15 I-0.17362 J0.00692
Z-3.6 I-0.17362 J0.00692
G1 X97.22489 Y84.16526
X97.0632 Y84.3035
X96.80623 Y84.27039
X96.62788 Y84.02184
X96.69406 Y83.6751
X97.02947 Y83.45665
X97.46599 Y83.55589
X97.72454 Y83.97816
X97.70821 Y84.26664
X97.56826 Y84.53507
X97.31048 Y84.70632
G03 X96.79214 Y83.30364 I-0.25917 J-0.70134
X97.31048 Y84.70632 I0.25917 J0.70134
G1 X97.22493 Y83.99806
G3 Z-4.05 I-0.17362 J0.00692
Z-4.5 I-0.17362 J0.00692
G1 X97.22489 Y84.16526
X97.0632 Y84.3035
X96.80623 Y84.27039
X96.62788 Y84.02184
X96.69406 Y83.6751
X97.02947 Y83.45665
X97.46599 Y83.55589
X97.72454 Y83.97816
X97.70821 Y84.26664
X97.56826 Y84.53507
X97.31048 Y84.70632
G03 X96.79214 Y83.30364 I-0.25917 J-0.70134
X97.31048 Y84.70632 I0.25917 J0.70134
G1 X97.22493 Y83.99806
X97.05131 Y84.00498
G0 Z1.
X63.22493 Y83.99806
G1 Z0.635 F596.7
G3 Z0.25125 I-0.17362 J0.00692 F2387.
Z-0.1325 I-0.17362 J0.00692
Z-0.51625 I-0.17362 J0.00692
Z-0.9 I-0.17362 J0.00692
G1 X63.22489 Y84.16526
X63.0632 Y84.3035
X62.80623 Y84.27039
X62.62788 Y84.02184
X62.69406 Y83.6751
X63.02947 Y83.45665
X63.46599 Y83.55589
X63.72454 Y83.97816
X63.70821 Y84.26664
X63.56826 Y84.53507
X63.31048 Y84.70632
G03 X62.79214 Y83.30364 I-0.25917 J-0.70134
X63.31048 Y84.70632 I0.25917 J0.70134
G1 X63.22493 Y83.99806
G3 Z-1.35 I-0.17362 J0.00692
Z-1.8 I-0.17362 J0.00692
G1 X63.22489 Y84.16526
X63.0632 Y84.3035
X62.80623 Y84.27039
X62.62788 Y84.02184
X62.69406 Y83.6751
X63.02947 Y83.45665
X63.46599 Y83.55589
X63.72454 Y83.97816
X63.70821 Y84.26664
X63.56826 Y84.53507
X63.31048 Y84.70632
G03 X62.79214 Y83.30364 I-0.25917 J-0.70134
X63.31048 Y84.70632 I0.25917 J0.70134
G1 X63.22493 Y83.99806
G3 Z-2.25 I-0.17362 J0.00692
Z-2.7 I-0.17362 J0.00692
G1 X63.22489 Y84.16526
X63.0632 Y84.3035
X62.80623 Y84.27039
X62.62788 Y84.02184
X62.69406 Y83.6751
X63.02947 Y83.45665
X63.46599 Y83.55589
X63.72454 Y83.97816
X63.70821 Y84.26664
X63.56826 Y84.53507
X63.31048 Y84.70632
G03 X62.79214 Y83.30364 I-0.25917 J-0.70134
X63.31048 Y84.70632 I0.25917 J0.70134
G1 X63.22493 Y83.99806
G3 Z-3.15 I-0.17362 J0.00692
Z-3.6 I-0.17362 J0.00692
G1 X63.22489 Y84.16526
X63.0632 Y84.3035
X62.80623 Y84.27039
X62.62788 Y84.02184
X62.69406 Y83.6751
X63.02947 Y83.45665
X63.46599 Y83.55589
X63.72454 Y83.97816
X63.70821 Y84.26664
X63.56826 Y84.53507
X63.31048 Y84.70632
G03 X62.79214 Y83.30364 I-0.25917 J-0.70134
X63.31048 Y84.70632 I0.25917 J0.70134
G1 X63.22493 Y83.99806
G3 Z-4.05 I-0.17362 J0.00692
Z-4.5 I-0.17362 J0.00692
G1 X63.22489 Y84.16526
X63.0632 Y84.3035
X62.80623 Y84.27039
X62.62788 Y84.02184
X62.69406 Y83.6751
X63.02947 Y83.45665
X63.46599 Y83.55589
X63.72454 Y83.97816
X63.70821 Y84.26664
X63.56826 Y84.53507
X63.31048 Y84.70632
G03 X62.79214 Y83.30364 I-0.25917 J-0.70134
X63.31048 Y84.70632 I0.25917 J0.70134
G1 X63.22493 Y83.99806
X63.05131 Y84.00498
G0 Z1.
X46.22493 Y59.99806
G1 Z0.635 F596.7
G3 Z0.25125 I-0.17362 J0.00692 F2387.
Z-0.1325 I-0.17362 J0.00692
Z-0.51625 I-0.17362 J0.00692
Z-0.9 I-0.17362 J0.00692
G1 X46.22489 Y60.16526
X46.0632 Y60.3035
X45.80623 Y60.27039
X45.62788 Y60.02184
X45.69406 Y59.6751
X46.02947 Y59.45665
X46.46599 Y59.55589
X46.72454 Y59.97816
X46.70821 Y60.26664
X46.56826 Y60.53507
X46.31048 Y60.70632
G03 X45.79214 Y59.30364 I-0.25917 J-0.70134
X46.31048 Y60.70632 I0.25917 J0.70134
G1 X46.22493 Y59.99806
G3 Z-1.35 I-0.17362 J0.00692
Z-1.8 I-0.17362 J0.00692
G1 X46.22489 Y60.16526
X46.0632 Y60.3035
X45.80623 Y60.27039
X45.62788 Y60.02184
X45.69406 Y59.6751
X46.02947 Y59.45665
X46.46599 Y59.55589
X46.72454 Y59.97816
X46.70821 Y60.26664
X46.56826 Y60.53507
X46.31048 Y60.70632
G03 X45.79214 Y59.30364 I-0.25917 J-0.70134
X46.31048 Y60.70632 I0.25917 J0.70134
G1 X46.22493 Y59.99806
G3 Z-2.25 I-0.17362 J0.00692
Z-2.7 I-0.17362 J0.00692
G1 X46.22489 Y60.16526
X46.0632 Y60.3035
X45.80623 Y60.27039
X45.62788 Y60.02184
X45.69406 Y59.6751
X46.02947 Y59.45665
X46.46599 Y59.55589
X46.72454 Y59.97816
X46.70821 Y60.26664
X46.56826 Y60.53507
X46.31048 Y60.70632
G03 X45.79214 Y59.30364 I-0.25917 J-0.70134
X46.31048 Y60.70632 I0.25917 J0.70134
G1 X46.22493 Y59.99806
G3 Z-3.15 I-0.17362 J0.00692
Z-3.6 I-0.17362 J0.00692
G1 X46.22489 Y60.16526
X46.0632 Y60.3035
X45.80623 Y60.27039
X45.62788 Y60.02184
X45.69406 Y59.6751
X46.02947 Y59.45665
X46.46599 Y59.55589
X46.72454 Y59.97816
X46.70821 Y60.26664
X46.56826 Y60.53507
X46.31048 Y60.70632
G03 X45.79214 Y59.30364 I-0.25917 J-0.70134
X46.31048 Y60.70632 I0.25917 J0.70134
G1 X46.22493 Y59.99806
G3 Z-4.05 I-0.17362 J0.00692
Z-4.5 I-0.17362 J0.00692
G1 X46.22489 Y60.16526
X46.0632 Y60.3035
X45.80623 Y60.27039
X45.62788 Y60.02184
X45.69406 Y59.6751
X46.02947 Y59.45665
X46.46599 Y59.55589
X46.72454 Y59.97816
X46.70821 Y60.26664
X46.56826 Y60.53507
X46.31048 Y60.70632
G03 X45.79214 Y59.30364 I-0.25917 J-0.70134
X46.31048 Y60.70632 I0.25917 J0.70134
G1 X46.22493 Y59.99806
X46.05131 Y60.00498
G0 Z1.
X29.22493 Y83.99806
G1 Z0.635 F596.7
G3 Z0.25125 I-0.17362 J0.00692 F2387.
Z-0.1325 I-0.17362 J0.00692
Z-0.51625 I-0.17362 J0.00692
Z-0.9 I-0.17362 J0.00692
G1 X29.22489 Y84.16526
X29.0632 Y84.3035
X28.80623 Y84.27039
X28.62788 Y84.02184
X28.69406 Y83.6751
X29.02947 Y83.45665
X29.46599 Y83.55589
X29.72454 Y83.97816
X29.70821 Y84.26664
X29.56826 Y84.53507
X29.31048 Y84.70632
G03 X28.79214 Y83.30364 I-0.25917 J-0.70134
X29.31048 Y84.70632 I0.25917 J0.70134
G1 X29.22493 Y83.99806
G3 Z-1.35 I-0.17362 J0.00692
Z-1.8 I-0.17362 J0.00692
G1 X29.22489 Y84.16526
X29.0632 Y84.3035
X28.80623 Y84.27039
X28.62788 Y84.02184
X28.69406 Y83.6751
X29.02947 Y83.45665
X29.46599 Y83.55589
X29.72454 Y83.97816
X29.70821 Y84.26664
X29.56826 Y84.53507
X29.31048 Y84.70632
G03 X28.79214 Y83.30364 I-0.25917 J-0.70134
X29.31048 Y84.70632 I0.25917 J0.70134
G1 X29.22493 Y83.99806
G3 Z-2.25 I-0.17362 J0.00692
Z-2.7 I-0.17362 J0.00692
G1 X29.22489 Y84.16526
X29.0632 Y84.3035
X28.80623 Y84.27039
X28.62788 Y84.02184
X28.69406 Y83.6751
X29.02947 Y83.45665
X29.46599 Y83.55589
X29.72454 Y83.97816
X29.70821 Y84.26664
X29.56826 Y84.53507
X29.31048 Y84.70632
G03 X28.79214 Y83.30364 I-0.25917 J-0.70134
X29.31048 Y84.70632 I0.25917 J0.70134
G1 X29.22493 Y83.99806
G3 Z-3.15 I-0.17362 J0.00692
Z-3.6 I-0.17362 J0.00692
G1 X29.22489 Y84.16526
X29.0632 Y84.3035
X28.80623 Y84.27039
X28.62788 Y84.02184
X28.69406 Y83.6751
X29.02947 Y83.45665
X29.46599 Y83.55589
X29.72454 Y83.97816
X29.70821 Y84.26664
X29.56826 Y84.53507
X29.31048 Y84.70632
G03 X28.79214 Y83.30364 I-0.25917 J-0.70134
X29.31048 Y84.70632 I0.25917 J0.70134
G1 X29.22493 Y83.99806
G3 Z-4.05 I-0.17362 J0.00692
Z-4.5 I-0.17362 J0.00692
G1 X29.22489 Y84.16526
X29.0632 Y84.3035
X28.80623 Y84.27039
X28.62788 Y84.02184
X28.69406 Y83.6751
X29.02947 Y83.45665
X29.46599 Y83.55589
X29.72454 Y83.97816
X29.70821 Y84.26664
X29.56826 Y84.53507
X29.31048 Y84.70632
G03 X28.79214 Y83.30364 I-0.25917 J-0.70134
X29.31048 Y84.70632 I0.25917 J0.70134
G1 X29.22493 Y83.99806
X29.05131 Y84.00498
G0 Z1.
X12.22493 Y59.99806
G1 Z0.635 F596.7
G3 Z0.25125 I-0.17362 J0.00692 F2387.
Z-0.1325 I-0.17362 J0.00692
Z-0.51625 I-0.17362 J0.00692
Z-0.9 I-0.17362 J0.00692
G1 X12.22489 Y60.16526
X12.0632 Y60.3035
X11.80623 Y60.27039
X11.62788 Y60.02184
X11.69406 Y59.6751
X12.02947 Y59.45665
X12.46599 Y59.55589
X12.72454 Y59.97816
X12.70821 Y60.26664
X12.56826 Y60.53507
X12.31048 Y60.70632
G03 X11.79214 Y59.30364 I-0.25917 J-0.70134
X12.31048 Y60.70632 I0.25917 J0.70134
G1 X12.22493 Y59.99806
G3 Z-1.35 I-0.17362 J0.00692
Z-1.8 I-0.17362 J0.00692
G1 X12.22489 Y60.16526
X12.0632 Y60.3035
X11.80623 Y60.27039
X11.62788 Y60.02184
X11.69406 Y59.6751
X12.02947 Y59.45665
X12.46599 Y59.55589
X12.72454 Y59.97816
X12.70821 Y60.26664
X12.56826 Y60.53507
X12.31048 Y60.70632
G03 X11.79214 Y59.30364 I-0.25917 J-0.70134
X12.31048 Y60.70632 I0.25917 J0.70134
G1 X12.22493 Y59.99806
G3 Z-2.25 I-0.17362 J0.00692
Z-2.7 I-0.17362 J0.00692
G1 X12.22489 Y60.16526
X12.0632 Y60.3035
X11.80623 Y60.27039
X11.62788 Y60.02184
X11.69406 Y59.6751
X12.02947 Y59.45665
X12.46599 Y59.55589
X12.72454 Y59.97816
X12.70821 Y60.26664
X12.56826 Y60.53507
X12.31048 Y60.70632
G03 X11.79214 Y59.30364 I-0.25917 J-0.70134
X12.31048 Y60.70632 I0.25917 J0.70134
G1 X12.22493 Y59.99806
G3 Z-3.15 I-0.17362 J0.00692
Z-3.6 I-0.17362 J0.00692
G1 X12.22489 Y60.16526
X12.0632 Y60.3035
X11.80623 Y60.27039
X11.62788 Y60.02184
X11.69406 Y59.6751
X12.02947 Y59.45665
X12.46599 Y59.55589
X12.72454 Y59.97816
X12.70821 Y60.26664
X12.56826 Y60.53507
X12.31048 Y60.70632
G03 X11.79214 Y59.30364 I-0.25917 J-0.70134
X12.31048 Y60.70632 I0.25917 J0.70134
G1 X12.22493 Y59.99806
G3 Z-4.05 I-0.17362 J0.00692
Z-4.5 I-0.17362 J0.00692
G1 X12.22489 Y60.16526
X12.0632 Y60.3035
X11.80623 Y60.27039
X11.62788 Y60.02184
X11.69406 Y59.6751
X12.02947 Y59.45665
X12.46599 Y59.55589
X12.72454 Y59.97816
X12.70821 Y60.26664
X12.56826 Y60.53507
X12.31048 Y60.70632
G03 X11.79214 Y59.30364 I-0.25917 J-0.70134
X12.31048 Y60.70632 I0.25917 J0.70134
G1 X12.22493 Y59.99806
X12.05131 Y60.00498
G0 Z1.
(2 1/2 Axis Profiling)
(SlotDrill 2mm Carbide)
X22.17294 Y3.91393
G1 Z0.80125 F596.7
X22.12713 Y3.85327 Z0.78785 F1790.2
X21.6124 Y3.25156 Z0.64822
X21.06198 Y2.68231 Z0.5086
X20.47792 Y2.14764 Z0.36898
X19.86239 Y1.64952 Z0.22936
X19.21767 Y1.18981 Z0.08974
X18.54615 Y0.77021 Z-0.04989
X17.85032 Y0.39229 Z-0.18951
X17.13277 Y0.05743 Z-0.32913
X16.39617 Y-0.23311 Z-0.46875
G02 X13.22034 Y-0.94236 I-4.25646 J11.59439 F2387.
X16.39617 Y-0.23311 I-1.22274 J12.93996
G0 Z1.
X56.17294 Y3.91393
G1 Z0.80125 F596.7
X56.12713 Y3.85327 Z0.78785 F1790.2
X55.6124 Y3.25156 Z0.64822
X55.06198 Y2.68231 Z0.5086
X54.47792 Y2.14764 Z0.36898
X53.86239 Y1.64952 Z0.22936
X53.21767 Y1.18981 Z0.08974
X52.54615 Y0.77021 Z-0.04989
X51.85032 Y0.39229 Z-0.18951
X51.13277 Y0.05743 Z-0.32913
X50.39617 Y-0.23311 Z-0.46875
G02 X47.22034 Y-0.94236 I-4.25646 J11.59439 F2387.
X50.39617 Y-0.23311 I-1.22274 J12.93996
G0 Z1.
X90.17294 Y3.91393
G1 Z0.80125 F596.7
X90.12713 Y3.85327 Z0.78785 F1790.2
X89.6124 Y3.25156 Z0.64822
X89.06198 Y2.68231 Z0.5086
X88.47792 Y2.14764 Z0.36898
X87.86239 Y1.64952 Z0.22936
X87.21767 Y1.18981 Z0.08974
X86.54615 Y0.77021 Z-0.04989
X85.85032 Y0.39229 Z-0.18951
X85.13277 Y0.05743 Z-0.32913
X84.39617 Y-0.23311 Z-0.46875
G02 X81.22034 Y-0.94236 I-4.25646 J11.59439 F2387.
X84.39617 Y-0.23311 I-1.22274 J12.93996
G0 Z1.
X107.17294 Y27.91393
G1 Z0.80125 F596.7
X107.12713 Y27.85327 Z0.78785 F1790.2
X106.6124 Y27.25156 Z0.64822
X106.06198 Y26.68231 Z0.5086
X105.47792 Y26.14764 Z0.36898
X104.86239 Y25.64952 Z0.22936
X104.21767 Y25.18981 Z0.08974
X103.54615 Y24.77021 Z-0.04989
X102.85032 Y24.39229 Z-0.18951
X102.13277 Y24.05743 Z-0.32913
X101.39617 Y23.76689 Z-0.46875
G02 X98.22034 Y23.05764 I-4.25646 J11.59439 F2387.
X101.39617 Y23.76689 I-1.22274 J12.93996
G0 Z1.
X73.17294 Y27.91393
G1 Z0.80125 F596.7
X73.12713 Y27.85327 Z0.78785 F1790.2
X72.6124 Y27.25156 Z0.64822
X72.06198 Y26.68231 Z0.5086
X71.47792 Y26.14764 Z0.36898
X70.86239 Y25.64952 Z0.22936
X70.21767 Y25.18981 Z0.08974
X69.54615 Y24.77021 Z-0.04989
X68.85032 Y24.39229 Z-0.18951
X68.13277 Y24.05743 Z-0.32913
X67.39617 Y23.76689 Z-0.46875
G02 X64.22034 Y23.05764 I-4.25646 J11.59439 F2387.
X67.39617 Y23.76689 I-1.22274 J12.93996
G0 Z1.
X39.17294 Y27.91393
G1 Z0.80125 F596.7
X39.12714 Y27.85327 Z0.78785 F1790.2
X38.6124 Y27.25156 Z0.64822
X38.06198 Y26.68231 Z0.5086
X37.47792 Y26.14764 Z0.36898
X36.86239 Y25.64952 Z0.22936
X36.21767 Y25.18981 Z0.08974
X35.54615 Y24.77021 Z-0.04989
X34.85032 Y24.39229 Z-0.18951
X34.13277 Y24.05743 Z-0.32913
X33.39617 Y23.76689 Z-0.46875
G02 X30.22034 Y23.05764 I-4.25646 J11.59439 F2387.
X33.39617 Y23.76689 I-1.22274 J12.93996
G0 Z1.
X22.17294 Y51.91393
G1 Z0.80125 F596.7
X22.12713 Y51.85327 Z0.78785 F1790.2
X21.6124 Y51.25156 Z0.64822
X21.06198 Y50.68231 Z0.5086
X20.47792 Y50.14764 Z0.36898
X19.86239 Y49.64952 Z0.22936
X19.21767 Y49.18981 Z0.08974
X18.54615 Y48.77021 Z-0.04989
X17.85032 Y48.39229 Z-0.18951
X17.13277 Y48.05743 Z-0.32913
X16.39617 Y47.76689 Z-0.46875
G02 X13.22034 Y47.05764 I-4.25646 J11.59439 F2387.
X16.39617 Y47.76689 I-1.22274 J12.93996
G0 Z1.
X56.17294 Y51.91393
G1 Z0.80125 F596.7
X56.12713 Y51.85327 Z0.78785 F1790.2
X55.6124 Y51.25156 Z0.64822
X55.06198 Y50.68231 Z0.5086
X54.47792 Y50.14764 Z0.36898
X53.86239 Y49.64952 Z0.22936
X53.21767 Y49.18981 Z0.08974
X52.54615 Y48.77021 Z-0.04989
X51.85032 Y48.39229 Z-0.18951
X51.13277 Y48.05743 Z-0.32913
X50.39617 Y47.76689 Z-0.46875
G02 X47.22034 Y47.05764 I-4.25646 J11.59439 F2387.
X50.39617 Y47.76689 I-1.22274 J12.93996
G0 Z1.
X90.17294 Y51.91393
G1 Z0.80125 F596.7
X90.12713 Y51.85327 Z0.78785 F1790.2
X89.6124 Y51.25156 Z0.64822
X89.06198 Y50.68231 Z0.5086
X88.47792 Y50.14764 Z0.36898
X87.86239 Y49.64952 Z0.22936
X87.21767 Y49.18981 Z0.08974
X86.54615 Y48.77021 Z-0.04989
X85.85032 Y48.39229 Z-0.18951
X85.13277 Y48.05743 Z-0.32913
X84.39617 Y47.76689 Z-0.46875
G02 X81.22034 Y47.05764 I-4.25646 J11.59439 F2387.
X84.39617 Y47.76689 I-1.22274 J12.93996
G0 Z1.
X107.17294 Y75.91393
G1 Z0.80125 F596.7
X107.12713 Y75.85327 Z0.78785 F1790.2
X106.6124 Y75.25156 Z0.64822
X106.06198 Y74.68231 Z0.5086
X105.47792 Y74.14764 Z0.36898
X104.86239 Y73.64952 Z0.22936
X104.21767 Y73.18981 Z0.08974
X103.54615 Y72.77021 Z-0.04989
X102.85032 Y72.39229 Z-0.18951
X102.13277 Y72.05743 Z-0.32913
X101.39617 Y71.76689 Z-0.46875
G02 X98.22034 Y71.05764 I-4.25646 J11.59439 F2387.
X101.39617 Y71.76689 I-1.22274 J12.93996
G0 Z1.
X73.17294 Y75.91393
G1 Z0.80125 F596.7
X73.12713 Y75.85327 Z0.78785 F1790.2
X72.6124 Y75.25156 Z0.64822
X72.06198 Y74.68231 Z0.5086
X71.47792 Y74.14764 Z0.36898
X70.86239 Y73.64952 Z0.22936
X70.21767 Y73.18981 Z0.08974
X69.54615 Y72.77021 Z-0.04989
X68.85032 Y72.39229 Z-0.18951
X68.13277 Y72.05743 Z-0.32913
X67.39617 Y71.76689 Z-0.46875
G02 X64.22034 Y71.05764 I-4.25646 J11.59439 F2387.
X67.39617 Y71.76689 I-1.22274 J12.93996
G0 Z1.
X39.17294 Y75.91393
G1 Z0.80125 F596.7
X39.12714 Y75.85327 Z0.78785 F1790.2
X38.6124 Y75.25156 Z0.64822
X38.06198 Y74.68231 Z0.5086
X37.47792 Y74.14764 Z0.36898
X36.86239 Y73.64952 Z0.22936
X36.21767 Y73.18981 Z0.08974
X35.54615 Y72.77021 Z-0.04989
X34.85032 Y72.39229 Z-0.18951
X34.13277 Y72.05743 Z-0.32913
X33.39617 Y71.76689 Z-0.46875
G02 X30.22034 Y71.05764 I-4.25646 J11.59439 F2387.
X33.39617 Y71.76689 I-1.22274 J12.93996
G0 Z1.
X22.17294 Y3.91393
G1 Z0.3325 F596.7
X22.12713 Y3.85327 Z0.3191 F1790.2
X21.6124 Y3.25156 Z0.17947
X21.06198 Y2.68231 Z0.03985
X20.47792 Y2.14764 Z-0.09977
X19.86239 Y1.64952 Z-0.23939
X19.21767 Y1.18981 Z-0.37901
X18.54615 Y0.77021 Z-0.51863
X17.85032 Y0.39229 Z-0.65826
X17.13277 Y0.05743 Z-0.79788
X16.39617 Y-0.23311 Z-0.9375
G02 X13.22034 Y-0.94236 I-4.25646 J11.59439 F2387.
X16.39617 Y-0.23311 I-1.22274 J12.93996
G0 Z1.
X56.17294 Y3.91393
G1 Z0.3325 F596.7
X56.12713 Y3.85327 Z0.3191 F1790.2
X55.6124 Y3.25156 Z0.17947
X55.06198 Y2.68231 Z0.03985
X54.47792 Y2.14764 Z-0.09977
X53.86239 Y1.64952 Z-0.23939
X53.21767 Y1.18981 Z-0.37901
X52.54615 Y0.77021 Z-0.51863
X51.85032 Y0.39229 Z-0.65826
X51.13277 Y0.05743 Z-0.79788
X50.39617 Y-0.23311 Z-0.9375
G02 X47.22034 Y-0.94236 I-4.25646 J11.59439 F2387.
X50.39617 Y-0.23311 I-1.22274 J12.93996
G0 Z1.
X90.17294 Y3.91393
G1 Z0.3325 F596.7
X90.12713 Y3.85327 Z0.3191 F1790.2
X89.6124 Y3.25156 Z0.17947
X89.06198 Y2.68231 Z0.03985
X88.47792 Y2.14764 Z-0.09977
X87.86239 Y1.64952 Z-0.23939
X87.21767 Y1.18981 Z-0.37901
X86.54615 Y0.77021 Z-0.51863
X85.85032 Y0.39229 Z-0.65826
X85.13277 Y0.05743 Z-0.79788
X84.39617 Y-0.23311 Z-0.9375
G02 X81.22034 Y-0.94236 I-4.25646 J11.59439 F2387.
X84.39617 Y-0.23311 I-1.22274 J12.93996
G0 Z1.
X107.17294 Y27.91393
G1 Z0.3325 F596.7
X107.12713 Y27.85327 Z0.3191 F1790.2
X106.6124 Y27.25156 Z0.17947
X106.06198 Y26.68231 Z0.03985
X105.47792 Y26.14764 Z-0.09977
X104.86239 Y25.64952 Z-0.23939
X104.21767 Y25.18981 Z-0.37901
X103.54615 Y24.77021 Z-0.51863
X102.85032 Y24.39229 Z-0.65826
X102.13277 Y24.05743 Z-0.79788
X101.39617 Y23.76689 Z-0.9375
G02 X98.22034 Y23.05764 I-4.25646 J11.59439 F2387.
X101.39617 Y23.76689 I-1.22274 J12.93996
G0 Z1.
X73.17294 Y27.91393
G1 Z0.3325 F596.7
X73.12713 Y27.85327 Z0.3191 F1790.2
X72.6124 Y27.25156 Z0.17947
X72.06198 Y26.68231 Z0.03985
X71.47792 Y26.14764 Z-0.09977
X70.86239 Y25.64952 Z-0.23939
X70.21767 Y25.18981 Z-0.37901
X69.54615 Y24.77021 Z-0.51863
X68.85032 Y24.39229 Z-0.65826
X68.13277 Y24.05743 Z-0.79788
X67.39617 Y23.76689 Z-0.9375
G02 X64.22034 Y23.05764 I-4.25646 J11.59439 F2387.
X67.39617 Y23.76689 I-1.22274 J12.93996
G0 Z1.
X39.17294 Y27.91393
G1 Z0.3325 F596.7
X39.12714 Y27.85327 Z0.3191 F1790.2
X38.6124 Y27.25156 Z0.17947
X38.06198 Y26.68231 Z0.03985
X37.47792 Y26.14764 Z-0.09977
X36.86239 Y25.64952 Z-0.23939
X36.21767 Y25.18981 Z-0.37901
X35.54615 Y24.77021 Z-0.51863
X34.85032 Y24.39229 Z-0.65826
X34.13277 Y24.05743 Z-0.79788
X33.39617 Y23.76689 Z-0.9375
G02 X30.22034 Y23.05764 I-4.25646 J11.59439 F2387.
X33.39617 Y23.76689 I-1.22274 J12.93996
G0 Z1.
X22.17294 Y51.91393
G1 Z0.3325 F596.7
X22.12713 Y51.85327 Z0.3191 F1790.2
X21.6124 Y51.25156 Z0.17947
X21.06198 Y50.68231 Z0.03985
X20.47792 Y50.14764 Z-0.09977
X19.86239 Y49.64952 Z-0.23939
X19.21767 Y49.18981 Z-0.37901
X18.54615 Y48.77021 Z-0.51863
X17.85032 Y48.39229 Z-0.65826
X17.13277 Y48.05743 Z-0.79788
X16.39617 Y47.76689 Z-0.9375
G02 X13.22034 Y47.05764 I-4.25646 J11.59439 F2387.
X16.39617 Y47.76689 I-1.22274 J12.93996
G0 Z1.
X56.17294 Y51.91393
G1 Z0.3325 F596.7
X56.12713 Y51.85327 Z0.3191 F1790.2
X55.6124 Y51.25156 Z0.17947
X55.06198 Y50.68231 Z0.03985
X54.47792 Y50.14764 Z-0.09977
X53.86239 Y49.64952 Z-0.23939
X53.21767 Y49.18981 Z-0.37901
X52.54615 Y48.77021 Z-0.51863
X51.85032 Y48.39229 Z-0.65826
X51.13277 Y48.05743 Z-0.79788
X50.39617 Y47.76689 Z-0.9375
G02 X47.22034 Y47.05764 I-4.25646 J11.59439 F2387.
X50.39617 Y47.76689 I-1.22274 J12.93996
G0 Z1.
X90.17294 Y51.91393
G1 Z0.3325 F596.7
X90.12713 Y51.85327 Z0.3191 F1790.2
X89.6124 Y51.25156 Z0.17947
X89.06198 Y50.68231 Z0.03985
X88.47792 Y50.14764 Z-0.09977
X87.86239 Y49.64952 Z-0.23939
X87.21767 Y49.18981 Z-0.37901
X86.54615 Y48.77021 Z-0.51863
X85.85032 Y48.39229 Z-0.65826
X85.13277 Y48.05743 Z-0.79788
X84.39617 Y47.76689 Z-0.9375
G02 X81.22034 Y47.05764 I-4.25646 J11.59439 F2387.
X84.39617 Y47.76689 I-1.22274 J12.93996
G0 Z1.
X107.17294 Y75.91393
G1 Z0.3325 F596.7
X107.12713 Y75.85327 Z0.3191 F1790.2
X106.6124 Y75.25156 Z0.17947
X106.06198 Y74.68231 Z0.03985
X105.47792 Y74.14764 Z-0.09977
X104.86239 Y73.64952 Z-0.23939
X104.21767 Y73.18981 Z-0.37901
X103.54615 Y72.77021 Z-0.51863
X102.85032 Y72.39229 Z-0.65826
X102.13277 Y72.05743 Z-0.79788
X101.39617 Y71.76689 Z-0.9375
G02 X98.22034 Y71.05764 I-4.25646 J11.59439 F2387.
X101.39617 Y71.76689 I-1.22274 J12.93996
G0 Z1.
X73.17294 Y75.91393
G1 Z0.3325 F596.7
X73.12713 Y75.85327 Z0.3191 F1790.2
X72.6124 Y75.25156 Z0.17947
X72.06198 Y74.68231 Z0.03985
X71.47792 Y74.14764 Z-0.09977
X70.86239 Y73.64952 Z-0.23939
X70.21767 Y73.18981 Z-0.37901
X69.54615 Y72.77021 Z-0.51863
X68.85032 Y72.39229 Z-0.65826
X68.13277 Y72.05743 Z-0.79788
X67.39617 Y71.76689 Z-0.9375
G02 X64.22034 Y71.05764 I-4.25646 J11.59439 F2387.
X67.39617 Y71.76689 I-1.22274 J12.93996
G0 Z1.
X39.17294 Y75.91393
G1 Z0.3325 F596.7
X39.12714 Y75.85327 Z0.3191 F1790.2
X38.6124 Y75.25156 Z0.17947
X38.06198 Y74.68231 Z0.03985
X37.47792 Y74.14764 Z-0.09977
X36.86239 Y73.64952 Z-0.23939
X36.21767 Y73.18981 Z-0.37901
X35.54615 Y72.77021 Z-0.51863
X34.85032 Y72.39229 Z-0.65826
X34.13277 Y72.05743 Z-0.79788
X33.39617 Y71.76689 Z-0.9375
G02 X30.22034 Y71.05764 I-4.25646 J11.59439 F2387.
X33.39617 Y71.76689 I-1.22274 J12.93996
G0 Z1.
X22.17294 Y3.91393
G1 Z-0.13625 F596.7
X22.12713 Y3.85327 Z-0.14965 F1790.2
X21.6124 Y3.25156 Z-0.28928
X21.06198 Y2.68231 Z-0.4289
X20.47792 Y2.14764 Z-0.56852
X19.86239 Y1.64952 Z-0.70814
X19.21767 Y1.18981 Z-0.84776
X18.54615 Y0.77021 Z-0.98738
X17.85032 Y0.39229 Z-1.12701
X17.13277 Y0.05743 Z-1.26663
X16.39617 Y-0.23311 Z-1.40625
G02 X13.22034 Y-0.94236 I-4.25646 J11.59439 F2387.
X16.39617 Y-0.23311 I-1.22274 J12.93996
G0 Z1.
X56.17294 Y3.91393
G1 Z-0.13625 F596.7
X56.12713 Y3.85327 Z-0.14965 F1790.2
X55.6124 Y3.25156 Z-0.28928
X55.06198 Y2.68231 Z-0.4289
X54.47792 Y2.14764 Z-0.56852
X53.86239 Y1.64952 Z-0.70814
X53.21767 Y1.18981 Z-0.84776
X52.54615 Y0.77021 Z-0.98738
X51.85032 Y0.39229 Z-1.12701
X51.13277 Y0.05743 Z-1.26663
X50.39617 Y-0.23311 Z-1.40625
G02 X47.22034 Y-0.94236 I-4.25646 J11.59439 F2387.
X50.39617 Y-0.23311 I-1.22274 J12.93996
G0 Z1.
X90.17294 Y3.91393
G1 Z-0.13625 F596.7
X90.12713 Y3.85327 Z-0.14965 F1790.2
X89.6124 Y3.25156 Z-0.28928
X89.06198 Y2.68231 Z-0.4289
X88.47792 Y2.14764 Z-0.56852
X87.86239 Y1.64952 Z-0.70814
X87.21767 Y1.18981 Z-0.84776
X86.54615 Y0.77021 Z-0.98738
X85.85032 Y0.39229 Z-1.12701
X85.13277 Y0.05743 Z-1.26663
X84.39617 Y-0.23311 Z-1.40625
G02 X81.22034 Y-0.94236 I-4.25646 J11.59439 F2387.
X84.39617 Y-0.23311 I-1.22274 J12.93996
G0 Z1.
X107.17294 Y27.91393
G1 Z-0.13625 F596.7
X107.12713 Y27.85327 Z-0.14965 F1790.2
X106.6124 Y27.25156 Z-0.28928
X106.06198 Y26.68231 Z-0.4289
X105.47792 Y26.14764 Z-0.56852
X104.86239 Y25.64952 Z-0.70814
X104.21767 Y25.18981 Z-0.84776
X103.54615 Y24.77021 Z-0.98738
X102.85032 Y24.39229 Z-1.12701
X102.13277 Y24.05743 Z-1.26663
X101.39617 Y23.76689 Z-1.40625
G02 X98.22034 Y23.05764 I-4.25646 J11.59439 F2387.
X101.39617 Y23.76689 I-1.22274 J12.93996
G0 Z1.
X73.17294 Y27.91393
G1 Z-0.13625 F596.7
X73.12713 Y27.85327 Z-0.14965 F1790.2
X72.6124 Y27.25156 Z-0.28928
X72.06198 Y26.68231 Z-0.4289
X71.47792 Y26.14764 Z-0.56852
X70.86239 Y25.64952 Z-0.70814
X70.21767 Y25.18981 Z-0.84776
X69.54615 Y24.77021 Z-0.98738
X68.85032 Y24.39229 Z-1.12701
X68.13277 Y24.05743 Z-1.26663
X67.39617 Y23.76689 Z-1.40625
G02 X64.22034 Y23.05764 I-4.25646 J11.59439 F2387.
X67.39617 Y23.76689 I-1.22274 J12.93996
G0 Z1.
X39.17294 Y27.91393
G1 Z-0.13625 F596.7
X39.12714 Y27.85327 Z-0.14965 F1790.2
X38.6124 Y27.25156 Z-0.28928
X38.06198 Y26.68231 Z-0.4289
X37.47792 Y26.14764 Z-0.56852
X36.86239 Y25.64952 Z-0.70814
X36.21767 Y25.18981 Z-0.84776
X35.54615 Y24.77021 Z-0.98738
X34.85032 Y24.39229 Z-1.12701
X34.13277 Y24.05743 Z-1.26663
X33.39617 Y23.76689 Z-1.40625
G02 X30.22034 Y23.05764 I-4.25646 J11.59439 F2387.
X33.39617 Y23.76689 I-1.22274 J12.93996
G0 Z1.
X22.17294 Y51.91393
G1 Z-0.13625 F596.7
X22.12713 Y51.85327 Z-0.14965 F1790.2
X21.6124 Y51.25156 Z-0.28928
X21.06198 Y50.68231 Z-0.4289
X20.47792 Y50.14764 Z-0.56852
X19.86239 Y49.64952 Z-0.70814
X19.21767 Y49.18981 Z-0.84776
X18.54615 Y48.77021 Z-0.98738
X17.85032 Y48.39229 Z-1.12701
X17.13277 Y48.05743 Z-1.26663
X16.39617 Y47.76689 Z-1.40625
G02 X13.22034 Y47.05764 I-4.25646 J11.59439 F2387.
X16.39617 Y47.76689 I-1.22274 J12.93996
G0 Z1.
X56.17294 Y51.91393
G1 Z-0.13625 F596.7
X56.12713 Y51.85327 Z-0.14965 F1790.2
X55.6124 Y51.25156 Z-0.28928
X55.06198 Y50.68231 Z-0.4289
X54.47792 Y50.14764 Z-0.56852
X53.86239 Y49.64952 Z-0.70814
X53.21767 Y49.18981 Z-0.84776
X52.54615 Y48.77021 Z-0.98738
X51.85032 Y48.39229 Z-1.12701
X51.13277 Y48.05743 Z-1.26663
X50.39617 Y47.76689 Z-1.40625
G02 X47.22034 Y47.05764 I-4.25646 J11.59439 F2387.
X50.39617 Y47.76689 I-1.22274 J12.93996
G0 Z1.
X90.17294 Y51.91393
G1 Z-0.13625 F596.7
X90.12713 Y51.85327 Z-0.14965 F1790.2
X89.6124 Y51.25156 Z-0.28928
X89.06198 Y50.68231 Z-0.4289
X88.47792 Y50.14764 Z-0.56852
X87.86239 Y49.64952 Z-0.70814
X87.21767 Y49.18981 Z-0.84776
X86.54615 Y48.77021 Z-0.98738
X85.85032 Y48.39229 Z-1.12701
X85.13277 Y48.05743 Z-1.26663
X84.39617 Y47.76689 Z-1.40625
G02 X81.22034 Y47.05764 I-4.25646 J11.59439 F2387.
X84.39617 Y47.76689 I-1.22274 J12.93996
G0 Z1.
X107.17294 Y75.91393
G1 Z-0.13625 F596.7
X107.12713 Y75.85327 Z-0.14965 F1790.2
X106.6124 Y75.25156 Z-0.28928
X106.06198 Y74.68231 Z-0.4289
X105.47792 Y74.14764 Z-0.56852
X104.86239 Y73.64952 Z-0.70814
X104.21767 Y73.18981 Z-0.84776
X103.54615 Y72.77021 Z-0.98738
X102.85032 Y72.39229 Z-1.12701
X102.13277 Y72.05743 Z-1.26663
X101.39617 Y71.76689 Z-1.40625
G02 X98.22034 Y71.05764 I-4.25646 J11.59439 F2387.
X101.39617 Y71.76689 I-1.22274 J12.93996
G0 Z1.
X73.17294 Y75.91393
G1 Z-0.13625 F596.7
X73.12713 Y75.85327 Z-0.14965 F1790.2
X72.6124 Y75.25156 Z-0.28928
X72.06198 Y74.68231 Z-0.4289
X71.47792 Y74.14764 Z-0.56852
X70.86239 Y73.64952 Z-0.70814
X70.21767 Y73.18981 Z-0.84776
X69.54615 Y72.77021 Z-0.98738
X68.85032 Y72.39229 Z-1.12701
X68.13277 Y72.05743 Z-1.26663
X67.39617 Y71.76689 Z-1.40625
G02 X64.22034 Y71.05764 I-4.25646 J11.59439 F2387.
X67.39617 Y71.76689 I-1.22274 J12.93996
G0 Z1.
X39.17294 Y75.91393
G1 Z-0.13625 F596.7
X39.12714 Y75.85327 Z-0.14965 F1790.2
X38.6124 Y75.25156 Z-0.28928
X38.06198 Y74.68231 Z-0.4289
X37.47792 Y74.14764 Z-0.56852
X36.86239 Y73.64952 Z-0.70814
X36.21767 Y73.18981 Z-0.84776
X35.54615 Y72.77021 Z-0.98738
X34.85032 Y72.39229 Z-1.12701
X34.13277 Y72.05743 Z-1.26663
X33.39617 Y71.76689 Z-1.40625
G02 X30.22034 Y71.05764 I-4.25646 J11.59439 F2387.
X33.39617 Y71.76689 I-1.22274 J12.93996
G0 Z1.
X22.17294 Y3.91393
G1 Z-0.605 F596.7
X22.12713 Y3.85327 Z-0.6184 F1790.2
X21.6124 Y3.25156 Z-0.75803
X21.06198 Y2.68231 Z-0.89765
X20.47792 Y2.14764 Z-1.03727
X19.86239 Y1.64952 Z-1.17689
X19.21767 Y1.18981 Z-1.31651
X18.54615 Y0.77021 Z-1.45614
X17.85032 Y0.39229 Z-1.59576
X17.13277 Y0.05743 Z-1.73538
X16.39617 Y-0.23311 Z-1.875
G02 X13.22034 Y-0.94236 I-4.25646 J11.59439 F2387.
X16.39617 Y-0.23311 I-1.22274 J12.93996
G0 Z1.
X56.17294 Y3.91393
G1 Z-0.605 F596.7
X56.12713 Y3.85327 Z-0.6184 F1790.2
X55.6124 Y3.25156 Z-0.75803
X55.06198 Y2.68231 Z-0.89765
X54.47792 Y2.14764 Z-1.03727
X53.86239 Y1.64952 Z-1.17689
X53.21767 Y1.18981 Z-1.31651
X52.54615 Y0.77021 Z-1.45614
X51.85032 Y0.39229 Z-1.59576
X51.13277 Y0.05743 Z-1.73538
X50.39617 Y-0.23311 Z-1.875
G02 X47.22034 Y-0.94236 I-4.25646 J11.59439 F2387.
X50.39617 Y-0.23311 I-1.22274 J12.93996
G0 Z1.
X90.17294 Y3.91393
G1 Z-0.605 F596.7
X90.12713 Y3.85327 Z-0.6184 F1790.2
X89.6124 Y3.25156 Z-0.75803
X89.06198 Y2.68231 Z-0.89765
X88.47792 Y2.14764 Z-1.03727
X87.86239 Y1.64952 Z-1.17689
X87.21767 Y1.18981 Z-1.31651
X86.54615 Y0.77021 Z-1.45614
X85.85032 Y0.39229 Z-1.59576
X85.13277 Y0.05743 Z-1.73538
X84.39617 Y-0.23311 Z-1.875
G02 X81.22034 Y-0.94236 I-4.25646 J11.59439 F2387.
X84.39617 Y-0.23311 I-1.22274 J12.93996
G0 Z1.
X107.17294 Y27.91393
G1 Z-0.605 F596.7
X107.12713 Y27.85327 Z-0.6184 F1790.2
X106.6124 Y27.25156 Z-0.75803
X106.06198 Y26.68231 Z-0.89765
X105.47792 Y26.14764 Z-1.03727
X104.86239 Y25.64952 Z-1.17689
X104.21767 Y25.18981 Z-1.31651
X103.54615 Y24.77021 Z-1.45614
X102.85032 Y24.39229 Z-1.59576
X102.13277 Y24.05743 Z-1.73538
X101.39617 Y23.76689 Z-1.875
G02 X98.22034 Y23.05764 I-4.25646 J11.59439 F2387.
X101.39617 Y23.76689 I-1.22274 J12.93996
G0 Z1.
X73.17294 Y27.91393
G1 Z-0.605 F596.7
X73.12713 Y27.85327 Z-0.6184 F1790.2
X72.6124 Y27.25156 Z-0.75803
X72.06198 Y26.68231 Z-0.89765
X71.47792 Y26.14764 Z-1.03727
X70.86239 Y25.64952 Z-1.17689
X70.21767 Y25.18981 Z-1.31651
X69.54615 Y24.77021 Z-1.45614
X68.85032 Y24.39229 Z-1.59576
X68.13277 Y24.05743 Z-1.73538
X67.39617 Y23.76689 Z-1.875
G02 X64.22034 Y23.05764 I-4.25646 J11.59439 F2387.
X67.39617 Y23.76689 I-1.22274 J12.93996
G0 Z1.
X39.17294 Y27.91393
G1 Z-0.605 F596.7
X39.12714 Y27.85327 Z-0.6184 F1790.2
X38.6124 Y27.25156 Z-0.75803
X38.06198 Y26.68231 Z-0.89765
X37.47792 Y26.14764 Z-1.03727
X36.86239 Y25.64952 Z-1.17689
X36.21767 Y25.18981 Z-1.31651
X35.54615 Y24.77021 Z-1.45614
X34.85032 Y24.39229 Z-1.59576
X34.13277 Y24.05743 Z-1.73538
X33.39617 Y23.76689 Z-1.875
G02 X30.22034 Y23.05764 I-4.25646 J11.59439 F2387.
X33.39617 Y23.76689 I-1.22274 J12.93996
G0 Z1.
X22.17294 Y51.91393
G1 Z-0.605 F596.7
X22.12713 Y51.85327 Z-0.6184 F1790.2
X21.6124 Y51.25156 Z-0.75803
X21.06198 Y50.68231 Z-0.89765
X20.47792 Y50.14764 Z-1.03727
X19.86239 Y49.64952 Z-1.17689
X19.21767 Y49.18981 Z-1.31651
X18.54615 Y48.77021 Z-1.45614
X17.85032 Y48.39229 Z-1.59576
X17.13277 Y48.05743 Z-1.73538
X16.39617 Y47.76689 Z-1.875
G02 X13.22034 Y47.05764 I-4.25646 J11.59439 F2387.
X16.39617 Y47.76689 I-1.22274 J12.93996
G0 Z1.
X56.17294 Y51.91393
G1 Z-0.605 F596.7
X56.12713 Y51.85327 Z-0.6184 F1790.2
X55.6124 Y51.25156 Z-0.75803
X55.06198 Y50.68231 Z-0.89765
X54.47792 Y50.14764 Z-1.03727
X53.86239 Y49.64952 Z-1.17689
X53.21767 Y49.18981 Z-1.31651
X52.54615 Y48.77021 Z-1.45614
X51.85032 Y48.39229 Z-1.59576
X51.13277 Y48.05743 Z-1.73538
X50.39617 Y47.76689 Z-1.875
G02 X47.22034 Y47.05764 I-4.25646 J11.59439 F2387.
X50.39617 Y47.76689 I-1.22274 J12.93996
G0 Z1.
X90.17294 Y51.91393
G1 Z-0.605 F596.7
X90.12713 Y51.85327 Z-0.6184 F1790.2
X89.6124 Y51.25156 Z-0.75803
X89.06198 Y50.68231 Z-0.89765
X88.47792 Y50.14764 Z-1.03727
X87.86239 Y49.64952 Z-1.17689
X87.21767 Y49.18981 Z-1.31651
X86.54615 Y48.77021 Z-1.45614
X85.85032 Y48.39229 Z-1.59576
X85.13277 Y48.05743 Z-1.73538
X84.39617 Y47.76689 Z-1.875
G02 X81.22034 Y47.05764 I-4.25646 J11.59439 F2387.
X84.39617 Y47.76689 I-1.22274 J12.93996
G0 Z1.
X107.17294 Y75.91393
G1 Z-0.605 F596.7
X107.12713 Y75.85327 Z-0.6184 F1790.2
X106.6124 Y75.25156 Z-0.75803
X106.06198 Y74.68231 Z-0.89765
X105.47792 Y74.14764 Z-1.03727
X104.86239 Y73.64952 Z-1.17689
X104.21767 Y73.18981 Z-1.31651
X103.54615 Y72.77021 Z-1.45614
X102.85032 Y72.39229 Z-1.59576
X102.13277 Y72.05743 Z-1.73538
X101.39617 Y71.76689 Z-1.875
G02 X98.22034 Y71.05764 I-4.25646 J11.59439 F2387.
X101.39617 Y71.76689 I-1.22274 J12.93996
G0 Z1.
X73.17294 Y75.91393
G1 Z-0.605 F596.7
X73.12713 Y75.85327 Z-0.6184 F1790.2
X72.6124 Y75.25156 Z-0.75803
X72.06198 Y74.68231 Z-0.89765
X71.47792 Y74.14764 Z-1.03727
X70.86239 Y73.64952 Z-1.17689
X70.21767 Y73.18981 Z-1.31651
X69.54615 Y72.77021 Z-1.45614
X68.85032 Y72.39229 Z-1.59576
X68.13277 Y72.05743 Z-1.73538
X67.39617 Y71.76689 Z-1.875
G02 X64.22034 Y71.05764 I-4.25646 J11.59439 F2387.
X67.39617 Y71.76689 I-1.22274 J12.93996
G0 Z1.
X39.17294 Y75.91393
G1 Z-0.605 F596.7
X39.12714 Y75.85327 Z-0.6184 F1790.2
X38.6124 Y75.25156 Z-0.75803
X38.06198 Y74.68231 Z-0.89765
X37.47792 Y74.14764 Z-1.03727
X36.86239 Y73.64952 Z-1.17689
X36.21767 Y73.18981 Z-1.31651
X35.54615 Y72.77021 Z-1.45614
X34.85032 Y72.39229 Z-1.59576
X34.13277 Y72.05743 Z-1.73538
X33.39617 Y71.76689 Z-1.875
G02 X30.22034 Y71.05764 I-4.25646 J11.59439 F2387.
X33.39617 Y71.76689 I-1.22274 J12.93996
G0 Z1.
X22.17294 Y3.91393
G1 Z-1.07375 F596.7
X22.12713 Y3.85327 Z-1.08715 F1790.2
X21.6124 Y3.25156 Z-1.22678
X21.06198 Y2.68231 Z-1.3664
X20.47792 Y2.14764 Z-1.50602
X19.86239 Y1.64952 Z-1.64564
X19.21767 Y1.18981 Z-1.78526
X18.54615 Y0.77021 Z-1.92489
X17.85032 Y0.39229 Z-2.06451
X17.13277 Y0.05743 Z-2.20413
X16.39617 Y-0.23311 Z-2.34375
G02 X13.22034 Y-0.94236 I-4.25646 J11.59439 F2387.
X16.39617 Y-0.23311 I-1.22274 J12.93996
G0 Z1.
X56.17294 Y3.91393
G1 Z-1.07375 F596.7
X56.12713 Y3.85327 Z-1.08715 F1790.2
X55.6124 Y3.25156 Z-1.22678
X55.06198 Y2.68231 Z-1.3664
X54.47792 Y2.14764 Z-1.50602
X53.86239 Y1.64952 Z-1.64564
X53.21767 Y1.18981 Z-1.78526
X52.54615 Y0.77021 Z-1.92489
X51.85032 Y0.39229 Z-2.06451
X51.13277 Y0.05743 Z-2.20413
X50.39617 Y-0.23311 Z-2.34375
G02 X47.22034 Y-0.94236 I-4.25646 J11.59439 F2387.
X50.39617 Y-0.23311 I-1.22274 J12.93996
G0 Z1.
X90.17294 Y3.91393
G1 Z-1.07375 F596.7
X90.12713 Y3.85327 Z-1.08715 F1790.2
X89.6124 Y3.25156 Z-1.22678
X89.06198 Y2.68231 Z-1.3664
X88.47792 Y2.14764 Z-1.50602
X87.86239 Y1.64952 Z-1.64564
X87.21767 Y1.18981 Z-1.78526
X86.54615 Y0.77021 Z-1.92489
X85.85032 Y0.39229 Z-2.06451
X85.13277 Y0.05743 Z-2.20413
X84.39617 Y-0.23311 Z-2.34375
G02 X81.22034 Y-0.94236 I-4.25646 J11.59439 F2387.
X84.39617 Y-0.23311 I-1.22274 J12.93996
G0 Z1.
X107.17294 Y27.91393
G1 Z-1.07375 F596.7
X107.12713 Y27.85327 Z-1.08715 F1790.2
X106.6124 Y27.25156 Z-1.22678
X106.06198 Y26.68231 Z-1.3664
X105.47792 Y26.14764 Z-1.50602
X104.86239 Y25.64952 Z-1.64564
X104.21767 Y25.18981 Z-1.78526
X103.54615 Y24.77021 Z-1.92489
X102.85032 Y24.39229 Z-2.06451
X102.13277 Y24.05743 Z-2.20413
X101.39617 Y23.76689 Z-2.34375
G02 X98.22034 Y23.05764 I-4.25646 J11.59439 F2387.
X101.39617 Y23.76689 I-1.22274 J12.93996
G0 Z1.
X73.17294 Y27.91393
G1 Z-1.07375 F596.7
X73.12713 Y27.85327 Z-1.08715 F1790.2
X72.6124 Y27.25156 Z-1.22678
X72.06198 Y26.68231 Z-1.3664
X71.47792 Y26.14764 Z-1.50602
X70.86239 Y25.64952 Z-1.64564
X70.21767 Y25.18981 Z-1.78526
X69.54615 Y24.77021 Z-1.92489
X68.85032 Y24.39229 Z-2.06451
X68.13277 Y24.05743 Z-2.20413
X67.39617 Y23.76689 Z-2.34375
G02 X64.22034 Y23.05764 I-4.25646 J11.59439 F2387.
X67.39617 Y23.76689 I-1.22274 J12.93996
G0 Z1.
X39.17294 Y27.91393
G1 Z-1.07375 F596.7
X39.12714 Y27.85327 Z-1.08715 F1790.2
X38.6124 Y27.25156 Z-1.22678
X38.06198 Y26.68231 Z-1.3664
X37.47792 Y26.14764 Z-1.50602
X36.86239 Y25.64952 Z-1.64564
X36.21767 Y25.18981 Z-1.78526
X35.54615 Y24.77021 Z-1.92489
X34.85032 Y24.39229 Z-2.06451
X34.13277 Y24.05743 Z-2.20413
X33.39617 Y23.76689 Z-2.34375
G02 X30.22034 Y23.05764 I-4.25646 J11.59439 F2387.
X33.39617 Y23.76689 I-1.22274 J12.93996
G0 Z1.
X22.17294 Y51.91393
G1 Z-1.07375 F596.7
X22.12713 Y51.85327 Z-1.08715 F1790.2
X21.6124 Y51.25156 Z-1.22678
X21.06198 Y50.68231 Z-1.3664
X20.47792 Y50.14764 Z-1.50602
X19.86239 Y49.64952 Z-1.64564
X19.21767 Y49.18981 Z-1.78526
X18.54615 Y48.77021 Z-1.92489
X17.85032 Y48.39229 Z-2.06451
X17.13277 Y48.05743 Z-2.20413
X16.39617 Y47.76689 Z-2.34375
G02 X13.22034 Y47.05764 I-4.25646 J11.59439 F2387.
X16.39617 Y47.76689 I-1.22274 J12.93996
G0 Z1.
X56.17294 Y51.91393
G1 Z-1.07375 F596.7
X56.12713 Y51.85327 Z-1.08715 F1790.2
X55.6124 Y51.25156 Z-1.22678
X55.06198 Y50.68231 Z-1.3664
X54.47792 Y50.14764 Z-1.50602
X53.86239 Y49.64952 Z-1.64564
X53.21767 Y49.18981 Z-1.78526
X52.54615 Y48.77021 Z-1.92489
X51.85032 Y48.39229 Z-2.06451
X51.13277 Y48.05743 Z-2.20413
X50.39617 Y47.76689 Z-2.34375
G02 X47.22034 Y47.05764 I-4.25646 J11.59439 F2387.
X50.39617 Y47.76689 I-1.22274 J12.93996
G0 Z1.
X90.17294 Y51.91393
G1 Z-1.07375 F596.7
X90.12713 Y51.85327 Z-1.08715 F1790.2
X89.6124 Y51.25156 Z-1.22678
X89.06198 Y50.68231 Z-1.3664
X88.47792 Y50.14764 Z-1.50602
X87.86239 Y49.64952 Z-1.64564
X87.21767 Y49.18981 Z-1.78526
X86.54615 Y48.77021 Z-1.92489
X85.85032 Y48.39229 Z-2.06451
X85.13277 Y48.05743 Z-2.20413
X84.39617 Y47.76689 Z-2.34375
G02 X81.22034 Y47.05764 I-4.25646 J11.59439 F2387.
X84.39617 Y47.76689 I-1.22274 J12.93996
G0 Z1.
X107.17294 Y75.91393
G1 Z-1.07375 F596.7
X107.12713 Y75.85327 Z-1.08715 F1790.2
X106.6124 Y75.25156 Z-1.22678
X106.06198 Y74.68231 Z-1.3664
X105.47792 Y74.14764 Z-1.50602
X104.86239 Y73.64952 Z-1.64564
X104.21767 Y73.18981 Z-1.78526
X103.54615 Y72.77021 Z-1.92489
X102.85032 Y72.39229 Z-2.06451
X102.13277 Y72.05743 Z-2.20413
X101.39617 Y71.76689 Z-2.34375
G02 X98.22034 Y71.05764 I-4.25646 J11.59439 F2387.
X101.39617 Y71.76689 I-1.22274 J12.93996
G0 Z1.
X73.17294 Y75.91393
G1 Z-1.07375 F596.7
X73.12713 Y75.85327 Z-1.08715 F1790.2
X72.6124 Y75.25156 Z-1.22678
X72.06198 Y74.68231 Z-1.3664
X71.47792 Y74.14764 Z-1.50602
X70.86239 Y73.64952 Z-1.64564
X70.21767 Y73.18981 Z-1.78526
X69.54615 Y72.77021 Z-1.92489
X68.85032 Y72.39229 Z-2.06451
X68.13277 Y72.05743 Z-2.20413
X67.39617 Y71.76689 Z-2.34375
G02 X64.22034 Y71.05764 I-4.25646 J11.59439 F2387.
X67.39617 Y71.76689 I-1.22274 J12.93996
G0 Z1.
X39.17294 Y75.91393
G1 Z-1.07375 F596.7
X39.12714 Y75.85327 Z-1.08715 F1790.2
X38.6124 Y75.25156 Z-1.22678
X38.06198 Y74.68231 Z-1.3664
X37.47792 Y74.14764 Z-1.50602
X36.86239 Y73.64952 Z-1.64564
X36.21767 Y73.18981 Z-1.78526
X35.54615 Y72.77021 Z-1.92489
X34.85032 Y72.39229 Z-2.06451
X34.13277 Y72.05743 Z-2.20413
X33.39617 Y71.76689 Z-2.34375
G02 X30.22034 Y71.05764 I-4.25646 J11.59439 F2387.
X33.39617 Y71.76689 I-1.22274 J12.93996
G0 Z1.
X22.17294 Y3.91393
G1 Z-1.5425 F596.7
X22.12713 Y3.85327 Z-1.5559 F1790.2
X21.6124 Y3.25156 Z-1.69553
X21.06198 Y2.68231 Z-1.83515
X20.47792 Y2.14764 Z-1.97477
X19.86239 Y1.64952 Z-2.11439
X19.21767 Y1.18981 Z-2.25401
X18.54615 Y0.77021 Z-2.39364
X17.85032 Y0.39229 Z-2.53326
X17.13277 Y0.05743 Z-2.67288
X16.39617 Y-0.23311 Z-2.8125
G02 X13.22034 Y-0.94236 I-4.25646 J11.59439 F2387.
X16.39617 Y-0.23311 I-1.22274 J12.93996
G0 Z1.
X56.17294 Y3.91393
G1 Z-1.5425 F596.7
X56.12713 Y3.85327 Z-1.5559 F1790.2
X55.6124 Y3.25156 Z-1.69553
X55.06198 Y2.68231 Z-1.83515
X54.47792 Y2.14764 Z-1.97477
X53.86239 Y1.64952 Z-2.11439
X53.21767 Y1.18981 Z-2.25401
X52.54615 Y0.77021 Z-2.39364
X51.85032 Y0.39229 Z-2.53326
X51.13277 Y0.05743 Z-2.67288
X50.39617 Y-0.23311 Z-2.8125
G02 X47.22034 Y-0.94236 I-4.25646 J11.59439 F2387.
X50.39617 Y-0.23311 I-1.22274 J12.93996
G0 Z1.
X90.17294 Y3.91393
G1 Z-1.5425 F596.7
X90.12713 Y3.85327 Z-1.5559 F1790.2
X89.6124 Y3.25156 Z-1.69553
X89.06198 Y2.68231 Z-1.83515
X88.47792 Y2.14764 Z-1.97477
X87.86239 Y1.64952 Z-2.11439
X87.21767 Y1.18981 Z-2.25401
X86.54615 Y0.77021 Z-2.39364
X85.85032 Y0.39229 Z-2.53326
X85.13277 Y0.05743 Z-2.67288
X84.39617 Y-0.23311 Z-2.8125
G02 X81.22034 Y-0.94236 I-4.25646 J11.59439 F2387.
X84.39617 Y-0.23311 I-1.22274 J12.93996
G0 Z1.
X107.17294 Y27.91393
G1 Z-1.5425 F596.7
X107.12713 Y27.85327 Z-1.5559 F1790.2
X106.6124 Y27.25156 Z-1.69553
X106.06198 Y26.68231 Z-1.83515
X105.47792 Y26.14764 Z-1.97477
X104.86239 Y25.64952 Z-2.11439
X104.21767 Y25.18981 Z-2.25401
X103.54615 Y24.77021 Z-2.39364
X102.85032 Y24.39229 Z-2.53326
X102.13277 Y24.05743 Z-2.67288
X101.39617 Y23.76689 Z-2.8125
G02 X98.22034 Y23.05764 I-4.25646 J11.59439 F2387.
X101.39617 Y23.76689 I-1.22274 J12.93996
G0 Z1.
X73.17294 Y27.91393
G1 Z-1.5425 F596.7
X73.12713 Y27.85327 Z-1.5559 F1790.2
X72.6124 Y27.25156 Z-1.69553
X72.06198 Y26.68231 Z-1.83515
X71.47792 Y26.14764 Z-1.97477
X70.86239 Y25.64952 Z-2.11439
X70.21767 Y25.18981 Z-2.25401
X69.54615 Y24.77021 Z-2.39364
X68.85032 Y24.39229 Z-2.53326
X68.13277 Y24.05743 Z-2.67288
X67.39617 Y23.76689 Z-2.8125
G02 X64.22034 Y23.05764 I-4.25646 J11.59439 F2387.
X67.39617 Y23.76689 I-1.22274 J12.93996
G0 Z1.
X39.17294 Y27.91393
G1 Z-1.5425 F596.7
X39.12714 Y27.85327 Z-1.5559 F1790.2
X38.6124 Y27.25156 Z-1.69553
X38.06198 Y26.68231 Z-1.83515
X37.47792 Y26.14764 Z-1.97477
X36.86239 Y25.64952 Z-2.11439
X36.21767 Y25.18981 Z-2.25401
X35.54615 Y24.77021 Z-2.39364
X34.85032 Y24.39229 Z-2.53326
X34.13277 Y24.05743 Z-2.67288
X33.39617 Y23.76689 Z-2.8125
G02 X30.22034 Y23.05764 I-4.25646 J11.59439 F2387.
X33.39617 Y23.76689 I-1.22274 J12.93996
G0 Z1.
X22.17294 Y51.91393
G1 Z-1.5425 F596.7
X22.12713 Y51.85327 Z-1.5559 F1790.2
X21.6124 Y51.25156 Z-1.69553
X21.06198 Y50.68231 Z-1.83515
X20.47792 Y50.14764 Z-1.97477
X19.86239 Y49.64952 Z-2.11439
X19.21767 Y49.18981 Z-2.25401
X18.54615 Y48.77021 Z-2.39364
X17.85032 Y48.39229 Z-2.53326
X17.13277 Y48.05743 Z-2.67288
X16.39617 Y47.76689 Z-2.8125
G02 X13.22034 Y47.05764 I-4.25646 J11.59439 F2387.
X16.39617 Y47.76689 I-1.22274 J12.93996
G0 Z1.
X56.17294 Y51.91393
G1 Z-1.5425 F596.7
X56.12713 Y51.85327 Z-1.5559 F1790.2
X55.6124 Y51.25156 Z-1.69553
X55.06198 Y50.68231 Z-1.83515
X54.47792 Y50.14764 Z-1.97477
X53.86239 Y49.64952 Z-2.11439
X53.21767 Y49.18981 Z-2.25401
X52.54615 Y48.77021 Z-2.39364
X51.85032 Y48.39229 Z-2.53326
X51.13277 Y48.05743 Z-2.67288
X50.39617 Y47.76689 Z-2.8125
G02 X47.22034 Y47.05764 I-4.25646 J11.59439 F2387.
X50.39617 Y47.76689 I-1.22274 J12.93996
G0 Z1.
X90.17294 Y51.91393
G1 Z-1.5425 F596.7
X90.12713 Y51.85327 Z-1.5559 F1790.2
X89.6124 Y51.25156 Z-1.69553
X89.06198 Y50.68231 Z-1.83515
X88.47792 Y50.14764 Z-1.97477
X87.86239 Y49.64952 Z-2.11439
X87.21767 Y49.18981 Z-2.25401
X86.54615 Y48.77021 Z-2.39364
X85.85032 Y48.39229 Z-2.53326
X85.13277 Y48.05743 Z-2.67288
X84.39617 Y47.76689 Z-2.8125
G02 X81.22034 Y47.05764 I-4.25646 J11.59439 F2387.
X84.39617 Y47.76689 I-1.22274 J12.93996
G0 Z1.
X107.17294 Y75.91393
G1 Z-1.5425 F596.7
X107.12713 Y75.85327 Z-1.5559 F1790.2
X106.6124 Y75.25156 Z-1.69553
X106.06198 Y74.68231 Z-1.83515
X105.47792 Y74.14764 Z-1.97477
X104.86239 Y73.64952 Z-2.11439
X104.21767 Y73.18981 Z-2.25401
X103.54615 Y72.77021 Z-2.39364
X102.85032 Y72.39229 Z-2.53326
X102.13277 Y72.05743 Z-2.67288
X101.39617 Y71.76689 Z-2.8125
G02 X98.22034 Y71.05764 I-4.25646 J11.59439 F2387.
X101.39617 Y71.76689 I-1.22274 J12.93996
G0 Z1.
X73.17294 Y75.91393
G1 Z-1.5425 F596.7
X73.12713 Y75.85327 Z-1.5559 F1790.2
X72.6124 Y75.25156 Z-1.69553
X72.06198 Y74.68231 Z-1.83515
X71.47792 Y74.14764 Z-1.97477
X70.86239 Y73.64952 Z-2.11439
X70.21767 Y73.18981 Z-2.25401
X69.54615 Y72.77021 Z-2.39364
X68.85032 Y72.39229 Z-2.53326
X68.13277 Y72.05743 Z-2.67288
X67.39617 Y71.76689 Z-2.8125
G02 X64.22034 Y71.05764 I-4.25646 J11.59439 F2387.
X67.39617 Y71.76689 I-1.22274 J12.93996
G0 Z1.
X39.17294 Y75.91393
G1 Z-1.5425 F596.7
X39.12714 Y75.85327 Z-1.5559 F1790.2
X38.6124 Y75.25156 Z-1.69553
X38.06198 Y74.68231 Z-1.83515
X37.47792 Y74.14764 Z-1.97477
X36.86239 Y73.64952 Z-2.11439
X36.21767 Y73.18981 Z-2.25401
X35.54615 Y72.77021 Z-2.39364
X34.85032 Y72.39229 Z-2.53326
X34.13277 Y72.05743 Z-2.67288
X33.39617 Y71.76689 Z-2.8125
G02 X30.22034 Y71.05764 I-4.25646 J11.59439 F2387.
X33.39617 Y71.76689 I-1.22274 J12.93996
G0 Z1.
X22.17294 Y3.91393
G1 Z-2.01125 F596.7
X22.12713 Y3.85327 Z-2.02465 F1790.2
X21.6124 Y3.25156 Z-2.16428
X21.06198 Y2.68231 Z-2.3039
X20.47792 Y2.14764 Z-2.44352
X19.86239 Y1.64952 Z-2.58314
X19.21767 Y1.18981 Z-2.72276
X18.54615 Y0.77021 Z-2.86239
X17.85032 Y0.39229 Z-3.00201
X17.13277 Y0.05743 Z-3.14163
X16.39617 Y-0.23311 Z-3.28125
G02 X13.22034 Y-0.94236 I-4.25646 J11.59439 F2387.
X16.39617 Y-0.23311 I-1.22274 J12.93996
G0 Z1.
X56.17294 Y3.91393
G1 Z-2.01125 F596.7
X56.12713 Y3.85327 Z-2.02465 F1790.2
X55.6124 Y3.25156 Z-2.16428
X55.06198 Y2.68231 Z-2.3039
X54.47792 Y2.14764 Z-2.44352
X53.86239 Y1.64952 Z-2.58314
X53.21767 Y1.18981 Z-2.72276
X52.54615 Y0.77021 Z-2.86239
X51.85032 Y0.39229 Z-3.00201
X51.13277 Y0.05743 Z-3.14163
X50.39617 Y-0.23311 Z-3.28125
G02 X47.22034 Y-0.94236 I-4.25646 J11.59439 F2387.
X50.39617 Y-0.23311 I-1.22274 J12.93996
G0 Z1.
X90.17294 Y3.91393
G1 Z-2.01125 F596.7
X90.12713 Y3.85327 Z-2.02465 F1790.2
X89.6124 Y3.25156 Z-2.16428
X89.06198 Y2.68231 Z-2.3039
X88.47792 Y2.14764 Z-2.44352
X87.86239 Y1.64952 Z-2.58314
X87.21767 Y1.18981 Z-2.72276
X86.54615 Y0.77021 Z-2.86239
X85.85032 Y0.39229 Z-3.00201
X85.13277 Y0.05743 Z-3.14163
X84.39617 Y-0.23311 Z-3.28125
G02 X81.22034 Y-0.94236 I-4.25646 J11.59439 F2387.
X84.39617 Y-0.23311 I-1.22274 J12.93996
G0 Z1.
X107.17294 Y27.91393
G1 Z-2.01125 F596.7
X107.12713 Y27.85327 Z-2.02465 F1790.2
X106.6124 Y27.25156 Z-2.16428
X106.06198 Y26.68231 Z-2.3039
X105.47792 Y26.14764 Z-2.44352
X104.86239 Y25.64952 Z-2.58314
X104.21767 Y25.18981 Z-2.72276
X103.54615 Y24.77021 Z-2.86239
X102.85032 Y24.39229 Z-3.00201
X102.13277 Y24.05743 Z-3.14163
X101.39617 Y23.76689 Z-3.28125
G02 X98.22034 Y23.05764 I-4.25646 J11.59439 F2387.
X101.39617 Y23.76689 I-1.22274 J12.93996
G0 Z1.
X73.17294 Y27.91393
G1 Z-2.01125 F596.7
X73.12713 Y27.85327 Z-2.02465 F1790.2
X72.6124 Y27.25156 Z-2.16428
X72.06198 Y26.68231 Z-2.3039
X71.47792 Y26.14764 Z-2.44352
X70.86239 Y25.64952 Z-2.58314
X70.21767 Y25.18981 Z-2.72276
X69.54615 Y24.77021 Z-2.86239
X68.85032 Y24.39229 Z-3.00201
X68.13277 Y24.05743 Z-3.14163
X67.39617 Y23.76689 Z-3.28125
G02 X64.22034 Y23.05764 I-4.25646 J11.59439 F2387.
X67.39617 Y23.76689 I-1.22274 J12.93996
G0 Z1.
X39.17294 Y27.91393
G1 Z-2.01125 F596.7
X39.12714 Y27.85327 Z-2.02465 F1790.2
X38.6124 Y27.25156 Z-2.16428
X38.06198 Y26.68231 Z-2.3039
X37.47792 Y26.14764 Z-2.44352
X36.86239 Y25.64952 Z-2.58314
X36.21767 Y25.18981 Z-2.72276
X35.54615 Y24.77021 Z-2.86239
X34.85032 Y24.39229 Z-3.00201
X34.13277 Y24.05743 Z-3.14163
X33.39617 Y23.76689 Z-3.28125
G02 X30.22034 Y23.05764 I-4.25646 J11.59439 F2387.
X33.39617 Y23.76689 I-1.22274 J12.93996
G0 Z1.
X22.17294 Y51.91393
G1 Z-2.01125 F596.7
X22.12713 Y51.85327 Z-2.02465 F1790.2
X21.6124 Y51.25156 Z-2.16428
X21.06198 Y50.68231 Z-2.3039
X20.47792 Y50.14764 Z-2.44352
X19.86239 Y49.64952 Z-2.58314
X19.21767 Y49.18981 Z-2.72276
X18.54615 Y48.77021 Z-2.86239
X17.85032 Y48.39229 Z-3.00201
X17.13277 Y48.05743 Z-3.14163
X16.39617 Y47.76689 Z-3.28125
G02 X13.22034 Y47.05764 I-4.25646 J11.59439 F2387.
X16.39617 Y47.76689 I-1.22274 J12.93996
G0 Z1.
X56.17294 Y51.91393
G1 Z-2.01125 F596.7
X56.12713 Y51.85327 Z-2.02465 F1790.2
X55.6124 Y51.25156 Z-2.16428
X55.06198 Y50.68231 Z-2.3039
X54.47792 Y50.14764 Z-2.44352
X53.86239 Y49.64952 Z-2.58314
X53.21767 Y49.18981 Z-2.72276
X52.54615 Y48.77021 Z-2.86239
X51.85032 Y48.39229 Z-3.00201
X51.13277 Y48.05743 Z-3.14163
X50.39617 Y47.76689 Z-3.28125
G02 X47.22034 Y47.05764 I-4.25646 J11.59439 F2387.
X50.39617 Y47.76689 I-1.22274 J12.93996
G0 Z1.
X90.17294 Y51.91393
G1 Z-2.01125 F596.7
X90.12713 Y51.85327 Z-2.02465 F1790.2
X89.6124 Y51.25156 Z-2.16428
X89.06198 Y50.68231 Z-2.3039
X88.47792 Y50.14764 Z-2.44352
X87.86239 Y49.64952 Z-2.58314
X87.21767 Y49.18981 Z-2.72276
X86.54615 Y48.77021 Z-2.86239
X85.85032 Y48.39229 Z-3.00201
X85.13277 Y48.05743 Z-3.14163
X84.39617 Y47.76689 Z-3.28125
G02 X81.22034 Y47.05764 I-4.25646 J11.59439 F2387.
X84.39617 Y47.76689 I-1.22274 J12.93996
G0 Z1.
X107.17294 Y75.91393
G1 Z-2.01125 F596.7
X107.12713 Y75.85327 Z-2.02465 F1790.2
X106.6124 Y75.25156 Z-2.16428
X106.06198 Y74.68231 Z-2.3039
X105.47792 Y74.14764 Z-2.44352
X104.86239 Y73.64952 Z-2.58314
X104.21767 Y73.18981 Z-2.72276
X103.54615 Y72.77021 Z-2.86239
X102.85032 Y72.39229 Z-3.00201
X102.13277 Y72.05743 Z-3.14163
X101.39617 Y71.76689 Z-3.28125
G02 X98.22034 Y71.05764 I-4.25646 J11.59439 F2387.
X101.39617 Y71.76689 I-1.22274 J12.93996
G0 Z1.
X73.17294 Y75.91393
G1 Z-2.01125 F596.7
X73.12713 Y75.85327 Z-2.02465 F1790.2
X72.6124 Y75.25156 Z-2.16428
X72.06198 Y74.68231 Z-2.3039
X71.47792 Y74.14764 Z-2.44352
X70.86239 Y73.64952 Z-2.58314
X70.21767 Y73.18981 Z-2.72276
X69.54615 Y72.77021 Z-2.86239
X68.85032 Y72.39229 Z-3.00201
X68.13277 Y72.05743 Z-3.14163
X67.39617 Y71.76689 Z-3.28125
G02 X64.22034 Y71.05764 I-4.25646 J11.59439 F2387.
X67.39617 Y71.76689 I-1.22274 J12.93996
G0 Z1.
X39.17294 Y75.91393
G1 Z-2.01125 F596.7
X39.12714 Y75.85327 Z-2.02465 F1790.2
X38.6124 Y75.25156 Z-2.16428
X38.06198 Y74.68231 Z-2.3039
X37.47792 Y74.14764 Z-2.44352
X36.86239 Y73.64952 Z-2.58314
X36.21767 Y73.18981 Z-2.72276
X35.54615 Y72.77021 Z-2.86239
X34.85032 Y72.39229 Z-3.00201
X34.13277 Y72.05743 Z-3.14163
X33.39617 Y71.76689 Z-3.28125
G02 X30.22034 Y71.05764 I-4.25646 J11.59439 F2387.
X33.39617 Y71.76689 I-1.22274 J12.93996
G0 Z1.
X22.17294 Y3.91393
G1 Z-2.48 F596.7
X22.12713 Y3.85327 Z-2.4934 F1790.2
X21.6124 Y3.25156 Z-2.63303
X21.06198 Y2.68231 Z-2.77265
X20.47792 Y2.14764 Z-2.91227
X19.86239 Y1.64952 Z-3.05189
X19.21767 Y1.18981 Z-3.19151
X18.54615 Y0.77021 Z-3.33114
X17.85032 Y0.39229 Z-3.47076
X17.13277 Y0.05743 Z-3.61038
X16.39617 Y-0.23311 Z-3.75
G02 X13.22034 Y-0.94236 I-4.25646 J11.59439 F2387.
X16.39617 Y-0.23311 I-1.22274 J12.93996
G0 Z1.
X56.17294 Y3.91393
G1 Z-2.48 F596.7
X56.12713 Y3.85327 Z-2.4934 F1790.2
X55.6124 Y3.25156 Z-2.63303
X55.06198 Y2.68231 Z-2.77265
X54.47792 Y2.14764 Z-2.91227
X53.86239 Y1.64952 Z-3.05189
X53.21767 Y1.18981 Z-3.19151
X52.54615 Y0.77021 Z-3.33114
X51.85032 Y0.39229 Z-3.47076
X51.13277 Y0.05743 Z-3.61038
X50.39617 Y-0.23311 Z-3.75
G02 X47.22034 Y-0.94236 I-4.25646 J11.59439 F2387.
X50.39617 Y-0.23311 I-1.22274 J12.93996
G0 Z1.
X90.17294 Y3.91393
G1 Z-2.48 F596.7
X90.12713 Y3.85327 Z-2.4934 F1790.2
X89.6124 Y3.25156 Z-2.63303
X89.06198 Y2.68231 Z-2.77265
X88.47792 Y2.14764 Z-2.91227
X87.86239 Y1.64952 Z-3.05189
X87.21767 Y1.18981 Z-3.19151
X86.54615 Y0.77021 Z-3.33114
X85.85032 Y0.39229 Z-3.47076
X85.13277 Y0.05743 Z-3.61038
X84.39617 Y-0.23311 Z-3.75
G02 X81.22034 Y-0.94236 I-4.25646 J11.59439 F2387.
X84.39617 Y-0.23311 I-1.22274 J12.93996
G0 Z1.
X107.17294 Y27.91393
G1 Z-2.48 F596.7
X107.12713 Y27.85327 Z-2.4934 F1790.2
X106.6124 Y27.25156 Z-2.63303
X106.06198 Y26.68231 Z-2.77265
X105.47792 Y26.14764 Z-2.91227
X104.86239 Y25.64952 Z-3.05189
X104.21767 Y25.18981 Z-3.19151
X103.54615 Y24.77021 Z-3.33114
X102.85032 Y24.39229 Z-3.47076
X102.13277 Y24.05743 Z-3.61038
X101.39617 Y23.76689 Z-3.75
G02 X98.22034 Y23.05764 I-4.25646 J11.59439 F2387.
X101.39617 Y23.76689 I-1.22274 J12.93996
G0 Z1.
X73.17294 Y27.91393
G1 Z-2.48 F596.7
X73.12713 Y27.85327 Z-2.4934 F1790.2
X72.6124 Y27.25156 Z-2.63303
X72.06198 Y26.68231 Z-2.77265
X71.47792 Y26.14764 Z-2.91227
X70.86239 Y25.64952 Z-3.05189
X70.21767 Y25.18981 Z-3.19151
X69.54615 Y24.77021 Z-3.33114
X68.85032 Y24.39229 Z-3.47076
X68.13277 Y24.05743 Z-3.61038
X67.39617 Y23.76689 Z-3.75
G02 X64.22034 Y23.05764 I-4.25646 J11.59439 F2387.
X67.39617 Y23.76689 I-1.22274 J12.93996
G0 Z1.
X39.17294 Y27.91393
G1 Z-2.48 F596.7
X39.12714 Y27.85327 Z-2.4934 F1790.2
X38.6124 Y27.25156 Z-2.63303
X38.06198 Y26.68231 Z-2.77265
X37.47792 Y26.14764 Z-2.91227
X36.86239 Y25.64952 Z-3.05189
X36.21767 Y25.18981 Z-3.19151
X35.54615 Y24.77021 Z-3.33114
X34.85032 Y24.39229 Z-3.47076
X34.13277 Y24.05743 Z-3.61038
X33.39617 Y23.76689 Z-3.75
G02 X30.22034 Y23.05764 I-4.25646 J11.59439 F2387.
X33.39617 Y23.76689 I-1.22274 J12.93996
G0 Z1.
X22.17294 Y51.91393
G1 Z-2.48 F596.7
X22.12713 Y51.85327 Z-2.4934 F1790.2
X21.6124 Y51.25156 Z-2.63303
X21.06198 Y50.68231 Z-2.77265
X20.47792 Y50.14764 Z-2.91227
X19.86239 Y49.64952 Z-3.05189
X19.21767 Y49.18981 Z-3.19151
X18.54615 Y48.77021 Z-3.33114
X17.85032 Y48.39229 Z-3.47076
X17.13277 Y48.05743 Z-3.61038
X16.39617 Y47.76689 Z-3.75
G02 X13.22034 Y47.05764 I-4.25646 J11.59439 F2387.
X16.39617 Y47.76689 I-1.22274 J12.93996
G0 Z1.
X56.17294 Y51.91393
G1 Z-2.48 F596.7
X56.12713 Y51.85327 Z-2.4934 F1790.2
X55.6124 Y51.25156 Z-2.63303
X55.06198 Y50.68231 Z-2.77265
X54.47792 Y50.14764 Z-2.91227
X53.86239 Y49.64952 Z-3.05189
X53.21767 Y49.18981 Z-3.19151
X52.54615 Y48.77021 Z-3.33114
X51.85032 Y48.39229 Z-3.47076
X51.13277 Y48.05743 Z-3.61038
X50.39617 Y47.76689 Z-3.75
G02 X47.22034 Y47.05764 I-4.25646 J11.59439 F2387.
X50.39617 Y47.76689 I-1.22274 J12.93996
G0 Z1.
X90.17294 Y51.91393
G1 Z-2.48 F596.7
X90.12713 Y51.85327 Z-2.4934 F1790.2
X89.6124 Y51.25156 Z-2.63303
X89.06198 Y50.68231 Z-2.77265
X88.47792 Y50.14764 Z-2.91227
X87.86239 Y49.64952 Z-3.05189
X87.21767 Y49.18981 Z-3.19151
X86.54615 Y48.77021 Z-3.33114
X85.85032 Y48.39229 Z-3.47076
X85.13277 Y48.05743 Z-3.61038
X84.39617 Y47.76689 Z-3.75
G02 X81.22034 Y47.05764 I-4.25646 J11.59439 F2387.
X84.39617 Y47.76689 I-1.22274 J12.93996
G0 Z1.
X107.17294 Y75.91393
G1 Z-2.48 F596.7
X107.12713 Y75.85327 Z-2.4934 F1790.2
X106.6124 Y75.25156 Z-2.63303
X106.06198 Y74.68231 Z-2.77265
X105.47792 Y74.14764 Z-2.91227
X104.86239 Y73.64952 Z-3.05189
X104.21767 Y73.18981 Z-3.19151
X103.54615 Y72.77021 Z-3.33114
X102.85032 Y72.39229 Z-3.47076
X102.13277 Y72.05743 Z-3.61038
X101.39617 Y71.76689 Z-3.75
G02 X98.22034 Y71.05764 I-4.25646 J11.59439 F2387.
X101.39617 Y71.76689 I-1.22274 J12.93996
G0 Z1.
X73.17294 Y75.91393
G1 Z-2.48 F596.7
X73.12713 Y75.85327 Z-2.4934 F1790.2
X72.6124 Y75.25156 Z-2.63303
X72.06198 Y74.68231 Z-2.77265
X71.47792 Y74.14764 Z-2.91227
X70.86239 Y73.64952 Z-3.05189
X70.21767 Y73.18981 Z-3.19151
X69.54615 Y72.77021 Z-3.33114
X68.85032 Y72.39229 Z-3.47076
X68.13277 Y72.05743 Z-3.61038
X67.39617 Y71.76689 Z-3.75
G02 X64.22034 Y71.05764 I-4.25646 J11.59439 F2387.
X67.39617 Y71.76689 I-1.22274 J12.93996
G0 Z1.
X39.17294 Y75.91393
G1 Z-2.48 F596.7
X39.12714 Y75.85327 Z-2.4934 F1790.2
X38.6124 Y75.25156 Z-2.63303
X38.06198 Y74.68231 Z-2.77265
X37.47792 Y74.14764 Z-2.91227
X36.86239 Y73.64952 Z-3.05189
X36.21767 Y73.18981 Z-3.19151
X35.54615 Y72.77021 Z-3.33114
X34.85032 Y72.39229 Z-3.47076
X34.13277 Y72.05743 Z-3.61038
X33.39617 Y71.76689 Z-3.75
G02 X30.22034 Y71.05764 I-4.25646 J11.59439 F2387.
X33.39617 Y71.76689 I-1.22274 J12.93996
G0 Z1.
X22.17294 Y3.91393
G1 Z-2.98 F596.7
X22.12713 Y3.85327 Z-2.9934 F1790.2
X21.6124 Y3.25156 Z-3.13303
X21.06198 Y2.68231 Z-3.27265
X20.47792 Y2.14764 Z-3.41227
X19.86239 Y1.64952 Z-3.55189
X19.21767 Y1.18981 Z-3.69151
X18.54615 Y0.77021 Z-3.83114
X17.85032 Y0.39229 Z-3.97076
X17.13277 Y0.05743 Z-4.11038
X16.39617 Y-0.23311 Z-4.25
G02 X13.22034 Y-0.94236 I-4.25646 J11.59439 F2387.
X16.39617 Y-0.23311 I-1.22274 J12.93996
G0 Z1.
X56.17294 Y3.91393
G1 Z-2.98 F596.7
X56.12713 Y3.85327 Z-2.9934 F1790.2
X55.6124 Y3.25156 Z-3.13303
X55.06198 Y2.68231 Z-3.27265
X54.47792 Y2.14764 Z-3.41227
X53.86239 Y1.64952 Z-3.55189
X53.21767 Y1.18981 Z-3.69151
X52.54615 Y0.77021 Z-3.83114
X51.85032 Y0.39229 Z-3.97076
X51.13277 Y0.05743 Z-4.11038
X50.39617 Y-0.23311 Z-4.25
G02 X47.22034 Y-0.94236 I-4.25646 J11.59439 F2387.
X50.39617 Y-0.23311 I-1.22274 J12.93996
G0 Z1.
X90.17294 Y3.91393
G1 Z-2.98 F596.7
X90.12713 Y3.85327 Z-2.9934 F1790.2
X89.6124 Y3.25156 Z-3.13303
X89.06198 Y2.68231 Z-3.27265
X88.47792 Y2.14764 Z-3.41227
X87.86239 Y1.64952 Z-3.55189
X87.21767 Y1.18981 Z-3.69151
X86.54615 Y0.77021 Z-3.83114
X85.85032 Y0.39229 Z-3.97076
X85.13277 Y0.05743 Z-4.11038
X84.39617 Y-0.23311 Z-4.25
G02 X81.22034 Y-0.94236 I-4.25646 J11.59439 F2387.
X84.39617 Y-0.23311 I-1.22274 J12.93996
G0 Z1.
X107.17294 Y27.91393
G1 Z-2.98 F596.7
X107.12713 Y27.85327 Z-2.9934 F1790.2
X106.6124 Y27.25156 Z-3.13303
X106.06198 Y26.68231 Z-3.27265
X105.47792 Y26.14764 Z-3.41227
X104.86239 Y25.64952 Z-3.55189
X104.21767 Y25.18981 Z-3.69151
X103.54615 Y24.77021 Z-3.83114
X102.85032 Y24.39229 Z-3.97076
X102.13277 Y24.05743 Z-4.11038
X101.39617 Y23.76689 Z-4.25
G02 X98.22034 Y23.05764 I-4.25646 J11.59439 F2387.
X101.39617 Y23.76689 I-1.22274 J12.93996
G0 Z1.
X73.17294 Y27.91393
G1 Z-2.98 F596.7
X73.12713 Y27.85327 Z-2.9934 F1790.2
X72.6124 Y27.25156 Z-3.13303
X72.06198 Y26.68231 Z-3.27265
X71.47792 Y26.14764 Z-3.41227
X70.86239 Y25.64952 Z-3.55189
X70.21767 Y25.18981 Z-3.69151
X69.54615 Y24.77021 Z-3.83114
X68.85032 Y24.39229 Z-3.97076
X68.13277 Y24.05743 Z-4.11038
X67.39617 Y23.76689 Z-4.25
G02 X64.22034 Y23.05764 I-4.25646 J11.59439 F2387.
X67.39617 Y23.76689 I-1.22274 J12.93996
G0 Z1.
X39.17294 Y27.91393
G1 Z-2.98 F596.7
X39.12714 Y27.85327 Z-2.9934 F1790.2
X38.6124 Y27.25156 Z-3.13303
X38.06198 Y26.68231 Z-3.27265
X37.47792 Y26.14764 Z-3.41227
X36.86239 Y25.64952 Z-3.55189
X36.21767 Y25.18981 Z-3.69151
X35.54615 Y24.77021 Z-3.83114
X34.85032 Y24.39229 Z-3.97076
X34.13277 Y24.05743 Z-4.11038
X33.39617 Y23.76689 Z-4.25
G02 X30.22034 Y23.05764 I-4.25646 J11.59439 F2387.
X33.39617 Y23.76689 I-1.22274 J12.93996
G0 Z1.
X22.17294 Y51.91393
G1 Z-2.98 F596.7
X22.12713 Y51.85327 Z-2.9934 F1790.2
X21.6124 Y51.25156 Z-3.13303
X21.06198 Y50.68231 Z-3.27265
X20.47792 Y50.14764 Z-3.41227
X19.86239 Y49.64952 Z-3.55189
X19.21767 Y49.18981 Z-3.69151
X18.54615 Y48.77021 Z-3.83114
X17.85032 Y48.39229 Z-3.97076
X17.13277 Y48.05743 Z-4.11038
X16.39617 Y47.76689 Z-4.25
G02 X13.22034 Y47.05764 I-4.25646 J11.59439 F2387.
X16.39617 Y47.76689 I-1.22274 J12.93996
G0 Z1.
X56.17294 Y51.91393
G1 Z-2.98 F596.7
X56.12713 Y51.85327 Z-2.9934 F1790.2
X55.6124 Y51.25156 Z-3.13303
X55.06198 Y50.68231 Z-3.27265
X54.47792 Y50.14764 Z-3.41227
X53.86239 Y49.64952 Z-3.55189
X53.21767 Y49.18981 Z-3.69151
X52.54615 Y48.77021 Z-3.83114
X51.85032 Y48.39229 Z-3.97076
X51.13277 Y48.05743 Z-4.11038
X50.39617 Y47.76689 Z-4.25
G02 X47.22034 Y47.05764 I-4.25646 J11.59439 F2387.
X50.39617 Y47.76689 I-1.22274 J12.93996
G0 Z1.
X90.17294 Y51.91393
G1 Z-2.98 F596.7
X90.12713 Y51.85327 Z-2.9934 F1790.2
X89.6124 Y51.25156 Z-3.13303
X89.06198 Y50.68231 Z-3.27265
X88.47792 Y50.14764 Z-3.41227
X87.86239 Y49.64952 Z-3.55189
X87.21767 Y49.18981 Z-3.69151
X86.54615 Y48.77021 Z-3.83114
X85.85032 Y48.39229 Z-3.97076
X85.13277 Y48.05743 Z-4.11038
X84.39617 Y47.76689 Z-4.25
G02 X81.22034 Y47.05764 I-4.25646 J11.59439 F2387.
X84.39617 Y47.76689 I-1.22274 J12.93996
G0 Z1.
X107.17294 Y75.91393
G1 Z-2.98 F596.7
X107.12713 Y75.85327 Z-2.9934 F1790.2
X106.6124 Y75.25156 Z-3.13303
X106.06198 Y74.68231 Z-3.27265
X105.47792 Y74.14764 Z-3.41227
X104.86239 Y73.64952 Z-3.55189
X104.21767 Y73.18981 Z-3.69151
X103.54615 Y72.77021 Z-3.83114
X102.85032 Y72.39229 Z-3.97076
X102.13277 Y72.05743 Z-4.11038
X101.39617 Y71.76689 Z-4.25
G02 X98.22034 Y71.05764 I-4.25646 J11.59439 F2387.
X101.39617 Y71.76689 I-1.22274 J12.93996
G0 Z1.
X73.17294 Y75.91393
G1 Z-2.98 F596.7
X73.12713 Y75.85327 Z-2.9934 F1790.2
X72.6124 Y75.25156 Z-3.13303
X72.06198 Y74.68231 Z-3.27265
X71.47792 Y74.14764 Z-3.41227
X70.86239 Y73.64952 Z-3.55189
X70.21767 Y73.18981 Z-3.69151
X69.54615 Y72.77021 Z-3.83114
X68.85032 Y72.39229 Z-3.97076
X68.13277 Y72.05743 Z-4.11038
X67.39617 Y71.76689 Z-4.25
G02 X64.22034 Y71.05764 I-4.25646 J11.59439 F2387.
X67.39617 Y71.76689 I-1.22274 J12.93996
G0 Z1.
X39.17294 Y75.91393
G1 Z-2.98 F596.7
X39.12714 Y75.85327 Z-2.9934 F1790.2
X38.6124 Y75.25156 Z-3.13303
X38.06198 Y74.68231 Z-3.27265
X37.47792 Y74.14764 Z-3.41227
X36.86239 Y73.64952 Z-3.55189
X36.21767 Y73.18981 Z-3.69151
X35.54615 Y72.77021 Z-3.83114
X34.85032 Y72.39229 Z-3.97076
X34.13277 Y72.05743 Z-4.11038
X33.39617 Y71.76689 Z-4.25
G02 X30.22034 Y71.05764 I-4.25646 J11.59439 F2387.
X33.39617 Y71.76689 I-1.22274 J12.93996
G0 Z1.
M30
%
