%
G17 G21 G40 G90 G64 P0.1
T38 M06
S15915 M3
(2 1/2 Axis Profiling)
(Router Straight Flute 13mm Carbide Tipped)
G0 Z61.02568
(2 1/2 Axis Profiling Finish)
(Router Straight Flute 13mm Carbide Tipped)
X-56.71692 Y80.29171
G1 Z0.00466 F596.7
X-54.1108 Y74.50115 F1790.2
G03 X-45.71412 Y71.31671 I5.79056 J2.60612
G1 X-45.35623 Y71.47778 F2387.
X-45.34212 Y71.48313
X-44.59274 Y71.71665
X-44.57808 Y71.72026
X-43.80602 Y71.86174
X-43.79104 Y71.86356
X-43.00755 Y71.91096
X-43. Y71.91118
X-27.
G02 X-26.19398 Y71.86174 I-0.38532 J-12.87697
G1 X-25.42192 Y71.72026
X-25.40726 Y71.71665
X-24.65788 Y71.48313
X-24.64377 Y71.47778
X-23.928 Y71.15564
X-23.91463 Y71.14862
X-23.24291 Y70.74255
X-23.23049 Y70.73398
X-22.61261 Y70.2499
X-22.60131 Y70.23989
X-22.04629 Y69.68487
X-22.03628 Y69.67357
X-21.55221 Y69.0557
X-21.54363 Y69.04327
X-21.13756 Y68.37155
X-21.13055 Y68.35819
X-20.80841 Y67.64242
X-20.80305 Y67.6283
X-20.56954 Y66.87892
X-20.56593 Y66.86427
X-20.42444 Y66.09221
X-20.42262 Y66.07722
X-20.37523 Y65.29373
X-20.375 Y65.28618
Y-57.2164
G02 X-34.0428 Y-71.33236 I-14.09507 J-0.02735
X-48.53834 Y-62.66176 I-1.32465 J14.23758
X-48.78049 Y-61.98999 I12.19955 J4.77714
G1 X-49.31054 Y-60.18033
X-49.31394 Y-60.1654
X-49.45027 Y-59.3328
X-49.45133 Y-59.32475
X-49.59362 Y-57.86785
G02 X-49.625 Y-57.22384 I13.08592 J0.96032
G1 Y65.28618
G02 X-49.57556 Y66.09221 I12.87698 J-0.38532
G1 X-49.43407 Y66.86427
X-49.43046 Y66.87892
X-49.19695 Y67.6283
X-49.19159 Y67.64242
X-48.86945 Y68.35819
X-48.86244 Y68.37155
X-48.45637 Y69.04327
X-48.44779 Y69.0557
X-47.96372 Y69.67357
X-47.95371 Y69.68487
X-47.39869 Y70.23989
X-47.38739 Y70.2499
X-46.76951 Y70.73398
X-46.75709 Y70.74255
X-46.08537 Y71.14862
X-46.072 Y71.15564
X-45.71412 Y71.31671
X-45.66282 Y71.20272
X-45.30493 Y71.36379
X-44.55555 Y71.59731
X-43.78349 Y71.73879
X-43. Y71.78618
X-27.
X-26.21651 Y71.73879
X-25.44445 Y71.59731
X-24.69507 Y71.36379
X-23.9793 Y71.04165
X-23.30758 Y70.63558
X-22.6897 Y70.1515
X-22.13468 Y69.59648
X-21.65061 Y68.9786
X-21.24454 Y68.30688
X-20.92239 Y67.59112
X-20.68888 Y66.84174
X-20.54739 Y66.06967
X-20.5 Y65.28618
Y-57.21652
G02 X-34.05049 Y-71.20754 I-13.97007 J-0.02723
X-48.4232 Y-62.6131 I-1.31696 J14.11276
G1 X-48.66053 Y-61.95485
X-49.19058 Y-60.1452
X-49.32692 Y-59.3126
X-49.46922 Y-57.8557
X-49.5 Y-57.22384
Y65.28618
X-49.45261 Y66.06967
X-49.31112 Y66.84174
X-49.07761 Y67.59112
X-48.75546 Y68.30688
X-48.3494 Y68.9786
X-47.86532 Y69.59648
X-47.3103 Y70.1515
X-46.69242 Y70.63558
X-46.0207 Y71.04165
X-45.66282 Y71.20272
G03 X-42.47837 Y79.5994 I-2.60612 J5.79056 F3580.5
G1 X-45.0845 Y85.38997
G0 Z61.02568
X56.71692 Y-80.29171
G1 Z0.00466 F596.7
X54.1108 Y-74.50115 F1790.2
G03 X45.71412 Y-71.31671 I-5.79056 J-2.60612
G1 X45.35623 Y-71.47778 F2387.
X45.34212 Y-71.48313
X44.59274 Y-71.71665
X44.57808 Y-71.72026
X43.80602 Y-71.86175
X43.79104 Y-71.86356
X43.00755 Y-71.91096
X43. Y-71.91118
X27.
G02 X26.19398 Y-71.86175 I0.38532 J12.87697
G1 X25.42192 Y-71.72026
X25.40726 Y-71.71665
X24.65788 Y-71.48313
X24.64377 Y-71.47778
X23.928 Y-71.15564
X23.91463 Y-71.14862
X23.24291 Y-70.74255
X23.23049 Y-70.73398
X22.61261 Y-70.2499
X22.60131 Y-70.23989
X22.04629 Y-69.68487
X22.03628 Y-69.67357
X21.55221 Y-69.0557
X21.54363 Y-69.04327
X21.13756 Y-68.37155
X21.13055 Y-68.35819
X20.80841 Y-67.64242
X20.80305 Y-67.6283
X20.56954 Y-66.87892
X20.56593 Y-66.86427
X20.42444 Y-66.09221
X20.42262 Y-66.07722
X20.37523 Y-65.29373
X20.375 Y-65.28618
Y57.2164
G02 X34.0428 Y71.33236 I14.09507 J0.02735
X48.53834 Y62.66176 I1.32465 J-14.23758
X48.78049 Y61.98999 I-12.19955 J-4.77714
G1 X49.31054 Y60.18033
X49.31394 Y60.1654
X49.45027 Y59.3328
X49.45132 Y59.32475
X49.59362 Y57.86785
G02 X49.625 Y57.22384 I-13.08592 J-0.96032
G1 Y-65.28618
G02 X49.57556 Y-66.09221 I-12.87698 J0.38532
G1 X49.43407 Y-66.86427
X49.43046 Y-66.87892
X49.19695 Y-67.6283
X49.19159 Y-67.64242
X48.86945 Y-68.35819
X48.86244 Y-68.37155
X48.45637 Y-69.04327
X48.44779 Y-69.0557
X47.96372 Y-69.67357
X47.95371 Y-69.68487
X47.39869 Y-70.23989
X47.38739 Y-70.2499
X46.76951 Y-70.73398
X46.75709 Y-70.74255
X46.08537 Y-71.14862
X46.072 Y-71.15564
X45.71412 Y-71.31671
X45.66282 Y-71.20272
X45.30493 Y-71.36379
X44.55555 Y-71.59731
X43.78349 Y-71.73879
X43. Y-71.78618
X27.
X26.21651 Y-71.73879
X25.44445 Y-71.59731
X24.69507 Y-71.36379
X23.9793 Y-71.04165
X23.30758 Y-70.63558
X22.6897 Y-70.1515
X22.13468 Y-69.59648
X21.6506 Y-68.97861
X21.24454 Y-68.30688
X20.92239 Y-67.59112
X20.68888 Y-66.84174
X20.54739 Y-66.06967
X20.5 Y-65.28618
Y57.21652
G02 X34.05049 Y71.20754 I13.97007 J0.02723
X48.4232 Y62.61309 I1.31696 J-14.11276
G1 X48.66053 Y61.95485
X49.19058 Y60.1452
X49.32692 Y59.3126
X49.46922 Y57.8557
X49.5 Y57.22384
Y-65.28618
X49.45261 Y-66.06967
X49.31112 Y-66.84174
X49.07761 Y-67.59112
X48.75546 Y-68.30688
X48.3494 Y-68.97861
X47.86532 Y-69.59648
X47.3103 Y-70.1515
X46.69242 Y-70.63558
X46.0207 Y-71.04165
X45.66282 Y-71.20272
G03 X42.47837 Y-79.59941 I2.60612 J-5.79056 F3580.5
G1 X45.08449 Y-85.38997
G0 Z61.02568
M30
%
