%
G17 G21 G40 G90 G64 P0.1
(2 1/2 Axis Profiling)
(SlotDrill 1/8in 3.175mm Carbide Aluminium Cut)
T6 M06
S24000 M3
G0 Z1.5875
X7.20753 Y7.34051
G1 Z0.30846 F240.5
Y0.31572 Z-0.9302 F721.5
X7.18763 Y0.1391 Z-0.96154
G17
G02 X5.62003 Y-1.27178 I-1.55601 J0.15254 F962.
G1 X2.73903
G02 X1.15159 Y0.30153 I0. J1.5875
G1 X-1.58744 Y306.72135
G02 X0. Y308.32304 I1.58744 J0.01419
G1 X5.62003
G02 X7.20753 Y306.73554 I0. J-1.5875
G1 Y0.31572
X7.18763 Y0.1391
G0 Z1.5875
X7.20753 Y7.34051
G1 Z-0.65308 F240.5
Y0.31572 Z-1.89174 F721.5
X7.18763 Y0.1391 Z-1.92308
G02 X5.62003 Y-1.27178 I-1.55601 J0.15254 F962.
G1 X2.73903
G02 X1.15159 Y0.30153 I0. J1.5875
G1 X-1.58744 Y306.72135
G02 X0. Y308.32304 I1.58744 J0.01419
G1 X5.62003
G02 X7.20753 Y306.73554 I0. J-1.5875
G1 Y0.31572
X7.18763 Y0.1391
G0 Z1.5875
X7.20753 Y7.34051
G1 Z-1.61462 F240.5
Y0.31572 Z-2.85327 F721.5
X7.18763 Y0.1391 Z-2.88462
G02 X5.62003 Y-1.27178 I-1.55601 J0.15254 F962.
G1 X2.73903
G02 X1.15159 Y0.30153 I0. J1.5875
G1 X-1.58744 Y306.72135
G02 X0. Y308.32304 I1.58744 J0.01419
G1 X5.62003
G02 X7.20753 Y306.73554 I0. J-1.5875
G1 Y0.31572
X7.18763 Y0.1391
G0 Z1.5875
X7.20753 Y7.34051
G1 Z-2.57615 F240.5
Y0.31572 Z-3.81481 F721.5
X7.18763 Y0.1391 Z-3.84615
G02 X5.62003 Y-1.27178 I-1.55601 J0.15254 F962.
G1 X2.73903
G02 X1.15159 Y0.30153 I0. J1.5875
G1 X-1.58744 Y306.72135
G02 X0. Y308.32304 I1.58744 J0.01419
G1 X5.62003
G02 X7.20753 Y306.73554 I0. J-1.5875
G1 Y0.31572
X7.18763 Y0.1391
G0 Z1.5875
X7.20753 Y7.34051
G1 Z-3.53769 F240.5
Y0.31572 Z-4.77635 F721.5
X7.18763 Y0.1391 Z-4.80769
G02 X5.62003 Y-1.27178 I-1.55601 J0.15254 F962.
G1 X2.73903
G02 X1.15159 Y0.30153 I0. J1.5875
G1 X-1.58744 Y306.72135
G02 X0. Y308.32304 I1.58744 J0.01419
G1 X5.62003
G02 X7.20753 Y306.73554 I0. J-1.5875
G1 Y0.31572
X7.18763 Y0.1391
G0 Z1.5875
X7.20753 Y7.34051
G1 Z-4.49923 F240.5
Y0.31572 Z-5.73789 F721.5
X7.18763 Y0.1391 Z-5.76923
G02 X5.62003 Y-1.27178 I-1.55601 J0.15254 F962.
G1 X2.73903
G02 X1.15159 Y0.30153 I0. J1.5875
G1 X-1.58744 Y306.72135
G02 X0. Y308.32304 I1.58744 J0.01419
G1 X5.62003
G02 X7.20753 Y306.73554 I0. J-1.5875
G1 Y0.31572
X7.18763 Y0.1391
G0 Z1.5875
X7.20753 Y7.34051
G1 Z-5.46077 F240.5
Y0.31572 Z-6.69943 F721.5
X7.18763 Y0.1391 Z-6.73077
G02 X5.62003 Y-1.27178 I-1.55601 J0.15254 F962.
G1 X2.73903
G02 X1.15159 Y0.30153 I0. J1.5875
G1 X-1.58744 Y306.72135
G02 X0. Y308.32304 I1.58744 J0.01419
G1 X5.62003
G02 X7.20753 Y306.73554 I0. J-1.5875
G1 Y0.31572
X7.18763 Y0.1391
G0 Z1.5875
X7.20753 Y7.34051
G1 Z-6.42231 F240.5
Y0.31572 Z-7.66097 F721.5
X7.18763 Y0.1391 Z-7.69231
G02 X5.62003 Y-1.27178 I-1.55601 J0.15254 F962.
G1 X2.73903
G02 X1.15159 Y0.30153 I0. J1.5875
G1 X-1.58744 Y306.72135
G02 X0. Y308.32304 I1.58744 J0.01419
G1 X5.62003
G02 X7.20753 Y306.73554 I0. J-1.5875
G1 Y0.31572
X7.18763 Y0.1391
G0 Z1.5875
X7.20753 Y7.34051
G1 Z-7.38385 F240.5
Y0.31572 Z-8.62251 F721.5
X7.18763 Y0.1391 Z-8.65385
G02 X5.62003 Y-1.27178 I-1.55601 J0.15254 F962.
G1 X2.73903
G02 X1.15159 Y0.30153 I0. J1.5875
G1 X-1.58744 Y306.72135
G02 X0. Y308.32304 I1.58744 J0.01419
G1 X5.62003
G02 X7.20753 Y306.73554 I0. J-1.5875
G1 Y0.31572
X7.18763 Y0.1391
G0 Z1.5875
X7.20753 Y7.34051
G1 Z-8.34539 F240.5
Y0.31572 Z-9.58404 F721.5
X7.18763 Y0.1391 Z-9.61539
G02 X5.62003 Y-1.27178 I-1.55601 J0.15254 F962.
G1 X2.73903
G02 X1.15159 Y0.30153 I0. J1.5875
G1 X-1.58744 Y306.72135
G02 X0. Y308.32304 I1.58744 J0.01419
G1 X5.62003
G02 X7.20753 Y306.73554 I0. J-1.5875
G1 Y0.31572
X7.18763 Y0.1391
G0 Z1.5875
X7.20753 Y7.34051
G1 Z-9.30692 F240.5
Y0.31572 Z-10.54558 F721.5
X7.18763 Y0.1391 Z-10.57692
G02 X5.62003 Y-1.27178 I-1.55601 J0.15254 F962.
G1 X2.73903
G02 X1.15159 Y0.30153 I0. J1.5875
G1 X-1.58744 Y306.72135
G02 X0. Y308.32304 I1.58744 J0.01419
G1 X5.62003
G02 X7.20753 Y306.73554 I0. J-1.5875
G1 Y0.31572
X7.18763 Y0.1391
G0 Z1.5875
X7.20753 Y7.34051
G1 Z-10.26846 F240.5
Y0.31572 Z-11.50712 F721.5
X7.18763 Y0.1391 Z-11.53846
G02 X5.62003 Y-1.27178 I-1.55601 J0.15254 F962.
G1 X2.73903
G02 X1.15159 Y0.30153 I0. J1.5875
G1 X-1.58744 Y306.72135
G02 X0. Y308.32304 I1.58744 J0.01419
G1 X5.62003
G02 X7.20753 Y306.73554 I0. J-1.5875
G1 Y0.31572
X7.18763 Y0.1391
G0 Z1.5875
X7.20753 Y7.34051
G1 Z-11.23 F240.5
Y0.31572 Z-12.46866 F721.5
X7.18763 Y0.1391 Z-12.5
G02 X5.62003 Y-1.27178 I-1.55601 J0.15254 F962.
G1 X2.73903
G02 X1.15159 Y0.30153 I0. J1.5875
G1 X-1.58744 Y306.72135
G02 X0. Y308.32304 I1.58744 J0.01419
G1 X5.62003
G02 X7.20753 Y306.73554 I0. J-1.5875
G1 Y0.31572
X7.18763 Y0.1391
G0 Z1.5875
(2 1/2 Axis Profiling-1)
(SlotDrill 1/8in 3.175mm Carbide Aluminium Cut)
X36.29672 Y6.66934
G1 Z-1.23 F240.5
Y0.00005 Z-2.40598 F721.5
X36.25692 Y-0.3532 Z-2.46866
X36.19822 Y-0.52097 Z-2.5
G02 X34.70922 Y-1.58745 I-1.47886 J0.49206 F962.
G1 X17.95922
G02 X16.37172 Y0.00005 I0. J1.5875
G1 X16.37166 Y138.09093
G02 X17.95915 Y139.67844 I1.58749 J0.00001
G1 X34.70916
G02 X36.29666 Y138.09094 I0. J-1.5875
G1 X36.29672 Y0.00005
X36.25692 Y-0.3532
X36.19822 Y-0.52097
G0 Z1.5875
X36.29672 Y6.66934
G1 Z-3.73 F240.5
Y0.00005 Z-4.90598 F721.5
X36.25692 Y-0.3532 Z-4.96866
X36.19822 Y-0.52097 Z-5.
G02 X34.70922 Y-1.58745 I-1.47886 J0.49206 F962.
G1 X17.95922
G02 X16.37172 Y0.00005 I0. J1.5875
G1 X16.37166 Y138.09093
G02 X17.95915 Y139.67844 I1.58749 J0.00001
G1 X34.70916
G02 X36.29666 Y138.09094 I0. J-1.5875
G1 X36.29672 Y0.00005
X36.25692 Y-0.3532
X36.19822 Y-0.52097
G0 Z1.5875
X36.29672 Y6.66934
G1 Z-6.23 F240.5
Y0.00005 Z-7.40598 F721.5
X36.25692 Y-0.3532 Z-7.46866
X36.19822 Y-0.52097 Z-7.5
G02 X34.70922 Y-1.58745 I-1.47886 J0.49206 F962.
G1 X17.95922
G02 X16.37172 Y0.00005 I0. J1.5875
G1 X16.37166 Y138.09093
G02 X17.95915 Y139.67844 I1.58749 J0.00001
G1 X34.70916
G02 X36.29666 Y138.09094 I0. J-1.5875
G1 X36.29672 Y0.00005
X36.25692 Y-0.3532
X36.19822 Y-0.52097
G0 Z1.5875
X36.29672 Y6.66934
G1 Z-8.73 F240.5
Y0.00005 Z-9.90598 F721.5
X36.25692 Y-0.3532 Z-9.96866
X36.19822 Y-0.52097 Z-10.
G02 X34.70922 Y-1.58745 I-1.47886 J0.49206 F962.
G1 X17.95922
G02 X16.37172 Y0.00005 I0. J1.5875
G1 X16.37166 Y138.09093
G02 X17.95915 Y139.67844 I1.58749 J0.00001
G1 X34.70916
G02 X36.29666 Y138.09094 I0. J-1.5875
G1 X36.29672 Y0.00005
X36.25692 Y-0.3532
X36.19822 Y-0.52097
G0 Z1.5875
X36.29672 Y6.66934
G1 Z-11.23 F240.5
Y0.00005 Z-12.40598 F721.5
X36.25692 Y-0.3532 Z-12.46866
X36.19822 Y-0.52097 Z-12.5
G02 X34.70922 Y-1.58745 I-1.47886 J0.49206 F962.
G1 X17.95922
G02 X16.37172 Y0.00005 I0. J1.5875
G1 X16.37166 Y138.09093
G02 X17.95915 Y139.67844 I1.58749 J0.00001
G1 X34.70916
G02 X36.29666 Y138.09094 I0. J-1.5875
G1 X36.29672 Y0.00005
X36.25692 Y-0.3532
X36.19822 Y-0.52097
G0 Z1.5875
X64.93832 Y7.02483
G1 Z-1.23 F240.5
Y0.00005 Z-2.46866 F721.5
X64.91842 Y-0.17658 Z-2.5
G02 X63.35082 Y-1.58745 I-1.556 J0.15254 F962.
G1 X46.60082
G02 X45.01332 Y0.00005 I0. J1.5875
G1 X45.01325 Y138.09093
G02 X46.60075 Y139.67844 I1.5875 J0.00001
G1 X63.35075
G02 X64.93825 Y138.09094 I0. J-1.5875
G1 X64.93832 Y0.00005
X64.91842 Y-0.17658
G0 Z1.5875
X64.93832 Y7.02483
G1 Z-3.73 F240.5
Y0.00005 Z-4.96866 F721.5
X64.91842 Y-0.17658 Z-5.
G02 X63.35082 Y-1.58745 I-1.556 J0.15254 F962.
G1 X46.60082
G02 X45.01332 Y0.00005 I0. J1.5875
G1 X45.01325 Y138.09093
G02 X46.60075 Y139.67844 I1.5875 J0.00001
G1 X63.35075
G02 X64.93825 Y138.09094 I0. J-1.5875
G1 X64.93832 Y0.00005
X64.91842 Y-0.17658
G0 Z1.5875
X64.93832 Y7.02483
G1 Z-6.23 F240.5
Y0.00005 Z-7.46866 F721.5
X64.91842 Y-0.17658 Z-7.5
G02 X63.35082 Y-1.58745 I-1.556 J0.15254 F962.
G1 X46.60082
G02 X45.01332 Y0.00005 I0. J1.5875
G1 X45.01325 Y138.09093
G02 X46.60075 Y139.67844 I1.5875 J0.00001
G1 X63.35075
G02 X64.93825 Y138.09094 I0. J-1.5875
G1 X64.93832 Y0.00005
X64.91842 Y-0.17658
G0 Z1.5875
X64.93832 Y7.02483
G1 Z-8.73 F240.5
Y0.00005 Z-9.96866 F721.5
X64.91842 Y-0.17658 Z-10.
G02 X63.35082 Y-1.58745 I-1.556 J0.15254 F962.
G1 X46.60082
G02 X45.01332 Y0.00005 I0. J1.5875
G1 X45.01325 Y138.09093
G02 X46.60075 Y139.67844 I1.5875 J0.00001
G1 X63.35075
G02 X64.93825 Y138.09094 I0. J-1.5875
G1 X64.93832 Y0.00005
X64.91842 Y-0.17658
G0 Z1.5875
X64.93832 Y7.02483
G1 Z-11.23 F240.5
Y0.00005 Z-12.46866 F721.5
X64.91842 Y-0.17658 Z-12.5
G02 X63.35082 Y-1.58745 I-1.556 J0.15254 F962.
G1 X46.60082
G02 X45.01332 Y0.00005 I0. J1.5875
G1 X45.01325 Y138.09093
G02 X46.60075 Y139.67844 I1.5875 J0.00001
G1 X63.35075
G02 X64.93825 Y138.09094 I0. J-1.5875
G1 X64.93832 Y0.00005
X64.91842 Y-0.17658
G0 Z1.5875
M30
%
