%
G17 G21 G40 G90 G64 P0.1
(Standard Drill )
(1/8in Carbide Drill)
T31 M06
S23873 M3
G0 Z6.
X136.87548 Y113.20202
G21 S23873 M3
G81 X136.87548 Y113.20202 Z-2. R2.5 F477.0
X136.87548Y117.52113
X136.87548Y136.30652
X136.87548Y143.92049
X125.77557Y154.00002
X125.77557Y160.5773
X98.87701Y164.54417
X98.87701Y171.1185
X111.91017Y188.59399
X111.91017Y195.43589
X45.95344Y160.53792
X45.95344Y154.04196
X57.05335Y144.2108
X57.05335Y136.28378
X57.05335Y117.52923
X57.05335Y113.13673
X19.05488Y164.53524
X19.05488Y171.15248
X32.08804Y188.3163
X32.08804Y193.83379
X46.8482Y324.75802
X46.8482Y331.31751
X19.26319Y334.81525
X19.26319Y341.41197
X99.08532Y341.37624
X99.08532Y334.86361
X126.67033Y331.35686
X126.67033Y324.76555
G80
G0 Z6.
M30
%
