%
G17 G21 G40 G90 G64 P0.1
(Engraving)
(Ballnose 1mm Carbide)
T31M06
S2000 M5
G0 Z6.
X15.22236 Y42.35407
G1 Z-0.1 F1250.5
X13.21226 Y41.83253 F2500.
Y42.10417
X14.5324 Y42.40296
X14.73884 Y42.45186
X14.94529 Y42.48989
X14.57043 Y42.58224
X13.21226 Y42.96253
Y43.28306
X14.2336 Y43.56556
X14.60167 Y43.65928
X14.94529 Y43.72311
X14.50524 Y43.8209
X13.21226 Y44.136
Y44.40763
X15.22236 Y43.8535
Y43.59273
X13.69577 Y43.17984
X13.45673 Y43.11465
X13.69577 Y43.05489
X15.22236 Y42.63114
Y42.35407
G0 Z6.
Y45.48874
G1 Z-0.1 F1250.5
Y45.24427 F2500.
X13.6523
X13.73923 Y45.13833
X13.82615 Y45.00523
X13.89813 Y44.87077
X13.9511 Y44.74989
X13.71206
X13.66079 Y44.84972
X13.60477 Y44.94275
X13.54399 Y45.029
X13.47846 Y45.10845
X13.40851 Y45.18145
X13.33992 Y45.24291
X13.27269 Y45.29282
X13.20682 Y45.33119
Y45.48874
X15.22236
G0 Z6.
X39.90521 Y45.82642
G1 Z-0.1 F1250.5
X40.14425 F2500.
Y44.4954
X40.05869 Y44.49948
X39.97584 Y44.52257
X39.90827 Y44.55109
X39.84138 Y44.58776
X39.77517 Y44.63258
X39.70963 Y44.68555
X39.56838 Y44.82272
X39.4054 Y45.00608
X39.27706 Y45.15582
X39.16365 Y45.27907
X39.06518 Y45.37584
X38.98165 Y45.44613
X38.9039 Y45.49842
X38.82818 Y45.53577
X38.7545 Y45.55818
X38.68285 Y45.56565
X38.61257 Y45.55886
X38.54839 Y45.53848
X38.49033 Y45.50453
X38.43838 Y45.45699
X38.39322 Y45.40131
X38.36097 Y45.33747
X38.34161 Y45.26549
X38.33516 Y45.18536
X38.34195 Y45.10251
X38.36232 Y45.02781
X38.39628 Y44.96126
X38.44381 Y44.90286
X38.50323 Y44.8577
X38.57284 Y44.82544
X38.65263 Y44.80609
X38.74261 Y44.79964
X38.71002 Y44.5443
X38.57726 Y44.56467
X38.46147 Y44.60406
X38.36266 Y44.66246
X38.31963 Y44.69879
X38.28083 Y44.73988
X38.21428 Y44.83121
X38.16675 Y44.93681
X38.13823 Y45.05667
X38.12872 Y45.19079
X38.1389 Y45.32966
X38.16946 Y45.45292
X38.19238 Y45.50869
X38.2204 Y45.56055
X38.2535 Y45.60851
X38.2917 Y45.65257
X38.37557 Y45.72625
X38.46962 Y45.77888
X38.57386 Y45.81046
X38.68829 Y45.82098
X38.74805 Y45.81759
X38.80781 Y45.8074
X38.86757 Y45.79042
X38.92732 Y45.76666
X39.04549 Y45.70282
X39.1718 Y45.60911
X39.32255 Y45.45699
X39.52492 Y45.22882
X39.67975 Y45.04547
X39.77483 Y44.94089
X39.84002 Y44.88656
X39.90521 Y44.8431
Y45.82642
G0 Z6.
X40.14425 Y42.32232
G1 Z-0.1 F1250.5
X38.13415 Y41.80078 F2500.
Y42.07242
X39.4543 Y42.37122
X39.66074 Y42.42011
X39.86718 Y42.45814
X39.49233 Y42.5505
X38.13415 Y42.93079
Y43.25131
X39.1555 Y43.53382
X39.52356 Y43.62753
X39.86718 Y43.69136
X39.42713 Y43.78915
X38.13415 Y44.10425
Y44.37588
X40.14425 Y43.82175
Y43.56098
X38.61766 Y43.14809
X38.37862 Y43.0829
X38.61766 Y43.02314
X40.14425 Y42.59939
Y42.32232
G0 Z6.
X65.81546 Y45.46667
G1 Z-0.1 F1250.5
X65.78287 Y45.72201 F2500.
X65.87896 Y45.74509
X65.96079 Y45.77633
X66.02836 Y45.81572
X66.08167 Y45.86326
X66.1197 Y45.91521
X66.14686 Y45.97327
X66.16316 Y46.03744
X66.16859 Y46.10773
X66.16112 Y46.19126
X66.13871 Y46.26799
X66.10136 Y46.33794
X66.04907 Y46.40109
X65.98558 Y46.45338
X65.91461 Y46.49073
X65.83618 Y46.51314
X65.75027 Y46.52061
X65.6698 Y46.51348
X65.5968 Y46.49209
X65.53127 Y46.45644
X65.4732 Y46.40653
X65.42329 Y46.34846
X65.38764 Y46.28293
X65.36625 Y46.20993
X65.35912 Y46.12946
X65.36591 Y46.05068
X65.38628 Y45.95561
X65.16897 Y45.98278
X65.17441 Y46.0208
X65.16931 Y46.09517
X65.15403 Y46.16613
X65.12857 Y46.2337
X65.09291 Y46.29787
X65.04674 Y46.35254
X64.98969 Y46.39159
X64.92179 Y46.41501
X64.84301 Y46.42283
X64.77816 Y46.41705
X64.71942 Y46.39974
X64.66679 Y46.37087
X64.62027 Y46.33047
X64.57986 Y46.28124
X64.551 Y46.22589
X64.53369 Y46.16443
X64.52791 Y46.09686
X64.53369 Y46.02929
X64.551 Y45.96784
X64.57986 Y45.91249
X64.62027 Y45.86326
X64.67188 Y45.81912
X64.73436 Y45.78448
X64.8077 Y45.75936
X64.8919 Y45.74374
X64.84844 Y45.4884
X64.733 Y45.51726
X64.63113 Y45.56038
X64.54285 Y45.61777
X64.46815 Y45.68941
X64.40636 Y45.77565
X64.36222 Y45.8714
X64.33573 Y45.97666
X64.3269 Y46.09143
X64.33132 Y46.17122
X64.34456 Y46.24762
X64.36663 Y46.32062
X64.39753 Y46.39023
X64.43624 Y46.45644
X64.48174 Y46.51382
X64.53403 Y46.56238
X64.59311 Y46.6021
X64.65388 Y46.63538
X64.7167 Y46.65915
X64.78155 Y46.67341
X64.84844 Y46.67816
X64.91194 Y46.67375
X64.97204 Y46.66051
X65.02874 Y46.63844
X65.08205 Y46.60754
X65.13332 Y46.56815
X65.17848 Y46.52061
X65.21753 Y46.46493
X65.25046 Y46.40109
X65.27763 Y46.4836
X65.31566 Y46.55728
X65.36455 Y46.62214
X65.42431 Y46.67816
X65.49324 Y46.72332
X65.56964 Y46.75558
X65.6535 Y46.77493
X65.74484 Y46.78138
X65.81012 Y46.77833
X65.87285 Y46.76916
X65.93303 Y46.75388
X65.99067 Y46.73249
X66.04576 Y46.70499
X66.0983 Y46.67137
X66.1483 Y46.63164
X66.19575 Y46.58581
X66.23777 Y46.53666
X66.27419 Y46.48428
X66.305 Y46.42868
X66.33021 Y46.36986
X66.36383 Y46.24253
X66.37503 Y46.10229
X66.36553 Y45.97497
X66.337 Y45.85918
X66.28947 Y45.75494
X66.22292 Y45.66225
X66.13837 Y45.58483
X66.04228 Y45.52643
X65.93465 Y45.48704
X65.81546 Y45.46667
G0 Z6.
X66.34244 Y43.25556
G1 Z-0.1 F1250.5
X64.33234 Y42.73402 F2500.
Y43.00565
X65.65248 Y43.30445
X65.85893 Y43.35335
X66.06537 Y43.39138
X65.69051 Y43.48373
X64.33234 Y43.86402
Y44.18455
X65.35368 Y44.46705
X65.72175 Y44.56077
X66.06537 Y44.6246
X65.62532 Y44.72239
X64.33234 Y45.03748
Y45.30912
X66.34244 Y44.75498
Y44.49421
X64.81585 Y44.08133
X64.57681 Y44.01614
X64.81585 Y43.95638
X66.34244 Y43.53263
Y43.25556
G0 Z6.
X95.04425 Y42.35407
G1 Z-0.1 F1250.5
X93.03415 Y41.83253 F2500.
Y42.10417
X94.3543 Y42.40296
X94.56074 Y42.45186
X94.76719 Y42.48989
X94.39233 Y42.58224
X93.03415 Y42.96253
Y43.28306
X94.0555 Y43.56556
X94.42357 Y43.65928
X94.76719 Y43.72311
X94.32714 Y43.8209
X93.03415 Y44.136
Y44.40763
X95.04425 Y43.8535
Y43.59273
X93.51766 Y43.17984
X93.27863 Y43.11465
X93.51766 Y43.05489
X95.04425 Y42.63114
Y42.35407
G0 Z6.
Y45.48874
G1 Z-0.1 F1250.5
Y45.24427 F2500.
X93.4742
X93.56113 Y45.13833
X93.64805 Y45.00523
X93.72003 Y44.87077
X93.773 Y44.74989
X93.53396
X93.48269 Y44.84972
X93.42667 Y44.94275
X93.36589 Y45.029
X93.30036 Y45.10845
X93.23041 Y45.18145
X93.16182 Y45.24291
X93.09459 Y45.29282
X93.02872 Y45.33119
Y45.48874
X95.04425
G0 Z6.
X119.72711 Y45.82642
G1 Z-0.1 F1250.5
X119.96615 F2500.
Y44.4954
X119.88058 Y44.49948
X119.79774 Y44.52257
X119.73017 Y44.55109
X119.66328 Y44.58776
X119.59707 Y44.63258
X119.53153 Y44.68555
X119.39028 Y44.82272
X119.2273 Y45.00608
X119.09895 Y45.15582
X118.98555 Y45.27907
X118.88708 Y45.37584
X118.80355 Y45.44613
X118.7258 Y45.49842
X118.65008 Y45.53577
X118.5764 Y45.55818
X118.50475 Y45.56565
X118.43447 Y45.55886
X118.37029 Y45.53848
X118.31223 Y45.50453
X118.26028 Y45.45699
X118.21512 Y45.40131
X118.18287 Y45.33747
X118.16351 Y45.26549
X118.15706 Y45.18536
X118.16385 Y45.10251
X118.18422 Y45.02781
X118.21818 Y44.96126
X118.26571 Y44.90286
X118.32513 Y44.8577
X118.39474 Y44.82544
X118.47453 Y44.80609
X118.56451 Y44.79964
X118.53192 Y44.5443
X118.39915 Y44.56467
X118.28337 Y44.60406
X118.18456 Y44.66246
X118.14153 Y44.69879
X118.10273 Y44.73988
X118.03618 Y44.83121
X117.98865 Y44.93681
X117.96012 Y45.05667
X117.95062 Y45.19079
X117.9608 Y45.32966
X117.99136 Y45.45292
X118.01428 Y45.50869
X118.04229 Y45.56055
X118.0754 Y45.60851
X118.1136 Y45.65257
X118.19747 Y45.72625
X118.29152 Y45.77888
X118.39576 Y45.81046
X118.51019 Y45.82098
X118.56995 Y45.81759
X118.62971 Y45.8074
X118.68946 Y45.79042
X118.74922 Y45.76666
X118.86739 Y45.70282
X118.9937 Y45.60911
X119.14445 Y45.45699
X119.34682 Y45.22882
X119.50165 Y45.04547
X119.59673 Y44.94089
X119.66192 Y44.88656
X119.72711 Y44.8431
Y45.82642
G0 Z6.
X119.96615 Y42.32232
G1 Z-0.1 F1250.5
X117.95605 Y41.80078 F2500.
Y42.07242
X119.2762 Y42.37122
X119.48264 Y42.42011
X119.68908 Y42.45814
X119.31423 Y42.5505
X117.95605 Y42.93079
Y43.25131
X118.9774 Y43.53382
X119.34546 Y43.62753
X119.68908 Y43.69136
X119.24903 Y43.78915
X117.95605 Y44.10425
Y44.37588
X119.96615 Y43.82175
Y43.56098
X118.43956 Y43.14809
X118.20052 Y43.0829
X118.43956 Y43.02314
X119.96615 Y42.59939
Y42.32232
G0 Z6.
X145.63736 Y45.46667
G1 Z-0.1 F1250.5
X145.60477 Y45.72201 F2500.
X145.70086 Y45.74509
X145.78269 Y45.77633
X145.85026 Y45.81572
X145.90357 Y45.86326
X145.9416 Y45.91521
X145.96876 Y45.97327
X145.98506 Y46.03744
X145.99049 Y46.10773
X145.98302 Y46.19126
X145.96061 Y46.26799
X145.92326 Y46.33794
X145.87097 Y46.40109
X145.80748 Y46.45338
X145.73651 Y46.49073
X145.65808 Y46.51314
X145.57217 Y46.52061
X145.4917 Y46.51348
X145.4187 Y46.49209
X145.35317 Y46.45644
X145.2951 Y46.40653
X145.24519 Y46.34846
X145.20954 Y46.28293
X145.18815 Y46.20993
X145.18102 Y46.12946
X145.18781 Y46.05068
X145.20818 Y45.95561
X144.99087 Y45.98278
X144.99631 Y46.0208
X144.99121 Y46.09517
X144.97593 Y46.16613
X144.95047 Y46.2337
X144.91481 Y46.29787
X144.86864 Y46.35254
X144.81159 Y46.39159
X144.74368 Y46.41501
X144.66491 Y46.42283
X144.60006 Y46.41705
X144.54132 Y46.39974
X144.48869 Y46.37087
X144.44217 Y46.33047
X144.40176 Y46.28124
X144.3729 Y46.22589
X144.35559 Y46.16443
X144.34981 Y46.09686
X144.35559 Y46.02929
X144.3729 Y45.96784
X144.40176 Y45.91249
X144.44217 Y45.86326
X144.49378 Y45.81912
X144.55626 Y45.78448
X144.6296 Y45.75936
X144.7138 Y45.74374
X144.67034 Y45.4884
X144.5549 Y45.51726
X144.45303 Y45.56038
X144.36475 Y45.61777
X144.29005 Y45.68941
X144.22826 Y45.77565
X144.18412 Y45.8714
X144.15763 Y45.97666
X144.1488 Y46.09143
X144.15322 Y46.17122
X144.16646 Y46.24762
X144.18853 Y46.32062
X144.21943 Y46.39023
X144.25814 Y46.45644
X144.30363 Y46.51382
X144.35593 Y46.56238
X144.41501 Y46.6021
X144.47578 Y46.63538
X144.5386 Y46.65915
X144.60345 Y46.67341
X144.67034 Y46.67816
X144.73384 Y46.67375
X144.79394 Y46.66051
X144.85064 Y46.63844
X144.90395 Y46.60754
X144.95522 Y46.56815
X145.00038 Y46.52061
X145.03943 Y46.46493
X145.07236 Y46.40109
X145.09953 Y46.4836
X145.13755 Y46.55728
X145.18645 Y46.62214
X145.24621 Y46.67816
X145.31514 Y46.72332
X145.39153 Y46.75558
X145.4754 Y46.77493
X145.56674 Y46.78138
X145.63202 Y46.77833
X145.69475 Y46.76916
X145.75493 Y46.75388
X145.81257 Y46.73249
X145.86766 Y46.70499
X145.9202 Y46.67137
X145.9702 Y46.63164
X146.01765 Y46.58581
X146.05967 Y46.53666
X146.09609 Y46.48428
X146.1269 Y46.42868
X146.15211 Y46.36986
X146.18573 Y46.24253
X146.19693 Y46.10229
X146.18742 Y45.97497
X146.1589 Y45.85918
X146.11137 Y45.75494
X146.04482 Y45.66225
X145.96027 Y45.58483
X145.86418 Y45.52643
X145.75654 Y45.48704
X145.63736 Y45.46667
G0 Z6.
X146.16434 Y43.25556
G1 Z-0.1 F1250.5
X144.15424 Y42.73402 F2500.
Y43.00565
X145.47438 Y43.30445
X145.68083 Y43.35335
X145.88727 Y43.39138
X145.51241 Y43.48373
X144.15424 Y43.86402
Y44.18455
X145.17558 Y44.46705
X145.54365 Y44.56077
X145.88727 Y44.6246
X145.44722 Y44.72239
X144.15424 Y45.03748
Y45.30912
X146.16434 Y44.75498
Y44.49421
X144.63775 Y44.08133
X144.39871 Y44.01614
X144.63775 Y43.95638
X146.16434 Y43.53263
Y43.25556
G0 Z6.
X174.64978 Y30.63457
G1 Z-0.1 F1250.5
X174.44607 Y30.66173 F2500.
X174.43645 Y30.70587
X174.42117 Y30.74322
X174.40023 Y30.77377
X174.37363 Y30.79754
X174.33176 Y30.82131
X174.28309 Y30.83828
X174.22764 Y30.84847
X174.16539 Y30.85186
X174.0989 Y30.84847
X174.03977 Y30.83828
X173.98799 Y30.82131
X173.94357 Y30.79754
X173.9082 Y30.76557
X173.87906 Y30.7285
X173.85614 Y30.68634
X173.83944 Y30.63909
X173.82926 Y30.54063
X173.82586 Y30.372
X173.89773 Y30.44132
X173.93663 Y30.46855
X173.97752 Y30.49083
X174.02038 Y30.50816
X174.06523 Y30.52054
X174.16086 Y30.53045
X174.2224 Y30.52769
X174.28026 Y30.51941
X174.33445 Y30.50562
X174.38495 Y30.48631
X174.43178 Y30.46148
X174.47493 Y30.43113
X174.5144 Y30.39527
X174.55019 Y30.35389
X174.61159 Y30.25882
X174.65544 Y30.1547
X174.68175 Y30.04153
X174.69053 Y29.9193
X174.68656 Y29.8347
X174.67468 Y29.75293
X174.65488 Y29.67399
X174.62715 Y29.59788
X174.59178 Y29.52941
X174.54906 Y29.46886
X174.49898 Y29.41623
X174.44154 Y29.37153
X174.37986 Y29.33588
X174.31252 Y29.31041
X174.23952 Y29.29513
X174.16086 Y29.29004
X174.1088 Y29.2928
X174.05901 Y29.30107
X174.01147 Y29.31487
X173.9662 Y29.33418
X173.92319 Y29.35901
X173.88245 Y29.38935
X173.84397 Y29.42521
X173.80776 Y29.46659
Y29.3172
X173.62215
Y30.36747
X173.62583 Y30.4996
X173.63686 Y30.6108
X173.65525 Y30.70106
X173.681 Y30.77038
X173.71269 Y30.82612
X173.75343 Y30.87563
X173.80323 Y30.91892
X173.86208 Y30.95599
X173.92885 Y30.98569
X174.00242 Y31.00691
X174.08277 Y31.01965
X174.16992 Y31.02389
X174.27319 Y31.01795
X174.36571 Y31.00013
X174.44748 Y30.97042
X174.5185 Y30.92882
X174.55026 Y30.90343
X174.57763 Y30.87478
X174.60062 Y30.84288
X174.61923 Y30.80773
X174.64327 Y30.72765
X174.64978 Y30.63457
G0 Z6.
X174.99384 Y30.53045
G1 Z-0.1 F1250.5
Y29.3172 F2500.
X174.79012
Y30.53045
X174.99384
G0 Z6.
X174.47776 Y29.90572
G1 Z-0.1 F1250.5
X174.47181 Y30.0155 F2500.
X174.45399 Y30.10943
X174.42428 Y30.18752
X174.38269 Y30.24977
X174.33204 Y30.2973
X174.27517 Y30.33126
X174.21208 Y30.35163
X174.14276 Y30.35842
X174.07344 Y30.35163
X174.01034 Y30.33126
X173.95347 Y30.2973
X173.90282 Y30.24977
X173.86123 Y30.18781
X173.83152 Y30.11056
X173.8137 Y30.01804
X173.80776 Y29.91024
X173.81398 Y29.80612
X173.83265 Y29.71558
X173.86378 Y29.63862
X173.90735 Y29.57524
X173.95969 Y29.52573
X174.01713 Y29.49036
X174.07966 Y29.46914
X174.14728 Y29.46207
X174.21264 Y29.46914
X174.27291 Y29.49036
X174.32808 Y29.52573
X174.37816 Y29.57524
X174.42173 Y29.63664
X174.45286 Y29.71219
X174.47153 Y29.80188
X174.47776 Y29.90572
G0 Z6.
X174.99384 Y29.09085
G1 Z-0.1 F1250.5
Y28.85545 F2500.
X174.79012
Y29.09085
X174.99384
G0 Z6.
X175.40127
G1 Z-0.1 F1250.5
Y28.85545 F2500.
X175.19755
Y29.09085
X175.40127
G0 Z6.
X177.04911 Y29.92382
G1 Z-0.1 F1250.5
X177.11475 Y29.94561 F2500.
X177.19397 Y29.9657
X177.39316 Y30.00078
X177.50181 Y30.02002
X177.57424 Y30.04153
X177.62178 Y30.06982
X177.65573 Y30.10943
X177.6761 Y30.15583
X177.68289 Y30.2045
X177.67921 Y30.24354
X177.66818 Y30.2792
X177.64979 Y30.31145
X177.62404 Y30.34031
X177.58867 Y30.36408
X177.54595 Y30.38105
X177.49587 Y30.39124
X177.43843 Y30.39463
X177.3793 Y30.39152
X177.32412 Y30.38219
X177.27291 Y30.36662
X177.22566 Y30.34484
X177.18124 Y30.31739
X177.14304 Y30.28485
X177.11107 Y30.24722
X177.08532 Y30.2045
X177.07146 Y30.1663
X177.06156 Y30.11962
X177.05363 Y30.00078
X177.04911 Y29.92382
G0 Z6.
X177.03553 Y30.37653
G1 Z-0.1 F1250.5
X177.09183 Y30.42265 F2500.
X177.14757 Y30.46141
X177.20274 Y30.49281
X177.25735 Y30.51686
X177.31054 Y30.53469
X177.366 Y30.54742
X177.42372 Y30.55506
X177.4837 Y30.55761
X177.57962 Y30.55167
X177.66365 Y30.53384
X177.7358 Y30.50413
X177.79607 Y30.46254
X177.84162 Y30.40963
X177.87416 Y30.3505
X177.89368 Y30.28514
X177.90019 Y30.21355
X177.89764 Y30.16941
X177.89 Y30.12754
X177.87727 Y30.08793
X177.85944 Y30.05058
X177.81304 Y29.98494
X177.75532 Y29.93288
X177.68402 Y29.89327
X177.60593 Y29.86497
X177.52784 Y29.848
X177.42032 Y29.83328
X177.20416 Y29.80159
X177.12069 Y29.78236
X177.05363 Y29.76085
X177.04911 Y29.71105
X177.05279 Y29.65248
X177.06382 Y29.60354
X177.08221 Y29.56421
X177.10796 Y29.5345
X177.15323 Y29.50281
X177.20755 Y29.48017
X177.27093 Y29.46659
X177.34336 Y29.46207
X177.41127 Y29.46546
X177.47012 Y29.47565
X177.51992 Y29.49262
X177.56066 Y29.51639
X177.59235 Y29.54582
X177.61951 Y29.5843
X177.64215 Y29.63183
X177.66026 Y29.68842
X177.86397 Y29.66126
X177.84841 Y29.60099
X177.82889 Y29.54695
X177.8054 Y29.49913
X177.77796 Y29.45754
X177.74259 Y29.41934
X177.69987 Y29.38624
X177.64979 Y29.35823
X177.59235 Y29.33531
X177.53095 Y29.31551
X177.46446 Y29.30136
X177.39288 Y29.29287
X177.3162 Y29.29004
X177.24292 Y29.29259
X177.177 Y29.30023
X177.11843 Y29.31296
X177.06722 Y29.33078
X176.9812 Y29.37153
X176.94838 Y29.39529
X176.92235 Y29.42132
X176.88387 Y29.48357
X176.85897 Y29.56166
X176.84879 Y29.63296
X176.84539 Y29.74727
Y30.02342
X176.84313 Y30.25656
X176.83634 Y30.38558
X176.81597 Y30.46028
X176.78201 Y30.53045
X176.99478
X177.02081 Y30.46028
X177.03553 Y30.37653
G0 Z6.
X176.66431 Y30.53045
G1 Z-0.1 F1250.5
Y28.85545 F2500.
X176.46059
Y30.53045
X176.66431
G0 Z6.
X175.65931 Y31.00578
G1 Z-0.1 F1250.5
X175.62309 Y30.82923 F2500.
X175.5235 Y30.84281
X175.49407 Y30.84026
X175.46917 Y30.83263
X175.4488 Y30.81989
X175.43296 Y30.80207
X175.41909 Y30.77377
X175.40919 Y30.72963
X175.40127 Y30.59382
Y29.3172
X175.19755
Y30.59835
X175.20123 Y30.70276
X175.21227 Y30.78962
X175.23066 Y30.85894
X175.25641 Y30.91072
X175.29885 Y30.96023
X175.35374 Y30.9956
X175.42107 Y31.01682
X175.50086 Y31.02389
X175.58122 Y31.01936
X175.65931 Y31.00578
G0 Z6.
X178.48417 Y30.53045
G1 Z-0.1 F1250.5
Y29.3172 F2500.
X178.30309
Y29.50281
X178.23745 Y29.39756
X178.20633 Y29.36106
X178.17634 Y29.33531
X178.14606 Y29.31551
X178.11409 Y29.30136
X178.08042 Y29.29287
X178.04505 Y29.29004
X177.99271 Y29.29428
X177.9398 Y29.30702
X177.88632 Y29.32824
X177.83228 Y29.35795
X177.90472 Y29.54808
X177.98054 Y29.51413
X178.01761 Y29.50564
X178.05411 Y29.50281
X178.08693 Y29.50536
X178.11749 Y29.513
X178.14578 Y29.52573
X178.17181 Y29.54355
X178.19699 Y29.56591
X178.21821 Y29.59222
X178.23547 Y29.62249
X178.24877 Y29.65673
X178.27254 Y29.7733
X178.28046 Y29.89666
Y30.53045
X178.48417
G0 Z6.
X178.86897
G1 Z-0.1 F1250.5
Y30.38105 F2500.
X178.9001 Y30.42243
X178.93461 Y30.4583
X178.97253 Y30.48864
X179.01384 Y30.51347
X179.05854 Y30.53278
X179.10664 Y30.54657
X179.15814 Y30.55485
X179.21303 Y30.55761
X179.28404 Y30.5528
X179.35223 Y30.53837
X179.41759 Y30.51432
X179.48012 Y30.48065
X179.53784 Y30.43623
X179.58877 Y30.38445
X179.63291 Y30.32531
X179.67026 Y30.25882
X179.69798 Y30.18384
X179.71779 Y30.10377
X179.72967 Y30.01861
X179.73363 Y29.92835
X179.72996 Y29.83979
X179.71892 Y29.75519
X179.70053 Y29.67456
X179.67478 Y29.59788
X179.6414 Y29.52771
X179.60009 Y29.46659
X179.55086 Y29.41453
X179.4937 Y29.37153
X179.43089 Y29.33588
X179.36468 Y29.31041
X179.29508 Y29.29513
X179.22208 Y29.29004
X179.16719 Y29.29315
X179.11569 Y29.30249
X179.0676 Y29.31805
X179.02289 Y29.33984
X178.98186 Y29.36445
X178.9448 Y29.39303
X178.9117 Y29.42557
X178.88255 Y29.46207
Y28.85545
X178.67884
Y30.53045
X178.86897
G0 Z6.
X179.52086 Y29.92835
G1 Z-0.1 F1250.5
X179.51492 Y30.03841 F2500.
X179.4971 Y30.1332
X179.46739 Y30.21271
X179.4258 Y30.27693
X179.37374 Y30.32645
X179.31715 Y30.36181
X179.25603 Y30.38303
X179.19039 Y30.39011
X179.12503 Y30.38332
X179.06477 Y30.36295
X179.00959 Y30.32899
X178.95951 Y30.28146
X178.91792 Y30.21978
X178.88821 Y30.14338
X178.87039 Y30.05228
X178.86444 Y29.94646
X178.87067 Y29.83017
X178.88934 Y29.73029
X178.92047 Y29.64683
X178.96404 Y29.57977
X179.0144 Y29.52827
X179.07042 Y29.49149
X179.13211 Y29.46942
X179.19944 Y29.46207
X179.2665 Y29.46914
X179.32733 Y29.49036
X179.38194 Y29.52573
X179.43032 Y29.57524
X179.46993 Y29.63975
X179.49823 Y29.72011
X179.51521 Y29.81631
X179.52086 Y29.92835
G0 Z6.
X179.9962 Y30.14112
G1 Z-0.1 F1250.5
X179.78796 Y30.16828 F2500.
X179.81823 Y30.25599
X179.85926 Y30.33352
X179.91104 Y30.40086
X179.97357 Y30.45801
X180.04628 Y30.50159
X180.12862 Y30.53271
X180.22057 Y30.55138
X180.32215 Y30.55761
X180.38715 Y30.55506
X180.44862 Y30.54742
X180.50655 Y30.53469
X180.56095 Y30.51686
X180.61181 Y30.49395
X180.65913 Y30.46594
X180.70291 Y30.43283
X180.74316 Y30.39463
X180.77924 Y30.35184
X180.8105 Y30.30494
X180.83696 Y30.25394
X180.8586 Y30.19884
X180.87544 Y30.13964
X180.88746 Y30.07633
X180.89708 Y29.9374
X180.88746 Y29.79226
X180.87544 Y29.72626
X180.8586 Y29.66465
X180.83696 Y29.60743
X180.8105 Y29.55459
X180.77924 Y29.50613
X180.74316 Y29.46207
X180.70206 Y29.42175
X180.658 Y29.38681
X180.61096 Y29.35724
X180.56095 Y29.33305
X180.50797 Y29.31423
X180.45202 Y29.30079
X180.39309 Y29.29273
X180.3312 Y29.29004
X180.27256 Y29.29266
X180.21661 Y29.30051
X180.16335 Y29.31359
X180.11277 Y29.33191
X180.06489 Y29.35547
X180.01969 Y29.38426
X179.97717 Y29.41828
X179.93735 Y29.45754
X179.90021 Y29.50147
X179.86803 Y29.5495
X179.8408 Y29.60163
X179.81852 Y29.65786
X179.80119 Y29.7182
X179.78881 Y29.78264
X179.78138 Y29.85118
X179.77891 Y29.92382
X179.78343 Y29.97815
X180.68431
X180.67384 Y30.07378
X180.65149 Y30.15697
X180.61725 Y30.2277
X180.57113 Y30.28599
X180.51794 Y30.33154
X180.45796 Y30.36408
X180.39118 Y30.3836
X180.31762 Y30.39011
X180.26301 Y30.38643
X180.21237 Y30.3754
X180.16568 Y30.357
X180.12296 Y30.33126
X180.08448 Y30.2973
X180.05053 Y30.2543
X180.0211 Y30.20224
X179.9962 Y30.14112
G0 Z6.
X180.67978 Y29.81065
G1 Z-0.1 F1250.5
X179.99167 F2500.
X180.00356 Y29.7385
X180.0211 Y29.67597
X180.0443 Y29.62306
X180.07316 Y29.57977
X180.12664 Y29.52629
X180.18747 Y29.4881
X180.25566 Y29.46518
X180.3312 Y29.45754
X180.4008 Y29.46376
X180.46475 Y29.48244
X180.52303 Y29.51356
X180.57566 Y29.55713
X180.61782 Y29.60863
X180.64923 Y29.66805
X180.66988 Y29.73539
X180.67978 Y29.81065
G0 Z6.
X182.00167 Y30.53045
G1 Z-0.1 F1250.5
Y28.85545 F2500.
X181.79796
Y29.45754
X181.76167 Y29.41828
X181.72298 Y29.38426
X181.68188 Y29.35547
X181.63838 Y29.33191
X181.59247 Y29.31359
X181.54416 Y29.30051
X181.49345 Y29.29266
X181.44032 Y29.29004
X181.37468 Y29.29344
X181.31357 Y29.30362
X181.25698 Y29.3206
X181.20492 Y29.34436
X181.1588 Y29.37407
X181.12004 Y29.40887
X181.08863 Y29.44877
X181.06458 Y29.49376
X181.04477 Y29.54469
X181.03063 Y29.60693
X181.02214 Y29.6805
X181.01931 Y29.76538
Y30.53045
X181.22303
Y29.76538
X181.22727 Y29.69351
X181.24 Y29.63183
X181.26122 Y29.58034
X181.29093 Y29.53903
X181.32828 Y29.50734
X181.37242 Y29.4847
X181.42335 Y29.47112
X181.48107 Y29.46659
X181.52577 Y29.46971
X181.56934 Y29.47904
X181.61179 Y29.49461
X181.65309 Y29.51639
X181.68903 Y29.54129
X181.71987 Y29.57072
X181.74561 Y29.60467
X181.76627 Y29.64315
X181.78013 Y29.68785
X181.79004 Y29.74048
X181.79796 Y29.8695
Y30.53045
X182.00167
G0 Z6.
X182.38647
G1 Z-0.1 F1250.5
Y29.3172 F2500.
X182.18276
Y30.53045
X182.38647
G0 Z6.
Y29.09085
G1 Z-0.1 F1250.5
Y28.85545 F2500.
X182.18276
Y29.09085
X182.38647
G0 Z6.
X183.83512 Y30.33126
G1 Z-0.1 F1250.5
X183.47749 F2500.
X183.33149 Y30.32447
X183.21944 Y30.30409
X183.13343 Y30.26675
X183.06553 Y30.21808
X183.02903 Y30.17422
X182.99649 Y30.12414
X182.96791 Y30.06784
X182.9433 Y30.00531
X182.92349 Y29.93599
X182.90934 Y29.85931
X182.90086 Y29.77528
X182.89803 Y29.68389
X182.90368 Y29.56025
X182.92066 Y29.45188
X182.94896 Y29.35879
X182.98857 Y29.28099
X183.03384 Y29.21648
X183.08363 Y29.16328
X183.13796 Y29.12141
X183.19681 Y29.09085
X183.24887 Y29.07501
X183.31451 Y29.06369
X183.39374 Y29.0569
X183.48654 Y29.05464
X183.83512
Y30.33126
G0 Z6.
X184.05694 Y30.53045
G1 Z-0.1 F1250.5
Y28.85545 F2500.
X183.48201
X183.30999 Y28.86224
X183.18323 Y28.88261
X183.11363 Y28.90185
X183.04968 Y28.92788
X182.9914 Y28.9607
X182.93877 Y29.00031
X182.87709 Y29.06086
X182.82333 Y29.12933
X182.77749 Y29.20572
X182.73958 Y29.29004
X182.70987 Y29.37917
X182.68865 Y29.47452
X182.67592 Y29.57609
X182.67167 Y29.68389
X182.6745 Y29.77811
X182.68299 Y29.8661
X182.69714 Y29.94787
X182.71694 Y30.02342
X182.74128 Y30.09472
X182.76901 Y30.15923
X182.80013 Y30.21695
X182.83465 Y30.26788
X182.90595 Y30.35389
X182.98404 Y30.4218
X183.07684 Y30.46933
X183.18323 Y30.50328
X183.30999 Y30.52366
X183.45485 Y30.53045
X184.05694
G0 Z6.
X176.76047 Y8.00651
G1 Z-0.1 F1250.5
Y8.24191 F2500.
X176.96419
Y8.00651
X176.76047
G0 Z6.
X176.35304
G1 Z-0.1 F1250.5
Y8.24191 F2500.
X176.55676
Y8.00651
X176.35304
G0 Z6.
X177.27655 Y7.19164
G1 Z-0.1 F1250.5
X177.2825 Y7.08186 F2500.
X177.30032 Y6.98792
X177.33003 Y6.90983
X177.37162 Y6.84759
X177.42227 Y6.80005
X177.47914 Y6.7661
X177.54223 Y6.74573
X177.61155 Y6.73894
X177.68087 Y6.74573
X177.74397 Y6.7661
X177.80084 Y6.80005
X177.85149 Y6.84759
X177.89308 Y6.90955
X177.92279 Y6.98679
X177.94061 Y7.07931
X177.94655 Y7.18711
X177.94033 Y7.29124
X177.92166 Y7.38178
X177.89053 Y7.45874
X177.84696 Y7.52211
X177.79462 Y7.57163
X177.73718 Y7.607
X177.67465 Y7.62822
X177.60703 Y7.63529
X177.54167 Y7.62822
X177.4814 Y7.607
X177.42623 Y7.57163
X177.37615 Y7.52211
X177.33258 Y7.46072
X177.30145 Y7.38517
X177.28278 Y7.29548
X177.27655 Y7.19164
G0 Z6.
X177.10453 Y6.46279
G1 Z-0.1 F1250.5
X177.30824 Y6.43563 F2500.
X177.31786 Y6.39149
X177.33314 Y6.35414
X177.35408 Y6.32358
X177.38068 Y6.29982
X177.42255 Y6.27605
X177.47122 Y6.25907
X177.52667 Y6.24889
X177.58892 Y6.24549
X177.65541 Y6.24889
X177.71454 Y6.25907
X177.76632 Y6.27605
X177.81074 Y6.29982
X177.84611 Y6.33179
X177.87525 Y6.36885
X177.89817 Y6.41101
X177.91486 Y6.45826
X177.92505 Y6.55673
X177.92845 Y6.72536
X177.85658 Y6.65604
X177.81768 Y6.6288
X177.77679 Y6.60652
X177.73393 Y6.58919
X177.68908 Y6.57681
X177.59345 Y6.56691
X177.53191 Y6.56967
X177.47405 Y6.57795
X177.41986 Y6.59174
X177.36936 Y6.61105
X177.32253 Y6.63588
X177.27938 Y6.66622
X177.23991 Y6.70209
X177.20412 Y6.74347
X177.14272 Y6.83853
X177.09887 Y6.94265
X177.07255 Y7.05583
X177.06378 Y7.17806
X177.06774 Y7.26266
X177.07963 Y7.34443
X177.09943 Y7.42337
X177.12716 Y7.49948
X177.16253 Y7.56795
X177.20525 Y7.6285
X177.25533 Y7.68113
X177.31277 Y7.72583
X177.37445 Y7.76148
X177.44179 Y7.78695
X177.51479 Y7.80222
X177.59345 Y7.80732
X177.64551 Y7.80456
X177.6953 Y7.79628
X177.74284 Y7.78249
X177.78811 Y7.76318
X177.83111 Y7.73835
X177.87186 Y7.70801
X177.91034 Y7.67214
X177.94655 Y7.63076
Y7.78015
X178.13216
Y6.72988
X178.12848 Y6.59775
X178.11745 Y6.48656
X178.09906 Y6.3963
X178.07331 Y6.32698
X178.04162 Y6.27124
X178.00088 Y6.22173
X177.95108 Y6.17844
X177.89223 Y6.14137
X177.82546 Y6.11166
X177.75189 Y6.09044
X177.67154 Y6.07771
X177.58439 Y6.07347
X177.48112 Y6.07941
X177.3886 Y6.09723
X177.30683 Y6.12694
X177.23581 Y6.16853
X177.20405 Y6.19393
X177.17668 Y6.22257
X177.15369 Y6.25448
X177.13508 Y6.28963
X177.11103 Y6.3697
X177.10453 Y6.46279
G0 Z6.
X176.76047 Y6.56691
G1 Z-0.1 F1250.5
Y7.78015 F2500.
X176.96419
Y6.56691
X176.76047
G0 Z6.
X176.095 Y6.09157
G1 Z-0.1 F1250.5
X176.13122 Y6.26813 F2500.
X176.23081 Y6.25455
X176.26024 Y6.25709
X176.28514 Y6.26473
X176.30551 Y6.27746
X176.32135 Y6.29529
X176.33522 Y6.32358
X176.34512 Y6.36772
X176.35304 Y6.50353
Y7.78015
X176.55676
Y6.49901
X176.55308 Y6.3946
X176.54204 Y6.30774
X176.52365 Y6.23842
X176.49791 Y6.18664
X176.45546 Y6.13713
X176.40057 Y6.10176
X176.33323 Y6.08054
X176.25345 Y6.07347
X176.17309 Y6.07799
X176.095 Y6.09157
G0 Z6.
X175.09 Y6.56691
G1 Z-0.1 F1250.5
Y8.24191 F2500.
X175.29372
Y6.56691
X175.09
G0 Z6.
X174.71878 Y6.72083
G1 Z-0.1 F1250.5
X174.66248 Y6.67471 F2500.
X174.60674 Y6.63595
X174.55157 Y6.60454
X174.49696 Y6.58049
X174.44377 Y6.56267
X174.38831 Y6.54993
X174.33059 Y6.5423
X174.27061 Y6.53975
X174.17469 Y6.54569
X174.09066 Y6.56352
X174.01851 Y6.59323
X173.95824 Y6.63482
X173.91269 Y6.68773
X173.88015 Y6.74686
X173.86063 Y6.81222
X173.85412 Y6.8838
X173.85667 Y6.92794
X173.86431 Y6.96982
X173.87704 Y7.00943
X173.89486 Y7.04678
X173.94127 Y7.11242
X173.99899 Y7.16448
X174.07029 Y7.20409
X174.14838 Y7.23238
X174.22647 Y7.24936
X174.33399 Y7.26407
X174.55015 Y7.29576
X174.63362 Y7.315
X174.70068 Y7.33651
X174.7052 Y7.3863
X174.70152 Y7.44487
X174.69049 Y7.49382
X174.6721 Y7.53315
X174.64635 Y7.56286
X174.60108 Y7.59455
X174.54676 Y7.61718
X174.48338 Y7.63076
X174.41095 Y7.63529
X174.34304 Y7.63189
X174.28419 Y7.62171
X174.23439 Y7.60473
X174.19365 Y7.58097
X174.16196 Y7.55154
X174.1348 Y7.51306
X174.11216 Y7.46553
X174.09405 Y7.40894
X173.89034 Y7.4361
X173.9059 Y7.49637
X173.92542 Y7.55041
X173.94891 Y7.59823
X173.97635 Y7.63982
X174.01172 Y7.67801
X174.05444 Y7.71112
X174.10452 Y7.73913
X174.16196 Y7.76205
X174.22336 Y7.78185
X174.28985 Y7.796
X174.36143 Y7.80449
X174.43811 Y7.80732
X174.51139 Y7.80477
X174.57731 Y7.79713
X174.63588 Y7.7844
X174.68709 Y7.76657
X174.77311 Y7.72583
X174.80593 Y7.70206
X174.83196 Y7.67603
X174.87044 Y7.61379
X174.89534 Y7.53569
X174.90552 Y7.46439
X174.90892 Y7.35009
Y7.07394
X174.91118 Y6.8408
X174.91797 Y6.71178
X174.93834 Y6.63708
X174.9723 Y6.56691
X174.75953
X174.7335 Y6.63708
X174.71878 Y6.72083
G0 Z6.
X174.7052 Y7.17353
G1 Z-0.1 F1250.5
X174.63956 Y7.15175 F2500.
X174.56034 Y7.13166
X174.36115 Y7.09657
X174.2525 Y7.07733
X174.18007 Y7.05583
X174.13253 Y7.02754
X174.09858 Y6.98792
X174.07821 Y6.94152
X174.07142 Y6.89286
X174.0751 Y6.85381
X174.08613 Y6.81816
X174.10452 Y6.78591
X174.13027 Y6.75705
X174.16564 Y6.73328
X174.20836 Y6.7163
X174.25844 Y6.70612
X174.31588 Y6.70272
X174.37501 Y6.70583
X174.43019 Y6.71517
X174.4814 Y6.73073
X174.52865 Y6.75252
X174.57307 Y6.77996
X174.61127 Y6.8125
X174.64324 Y6.85013
X174.66899 Y6.89286
X174.68285 Y6.93105
X174.69275 Y6.97774
X174.70068 Y7.09657
X174.7052 Y7.17353
G0 Z6.
X173.27014 Y6.56691
G1 Z-0.1 F1250.5
Y7.78015 F2500.
X173.45122
Y7.59455
X173.51686 Y7.6998
X173.54798 Y7.7363
X173.57797 Y7.76205
X173.60825 Y7.78185
X173.64022 Y7.796
X173.67389 Y7.80449
X173.70926 Y7.80732
X173.7616 Y7.80307
X173.81451 Y7.79034
X173.86799 Y7.76912
X173.92203 Y7.73941
X173.84959 Y7.54928
X173.77377 Y7.58323
X173.7367 Y7.59172
X173.7002 Y7.59455
X173.66738 Y7.592
X173.63682 Y7.58436
X173.60853 Y7.57163
X173.5825 Y7.5538
X173.55732 Y7.53145
X173.5361 Y7.50514
X173.51884 Y7.47486
X173.50554 Y7.44063
X173.48177 Y7.32406
X173.47385 Y7.20069
Y6.56691
X173.27014
G0 Z6.
X172.88534
G1 Z-0.1 F1250.5
Y6.7163 F2500.
X172.85422 Y6.67492
X172.8197 Y6.63906
X172.78178 Y6.60872
X172.74047 Y6.58389
X172.69577 Y6.56458
X172.64767 Y6.55078
X172.59617 Y6.54251
X172.54128 Y6.53975
X172.47027 Y6.54456
X172.40208 Y6.55899
X172.33672 Y6.58304
X172.27419 Y6.61671
X172.21647 Y6.66113
X172.16554 Y6.71291
X172.1214 Y6.77204
X172.08405 Y6.83853
X172.05633 Y6.91351
X172.03652 Y6.99358
X172.02464 Y7.07875
X172.02068 Y7.16901
X172.02435 Y7.25757
X172.03539 Y7.34216
X172.05378 Y7.4228
X172.07953 Y7.49948
X172.11291 Y7.56965
X172.15422 Y7.63076
X172.20345 Y7.68282
X172.26061 Y7.72583
X172.32342 Y7.76148
X172.38963 Y7.78695
X172.45923 Y7.80222
X172.53223 Y7.80732
X172.58712 Y7.8042
X172.63861 Y7.79487
X172.68671 Y7.77931
X172.73142 Y7.75752
X172.77244 Y7.7329
X172.80951 Y7.70433
X172.84261 Y7.67179
X172.87176 Y7.63529
Y8.24191
X173.07547
Y6.56691
X172.88534
G0 Z6.
X172.23345 Y7.16901
G1 Z-0.1 F1250.5
X172.23939 Y7.05894 F2500.
X172.25721 Y6.96416
X172.28692 Y6.88465
X172.32851 Y6.82042
X172.38057 Y6.77091
X172.43716 Y6.73554
X172.49828 Y6.71432
X172.56392 Y6.70725
X172.62928 Y6.71404
X172.68954 Y6.73441
X172.74472 Y6.76836
X172.7948 Y6.8159
X172.83639 Y6.87758
X172.8661 Y6.95397
X172.88392 Y7.04508
X172.88986 Y7.1509
X172.88364 Y7.26719
X172.86497 Y7.36706
X172.83384 Y7.45053
X172.79027 Y7.51759
X172.73991 Y7.56908
X172.68389 Y7.60586
X172.6222 Y7.62793
X172.55486 Y7.63529
X172.48781 Y7.62822
X172.42698 Y7.607
X172.37237 Y7.57163
X172.32399 Y7.52211
X172.28437 Y7.4576
X172.25608 Y7.37725
X172.2391 Y7.28105
X172.23345 Y7.16901
G0 Z6.
X171.75811 Y6.95624
G1 Z-0.1 F1250.5
X171.96635 Y6.92907 F2500.
X171.93608 Y6.84136
X171.89505 Y6.76384
X171.84327 Y6.6965
X171.78074 Y6.63934
X171.70803 Y6.59577
X171.62569 Y6.56465
X171.53374 Y6.54597
X171.43216 Y6.53975
X171.36716 Y6.5423
X171.30569 Y6.54993
X171.24776 Y6.56267
X171.19336 Y6.58049
X171.1425 Y6.60341
X171.09518 Y6.63142
X171.0514 Y6.66453
X171.01115 Y6.70272
X170.97507 Y6.74552
X170.94381 Y6.79241
X170.91735 Y6.84341
X170.89571 Y6.89852
X170.87887 Y6.95772
X170.86685 Y7.02103
X170.85723 Y7.15995
X170.86685 Y7.3051
X170.87887 Y7.3711
X170.89571 Y7.43271
X170.91735 Y7.48993
X170.94381 Y7.54277
X170.97507 Y7.59122
X171.01115 Y7.63529
X171.05225 Y7.67561
X171.09631 Y7.71055
X171.14335 Y7.74012
X171.19336 Y7.76431
X171.24634 Y7.78313
X171.30229 Y7.79656
X171.36122 Y7.80463
X171.42311 Y7.80732
X171.48175 Y7.8047
X171.5377 Y7.79685
X171.59096 Y7.78376
X171.64154 Y7.76544
X171.68943 Y7.74189
X171.73462 Y7.7131
X171.77714 Y7.67907
X171.81696 Y7.63982
X171.8541 Y7.59589
X171.88628 Y7.54786
X171.91351 Y7.49573
X171.93579 Y7.4395
X171.95312 Y7.37916
X171.9655 Y7.31472
X171.97293 Y7.24618
X171.97541 Y7.17353
X171.97088 Y7.11921
X171.07
X171.08047 Y7.02358
X171.10282 Y6.94039
X171.13706 Y6.86966
X171.18318 Y6.81137
X171.23637 Y6.76582
X171.29635 Y6.73328
X171.36312 Y6.71376
X171.43669 Y6.70725
X171.4913 Y6.71093
X171.54194 Y6.72196
X171.58863 Y6.74035
X171.63135 Y6.7661
X171.66983 Y6.80005
X171.70378 Y6.84306
X171.73321 Y6.89512
X171.75811 Y6.95624
G0 Z6.
X171.07453 Y7.28671
G1 Z-0.1 F1250.5
X171.76263 F2500.
X171.75075 Y7.35886
X171.73321 Y7.42139
X171.71001 Y7.4743
X171.68115 Y7.51759
X171.62767 Y7.57106
X171.56684 Y7.60926
X171.49865 Y7.63218
X171.42311 Y7.63982
X171.3535 Y7.63359
X171.28956 Y7.61492
X171.23128 Y7.58379
X171.17865 Y7.54022
X171.13649 Y7.48873
X171.10508 Y7.42931
X171.08443 Y7.36197
X171.07453 Y7.28671
G0 Z6.
X169.75263 Y6.56691
G1 Z-0.1 F1250.5
Y8.24191 F2500.
X169.95635
Y7.63982
X169.99264 Y7.67907
X170.03133 Y7.7131
X170.07243 Y7.74189
X170.11593 Y7.76544
X170.16184 Y7.78376
X170.21015 Y7.79685
X170.26086 Y7.8047
X170.31399 Y7.80732
X170.37963 Y7.80392
X170.44074 Y7.79374
X170.49733 Y7.77676
X170.54939 Y7.75299
X170.59551 Y7.72328
X170.63427 Y7.68848
X170.66568 Y7.64859
X170.68973 Y7.6036
X170.70954 Y7.55267
X170.72368 Y7.49042
X170.73217 Y7.41686
X170.735 Y7.33198
Y6.56691
X170.53128
Y7.33198
X170.52704 Y7.40385
X170.51431 Y7.46553
X170.49309 Y7.51702
X170.46338 Y7.55833
X170.42603 Y7.59002
X170.38189 Y7.61265
X170.33096 Y7.62624
X170.27324 Y7.63076
X170.22854 Y7.62765
X170.18497 Y7.61831
X170.14253 Y7.60275
X170.10122 Y7.58097
X170.06528 Y7.55607
X170.03444 Y7.52664
X170.00869 Y7.49269
X169.98804 Y7.45421
X169.97418 Y7.4095
X169.96427 Y7.35688
X169.95635 Y7.22786
Y6.56691
X169.75263
G0 Z6.
X169.36784
G1 Z-0.1 F1250.5
Y7.78015 F2500.
X169.57155
Y6.56691
X169.36784
G0 Z6.
Y8.00651
G1 Z-0.1 F1250.5
Y8.24191 F2500.
X169.57155
Y8.00651
X169.36784
G0 Z6.
X167.91919 Y6.7661
G1 Z-0.1 F1250.5
X168.27682 F2500.
X168.42282 Y6.77289
X168.53486 Y6.79326
X168.62088 Y6.83061
X168.68878 Y6.87928
X168.72528 Y6.92313
X168.75782 Y6.97321
X168.7864 Y7.02952
X168.81101 Y7.09205
X168.83082 Y7.16137
X168.84497 Y7.23804
X168.85345 Y7.32208
X168.85628 Y7.41347
X168.85062 Y7.53711
X168.83365 Y7.64548
X168.80535 Y7.73856
X168.76574 Y7.81637
X168.72047 Y7.88088
X168.67068 Y7.93407
X168.61635 Y7.97595
X168.5575 Y8.00651
X168.50544 Y8.02235
X168.4398 Y8.03367
X168.36057 Y8.04046
X168.26777 Y8.04272
X167.91919
Y6.7661
G0 Z6.
X167.69736 Y6.56691
G1 Z-0.1 F1250.5
Y8.24191 F2500.
X168.2723
X168.44432 Y8.23512
X168.57108 Y8.21475
X168.64068 Y8.19551
X168.70463 Y8.16948
X168.76291 Y8.13666
X168.81554 Y8.09705
X168.87722 Y8.0365
X168.93098 Y7.96803
X168.97682 Y7.89163
X169.01473 Y7.80732
X169.04444 Y7.71819
X169.06566 Y7.62284
X169.07839 Y7.52127
X169.08263 Y7.41347
X169.07981 Y7.31925
X169.07132 Y7.23125
X169.05717 Y7.14948
X169.03736 Y7.07394
X169.01303 Y7.00264
X168.9853 Y6.93813
X168.95418 Y6.88041
X168.91966 Y6.82948
X168.84836 Y6.74347
X168.77027 Y6.67556
X168.67747 Y6.62803
X168.57108 Y6.59407
X168.44432 Y6.5737
X168.29946 Y6.56691
X167.69736
G0 Z6.
X148.12966 Y177.97917
G1 Z-1.44 F1250.5
Y171.42425 F2500.
G0 Z6.
X68.30776 Y178.04307
G1 Z-1.44 F1250.5
Y171.41787 F2500.
G0 Z6.
M30
%
