%
G17 G21 G40 G90 G64 P0.1
(Engraving)
(1/16in 1.58mm 1 Flute Carbide Router)
T31 M06
S18446 M3
G0 Z0.79375
X12.66551 Y44.76301
G1 Z-0.1 F1250.5
X10.65541 Y44.24147 F5000.
Y44.51311
X11.97556 Y44.81191
X12.182 Y44.8608
X12.38844 Y44.89883
X12.01359 Y44.99119
X10.65541 Y45.37148
Y45.69201
X11.67676 Y45.97451
X12.04483 Y46.06822
X12.38844 Y46.13206
X11.9484 Y46.22984
X10.65541 Y46.54494
Y46.81658
X12.66551 Y46.26244
Y46.00167
X11.13892 Y45.58878
X10.89988 Y45.52359
X11.13892 Y45.46383
X12.66551 Y45.04008
Y44.76301
G0 Z5.
Y47.76187
G1 Z-0.1 F1250.5
X12.18743 F5000.
Y46.8872
X11.95926
X10.66084 Y47.81076
Y48.00634
X11.95926
Y48.27797
X12.18743
Y48.00634
X12.66551
Y47.76187
G0 Z5.
X11.95926
G1 Z-0.1 F1250.5
X11.06287 F5000.
X11.95926 Y47.12624
Y47.76187
G0 Z5.
X41.08514 Y44.88728
G1 Z-0.1 F1250.5
X41.10687 Y44.64281 F5000.
X40.98056 Y44.59935
X40.93268 Y44.57354
X40.89499 Y44.54502
X40.84746 Y44.49273
X40.8135 Y44.43365
X40.79313 Y44.36778
X40.78634 Y44.29512
X40.79075 Y44.23705
X40.80399 Y44.18239
X40.82606 Y44.13112
X40.85696 Y44.08324
X40.9028 Y44.02925
X40.95883 Y43.98138
X41.02504 Y43.93961
X41.10144 Y43.90396
X41.19175 Y43.87306
X41.29973 Y43.85099
X41.42536 Y43.83775
X41.56865 Y43.83334
X41.50515 Y43.87951
X41.45049 Y43.93112
X41.40465 Y43.98817
X41.36764 Y44.05065
X41.33674 Y44.11652
X41.31467 Y44.18375
X41.30143 Y44.25233
X41.29701 Y44.32228
X41.30856 Y44.4401
X41.34319 Y44.54909
X41.40091 Y44.64926
X41.48172 Y44.7406
X41.52824 Y44.78262
X41.57816 Y44.81903
X41.63146 Y44.84985
X41.68817 Y44.87506
X41.74827 Y44.89467
X41.81176 Y44.90867
X41.94894 Y44.91988
X42.04231 Y44.91444
X42.13229 Y44.89815
X42.21887 Y44.87098
X42.30206 Y44.83295
X42.3788 Y44.78847
X42.44603 Y44.73652
X42.50375 Y44.6771
X42.55197 Y44.61021
X42.58762 Y44.53687
X42.61308 Y44.4581
X42.62836 Y44.37389
X42.63346 Y44.28425
X42.62998 Y44.20862
X42.61954 Y44.13655
X42.60213 Y44.06805
X42.57777 Y44.00311
X42.54645 Y43.94174
X42.50817 Y43.88393
X42.46292 Y43.82969
X42.41072 Y43.77901
X42.34909 Y43.73444
X42.27829 Y43.69582
X42.19833 Y43.66314
X42.1092 Y43.6364
X42.0109 Y43.6156
X41.90344 Y43.60075
X41.78681 Y43.59184
X41.661 Y43.58886
X41.52069 Y43.59218
X41.39039 Y43.60211
X41.2701 Y43.61866
X41.15984 Y43.64183
X41.05959 Y43.67163
X40.96935 Y43.70804
X40.88914 Y43.75108
X40.81894 Y43.80074
X40.76418 Y43.85031
X40.71673 Y43.90396
X40.67658 Y43.96168
X40.64373 Y44.02348
X40.61818 Y44.08935
X40.59993 Y44.1593
X40.58898 Y44.23332
X40.58533 Y44.31141
X40.59382 Y44.4255
X40.61928 Y44.52872
X40.66173 Y44.62108
X40.72115 Y44.70257
X40.79279 Y44.77116
X40.87734 Y44.8248
X40.97479 Y44.86351
X41.08514 Y44.88728
G0 Z5.
X41.95437 Y43.87137
G1 Z-0.1 F1250.5
X42.07796 Y43.88359 F5000.
X42.19884 Y43.92026
X42.25249 Y43.95014
X42.29935 Y43.98545
X42.33941 Y44.0262
X42.37269 Y44.07238
X42.39883 Y44.12195
X42.41751 Y44.17288
X42.42871 Y44.22517
X42.43245 Y44.27882
X42.42464 Y44.35691
X42.40121 Y44.42822
X42.36216 Y44.49273
X42.3075 Y44.55045
X42.23925 Y44.60037
X42.15945 Y44.63602
X42.06812 Y44.65741
X41.96524 Y44.66454
X41.86745 Y44.65741
X41.78052 Y44.63602
X41.70447 Y44.60037
X41.63927 Y44.55045
X41.58461 Y44.49205
X41.54556 Y44.4255
X41.52213 Y44.3508
X41.51432 Y44.26795
X41.52213 Y44.18918
X41.54556 Y44.11584
X41.58461 Y44.04793
X41.63927 Y43.98545
X41.70379 Y43.93554
X41.77781 Y43.89989
X41.86133 Y43.8785
X41.95437 Y43.87137
G0 Z5.
X42.60086 Y41.39405
G1 Z-0.1 F1250.5
X40.59076 Y40.87251 F5000.
Y41.14415
X41.91091 Y41.44295
X42.11735 Y41.49184
X42.32379 Y41.52987
X41.94894 Y41.62223
X40.59076 Y42.00251
Y42.32304
X41.61211 Y42.60555
X41.98017 Y42.69926
X42.32379 Y42.76309
X41.88374 Y42.86088
X40.59076 Y43.17598
Y43.44761
X42.60086 Y42.89348
Y42.63271
X41.07427 Y42.21982
X40.83523 Y42.15463
X41.07427 Y42.09487
X42.60086 Y41.67112
Y41.39405
G0 Z5.
X65.59812 Y39.18334
G1 Z-0.1 F1250.5
X65.66569 Y39.18877 F5000.
X65.72715 Y39.20507
X65.7825 Y39.23223
X65.83173 Y39.27026
X65.86976 Y39.3178
X65.89692 Y39.37349
X65.91322 Y39.43732
X65.91865 Y39.5093
X65.91322 Y39.57653
X65.89692 Y39.63697
X65.86976 Y39.69062
X65.83173 Y39.73748
X65.78351 Y39.77788
X65.73122 Y39.80674
X65.67486 Y39.82406
X65.61442 Y39.82983
X65.54923 Y39.82406
X65.48947 Y39.80674
X65.43514 Y39.77788
X65.38625 Y39.73748
X65.34347 Y39.68824
X65.31291 Y39.6329
X65.29457 Y39.57144
X65.28846 Y39.50387
X65.29423 Y39.4363
X65.31155 Y39.37484
X65.34041 Y39.3195
X65.38082 Y39.27026
X65.42903 Y39.23223
X65.48132 Y39.20507
X65.53768 Y39.18877
X65.59812 Y39.18334
G0 Z5.
X66.01644 Y39.2268
G1 Z-0.1 F1250.5
X65.98588 Y39.1555 F5000.
X65.94853 Y39.0937
X65.90439 Y39.04141
X65.85346 Y38.99863
X65.79947 Y38.96773
X65.74073 Y38.94566
X65.67724 Y38.93242
X65.60899 Y38.928
X65.50237 Y38.93751
X65.40526 Y38.96603
X65.31766 Y39.01357
X65.23956 Y39.08012
X65.17302 Y39.16534
X65.12548 Y39.26347
X65.09696 Y39.3745
X65.08745 Y39.49844
X65.0973 Y39.62475
X65.12684 Y39.73748
X65.17607 Y39.83662
X65.245 Y39.92219
X65.32513 Y39.99349
X65.41341 Y40.04442
X65.50984 Y40.07498
X65.61442 Y40.08517
X65.68267 Y40.08042
X65.74617 Y40.06616
X65.80491 Y40.04239
X65.85889 Y40.00911
X65.90745 Y39.96667
X65.94989 Y39.9154
X65.98622 Y39.8553
X66.01644 Y39.78637
X66.05107 Y39.87329
X66.09522 Y39.94935
X66.14886 Y40.01454
X66.21202 Y40.06887
X66.28095 Y40.11165
X66.35734 Y40.14221
X66.44121 Y40.16055
X66.53255 Y40.16666
X66.65512 Y40.15511
X66.71259 Y40.14068
X66.76751 Y40.12048
X66.81989 Y40.09451
X66.86972 Y40.06276
X66.96173 Y39.98195
X67.00248 Y39.93526
X67.03779 Y39.88484
X67.06767 Y39.83068
X67.09212 Y39.77279
X67.12471 Y39.6458
X67.13558 Y39.50387
X67.12471 Y39.36194
X67.09212 Y39.23495
X67.06767 Y39.17706
X67.03779 Y39.1229
X67.00248 Y39.07248
X66.96173 Y39.02579
X66.86904 Y38.94736
X66.81836 Y38.91654
X66.7648 Y38.89133
X66.64901 Y38.85772
X66.52168 Y38.84651
X66.42797 Y38.85262
X66.3424 Y38.87096
X66.26499 Y38.90152
X66.19572 Y38.9443
X66.13562 Y38.99863
X66.08571 Y39.06382
X66.04598 Y39.13988
X66.01644 Y39.2268
G0 Z5.
X66.52712 Y39.10185
G1 Z-0.1 F1250.5
X66.62898 Y39.11271 F5000.
X66.72813 Y39.14531
X66.77668 Y39.17281
X66.81912 Y39.20643
X66.85545 Y39.24616
X66.88567 Y39.29199
X66.92234 Y39.39657
X66.93457 Y39.50387
X66.92778 Y39.58944
X66.9074 Y39.66685
X66.87345 Y39.73612
X66.82591 Y39.79724
X66.7648 Y39.84715
X66.69553 Y39.8828
X66.61811 Y39.90419
X66.53255 Y39.91132
X66.44698 Y39.90385
X66.36957 Y39.88144
X66.3003 Y39.84409
X66.23918 Y39.7918
X66.18689 Y39.73068
X66.14954 Y39.66142
X66.12713 Y39.584
X66.11966 Y39.49844
X66.12713 Y39.41525
X66.14954 Y39.33953
X66.18689 Y39.27128
X66.23918 Y39.2105
X66.29996 Y39.16297
X66.36821 Y39.12901
X66.44393 Y39.10864
X66.52712 Y39.10185
G0 Z5.
X67.10298 Y36.64084
G1 Z-0.1 F1250.5
X65.09288 Y36.11929 F5000.
Y36.39093
X66.41303 Y36.68973
X66.61947 Y36.73862
X66.82591 Y36.77665
X66.45106 Y36.86901
X65.09288 Y37.2493
Y37.56983
X66.11423 Y37.85233
X66.4823 Y37.94604
X66.82591 Y38.00988
X66.38587 Y38.10766
X65.09288 Y38.42276
Y38.6944
X67.10298 Y38.14026
Y37.87949
X65.57639 Y37.46661
X65.33735 Y37.40141
X65.57639 Y37.34165
X67.10298 Y36.9179
Y36.64084
G0 Z5.
X93.60056 Y44.51046
G1 Z-0.1 F1250.5
X91.59046 Y43.98892 F5000.
Y44.26055
X92.91061 Y44.55935
X93.11705 Y44.60825
X93.3235 Y44.64628
X92.94864 Y44.73863
X91.59046 Y45.11892
Y45.43945
X92.61181 Y45.72195
X92.97988 Y45.81566
X93.3235 Y45.8795
X92.88345 Y45.97729
X91.59046 Y46.29238
Y46.56402
X93.60056 Y46.00988
Y45.74911
X92.07397 Y45.33623
X91.83494 Y45.27104
X92.07397 Y45.21128
X93.60056 Y44.78753
Y44.51046
G0 Z5.
Y47.50931
G1 Z-0.1 F1250.5
X93.12249 F5000.
Y46.63465
X92.89431
X91.5959 Y47.5582
Y47.75378
X92.89431
Y48.02542
X93.12249
Y47.75378
X93.60056
Y47.50931
G0 Z5.
X92.89431
G1 Z-0.1 F1250.5
X91.99792 F5000.
X92.89431 Y46.87368
Y47.50931
G0 Z5.
X120.90727 Y44.88728
G1 Z-0.1 F1250.5
X120.929 Y44.64281 F5000.
X120.80269 Y44.59935
X120.75481 Y44.57354
X120.71712 Y44.54502
X120.66959 Y44.49273
X120.63563 Y44.43365
X120.61526 Y44.36778
X120.60847 Y44.29512
X120.61288 Y44.23705
X120.62612 Y44.18239
X120.6482 Y44.13112
X120.67909 Y44.08324
X120.72493 Y44.02925
X120.78096 Y43.98138
X120.84717 Y43.93961
X120.92357 Y43.90396
X121.01388 Y43.87306
X121.12186 Y43.85099
X121.24749 Y43.83775
X121.39078 Y43.83334
X121.32728 Y43.87951
X121.27262 Y43.93112
X121.22678 Y43.98817
X121.18977 Y44.05065
X121.15887 Y44.11652
X121.1368 Y44.18375
X121.12356 Y44.25233
X121.11914 Y44.32228
X121.13069 Y44.4401
X121.16532 Y44.54909
X121.22304 Y44.64926
X121.30385 Y44.7406
X121.35037 Y44.78262
X121.40028 Y44.81903
X121.45359 Y44.84985
X121.5103 Y44.87506
X121.5704 Y44.89467
X121.63389 Y44.90867
X121.77107 Y44.91988
X121.86444 Y44.91444
X121.95442 Y44.89815
X122.041 Y44.87098
X122.12419 Y44.83295
X122.20093 Y44.78847
X122.26816 Y44.73652
X122.32588 Y44.6771
X122.3741 Y44.61021
X122.40975 Y44.53687
X122.43522 Y44.4581
X122.4505 Y44.37389
X122.45559 Y44.28425
X122.45211 Y44.20862
X122.44167 Y44.13655
X122.42427 Y44.06805
X122.3999 Y44.00311
X122.36858 Y43.94174
X122.3303 Y43.88393
X122.28505 Y43.82969
X122.23285 Y43.77901
X122.17122 Y43.73444
X122.10042 Y43.69582
X122.02046 Y43.66314
X121.93133 Y43.6364
X121.83303 Y43.6156
X121.72557 Y43.60075
X121.60893 Y43.59184
X121.48313 Y43.58886
X121.34282 Y43.59218
X121.21252 Y43.60211
X121.09223 Y43.61866
X120.98197 Y43.64183
X120.88172 Y43.67163
X120.79148 Y43.70804
X120.71127 Y43.75108
X120.64106 Y43.80074
X120.58631 Y43.85031
X120.53886 Y43.90396
X120.49871 Y43.96168
X120.46586 Y44.02348
X120.44031 Y44.08935
X120.42206 Y44.1593
X120.41111 Y44.23332
X120.40746 Y44.31141
X120.41595 Y44.4255
X120.44141 Y44.52872
X120.48386 Y44.62108
X120.54328 Y44.70257
X120.61492 Y44.77116
X120.69947 Y44.8248
X120.79692 Y44.86351
X120.90727 Y44.88728
G0 Z5.
X121.7765 Y43.87137
G1 Z-0.1 F1250.5
X121.90009 Y43.88359 F5000.
X122.02097 Y43.92026
X122.07462 Y43.95014
X122.12148 Y43.98545
X122.16154 Y44.0262
X122.19482 Y44.07238
X122.22096 Y44.12195
X122.23964 Y44.17288
X122.25084 Y44.22517
X122.25458 Y44.27882
X122.24677 Y44.35691
X122.22334 Y44.42822
X122.18429 Y44.49273
X122.12963 Y44.55045
X122.06138 Y44.60037
X121.98158 Y44.63602
X121.89025 Y44.65741
X121.78737 Y44.66454
X121.68958 Y44.65741
X121.60265 Y44.63602
X121.5266 Y44.60037
X121.4614 Y44.55045
X121.40674 Y44.49205
X121.36769 Y44.4255
X121.34426 Y44.3508
X121.33645 Y44.26795
X121.34426 Y44.18918
X121.36769 Y44.11584
X121.40674 Y44.04793
X121.4614 Y43.98545
X121.52592 Y43.93554
X121.59994 Y43.89989
X121.68346 Y43.8785
X121.7765 Y43.87137
G0 Z5.
X122.42299 Y41.39405
G1 Z-0.1 F1250.5
X120.41289 Y40.87251 F5000.
Y41.14415
X121.73304 Y41.44295
X121.93948 Y41.49184
X122.14592 Y41.52987
X121.77107 Y41.62223
X120.41289 Y42.00251
Y42.32304
X121.43424 Y42.60555
X121.80231 Y42.69926
X122.14592 Y42.76309
X121.70588 Y42.86088
X120.41289 Y43.17598
Y43.44761
X122.42299 Y42.89348
Y42.63271
X120.8964 Y42.21982
X120.65736 Y42.15463
X120.8964 Y42.09487
X122.42299 Y41.67112
Y41.39405
G0 Z5.
X145.42025 Y39.18334
G1 Z-0.1 F1250.5
X145.48782 Y39.18877 F5000.
X145.54928 Y39.20507
X145.60463 Y39.23223
X145.65386 Y39.27026
X145.69189 Y39.3178
X145.71905 Y39.37349
X145.73535 Y39.43732
X145.74078 Y39.5093
X145.73535 Y39.57653
X145.71905 Y39.63697
X145.69189 Y39.69062
X145.65386 Y39.73748
X145.60565 Y39.77788
X145.55335 Y39.80674
X145.49699 Y39.82406
X145.43655 Y39.82983
X145.37136 Y39.82406
X145.3116 Y39.80674
X145.25727 Y39.77788
X145.20838 Y39.73748
X145.1656 Y39.68824
X145.13504 Y39.6329
X145.1167 Y39.57144
X145.11059 Y39.50387
X145.11636 Y39.4363
X145.13368 Y39.37484
X145.16254 Y39.3195
X145.20295 Y39.27026
X145.25116 Y39.23223
X145.30345 Y39.20507
X145.35981 Y39.18877
X145.42025 Y39.18334
G0 Z5.
X145.83857 Y39.2268
G1 Z-0.1 F1250.5
X145.80801 Y39.1555 F5000.
X145.77066 Y39.0937
X145.72652 Y39.04141
X145.67559 Y38.99863
X145.6216 Y38.96773
X145.56286 Y38.94566
X145.49937 Y38.93242
X145.43112 Y38.928
X145.3245 Y38.93751
X145.22739 Y38.96603
X145.13979 Y39.01357
X145.06169 Y39.08012
X144.99515 Y39.16534
X144.94761 Y39.26347
X144.91909 Y39.3745
X144.90958 Y39.49844
X144.91943 Y39.62475
X144.94897 Y39.73748
X144.9982 Y39.83662
X145.06713 Y39.92219
X145.14726 Y39.99349
X145.23554 Y40.04442
X145.33197 Y40.07498
X145.43655 Y40.08517
X145.5048 Y40.08042
X145.5683 Y40.06616
X145.62704 Y40.04239
X145.68102 Y40.00911
X145.72958 Y39.96667
X145.77202 Y39.9154
X145.80835 Y39.8553
X145.83857 Y39.78637
X145.87321 Y39.87329
X145.91735 Y39.94935
X145.97099 Y40.01454
X146.03415 Y40.06887
X146.10308 Y40.11165
X146.17947 Y40.14221
X146.26334 Y40.16055
X146.35468 Y40.16666
X146.47725 Y40.15511
X146.53472 Y40.14068
X146.58964 Y40.12048
X146.64202 Y40.09451
X146.69185 Y40.06276
X146.78386 Y39.98195
X146.82461 Y39.93526
X146.85992 Y39.88484
X146.8898 Y39.83068
X146.91425 Y39.77279
X146.94684 Y39.6458
X146.95771 Y39.50387
X146.94684 Y39.36194
X146.91425 Y39.23495
X146.8898 Y39.17706
X146.85992 Y39.1229
X146.82461 Y39.07248
X146.78386 Y39.02579
X146.69117 Y38.94736
X146.64049 Y38.91654
X146.58693 Y38.89133
X146.47114 Y38.85772
X146.34381 Y38.84651
X146.2501 Y38.85262
X146.16453 Y38.87096
X146.08712 Y38.90152
X146.01785 Y38.9443
X145.95775 Y38.99863
X145.90784 Y39.06382
X145.86811 Y39.13988
X145.83857 Y39.2268
G0 Z5.
X146.34925 Y39.10185
G1 Z-0.1 F1250.5
X146.45111 Y39.11271 F5000.
X146.55026 Y39.14531
X146.59881 Y39.17281
X146.64125 Y39.20643
X146.67758 Y39.24616
X146.7078 Y39.29199
X146.74447 Y39.39657
X146.7567 Y39.50387
X146.74991 Y39.58944
X146.72953 Y39.66685
X146.69558 Y39.73612
X146.64805 Y39.79724
X146.58693 Y39.84715
X146.51766 Y39.8828
X146.44024 Y39.90419
X146.35468 Y39.91132
X146.26911 Y39.90385
X146.1917 Y39.88144
X146.12243 Y39.84409
X146.06131 Y39.7918
X146.00902 Y39.73068
X145.97167 Y39.66142
X145.94926 Y39.584
X145.94179 Y39.49844
X145.94926 Y39.41525
X145.97167 Y39.33953
X146.00902 Y39.27128
X146.06131 Y39.2105
X146.12209 Y39.16297
X146.19034 Y39.12901
X146.26606 Y39.10864
X146.34925 Y39.10185
G0 Z5.
X146.92511 Y36.64084
G1 Z-0.1 F1250.5
X144.91501 Y36.11929 F5000.
Y36.39093
X146.23516 Y36.68973
X146.4416 Y36.73862
X146.64805 Y36.77665
X146.27319 Y36.86901
X144.91501 Y37.2493
Y37.56983
X145.93636 Y37.85233
X146.30443 Y37.94604
X146.64805 Y38.00988
X146.208 Y38.10766
X144.91501 Y38.42276
Y38.6944
X146.92511 Y38.14026
Y37.87949
X145.39852 Y37.46661
X145.15948 Y37.40141
X145.39852 Y37.34165
X146.92511 Y36.9179
Y36.64084
G0 Z5.
X136.87548 Y117.52113
G1 Z-0.1 F1250.5
Y113.20202 F5000.
G0 Z5.
X136.60264 Y123.23007
G1 Z-0.1 F1250.5
X134.59254 Y122.70853 F5000.
Y122.98017
X135.91269 Y123.27896
X136.11913 Y123.32786
X136.32557 Y123.36589
X135.95072 Y123.45824
X134.59254 Y123.83853
Y124.15906
X135.61389 Y124.44156
X135.98196 Y124.53528
X136.32557 Y124.59911
X135.88553 Y124.6969
X134.59254 Y125.012
Y125.28363
X136.60264 Y124.7295
Y124.46873
X135.07605 Y124.05584
X134.83702 Y123.99065
X135.07605 Y123.93089
X136.60264 Y123.50714
Y123.23007
G0 Z5.
Y126.36474
G1 Z-0.1 F1250.5
Y126.12027 F5000.
X135.03259
X135.11951 Y126.01433
X135.20644 Y125.88123
X135.27842 Y125.74677
X135.33139 Y125.62589
X135.09235
X135.04108 Y125.72572
X134.98506 Y125.81875
X134.92428 Y125.905
X134.85874 Y125.98445
X134.7888 Y126.05745
X134.72021 Y126.11891
X134.65298 Y126.16882
X134.58711 Y126.20719
Y126.36474
X136.60264
G0 Z5.
X136.3636 Y128.14123
G1 Z-0.1 F1250.5
X136.60264 F5000.
Y126.81022
X136.51708 Y126.8143
X136.43423 Y126.83739
X136.36666 Y126.86591
X136.29977 Y126.90258
X136.23356 Y126.9474
X136.16803 Y127.00037
X136.02678 Y127.13754
X135.8638 Y127.3209
X135.73545 Y127.47064
X135.62204 Y127.59389
X135.52357 Y127.69066
X135.44005 Y127.76095
X135.36229 Y127.81324
X135.28657 Y127.85059
X135.21289 Y127.873
X135.14125 Y127.88047
X135.07096 Y127.87367
X135.00679 Y127.8533
X134.94872 Y127.81935
X134.89677 Y127.77181
X134.85162 Y127.71613
X134.81936 Y127.65229
X134.8 Y127.58031
X134.79355 Y127.50018
X134.80034 Y127.41733
X134.82072 Y127.34263
X134.85467 Y127.27608
X134.90221 Y127.21768
X134.96163 Y127.17252
X135.03123 Y127.14026
X135.11103 Y127.12091
X135.20101 Y127.11445
X135.16841 Y126.85912
X135.03565 Y126.87949
X134.91986 Y126.91888
X134.82106 Y126.97728
X134.77802 Y127.01361
X134.73923 Y127.05469
X134.67267 Y127.14603
X134.62514 Y127.25163
X134.59662 Y127.37149
X134.58711 Y127.50561
X134.5973 Y127.64448
X134.62785 Y127.76774
X134.65078 Y127.82351
X134.67879 Y127.87537
X134.71189 Y127.92333
X134.75009 Y127.96739
X134.83396 Y128.04107
X134.92801 Y128.0937
X135.03225 Y128.12528
X135.14668 Y128.1358
X135.20644 Y128.13241
X135.2662 Y128.12222
X135.32596 Y128.10524
X135.38572 Y128.08148
X135.50388 Y128.01764
X135.63019 Y127.92393
X135.78095 Y127.77181
X135.98331 Y127.54364
X136.13815 Y127.36028
X136.23322 Y127.25571
X136.29841 Y127.20138
X136.3636 Y127.15792
Y128.14123
G0 Z5.
X136.87548 Y143.92049
G1 Z-0.1 F1250.5
Y136.30652 F5000.
G0 Z5.
X125.77557 Y154.00002
G1 Z-0.1 F1250.5
Y160.5773 F5000.
G0 Z5.
X145.47609 Y167.35309
G1 Z-0.1 F1250.5
X145.37559 Y167.34596 F5000.
X145.28595 Y167.32457
X145.20717 Y167.28892
X145.13926 Y167.239
X145.0846 Y167.17924
X145.04555 Y167.11405
X145.02212 Y167.04343
X145.01431 Y166.96737
X145.0228 Y166.88622
X145.04827 Y166.81118
X145.09071 Y166.74225
X145.15013 Y166.67943
X145.22279 Y166.62714
X145.30496 Y166.58979
X145.39664 Y166.56738
X145.49782 Y166.55992
X145.58848 Y166.56704
X145.67031 Y166.58844
X145.74331 Y166.62409
X145.80749 Y166.674
X145.85978 Y166.73444
X145.89713 Y166.80167
X145.91954 Y166.87569
X145.92701 Y166.9565
X145.91954 Y167.03935
X145.89713 Y167.11405
X145.85978 Y167.1806
X145.80749 Y167.239
X145.74195 Y167.28892
X145.66488 Y167.32457
X145.57626 Y167.34596
X145.47609 Y167.35309
G0 Z5.
X146.35619 Y166.33717
G1 Z-0.1 F1250.5
X146.33446 Y166.57621 F5000.
X146.41527 Y166.59353
X146.48386 Y166.61832
X146.54022 Y166.65057
X146.58436 Y166.6903
X146.61526 Y166.7341
X146.63733 Y166.78401
X146.65057 Y166.84004
X146.65499 Y166.90217
X146.65193 Y166.95752
X146.64276 Y167.00947
X146.62748 Y167.05803
X146.60609 Y167.10318
X146.54362 Y167.18196
X146.46484 Y167.24443
X146.36298 Y167.29061
X146.23124 Y167.33136
X146.0832 Y167.35988
X145.93244 Y167.36939
X145.88354
X145.94025 Y167.3283
X145.99084 Y167.28111
X146.03532 Y167.2278
X146.07369 Y167.16838
X146.10459 Y167.10217
X146.12666 Y167.03392
X146.1399 Y166.96363
X146.14431 Y166.89131
X146.13311 Y166.77349
X146.09949 Y166.66449
X146.04347 Y166.56433
X145.96503 Y166.47299
X145.91835 Y166.43352
X145.86793 Y166.39931
X145.81377 Y166.37036
X145.75587 Y166.34668
X145.62889 Y166.3151
X145.48696 Y166.30458
X145.34231 Y166.31578
X145.27559 Y166.32979
X145.2126 Y166.3494
X145.15335 Y166.37461
X145.09784 Y166.40542
X145.04606 Y166.44184
X144.99801 Y166.48386
X144.95345 Y166.53012
X144.91482 Y166.57927
X144.88214 Y166.6313
X144.8554 Y166.68622
X144.83461 Y166.74403
X144.81975 Y166.80473
X144.80787 Y166.93477
X144.81466 Y167.03052
X144.83503 Y167.1222
X144.86899 Y167.2098
X144.91652 Y167.29333
X144.97391 Y167.36973
X145.04283 Y167.43594
X145.1233 Y167.49196
X145.21532 Y167.5378
X145.32397 Y167.57583
X145.45436 Y167.60299
X145.60648 Y167.61929
X145.78032 Y167.62472
X145.96334 Y167.61929
X146.12666 Y167.60299
X146.27028 Y167.57583
X146.39422 Y167.5378
X146.50151 Y167.49162
X146.59523 Y167.43458
X146.67536 Y167.36667
X146.74191 Y167.2879
X146.79182 Y167.20267
X146.82748 Y167.10998
X146.84887 Y167.00981
X146.856 Y166.90217
X146.84785 Y166.78843
X146.8234 Y166.68622
X146.78266 Y166.59557
X146.72561 Y166.51645
X146.65363 Y166.44821
X146.56806 Y166.39557
X146.46892 Y166.35856
X146.35619 Y166.33717
G0 Z5.
X146.8234 Y164.0989
G1 Z-0.1 F1250.5
X144.8133 Y163.57736 F5000.
Y163.84899
X146.13345 Y164.14779
X146.33989 Y164.19669
X146.54633 Y164.23472
X146.17148 Y164.32707
X144.8133 Y164.70736
Y165.02789
X145.83465 Y165.31039
X146.20271 Y165.40411
X146.54633 Y165.46794
X146.10629 Y165.56573
X144.8133 Y165.88083
Y166.15246
X146.8234 Y165.59833
Y165.33756
X145.29681 Y164.92467
X145.05777 Y164.85948
X145.29681 Y164.79972
X146.8234 Y164.37597
Y164.0989
G0 Z5.
X111.3653 Y140.13112
G1 Z-0.1 F1250.5
Y139.88664 F5000.
X109.79524
X109.88217 Y139.78071
X109.96909 Y139.6476
X110.04107 Y139.51315
X110.09404 Y139.39227
X109.855
X109.80373 Y139.49209
X109.74771 Y139.58513
X109.68693 Y139.67137
X109.6214 Y139.75083
X109.55145 Y139.82383
X109.48286 Y139.88529
X109.41563 Y139.9352
X109.34976 Y139.97357
Y140.13112
X111.3653
G0 Z5.
Y138.72404
G1 Z-0.1 F1250.5
Y138.47957 F5000.
X109.79524
X109.88217 Y138.37364
X109.96909 Y138.24053
X110.04107 Y138.10607
X110.09404 Y137.9852
X109.855
X109.80373 Y138.08502
X109.74771 Y138.17806
X109.68693 Y138.2643
X109.6214 Y138.34376
X109.55145 Y138.41676
X109.48286 Y138.47822
X109.41563 Y138.52813
X109.34976 Y138.5665
Y138.72404
X111.3653
G0 Z5.
Y135.58937
G1 Z-0.1 F1250.5
X109.35519 Y135.06784 F5000.
Y135.33947
X110.67534 Y135.63827
X110.88178 Y135.68716
X111.08823 Y135.72519
X110.71337 Y135.81755
X109.35519 Y136.19784
Y136.51837
X110.37654 Y136.80087
X110.74461 Y136.89458
X111.08823 Y136.95842
X110.64818 Y137.05621
X109.35519 Y137.3713
Y137.64294
X111.3653 Y137.0888
Y136.82803
X109.83871 Y136.41515
X109.59967 Y136.34995
X109.83871 Y136.29019
X111.3653 Y135.86644
Y135.58937
G0 Z5.
X98.87701 Y164.54417
G1 Z-0.1 F1250.5
Y171.1185 F5000.
G0 Z5.
X111.91017 Y195.43589
G1 Z-0.1 F1250.5
Y188.59399 F5000.
G0 Z5.
X123.64245 Y216.26382
G1 Z-0.1 F1250.5
X121.63235 Y215.74228 F5000.
Y216.01392
X122.9525 Y216.31272
X123.15894 Y216.36161
X123.36539 Y216.39964
X122.99053 Y216.492
X121.63235 Y216.87229
Y217.19282
X122.6537 Y217.47532
X123.02177 Y217.56903
X123.36539 Y217.63286
X122.92534 Y217.73065
X121.63235 Y218.04575
Y218.31739
X123.64245 Y217.76325
Y217.50248
X122.11586 Y217.08959
X121.87682 Y217.0244
X122.11586 Y216.96464
X123.64245 Y216.54089
Y216.26382
G0 Z5.
X121.89856 Y218.4858
G1 Z-0.1 F1250.5
X121.65952 F5000.
Y219.78422
X121.85509
X121.96646 Y219.68711
X122.09413 Y219.59135
X122.2381 Y219.49696
X122.39836 Y219.40393
X122.56814 Y219.31666
X122.74062 Y219.23959
X122.91583 Y219.1727
X123.09375 Y219.11599
X123.22176 Y219.0817
X123.35588 Y219.05487
X123.49611 Y219.03552
X123.64245 Y219.02364
Y218.7683
X123.5192 Y218.77407
X123.38304 Y218.79139
X123.23398 Y218.82025
X123.07202 Y218.86066
X122.9053 Y218.90887
X122.74198 Y218.96659
X122.58206 Y219.03382
X122.42553 Y219.11056
X122.27647 Y219.19612
X122.13895 Y219.28441
X122.01298 Y219.3754
X121.89856 Y219.46912
Y218.4858
G0 Z5.
X94.30838 Y218.14421
G1 Z-0.1 F1250.5
X92.29829 Y217.62267 F5000.
Y217.8943
X93.61843 Y218.1931
X93.82488 Y218.24199
X94.03132 Y218.28002
X93.65646 Y218.37238
X92.29829 Y218.75267
Y219.0732
X93.31963 Y219.3557
X93.6877 Y219.44941
X94.03132 Y219.51325
X93.59127 Y219.61104
X92.29829 Y219.92613
Y220.19777
X94.30838 Y219.64363
Y219.38286
X92.78179 Y218.96998
X92.54276 Y218.90478
X92.78179 Y218.84502
X94.30838 Y218.42127
Y218.14421
G0 Z5.
X93.78141 Y220.34988
G1 Z-0.1 F1250.5
X93.75968 Y220.60522 F5000.
X93.84898 Y220.62356
X93.92674 Y220.6514
X93.99295 Y220.68875
X94.04762 Y220.7356
X94.08802 Y220.79027
X94.11688 Y220.85105
X94.1342 Y220.91794
X94.13997 Y220.99094
X94.13182 Y221.07922
X94.10737 Y221.15936
X94.06663 Y221.23134
X94.00959 Y221.29517
X93.93624 Y221.34984
X93.85204 Y221.38889
X93.75697 Y221.41232
X93.65103 Y221.42013
X93.55086 Y221.41266
X93.46224 Y221.39025
X93.38517 Y221.3529
X93.31963 Y221.30061
X93.26497 Y221.23847
X93.22592 Y221.16615
X93.20249 Y221.08364
X93.19468 Y220.99094
X93.19842 Y220.9305
X93.20962 Y220.87414
X93.2283 Y220.82185
X93.25444 Y220.77363
X93.31556 Y220.69079
X93.39026 Y220.62695
X93.35766 Y220.39334
X92.32545 Y220.58892
Y221.58854
X92.55905
Y220.7845
X93.10776 Y220.67585
X93.05071 Y220.7665
X93.00997 Y220.8592
X92.98552 Y220.95393
X92.97737 Y221.0507
X92.98892 Y221.17837
X93.00335 Y221.23813
X93.02355 Y221.29517
X93.04953 Y221.3495
X93.08127 Y221.40111
X93.16208 Y221.49618
X93.2086 Y221.53948
X93.25852 Y221.57699
X93.31182 Y221.60874
X93.36853 Y221.63472
X93.42863 Y221.65492
X93.49212 Y221.66935
X93.6293 Y221.6809
X93.7607 Y221.67071
X93.88328 Y221.64015
X93.99702 Y221.58922
X94.10194 Y221.51791
X94.15797 Y221.46809
X94.20652 Y221.41367
X94.24761 Y221.35468
X94.28122 Y221.2911
X94.30737 Y221.22294
X94.32604 Y221.15019
X94.33725 Y221.07286
X94.34098 Y220.99094
X94.33147 Y220.86124
X94.30295 Y220.74375
X94.25542 Y220.6385
X94.18887 Y220.54546
X94.10636 Y220.46804
X94.01094 Y220.40964
X93.90263 Y220.37026
X93.78141 Y220.34988
G0 Z5.
X43.82032 Y216.26382
G1 Z-0.1 F1250.5
X41.81022 Y215.74228 F5000.
Y216.01392
X43.13037 Y216.31272
X43.33681 Y216.36161
X43.54325 Y216.39964
X43.1684 Y216.492
X41.81022 Y216.87229
Y217.19282
X42.83157 Y217.47532
X43.19964 Y217.56903
X43.54325 Y217.63286
X43.10321 Y217.73065
X41.81022 Y218.04575
Y218.31739
X43.82032 Y217.76325
Y217.50248
X42.29373 Y217.08959
X42.05469 Y217.0244
X42.29373 Y216.96464
X43.82032 Y216.54089
Y216.26382
G0 Z5.
X42.07642 Y218.4858
G1 Z-0.1 F1250.5
X41.83739 F5000.
Y219.78422
X42.03296
X42.14433 Y219.68711
X42.272 Y219.59135
X42.41597 Y219.49696
X42.57623 Y219.40393
X42.74601 Y219.31666
X42.91849 Y219.23959
X43.0937 Y219.1727
X43.27162 Y219.11599
X43.39963 Y219.0817
X43.53375 Y219.05487
X43.67398 Y219.03552
X43.82032 Y219.02364
Y218.7683
X43.69707 Y218.77407
X43.56091 Y218.79139
X43.41185 Y218.82025
X43.24989 Y218.86066
X43.08317 Y218.90887
X42.91985 Y218.96659
X42.75993 Y219.03382
X42.6034 Y219.11056
X42.45434 Y219.19612
X42.31682 Y219.28441
X42.19085 Y219.3754
X42.07642 Y219.46912
Y218.4858
G0 Z5.
X14.48626 Y218.14421
G1 Z-0.1 F1250.5
X12.47615 Y217.62267 F5000.
Y217.8943
X13.7963 Y218.1931
X14.00274 Y218.24199
X14.20919 Y218.28002
X13.83433 Y218.37238
X12.47615 Y218.75267
Y219.0732
X13.4975 Y219.3557
X13.86557 Y219.44941
X14.20919 Y219.51325
X13.76914 Y219.61104
X12.47615 Y219.92613
Y220.19777
X14.48626 Y219.64363
Y219.38286
X12.95966 Y218.96998
X12.72063 Y218.90478
X12.95966 Y218.84502
X14.48626 Y218.42127
Y218.14421
G0 Z5.
X13.95928 Y220.34988
G1 Z-0.1 F1250.5
X13.93755 Y220.60522 F5000.
X14.02685 Y220.62356
X14.10461 Y220.6514
X14.17082 Y220.68875
X14.22549 Y220.7356
X14.26589 Y220.79027
X14.29475 Y220.85105
X14.31207 Y220.91794
X14.31784 Y220.99094
X14.30969 Y221.07922
X14.28524 Y221.15936
X14.2445 Y221.23134
X14.18746 Y221.29517
X14.11412 Y221.34984
X14.02991 Y221.38889
X13.93484 Y221.41232
X13.8289 Y221.42013
X13.72873 Y221.41266
X13.64011 Y221.39025
X13.56303 Y221.3529
X13.4975 Y221.30061
X13.44284 Y221.23847
X13.40379 Y221.16615
X13.38036 Y221.08364
X13.37255 Y220.99094
X13.37629 Y220.9305
X13.38749 Y220.87414
X13.40617 Y220.82185
X13.43231 Y220.77363
X13.49343 Y220.69079
X13.56813 Y220.62695
X13.53553 Y220.39334
X12.50332 Y220.58892
Y221.58854
X12.73692
Y220.7845
X13.28563 Y220.67585
X13.22858 Y220.7665
X13.18784 Y220.8592
X13.16339 Y220.95393
X13.15524 Y221.0507
X13.16679 Y221.17837
X13.18122 Y221.23813
X13.20142 Y221.29517
X13.2274 Y221.3495
X13.25914 Y221.40111
X13.33995 Y221.49618
X13.38647 Y221.53948
X13.43638 Y221.57699
X13.48969 Y221.60874
X13.5464 Y221.63472
X13.6065 Y221.65492
X13.66999 Y221.66935
X13.80717 Y221.6809
X13.93857 Y221.67071
X14.06115 Y221.64015
X14.17489 Y221.58922
X14.27981 Y221.51791
X14.33584 Y221.46809
X14.38439 Y221.41367
X14.42548 Y221.35468
X14.45909 Y221.2911
X14.48524 Y221.22294
X14.50391 Y221.15019
X14.51512 Y221.07286
X14.51885 Y220.99094
X14.50934 Y220.86124
X14.48082 Y220.74375
X14.43329 Y220.6385
X14.36674 Y220.54546
X14.28423 Y220.46804
X14.18881 Y220.40964
X14.0805 Y220.37026
X13.95928 Y220.34988
G0 Z5.
X32.08804 Y188.3163
G1 Z-0.1 F1250.5
Y193.83379 F5000.
G0 Z5.
X19.05488 Y171.15248
G1 Z-0.1 F1250.5
Y164.53524 F5000.
G0 Z5.
X45.95344 Y160.53792
G1 Z-0.1 F1250.5
Y154.04196 F5000.
G0 Z5.
X31.54316 Y140.13112
G1 Z-0.1 F1250.5
Y139.88664 F5000.
X29.97311
X30.06004 Y139.78071
X30.14696 Y139.6476
X30.21894 Y139.51315
X30.27191 Y139.39227
X30.03287
X29.9816 Y139.49209
X29.92558 Y139.58513
X29.8648 Y139.67137
X29.79927 Y139.75083
X29.72932 Y139.82383
X29.66073 Y139.88529
X29.5935 Y139.9352
X29.52763 Y139.97357
Y140.13112
X31.54316
G0 Z5.
Y138.72404
G1 Z-0.1 F1250.5
Y138.47957 F5000.
X29.97311
X30.06004 Y138.37364
X30.14696 Y138.24053
X30.21894 Y138.10607
X30.27191 Y137.9852
X30.03287
X29.9816 Y138.08502
X29.92558 Y138.17806
X29.8648 Y138.2643
X29.79927 Y138.34376
X29.72932 Y138.41676
X29.66073 Y138.47822
X29.5935 Y138.52813
X29.52763 Y138.5665
Y138.72404
X31.54316
G0 Z5.
Y135.58937
G1 Z-0.1 F1250.5
X29.53306 Y135.06784 F5000.
Y135.33947
X30.85321 Y135.63827
X31.05965 Y135.68716
X31.2661 Y135.72519
X30.89124 Y135.81755
X29.53306 Y136.19784
Y136.51837
X30.55441 Y136.80087
X30.92248 Y136.89458
X31.2661 Y136.95842
X30.82605 Y137.05621
X29.53306 Y137.3713
Y137.64294
X31.54316 Y137.0888
Y136.82803
X30.01658 Y136.41515
X29.77754 Y136.34995
X30.01658 Y136.29019
X31.54316 Y135.86644
Y135.58937
G0 Z5.
X57.05335 Y136.28378
G1 Z-0.1 F1250.5
Y144.2108 F5000.
G0 Z5.
X56.54147 Y128.14123
G1 Z-0.1 F1250.5
X56.78051 F5000.
Y126.81022
X56.69495 Y126.8143
X56.6121 Y126.83739
X56.54453 Y126.86591
X56.47764 Y126.90258
X56.41143 Y126.9474
X56.3459 Y127.00037
X56.20465 Y127.13754
X56.04167 Y127.3209
X55.91332 Y127.47064
X55.79991 Y127.59389
X55.70144 Y127.69066
X55.61791 Y127.76095
X55.54016 Y127.81324
X55.46444 Y127.85059
X55.39076 Y127.873
X55.31912 Y127.88047
X55.24883 Y127.87367
X55.18466 Y127.8533
X55.12659 Y127.81935
X55.07464 Y127.77181
X55.02948 Y127.71613
X54.99723 Y127.65229
X54.97787 Y127.58031
X54.97142 Y127.50018
X54.97821 Y127.41733
X54.99859 Y127.34263
X55.03254 Y127.27608
X55.08008 Y127.21768
X55.1395 Y127.17252
X55.2091 Y127.14026
X55.2889 Y127.12091
X55.37888 Y127.11445
X55.34628 Y126.85912
X55.21352 Y126.87949
X55.09773 Y126.91888
X54.99893 Y126.97728
X54.95589 Y127.01361
X54.9171 Y127.05469
X54.85054 Y127.14603
X54.80301 Y127.25163
X54.77449 Y127.37149
X54.76498 Y127.50561
X54.77517 Y127.64448
X54.80572 Y127.76774
X54.82865 Y127.82351
X54.85666 Y127.87537
X54.88976 Y127.92333
X54.92796 Y127.96739
X55.01183 Y128.04107
X55.10588 Y128.0937
X55.21012 Y128.12528
X55.32455 Y128.1358
X55.38431 Y128.13241
X55.44407 Y128.12222
X55.50383 Y128.10524
X55.56359 Y128.08148
X55.68175 Y128.01764
X55.80806 Y127.92393
X55.95882 Y127.77181
X56.16119 Y127.54364
X56.31602 Y127.36028
X56.41109 Y127.25571
X56.47628 Y127.20138
X56.54147 Y127.15792
Y128.14123
G0 Z5.
X56.78051 Y126.36474
G1 Z-0.1 F1250.5
Y126.12027 F5000.
X55.21046
X55.29738 Y126.01433
X55.38431 Y125.88123
X55.45629 Y125.74677
X55.50926 Y125.62589
X55.27022
X55.21895 Y125.72572
X55.16293 Y125.81875
X55.10215 Y125.905
X55.03661 Y125.98445
X54.96667 Y126.05745
X54.89808 Y126.11891
X54.83085 Y126.16882
X54.76498 Y126.20719
Y126.36474
X56.78051
G0 Z5.
Y123.23007
G1 Z-0.1 F1250.5
X54.77041 Y122.70853 F5000.
Y122.98017
X56.09056 Y123.27896
X56.297 Y123.32786
X56.50344 Y123.36589
X56.12859 Y123.45824
X54.77041 Y123.83853
Y124.15906
X55.79176 Y124.44156
X56.15983 Y124.53528
X56.50344 Y124.59911
X56.0634 Y124.6969
X54.77041 Y125.012
Y125.28363
X56.78051 Y124.7295
Y124.46873
X55.25392 Y124.05584
X55.01488 Y123.99065
X55.25392 Y123.93089
X56.78051 Y123.50714
Y123.23007
G0 Z5.
X57.05335 Y117.52923
G1 Z-0.1 F1250.5
Y113.13673 F5000.
G0 Z5.
X67.00127 Y164.0989
G1 Z-0.1 F1250.5
X64.99117 Y163.57736 F5000.
Y163.84899
X66.31132 Y164.14779
X66.51776 Y164.19669
X66.7242 Y164.23472
X66.34935 Y164.32707
X64.99117 Y164.70736
Y165.02789
X66.01252 Y165.31039
X66.38058 Y165.40411
X66.7242 Y165.46794
X66.28415 Y165.56573
X64.99117 Y165.88083
Y166.15246
X67.00127 Y165.59833
Y165.33756
X65.47468 Y164.92467
X65.23564 Y164.85948
X65.47468 Y164.79972
X67.00127 Y164.37597
Y164.0989
G0 Z5.
X66.53406 Y166.33717
G1 Z-0.1 F1250.5
X66.51233 Y166.57621 F5000.
X66.59314 Y166.59353
X66.66173 Y166.61832
X66.71809 Y166.65057
X66.76223 Y166.6903
X66.79313 Y166.7341
X66.8152 Y166.78401
X66.82844 Y166.84004
X66.83286 Y166.90217
X66.8298 Y166.95752
X66.82063 Y167.00947
X66.80535 Y167.05803
X66.78396 Y167.10318
X66.72149 Y167.18196
X66.64271 Y167.24443
X66.54085 Y167.29061
X66.40911 Y167.33136
X66.26107 Y167.35988
X66.11031 Y167.36939
X66.06141
X66.11812 Y167.3283
X66.16871 Y167.28111
X66.21319 Y167.2278
X66.25156 Y167.16838
X66.28246 Y167.10217
X66.30453 Y167.03392
X66.31777 Y166.96363
X66.32218 Y166.89131
X66.31098 Y166.77349
X66.27736 Y166.66449
X66.22134 Y166.56433
X66.1429 Y166.47299
X66.09622 Y166.43352
X66.04579 Y166.39931
X65.99164 Y166.37036
X65.93374 Y166.34668
X65.80676 Y166.3151
X65.66483 Y166.30458
X65.52018 Y166.31578
X65.45346 Y166.32979
X65.39047 Y166.3494
X65.33122 Y166.37461
X65.27571 Y166.40542
X65.22393 Y166.44184
X65.17588 Y166.48386
X65.13132 Y166.53012
X65.0927 Y166.57927
X65.06001 Y166.6313
X65.03327 Y166.68622
X65.01248 Y166.74403
X64.99762 Y166.80473
X64.98574 Y166.93477
X64.99253 Y167.03052
X65.0129 Y167.1222
X65.04686 Y167.2098
X65.09439 Y167.29333
X65.15177 Y167.36973
X65.2207 Y167.43594
X65.30117 Y167.49196
X65.39319 Y167.5378
X65.50184 Y167.57583
X65.63223 Y167.60299
X65.78435 Y167.61929
X65.95819 Y167.62472
X66.14121 Y167.61929
X66.30453 Y167.60299
X66.44815 Y167.57583
X66.57209 Y167.5378
X66.67938 Y167.49162
X66.7731 Y167.43458
X66.85323 Y167.36667
X66.91978 Y167.2879
X66.96969 Y167.20267
X67.00535 Y167.10998
X67.02674 Y167.00981
X67.03387 Y166.90217
X67.02572 Y166.78843
X67.00127 Y166.68622
X66.96053 Y166.59557
X66.90348 Y166.51645
X66.8315 Y166.44821
X66.74594 Y166.39557
X66.64679 Y166.35856
X66.53406 Y166.33717
G0 Z5.
X65.65396 Y167.35309
G1 Z-0.1 F1250.5
X65.55346 Y167.34596 F5000.
X65.46382 Y167.32457
X65.38504 Y167.28892
X65.31713 Y167.239
X65.26247 Y167.17924
X65.22342 Y167.11405
X65.19999 Y167.04343
X65.19218 Y166.96737
X65.20067 Y166.88622
X65.22614 Y166.81118
X65.26858 Y166.74225
X65.328 Y166.67943
X65.40066 Y166.62714
X65.48283 Y166.58979
X65.57451 Y166.56738
X65.67569 Y166.55992
X65.76635 Y166.56704
X65.84818 Y166.58844
X65.92118 Y166.62409
X65.98536 Y166.674
X66.03765 Y166.73444
X66.075 Y166.80167
X66.09741 Y166.87569
X66.10487 Y166.9565
X66.09741 Y167.03935
X66.075 Y167.11405
X66.03765 Y167.1806
X65.98536 Y167.239
X65.91982 Y167.28892
X65.84275 Y167.32457
X65.75413 Y167.34596
X65.65396 Y167.35309
G0 Z5.
X66.53205 Y271.94053
G1 Z-0.1 F1250.5
X64.52195 Y271.41899 F5000.
Y271.69062
X65.84209 Y271.98942
X66.04854 Y272.03832
X66.25498 Y272.07634
X65.88012 Y272.1687
X64.52195 Y272.54899
Y272.86952
X65.54329 Y273.15202
X65.91136 Y273.24573
X66.25498 Y273.30957
X65.81493 Y273.40736
X64.52195 Y273.72245
Y273.99409
X66.53205 Y273.43995
Y273.17918
X65.00546 Y272.7663
X64.76642 Y272.70111
X65.00546 Y272.64135
X66.53205 Y272.21759
Y271.94053
G0 Z5.
Y275.0752
G1 Z-0.1 F1250.5
Y274.83073 F5000.
X64.962
X65.04892 Y274.72479
X65.13584 Y274.59169
X65.20783 Y274.45723
X65.26079 Y274.33635
X65.02175
X64.97048 Y274.43617
X64.91446 Y274.52921
X64.85368 Y274.61546
X64.78815 Y274.69491
X64.7182 Y274.76791
X64.64961 Y274.82937
X64.58238 Y274.87928
X64.51651 Y274.91765
Y275.0752
X66.53205
G0 Z5.
X65.54329 Y275.55327
G1 Z-0.1 F1250.5
X65.37488 Y275.55769 F5000.
X65.22276 Y275.57093
X65.08695 Y275.593
X64.96743 Y275.6239
X64.86523 Y275.66634
X64.77593 Y275.71761
X64.69953 Y275.77771
X64.63603 Y275.84664
X64.58374 Y275.92236
X64.54639 Y276.00826
X64.52398 Y276.10435
X64.51651 Y276.21063
X64.52059 Y276.28975
X64.53281 Y276.36411
X64.55318 Y276.43371
X64.58171 Y276.49857
X64.61804 Y276.55799
X64.66184 Y276.61129
X64.71311 Y276.65849
X64.77185 Y276.69958
X64.83535 Y276.73794
X64.90631 Y276.77156
X64.98475 Y276.80042
X65.07065 Y276.82453
X65.16538 Y276.84592
X65.27573 Y276.8612
X65.4017 Y276.87037
X65.54329 Y276.87342
X65.71137 Y276.86867
X65.86247 Y276.85441
X65.99659 Y276.83064
X66.11373 Y276.79736
X66.21627 Y276.7573
X66.30659 Y276.70772
X66.38468 Y276.64864
X66.45056 Y276.58006
X66.50047 Y276.50196
X66.53612 Y276.41436
X66.55751 Y276.31725
X66.56464 Y276.21063
X66.5615 Y276.13924
X66.55208 Y276.07176
X66.53638 Y276.00818
X66.51439 Y275.9485
X66.48612 Y275.89273
X66.45157 Y275.84087
X66.41075 Y275.79291
X66.36363 Y275.74885
X66.29496 Y275.70301
X66.21661 Y275.66329
X66.12858 Y275.62967
X66.03088 Y275.60217
X65.9235 Y275.58078
X65.80644 Y275.5655
X65.67971 Y275.55633
X65.54329 Y275.55327
G0 Z5.
Y275.80861
G1 Z-0.1 F1250.5
X65.77215 Y275.81574 F5000.
X65.9589 Y275.83713
X66.10354 Y275.87279
X66.16008 Y275.89596
X66.20609 Y275.9227
X66.27501 Y275.98348
X66.32425 Y276.05173
X66.35379 Y276.12744
X66.36363 Y276.21063
X66.35379 Y276.29382
X66.32425 Y276.36954
X66.27501 Y276.43779
X66.20609 Y276.49857
X66.16008 Y276.52658
X66.10354 Y276.55086
X65.9589 Y276.58821
X65.77215 Y276.61061
X65.54329 Y276.61808
X65.31682 Y276.61061
X65.13177 Y276.58821
X64.98814 Y276.55086
X64.93186 Y276.52658
X64.88594 Y276.49857
X64.81463 Y276.43745
X64.7637 Y276.36818
X64.73314 Y276.29077
X64.72296 Y276.2052
X64.73212 Y276.12507
X64.75963 Y276.05308
X64.80547 Y275.98925
X64.86964 Y275.93356
X64.92057 Y275.90428
X64.98101 Y275.8789
X65.13041 Y275.83985
X65.31784 Y275.81642
X65.54329 Y275.80861
G0 Z5.
X46.8482 Y331.31751
G1 Z-0.1 F1250.5
Y324.75802 F5000.
G0 Z5.
X19.26319 Y334.81525
G1 Z-0.1 F1250.5
Y341.41197 F5000.
G0 Z5.
X99.08532 Y341.37624
G1 Z-0.1 F1250.5
Y334.86361 F5000.
G0 Z5.
X126.67033 Y331.35686
G1 Z-0.1 F1250.5
Y324.76555 F5000.
G0 Z5.
X145.36542 Y275.80861
G1 Z-0.1 F1250.5
X145.59428 Y275.81574 F5000.
X145.78103 Y275.83713
X145.92567 Y275.87279
X145.98221 Y275.89596
X146.02821 Y275.9227
X146.09714 Y275.98348
X146.14638 Y276.05173
X146.17592 Y276.12744
X146.18576 Y276.21063
X146.17592 Y276.29382
X146.14638 Y276.36954
X146.09714 Y276.43779
X146.02821 Y276.49857
X145.98221 Y276.52658
X145.92567 Y276.55086
X145.78103 Y276.58821
X145.59428 Y276.61061
X145.36542 Y276.61808
X145.13895 Y276.61061
X144.9539 Y276.58821
X144.81027 Y276.55086
X144.75399 Y276.52658
X144.70807 Y276.49857
X144.63676 Y276.43745
X144.58583 Y276.36818
X144.55527 Y276.29077
X144.54509 Y276.2052
X144.55425 Y276.12507
X144.58176 Y276.05308
X144.6276 Y275.98925
X144.69177 Y275.93356
X144.7427 Y275.90428
X144.80314 Y275.8789
X144.95254 Y275.83985
X145.13997 Y275.81642
X145.36542 Y275.80861
G0 Z5.
Y275.55327
G1 Z-0.1 F1250.5
X145.19701 Y275.55769 F5000.
X145.0449 Y275.57093
X144.90908 Y275.593
X144.78956 Y275.6239
X144.68736 Y275.66634
X144.59806 Y275.71761
X144.52166 Y275.77771
X144.45816 Y275.84664
X144.40587 Y275.92236
X144.36852 Y276.00826
X144.34611 Y276.10435
X144.33864 Y276.21063
X144.34272 Y276.28975
X144.35494 Y276.36411
X144.37531 Y276.43371
X144.40384 Y276.49857
X144.44017 Y276.55799
X144.48397 Y276.61129
X144.53524 Y276.65849
X144.59398 Y276.69958
X144.65748 Y276.73794
X144.72844 Y276.77156
X144.80687 Y276.80042
X144.89278 Y276.82453
X144.98751 Y276.84592
X145.09786 Y276.8612
X145.22383 Y276.87037
X145.36542 Y276.87342
X145.5335 Y276.86867
X145.6846 Y276.85441
X145.81872 Y276.83064
X145.93586 Y276.79736
X146.0384 Y276.7573
X146.12872 Y276.70772
X146.20681 Y276.64864
X146.27269 Y276.58006
X146.3226 Y276.50196
X146.35825 Y276.41436
X146.37964 Y276.31725
X146.38677 Y276.21063
X146.38363 Y276.13924
X146.37421 Y276.07176
X146.35851 Y276.00818
X146.33652 Y275.9485
X146.30825 Y275.89273
X146.27371 Y275.84087
X146.23288 Y275.79291
X146.18576 Y275.74885
X146.11709 Y275.70301
X146.03874 Y275.66329
X145.95071 Y275.62967
X145.85301 Y275.60217
X145.74563 Y275.58078
X145.62857 Y275.5655
X145.50184 Y275.55633
X145.36542 Y275.55327
G0 Z5.
X146.35418 Y275.0752
G1 Z-0.1 F1250.5
Y274.83073 F5000.
X144.78413
X144.87105 Y274.72479
X144.95797 Y274.59169
X145.02996 Y274.45723
X145.08292 Y274.33635
X144.84388
X144.79261 Y274.43617
X144.73659 Y274.52921
X144.67581 Y274.61546
X144.61028 Y274.69491
X144.54033 Y274.76791
X144.47174 Y274.82937
X144.40452 Y274.87928
X144.33864 Y274.91765
Y275.0752
X146.35418
G0 Z5.
Y271.94053
G1 Z-0.1 F1250.5
X144.34408 Y271.41899 F5000.
Y271.69062
X145.66422 Y271.98942
X145.87067 Y272.03832
X146.07711 Y272.07634
X145.70225 Y272.1687
X144.34408 Y272.54899
Y272.86952
X145.36542 Y273.15202
X145.73349 Y273.24573
X146.07711 Y273.30957
X145.63706 Y273.40736
X144.34408 Y273.72245
Y273.99409
X146.35418 Y273.43995
Y273.17918
X144.82759 Y272.7663
X144.58855 Y272.70111
X144.82759 Y272.64135
X146.35418 Y272.21759
Y271.94053
G0 Z0.79375
M30
%
