%
G17 G21 G40 G90 G64 P0.1
(2 1/2 Axis Profiling)
(Endmill 1/4in 6.35mm Carbide Roughing)
T3 M06
S20051 M3
G0 Z3.175
X11.64635 Y143.54603
G1 Z-0.58714 F1002.5
X13.02125 Y150.61611 Z-1.85714 F3007.5
G17
G02 X45.65366 Y259.9526 I593.15347 J-117.49376 F4010.
X68.20715 Y305.75769 I351.80716 J-144.76769
G1 X81.61414 Y326.17381
X89.4333 Y336.12635
X102.63258 Y350.46894
X102.87566 Y350.70624
X111.27987 Y358.07494
X111.74242 Y358.41191
X116.45362 Y361.22122
G02 X122.3175 Y363.0658 I13.10243 J-31.40947
G1 X125.00603 Y363.27567
X125.52457 Y363.23295
X130.64448 Y362.37601
G02 X134.85613 Y360.65492 I-7.71432 J-24.89127
G1 X140.98673 Y356.64721
X141.34026 Y356.33277
X146.52797 Y350.97507
G02 X149.86355 Y346.28871 I-27.33443 J-22.9859
G1 X154.72595 Y337.47045
X160.26768 Y325.67434
X169.5209 Y301.64349
X173.46528 Y288.70153
X179.63796 Y262.53226
X184.00039 Y235.97831
X186.1609 Y218.09832
X189.34504 Y182.29788
X193.81144 Y109.33282
X195.16486 Y72.56741
X196.19384 Y0.32152
G02 X193.02371 Y-2.89869 I-3.17467 J-0.04521
G1 X0.00454 Y-3.175
G02 X-3.17423 Y0.06999 I-0.00454 J3.175
X13.02125 Y150.61611 I815.32387 J-11.56688
G1 Z-3.71429
G02 X45.65366 Y259.9526 I593.15347 J-117.49376
X68.20715 Y305.75769 I351.80716 J-144.76769
G1 X81.61414 Y326.17381
X89.4333 Y336.12635
X102.63258 Y350.46894
X102.87566 Y350.70624
X111.27987 Y358.07494
X111.74242 Y358.41191
X116.45362 Y361.22122
G02 X122.3175 Y363.0658 I13.10243 J-31.40947
G1 X125.00603 Y363.27567
X125.52457 Y363.23295
X130.64448 Y362.37601
G02 X134.85613 Y360.65492 I-7.71432 J-24.89127
G1 X140.98673 Y356.64721
X141.34026 Y356.33277
X146.52797 Y350.97507
G02 X149.86355 Y346.28871 I-27.33443 J-22.9859
G1 X154.72595 Y337.47045
X160.26768 Y325.67434
X169.5209 Y301.64349
X173.46528 Y288.70153
X179.63796 Y262.53226
X184.00039 Y235.97831
X186.1609 Y218.09832
X189.34504 Y182.29788
X193.81144 Y109.33282
X195.16486 Y72.56741
X196.19384 Y0.32152
G02 X193.02371 Y-2.89869 I-3.17467 J-0.04521
G1 X0.00454 Y-3.175
G02 X-3.17423 Y0.06999 I-0.00454 J3.175
X13.02125 Y150.61611 I815.32387 J-11.56688
G1 Z-5.57143
G02 X45.65366 Y259.9526 I593.15347 J-117.49376
X68.20715 Y305.75769 I351.80716 J-144.76769
G1 X81.61414 Y326.17381
X89.4333 Y336.12635
X102.63258 Y350.46894
X102.87566 Y350.70624
X111.27987 Y358.07494
X111.74242 Y358.41191
X116.45362 Y361.22122
G02 X122.3175 Y363.0658 I13.10243 J-31.40947
G1 X125.00603 Y363.27567
X125.52457 Y363.23295
X130.64448 Y362.37601
G02 X134.85613 Y360.65492 I-7.71432 J-24.89127
G1 X140.98673 Y356.64721
X141.34026 Y356.33277
X146.52797 Y350.97507
G02 X149.86355 Y346.28871 I-27.33443 J-22.9859
G1 X154.72595 Y337.47045
X160.26768 Y325.67434
X169.5209 Y301.64349
X173.46528 Y288.70153
X179.63796 Y262.53226
X184.00039 Y235.97831
X186.1609 Y218.09832
X189.34504 Y182.29788
X193.81144 Y109.33282
X195.16486 Y72.56741
X196.19384 Y0.32152
G02 X193.02371 Y-2.89869 I-3.17467 J-0.04521
G1 X0.00454 Y-3.175
G02 X-3.17423 Y0.06999 I-0.00454 J3.175
X13.02125 Y150.61611 I815.32387 J-11.56688
G1 Z-7.42857
G02 X45.65366 Y259.9526 I593.15347 J-117.49376
X68.20715 Y305.75769 I351.80716 J-144.76769
G1 X81.61414 Y326.17381
X89.4333 Y336.12635
X102.63258 Y350.46894
X102.87566 Y350.70624
X111.27987 Y358.07494
X111.74242 Y358.41191
X116.45362 Y361.22122
G02 X122.3175 Y363.0658 I13.10243 J-31.40947
G1 X125.00603 Y363.27567
X125.52457 Y363.23295
X130.64448 Y362.37601
G02 X134.85613 Y360.65492 I-7.71432 J-24.89127
G1 X140.98673 Y356.64721
X141.34026 Y356.33277
X146.52797 Y350.97507
G02 X149.86355 Y346.28871 I-27.33443 J-22.9859
G1 X154.72595 Y337.47045
X160.26768 Y325.67434
X169.5209 Y301.64349
X173.46528 Y288.70153
X179.63796 Y262.53226
X184.00039 Y235.97831
X186.1609 Y218.09832
X189.34504 Y182.29788
X193.81144 Y109.33282
X195.16486 Y72.56741
X196.19384 Y0.32152
G02 X193.02371 Y-2.89869 I-3.17467 J-0.04521
G1 X0.00454 Y-3.175
G02 X-3.17423 Y0.06999 I-0.00454 J3.175
X13.02125 Y150.61611 I815.32387 J-11.56688
G1 Z-9.28571
G02 X45.65366 Y259.9526 I593.15347 J-117.49376
X68.20715 Y305.75769 I351.80716 J-144.76769
G1 X81.61414 Y326.17381
X89.4333 Y336.12635
X102.63258 Y350.46894
X102.87566 Y350.70624
X111.27987 Y358.07494
X111.74242 Y358.41191
X116.45362 Y361.22122
G02 X122.3175 Y363.0658 I13.10243 J-31.40947
G1 X125.00603 Y363.27567
X125.52457 Y363.23295
X130.64448 Y362.37601
G02 X134.85613 Y360.65492 I-7.71432 J-24.89127
G1 X140.98673 Y356.64721
X141.34026 Y356.33277
X146.52797 Y350.97507
G02 X149.86355 Y346.28871 I-27.33443 J-22.9859
G1 X154.72595 Y337.47045
X160.26768 Y325.67434
X169.5209 Y301.64349
X173.46528 Y288.70153
X179.63796 Y262.53226
X184.00039 Y235.97831
X186.1609 Y218.09832
X189.34504 Y182.29788
X193.81144 Y109.33282
X195.16486 Y72.56741
X196.19384 Y0.32152
G02 X193.02371 Y-2.89869 I-3.17467 J-0.04521
G1 X0.00454 Y-3.175
G02 X-3.17423 Y0.06999 I-0.00454 J3.175
X13.02125 Y150.61611 I815.32387 J-11.56688
G1 Z-11.14286
G02 X45.65366 Y259.9526 I593.15347 J-117.49376
X68.20715 Y305.75769 I351.80716 J-144.76769
G1 X81.61414 Y326.17381
X89.4333 Y336.12635
X102.63258 Y350.46894
X102.87566 Y350.70624
X111.27987 Y358.07494
X111.74242 Y358.41191
X116.45362 Y361.22122
G02 X122.3175 Y363.0658 I13.10243 J-31.40947
G1 X125.00603 Y363.27567
X125.52457 Y363.23295
X130.64448 Y362.37601
G02 X134.85613 Y360.65492 I-7.71432 J-24.89127
G1 X140.98673 Y356.64721
X141.34026 Y356.33277
X146.52797 Y350.97507
G02 X149.86355 Y346.28871 I-27.33443 J-22.9859
G1 X154.72595 Y337.47045
X160.26768 Y325.67434
X169.5209 Y301.64349
X173.46528 Y288.70153
X179.63796 Y262.53226
X184.00039 Y235.97831
X186.1609 Y218.09832
X189.34504 Y182.29788
X193.81144 Y109.33282
X195.16486 Y72.56741
X196.19384 Y0.32152
G02 X193.02371 Y-2.89869 I-3.17467 J-0.04521
G1 X0.00454 Y-3.175
G02 X-3.17423 Y0.06999 I-0.00454 J3.175
X13.02125 Y150.61611 I815.32387 J-11.56688
G1 Z-13.
G02 X45.65366 Y259.9526 I593.15347 J-117.49376
X68.20715 Y305.75769 I351.80716 J-144.76769
G1 X81.61414 Y326.17381
X89.4333 Y336.12635
X102.63258 Y350.46894
X102.87566 Y350.70624
X111.27987 Y358.07494
X111.74242 Y358.41191
X116.45362 Y361.22122
G02 X122.3175 Y363.0658 I13.10243 J-31.40947
G1 X125.00603 Y363.27567
X125.52457 Y363.23295
X130.64448 Y362.37601
G02 X134.85613 Y360.65492 I-7.71432 J-24.89127
G1 X140.98673 Y356.64721
X141.34026 Y356.33277
X146.52797 Y350.97507
G02 X149.86355 Y346.28871 I-27.33443 J-22.9859
G1 X154.72595 Y337.47045
X160.26768 Y325.67434
X169.5209 Y301.64349
X173.46528 Y288.70153
X179.63796 Y262.53226
X184.00039 Y235.97831
X186.1609 Y218.09832
X189.34504 Y182.29788
X193.81144 Y109.33282
X195.16486 Y72.56741
X196.19384 Y0.32152
G02 X193.02371 Y-2.89869 I-3.17467 J-0.04521
G1 X0.00454 Y-3.175
G02 X-3.17423 Y0.06999 I-0.00454 J3.175
X13.02125 Y150.61611 I815.32387 J-11.56688
G1 Z-18.
G02 X45.65366 Y259.9526 I593.15347 J-117.49376
X68.20715 Y305.75769 I351.80716 J-144.76769
G1 X81.61414 Y326.17381
X89.4333 Y336.12635
X102.63258 Y350.46894
X102.87566 Y350.70624
X111.27987 Y358.07494
X111.74242 Y358.41191
X116.45362 Y361.22122
G02 X122.3175 Y363.0658 I13.10243 J-31.40947
G1 X125.00603 Y363.27567
X125.52457 Y363.23295
X130.64448 Y362.37601
G02 X134.85613 Y360.65492 I-7.71432 J-24.89127
G1 X140.98673 Y356.64721
X141.34026 Y356.33277
X146.52797 Y350.97507
G02 X149.86355 Y346.28871 I-27.33443 J-22.9859
G1 X154.72595 Y337.47045
X160.26768 Y325.67434
X169.5209 Y301.64349
X173.46528 Y288.70153
X179.63796 Y262.53226
X184.00039 Y235.97831
X186.1609 Y218.09832
X189.34504 Y182.29788
X193.81144 Y109.33282
X195.16486 Y72.56741
X196.19384 Y0.32152
G02 X193.02371 Y-2.89869 I-3.17467 J-0.04521
G1 X0.00454 Y-3.175
G02 X-3.17423 Y0.06999 I-0.00454 J3.175
X13.02125 Y150.61611 I815.32387 J-11.56688
G0 Z3.175
M30
%
