%
G17 G21 G40 G90 G64 P0.1
(2 1/2 Axis Profiling Inside)
(1/16in 1.58mm 1 Flute Carbide Router)
T31 M06
S24000 M3
G0 Z6.
X16.31561 Y5.78046
G1 Z0. F601.5
X16.34881 Y5.77494 Z-0.00593 F1804.5
X16.38983 Y5.76904 Z-0.01324
X16.43098 Y5.76404 Z-0.02055
X16.47222 Y5.75995 Z-0.02786
X16.51355 Y5.75676 Z-0.03517
X16.55493 Y5.75449 Z-0.04247
X16.59635 Y5.75312 Z-0.04978
X16.6378 Y5.75267 Z-0.05709
X19.50314 Y5.7526 Z-0.56233
X19.54451 Y5.75305 Z-0.56962
X19.58586 Y5.75442 Z-0.57692
X19.62716 Y5.75668 Z-0.58421
X19.66841 Y5.75986 Z-0.59151
X19.70958 Y5.76393 Z-0.5988
X19.75065 Y5.76891 Z-0.6061
X19.7916 Y5.77479 Z-0.61339
X19.83241 Y5.78156 Z-0.62068
X19.87306 Y5.78923 Z-0.62798
X19.91353 Y5.79779 Z-0.63527
X19.95381 Y5.80723 Z-0.64257
X19.99387 Y5.81755 Z-0.64986
X20.0337 Y5.82875 Z-0.65716
X20.07327 Y5.84082 Z-0.66445
X20.11256 Y5.85376 Z-0.67175
X20.15156 Y5.86755 Z-0.67904
X20.19025 Y5.8822 Z-0.68634
X20.22861 Y5.89769 Z-0.69363
X20.26662 Y5.91401 Z-0.70093
X20.30427 Y5.93117 Z-0.70822
X20.34153 Y5.94915 Z-0.71551
X20.37838 Y5.96794 Z-0.72281
X20.41482 Y5.98754 Z-0.7301
X20.45081 Y6.00793 Z-0.7374
X20.48635 Y6.0291 Z-0.74469
X20.52142 Y6.05105 Z-0.75199
X20.55599 Y6.07376 Z-0.75928
X20.59006 Y6.09723 Z-0.76658
X20.62361 Y6.12143 Z-0.77387
X20.65662 Y6.14637 Z-0.78116
X20.68908 Y6.17202 Z-0.78846
X20.72096 Y6.19838 Z-0.79575
X20.75226 Y6.22543 Z-0.80305
X20.78296 Y6.25317 Z-0.81034
X20.81304 Y6.28157 Z-0.81764
X20.84249 Y6.31062 Z-0.82493
X20.8713 Y6.34031 Z-0.83223
X20.89945 Y6.37062 Z-0.83952
X20.92693 Y6.40155 Z-0.84682
X20.95372 Y6.43307 Z-0.85411
X20.97982 Y6.46517 Z-0.8614
X21.0052 Y6.49783 Z-0.8687
X21.02986 Y6.53105 Z-0.87599
X21.05379 Y6.56479 Z-0.88329
X21.07698 Y6.59906 Z-0.89058
X21.0994 Y6.63382 Z-0.89788
X21.12106 Y6.66907 Z-0.90517
X21.14194 Y6.70478 Z-0.91247
X21.16203 Y6.74094 Z-0.91976
X21.18133 Y6.77753 Z-0.92706
X21.19982 Y6.81454 Z-0.93435
X21.21749 Y6.85195 Z-0.94164
X21.23433 Y6.88973 Z-0.94894
X21.25035 Y6.92788 Z-0.95623
X21.26552 Y6.96636 Z-0.96353
X21.27985 Y7.00517 Z-0.97082
X21.29332 Y7.04429 Z-0.97812
X21.30593 Y7.08369 Z-0.98541
X21.31768 Y7.12335 Z-0.99271
X21.32855 Y7.16327 Z-1.
G17
G03 X24.04886 Y29.46656 I-110.45973 J24.79024 F2406.
G1 X24.20688 Y35.04844
X24.26084 Y39.25516
G03 X22.37449 Y41.15263 I-1.88635 J0.01108
G1 X10.43309
G03 X8.55273 Y39.11563 I0. J-1.88639
X13.57969 Y10.65388 I123.81856 J7.19424
G1 X14.57686 Y7.7559
X14.88901 Y6.93181
G03 X16.6378 Y5.75267 I1.74879 J0.70724
G1 X19.50314 Y5.7526
G03 X21.32855 Y7.16327 I-0.00001 J1.88638
G1 Z-2.
G03 X24.04886 Y29.46656 I-110.45973 J24.79024
G1 X24.20688 Y35.04844
X24.26084 Y39.25516
G03 X22.37449 Y41.15263 I-1.88635 J0.01108
G1 X10.43309
G03 X8.55273 Y39.11563 I0. J-1.88639
X13.57969 Y10.65388 I123.81856 J7.19424
G1 X14.57686 Y7.7559
X14.88901 Y6.93181
G03 X16.6378 Y5.75267 I1.74879 J0.70724
G1 X19.50314 Y5.7526
G03 X21.32855 Y7.16327 I-0.00001 J1.88638
G0 Z6.
X40.42846 Y12.36595
G1 Z0. F601.5
X40.56121 Y11.86044 Z-0.09216 F1804.5
X41.13267 Y9.96434 Z-0.44134
X42.05972 Y7.22307 Z-0.9516
X42.15397 Y6.96525 Z-1.
G03 X43.91594 Y5.7526 I1.76197 J0.67373 F2406.
G1 X46.08548
G03 X47.91985 Y7.19894 I0.00002 J1.88638
X50.48701 Y34.36701 I-125.73102 J25.58592
G1 X50.51573 Y37.05925
G03 X48.62935 Y38.95291 I-1.88638 J0.00727
G1 X38.33771
G03 X36.45623 Y36.93059 I0. J-1.88639
X41.13267 Y9.96434 I119.04352 J6.75573
G1 X42.05972 Y7.22307
X42.15397 Y6.96525
Z-2.
G03 X43.91594 Y5.7526 I1.76197 J0.67373
G1 X46.08548
G03 X47.91985 Y7.19894 I0.00002 J1.88638
X50.48701 Y34.36701 I-125.73102 J25.58592
G1 X50.51573 Y37.05925
G03 X48.62935 Y38.95291 I-1.88638 J0.00727
G1 X38.33771
G03 X36.45623 Y36.93059 I0. J-1.88639
X41.13267 Y9.96434 I119.04352 J6.75573
G1 X42.05972 Y7.22307
X42.15397 Y6.96525
G0 Z6.
X65.04024 Y12.51808
G1 Z0. F601.5
X65.08201 Y12.3433 Z-0.03169 F1804.5
X65.25252 Y11.66838 Z-0.15443
X65.51915 Y10.65979 Z-0.33839
X65.79707 Y9.66339 Z-0.52078
X65.93905 Y9.17434 Z-0.61057
X66.23304 Y8.20141 Z-0.78979
X66.3826 Y7.726 Z-0.87767
X66.59729 Y7.06627 Z-1.
X66.6125 Y7.01952 F2406.
G03 X68.39426 Y5.7526 I1.78177 J0.61946
G1 X69.1753
G03 X71.0217 Y7.25285 I-0.00004 J1.88638
X72.98598 Y32.27443 I-129.64254 J22.76526
X71.09959 Y34.16424 I-1.88638 J0.00343
G1 X64.0357
G03 X62.15479 Y32.13424 I0. J-1.88638
X66.59729 Y7.06627 I103.20903 J5.36286
G1 Z-2.
X66.6125 Y7.01952
G03 X68.39426 Y5.7526 I1.78177 J0.61946
G1 X69.1753
G03 X71.0217 Y7.25285 I-0.00004 J1.88638
X72.98598 Y32.27443 I-129.64254 J22.76526
X71.09959 Y34.16424 I-1.88638 J0.00343
G1 X64.0357
G03 X62.15479 Y32.13424 I0. J-1.88638
X66.59729 Y7.06627 I103.20903 J5.36286
G0 Z6.
X61.51206 Y46.36265
G1 Z0. F601.5
X61.53285 Y45.02147 Z-0.23651 F1804.5
X61.56412 Y43.61795 Z-0.48405
X61.56568 Y43.57654 Z-0.49136
X61.56815 Y43.53516 Z-0.49867
X61.57153 Y43.49385 Z-0.50598
X61.57582 Y43.45262 Z-0.51329
X61.58101 Y43.4115 Z-0.5206
X61.58711 Y43.3705 Z-0.5279
X61.5941 Y43.32965 Z-0.53521
X61.60199 Y43.28896 Z-0.54252
X61.61077 Y43.24845 Z-0.54983
X61.62044 Y43.20815 Z-0.55714
X61.63099 Y43.16806 Z-0.56445
X61.64243 Y43.12822 Z-0.57176
X61.65473 Y43.08864 Z-0.57906
X61.6679 Y43.04934 Z-0.58637
X61.68193 Y43.01034 Z-0.59368
X61.69682 Y42.97166 Z-0.60099
X61.71255 Y42.93331 Z-0.6083
X61.72912 Y42.89532 Z-0.61561
X61.74652 Y42.8577 Z-0.62292
X61.76474 Y42.82047 Z-0.63022
X61.78377 Y42.78365 Z-0.63753
X61.80361 Y42.74726 Z-0.64484
X61.82425 Y42.71131 Z-0.65215
X61.84567 Y42.67583 Z-0.65946
X61.86786 Y42.64082 Z-0.66677
X61.89082 Y42.60631 Z-0.67408
X61.91453 Y42.57231 Z-0.68138
X61.93899 Y42.53885 Z-0.68869
X61.96417 Y42.50592 Z-0.696
X61.99007 Y42.47356 Z-0.70331
X62.01667 Y42.44178 Z-0.71062
X62.04397 Y42.41059 Z-0.71793
X62.07194 Y42.38 Z-0.72523
X62.10058 Y42.35004 Z-0.73254
X62.12987 Y42.32071 Z-0.73985
X62.1598 Y42.29204 Z-0.74716
X62.19035 Y42.26403 Z-0.75447
X62.22151 Y42.23669 Z-0.76178
X62.25326 Y42.21005 Z-0.76909
X62.28559 Y42.18411 Z-0.77639
X62.31848 Y42.15889 Z-0.7837
X62.35192 Y42.1344 Z-0.79101
X62.38589 Y42.11065 Z-0.79832
X62.42037 Y42.08765 Z-0.80563
X62.45535 Y42.06541 Z-0.81294
X62.49081 Y42.04395 Z-0.82025
X62.52673 Y42.02327 Z-0.82755
X62.5631 Y42.00338 Z-0.83486
X62.59989 Y41.9843 Z-0.84217
X62.6371 Y41.96603 Z-0.84948
X62.6747 Y41.94859 Z-0.85679
X62.71267 Y41.93197 Z-0.8641
X62.751 Y41.9162 Z-0.87141
X62.78966 Y41.90127 Z-0.87871
X62.82865 Y41.88719 Z-0.88602
X62.86793 Y41.87397 Z-0.89333
X62.9075 Y41.86162 Z-0.90064
X62.94732 Y41.85014 Z-0.90795
X62.9874 Y41.83954 Z-0.91526
X63.02769 Y41.82982 Z-0.92256
X63.06818 Y41.82099 Z-0.92987
X63.10887 Y41.81305 Z-0.93718
X63.14971 Y41.806 Z-0.94449
X63.1907 Y41.79986 Z-0.9518
X63.23182 Y41.79462 Z-0.95911
X63.27304 Y41.79028 Z-0.96642
X63.31435 Y41.78685 Z-0.97372
X63.35572 Y41.78433 Z-0.98103
X63.39713 Y41.78271 Z-0.98834
X63.43858 Y41.78201 Z-0.99565
X63.46325 Z-1.
X71.02656 Y41.78205 F2406.
G03 X72.91254 Y43.70792 I0. J1.88638
X72.24517 Y64.85617 I-844.38916 J-16.06149
X70.36055 Y66.66087 I-1.88462 J-0.08168
G1 X63.75021
G03 X61.8666 Y64.87682 I-0.00001 J-1.88638
X61.56412 Y43.61795 I296.02115 J-14.8435
X63.43858 Y41.78201 I1.88571 J0.05041
G1 X63.46325
Z-2.
X71.02656 Y41.78205
G03 X72.91254 Y43.70792 I0. J1.88638
X72.24517 Y64.85617 I-844.38916 J-16.06149
X70.36055 Y66.66087 I-1.88462 J-0.08168
G1 X63.75021
G03 X61.8666 Y64.87682 I-0.00001 J-1.88638
X61.56412 Y43.61795 I296.02115 J-14.8435
X63.43858 Y41.78201 I1.88571 J0.05041
G1 X63.46325
G0 Z6.
X88.63735 Y57.91587
G1 Z0. F601.5
X88.6464 Y56.9874 Z-0.16372 F1804.5
X88.67831 Y55.00174 Z-0.51389
X88.72181 Y53.15995 Z-0.83874
X88.74846 Y52.24579 Z-1.
G03 X90.6337 Y50.42489 I1.88524 J0.06548 F2406.
G1 X99.48644 Y50.42496
G03 X101.37256 Y52.34292 I0. J1.88638
X100.73834 Y73.48741 I-862.1991 J-15.27952
X98.87332 Y75.30375 I-1.88534 J-0.07019
G1 X90.78319 Y75.30371
G03 X88.89884 Y73.50492 I0. J-1.88638
X88.74846 Y52.24579 I301.54062 J-12.76313
G1 Z-2.
G03 X90.6337 Y50.42489 I1.88524 J0.06548
G1 X99.48644 Y50.42496
G03 X101.37256 Y52.34292 I0. J1.88638
X100.73834 Y73.48741 I-862.1991 J-15.27952
X98.87332 Y75.30375 I-1.88534 J-0.07019
G1 X90.78319 Y75.30371
G03 X88.89884 Y73.50492 I0. J-1.88638
X88.74846 Y52.24579 I301.54062 J-12.76313
G0 Z6.
X124.96237 Y71.44953
G1 Z0. F601.5
X127.75189 Z-0.49187 F1804.5
X127.79305 Y71.44908 Z-0.49913
X127.8342 Y71.44774 Z-0.50638
X127.87531 Y71.44549 Z-0.51364
X127.91635 Y71.44235 Z-0.5209
X127.95732 Y71.43831 Z-0.52816
X127.9982 Y71.43338 Z-0.53542
X128.03895 Y71.42756 Z-0.54268
X128.07957 Y71.42086 Z-0.54994
X128.12003 Y71.41326 Z-0.5572
X128.16032 Y71.40479 Z-0.56446
X128.20041 Y71.39544 Z-0.57172
X128.24029 Y71.38521 Z-0.57897
X128.27993 Y71.37412 Z-0.58623
X128.31933 Y71.36217 Z-0.59349
X128.35845 Y71.34936 Z-0.60075
X128.39729 Y71.3357 Z-0.60801
X128.43581 Y71.32119 Z-0.61527
X128.47402 Y71.30585 Z-0.62253
X128.51187 Y71.28967 Z-0.62979
X128.54937 Y71.27268 Z-0.63705
X128.58649 Y71.25487 Z-0.64431
X128.62321 Y71.23625 Z-0.65157
X128.65951 Y71.21684 Z-0.65883
X128.69538 Y71.19664 Z-0.66608
X128.7308 Y71.17566 Z-0.67334
X128.76576 Y71.15391 Z-0.6806
X128.80023 Y71.13141 Z-0.68786
X128.83421 Y71.10816 Z-0.69512
X128.86766 Y71.08417 Z-0.70238
X128.90059 Y71.05946 Z-0.70964
X128.93297 Y71.03404 Z-0.7169
X128.96479 Y71.00792 Z-0.72416
X128.99603 Y70.9811 Z-0.73142
X129.02668 Y70.95362 Z-0.73867
X129.05671 Y70.92547 Z-0.74593
X129.08613 Y70.89667 Z-0.75319
X129.11492 Y70.86723 Z-0.76045
X129.14305 Y70.83718 Z-0.76771
X129.17052 Y70.80652 Z-0.77497
X129.19732 Y70.77526 Z-0.78223
X129.22342 Y70.74343 Z-0.78949
X129.24883 Y70.71104 Z-0.79675
X129.27352 Y70.6781 Z-0.80401
X129.29749 Y70.64463 Z-0.81127
X129.32073 Y70.61064 Z-0.81852
X129.34321 Y70.57616 Z-0.82578
X129.36494 Y70.54119 Z-0.83304
X129.3859 Y70.50575 Z-0.8403
X129.40608 Y70.46987 Z-0.84756
X129.42547 Y70.43356 Z-0.85482
X129.44407 Y70.39683 Z-0.86208
X129.46186 Y70.3597 Z-0.86934
X129.47883 Y70.3222 Z-0.8766
X129.49499 Y70.28433 Z-0.88386
X129.51031 Y70.24612 Z-0.89111
X129.52479 Y70.20759 Z-0.89837
X129.53843 Y70.16874 Z-0.90563
X129.55122 Y70.12961 Z-0.91289
X129.56316 Y70.09021 Z-0.92015
X129.57423 Y70.05056 Z-0.92741
X129.58443 Y70.01068 Z-0.93467
X129.59376 Y69.97058 Z-0.94193
X129.60221 Y69.93029 Z-0.94919
X129.60978 Y69.88982 Z-0.95645
X129.61647 Y69.8492 Z-0.96371
X129.62227 Y69.80844 Z-0.97096
X129.62718 Y69.76757 Z-0.97822
X129.63119 Y69.7266 Z-0.98548
X129.63431 Y69.68555 Z-0.99274
X129.63653 Y69.64444 Z-1.
G03 X127.75189 Y71.44953 I-1.88463 J-0.08129 F2406.
G1 X117.68183
G03 X115.79748 Y69.65074 I0. J-1.88638
X115.6471 Y48.39161 I301.54063 J-12.76313
X117.53235 Y46.57071 I1.88525 J0.06548
G1 X128.38508 Y46.57077
G03 X130.2712 Y48.48874 I0. J1.88639
X129.6371 Y69.63059 I-862.24852 J-15.28064
G0 Z6.
X129.63653 Y69.64444
G1 Z-2. F601.5
G03 X127.75189 Y71.44953 I-1.88463 J-0.08129 F2406.
G1 X117.68183
G03 X115.79748 Y69.65074 I0. J-1.88638
X115.6471 Y48.39161 I301.54063 J-12.76313
X117.53235 Y46.57071 I1.88525 J0.06548
G1 X128.38508 Y46.57077
G03 X130.2712 Y48.48874 I0. J1.88639
X129.6371 Y69.63059 I-862.24852 J-15.28064
G0 Z6.
X128.19097 Y96.54144
G1 Z0. F601.5
X128.11291 Y97.7234 Z-0.20887 F1804.5
X127.94574 Y100.21186 Z-0.64864
X127.81005 Y102.19991 Z-1.
G03 X125.92887 Y103.94616 I-1.88118 J-0.14014 F2406.
G1 X120.02201
G03 X118.1451 Y102.24873 I-0.00002 J-1.88639
X116.39089 Y81.07444 I592.61909 J-59.75599
X118.27342 Y79.06733 I1.88252 J-0.12072
G1 X127.22485
G03 X129.10872 Y81.05108 I0. J1.88639
X127.81005 Y102.19991 I-1189.12937 J-62.40606
G1 Z-2.
G03 X125.92887 Y103.94616 I-1.88118 J-0.14014
G1 X120.02201
G03 X118.1451 Y102.24873 I-0.00002 J-1.88639
X116.39089 Y81.07444 I592.61909 J-59.75599
X118.27342 Y79.06733 I1.88252 J-0.12072
G1 X127.22485
G03 X129.10872 Y81.05108 I0. J1.88639
X127.81005 Y102.19991 I-1189.12937 J-62.40606
G0 Z6.
X122.54872 Y111.56396
G1 Z0. F601.5
X125.12844 Z-0.45487 F1804.5
X125.16966 Y111.56441 Z-0.46214
X125.21086 Y111.56576 Z-0.46941
X125.25202 Y111.56801 Z-0.47668
X125.29312 Y111.57116 Z-0.48395
X125.33414 Y111.57521 Z-0.49122
X125.37506 Y111.58015 Z-0.49848
X125.41587 Y111.58598 Z-0.50575
X125.45654 Y111.59271 Z-0.51302
X125.49705 Y111.60032 Z-0.52029
X125.53739 Y111.60882 Z-0.52756
X125.57753 Y111.61819 Z-0.53483
X125.61745 Y111.62844 Z-0.54209
X125.65715 Y111.63956 Z-0.54936
X125.69659 Y111.65155 Z-0.55663
X125.73575 Y111.66439 Z-0.5639
X125.77463 Y111.67809 Z-0.57117
X125.8132 Y111.69263 Z-0.57844
X125.85145 Y111.70801 Z-0.5857
X125.88935 Y111.72422 Z-0.59297
X125.92688 Y111.74126 Z-0.60024
X125.96403 Y111.75912 Z-0.60751
X126.00079 Y111.77778 Z-0.61478
X126.03713 Y111.79724 Z-0.62205
X126.07303 Y111.81749 Z-0.62931
X126.10848 Y111.83852 Z-0.63658
X126.14347 Y111.86032 Z-0.64385
X126.17797 Y111.88287 Z-0.65112
X126.21197 Y111.90618 Z-0.65839
X126.24545 Y111.93022 Z-0.66566
X126.2784 Y111.955 Z-0.67293
X126.3108 Y111.98048 Z-0.68019
X126.34263 Y112.00666 Z-0.68746
X126.37389 Y112.03354 Z-0.69473
X126.40455 Y112.06109 Z-0.702
X126.4346 Y112.08931 Z-0.70927
X126.46403 Y112.11817 Z-0.71654
X126.49282 Y112.14767 Z-0.7238
X126.52096 Y112.1778 Z-0.73107
X126.54843 Y112.20853 Z-0.73834
X126.57522 Y112.23985 Z-0.74561
X126.60133 Y112.27175 Z-0.75288
X126.62673 Y112.30421 Z-0.76015
X126.65142 Y112.33723 Z-0.76741
X126.67537 Y112.37077 Z-0.77468
X126.69859 Y112.40483 Z-0.78195
X126.72106 Y112.43939 Z-0.78922
X126.74277 Y112.47443 Z-0.79649
X126.76371 Y112.50993 Z-0.80376
X126.78387 Y112.54589 Z-0.81102
X126.80324 Y112.58228 Z-0.81829
X126.82181 Y112.61908 Z-0.82556
X126.83957 Y112.65628 Z-0.83283
X126.85651 Y112.69386 Z-0.8401
X126.87262 Y112.7318 Z-0.84737
X126.88791 Y112.77008 Z-0.85463
X126.90235 Y112.80869 Z-0.8619
X126.91595 Y112.8476 Z-0.86917
X126.92869 Y112.8868 Z-0.87644
X126.94058 Y112.92627 Z-0.88371
X126.9516 Y112.96599 Z-0.89098
X126.96174 Y113.00594 Z-0.89824
X126.97102 Y113.04611 Z-0.90551
X126.97941 Y113.08647 Z-0.91278
X126.98692 Y113.127 Z-0.92005
X126.99354 Y113.16768 Z-0.92732
X126.99927 Y113.2085 Z-0.93459
X127.00411 Y113.24944 Z-0.94185
X127.00805 Y113.29047 Z-0.94912
X127.01109 Y113.33158 Z-0.95639
X127.01324 Y113.37274 Z-0.96366
X127.01449 Y113.41395 Z-0.97093
X127.01483 Y113.45517 Z-0.9782
X127.01428 Y113.49638 Z-0.98546
X127.01282 Y113.53758 Z-0.99273
X127.01046 Y113.57873 Z-1.
G03 X127.00947 Y113.59249 I-1.88201 J-0.12839 F2406.
X125.62048 Y132.50513 I-5178.68229 J-370.82921
X121.87198 Y132.6359 I-1.88134 J-0.13786
X119.39124 Y113.67072 I747.66509 J-107.44325
X121.2647 Y111.56396 I1.87346 J-0.22038
G1 X125.12844
G03 X127.01046 Y113.57873 I0.00001 J1.88638
G1 Z-2.
G03 X127.00947 Y113.59249 I-1.88201 J-0.12839
X125.62048 Y132.50513 I-5178.68229 J-370.82921
X121.87198 Y132.6359 I-1.88134 J-0.13786
X119.39124 Y113.67072 I747.66509 J-107.44325
X121.2647 Y111.56396 I1.87346 J-0.22038
G1 X125.12844
G03 X127.01046 Y113.57873 I0.00001 J1.88638
G0 Z6.
X147.72808 Y106.79326
G1 Z0. F601.5
X147.77299 Y106.79899 Z-0.00798 F1804.5
X147.89053 Y106.82165 Z-0.02909
X148.0064 Y106.85171 Z-0.0502
X148.12012 Y106.88906 Z-0.0713
X148.23125 Y106.93355 Z-0.09241
X148.33933 Y106.985 Z-0.11352
X148.44394 Y107.04319 Z-0.13463
X148.54463 Y107.10791 Z-0.15573
X148.64103 Y107.17888 Z-0.17684
X148.73272 Y107.25583 Z-0.19795
X148.81936 Y107.33843 Z-0.21905
X148.90058 Y107.42636 Z-0.24016
X148.97605 Y107.51927 Z-0.26127
X149.04549 Y107.61678 Z-0.28237
X149.1086 Y107.71849 Z-0.30348
X149.16513 Y107.824 Z-0.32459
X149.21486 Y107.93289 Z-0.34569
X149.25758 Y108.04471 Z-0.3668
X149.29312 Y108.15901 Z-0.38791
X149.32134 Y108.27534 Z-0.40901
X149.34213 Y108.39322 Z-0.43012
X149.35539 Y108.51218 Z-0.45123
X149.36109 Y108.63175 Z-0.47233
X149.35919 Y108.75144 Z-0.49344
X149.3497 Y108.87077 Z-0.51455
X149.33267 Y108.98925 Z-0.53565
X149.30815 Y109.10641 Z-0.55676
X149.27625 Y109.22179 Z-0.57787
X149.2371 Y109.33491 Z-0.59897
X149.19086 Y109.44531 Z-0.62008
X149.1377 Y109.55257 Z-0.64119
X149.07785 Y109.65623 Z-0.66229
X149.01155 Y109.75589 Z-0.6834
X148.93905 Y109.85115 Z-0.70451
X148.86066 Y109.94161 Z-0.72561
X148.7767 Y110.02692 Z-0.74672
X148.68749 Y110.10673 Z-0.76783
X148.59339 Y110.18073 Z-0.78893
X148.4948 Y110.24861 Z-0.81004
X148.3921 Y110.3101 Z-0.83115
X148.2857 Y110.36495 Z-0.85225
X148.17604 Y110.41294 Z-0.87336
X148.06356 Y110.45388 Z-0.89447
X147.9487 Y110.4876 Z-0.91557
X147.83194 Y110.51398 Z-0.93668
X147.71374 Y110.53289 Z-0.95779
X147.59458 Y110.54427 Z-0.97889
X147.47494 Y110.54806 Z-1.
G03 Y106.7753 I0. J-1.88638 F2406.
Y110.54806 I0. J1.88638
G1 Z-2.
G03 Y106.7753 I0. J-1.88638
Y110.54806 I0. J1.88638
G0 Z6.
X149.05877 Y98.99159
G1 Z0. F601.5
X149.04218 Y98.99907 Z-0.00321 F1804.5
X149.00447 Y99.0151 Z-0.01044
X148.96641 Y99.03031 Z-0.01766
X148.92804 Y99.04468 Z-0.02489
X148.88936 Y99.05822 Z-0.03211
X148.8504 Y99.07092 Z-0.03934
X148.81117 Y99.08277 Z-0.04656
X148.77169 Y99.09376 Z-0.05379
X148.73198 Y99.10389 Z-0.06102
X148.69207 Y99.11316 Z-0.06824
X148.65196 Y99.12155 Z-0.07547
X148.61167 Y99.12908 Z-0.08269
X148.57124 Y99.13573 Z-0.08992
X148.53067 Y99.14149 Z-0.09714
X148.48998 Y99.14638 Z-0.10437
X148.4492 Y99.15038 Z-0.1116
X148.40833 Y99.15349 Z-0.11882
X148.36742 Y99.15571 Z-0.12605
X148.32646 Y99.15705 Z-0.13327
X148.28548 Y99.1575 Z-0.1405
X146.16154 Z-0.51501
X146.12049 Y99.15705 Z-0.52224
X146.07946 Y99.15571 Z-0.52948
X146.03847 Y99.15348 Z-0.53672
X145.99754 Y99.15035 Z-0.54396
X145.95668 Y99.14634 Z-0.5512
X145.91592 Y99.14144 Z-0.55844
X145.87528 Y99.13565 Z-0.56568
X145.83477 Y99.12898 Z-0.57292
X145.79442 Y99.12143 Z-0.58015
X145.75424 Y99.113 Z-0.58739
X145.71425 Y99.1037 Z-0.59463
X145.67448 Y99.09353 Z-0.60187
X145.63494 Y99.0825 Z-0.60911
X145.59564 Y99.07061 Z-0.61635
X145.55662 Y99.05787 Z-0.62359
X145.51788 Y99.04428 Z-0.63082
X145.47944 Y99.02986 Z-0.63806
X145.44133 Y99.0146 Z-0.6453
X145.40356 Y98.99851 Z-0.65254
X145.36615 Y98.98161 Z-0.65978
X145.32912 Y98.96389 Z-0.66702
X145.29248 Y98.94538 Z-0.67426
X145.25625 Y98.92607 Z-0.6815
X145.22045 Y98.90598 Z-0.68873
X145.18509 Y98.88511 Z-0.69597
X145.1502 Y98.86348 Z-0.70321
X145.11579 Y98.84109 Z-0.71045
X145.08187 Y98.81797 Z-0.71769
X145.04847 Y98.7941 Z-0.72493
X145.01559 Y98.76952 Z-0.73217
X144.98325 Y98.74423 Z-0.73941
X144.95147 Y98.71824 Z-0.74665
X144.92027 Y98.69156 Z-0.75388
X144.88965 Y98.66421 Z-0.76112
X144.85964 Y98.63621 Z-0.76836
X144.83024 Y98.60755 Z-0.7756
X144.80147 Y98.57826 Z-0.78284
X144.77335 Y98.54836 Z-0.79008
X144.74588 Y98.51785 Z-0.79732
X144.71909 Y98.48674 Z-0.80456
X144.69297 Y98.45507 Z-0.81179
X144.66756 Y98.42283 Z-0.81903
X144.64285 Y98.39004 Z-0.82627
X144.61886 Y98.35673 Z-0.83351
X144.5956 Y98.3229 Z-0.84075
X144.57308 Y98.28858 Z-0.84799
X144.55132 Y98.25377 Z-0.85523
X144.53031 Y98.21849 Z-0.86246
X144.51008 Y98.18277 Z-0.8697
X144.49063 Y98.14662 Z-0.87694
X144.47198 Y98.11005 Z-0.88418
X144.45412 Y98.07308 Z-0.89142
X144.43707 Y98.03574 Z-0.89866
X144.42084 Y97.99803 Z-0.9059
X144.40544 Y97.95998 Z-0.91314
X144.39086 Y97.9216 Z-0.92037
X144.37713 Y97.88291 Z-0.92761
X144.36423 Y97.84394 Z-0.93485
X144.3522 Y97.80469 Z-0.94209
X144.34101 Y97.76519 Z-0.94933
X144.33069 Y97.72545 Z-0.95657
X144.32124 Y97.6855 Z-0.96381
X144.31265 Y97.64536 Z-0.97105
X144.30495 Y97.60504 Z-0.97828
X144.29812 Y97.56455 Z-0.98552
X144.29218 Y97.52393 Z-0.99276
X144.28712 Y97.48319 Z-1.
G03 X142.36727 Y76.29172 I572.21658 J-62.52273 F2406.
X144.2494 Y74.27867 I1.88213 J-0.12666
G1 X149.62595
G03 X151.51007 Y76.25739 I0. J1.88639
X150.167 Y97.40649 I-1525.08403 J-86.23315
X148.28548 Y99.1575 I-1.88152 J-0.13538
G1 X146.16154
G03 X144.28712 Y97.48319 I0. J-1.88639
G1 Z-2.
G03 X142.36727 Y76.29172 I572.21658 J-62.52273
X144.2494 Y74.27867 I1.88213 J-0.12666
G1 X149.62595
G03 X151.51007 Y76.25739 I0. J1.88639
X150.167 Y97.40649 I-1525.08403 J-86.23315
X148.28548 Y99.1575 I-1.88152 J-0.13538
G1 X146.16154
G03 X144.28712 Y97.48319 I0. J-1.88639
G0 Z6.
X146.23281 Y139.36952
G1 Z0. F601.5
X146.27652 Y139.21159 Z-0.02889 F1804.5
X146.41732 Y138.72487 Z-0.11823
X146.43304 Y138.67687 Z-0.12714
X146.45005 Y138.62931 Z-0.13605
X146.46832 Y138.58221 Z-0.14495
X146.48784 Y138.53563 Z-0.15386
X146.50861 Y138.48958 Z-0.16277
X146.5306 Y138.44411 Z-0.17167
X146.5538 Y138.39924 Z-0.18058
X146.5782 Y138.35501 Z-0.18949
X146.60377 Y138.31145 Z-0.19839
X146.63049 Y138.26858 Z-0.2073
X146.65836 Y138.22645 Z-0.21621
X146.68734 Y138.18508 Z-0.22511
X146.71742 Y138.1445 Z-0.23402
X146.74858 Y138.10474 Z-0.24293
X146.78079 Y138.06583 Z-0.25184
X146.81403 Y138.0278 Z-0.26074
X146.84827 Y137.99067 Z-0.26965
X146.8835 Y137.95446 Z-0.27856
X146.91969 Y137.91922 Z-0.28746
X146.9568 Y137.88496 Z-0.29637
X146.99482 Y137.8517 Z-0.30528
X147.03372 Y137.81947 Z-0.31418
X147.07346 Y137.7883 Z-0.32309
X147.11403 Y137.7582 Z-0.332
X147.15539 Y137.7292 Z-0.3409
X147.19751 Y137.70132 Z-0.34981
X147.24036 Y137.67457 Z-0.35872
X147.28391 Y137.64898 Z-0.36762
X147.32813 Y137.62457 Z-0.37653
X147.37299 Y137.60135 Z-0.38544
X147.41845 Y137.57933 Z-0.39434
X147.46449 Y137.55855 Z-0.40325
X147.51107 Y137.539 Z-0.41216
X147.55815 Y137.52071 Z-0.42106
X147.60571 Y137.50368 Z-0.42997
X147.6537 Y137.48794 Z-0.43888
X147.7021 Y137.47348 Z-0.44778
X147.75087 Y137.46033 Z-0.45669
X147.79998 Y137.44848 Z-0.4656
X147.84938 Y137.43796 Z-0.4745
X147.89905 Y137.42876 Z-0.48341
X147.94895 Y137.4209 Z-0.49232
X147.99904 Y137.41437 Z-0.50122
X148.04928 Y137.40919 Z-0.51013
X148.09965 Y137.40535 Z-0.51904
X148.1501 Y137.40287 Z-0.52794
X148.2006 Y137.40174 Z-0.53685
X148.25111 Y137.40195 Z-0.54576
X148.3016 Y137.40353 Z-0.55466
X148.35203 Y137.40645 Z-0.56357
X148.40236 Y137.41072 Z-0.57248
X148.45256 Y137.41634 Z-0.58138
X148.50259 Y137.4233 Z-0.59029
X148.55242 Y137.4316 Z-0.5992
X148.602 Y137.44122 Z-0.6081
X148.65131 Y137.45218 Z-0.61701
X148.70031 Y137.46445 Z-0.62592
X148.74897 Y137.47802 Z-0.63482
X148.79724 Y137.4929 Z-0.64373
X148.8451 Y137.50906 Z-0.65264
X148.8925 Y137.5265 Z-0.66154
X148.93943 Y137.5452 Z-0.67045
X148.98583 Y137.56515 Z-0.67936
X149.03169 Y137.58633 Z-0.68827
X149.07696 Y137.60874 Z-0.69717
X149.12162 Y137.63234 Z-0.70608
X149.16562 Y137.65714 Z-0.71498
X149.20895 Y137.68311 Z-0.72389
X149.25157 Y137.71022 Z-0.7328
X149.29344 Y137.73847 Z-0.74171
X149.33455 Y137.76783 Z-0.75061
X149.37485 Y137.79828 Z-0.75952
X149.41432 Y137.8298 Z-0.76843
X149.45294 Y137.86236 Z-0.77733
X149.49067 Y137.89595 Z-0.78624
X149.52749 Y137.93053 Z-0.79515
X149.56336 Y137.96609 Z-0.80405
X149.59828 Y138.00259 Z-0.81296
X149.6322 Y138.04002 Z-0.82187
X149.66511 Y138.07834 Z-0.83077
X149.69698 Y138.11753 Z-0.83968
X149.72779 Y138.15756 Z-0.84859
X149.75752 Y138.1984 Z-0.85749
X149.78614 Y138.24002 Z-0.8664
X149.81364 Y138.28239 Z-0.87531
X149.83999 Y138.32548 Z-0.88421
X149.86518 Y138.36926 Z-0.89312
X149.8892 Y138.41371 Z-0.90203
X149.91201 Y138.45878 Z-0.91093
X149.9336 Y138.50444 Z-0.91984
X149.95397 Y138.55066 Z-0.92875
X149.97309 Y138.59742 Z-0.93765
X149.99095 Y138.64467 Z-0.94656
X150.00754 Y138.69238 Z-0.95547
X150.02285 Y138.74051 Z-0.96437
X150.03686 Y138.78904 Z-0.97328
X150.04957 Y138.83793 Z-0.98219
X150.06097 Y138.88714 Z-0.99109
X150.07104 Y138.93664 Z-1.
G03 X151.50811 Y159.63832 I-124.60623 J19.05065 F2406.
X149.62173 Y161.5283 I-1.88638 J0.0036
G1 X144.88386
G03 X143.00238 Y159.50589 I0. J-1.88638
X146.41732 Y138.72487 I99.86362 J5.73945
X150.07104 Y138.93664 I1.80035 J0.56317
G1 Z-2.
G03 X151.50811 Y159.63832 I-124.60623 J19.05065
X149.62173 Y161.5283 I-1.88638 J0.0036
G1 X144.88386
G03 X143.00238 Y159.50589 I0. J-1.88638
X146.41732 Y138.72487 I99.86362 J5.73945
X150.07104 Y138.93664 I1.80035 J0.56317
G0 Z6.
X109.37595 Y144.2967
G1 Z0. F601.5
X109.3768 Y144.25283 Z-0.00774 F1804.5
X109.38554 Y143.87539 Z-0.07431
X109.40042 Y143.30914 Z-0.17419
X109.41743 Y142.74316 Z-0.27403
X109.42664 Y142.46347 Z-0.32337
X109.42891 Y142.43064 Z-0.32918
X109.43207 Y142.39788 Z-0.33498
X109.43611 Y142.36522 Z-0.34078
X109.44104 Y142.33267 Z-0.34659
X109.44684 Y142.30028 Z-0.35239
X109.45352 Y142.26805 Z-0.35819
X109.46107 Y142.23602 Z-0.364
X109.46948 Y142.2042 Z-0.3698
X109.47875 Y142.17261 Z-0.3756
X109.48887 Y142.1413 Z-0.38141
X109.49983 Y142.11027 Z-0.38721
X109.51163 Y142.07954 Z-0.39301
X109.52426 Y142.04915 Z-0.39882
X109.5377 Y142.01911 Z-0.40462
X109.55195 Y141.98944 Z-0.41042
X109.567 Y141.96017 Z-0.41623
X109.58284 Y141.93132 Z-0.42203
X109.59945 Y141.9029 Z-0.42783
X109.61682 Y141.87495 Z-0.43364
X109.63495 Y141.84748 Z-0.43944
X109.65381 Y141.8205 Z-0.44524
X109.67339 Y141.79405 Z-0.45105
X109.69368 Y141.76814 Z-0.45685
X109.71466 Y141.74278 Z-0.46265
X109.73633 Y141.71801 Z-0.46846
X109.75865 Y141.69383 Z-0.47426
X109.78162 Y141.67026 Z-0.48006
X109.80523 Y141.64732 Z-0.48587
X109.82944 Y141.62502 Z-0.49167
X109.85425 Y141.6034 Z-0.49747
X109.87963 Y141.58245 Z-0.50328
X109.90557 Y141.56219 Z-0.50908
X109.93205 Y141.54264 Z-0.51488
X109.95905 Y141.52382 Z-0.52068
X109.98655 Y141.50574 Z-0.52649
X110.01452 Y141.4884 Z-0.53229
X110.04296 Y141.47183 Z-0.5381
X110.07183 Y141.45603 Z-0.5439
X110.10112 Y141.44102 Z-0.5497
X110.13081 Y141.42681 Z-0.55551
X110.16087 Y141.41341 Z-0.56131
X110.19128 Y141.40083 Z-0.56711
X110.22202 Y141.38907 Z-0.57292
X110.25307 Y141.37815 Z-0.57872
X110.2844 Y141.36807 Z-0.58452
X110.31599 Y141.35885 Z-0.59033
X110.34782 Y141.35048 Z-0.59613
X110.37987 Y141.34297 Z-0.60193
X110.41211 Y141.33634 Z-0.60774
X110.44451 Y141.33058 Z-0.61354
X110.47706 Y141.3257 Z-0.61934
X110.50973 Y141.32171 Z-0.62514
X110.54249 Y141.31859 Z-0.63095
X110.57533 Y141.31637 Z-0.63675
X110.60821 Y141.31503 Z-0.64255
X110.64112 Y141.31459 Z-0.64836
X110.72769 Z-0.66362
X110.76058 Y141.31503 Z-0.66942
X110.79344 Y141.31637 Z-0.67522
X110.82626 Y141.31859 Z-0.68102
X110.859 Y141.3217 Z-0.68682
X110.89165 Y141.32569 Z-0.69262
X110.92418 Y141.33056 Z-0.69842
X110.95656 Y141.33631 Z-0.70422
X110.98878 Y141.34294 Z-0.71002
X111.02081 Y141.35043 Z-0.71582
X111.05262 Y141.35879 Z-0.72162
X111.08419 Y141.368 Z-0.72742
X111.11551 Y141.37807 Z-0.73322
X111.14654 Y141.38898 Z-0.73902
X111.17726 Y141.40072 Z-0.74482
X111.20766 Y141.41329 Z-0.75062
X111.2377 Y141.42667 Z-0.75642
X111.26737 Y141.44087 Z-0.76222
X111.29665 Y141.45586 Z-0.76802
X111.32551 Y141.47163 Z-0.77382
X111.35393 Y141.48819 Z-0.77961
X111.3819 Y141.5055 Z-0.78541
X111.40938 Y141.52356 Z-0.79121
X111.43637 Y141.54236 Z-0.79701
X111.46284 Y141.56189 Z-0.80281
X111.48878 Y141.58212 Z-0.80861
X111.51415 Y141.60304 Z-0.81441
X111.53895 Y141.62465 Z-0.82021
X111.56316 Y141.64691 Z-0.82601
X111.58676 Y141.66983 Z-0.83181
X111.60973 Y141.69337 Z-0.83761
X111.63205 Y141.71752 Z-0.84341
X111.65371 Y141.74228 Z-0.84921
X111.6747 Y141.7676 Z-0.85501
X111.69499 Y141.79349 Z-0.86081
X111.71458 Y141.81991 Z-0.86661
X111.73344 Y141.84685 Z-0.87241
X111.75157 Y141.8743 Z-0.87821
X111.76895 Y141.90222 Z-0.88401
X111.78557 Y141.93061 Z-0.88981
X111.80142 Y141.95943 Z-0.89561
X111.81648 Y141.98867 Z-0.90141
X111.83074 Y142.01831 Z-0.90721
X111.8442 Y142.04832 Z-0.91301
X111.85684 Y142.07868 Z-0.91881
X111.86865 Y142.10938 Z-0.92461
X111.87964 Y142.14038 Z-0.93041
X111.88977 Y142.17167 Z-0.9362
X111.89906 Y142.20323 Z-0.942
X111.9075 Y142.23502 Z-0.9478
X111.91507 Y142.26703 Z-0.9536
X111.92177 Y142.29923 Z-0.9594
X111.9276 Y142.3316 Z-0.9652
X111.93255 Y142.36411 Z-0.971
X111.93662 Y142.39675 Z-0.9768
X111.9398 Y142.42949 Z-0.9826
X111.9421 Y142.4623 Z-0.9884
X111.94352 Y142.49516 Z-0.9942
X111.94404 Y142.52805 Z-1.
G03 X111.78742 Y150.22366 I-468.56521 J-5.68665 F2406.
X109.35609 Y150.21441 I-1.21551 J-0.04516
X109.42664 Y142.46347 I162.23373 J-2.39898
X110.64112 Y141.31459 I1.21448 J0.06747
G1 X110.72769
G03 X111.94404 Y142.52805 I0. J1.21635
G1 Z-2.
G03 X111.78742 Y150.22366 I-468.56521 J-5.68665
X109.35609 Y150.21441 I-1.21551 J-0.04516
X109.42664 Y142.46347 I162.23373 J-2.39898
X110.64112 Y141.31459 I1.21448 J0.06747
G1 X110.72769
G03 X111.94404 Y142.52805 I0. J1.21635
G0 Z6.
X109.77446 Y132.6846
G1 Z0. F601.5
X109.77621 Y132.64783 Z-0.00649 F1804.5
X109.78477 Y132.57112 Z-0.0201
X109.79817 Y132.49511 Z-0.03371
X109.81637 Y132.4201 Z-0.04732
X109.83928 Y132.3464 Z-0.06093
X109.86683 Y132.2743 Z-0.07454
X109.89889 Y132.20409 Z-0.08815
X109.93535 Y132.13605 Z-0.10176
X109.97604 Y132.07047 Z-0.11537
X110.02081 Y132.00759 Z-0.12898
X110.06948 Y131.94769 Z-0.14259
X110.12185 Y131.89099 Z-0.1562
X110.17771 Y131.83772 Z-0.16981
X110.23684 Y131.78811 Z-0.18342
X110.29899 Y131.74235 Z-0.19703
X110.36392 Y131.70062 Z-0.21064
X110.43137 Y131.66309 Z-0.22425
X110.50106 Y131.62992 Z-0.23786
X110.57272 Y131.60123 Z-0.25147
X110.64605 Y131.57715 Z-0.26508
X110.72076 Y131.55776 Z-0.27869
X110.79655 Y131.54316 Z-0.29229
X110.87311 Y131.53338 Z-0.3059
X110.95014 Y131.52849 Z-0.31951
X111.02733 Z-0.33312
X111.10436 Y131.53338 Z-0.34673
X111.18092 Y131.54316 Z-0.36034
X111.25671 Y131.55776 Z-0.37395
X111.33142 Y131.57715 Z-0.38756
X111.40475 Y131.60123 Z-0.40117
X111.47641 Y131.62992 Z-0.41478
X111.5461 Y131.66309 Z-0.42839
X111.61355 Y131.70062 Z-0.442
X111.67848 Y131.74235 Z-0.45561
X111.74063 Y131.78811 Z-0.46922
X111.79976 Y131.83772 Z-0.48283
X111.85562 Y131.89099 Z-0.49644
X111.90799 Y131.94769 Z-0.51005
X111.95666 Y132.00759 Z-0.52366
X112.00143 Y132.07047 Z-0.53727
X112.04213 Y132.13605 Z-0.55088
X112.07858 Y132.20409 Z-0.56449
X112.11064 Y132.2743 Z-0.5781
X112.13819 Y132.3464 Z-0.59171
X112.16111 Y132.4201 Z-0.60532
X112.1793 Y132.49511 Z-0.61893
X112.19271 Y132.57112 Z-0.63254
X112.20126 Y132.64783 Z-0.64615
X112.20493 Y132.72493 Z-0.65976
X112.20371 Y132.8021 Z-0.67337
X112.19759 Y132.87905 Z-0.68698
X112.18661 Y132.95544 Z-0.70059
X112.1708 Y133.03099 Z-0.7142
X112.15023 Y133.10539 Z-0.72781
X112.12499 Y133.17833 Z-0.74142
X112.09517 Y133.24952 Z-0.75503
X112.06089 Y133.31867 Z-0.76863
X112.0223 Y133.38552 Z-0.78224
X111.97955 Y133.44978 Z-0.79585
X111.9328 Y133.5112 Z-0.80946
X111.88226 Y133.56953 Z-0.82307
X111.82811 Y133.62454 Z-0.83668
X111.77059 Y133.67601 Z-0.85029
X111.70992 Y133.72372 Z-0.8639
X111.64634 Y133.76749 Z-0.87751
X111.58012 Y133.80713 Z-0.89112
X111.51152 Y133.8425 Z-0.90473
X111.44081 Y133.87345 Z-0.91834
X111.36828 Y133.89985 Z-0.93195
X111.29422 Y133.92159 Z-0.94556
X111.21893 Y133.9386 Z-0.95917
X111.14272 Y133.95079 Z-0.97278
X111.06588 Y133.95813 Z-0.98639
X110.98874 Y133.96058 Z-1.
G03 Y131.52788 I0. J-1.21635 F2406.
Y133.96058 I0. J1.21635
G1 Z-2.
G03 Y131.52788 I0. J-1.21635
Y133.96058 I0. J1.21635
G0 Z6.
X93.25901 Y187.61882
G1 Z0. F601.5
X93.26511 Y187.59583 Z-0.00419 F1804.5
X93.86336 Y185.63188 Z-0.3662
X94.83341 Y182.79399 Z-0.89502
X95.04179 Y182.2363 Z-1.
X95.06075 Y182.18555 F2406.
G03 X96.81364 Y180.99618 I1.75289 J0.69702
G1 X99.41216
G03 X101.24031 Y182.41747 I0.00001 J1.88639
X104.01256 Y210.91118 I-124.88432 J26.53212
G1 X104.0426 Y213.71005
G03 X102.15622 Y215.60028 I-1.88638 J0.00384
G1 X90.84893
G03 X88.96778 Y213.57355 I0. J-1.88639
X93.86336 Y185.63188 I122.09128 J6.99157
G1 X94.83341 Y182.79399
X95.04179 Y182.2363
Z-2.
X95.06075 Y182.18555
G03 X96.81364 Y180.99618 I1.75289 J0.69702
G1 X99.41216
G03 X101.24031 Y182.41747 I0.00001 J1.88639
X104.01256 Y210.91118 I-124.88432 J26.53212
G1 X104.0426 Y213.71005
G03 X102.15622 Y215.60028 I-1.88638 J0.00384
G1 X90.84893
G03 X88.96778 Y213.57355 I0. J-1.88639
X93.86336 Y185.63188 I122.09128 J6.99157
G1 X94.83341 Y182.79399
X95.04179 Y182.2363
G0 Z6.
X67.74804 Y194.02493
G1 Z0. F601.5
X64.91915 Z-0.49881 F1804.5
X64.87796 Y194.02448 Z-0.50607
X64.83679 Y194.02313 Z-0.51334
X64.79565 Y194.02088 Z-0.5206
X64.75458 Y194.01774 Z-0.52786
X64.71359 Y194.0137 Z-0.53513
X64.67269 Y194.00876 Z-0.54239
X64.63191 Y194.00293 Z-0.54965
X64.59127 Y193.99622 Z-0.55692
X64.55078 Y193.98861 Z-0.56418
X64.51047 Y193.98013 Z-0.57145
X64.47035 Y193.97076 Z-0.57871
X64.43045 Y193.96053 Z-0.58597
X64.39078 Y193.94942 Z-0.59324
X64.35136 Y193.93745 Z-0.6005
X64.31222 Y193.92463 Z-0.60776
X64.27336 Y193.91095 Z-0.61503
X64.23481 Y193.89642 Z-0.62229
X64.19659 Y193.88106 Z-0.62955
X64.15871 Y193.86487 Z-0.63682
X64.1212 Y193.84785 Z-0.64408
X64.08406 Y193.83002 Z-0.65135
X64.04733 Y193.81138 Z-0.65861
X64.01101 Y193.79194 Z-0.66587
X63.97512 Y193.77172 Z-0.67314
X63.93968 Y193.75072 Z-0.6804
X63.90471 Y193.72894 Z-0.68766
X63.87022 Y193.70641 Z-0.69493
X63.83624 Y193.68314 Z-0.70219
X63.80277 Y193.65912 Z-0.70946
X63.76983 Y193.63438 Z-0.71672
X63.73744 Y193.60893 Z-0.72398
X63.70561 Y193.58277 Z-0.73125
X63.67437 Y193.55593 Z-0.73851
X63.64371 Y193.52841 Z-0.74577
X63.61367 Y193.50023 Z-0.75304
X63.58425 Y193.4714 Z-0.7603
X63.55546 Y193.44193 Z-0.76756
X63.52732 Y193.41184 Z-0.77483
X63.49985 Y193.38114 Z-0.78209
X63.47305 Y193.34986 Z-0.78936
X63.44695 Y193.31799 Z-0.79662
X63.42155 Y193.28556 Z-0.80388
X63.39686 Y193.25259 Z-0.81115
X63.37289 Y193.21908 Z-0.81841
X63.34967 Y193.18506 Z-0.82567
X63.32719 Y193.15054 Z-0.83294
X63.30547 Y193.11553 Z-0.8402
X63.28452 Y193.08006 Z-0.84746
X63.26435 Y193.04414 Z-0.85473
X63.24497 Y193.00779 Z-0.86199
X63.22639 Y192.97103 Z-0.86926
X63.20861 Y192.93387 Z-0.87652
X63.19165 Y192.89633 Z-0.88378
X63.17552 Y192.85842 Z-0.89104
X63.16022 Y192.82018 Z-0.89831
X63.14575 Y192.78161 Z-0.90557
X63.13213 Y192.74273 Z-0.91284
X63.11936 Y192.70356 Z-0.9201
X63.10746 Y192.66413 Z-0.92736
X63.09641 Y192.62444 Z-0.93463
X63.08624 Y192.58452 Z-0.94189
X63.07693 Y192.54439 Z-0.94916
X63.06851 Y192.50407 Z-0.95642
X63.06097 Y192.46357 Z-0.96368
X63.05432 Y192.42292 Z-0.97095
X63.04855 Y192.38213 Z-0.97821
X63.04368 Y192.34123 Z-0.98547
X63.0397 Y192.30022 Z-0.99274
X63.03662 Y192.25915 Z-1.
G03 X62.61637 Y170.99162 I285.37541 J-16.27691 F2406.
X64.50231 Y169.14611 I1.88594 J0.04087
G1 X69.72415
G03 X71.61021 Y171.06758 I0. J1.88638
X70.91615 Y192.22488 I-820.19128 J-16.31625
X69.03174 Y194.02493 I-1.88441 J-0.08634
G1 X64.91915
G03 X63.03662 Y192.25915 I-0.00001 J-1.88639
G1 Z-2.
G03 X62.61637 Y170.99162 I285.37541 J-16.27691
X64.50231 Y169.14611 I1.88594 J0.04087
G1 X69.72415
G03 X71.61021 Y171.06758 I0. J1.88638
X70.91615 Y192.22488 I-820.19128 J-16.31625
X69.03174 Y194.02493 I-1.88441 J-0.08634
G1 X64.91915
G03 X63.03662 Y192.25915 I-0.00001 J-1.88639
G0 Z6.
X43.7508 Y183.33118
G1 Z0. F601.5
X43.76379 Y183.3172 Z-0.00336 F1804.5
X43.79259 Y183.28753 Z-0.01066
X43.82204 Y183.2585 Z-0.01795
X43.85212 Y183.23013 Z-0.02524
X43.88281 Y183.20242 Z-0.03253
X43.91411 Y183.17538 Z-0.03982
X43.94599 Y183.14904 Z-0.04711
X43.97843 Y183.12341 Z-0.0544
X44.01144 Y183.09849 Z-0.0617
X44.04498 Y183.07431 Z-0.06899
X44.07904 Y183.05086 Z-0.07628
X44.11361 Y183.02816 Z-0.08357
X44.14867 Y183.00623 Z-0.09086
X44.1842 Y182.98508 Z-0.09815
X44.22018 Y182.9647 Z-0.10544
X44.25661 Y182.94512 Z-0.11274
X44.29345 Y182.92635 Z-0.12003
X44.3307 Y182.90838 Z-0.12732
X44.36833 Y182.89124 Z-0.13461
X44.40633 Y182.87492 Z-0.1419
X44.44467 Y182.85945 Z-0.14919
X44.48335 Y182.84481 Z-0.15649
X44.52234 Y182.83103 Z-0.16378
X44.56162 Y182.81811 Z-0.17107
X44.60117 Y182.80605 Z-0.17836
X44.64098 Y182.79486 Z-0.18565
X44.68103 Y182.78454 Z-0.19294
X44.72129 Y182.77511 Z-0.20023
X44.76175 Y182.76656 Z-0.20753
X44.80238 Y182.7589 Z-0.21482
X44.84318 Y182.75213 Z-0.22211
X44.88411 Y182.74626 Z-0.2294
X44.92516 Y182.74128 Z-0.23669
X44.96631 Y182.73721 Z-0.24398
X45.00754 Y182.73404 Z-0.25128
X45.04884 Y182.73177 Z-0.25857
X45.09017 Y182.73041 Z-0.26586
X45.13151 Y182.72996 Z-0.27315
X46.71332 Z-0.55206
X46.75429 Y182.73041 Z-0.55929
X46.79524 Y182.73174 Z-0.56651
X46.83615 Y182.73397 Z-0.57374
X46.87701 Y182.73708 Z-0.58096
X46.91779 Y182.74108 Z-0.58819
X46.95847 Y182.74596 Z-0.59541
X46.99904 Y182.75172 Z-0.60264
X47.03947 Y182.75837 Z-0.60986
X47.07974 Y182.76589 Z-0.61709
X47.11985 Y182.77429 Z-0.62431
X47.15976 Y182.78355 Z-0.63154
X47.19946 Y182.79368 Z-0.63876
X47.23894 Y182.80467 Z-0.64599
X47.27816 Y182.81651 Z-0.65321
X47.31712 Y182.8292 Z-0.66044
X47.35579 Y182.84274 Z-0.66766
X47.39416 Y182.85711 Z-0.67488
X47.43221 Y182.87231 Z-0.68211
X47.46992 Y182.88834 Z-0.68934
X47.50727 Y182.90518 Z-0.69656
X47.54425 Y182.92283 Z-0.70378
X47.58084 Y182.94127 Z-0.71101
X47.61702 Y182.96051 Z-0.71823
X47.65277 Y182.98053 Z-0.72546
X47.68807 Y183.00132 Z-0.73268
X47.72292 Y183.02287 Z-0.73991
X47.75729 Y183.04518 Z-0.74713
X47.79117 Y183.06822 Z-0.75436
X47.82454 Y183.092 Z-0.76158
X47.85739 Y183.11649 Z-0.76881
X47.8897 Y183.14169 Z-0.77603
X47.92145 Y183.16759 Z-0.78326
X47.95263 Y183.19417 Z-0.79048
X47.98322 Y183.22143 Z-0.79771
X48.01322 Y183.24933 Z-0.80493
X48.0426 Y183.27789 Z-0.81216
X48.07136 Y183.30708 Z-0.81938
X48.09948 Y183.33688 Z-0.82661
X48.12694 Y183.36729 Z-0.83383
X48.15374 Y183.39829 Z-0.84106
X48.17985 Y183.42986 Z-0.84828
X48.20528 Y183.46199 Z-0.85551
X48.23 Y183.49467 Z-0.86273
X48.254 Y183.52787 Z-0.86995
X48.27728 Y183.56159 Z-0.87718
X48.29982 Y183.59581 Z-0.8844
X48.32161 Y183.63051 Z-0.89163
X48.34264 Y183.66567 Z-0.89885
X48.3629 Y183.70129 Z-0.90608
X48.38239 Y183.73733 Z-0.9133
X48.40109 Y183.77379 Z-0.92053
X48.41899 Y183.81064 Z-0.92775
X48.43609 Y183.84788 Z-0.93498
X48.45237 Y183.88548 Z-0.9422
X48.46784 Y183.92342 Z-0.94943
X48.48247 Y183.96169 Z-0.95665
X48.49627 Y184.00027 Z-0.96388
X48.50923 Y184.03914 Z-0.9711
X48.52135 Y184.07828 Z-0.97833
X48.53261 Y184.11768 Z-0.98555
X48.54301 Y184.15731 Z-0.99278
X48.55255 Y184.19716 Z-1.
G03 X50.84634 Y209.51046 I-122.86073 J23.89373 F2406.
G1 X50.87296 Y211.99527
G03 X48.98661 Y213.8941 I-1.88634 J0.01245
G1 X40.08324
G03 X38.20164 Y211.873 I-0.00003 J-1.88638
X43.35512 Y183.98163 I106.71806 J5.29645
X45.13151 Y182.72996 I1.77639 J0.63472
G1 X46.71332
G03 X48.55255 Y184.19716 I0.00001 J1.88639
G1 Z-2.
G03 X50.84634 Y209.51046 I-122.86073 J23.89373
G1 X50.87296 Y211.99527
G03 X48.98661 Y213.8941 I-1.88634 J0.01245
G1 X40.08324
G03 X38.20164 Y211.873 I-0.00003 J-1.88638
X43.35512 Y183.98163 I106.71806 J5.29645
X45.13151 Y182.72996 I1.77639 J0.63472
G1 X46.71332
G03 X48.55255 Y184.19716 I0.00001 J1.88639
G0 Z6.
X13.43688 Y187.61882
G1 Z0. F601.5
X13.44298 Y187.59583 Z-0.00419 F1804.5
X14.04123 Y185.63188 Z-0.3662
X15.01128 Y182.79399 Z-0.89502
X15.21966 Y182.2363 Z-1.
X15.23863 Y182.18555 F2406.
G03 X16.99151 Y180.99618 I1.75288 J0.69702
G1 X19.59003
G03 X21.41818 Y182.41747 I0. J1.88639
X24.19043 Y210.91118 I-124.88432 J26.53212
G1 X24.22047 Y213.71005
G03 X22.33409 Y215.60028 I-1.88638 J0.00384
G1 X11.0268
G03 X9.14565 Y213.57355 I0. J-1.88639
X14.04123 Y185.63188 I122.09128 J6.99157
G1 X15.01128 Y182.79399
X15.21966 Y182.2363
Z-2.
X15.23863 Y182.18555
G03 X16.99151 Y180.99618 I1.75288 J0.69702
G1 X19.59003
G03 X21.41818 Y182.41747 I0. J1.88639
X24.19043 Y210.91118 I-124.88432 J26.53212
G1 X24.22047 Y213.71005
G03 X22.33409 Y215.60028 I-1.88638 J0.00384
G1 X11.0268
G03 X9.14565 Y213.57355 I0. J-1.88639
X14.04123 Y185.63188 I122.09128 J6.99157
G1 X15.01128 Y182.79399
X15.21966 Y182.2363
G0 Z6.
X31.61956 Y141.54628
G1 Z0. F601.5
X31.64071 Y141.56189 Z-0.00464 F1804.5
X31.66665 Y141.58212 Z-0.01044
X31.69202 Y141.60304 Z-0.01624
X31.71682 Y141.62465 Z-0.02203
X31.74103 Y141.64691 Z-0.02783
X31.76463 Y141.66983 Z-0.03363
X31.7876 Y141.69337 Z-0.03943
X31.80992 Y141.71752 Z-0.04523
X31.83158 Y141.74228 Z-0.05103
X31.85257 Y141.7676 Z-0.05683
X31.87286 Y141.79349 Z-0.06263
X31.89245 Y141.81991 Z-0.06843
X31.91131 Y141.84685 Z-0.07423
X31.92944 Y141.8743 Z-0.08003
X31.94682 Y141.90222 Z-0.08583
X31.96344 Y141.93061 Z-0.09163
X31.97929 Y141.95943 Z-0.09743
X31.99435 Y141.98867 Z-0.10323
X32.00861 Y142.01831 Z-0.10903
X32.02207 Y142.04832 Z-0.11483
X32.03471 Y142.07868 Z-0.12063
X32.04652 Y142.10938 Z-0.12643
X32.05751 Y142.14038 Z-0.13223
X32.06764 Y142.17167 Z-0.13803
X32.07693 Y142.20323 Z-0.14383
X32.08537 Y142.23502 Z-0.14963
X32.09294 Y142.26703 Z-0.15543
X32.09964 Y142.29923 Z-0.16123
X32.10547 Y142.3316 Z-0.16703
X32.11042 Y142.36411 Z-0.17282
X32.11449 Y142.39675 Z-0.17862
X32.11767 Y142.42949 Z-0.18442
X32.11997 Y142.4623 Z-0.19022
X32.12139 Y142.49516 Z-0.19602
X32.12191 Y142.52805 Z-0.20182
X32.10647 Y143.71437 Z-0.41102
X32.09568 Y144.41185 Z-0.53402
X32.07958 Y145.33884 Z-0.6975
X32.06434 Y146.1302 Z-0.83706
X32.04488 Y147.05406 Z-1.
G03 X31.96529 Y150.22366 I-525.73368 J-11.61539 F2406.
X29.53396 Y150.21441 I-1.21551 J-0.04516
X29.60451 Y142.46347 I162.23373 J-2.39898
X30.81899 Y141.31459 I1.21448 J0.06747
G1 X30.90556
G03 X32.12191 Y142.52805 I0. J1.21635
X32.04488 Y147.05406 I-426.69854 J-4.99843
G1 Z-2.
G03 X31.96529 Y150.22366 I-525.73368 J-11.61539
X29.53396 Y150.21441 I-1.21551 J-0.04516
X29.60451 Y142.46347 I162.23373 J-2.39898
X30.81899 Y141.31459 I1.21448 J0.06747
G1 X30.90556
G03 X32.12191 Y142.52805 I0. J1.21635
X32.04488 Y147.05406 I-426.69854 J-4.99843
G0 Z6.
X29.95233 Y132.6846
G1 Z0. F601.5
X29.95408 Y132.64783 Z-0.00649 F1804.5
X29.96264 Y132.57112 Z-0.0201
X29.97604 Y132.49511 Z-0.03371
X29.99424 Y132.4201 Z-0.04732
X30.01715 Y132.3464 Z-0.06093
X30.0447 Y132.2743 Z-0.07454
X30.07676 Y132.20409 Z-0.08815
X30.11321 Y132.13605 Z-0.10176
X30.15391 Y132.07047 Z-0.11537
X30.19868 Y132.00759 Z-0.12898
X30.24735 Y131.94769 Z-0.14259
X30.29972 Y131.89099 Z-0.1562
X30.35558 Y131.83772 Z-0.16981
X30.41471 Y131.78811 Z-0.18342
X30.47686 Y131.74235 Z-0.19703
X30.54179 Y131.70062 Z-0.21064
X30.60924 Y131.66309 Z-0.22425
X30.67893 Y131.62992 Z-0.23786
X30.75059 Y131.60123 Z-0.25147
X30.82392 Y131.57715 Z-0.26508
X30.89863 Y131.55776 Z-0.27869
X30.97442 Y131.54316 Z-0.29229
X31.05098 Y131.53338 Z-0.3059
X31.12801 Y131.52849 Z-0.31951
X31.2052 Z-0.33312
X31.28223 Y131.53338 Z-0.34673
X31.35879 Y131.54316 Z-0.36034
X31.43458 Y131.55776 Z-0.37395
X31.50929 Y131.57715 Z-0.38756
X31.58262 Y131.60123 Z-0.40117
X31.65428 Y131.62992 Z-0.41478
X31.72397 Y131.66309 Z-0.42839
X31.79142 Y131.70062 Z-0.442
X31.85635 Y131.74235 Z-0.45561
X31.9185 Y131.78811 Z-0.46922
X31.97763 Y131.83772 Z-0.48283
X32.03349 Y131.89099 Z-0.49644
X32.08586 Y131.94769 Z-0.51005
X32.13453 Y132.00759 Z-0.52366
X32.1793 Y132.07047 Z-0.53727
X32.22 Y132.13605 Z-0.55088
X32.25645 Y132.20409 Z-0.56449
X32.28851 Y132.2743 Z-0.5781
X32.31606 Y132.3464 Z-0.59171
X32.33898 Y132.4201 Z-0.60532
X32.35717 Y132.49511 Z-0.61893
X32.37058 Y132.57112 Z-0.63254
X32.37913 Y132.64783 Z-0.64615
X32.3828 Y132.72493 Z-0.65976
X32.38158 Y132.8021 Z-0.67337
X32.37546 Y132.87905 Z-0.68698
X32.36448 Y132.95544 Z-0.70059
X32.34867 Y133.03099 Z-0.7142
X32.3281 Y133.10539 Z-0.72781
X32.30286 Y133.17833 Z-0.74142
X32.27304 Y133.24952 Z-0.75503
X32.23876 Y133.31867 Z-0.76863
X32.20017 Y133.38552 Z-0.78224
X32.15742 Y133.44978 Z-0.79585
X32.11067 Y133.5112 Z-0.80946
X32.06013 Y133.56953 Z-0.82307
X32.00598 Y133.62454 Z-0.83668
X31.94846 Y133.67601 Z-0.85029
X31.88779 Y133.72372 Z-0.8639
X31.82421 Y133.76749 Z-0.87751
X31.75799 Y133.80713 Z-0.89112
X31.68939 Y133.8425 Z-0.90473
X31.61868 Y133.87345 Z-0.91834
X31.54615 Y133.89985 Z-0.93195
X31.47209 Y133.92159 Z-0.94556
X31.3968 Y133.9386 Z-0.95917
X31.32059 Y133.95079 Z-0.97278
X31.24375 Y133.95813 Z-0.98639
X31.16661 Y133.96058 Z-1.
G03 Y131.52788 I0. J-1.21635 F2406.
Y133.96058 I0. J1.21635
G1 Z-2.
G03 Y131.52788 I0. J-1.21635
Y133.96058 I0. J1.21635
G0 Z6.
X16.52943 Y113.76368
G1 Z0. F601.5
X19.11799 Z-0.45643 F1804.5
X19.15909 Y113.76413 Z-0.46368
X19.20018 Y113.76547 Z-0.47093
X19.24122 Y113.76771 Z-0.47818
X19.2822 Y113.77084 Z-0.48542
X19.32311 Y113.77486 Z-0.49267
X19.36391 Y113.77978 Z-0.49992
X19.40461 Y113.78558 Z-0.50717
X19.44516 Y113.79227 Z-0.51441
X19.48556 Y113.79984 Z-0.52166
X19.52579 Y113.80828 Z-0.52891
X19.56582 Y113.81761 Z-0.53616
X19.60564 Y113.8278 Z-0.5434
X19.64523 Y113.83886 Z-0.55065
X19.68456 Y113.85077 Z-0.5579
X19.72363 Y113.86354 Z-0.56515
X19.76241 Y113.87717 Z-0.57239
X19.80089 Y113.89163 Z-0.57964
X19.83904 Y113.90692 Z-0.58689
X19.87685 Y113.92305 Z-0.59414
X19.91429 Y113.93999 Z-0.60138
X19.95136 Y113.95775 Z-0.60863
X19.98804 Y113.9763 Z-0.61588
X20.0243 Y113.99566 Z-0.62313
X20.06013 Y114.0158 Z-0.63037
X20.09552 Y114.03671 Z-0.63762
X20.13043 Y114.05839 Z-0.64487
X20.16487 Y114.08083 Z-0.65212
X20.19882 Y114.10401 Z-0.65937
X20.23224 Y114.12793 Z-0.66661
X20.26515 Y114.15257 Z-0.67386
X20.2975 Y114.17792 Z-0.68111
X20.32929 Y114.20397 Z-0.68836
X20.36051 Y114.2307 Z-0.6956
X20.39114 Y114.25811 Z-0.70285
X20.42117 Y114.28618 Z-0.7101
X20.45058 Y114.3149 Z-0.71735
X20.47935 Y114.34425 Z-0.72459
X20.50748 Y114.37422 Z-0.73184
X20.53495 Y114.4048 Z-0.73909
X20.56174 Y114.43596 Z-0.74634
X20.58785 Y114.46771 Z-0.75358
X20.61327 Y114.50001 Z-0.76083
X20.63797 Y114.53287 Z-0.76808
X20.66195 Y114.56625 Z-0.77533
X20.6852 Y114.60015 Z-0.78257
X20.7077 Y114.63454 Z-0.78982
X20.72945 Y114.66942 Z-0.79707
X20.75043 Y114.70476 Z-0.80432
X20.77064 Y114.74055 Z-0.81156
X20.79006 Y114.77678 Z-0.81881
X20.8087 Y114.81342 Z-0.82606
X20.82652 Y114.85045 Z-0.83331
X20.84354 Y114.88787 Z-0.84055
X20.85974 Y114.92564 Z-0.8478
X20.87511 Y114.96376 Z-0.85505
X20.88964 Y115.00221 Z-0.8623
X20.90334 Y115.04097 Z-0.86954
X20.91618 Y115.08001 Z-0.87679
X20.92818 Y115.11932 Z-0.88404
X20.93931 Y115.15889 Z-0.89129
X20.94958 Y115.19869 Z-0.89853
X20.95898 Y115.2387 Z-0.90578
X20.96751 Y115.27891 Z-0.91303
X20.97515 Y115.3193 Z-0.92028
X20.98192 Y115.35984 Z-0.92752
X20.9878 Y115.40052 Z-0.93477
X20.99279 Y115.44132 Z-0.94202
X20.9969 Y115.48222 Z-0.94927
X21.00011 Y115.52319 Z-0.95652
X21.00243 Y115.56423 Z-0.96376
X21.00385 Y115.60531 Z-0.97101
X21.00438 Y115.64641 Z-0.97826
X21.00401 Y115.68751 Z-0.98551
X21.00274 Y115.72859 Z-0.99275
X21.00059 Y115.76964 Z-1.
G03 X18.88733 Y144.03248 I-4949.28419 J-355.85594 F2406.
X15.14341 Y144.1791 I-1.88061 J-0.14754
X11.38617 Y115.85578 I772.75718 J-116.92142
X13.2613 Y113.76368 I1.87513 J-0.20572
G1 X19.11799
G03 X21.00059 Y115.76964 I0.00001 J1.88638
G1 Z-2.
G03 X18.88733 Y144.03248 I-4949.28419 J-355.85594
X15.14341 Y144.1791 I-1.88061 J-0.14754
X11.38617 Y115.85578 I772.75718 J-116.92142
X13.2613 Y113.76368 I1.87513 J-0.20572
G1 X19.11799
G03 X21.00059 Y115.76964 I0.00001 J1.88638
G0 Z6.
X20.78294 Y88.67731
G1 Z0. F601.5
X20.87133 Y87.06469 Z-0.28478 F1804.5
X20.94317 Y85.71384 Z-0.5233
X20.9901 Y84.81329 Z-0.68231
X21.08157 Y83.0139 Z-1.
G03 X19.80105 Y104.39334 I-1122.67151 J-56.5143 F2406.
X17.91942 Y106.14588 I-1.88163 J-0.13385
G1 X12.06455
G03 X10.18682 Y104.43995 I0. J-1.88639
X8.71871 Y86.51859 I607.50834 J-58.78755
X11.06108 Y83.21667 I3.19922 J-0.21228
G1 X18.70678 Y81.09625
G03 X21.08165 Y83.01249 I0.49087 J1.8214
G0 Z6.
X21.08157 Y83.0139
G1 Z-2. F601.5
G03 X19.80105 Y104.39334 I-1122.67151 J-56.5143 F2406.
X17.91942 Y106.14588 I-1.88163 J-0.13385
G1 X12.06455
G03 X10.18682 Y104.43995 I0. J-1.88639
X8.71871 Y86.51859 I607.50834 J-58.78755
X11.06108 Y83.21667 I3.19922 J-0.21228
G1 X18.70678 Y81.09625
G03 X21.08165 Y83.01249 I0.49087 J1.8214
G0 Z6.
X48.36884 Y96.54144
G1 Z0. F601.5
X48.29078 Y97.7234 Z-0.20887 F1804.5
X48.12361 Y100.21186 Z-0.64864
X47.98792 Y102.19991 Z-1.
G03 X46.10674 Y103.94616 I-1.88118 J-0.14014 F2406.
G1 X40.19988
G03 X38.32297 Y102.24873 I-0.00002 J-1.88639
X36.56876 Y81.07444 I592.61909 J-59.75599
X38.45129 Y79.06733 I1.88252 J-0.12072
G1 X47.40272
G03 X49.28659 Y81.05108 I0. J1.88639
X47.98792 Y102.19991 I-1189.12937 J-62.40606
G1 Z-2.
G03 X46.10674 Y103.94616 I-1.88118 J-0.14014
G1 X40.19988
G03 X38.32297 Y102.24873 I-0.00002 J-1.88639
X36.56876 Y81.07444 I592.61909 J-59.75599
X38.45129 Y79.06733 I1.88252 J-0.12072
G1 X47.40272
G03 X49.28659 Y81.05108 I0. J1.88639
X47.98792 Y102.19991 I-1189.12937 J-62.40606
G0 Z6.
X42.74039 Y111.56396
G1 Z0. F601.5
X45.30631 Z-0.45244 F1804.5
X45.34753 Y111.56441 Z-0.45971
X45.38873 Y111.56576 Z-0.46698
X45.42989 Y111.56801 Z-0.47425
X45.47099 Y111.57116 Z-0.48152
X45.51201 Y111.57521 Z-0.48878
X45.55293 Y111.58015 Z-0.49605
X45.59374 Y111.58598 Z-0.50332
X45.63441 Y111.59271 Z-0.51059
X45.67492 Y111.60032 Z-0.51786
X45.71526 Y111.60882 Z-0.52513
X45.7554 Y111.61819 Z-0.53239
X45.79532 Y111.62844 Z-0.53966
X45.83502 Y111.63956 Z-0.54693
X45.87446 Y111.65155 Z-0.5542
X45.91362 Y111.66439 Z-0.56147
X45.9525 Y111.67809 Z-0.56874
X45.99107 Y111.69263 Z-0.576
X46.02932 Y111.70801 Z-0.58327
X46.06722 Y111.72422 Z-0.59054
X46.10475 Y111.74126 Z-0.59781
X46.1419 Y111.75912 Z-0.60508
X46.17866 Y111.77778 Z-0.61235
X46.215 Y111.79724 Z-0.61961
X46.2509 Y111.81749 Z-0.62688
X46.28635 Y111.83852 Z-0.63415
X46.32134 Y111.86032 Z-0.64142
X46.35584 Y111.88287 Z-0.64869
X46.38984 Y111.90618 Z-0.65596
X46.42332 Y111.93022 Z-0.66322
X46.45627 Y111.955 Z-0.67049
X46.48867 Y111.98048 Z-0.67776
X46.5205 Y112.00666 Z-0.68503
X46.55176 Y112.03354 Z-0.6923
X46.58242 Y112.06109 Z-0.69957
X46.61247 Y112.08931 Z-0.70683
X46.6419 Y112.11817 Z-0.7141
X46.67069 Y112.14767 Z-0.72137
X46.69883 Y112.1778 Z-0.72864
X46.7263 Y112.20853 Z-0.73591
X46.75309 Y112.23985 Z-0.74318
X46.7792 Y112.27175 Z-0.75044
X46.8046 Y112.30422 Z-0.75771
X46.82929 Y112.33723 Z-0.76498
X46.85325 Y112.37077 Z-0.77225
X46.87646 Y112.40483 Z-0.77952
X46.89893 Y112.43939 Z-0.78679
X46.92064 Y112.47443 Z-0.79405
X46.94158 Y112.50993 Z-0.80132
X46.96174 Y112.54589 Z-0.80859
X46.98111 Y112.58228 Z-0.81586
X46.99968 Y112.61908 Z-0.82313
X47.01744 Y112.65628 Z-0.8304
X47.03438 Y112.69386 Z-0.83766
X47.05049 Y112.7318 Z-0.84493
X47.06578 Y112.77008 Z-0.8522
X47.08022 Y112.80869 Z-0.85947
X47.09382 Y112.8476 Z-0.86674
X47.10656 Y112.8868 Z-0.87401
X47.11845 Y112.92627 Z-0.88127
X47.12947 Y112.96599 Z-0.88854
X47.13961 Y113.00594 Z-0.89581
X47.14889 Y113.04611 Z-0.90308
X47.15728 Y113.08647 Z-0.91035
X47.16479 Y113.127 Z-0.91762
X47.17141 Y113.16768 Z-0.92488
X47.17714 Y113.2085 Z-0.93215
X47.18198 Y113.24944 Z-0.93942
X47.18592 Y113.29047 Z-0.94669
X47.18896 Y113.33158 Z-0.95396
X47.19111 Y113.37274 Z-0.96123
X47.19236 Y113.41395 Z-0.96849
X47.1927 Y113.45517 Z-0.97576
X47.19214 Y113.49638 Z-0.98303
X47.19069 Y113.53758 Z-0.9903
X47.18833 Y113.57873 Z-0.99757
X47.18734 Y113.59249 Z-1.
X47.18833 Y113.57873 F2406.
G03 X45.79835 Y132.50513 I-5179.91242 J-370.9068
X42.04985 Y132.6359 I-1.88134 J-0.13786
X39.56911 Y113.67072 I747.66509 J-107.44325
X41.44257 Y111.56396 I1.87346 J-0.22038
G1 X45.30631
G03 X47.18833 Y113.57873 I0.00001 J1.88638
G1 Z-2.
G03 X45.79835 Y132.50513 I-5179.91242 J-370.9068
X42.04985 Y132.6359 I-1.88134 J-0.13786
X39.56911 Y113.67072 I747.66509 J-107.44325
X41.44257 Y111.56396 I1.87346 J-0.22038
G1 X45.30631
G03 X47.18833 Y113.57873 I0.00001 J1.88638
G0 Z6.
X67.90595 Y106.79326
G1 Z0. F601.5
X67.95086 Y106.79899 Z-0.00798 F1804.5
X68.0684 Y106.82165 Z-0.02909
X68.18427 Y106.85171 Z-0.0502
X68.29799 Y106.88906 Z-0.0713
X68.40912 Y106.93355 Z-0.09241
X68.5172 Y106.985 Z-0.11352
X68.6218 Y107.04319 Z-0.13463
X68.7225 Y107.10791 Z-0.15573
X68.8189 Y107.17888 Z-0.17684
X68.91059 Y107.25583 Z-0.19795
X68.99723 Y107.33843 Z-0.21905
X69.07845 Y107.42636 Z-0.24016
X69.15392 Y107.51927 Z-0.26127
X69.22336 Y107.61678 Z-0.28237
X69.28647 Y107.71849 Z-0.30348
X69.343 Y107.824 Z-0.32459
X69.39273 Y107.93289 Z-0.34569
X69.43545 Y108.04471 Z-0.3668
X69.47099 Y108.15901 Z-0.38791
X69.49921 Y108.27534 Z-0.40901
X69.52 Y108.39322 Z-0.43012
X69.53326 Y108.51218 Z-0.45123
X69.53896 Y108.63175 Z-0.47233
X69.53706 Y108.75144 Z-0.49344
X69.52757 Y108.87077 Z-0.51455
X69.51054 Y108.98925 Z-0.53565
X69.48602 Y109.10641 Z-0.55676
X69.45412 Y109.22179 Z-0.57787
X69.41497 Y109.33491 Z-0.59897
X69.36873 Y109.44531 Z-0.62008
X69.31557 Y109.55257 Z-0.64119
X69.25572 Y109.65623 Z-0.66229
X69.18941 Y109.75589 Z-0.6834
X69.11692 Y109.85115 Z-0.70451
X69.03853 Y109.94161 Z-0.72561
X68.95457 Y110.02692 Z-0.74672
X68.86536 Y110.10673 Z-0.76783
X68.77126 Y110.18073 Z-0.78893
X68.67267 Y110.24861 Z-0.81004
X68.56997 Y110.3101 Z-0.83115
X68.46357 Y110.36495 Z-0.85225
X68.35391 Y110.41294 Z-0.87336
X68.24143 Y110.45388 Z-0.89447
X68.12657 Y110.4876 Z-0.91557
X68.00981 Y110.51398 Z-0.93668
X67.89161 Y110.53289 Z-0.95779
X67.77245 Y110.54427 Z-0.97889
X67.65281 Y110.54806 Z-1.
G03 Y106.7753 I0. J-1.88638 F2406.
Y110.54806 I0. J1.88638
G1 Z-2.
G03 Y106.7753 I0. J-1.88638
Y110.54806 I0. J1.88638
G0 Z6.
X69.23664 Y98.99159
G1 Z0. F601.5
X69.22005 Y98.99907 Z-0.00321 F1804.5
X69.18234 Y99.0151 Z-0.01044
X69.14428 Y99.03031 Z-0.01766
X69.10591 Y99.04468 Z-0.02489
X69.06723 Y99.05822 Z-0.03211
X69.02827 Y99.07092 Z-0.03934
X68.98904 Y99.08277 Z-0.04656
X68.94956 Y99.09376 Z-0.05379
X68.90985 Y99.10389 Z-0.06102
X68.86994 Y99.11316 Z-0.06824
X68.82983 Y99.12155 Z-0.07547
X68.78954 Y99.12908 Z-0.08269
X68.74911 Y99.13573 Z-0.08992
X68.70854 Y99.14149 Z-0.09714
X68.66785 Y99.14638 Z-0.10437
X68.62706 Y99.15038 Z-0.1116
X68.5862 Y99.15349 Z-0.11882
X68.54529 Y99.15571 Z-0.12605
X68.50433 Y99.15705 Z-0.13327
X68.46335 Y99.1575 Z-0.1405
X66.33941 Z-0.51501
X66.29836 Y99.15705 Z-0.52224
X66.25733 Y99.15571 Z-0.52948
X66.21634 Y99.15348 Z-0.53672
X66.17541 Y99.15035 Z-0.54396
X66.13455 Y99.14634 Z-0.5512
X66.09379 Y99.14144 Z-0.55844
X66.05315 Y99.13565 Z-0.56568
X66.01264 Y99.12898 Z-0.57292
X65.97229 Y99.12143 Z-0.58015
X65.93211 Y99.113 Z-0.58739
X65.89212 Y99.1037 Z-0.59463
X65.85235 Y99.09353 Z-0.60187
X65.81281 Y99.0825 Z-0.60911
X65.77351 Y99.07061 Z-0.61635
X65.73449 Y99.05787 Z-0.62359
X65.69575 Y99.04428 Z-0.63082
X65.65731 Y99.02986 Z-0.63806
X65.6192 Y99.0146 Z-0.6453
X65.58143 Y98.99851 Z-0.65254
X65.54402 Y98.98161 Z-0.65978
X65.50699 Y98.96389 Z-0.66702
X65.47035 Y98.94538 Z-0.67426
X65.43412 Y98.92607 Z-0.6815
X65.39832 Y98.90598 Z-0.68873
X65.36296 Y98.88511 Z-0.69597
X65.32807 Y98.86348 Z-0.70321
X65.29366 Y98.84109 Z-0.71045
X65.25974 Y98.81796 Z-0.71769
X65.22634 Y98.7941 Z-0.72493
X65.19346 Y98.76952 Z-0.73217
X65.16112 Y98.74423 Z-0.73941
X65.12934 Y98.71824 Z-0.74665
X65.09814 Y98.69156 Z-0.75388
X65.06752 Y98.66421 Z-0.76112
X65.03751 Y98.63621 Z-0.76836
X65.00811 Y98.60755 Z-0.7756
X64.97934 Y98.57826 Z-0.78284
X64.95122 Y98.54836 Z-0.79008
X64.92375 Y98.51785 Z-0.79732
X64.89696 Y98.48674 Z-0.80456
X64.87084 Y98.45507 Z-0.81179
X64.84543 Y98.42283 Z-0.81903
X64.82072 Y98.39004 Z-0.82627
X64.79673 Y98.35673 Z-0.83351
X64.77347 Y98.3229 Z-0.84075
X64.75095 Y98.28858 Z-0.84799
X64.72919 Y98.25377 Z-0.85523
X64.70818 Y98.21849 Z-0.86246
X64.68795 Y98.18277 Z-0.8697
X64.6685 Y98.14662 Z-0.87694
X64.64985 Y98.11005 Z-0.88418
X64.63199 Y98.07308 Z-0.89142
X64.61494 Y98.03574 Z-0.89866
X64.59871 Y97.99803 Z-0.9059
X64.58331 Y97.95998 Z-0.91314
X64.56873 Y97.9216 Z-0.92037
X64.555 Y97.88291 Z-0.92761
X64.5421 Y97.84394 Z-0.93485
X64.53006 Y97.80469 Z-0.94209
X64.51888 Y97.76519 Z-0.94933
X64.50856 Y97.72545 Z-0.95657
X64.49911 Y97.6855 Z-0.96381
X64.49052 Y97.64536 Z-0.97105
X64.48282 Y97.60504 Z-0.97828
X64.47599 Y97.56455 Z-0.98552
X64.47005 Y97.52393 Z-0.99276
X64.46499 Y97.48319 Z-1.
G03 X62.54514 Y76.29172 I572.21657 J-62.52273 F2406.
X64.42727 Y74.27867 I1.88213 J-0.12666
G1 X69.80382
G03 X71.68794 Y76.25739 I0. J1.88639
X70.34487 Y97.40649 I-1525.08399 J-86.23315
X68.46335 Y99.1575 I-1.88152 J-0.13538
G1 X66.33941
G03 X64.46499 Y97.48319 I0. J-1.88639
G1 Z-2.
G03 X62.54514 Y76.29172 I572.21657 J-62.52273
X64.42727 Y74.27867 I1.88213 J-0.12666
G1 X69.80382
G03 X71.68794 Y76.25739 I0. J1.88639
X70.34487 Y97.40649 I-1525.08399 J-86.23315
X68.46335 Y99.1575 I-1.88152 J-0.13538
G1 X66.33941
G03 X64.46499 Y97.48319 I0. J-1.88639
G0 Z6.
X100.60525 Y88.67731
G1 Z0. F601.5
X100.69364 Y87.06469 Z-0.28478 F1804.5
X100.76548 Y85.71384 Z-0.5233
X100.8124 Y84.81329 Z-0.68231
X100.90388 Y83.0139 Z-1.
G03 X99.62336 Y104.39334 I-1122.67151 J-56.5143 F2406.
X97.74173 Y106.14588 I-1.88163 J-0.13385
G1 X91.88686
G03 X90.00913 Y104.43995 I0. J-1.88639
X88.54102 Y86.51859 I607.50833 J-58.78755
X90.88339 Y83.21667 I3.19921 J-0.21228
G1 X98.52909 Y81.09625
G03 X100.90395 Y83.01249 I0.49086 J1.8214
G0 Z6.
X100.90388 Y83.0139
G1 Z-2. F601.5
G03 X99.62336 Y104.39334 I-1122.67151 J-56.5143 F2406.
X97.74173 Y106.14588 I-1.88163 J-0.13385
G1 X91.88686
G03 X90.00913 Y104.43995 I0. J-1.88639
X88.54102 Y86.51859 I607.50833 J-58.78755
X90.88339 Y83.21667 I3.19921 J-0.21228
G1 X98.52909 Y81.09625
G03 X100.90395 Y83.01249 I0.49086 J1.8214
G0 Z6.
X96.35156 Y113.76368
G1 Z0. F601.5
X98.94012 Z-0.45643 F1804.5
X98.98122 Y113.76413 Z-0.46368
X99.02231 Y113.76547 Z-0.47093
X99.06335 Y113.76771 Z-0.47818
X99.10433 Y113.77084 Z-0.48542
X99.14524 Y113.77486 Z-0.49267
X99.18604 Y113.77978 Z-0.49992
X99.22674 Y113.78558 Z-0.50717
X99.26729 Y113.79227 Z-0.51441
X99.30769 Y113.79984 Z-0.52166
X99.34792 Y113.80828 Z-0.52891
X99.38795 Y113.81761 Z-0.53616
X99.42777 Y113.8278 Z-0.5434
X99.46736 Y113.83886 Z-0.55065
X99.50669 Y113.85077 Z-0.5579
X99.54576 Y113.86354 Z-0.56515
X99.58454 Y113.87717 Z-0.57239
X99.62302 Y113.89163 Z-0.57964
X99.66117 Y113.90692 Z-0.58689
X99.69898 Y113.92305 Z-0.59414
X99.73642 Y113.93999 Z-0.60138
X99.77349 Y113.95775 Z-0.60863
X99.81017 Y113.9763 Z-0.61588
X99.84643 Y113.99566 Z-0.62313
X99.88226 Y114.0158 Z-0.63037
X99.91765 Y114.03671 Z-0.63762
X99.95256 Y114.05839 Z-0.64487
X99.987 Y114.08083 Z-0.65212
X100.02095 Y114.10401 Z-0.65937
X100.05437 Y114.12793 Z-0.66661
X100.08728 Y114.15257 Z-0.67386
X100.11963 Y114.17792 Z-0.68111
X100.15142 Y114.20397 Z-0.68836
X100.18264 Y114.2307 Z-0.6956
X100.21327 Y114.25811 Z-0.70285
X100.2433 Y114.28618 Z-0.7101
X100.27271 Y114.3149 Z-0.71735
X100.30148 Y114.34425 Z-0.72459
X100.32961 Y114.37422 Z-0.73184
X100.35708 Y114.4048 Z-0.73909
X100.38387 Y114.43596 Z-0.74634
X100.40998 Y114.46771 Z-0.75358
X100.4354 Y114.50001 Z-0.76083
X100.4601 Y114.53287 Z-0.76808
X100.48408 Y114.56625 Z-0.77533
X100.50733 Y114.60015 Z-0.78257
X100.52983 Y114.63454 Z-0.78982
X100.55158 Y114.66942 Z-0.79707
X100.57256 Y114.70476 Z-0.80432
X100.59277 Y114.74055 Z-0.81156
X100.6122 Y114.77678 Z-0.81881
X100.63083 Y114.81342 Z-0.82606
X100.64865 Y114.85045 Z-0.83331
X100.66567 Y114.88787 Z-0.84055
X100.68187 Y114.92564 Z-0.8478
X100.69724 Y114.96376 Z-0.85505
X100.71177 Y115.00221 Z-0.8623
X100.72547 Y115.04097 Z-0.86954
X100.73831 Y115.08001 Z-0.87679
X100.75031 Y115.11932 Z-0.88404
X100.76144 Y115.15889 Z-0.89129
X100.77171 Y115.19869 Z-0.89853
X100.78111 Y115.2387 Z-0.90578
X100.78964 Y115.27891 Z-0.91303
X100.79728 Y115.3193 Z-0.92028
X100.80405 Y115.35984 Z-0.92752
X100.80993 Y115.40052 Z-0.93477
X100.81492 Y115.44132 Z-0.94202
X100.81903 Y115.48222 Z-0.94927
X100.82224 Y115.52319 Z-0.95652
X100.82456 Y115.56423 Z-0.96376
X100.82598 Y115.60531 Z-0.97101
X100.82651 Y115.64641 Z-0.97826
X100.82614 Y115.68751 Z-0.98551
X100.82488 Y115.72859 Z-0.99275
X100.82272 Y115.76964 Z-1.
G03 X98.70946 Y144.03248 I-4949.28444 J-355.85596 F2406.
X94.96554 Y144.1791 I-1.88061 J-0.14754
X91.2083 Y115.85578 I772.75718 J-116.92142
X93.08343 Y113.76368 I1.87513 J-0.20572
G1 X98.94012
G03 X100.82272 Y115.76964 I0.00001 J1.88638
G1 Z-2.
G03 X98.70946 Y144.03248 I-4949.28444 J-355.85596
X94.96554 Y144.1791 I-1.88061 J-0.14754
X91.2083 Y115.85578 I772.75718 J-116.92142
X93.08343 Y113.76368 I1.87513 J-0.20572
G1 X98.94012
G03 X100.82272 Y115.76964 I0.00001 J1.88638
G0 Z6.
X66.41068 Y139.36952
G1 Z0. F601.5
X66.45439 Y139.21159 Z-0.02889 F1804.5
X66.59519 Y138.72487 Z-0.11823
X66.61091 Y138.67687 Z-0.12714
X66.62792 Y138.62931 Z-0.13605
X66.64619 Y138.58221 Z-0.14495
X66.66571 Y138.53563 Z-0.15386
X66.68648 Y138.48958 Z-0.16277
X66.70847 Y138.44411 Z-0.17167
X66.73167 Y138.39924 Z-0.18058
X66.75607 Y138.35501 Z-0.18949
X66.78164 Y138.31145 Z-0.19839
X66.80836 Y138.26858 Z-0.2073
X66.83623 Y138.22645 Z-0.21621
X66.86521 Y138.18508 Z-0.22511
X66.89529 Y138.1445 Z-0.23402
X66.92645 Y138.10474 Z-0.24293
X66.95866 Y138.06583 Z-0.25184
X66.9919 Y138.0278 Z-0.26074
X67.02614 Y137.99067 Z-0.26965
X67.06137 Y137.95446 Z-0.27856
X67.09756 Y137.91922 Z-0.28746
X67.13467 Y137.88496 Z-0.29637
X67.17269 Y137.8517 Z-0.30528
X67.21159 Y137.81947 Z-0.31418
X67.25133 Y137.7883 Z-0.32309
X67.2919 Y137.7582 Z-0.332
X67.33326 Y137.7292 Z-0.3409
X67.37538 Y137.70132 Z-0.34981
X67.41823 Y137.67457 Z-0.35872
X67.46178 Y137.64898 Z-0.36762
X67.506 Y137.62457 Z-0.37653
X67.55086 Y137.60135 Z-0.38544
X67.59632 Y137.57933 Z-0.39434
X67.64236 Y137.55855 Z-0.40325
X67.68894 Y137.539 Z-0.41216
X67.73602 Y137.52071 Z-0.42106
X67.78358 Y137.50368 Z-0.42997
X67.83157 Y137.48794 Z-0.43888
X67.87997 Y137.47348 Z-0.44778
X67.92874 Y137.46033 Z-0.45669
X67.97785 Y137.44848 Z-0.4656
X68.02725 Y137.43796 Z-0.4745
X68.07692 Y137.42876 Z-0.48341
X68.12682 Y137.4209 Z-0.49232
X68.17691 Y137.41437 Z-0.50122
X68.22715 Y137.40919 Z-0.51013
X68.27752 Y137.40535 Z-0.51904
X68.32797 Y137.40287 Z-0.52794
X68.37847 Y137.40174 Z-0.53685
X68.42898 Y137.40195 Z-0.54576
X68.47947 Y137.40353 Z-0.55466
X68.5299 Y137.40645 Z-0.56357
X68.58023 Y137.41072 Z-0.57248
X68.63043 Y137.41634 Z-0.58138
X68.68046 Y137.4233 Z-0.59029
X68.73029 Y137.4316 Z-0.5992
X68.77987 Y137.44122 Z-0.6081
X68.82918 Y137.45218 Z-0.61701
X68.87818 Y137.46445 Z-0.62592
X68.92684 Y137.47802 Z-0.63482
X68.97511 Y137.4929 Z-0.64373
X69.02297 Y137.50906 Z-0.65264
X69.07037 Y137.5265 Z-0.66154
X69.1173 Y137.5452 Z-0.67045
X69.1637 Y137.56515 Z-0.67936
X69.20956 Y137.58633 Z-0.68827
X69.25483 Y137.60874 Z-0.69717
X69.29949 Y137.63234 Z-0.70608
X69.34349 Y137.65714 Z-0.71498
X69.38682 Y137.68311 Z-0.72389
X69.42944 Y137.71022 Z-0.7328
X69.47131 Y137.73847 Z-0.74171
X69.51242 Y137.76783 Z-0.75061
X69.55272 Y137.79828 Z-0.75952
X69.5922 Y137.8298 Z-0.76843
X69.63081 Y137.86236 Z-0.77733
X69.66854 Y137.89595 Z-0.78624
X69.70536 Y137.93053 Z-0.79515
X69.74123 Y137.96609 Z-0.80405
X69.77615 Y138.00259 Z-0.81296
X69.81007 Y138.04002 Z-0.82187
X69.84298 Y138.07834 Z-0.83077
X69.87485 Y138.11753 Z-0.83968
X69.90566 Y138.15756 Z-0.84859
X69.93539 Y138.1984 Z-0.85749
X69.96401 Y138.24002 Z-0.8664
X69.99151 Y138.28239 Z-0.87531
X70.01786 Y138.32548 Z-0.88421
X70.04305 Y138.36926 Z-0.89312
X70.06706 Y138.41371 Z-0.90203
X70.08988 Y138.45878 Z-0.91093
X70.11147 Y138.50444 Z-0.91984
X70.13184 Y138.55066 Z-0.92875
X70.15096 Y138.59742 Z-0.93765
X70.16882 Y138.64467 Z-0.94656
X70.18541 Y138.69238 Z-0.95547
X70.20072 Y138.74051 Z-0.96437
X70.21473 Y138.78904 Z-0.97328
X70.22744 Y138.83793 Z-0.98219
X70.23884 Y138.88714 Z-0.99109
X70.24891 Y138.93664 Z-1.
G03 X71.68598 Y159.63832 I-124.60623 J19.05065 F2406.
X69.7996 Y161.5283 I-1.88638 J0.0036
G1 X65.06173
G03 X63.18025 Y159.50589 I0. J-1.88638
X66.59519 Y138.72487 I99.86362 J5.73945
X70.24891 Y138.93664 I1.80035 J0.56317
G1 Z-2.
G03 X71.68598 Y159.63832 I-124.60623 J19.05065
X69.7996 Y161.5283 I-1.88638 J0.0036
G1 X65.06173
G03 X63.18025 Y159.50589 I0. J-1.88638
X66.59519 Y138.72487 I99.86362 J5.73945
X70.24891 Y138.93664 I1.80035 J0.56317
G0 Z6.
X123.57293 Y183.33118
G1 Z0. F601.5
X123.58592 Y183.3172 Z-0.00336 F1804.5
X123.61472 Y183.28753 Z-0.01066
X123.64417 Y183.2585 Z-0.01795
X123.67425 Y183.23013 Z-0.02524
X123.70494 Y183.20242 Z-0.03253
X123.73624 Y183.17538 Z-0.03982
X123.76812 Y183.14904 Z-0.04711
X123.80056 Y183.12341 Z-0.0544
X123.83357 Y183.09849 Z-0.0617
X123.86711 Y183.07431 Z-0.06899
X123.90117 Y183.05086 Z-0.07628
X123.93574 Y183.02816 Z-0.08357
X123.9708 Y183.00623 Z-0.09086
X124.00633 Y182.98508 Z-0.09815
X124.04231 Y182.9647 Z-0.10544
X124.07874 Y182.94512 Z-0.11274
X124.11558 Y182.92635 Z-0.12003
X124.15283 Y182.90838 Z-0.12732
X124.19046 Y182.89124 Z-0.13461
X124.22845 Y182.87492 Z-0.1419
X124.2668 Y182.85945 Z-0.14919
X124.30548 Y182.84481 Z-0.15649
X124.34447 Y182.83103 Z-0.16378
X124.38375 Y182.81811 Z-0.17107
X124.4233 Y182.80605 Z-0.17836
X124.46311 Y182.79486 Z-0.18565
X124.50316 Y182.78454 Z-0.19294
X124.54342 Y182.77511 Z-0.20024
X124.58388 Y182.76656 Z-0.20753
X124.62451 Y182.7589 Z-0.21482
X124.66531 Y182.75213 Z-0.22211
X124.70624 Y182.74626 Z-0.2294
X124.74729 Y182.74128 Z-0.23669
X124.78844 Y182.73721 Z-0.24398
X124.82967 Y182.73404 Z-0.25128
X124.87097 Y182.73177 Z-0.25857
X124.9123 Y182.73041 Z-0.26586
X124.95364 Y182.72996 Z-0.27315
X126.53545 Z-0.55206
X126.57642 Y182.73041 Z-0.55929
X126.61737 Y182.73174 Z-0.56651
X126.65828 Y182.73397 Z-0.57374
X126.69914 Y182.73708 Z-0.58096
X126.73992 Y182.74108 Z-0.58819
X126.7806 Y182.74596 Z-0.59541
X126.82117 Y182.75172 Z-0.60264
X126.8616 Y182.75837 Z-0.60986
X126.90187 Y182.76589 Z-0.61709
X126.94198 Y182.77429 Z-0.62431
X126.98189 Y182.78355 Z-0.63154
X127.02159 Y182.79368 Z-0.63876
X127.06107 Y182.80467 Z-0.64599
X127.10029 Y182.81651 Z-0.65321
X127.13925 Y182.8292 Z-0.66044
X127.17792 Y182.84274 Z-0.66766
X127.21629 Y182.85711 Z-0.67488
X127.25434 Y182.87231 Z-0.68211
X127.29205 Y182.88834 Z-0.68934
X127.3294 Y182.90518 Z-0.69656
X127.36638 Y182.92283 Z-0.70378
X127.40297 Y182.94127 Z-0.71101
X127.43915 Y182.96051 Z-0.71823
X127.4749 Y182.98053 Z-0.72546
X127.5102 Y183.00132 Z-0.73268
X127.54505 Y183.02287 Z-0.73991
X127.57942 Y183.04518 Z-0.74713
X127.6133 Y183.06822 Z-0.75436
X127.64667 Y183.092 Z-0.76158
X127.67952 Y183.11649 Z-0.76881
X127.71182 Y183.14169 Z-0.77603
X127.74358 Y183.16759 Z-0.78326
X127.77476 Y183.19417 Z-0.79048
X127.80535 Y183.22143 Z-0.79771
X127.83535 Y183.24933 Z-0.80493
X127.86473 Y183.27789 Z-0.81216
X127.89349 Y183.30708 Z-0.81938
X127.92161 Y183.33688 Z-0.82661
X127.94907 Y183.36729 Z-0.83383
X127.97587 Y183.39829 Z-0.84106
X128.00198 Y183.42986 Z-0.84828
X128.02741 Y183.46199 Z-0.85551
X128.05213 Y183.49467 Z-0.86273
X128.07613 Y183.52787 Z-0.86995
X128.09941 Y183.56159 Z-0.87718
X128.12195 Y183.59581 Z-0.8844
X128.14374 Y183.63051 Z-0.89163
X128.16477 Y183.66567 Z-0.89885
X128.18503 Y183.70129 Z-0.90608
X128.20452 Y183.73733 Z-0.9133
X128.22322 Y183.77379 Z-0.92053
X128.24112 Y183.81064 Z-0.92775
X128.25822 Y183.84788 Z-0.93498
X128.2745 Y183.88548 Z-0.9422
X128.28997 Y183.92342 Z-0.94943
X128.3046 Y183.96169 Z-0.95665
X128.3184 Y184.00027 Z-0.96388
X128.33136 Y184.03914 Z-0.9711
X128.34348 Y184.07828 Z-0.97833
X128.35474 Y184.11768 Z-0.98555
X128.36514 Y184.15731 Z-0.99278
X128.37468 Y184.19716 Z-1.
G03 X130.66847 Y209.51046 I-122.86073 J23.89373 F2406.
G1 X130.69509 Y211.99527
G03 X128.80874 Y213.8941 I-1.88634 J0.01245
G1 X119.90537
G03 X118.02377 Y211.873 I-0.00003 J-1.88638
X123.17725 Y183.98163 I106.71806 J5.29645
X124.95364 Y182.72996 I1.77639 J0.63472
G1 X126.53545
G03 X128.37468 Y184.19716 I0.00001 J1.88639
G1 Z-2.
G03 X130.66847 Y209.51046 I-122.86073 J23.89373
G1 X130.69509 Y211.99527
G03 X128.80874 Y213.8941 I-1.88634 J0.01245
G1 X119.90537
G03 X118.02377 Y211.873 I-0.00003 J-1.88638
X123.17725 Y183.98163 I106.71806 J5.29645
X124.95364 Y182.72996 I1.77639 J0.63472
G1 X126.53545
G03 X128.37468 Y184.19716 I0.00001 J1.88639
G0 Z6.
X147.57017 Y194.02493
G1 Z0. F601.5
X144.74128 Z-0.49881 F1804.5
X144.70009 Y194.02448 Z-0.50607
X144.65892 Y194.02313 Z-0.51334
X144.61778 Y194.02088 Z-0.5206
X144.57671 Y194.01774 Z-0.52786
X144.53572 Y194.0137 Z-0.53513
X144.49482 Y194.00876 Z-0.54239
X144.45404 Y194.00293 Z-0.54965
X144.4134 Y193.99622 Z-0.55692
X144.37291 Y193.98861 Z-0.56418
X144.3326 Y193.98013 Z-0.57145
X144.29248 Y193.97076 Z-0.57871
X144.25258 Y193.96053 Z-0.58597
X144.21291 Y193.94942 Z-0.59324
X144.17349 Y193.93745 Z-0.6005
X144.13435 Y193.92463 Z-0.60776
X144.09549 Y193.91095 Z-0.61503
X144.05694 Y193.89642 Z-0.62229
X144.01872 Y193.88106 Z-0.62955
X143.98084 Y193.86487 Z-0.63682
X143.94333 Y193.84785 Z-0.64408
X143.90619 Y193.83002 Z-0.65135
X143.86946 Y193.81138 Z-0.65861
X143.83314 Y193.79194 Z-0.66587
X143.79725 Y193.77172 Z-0.67314
X143.76181 Y193.75072 Z-0.6804
X143.72684 Y193.72894 Z-0.68766
X143.69235 Y193.70641 Z-0.69493
X143.65837 Y193.68314 Z-0.70219
X143.6249 Y193.65912 Z-0.70946
X143.59196 Y193.63438 Z-0.71672
X143.55957 Y193.60893 Z-0.72398
X143.52774 Y193.58277 Z-0.73125
X143.4965 Y193.55593 Z-0.73851
X143.46584 Y193.52841 Z-0.74577
X143.4358 Y193.50023 Z-0.75304
X143.40637 Y193.4714 Z-0.7603
X143.37759 Y193.44193 Z-0.76756
X143.34945 Y193.41184 Z-0.77483
X143.32198 Y193.38114 Z-0.78209
X143.29518 Y193.34986 Z-0.78936
X143.26908 Y193.31799 Z-0.79662
X143.24368 Y193.28556 Z-0.80388
X143.21899 Y193.25259 Z-0.81115
X143.19502 Y193.21908 Z-0.81841
X143.1718 Y193.18506 Z-0.82567
X143.14932 Y193.15054 Z-0.83294
X143.1276 Y193.11553 Z-0.8402
X143.10665 Y193.08006 Z-0.84746
X143.08648 Y193.04414 Z-0.85473
X143.0671 Y193.00779 Z-0.86199
X143.04852 Y192.97103 Z-0.86926
X143.03074 Y192.93387 Z-0.87652
X143.01378 Y192.89633 Z-0.88378
X142.99765 Y192.85842 Z-0.89104
X142.98235 Y192.82018 Z-0.89831
X142.96788 Y192.78161 Z-0.90557
X142.95426 Y192.74273 Z-0.91284
X142.9415 Y192.70356 Z-0.9201
X142.92959 Y192.66413 Z-0.92736
X142.91854 Y192.62444 Z-0.93463
X142.90837 Y192.58452 Z-0.94189
X142.89906 Y192.54439 Z-0.94916
X142.89064 Y192.50407 Z-0.95642
X142.8831 Y192.46357 Z-0.96368
X142.87645 Y192.42292 Z-0.97095
X142.87068 Y192.38213 Z-0.97821
X142.86581 Y192.34123 Z-0.98547
X142.86183 Y192.30022 Z-0.99274
X142.85875 Y192.25915 Z-1.
G03 X142.4385 Y170.99162 I285.37541 J-16.27691 F2406.
X144.32444 Y169.14611 I1.88595 J0.04087
G1 X149.54628
G03 X151.43234 Y171.06758 I0. J1.88638
X150.73828 Y192.22488 I-820.19128 J-16.31625
X148.85387 Y194.02493 I-1.88441 J-0.08634
G1 X144.74128
G03 X142.85875 Y192.25915 I-0.00001 J-1.88639
G1 Z-2.
G03 X142.4385 Y170.99162 I285.37541 J-16.27691
X144.32444 Y169.14611 I1.88595 J0.04087
G1 X149.54628
G03 X151.43234 Y171.06758 I0. J1.88638
X150.73828 Y192.22488 I-820.19128 J-16.31625
X148.85387 Y194.02493 I-1.88441 J-0.08634
G1 X144.74128
G03 X142.85875 Y192.25915 I-0.00001 J-1.88639
G0 Z6.
X149.03176 Y221.20166
G1 Z0. F601.5
X149.02621 Y221.28483 Z-0.0147 F1804.5
X149.02154 Y221.34108 Z-0.02465
X149.0152 Y221.39716 Z-0.0346
X149.00718 Y221.45304 Z-0.04455
X148.9975 Y221.50864 Z-0.05451
X148.98615 Y221.56393 Z-0.06446
X148.97316 Y221.61886 Z-0.07441
X148.95852 Y221.67338 Z-0.08436
X148.94227 Y221.72743 Z-0.09432
X148.9244 Y221.78097 Z-0.10427
X148.90494 Y221.83395 Z-0.11422
X148.8839 Y221.88633 Z-0.12417
X148.86131 Y221.93805 Z-0.13413
X148.83718 Y221.98908 Z-0.14408
X148.81153 Y222.03936 Z-0.15403
X148.78439 Y222.08885 Z-0.16399
X148.75578 Y222.13751 Z-0.17394
X148.72573 Y222.18528 Z-0.18389
X148.69426 Y222.23214 Z-0.19384
X148.66141 Y222.27804 Z-0.2038
X148.62719 Y222.32293 Z-0.21375
X148.59165 Y222.36678 Z-0.2237
X148.55481 Y222.40954 Z-0.23365
X148.51671 Y222.45119 Z-0.2436
X148.47738 Y222.49167 Z-0.25356
X148.43686 Y222.53096 Z-0.26351
X148.39518 Y222.56903 Z-0.27346
X148.35238 Y222.60582 Z-0.28342
X148.3085 Y222.64132 Z-0.29337
X148.26357 Y222.67549 Z-0.30332
X148.21764 Y222.70831 Z-0.31327
X148.17076 Y222.73973 Z-0.32323
X148.12295 Y222.76973 Z-0.33318
X148.07426 Y222.7983 Z-0.34313
X148.02475 Y222.82539 Z-0.35308
X147.97444 Y222.85099 Z-0.36304
X147.92339 Y222.87507 Z-0.37299
X147.87165 Y222.89762 Z-0.38294
X147.81925 Y222.9186 Z-0.39289
X147.76625 Y222.93801 Z-0.40285
X147.71269 Y222.95583 Z-0.4128
X147.65862 Y222.97203 Z-0.42275
X147.6041 Y222.98661 Z-0.4327
X147.54916 Y222.99955 Z-0.44266
X147.49385 Y223.01085 Z-0.45261
X147.43824 Y223.02048 Z-0.46256
X147.38236 Y223.02844 Z-0.47251
X147.32627 Y223.03473 Z-0.48247
X147.27001 Y223.03934 Z-0.49242
X147.21364 Y223.04226 Z-0.50237
X147.15721 Y223.0435 Z-0.51233
X147.10077 Y223.04305 Z-0.52228
X147.04437 Y223.0409 Z-0.53223
X146.98805 Y223.03707 Z-0.54218
X146.93188 Y223.03156 Z-0.55214
X146.8759 Y223.02437 Z-0.56209
X146.82015 Y223.01551 Z-0.57204
X146.7647 Y223.00499 Z-0.58199
X146.70958 Y222.99281 Z-0.59195
X146.65486 Y222.97899 Z-0.6019
X146.60057 Y222.96353 Z-0.61185
X146.54677 Y222.94646 Z-0.6218
X146.49351 Y222.92779 Z-0.63176
X146.44082 Y222.90753 Z-0.64171
X146.38877 Y222.8857 Z-0.65166
X146.33739 Y222.86233 Z-0.66161
X146.28674 Y222.83743 Z-0.67157
X146.23685 Y222.81102 Z-0.68152
X146.18778 Y222.78314 Z-0.69147
X146.13956 Y222.7538 Z-0.70142
X146.09224 Y222.72303 Z-0.71138
X146.04586 Y222.69086 Z-0.72133
X146.00047 Y222.65731 Z-0.73128
X145.9561 Y222.62242 Z-0.74123
X145.91279 Y222.58622 Z-0.75119
X145.87059 Y222.54874 Z-0.76114
X145.82953 Y222.51002 Z-0.77109
X145.78964 Y222.47008 Z-0.78104
X145.75096 Y222.42897 Z-0.791
X145.71354 Y222.38671 Z-0.80095
X145.67739 Y222.34336 Z-0.8109
X145.64256 Y222.29895 Z-0.82085
X145.60907 Y222.25351 Z-0.83081
X145.57696 Y222.2071 Z-0.84076
X145.54625 Y222.15974 Z-0.85071
X145.51697 Y222.11148 Z-0.86066
X145.48914 Y222.06237 Z-0.87062
X145.4628 Y222.01245 Z-0.88057
X145.43797 Y221.96177 Z-0.89052
X145.41466 Y221.91036 Z-0.90047
X145.3929 Y221.85828 Z-0.91043
X145.3727 Y221.80557 Z-0.92038
X145.3541 Y221.75228 Z-0.93033
X145.33709 Y221.69846 Z-0.94029
X145.32171 Y221.64415 Z-0.95024
X145.30795 Y221.58941 Z-0.96019
X145.29584 Y221.53428 Z-0.97014
X145.28539 Y221.47882 Z-0.9801
X145.2766 Y221.42306 Z-0.99005
X145.26948 Y221.36707 Z-1.
G03 X143.60526 Y203.67388 I547.96943 J-60.46674 F2406.
X145.48608 Y201.64273 I1.88082 J-0.14477
G1 X148.26819
G03 X150.15145 Y203.63777 I0.00001 J1.88638
X149.02621 Y221.28483 I-1891.98694 J-111.78066
X145.26948 Y221.36707 I-1.88206 J-0.12767
G1 Z-2.
G03 X143.60526 Y203.67388 I547.96943 J-60.46674
X145.48608 Y201.64273 I1.88082 J-0.14477
G1 X148.26819
G03 X150.15145 Y203.63777 I0.00001 J1.88638
X149.02621 Y221.28483 I-1891.98694 J-111.78066
X145.26948 Y221.36707 I-1.88206 J-0.12767
G0 Z6.
X126.07206 Y221.51191
G1 Z0. F601.5
X128.73999 Z-0.47043 F1804.5
X128.78094 Y221.51235 Z-0.47765
X128.82187 Y221.51368 Z-0.48487
X128.86276 Y221.5159 Z-0.49209
X128.9036 Y221.51901 Z-0.49931
X128.94435 Y221.52301 Z-0.50653
X128.98502 Y221.52788 Z-0.51375
X129.02556 Y221.53364 Z-0.52097
X129.06597 Y221.54028 Z-0.5282
X129.10623 Y221.5478 Z-0.53542
X129.14632 Y221.55618 Z-0.54264
X129.18621 Y221.56544 Z-0.54986
X129.2259 Y221.57556 Z-0.55708
X129.26535 Y221.58653 Z-0.5643
X129.30456 Y221.59837 Z-0.57152
X129.3435 Y221.61105 Z-0.57875
X129.38216 Y221.62457 Z-0.58597
X129.42051 Y221.63893 Z-0.59319
X129.45854 Y221.65412 Z-0.60041
X129.49624 Y221.67012 Z-0.60763
X129.53357 Y221.68695 Z-0.61485
X129.57054 Y221.70458 Z-0.62207
X129.60711 Y221.72301 Z-0.62929
X129.64328 Y221.74223 Z-0.63651
X129.67901 Y221.76223 Z-0.64373
X129.71431 Y221.783 Z-0.65096
X129.74915 Y221.80453 Z-0.65818
X129.78351 Y221.82681 Z-0.6654
X129.81737 Y221.84983 Z-0.67262
X129.85074 Y221.87359 Z-0.67984
X129.88357 Y221.89806 Z-0.68706
X129.91587 Y221.92324 Z-0.69428
X129.94762 Y221.94911 Z-0.70151
X129.97879 Y221.97567 Z-0.70873
X130.00938 Y222.0029 Z-0.71595
X130.03938 Y222.03078 Z-0.72317
X130.06876 Y222.05931 Z-0.73039
X130.09751 Y222.08847 Z-0.73761
X130.12563 Y222.11825 Z-0.74483
X130.15309 Y222.14863 Z-0.75205
X130.17988 Y222.17961 Z-0.75927
X130.206 Y222.21115 Z-0.7665
X130.23142 Y222.24326 Z-0.77372
X130.25615 Y222.27591 Z-0.78094
X130.28016 Y222.30908 Z-0.78816
X130.30344 Y222.34277 Z-0.79538
X130.32598 Y222.37696 Z-0.8026
X130.34778 Y222.41163 Z-0.80982
X130.36882 Y222.44677 Z-0.81704
X130.38909 Y222.48235 Z-0.82427
X130.40859 Y222.51837 Z-0.83149
X130.4273 Y222.5548 Z-0.83871
X130.44521 Y222.59163 Z-0.84593
X130.46232 Y222.62883 Z-0.85315
X130.47862 Y222.6664 Z-0.86037
X130.4941 Y222.70432 Z-0.86759
X130.50875 Y222.74256 Z-0.87481
X130.52257 Y222.78112 Z-0.88203
X130.53554 Y222.81996 Z-0.88926
X130.54768 Y222.85907 Z-0.89648
X130.55896 Y222.89844 Z-0.9037
X130.56938 Y222.93805 Z-0.91092
X130.57894 Y222.97787 Z-0.91814
X130.58763 Y223.01789 Z-0.92536
X130.59545 Y223.05809 Z-0.93258
X130.6024 Y223.09845 Z-0.9398
X130.60847 Y223.13895 Z-0.94703
X130.61366 Y223.17957 Z-0.95425
X130.61797 Y223.2203 Z-0.96147
X130.62139 Y223.26111 Z-0.96869
X130.62393 Y223.30198 Z-0.97591
X130.62557 Y223.34291 Z-0.98313
X130.62633 Y223.38385 Z-0.99035
X130.6262 Y223.42481 Z-0.99757
X130.62595 Y223.43856 Z-1.
X130.6262 Y223.42481 F2406.
G03 X130.2616 Y237.19993 I-785.3781 J-13.89467
X128.37637 Y239.02036 I-1.88523 J-0.06595
G1 X119.26747
G03 X117.38153 Y237.17494 I0. J-1.88638
X117.40907 Y223.34399 I272.4871 J-6.37293
X119.29467 Y221.51191 I1.8856 J0.0543
G1 X128.73999
G03 X130.6262 Y223.42481 I0.00001 J1.88638
G1 Z-2.
G03 X130.2616 Y237.19993 I-785.3781 J-13.89467
X128.37637 Y239.02036 I-1.88523 J-0.06595
G1 X119.26747
G03 X117.38153 Y237.17494 I0. J-1.88638
X117.40907 Y223.34399 I272.4871 J-6.37293
X119.29467 Y221.51191 I1.8856 J0.0543
G1 X128.73999
G03 X130.6262 Y223.42481 I0.00001 J1.88638
G0 Z6.
X118.95238 Y251.97526
G1 Z0. F601.5
Y246.30398 Z-1. F1804.5
X126.2108 F2406.
Y265.48578
X118.95238
Y246.30398
Z-2.
X126.2108
Y265.48578
X118.95238
Y246.30398
G0 Z6.
X101.85082 Y253.77059
G1 Z0. F601.5
X101.88212 Y253.80351 Z-0.00801 F1804.5
X101.91839 Y253.84295 Z-0.01746
X101.95399 Y253.88298 Z-0.0269
X101.98892 Y253.92361 Z-0.03635
X102.02317 Y253.96482 Z-0.0458
X102.05673 Y254.00659 Z-0.05525
X102.08958 Y254.04892 Z-0.06469
X102.12172 Y254.09179 Z-0.07414
X102.15314 Y254.13519 Z-0.08359
X102.18383 Y254.17912 Z-0.09304
X102.21378 Y254.22354 Z-0.10249
X102.24298 Y254.26847 Z-0.11193
X102.27143 Y254.31387 Z-0.12138
X102.29912 Y254.35974 Z-0.13083
X102.32604 Y254.40607 Z-0.14028
X102.35218 Y254.45284 Z-0.14973
X102.37753 Y254.50005 Z-0.15917
X102.40209 Y254.54767 Z-0.16862
X102.42585 Y254.59569 Z-0.17807
X102.44881 Y254.6441 Z-0.18752
X102.47095 Y254.6929 Z-0.19696
X102.49228 Y254.74205 Z-0.20641
X102.51278 Y254.79155 Z-0.21586
X102.53245 Y254.84139 Z-0.22531
X102.55129 Y254.89155 Z-0.23476
X102.56928 Y254.94202 Z-0.2442
X102.58643 Y254.99279 Z-0.25365
X102.60273 Y255.04383 Z-0.2631
X102.61817 Y255.09514 Z-0.27255
X102.63275 Y255.14669 Z-0.28199
X102.64647 Y255.19849 Z-0.29144
X102.65932 Y255.2505 Z-0.30089
X102.67131 Y255.30273 Z-0.31034
X102.68241 Y255.35515 Z-0.31978
X102.69264 Y255.40774 Z-0.32923
X102.70199 Y255.4605 Z-0.33868
X102.71046 Y255.51341 Z-0.34813
X102.71804 Y255.56645 Z-0.35758
X102.72473 Y255.61961 Z-0.36702
X102.73054 Y255.67288 Z-0.37647
X102.73545 Y255.72623 Z-0.38592
X102.73947 Y255.77966 Z-0.39537
X102.7426 Y255.83315 Z-0.40481
X102.74483 Y255.88669 Z-0.41426
X102.74617 Y255.94025 Z-0.42371
X102.74661 Y255.99383 Z-0.43316
X102.74616 Y256.04741 Z-0.44261
X102.74481 Y256.10097 Z-0.45205
X102.74257 Y256.15451 Z-0.4615
X102.58924 Y259.20463 Z-1.
G03 X102.0723 Y268.29407 I-920.35074 J-47.78259 F2406.
X98.87222 Y271.30153 I-3.20008 J-0.19879
G1 X93.12108
G03 X89.9257 Y268.35903 I0. J-3.20625
X89.06891 Y256.17846 I517.32465 J-42.5092
X92.26982 Y252.78728 I3.20091 J-0.18493
G1 X99.54036
G03 X102.74257 Y256.15451 I0. J3.20625
G1 X102.58924 Y259.20463
Z-2.
G03 X102.0723 Y268.29407 I-920.35074 J-47.78259
X98.87222 Y271.30153 I-3.20008 J-0.19879
G1 X93.12108
G03 X89.9257 Y268.35903 I0. J-3.20625
X89.06891 Y256.17846 I517.32465 J-42.5092
X92.26982 Y252.78728 I3.20091 J-0.18493
G1 X99.54036
G03 X102.74257 Y256.15451 I0. J3.20625
G1 X102.58924 Y259.20463
G0 Z6.
X98.22946 Y279.46969
G1 Z0. F601.5
X98.31984 Y279.59661 Z-0.02747 F1804.5
X98.40537 Y279.73445 Z-0.05608
X98.48198 Y279.87744 Z-0.08468
X98.54937 Y280.025 Z-0.11329
X98.60726 Y280.17654 Z-0.14189
X98.65543 Y280.33144 Z-0.17049
X98.69367 Y280.48909 Z-0.1991
X98.72185 Y280.64885 Z-0.2277
X98.73982 Y280.81007 Z-0.2563
X98.74754 Y280.9721 Z-0.28491
X98.74497 Y281.1343 Z-0.31351
X98.73211 Y281.29601 Z-0.34212
X98.70903 Y281.45658 Z-0.37072
X98.6758 Y281.61536 Z-0.39932
X98.63258 Y281.77171 Z-0.42793
X98.57952 Y281.92501 Z-0.45653
X98.51685 Y282.07464 Z-0.48513
X98.44481 Y282.21998 Z-0.51374
X98.3637 Y282.36047 Z-0.54234
X98.27384 Y282.49553 Z-0.57094
X98.1756 Y282.62462 Z-0.59955
X98.06937 Y282.74722 Z-0.62815
X97.95558 Y282.86283 Z-0.65676
X97.83468 Y282.97099 Z-0.68536
X97.70717 Y283.07127 Z-0.71396
X97.57355 Y283.16326 Z-0.74257
X97.43437 Y283.24659 Z-0.77117
X97.29018 Y283.32092 Z-0.79977
X97.14157 Y283.38596 Z-0.82838
X96.98913 Y283.44144 Z-0.85698
X96.83349 Y283.48714 Z-0.88559
X96.67525 Y283.52288 Z-0.91419
X96.51507 Y283.54851 Z-0.94279
X96.35359 Y283.56393 Z-0.9714
X96.19145 Y283.56908 Z-1.
G03 Y278.45625 I0. J-2.55642 F2406.
Y283.56908 I0. J2.55641
G1 Z-2.
G03 Y278.45625 I0. J-2.55642
Y283.56908 I0. J2.55641
G0 Z6.
X99.35466 Y309.20711
G1 Z0. F601.5
X99.22799 Y310.88248 Z-0.29626 F1804.5
X99.02438 Y313.54692 Z-0.76744
X98.923 Y314.86194 Z-1.
X98.92287 Y314.86368 F2406.
G03 X95.17534 Y315.00277 I-1.88142 J-0.13674
X91.91667 Y290.31306 I764.87035 J-113.51151
X93.79072 Y288.21133 I1.87405 J-0.21535
G1 X98.8705
G03 X100.75205 Y290.23284 I0.00001 J1.88638
X98.923 Y314.86194 I-4760.40724 J-341.14216
G1 Z-2.
X98.92287 Y314.86368
G03 X95.17534 Y315.00277 I-1.88142 J-0.13674
X91.91667 Y290.31306 I764.87035 J-113.51151
X93.79072 Y288.21133 I1.87405 J-0.21535
G1 X98.8705
G03 X100.75205 Y290.23284 I0.00001 J1.88638
X98.923 Y314.86194 I-4760.40724 J-341.14216
G0 Z6.
X64.98772 Y318.29184
G1 Z0. F601.5
X64.95966 Y317.99643 Z-0.05232 F1804.5
X64.86082 Y316.93807 Z-0.23975
X64.74054 Y315.61563 Z-0.4739
X64.63532 Y314.42459 Z-0.68473
X64.53304 Y313.23315 Z-0.89558
X64.4835 Y312.64305 Z-1.
G03 X65.69651 Y311.33667 I1.21301 J-0.09003 F2406.
G1 X67.29608 Y311.33663
G03 X68.51027 Y312.62556 I-0.00005 J1.21641
X67.87076 Y322.86386 I-2214.43675 J-133.18137
X65.44776 Y322.90909 I-1.21348 J-0.08352
X64.4835 Y312.64305 I496.92434 J-51.85288
G1 Z-2.
G03 X65.69651 Y311.33667 I1.21301 J-0.09003
G1 X67.29608 Y311.33663
G03 X68.51027 Y312.62556 I-0.00005 J1.21641
X67.87076 Y322.86386 I-2214.43675 J-133.18137
X65.44776 Y322.90909 I-1.21348 J-0.08352
X64.4835 Y312.64305 I496.92434 J-51.85288
G0 Z6.
X43.03894 Y286.54116
G1 Z0. F601.5
X43.07576 Y286.5342 Z-0.00661 F1804.5
X43.11663 Y286.52741 Z-0.01391
X43.15764 Y286.52151 Z-0.02122
X43.19877 Y286.51652 Z-0.02852
X43.23999 Y286.51243 Z-0.03583
X43.2813 Y286.50925 Z-0.04313
X43.32267 Y286.50698 Z-0.05044
X43.36408 Y286.50561 Z-0.05774
X43.40551 Y286.50516 Z-0.06505
X45.61943 Z-0.45542
X45.6606 Y286.50561 Z-0.46269
X45.70176 Y286.50696 Z-0.46995
X45.74288 Y286.5092 Z-0.47721
X45.78394 Y286.51234 Z-0.48447
X45.82492 Y286.51638 Z-0.49173
X45.8658 Y286.52132 Z-0.49899
X45.90657 Y286.52714 Z-0.50625
X45.94719 Y286.53385 Z-0.51351
X45.98767 Y286.54145 Z-0.52077
X46.02796 Y286.54993 Z-0.52803
X46.06807 Y286.55929 Z-0.5353
X46.10795 Y286.56952 Z-0.54256
X46.14761 Y286.58061 Z-0.54982
X46.18701 Y286.59257 Z-0.55708
X46.22615 Y286.60539 Z-0.56434
X46.26499 Y286.61906 Z-0.5716
X46.30353 Y286.63358 Z-0.57886
X46.34174 Y286.64893 Z-0.58612
X46.37961 Y286.66511 Z-0.59338
X46.41711 Y286.68211 Z-0.60064
X46.45423 Y286.69993 Z-0.60791
X46.49096 Y286.71856 Z-0.61517
X46.52727 Y286.73798 Z-0.62243
X46.56315 Y286.75819 Z-0.62969
X46.59858 Y286.77918 Z-0.63695
X46.63354 Y286.80094 Z-0.64421
X46.66802 Y286.82346 Z-0.65147
X46.702 Y286.84672 Z-0.65873
X46.73546 Y286.87072 Z-0.66599
X46.76839 Y286.89544 Z-0.67325
X46.80078 Y286.92088 Z-0.68051
X46.8326 Y286.94701 Z-0.68778
X46.86384 Y286.97384 Z-0.69504
X46.89449 Y287.00134 Z-0.7023
X46.92453 Y287.0295 Z-0.70956
X46.95395 Y287.05832 Z-0.71682
X46.98274 Y287.08776 Z-0.72408
X47.01087 Y287.11783 Z-0.73134
X47.03835 Y287.14851 Z-0.7386
X47.06514 Y287.17978 Z-0.74586
X47.09125 Y287.21162 Z-0.75313
X47.11665 Y287.24403 Z-0.76039
X47.14135 Y287.27699 Z-0.76765
X47.16531 Y287.31047 Z-0.77491
X47.18854 Y287.34447 Z-0.78217
X47.21102 Y287.37898 Z-0.78943
X47.23275 Y287.41396 Z-0.79669
X47.2537 Y287.44941 Z-0.80395
X47.27388 Y287.4853 Z-0.81121
X47.29327 Y287.52163 Z-0.81847
X47.31186 Y287.55838 Z-0.82574
X47.32964 Y287.59552 Z-0.833
X47.34661 Y287.63304 Z-0.84026
X47.36276 Y287.67092 Z-0.84752
X47.37807 Y287.70915 Z-0.85478
X47.39255 Y287.7477 Z-0.86204
X47.40618 Y287.78656 Z-0.8693
X47.41896 Y287.8257 Z-0.87656
X47.43089 Y287.86512 Z-0.88382
X47.44195 Y287.90478 Z-0.89108
X47.45214 Y287.94468 Z-0.89835
X47.46146 Y287.98479 Z-0.90561
X47.4699 Y288.0251 Z-0.91287
X47.47746 Y288.06558 Z-0.92013
X47.48413 Y288.10621 Z-0.92739
X47.48991 Y288.14698 Z-0.93465
X47.49481 Y288.18787 Z-0.94191
X47.49881 Y288.22885 Z-0.94917
X47.50191 Y288.26992 Z-0.95643
X47.50412 Y288.31104 Z-0.96369
X47.50543 Y288.35219 Z-0.97096
X47.50584 Y288.39337 Z-0.97822
X47.50535 Y288.43455 Z-0.98548
X47.50396 Y288.4757 Z-0.99274
X47.50168 Y288.51682 Z-1.
G03 X46.70568 Y299.5284 I-5461.49633 J-389.2616 F2406.
X42.95646 Y299.65359 I-1.88131 J-0.13819
X41.53277 Y288.61806 I722.58309 J-98.82985
X43.40551 Y286.50516 I1.87273 J-0.22652
G1 X45.61943
G03 X47.50168 Y288.51682 I-0.00002 J1.88643
G1 Z-2.
G03 X46.70568 Y299.5284 I-5461.49633 J-389.2616
X42.95646 Y299.65359 I-1.88131 J-0.13819
X41.53277 Y288.61806 I722.58309 J-98.82985
X43.40551 Y286.50516 I1.87273 J-0.22652
G1 X45.61943
G03 X47.50168 Y288.51682 I-0.00002 J1.88643
G0 Z6.
X63.16396 Y285.72511
G1 Z0. F601.5
X63.16155 Y285.12899 Z-0.10511 F1804.5
X63.1656 Y283.31237 Z-0.42543
X63.17354 Y282.40679 Z-0.58512
X63.19323 Y281.04632 Z-0.82503
X63.21355 Y280.05423 Z-1.
X63.21362 Y280.04862 F2406.
G03 X64.42995 Y278.84004 I1.21633 J0.00777
G1 X68.59501
G03 X69.81134 Y280.06402 I0. J1.21635
X69.05664 Y302.57232 I-756.11577 J-14.08553
X67.8423 Y303.71886 I-1.21434 J-0.06981
G1 X64.97114
G03 X63.75817 Y302.59322 I0. J-1.21635
X63.21355 Y280.05423 I268.88182 J-17.77323
G1 Z-2.
X63.21362 Y280.04862
G03 X64.42995 Y278.84004 I1.21633 J0.00777
G1 X68.59501
G03 X69.81134 Y280.06402 I0. J1.21635
X69.05664 Y302.57232 I-756.11577 J-14.08553
X67.8423 Y303.71886 I-1.21434 J-0.06981
G1 X64.97114
G03 X63.75817 Y302.59322 I0. J-1.21635
X63.21355 Y280.05423 I268.88182 J-17.77323
G0 Z6.
X40.94927 Y273.01671
G1 Z0. F601.5
X40.97155 Y273.00406 Z-0.00452 F1804.5
X41.00804 Y272.9844 Z-0.01183
X41.04494 Y272.96554 Z-0.01913
X41.08226 Y272.94749 Z-0.02644
X41.11996 Y272.93027 Z-0.03375
X41.15803 Y272.91388 Z-0.04106
X41.19645 Y272.89834 Z-0.04837
X41.2352 Y272.88364 Z-0.05568
X41.27427 Y272.86979 Z-0.06298
X41.31363 Y272.85681 Z-0.07029
X41.35327 Y272.8447 Z-0.0776
X41.39316 Y272.83346 Z-0.08491
X41.43329 Y272.82309 Z-0.09222
X41.47364 Y272.81362 Z-0.09953
X41.51419 Y272.80503 Z-0.10683
X41.55491 Y272.79733 Z-0.11414
X41.5958 Y272.79053 Z-0.12145
X41.63682 Y272.78463 Z-0.12876
X41.67797 Y272.77964 Z-0.13607
X41.71921 Y272.77554 Z-0.14337
X41.76054 Y272.77236 Z-0.15068
X41.80192 Y272.77008 Z-0.15799
X41.84335 Y272.76872 Z-0.1653
X41.88479 Y272.76826 Z-0.17261
X46.57717 Y272.7683 Z-1.
X46.57719 F2406.
G03 X48.45979 Y274.7739 I0.00004 J1.88633
G1 X48.29885 Y277.13026
G03 X46.41691 Y278.88736 I-1.88195 J-0.12929
G1 X42.12359
G03 X40.24862 Y277.20812 I0.00001 J-1.88639
G1 X40.1197 Y275.95265
X40.00767 Y274.84126
G03 X41.88479 Y272.76826 I1.87713 J-0.18661
G1 X46.57717 Y272.7683
Z-2.
X46.57719
G03 X48.45979 Y274.7739 I0.00004 J1.88633
G1 X48.29885 Y277.13026
G03 X46.41691 Y278.88736 I-1.88195 J-0.12929
G1 X42.12359
G03 X40.24862 Y277.20812 I0.00001 J-1.88639
G1 X40.1197 Y275.95265
X40.00767 Y274.84126
G03 X41.88479 Y272.76826 I1.87713 J-0.18661
G1 X46.57717 Y272.7683
G0 Z6.
X39.13025 Y251.97526
G1 Z0. F601.5
Y246.30398 Z-1. F1804.5
X46.38867 F2406.
Y265.48578
X39.13025
Y246.30398
Z-2.
X46.38867
Y265.48578
X39.13025
Y246.30398
G0 Z6.
X46.23617 Y221.51191
G1 Z0. F601.5
X48.91786 Z-0.47285 F1804.5
X48.95881 Y221.51235 Z-0.48007
X48.99974 Y221.51368 Z-0.4873
X49.04063 Y221.5159 Z-0.49452
X49.08147 Y221.51901 Z-0.50174
X49.12222 Y221.52301 Z-0.50896
X49.16289 Y221.52788 Z-0.51618
X49.20343 Y221.53364 Z-0.5234
X49.24384 Y221.54028 Z-0.53062
X49.2841 Y221.5478 Z-0.53784
X49.32419 Y221.55618 Z-0.54507
X49.36408 Y221.56544 Z-0.55229
X49.40377 Y221.57556 Z-0.55951
X49.44322 Y221.58653 Z-0.56673
X49.48243 Y221.59837 Z-0.57395
X49.52137 Y221.61105 Z-0.58117
X49.56003 Y221.62457 Z-0.58839
X49.59838 Y221.63893 Z-0.59561
X49.63641 Y221.65412 Z-0.60283
X49.67411 Y221.67012 Z-0.61006
X49.71144 Y221.68695 Z-0.61728
X49.74841 Y221.70458 Z-0.6245
X49.78498 Y221.72301 Z-0.63172
X49.82115 Y221.74223 Z-0.63894
X49.85688 Y221.76223 Z-0.64616
X49.89218 Y221.783 Z-0.65338
X49.92702 Y221.80453 Z-0.6606
X49.96138 Y221.82681 Z-0.66783
X49.99524 Y221.84983 Z-0.67505
X50.02861 Y221.87359 Z-0.68227
X50.06144 Y221.89806 Z-0.68949
X50.09374 Y221.92324 Z-0.69671
X50.12549 Y221.94911 Z-0.70393
X50.15666 Y221.97567 Z-0.71115
X50.18725 Y222.0029 Z-0.71837
X50.21725 Y222.03078 Z-0.7256
X50.24663 Y222.05931 Z-0.73282
X50.27538 Y222.08847 Z-0.74004
X50.30349 Y222.11825 Z-0.74726
X50.33096 Y222.14863 Z-0.75448
X50.35775 Y222.17961 Z-0.7617
X50.38387 Y222.21115 Z-0.76892
X50.40929 Y222.24326 Z-0.77614
X50.43402 Y222.27591 Z-0.78336
X50.45803 Y222.30908 Z-0.79059
X50.48131 Y222.34277 Z-0.79781
X50.50385 Y222.37696 Z-0.80503
X50.52565 Y222.41163 Z-0.81225
X50.54669 Y222.44677 Z-0.81947
X50.56696 Y222.48235 Z-0.82669
X50.58646 Y222.51837 Z-0.83391
X50.60517 Y222.5548 Z-0.84113
X50.62308 Y222.59163 Z-0.84836
X50.64019 Y222.62883 Z-0.85558
X50.65649 Y222.66641 Z-0.8628
X50.67197 Y222.70432 Z-0.87002
X50.68662 Y222.74256 Z-0.87724
X50.70044 Y222.78112 Z-0.88446
X50.71341 Y222.81996 Z-0.89168
X50.72555 Y222.85907 Z-0.8989
X50.73683 Y222.89844 Z-0.90613
X50.74725 Y222.93805 Z-0.91335
X50.75681 Y222.97787 Z-0.92057
X50.7655 Y223.01789 Z-0.92779
X50.77333 Y223.05809 Z-0.93501
X50.78027 Y223.09845 Z-0.94223
X50.78634 Y223.13895 Z-0.94945
X50.79153 Y223.17957 Z-0.95667
X50.79584 Y223.2203 Z-0.96389
X50.79926 Y223.26111 Z-0.97112
X50.80179 Y223.30198 Z-0.97834
X50.80344 Y223.34291 Z-0.98556
X50.8042 Y223.38385 Z-0.99278
X50.80407 Y223.42481 Z-1.
G03 X50.80383 Y223.43856 I-1.8862 J-0.02652 F2406.
X50.43947 Y237.19993 I-785.3766 J-13.90838
X48.55424 Y239.02036 I-1.88523 J-0.06595
G1 X39.44534
G03 X37.5594 Y237.17494 I0. J-1.88638
X37.58694 Y223.34399 I272.4871 J-6.37293
X39.47254 Y221.51191 I1.8856 J0.0543
G1 X48.91786
G03 X50.80407 Y223.42481 I0.00001 J1.88638
G1 Z-2.
G03 X50.80383 Y223.43856 I-1.8862 J-0.02652
X50.43947 Y237.19993 I-785.3766 J-13.90838
X48.55424 Y239.02036 I-1.88523 J-0.06595
G1 X39.44534
G03 X37.5594 Y237.17494 I0. J-1.88638
X37.58694 Y223.34399 I272.4871 J-6.37293
X39.47254 Y221.51191 I1.8856 J0.0543
G1 X48.91786
G03 X50.80407 Y223.42481 I0.00001 J1.88638
G0 Z6.
X69.20963 Y221.20166
G1 Z0. F601.5
X69.20408 Y221.28483 Z-0.0147 F1804.5
X69.19941 Y221.34108 Z-0.02465
X69.19307 Y221.39716 Z-0.0346
X69.18505 Y221.45304 Z-0.04455
X69.17537 Y221.50864 Z-0.05451
X69.16402 Y221.56393 Z-0.06446
X69.15103 Y221.61886 Z-0.07441
X69.13639 Y221.67338 Z-0.08436
X69.12014 Y221.72743 Z-0.09432
X69.10227 Y221.78097 Z-0.10427
X69.08281 Y221.83395 Z-0.11422
X69.06177 Y221.88633 Z-0.12417
X69.03918 Y221.93805 Z-0.13413
X69.01505 Y221.98908 Z-0.14408
X68.9894 Y222.03936 Z-0.15403
X68.96226 Y222.08885 Z-0.16399
X68.93365 Y222.13751 Z-0.17394
X68.9036 Y222.18528 Z-0.18389
X68.87213 Y222.23214 Z-0.19384
X68.83928 Y222.27804 Z-0.2038
X68.80506 Y222.32293 Z-0.21375
X68.76952 Y222.36678 Z-0.2237
X68.73268 Y222.40954 Z-0.23365
X68.69458 Y222.45119 Z-0.2436
X68.65525 Y222.49167 Z-0.25356
X68.61473 Y222.53096 Z-0.26351
X68.57305 Y222.56903 Z-0.27346
X68.53025 Y222.60582 Z-0.28342
X68.48637 Y222.64132 Z-0.29337
X68.44144 Y222.67549 Z-0.30332
X68.39551 Y222.70831 Z-0.31327
X68.34863 Y222.73973 Z-0.32323
X68.30082 Y222.76973 Z-0.33318
X68.25213 Y222.7983 Z-0.34313
X68.20262 Y222.82539 Z-0.35308
X68.15231 Y222.85099 Z-0.36304
X68.10126 Y222.87507 Z-0.37299
X68.04952 Y222.89762 Z-0.38294
X67.99712 Y222.9186 Z-0.39289
X67.94412 Y222.93801 Z-0.40285
X67.89056 Y222.95583 Z-0.4128
X67.83649 Y222.97203 Z-0.42275
X67.78197 Y222.98661 Z-0.4327
X67.72703 Y222.99955 Z-0.44266
X67.67172 Y223.01085 Z-0.45261
X67.61611 Y223.02048 Z-0.46256
X67.56023 Y223.02844 Z-0.47251
X67.50414 Y223.03473 Z-0.48247
X67.44788 Y223.03934 Z-0.49242
X67.39151 Y223.04226 Z-0.50237
X67.33508 Y223.0435 Z-0.51233
X67.27864 Y223.04305 Z-0.52228
X67.22224 Y223.0409 Z-0.53223
X67.16592 Y223.03707 Z-0.54218
X67.10975 Y223.03156 Z-0.55214
X67.05377 Y223.02437 Z-0.56209
X66.99802 Y223.01551 Z-0.57204
X66.94257 Y223.00499 Z-0.58199
X66.88745 Y222.99281 Z-0.59195
X66.83273 Y222.97899 Z-0.6019
X66.77844 Y222.96353 Z-0.61185
X66.72464 Y222.94646 Z-0.6218
X66.67138 Y222.92779 Z-0.63176
X66.61869 Y222.90753 Z-0.64171
X66.56664 Y222.8857 Z-0.65166
X66.51526 Y222.86233 Z-0.66161
X66.46461 Y222.83743 Z-0.67157
X66.41472 Y222.81102 Z-0.68152
X66.36565 Y222.78314 Z-0.69147
X66.31743 Y222.7538 Z-0.70142
X66.27011 Y222.72303 Z-0.71138
X66.22373 Y222.69086 Z-0.72133
X66.17834 Y222.65731 Z-0.73128
X66.13397 Y222.62242 Z-0.74123
X66.09066 Y222.58622 Z-0.75119
X66.04846 Y222.54874 Z-0.76114
X66.00739 Y222.51002 Z-0.77109
X65.96751 Y222.47008 Z-0.78104
X65.92883 Y222.42897 Z-0.791
X65.89141 Y222.38671 Z-0.80095
X65.85526 Y222.34336 Z-0.8109
X65.82043 Y222.29895 Z-0.82085
X65.78694 Y222.25351 Z-0.83081
X65.75483 Y222.2071 Z-0.84076
X65.72412 Y222.15974 Z-0.85071
X65.69484 Y222.11148 Z-0.86066
X65.66701 Y222.06237 Z-0.87062
X65.64067 Y222.01245 Z-0.88057
X65.61584 Y221.96177 Z-0.89052
X65.59253 Y221.91036 Z-0.90047
X65.57077 Y221.85828 Z-0.91043
X65.55057 Y221.80557 Z-0.92038
X65.53197 Y221.75228 Z-0.93033
X65.51496 Y221.69846 Z-0.94029
X65.49958 Y221.64415 Z-0.95024
X65.48582 Y221.58941 Z-0.96019
X65.47371 Y221.53428 Z-0.97014
X65.46326 Y221.47882 Z-0.9801
X65.45447 Y221.42306 Z-0.99005
X65.44735 Y221.36707 Z-1.
G03 X63.78313 Y203.67388 I547.96943 J-60.46674 F2406.
X65.66395 Y201.64273 I1.88082 J-0.14477
G1 X68.44606
G03 X70.32932 Y203.63777 I0. J1.88638
X69.20408 Y221.28483 I-1891.98704 J-111.78067
X65.44735 Y221.36707 I-1.88206 J-0.12767
G1 Z-2.
G03 X63.78313 Y203.67388 I547.96943 J-60.46674
X65.66395 Y201.64273 I1.88082 J-0.14477
G1 X68.44606
G03 X70.32932 Y203.63777 I0. J1.88638
X69.20408 Y221.28483 I-1891.98704 J-111.78067
X65.44735 Y221.36707 I-1.88206 J-0.12767
G0 Z6.
X88.37375 Y237.34252
G1 Z0. F601.5
X88.35637 Y235.78066 Z-0.27541 F1804.5
X88.35027 Y234.418 Z-0.51569
X88.35728 Y231.67136 Z-1.
X88.37074 Y230.30896 F2406.
X88.39563 Y228.77885
G03 X91.60146 Y225.62475 I3.20583 J0.05215
G1 X100.53333
G03 X103.73881 Y228.90144 I0. J3.20625
X103.30869 Y243.09603 I-828.22268 J-17.9926
X100.10698 Y246.17902 I-3.20388 J-0.12326
G1 X91.69437 Y246.18472
G03 X88.48703 Y243.0619 I-0.00217 J-3.20625
X88.35728 Y231.67136 I320.81976 J-9.35053
G1 Z-2.
X88.37074 Y230.30896
X88.39563 Y228.77885
G03 X91.60146 Y225.62475 I3.20583 J0.05215
G1 X100.53333
G03 X103.73881 Y228.90144 I0. J3.20625
X103.30869 Y243.09603 I-828.22268 J-17.9926
X100.10698 Y246.17902 I-3.20388 J-0.12326
G1 X91.69437 Y246.18472
G03 X88.48703 Y243.0619 I-0.00217 J-3.20625
X88.35728 Y231.67136 I320.81976 J-9.35053
G0 Z6.
X65.76719 Y255.7681
G1 Z0. F601.5
X65.87396 Y255.31592 Z-0.08192 F1804.5
X66.06514 Y254.542 Z-0.22249
X66.36698 Y253.3993 Z-0.43089
X66.37626 Y253.3677 Z-0.4367
X66.38639 Y253.33636 Z-0.4425
X66.39737 Y253.30531 Z-0.44831
X66.40918 Y253.27457 Z-0.45412
X66.42182 Y253.24416 Z-0.45992
X66.43528 Y253.2141 Z-0.46573
X66.44955 Y253.18442 Z-0.47154
X66.46462 Y253.15513 Z-0.47735
X66.48048 Y253.12627 Z-0.48315
X66.49711 Y253.09784 Z-0.48896
X66.5145 Y253.06987 Z-0.49477
X66.53265 Y253.04239 Z-0.50058
X66.55153 Y253.0154 Z-0.50638
X66.57114 Y252.98894 Z-0.51219
X66.59145 Y252.96302 Z-0.518
X66.61246 Y252.93766 Z-0.5238
X66.63415 Y252.91287 Z-0.52961
X66.6565 Y252.88868 Z-0.53542
X66.6795 Y252.86511 Z-0.54123
X66.70313 Y252.84216 Z-0.54703
X66.72737 Y252.81987 Z-0.55284
X66.75221 Y252.79824 Z-0.55865
X66.77762 Y252.77729 Z-0.56446
X66.80359 Y252.75704 Z-0.57026
X66.8301 Y252.73749 Z-0.57607
X66.85713 Y252.71867 Z-0.58188
X66.88466 Y252.70059 Z-0.58768
X66.91266 Y252.68327 Z-0.59349
X66.94113 Y252.6667 Z-0.5993
X66.97004 Y252.65091 Z-0.60511
X66.99936 Y252.63592 Z-0.61091
X67.02907 Y252.62172 Z-0.61672
X67.05916 Y252.60833 Z-0.62253
X67.0896 Y252.59576 Z-0.62833
X67.12037 Y252.58402 Z-0.63414
X67.15145 Y252.57311 Z-0.63995
X67.18281 Y252.56305 Z-0.64576
X67.21444 Y252.55385 Z-0.65156
X67.2463 Y252.5455 Z-0.65737
X67.27837 Y252.53802 Z-0.66318
X67.31063 Y252.53141 Z-0.66899
X67.34307 Y252.52568 Z-0.67479
X67.37564 Y252.52083 Z-0.6806
X67.40833 Y252.51686 Z-0.68641
X67.44113 Y252.51378 Z-0.69222
X67.47399 Y252.51158 Z-0.69802
X67.5069 Y252.51028 Z-0.70383
X67.53983 Y252.50987 Z-0.70964
X67.57276 Y252.51035 Z-0.71544
X67.60566 Y252.51172 Z-0.72125
X67.63852 Y252.51398 Z-0.72706
X67.67131 Y252.51713 Z-0.73287
X67.70399 Y252.52117 Z-0.73867
X67.73656 Y252.52609 Z-0.74448
X67.76898 Y252.53189 Z-0.75029
X67.80123 Y252.53856 Z-0.7561
X67.83329 Y252.54611 Z-0.7619
X67.86513 Y252.55452 Z-0.76771
X67.89673 Y252.56379 Z-0.77352
X67.92807 Y252.57392 Z-0.77932
X67.95913 Y252.58488 Z-0.78513
X67.98987 Y252.59669 Z-0.79094
X68.02029 Y252.60932 Z-0.79675
X68.05035 Y252.62277 Z-0.80255
X68.08004 Y252.63703 Z-0.80836
X68.10933 Y252.65209 Z-0.81417
X68.1382 Y252.66794 Z-0.81998
X68.16663 Y252.68456 Z-0.82578
X68.1946 Y252.70195 Z-0.83159
X68.22209 Y252.72008 Z-0.8374
X68.24908 Y252.73896 Z-0.8432
X68.27555 Y252.75856 Z-0.84901
X68.30148 Y252.77886 Z-0.85482
X68.32685 Y252.79987 Z-0.86063
X68.35164 Y252.82155 Z-0.86643
X68.37584 Y252.84389 Z-0.87224
X68.39942 Y252.86688 Z-0.87805
X68.42237 Y252.89051 Z-0.88386
X68.44467 Y252.91474 Z-0.88966
X68.46631 Y252.93957 Z-0.89547
X68.48727 Y252.96498 Z-0.90128
X68.50753 Y252.99094 Z-0.90708
X68.52708 Y253.01744 Z-0.91289
X68.54591 Y253.04447 Z-0.9187
X68.564 Y253.07199 Z-0.92451
X68.58133 Y253.09999 Z-0.93031
X68.5979 Y253.12845 Z-0.93612
X68.6137 Y253.15735 Z-0.94193
X68.62871 Y253.18667 Z-0.94774
X68.64292 Y253.21638 Z-0.95354
X68.65631 Y253.24647 Z-0.95935
X68.66889 Y253.2769 Z-0.96516
X68.68064 Y253.30767 Z-0.97096
X68.69156 Y253.33875 Z-0.97677
X68.70163 Y253.37011 Z-0.98258
X68.71084 Y253.40172 Z-0.98838
X68.7192 Y253.43358 Z-0.99419
X68.72669 Y253.46565 Z-1.
G03 X69.82496 Y268.00938 I-100.56242 J14.90732 F2406.
X68.60868 Y269.21214 I-1.21628 J-0.01359
G1 X65.11935
G03 X63.90449 Y267.93564 I0. J-1.21635
X66.36698 Y253.3993 I81.84172 J6.38744
X68.72669 Y253.46565 I1.17159 J0.32692
G1 Z-2.
