%
G17 G21 G40 G90 G64 P0.1
(2 1/2 Axis Profiling Inside)
(SlotDrill 1/8in 3.175mm Carbide Aluminium Cut)
T6 M06
S14737 M3
G0 Z1.5875
X9.47585 Y9.59663
G1 Z0.1 F73.5
X9.4966 Y9.56932 Z0.09395 F220.5
X9.55 Y9.51378 Z0.08037
X9.60949 Y9.46483 Z0.06678
X9.67426 Y9.42311 Z0.0532
X9.74343 Y9.3892 Z0.03961
X9.81608 Y9.36354 Z0.02603
X9.89121 Y9.34649 Z0.01244
X9.96781 Y9.33828 Z-0.00114
X10.04485 Y9.33902 Z-0.01473
X10.12128 Y9.3487 Z-0.02831
X10.19607 Y9.36718 Z-0.04189
X10.26821 Y9.39422 Z-0.05548
X10.33673 Y9.42946 Z-0.06906
X10.40068 Y9.47241 Z-0.08265
X10.45923 Y9.52249 Z-0.09623
X10.51156 Y9.57903 Z-0.10982
X10.55697 Y9.64127 Z-0.1234
X10.59485 Y9.70835 Z-0.13699
X10.62468 Y9.77938 Z-0.15057
X10.64607 Y9.8534 Z-0.16416
X10.65872 Y9.92939 Z-0.17774
X10.66247 Y10.00634 Z-0.19132
X10.65725 Y10.08321 Z-0.20491
X10.64315 Y10.15895 Z-0.21849
X10.62035 Y10.23254 Z-0.23208
X10.58916 Y10.30298 Z-0.24566
X10.55 Y10.36933 Z-0.25925
X10.5034 Y10.43068 Z-0.27283
X10.45 Y10.48621 Z-0.28641
X10.39051 Y10.53517 Z-0.3
G17
G03 X9.60949 Y9.46483 I-0.39051 J-0.53517 F294.
X10.39051 Y10.53517 I0.39051 J0.53517
G0 Z1.5875
X46.52415 Y10.40337
G1 Z0.1 F73.5
X46.5034 Y10.43068 Z0.09395 F220.5
X46.45 Y10.48621 Z0.08037
X46.39051 Y10.53517 Z0.06678
X46.32574 Y10.57689 Z0.0532
X46.25657 Y10.6108 Z0.03961
X46.18392 Y10.63646 Z0.02603
X46.10879 Y10.65351 Z0.01244
X46.03219 Y10.66172 Z-0.00114
X45.95515 Y10.66098 Z-0.01473
X45.87872 Y10.6513 Z-0.02831
X45.80393 Y10.63282 Z-0.04189
X45.73179 Y10.60578 Z-0.05548
X45.66327 Y10.57054 Z-0.06906
X45.59931 Y10.52759 Z-0.08265
X45.54077 Y10.47751 Z-0.09623
X45.48844 Y10.42097 Z-0.10982
X45.44303 Y10.35873 Z-0.1234
X45.40515 Y10.29165 Z-0.13699
X45.37531 Y10.22062 Z-0.15057
X45.35393 Y10.1466 Z-0.16416
X45.34128 Y10.07061 Z-0.17774
X45.33753 Y9.99366 Z-0.19132
X45.34275 Y9.91679 Z-0.20491
X45.35685 Y9.84105 Z-0.21849
X45.37965 Y9.76746 Z-0.23208
X45.41084 Y9.69702 Z-0.24566
X45.45 Y9.63067 Z-0.25925
X45.4966 Y9.56932 Z-0.27283
X45.55 Y9.51378 Z-0.28641
X45.60949 Y9.46483 Z-0.3
G03 X46.39051 Y10.53517 I0.39051 J0.53517 F294.
X45.60949 Y9.46483 I-0.39051 J-0.53517
G0 Z1.5875
(2 1/2 Axis Profiling Outside)
(SlotDrill 1/8in 3.175mm Carbide Aluminium Cut)
X49.01413 Y-1.18737
G1 Z0.1 F73.5
X48.9084 Y-1.21655 Z0.08066 F220.5
X48.55876 Y-1.30144 Z0.01722
X48.20664 Y-1.37543 Z-0.04623
X47.8524 Y-1.43846 Z-0.10967
X47.49637 Y-1.49045 Z-0.17311
X47.1389 Y-1.53137 Z-0.23656
X46.78033 Y-1.56117 Z-0.3
G02 X45.99995 Y-1.5875 I-0.77969 J11.53224 F294.
G1 X10.
G02 Y21.5875 I0. J11.5875
G1 X46.
G02 X46.78033 Y-1.56117 I0.00001 J-11.58749
G0 Z1.5875
M30
%
