%
G17 G21 G40 G90 G64 P0.1
(2 1/2 Axis Profiling Inside)
(1/16in 1.58mm 1 Flute Carbide Router)
T31 M06
S24000 M3
G0 Z6.
X16.43156 Y7.60313
G1 Z0.43667 F601.5
X16.43177 Y7.60279 Z0.43659 F1804.5
X16.43988 Y7.59159 Z0.43416
X16.44871 Y7.58095 Z0.43172
X16.45821 Y7.57091 Z0.42928
X16.46835 Y7.56151 Z0.42685
X16.47908 Y7.5528 Z0.42441
X16.49036 Y7.54481 Z0.42197
X16.50213 Y7.53757 Z0.41953
X16.51436 Y7.53112 Z0.41709
X16.52698 Y7.52548 Z0.41466
X16.53994 Y7.52067 Z0.41222
X16.55319 Y7.51673 Z0.40978
X16.56667 Y7.51366 Z0.40735
X16.58032 Y7.51148 Z0.40491
X16.59408 Y7.5102 Z0.40247
X16.6079 Y7.50982 Z0.40003
X16.62172 Y7.51034 Z0.3976
X16.63547 Y7.51177 Z0.39516
X16.64909 Y7.51409 Z0.39272
X16.66254 Y7.5173 Z0.39028
X16.67575 Y7.52138 Z0.38785
X16.68866 Y7.52632 Z0.38541
X16.70122 Y7.53209 Z0.38297
X16.71338 Y7.53867 Z0.38053
X16.72508 Y7.54603 Z0.3781
X16.73627 Y7.55414 Z0.37566
X16.74691 Y7.56296 Z0.37322
X16.75695 Y7.57247 Z0.37078
X16.76635 Y7.5826 Z0.36835
X16.77506 Y7.59334 Z0.36591
X16.78306 Y7.60461 Z0.36347
X16.7903 Y7.61639 Z0.36103
X16.79675 Y7.62862 Z0.3586
X16.80239 Y7.64124 Z0.35616
X16.80719 Y7.6542 Z0.35372
X16.81114 Y7.66745 Z0.35128
X16.8142 Y7.68093 Z0.34885
X16.81639 Y7.69458 Z0.34641
X16.81767 Y7.70834 Z0.34397
X16.81805 Y7.72216 Z0.34153
X16.81752 Y7.73597 Z0.3391
X16.8161 Y7.74972 Z0.33666
X16.81377 Y7.76335 Z0.33422
X16.81057 Y7.7768 Z0.33178
X16.80648 Y7.79001 Z0.32935
X16.80155 Y7.80292 Z0.32691
X16.79578 Y7.81548 Z0.32447
X16.7892 Y7.82764 Z0.32203
X16.78184 Y7.83934 Z0.3196
X16.77373 Y7.85053 Z0.31716
X16.7649 Y7.86117 Z0.31472
X16.7554 Y7.87121 Z0.31228
X16.74526 Y7.88061 Z0.30985
X16.73453 Y7.88932 Z0.30741
X16.72325 Y7.89732 Z0.30497
X16.71147 Y7.90455 Z0.30253
X16.69925 Y7.91101 Z0.3001
X16.68663 Y7.91665 Z0.29766
X16.67367 Y7.92145 Z0.29522
X16.66042 Y7.92539 Z0.29278
X16.64694 Y7.92846 Z0.29035
X16.63329 Y7.93064 Z0.28791
X16.61952 Y7.93193 Z0.28547
X16.6057 Y7.93231 Z0.28303
X16.59189 Y7.93178 Z0.2806
X16.57814 Y7.93036 Z0.27816
X16.56451 Y7.92803 Z0.27572
X16.55107 Y7.92482 Z0.27328
X16.53786 Y7.92074 Z0.27085
X16.52495 Y7.9158 Z0.26841
X16.51239 Y7.91003 Z0.26597
X16.50023 Y7.90345 Z0.26353
X16.48853 Y7.89609 Z0.2611
X16.47733 Y7.88798 Z0.25866
X16.46669 Y7.87916 Z0.25622
X16.45665 Y7.86966 Z0.25378
X16.44726 Y7.85952 Z0.25135
X16.43854 Y7.84879 Z0.24891
X16.43055 Y7.83751 Z0.24647
X16.42331 Y7.82573 Z0.24403
X16.41686 Y7.81351 Z0.2416
X16.41122 Y7.80088 Z0.23916
X16.40642 Y7.78792 Z0.23672
X16.40247 Y7.77467 Z0.23428
X16.3994 Y7.76119 Z0.23185
X16.39722 Y7.74754 Z0.22941
X16.39594 Y7.73378 Z0.22697
X16.39556 Y7.71996 Z0.22453
X16.39608 Y7.70615 Z0.2221
X16.39751 Y7.6924 Z0.21966
X16.39983 Y7.67877 Z0.21722
X16.40304 Y7.66532 Z0.21478
X16.40712 Y7.65212 Z0.21235
X16.41206 Y7.63921 Z0.20991
X16.41783 Y7.62664 Z0.20747
X16.42441 Y7.61449 Z0.20503
X16.43177 Y7.60279 Z0.2026
X16.43988 Y7.59159 Z0.20016
X16.44871 Y7.58095 Z0.19772
X16.45821 Y7.57091 Z0.19528
X16.46835 Y7.56151 Z0.19285
X16.47908 Y7.5528 Z0.19041
X16.49036 Y7.54481 Z0.18797
X16.50213 Y7.53757 Z0.18553
X16.51436 Y7.53112 Z0.1831
X16.52698 Y7.52548 Z0.18066
X16.53994 Y7.52067 Z0.17822
X16.55319 Y7.51673 Z0.17578
X16.56667 Y7.51366 Z0.17335
X16.58032 Y7.51148 Z0.17091
X16.59408 Y7.5102 Z0.16847
X16.6079 Y7.50982 Z0.16603
X16.62172 Y7.51034 Z0.1636
X16.63547 Y7.51177 Z0.16116
X16.64909 Y7.51409 Z0.15872
X16.66254 Y7.5173 Z0.15628
X16.67575 Y7.52138 Z0.15385
X16.68866 Y7.52632 Z0.15141
X16.70122 Y7.53209 Z0.14897
X16.71338 Y7.53867 Z0.14653
X16.72508 Y7.54603 Z0.1441
X16.73627 Y7.55414 Z0.14166
X16.74691 Y7.56296 Z0.13922
X16.75695 Y7.57247 Z0.13678
X16.76635 Y7.5826 Z0.13435
X16.77506 Y7.59334 Z0.13191
X16.78306 Y7.60461 Z0.12947
X16.7903 Y7.61639 Z0.12704
X16.79675 Y7.62862 Z0.1246
X16.80239 Y7.64124 Z0.12216
X16.80719 Y7.6542 Z0.11972
X16.81114 Y7.66745 Z0.11728
X16.8142 Y7.68093 Z0.11485
X16.81639 Y7.69458 Z0.11241
X16.81767 Y7.70834 Z0.10997
X16.81805 Y7.72216 Z0.10754
X16.81752 Y7.73597 Z0.1051
X16.8161 Y7.74972 Z0.10266
X16.81377 Y7.76335 Z0.10022
X16.81057 Y7.7768 Z0.09778
X16.80648 Y7.79001 Z0.09535
X16.80155 Y7.80292 Z0.09291
X16.79578 Y7.81548 Z0.09047
X16.7892 Y7.82764 Z0.08803
X16.78184 Y7.83934 Z0.0856
X16.77373 Y7.85053 Z0.08316
X16.7649 Y7.86117 Z0.08072
X16.7554 Y7.87121 Z0.07828
X16.74526 Y7.88061 Z0.07585
X16.73453 Y7.88932 Z0.07341
X16.72325 Y7.89732 Z0.07097
X16.71147 Y7.90455 Z0.06853
X16.69925 Y7.91101 Z0.0661
X16.68663 Y7.91665 Z0.06366
X16.67367 Y7.92145 Z0.06122
X16.66042 Y7.92539 Z0.05878
X16.64694 Y7.92846 Z0.05635
X16.63329 Y7.93064 Z0.05391
X16.61952 Y7.93193 Z0.05147
X16.6057 Y7.93231 Z0.04904
X16.59189 Y7.93178 Z0.0466
X16.57814 Y7.93036 Z0.04416
X16.56451 Y7.92803 Z0.04172
X16.55107 Y7.92482 Z0.03929
X16.53786 Y7.92074 Z0.03685
X16.52495 Y7.9158 Z0.03441
X16.51239 Y7.91003 Z0.03197
X16.50023 Y7.90345 Z0.02954
X16.48853 Y7.89609 Z0.0271
X16.47733 Y7.88798 Z0.02466
X16.46669 Y7.87916 Z0.02222
X16.45665 Y7.86966 Z0.01979
X16.44726 Y7.85952 Z0.01735
X16.43854 Y7.84879 Z0.01491
X16.43055 Y7.83751 Z0.01247
X16.42331 Y7.82573 Z0.01004
X16.41686 Y7.81351 Z0.0076
X16.41122 Y7.80088 Z0.00516
X16.40642 Y7.78792 Z0.00272
X16.40247 Y7.77467 Z0.00029
X16.3994 Y7.76119 Z-0.00215
X16.39722 Y7.74754 Z-0.00459
X16.39594 Y7.73378 Z-0.00703
X16.39556 Y7.71996 Z-0.00946
X16.39608 Y7.70615 Z-0.0119
X16.39751 Y7.6924 Z-0.01434
X16.39983 Y7.67877 Z-0.01678
X16.40304 Y7.66532 Z-0.01921
X16.40712 Y7.65212 Z-0.02165
X16.41206 Y7.63921 Z-0.02409
X16.41783 Y7.62664 Z-0.02653
X16.42441 Y7.61449 Z-0.02896
X16.43177 Y7.60279 Z-0.0314
X16.43988 Y7.59159 Z-0.03384
X16.44871 Y7.58095 Z-0.03628
X16.45821 Y7.57091 Z-0.03871
X16.46835 Y7.56151 Z-0.04115
X16.47908 Y7.5528 Z-0.04359
X16.49036 Y7.54481 Z-0.04603
X16.50213 Y7.53757 Z-0.04846
X16.51436 Y7.53112 Z-0.0509
X16.52698 Y7.52548 Z-0.05334
X16.53994 Y7.52067 Z-0.05578
X16.55319 Y7.51673 Z-0.05821
X16.56667 Y7.51366 Z-0.06065
X16.58032 Y7.51148 Z-0.06309
X16.59408 Y7.5102 Z-0.06553
X16.6079 Y7.50982 Z-0.06796
X16.62172 Y7.51034 Z-0.0704
X16.63547 Y7.51177 Z-0.07284
X16.64909 Y7.51409 Z-0.07528
X16.66254 Y7.5173 Z-0.07771
X16.67575 Y7.52138 Z-0.08015
X16.68866 Y7.52632 Z-0.08259
X16.70122 Y7.53209 Z-0.08503
X16.71338 Y7.53867 Z-0.08746
X16.72508 Y7.54603 Z-0.0899
X16.73627 Y7.55414 Z-0.09234
X16.74691 Y7.56296 Z-0.09478
X16.75695 Y7.57247 Z-0.09721
X16.76635 Y7.5826 Z-0.09965
X16.77506 Y7.59334 Z-0.10209
X16.78306 Y7.60461 Z-0.10453
X16.7903 Y7.61639 Z-0.10696
X16.79675 Y7.62862 Z-0.1094
X16.80239 Y7.64124 Z-0.11184
X16.80719 Y7.6542 Z-0.11428
X16.81114 Y7.66745 Z-0.11671
X16.8142 Y7.68093 Z-0.11915
X16.81639 Y7.69458 Z-0.12159
X16.81767 Y7.70834 Z-0.12403
X16.81805 Y7.72216 Z-0.12646
X16.81752 Y7.73597 Z-0.1289
X16.8161 Y7.74972 Z-0.13134
X16.81377 Y7.76335 Z-0.13378
X16.81057 Y7.7768 Z-0.13621
X16.80648 Y7.79001 Z-0.13865
X16.80155 Y7.80292 Z-0.14109
X16.79578 Y7.81548 Z-0.14353
X16.7892 Y7.82764 Z-0.14596
X16.78184 Y7.83934 Z-0.1484
X16.77373 Y7.85053 Z-0.15084
X16.7649 Y7.86117 Z-0.15328
X16.7554 Y7.87121 Z-0.15571
X16.74526 Y7.88061 Z-0.15815
X16.73453 Y7.88932 Z-0.16059
X16.72325 Y7.89732 Z-0.16303
X16.71147 Y7.90455 Z-0.16546
X16.69925 Y7.91101 Z-0.1679
X16.68663 Y7.91665 Z-0.17034
X16.67367 Y7.92145 Z-0.17278
X16.66042 Y7.92539 Z-0.17521
X16.64694 Y7.92846 Z-0.17765
X16.63329 Y7.93064 Z-0.18009
X16.61952 Y7.93193 Z-0.18253
X16.6057 Y7.93231 Z-0.18496
X16.59189 Y7.93178 Z-0.1874
X16.57814 Y7.93036 Z-0.18984
X16.56451 Y7.92803 Z-0.19227
X16.55107 Y7.92482 Z-0.19471
X16.53786 Y7.92074 Z-0.19715
X16.52495 Y7.9158 Z-0.19959
X16.51239 Y7.91003 Z-0.20203
X16.50023 Y7.90345 Z-0.20446
X16.48853 Y7.89609 Z-0.2069
X16.47733 Y7.88798 Z-0.20934
X16.46669 Y7.87916 Z-0.21178
X16.45665 Y7.86966 Z-0.21421
X16.44726 Y7.85952 Z-0.21665
X16.43854 Y7.84879 Z-0.21909
X16.43055 Y7.83751 Z-0.22153
X16.42331 Y7.82573 Z-0.22396
X16.41686 Y7.81351 Z-0.2264
X16.41122 Y7.80088 Z-0.22884
X16.40642 Y7.78792 Z-0.23128
X16.40247 Y7.77467 Z-0.23371
X16.3994 Y7.76119 Z-0.23615
X16.39722 Y7.74754 Z-0.23859
X16.39594 Y7.73378 Z-0.24103
X16.39556 Y7.71996 Z-0.24346
X16.39608 Y7.70615 Z-0.2459
X16.39751 Y7.6924 Z-0.24834
X16.39983 Y7.67877 Z-0.25078
X16.40304 Y7.66532 Z-0.25321
X16.40712 Y7.65212 Z-0.25565
X16.41206 Y7.63921 Z-0.25809
X16.41783 Y7.62664 Z-0.26053
X16.42441 Y7.61449 Z-0.26296
X16.43177 Y7.60279 Z-0.2654
X16.43988 Y7.59159 Z-0.26784
X16.44871 Y7.58095 Z-0.27028
X16.45821 Y7.57091 Z-0.27271
X16.46835 Y7.56151 Z-0.27515
X16.47908 Y7.5528 Z-0.27759
X16.49036 Y7.54481 Z-0.28003
X16.50213 Y7.53757 Z-0.28246
X16.51436 Y7.53112 Z-0.2849
X16.52698 Y7.52548 Z-0.28734
X16.53994 Y7.52067 Z-0.28978
X16.55319 Y7.51673 Z-0.29221
X16.56667 Y7.51366 Z-0.29465
X16.58032 Y7.51148 Z-0.29709
X16.59408 Y7.5102 Z-0.29953
X16.6079 Y7.50982 Z-0.30196
X16.62172 Y7.51034 Z-0.3044
X16.63547 Y7.51177 Z-0.30684
X16.64909 Y7.51409 Z-0.30927
X16.66254 Y7.5173 Z-0.31171
X16.67575 Y7.52138 Z-0.31415
X16.68866 Y7.52632 Z-0.31659
X16.70122 Y7.53209 Z-0.31902
X16.71338 Y7.53867 Z-0.32146
X16.72508 Y7.54603 Z-0.3239
X16.73627 Y7.55414 Z-0.32634
X16.74691 Y7.56296 Z-0.32877
X16.75695 Y7.57247 Z-0.33121
X16.76635 Y7.5826 Z-0.33365
X16.77506 Y7.59334 Z-0.33609
X16.78306 Y7.60461 Z-0.33852
X16.7903 Y7.61639 Z-0.34096
X16.79675 Y7.62862 Z-0.3434
X16.80239 Y7.64124 Z-0.34584
X16.80719 Y7.6542 Z-0.34827
X16.81114 Y7.66745 Z-0.35071
X16.8142 Y7.68093 Z-0.35315
X16.81639 Y7.69458 Z-0.35559
X16.81767 Y7.70834 Z-0.35802
X16.81805 Y7.72216 Z-0.36046
X16.81752 Y7.73597 Z-0.3629
X16.8161 Y7.74972 Z-0.36534
X16.81377 Y7.76335 Z-0.36777
X16.81057 Y7.7768 Z-0.37021
X16.80648 Y7.79001 Z-0.37265
X16.80155 Y7.80292 Z-0.37509
X16.79578 Y7.81548 Z-0.37752
X16.7892 Y7.82764 Z-0.37996
X16.78184 Y7.83934 Z-0.3824
X16.77373 Y7.85053 Z-0.38484
X16.7649 Y7.86117 Z-0.38727
X16.7554 Y7.87121 Z-0.38971
X16.74526 Y7.88061 Z-0.39215
X16.73453 Y7.88932 Z-0.39459
X16.72325 Y7.89732 Z-0.39702
X16.71147 Y7.90455 Z-0.39946
X16.69925 Y7.91101 Z-0.4019
X16.68663 Y7.91665 Z-0.40434
X16.67367 Y7.92145 Z-0.40677
X16.66042 Y7.92539 Z-0.40921
X16.64694 Y7.92846 Z-0.41165
X16.63329 Y7.93064 Z-0.41409
X16.61952 Y7.93193 Z-0.41652
X16.6057 Y7.93231 Z-0.41896
X16.59189 Y7.93178 Z-0.4214
X16.57814 Y7.93036 Z-0.42384
X16.56451 Y7.92803 Z-0.42627
X16.55107 Y7.92482 Z-0.42871
X16.53786 Y7.92074 Z-0.43115
X16.52495 Y7.9158 Z-0.43359
X16.51239 Y7.91003 Z-0.43602
X16.50023 Y7.90345 Z-0.43846
X16.48853 Y7.89609 Z-0.4409
X16.47733 Y7.88798 Z-0.44334
X16.46669 Y7.87916 Z-0.44577
X16.45665 Y7.86966 Z-0.44821
X16.44726 Y7.85952 Z-0.45065
X16.43854 Y7.84879 Z-0.45309
X16.43055 Y7.83751 Z-0.45552
X16.42331 Y7.82573 Z-0.45796
X16.41686 Y7.81351 Z-0.4604
X16.41122 Y7.80088 Z-0.46284
X16.40642 Y7.78792 Z-0.46527
X16.40247 Y7.77467 Z-0.46771
X16.3994 Y7.76119 Z-0.47015
X16.39722 Y7.74754 Z-0.47259
X16.39594 Y7.73378 Z-0.47502
X16.39556 Y7.71996 Z-0.47746
X16.39608 Y7.70615 Z-0.4799
X16.39751 Y7.6924 Z-0.48234
X16.39983 Y7.67877 Z-0.48477
X16.40304 Y7.66532 Z-0.48721
X16.40712 Y7.65212 Z-0.48965
X16.41206 Y7.63921 Z-0.49209
X16.41783 Y7.62664 Z-0.49452
X16.42441 Y7.61449 Z-0.49696
X16.43177 Y7.60279 Z-0.4994
X16.43988 Y7.59159 Z-0.50184
X16.44871 Y7.58095 Z-0.50427
X16.45821 Y7.57091 Z-0.50671
X16.46835 Y7.56151 Z-0.50915
X16.47908 Y7.5528 Z-0.51159
X16.49036 Y7.54481 Z-0.51402
X16.50213 Y7.53757 Z-0.51646
X16.51436 Y7.53112 Z-0.5189
X16.52698 Y7.52548 Z-0.52134
X16.53994 Y7.52067 Z-0.52377
X16.55319 Y7.51673 Z-0.52621
X16.56667 Y7.51366 Z-0.52865
X16.58032 Y7.51148 Z-0.53109
X16.59408 Y7.5102 Z-0.53352
X16.6079 Y7.50982 Z-0.53596
X16.62172 Y7.51034 Z-0.5384
X16.63547 Y7.51177 Z-0.54083
X16.64909 Y7.51409 Z-0.54327
X16.66254 Y7.5173 Z-0.54571
X16.67575 Y7.52138 Z-0.54815
X16.68866 Y7.52632 Z-0.55058
X16.70122 Y7.53209 Z-0.55302
X16.71338 Y7.53867 Z-0.55546
X16.72508 Y7.54603 Z-0.5579
X16.73627 Y7.55414 Z-0.56034
X16.74691 Y7.56296 Z-0.56277
X16.75695 Y7.57247 Z-0.56521
X16.76635 Y7.5826 Z-0.56765
X16.77506 Y7.59334 Z-0.57008
X16.78306 Y7.60461 Z-0.57252
X16.7903 Y7.61639 Z-0.57496
X16.79675 Y7.62862 Z-0.5774
X16.80239 Y7.64124 Z-0.57984
X16.80719 Y7.6542 Z-0.58227
X16.81114 Y7.66745 Z-0.58471
X16.8142 Y7.68093 Z-0.58715
X16.81639 Y7.69458 Z-0.58959
X16.81767 Y7.70834 Z-0.59202
X16.81805 Y7.72216 Z-0.59446
X16.81752 Y7.73597 Z-0.5969
X16.8161 Y7.74972 Z-0.59933
X16.81377 Y7.76335 Z-0.60177
X16.81057 Y7.7768 Z-0.60421
X16.80648 Y7.79001 Z-0.60665
X16.80155 Y7.80292 Z-0.60908
X16.79578 Y7.81548 Z-0.61152
X16.7892 Y7.82764 Z-0.61396
X16.78184 Y7.83934 Z-0.6164
X16.77373 Y7.85053 Z-0.61884
X16.7649 Y7.86117 Z-0.62127
X16.7554 Y7.87121 Z-0.62371
X16.74526 Y7.88061 Z-0.62615
X16.73453 Y7.88932 Z-0.62859
X16.72325 Y7.89732 Z-0.63102
X16.71147 Y7.90455 Z-0.63346
X16.69925 Y7.91101 Z-0.6359
X16.68663 Y7.91665 Z-0.63834
X16.67367 Y7.92145 Z-0.64077
X16.66042 Y7.92539 Z-0.64321
X16.64694 Y7.92846 Z-0.64565
X16.63329 Y7.93064 Z-0.64809
X16.61952 Y7.93193 Z-0.65052
X16.6057 Y7.93231 Z-0.65296
X16.59189 Y7.93178 Z-0.6554
X16.57814 Y7.93036 Z-0.65784
X16.56451 Y7.92803 Z-0.66027
X16.55107 Y7.92482 Z-0.66271
X16.53786 Y7.92074 Z-0.66515
X16.52495 Y7.9158 Z-0.66758
X16.51239 Y7.91003 Z-0.67002
X16.50023 Y7.90345 Z-0.67246
X16.48853 Y7.89609 Z-0.6749
X16.47733 Y7.88798 Z-0.67733
X16.46669 Y7.87916 Z-0.67977
X16.45665 Y7.86966 Z-0.68221
X16.44726 Y7.85952 Z-0.68465
X16.43854 Y7.84879 Z-0.68708
X16.43055 Y7.83751 Z-0.68952
X16.42331 Y7.82573 Z-0.69196
X16.41686 Y7.81351 Z-0.6944
X16.41122 Y7.80088 Z-0.69683
X16.40642 Y7.78792 Z-0.69927
X16.40247 Y7.77467 Z-0.70171
X16.3994 Y7.76119 Z-0.70415
X16.39722 Y7.74754 Z-0.70658
X16.39594 Y7.73378 Z-0.70902
X16.39556 Y7.71996 Z-0.71146
X16.39608 Y7.70615 Z-0.7139
X16.39751 Y7.6924 Z-0.71633
X16.39983 Y7.67877 Z-0.71877
X16.40304 Y7.66532 Z-0.72121
X16.40712 Y7.65212 Z-0.72365
X16.41206 Y7.63921 Z-0.72608
X16.41783 Y7.62664 Z-0.72852
X16.42441 Y7.61449 Z-0.73096
X16.43177 Y7.60279 Z-0.7334
X16.43988 Y7.59159 Z-0.73583
X16.44871 Y7.58095 Z-0.73827
X16.45821 Y7.57091 Z-0.74071
X16.46835 Y7.56151 Z-0.74315
X16.47908 Y7.5528 Z-0.74558
X16.49036 Y7.54481 Z-0.74802
X16.50213 Y7.53757 Z-0.75046
X16.51436 Y7.53112 Z-0.7529
X16.52698 Y7.52548 Z-0.75533
X16.53994 Y7.52067 Z-0.75777
X16.55319 Y7.51673 Z-0.76021
X16.56667 Y7.51366 Z-0.76265
X16.58032 Y7.51148 Z-0.76508
X16.59408 Y7.5102 Z-0.76752
X16.6079 Y7.50982 Z-0.76996
X16.62172 Y7.51034 Z-0.7724
X16.63547 Y7.51177 Z-0.77483
X16.64909 Y7.51409 Z-0.77727
X16.66254 Y7.5173 Z-0.77971
X16.67575 Y7.52138 Z-0.78215
X16.68866 Y7.52632 Z-0.78458
X16.70122 Y7.53209 Z-0.78702
X16.71338 Y7.53867 Z-0.78946
X16.72508 Y7.54603 Z-0.7919
X16.73627 Y7.55414 Z-0.79433
X16.74691 Y7.56296 Z-0.79677
X16.75695 Y7.57247 Z-0.79921
X16.76635 Y7.5826 Z-0.80165
X16.77506 Y7.59334 Z-0.80408
X16.78306 Y7.60461 Z-0.80652
X16.7903 Y7.61639 Z-0.80896
X16.79675 Y7.62862 Z-0.8114
X16.80239 Y7.64124 Z-0.81383
X16.80719 Y7.6542 Z-0.81627
X16.81114 Y7.66745 Z-0.81871
X16.8142 Y7.68093 Z-0.82115
X16.81639 Y7.69458 Z-0.82358
X16.81767 Y7.70834 Z-0.82602
X16.81805 Y7.72216 Z-0.82846
X16.81752 Y7.73597 Z-0.8309
X16.8161 Y7.74972 Z-0.83333
X16.68663 Y7.91665 F2406.
X16.47733 Y7.88798
X16.39751 Y7.6924
X16.52698 Y7.52548
X16.73627 Y7.55414
X16.8161 Y7.74972
Z-1.66667
X16.68663 Y7.91665
X16.47733 Y7.88798
X16.39751 Y7.6924
X16.52698 Y7.52548
X16.73627 Y7.55414
X16.8161 Y7.74972
Z-2.5
X16.68663 Y7.91665
X16.47733 Y7.88798
X16.39751 Y7.6924
X16.52698 Y7.52548
X16.73627 Y7.55414
X16.8161 Y7.74972
G0 Z6.
X41.53786 Y7.80767
G1 Z-0.90333 F601.5
X41.53776 Y7.808 Z-0.90339 F1804.5
X41.53296 Y7.82096 Z-0.90583
X41.52732 Y7.83358 Z-0.90827
X41.52087 Y7.84581 Z-0.91071
X41.51363 Y7.85759 Z-0.91315
X41.50564 Y7.86886 Z-0.91558
X41.49692 Y7.8796 Z-0.91802
X41.48753 Y7.88973 Z-0.92046
X41.47749 Y7.89924 Z-0.9229
X41.46685 Y7.90806 Z-0.92533
X41.45565 Y7.91617 Z-0.92777
X41.44395 Y7.92353 Z-0.93021
X41.4318 Y7.93011 Z-0.93265
X41.41924 Y7.93589 Z-0.93508
X41.40632 Y7.94082 Z-0.93752
X41.39311 Y7.9449 Z-0.93996
X41.37967 Y7.94811 Z-0.9424
X41.36604 Y7.95044 Z-0.94483
X41.35229 Y7.95186 Z-0.94727
X41.33848 Y7.95239 Z-0.94971
X41.32466 Y7.95201 Z-0.95215
X41.3109 Y7.95073 Z-0.95458
X41.29724 Y7.94855 Z-0.95702
X41.28377 Y7.94548 Z-0.95946
X41.27052 Y7.94153 Z-0.9619
X41.25755 Y7.93673 Z-0.96433
X41.24493 Y7.93109 Z-0.96677
X41.23271 Y7.92464 Z-0.96921
X41.22093 Y7.9174 Z-0.97165
X41.20965 Y7.90941 Z-0.97408
X41.19892 Y7.9007 Z-0.97652
X41.18878 Y7.8913 Z-0.97896
X41.17928 Y7.88126 Z-0.9814
X41.17045 Y7.87062 Z-0.98383
X41.16234 Y7.85942 Z-0.98627
X41.15498 Y7.84772 Z-0.98871
X41.1484 Y7.83557 Z-0.99115
X41.14263 Y7.82301 Z-0.99358
X41.13769 Y7.81009 Z-0.99602
X41.13361 Y7.79689 Z-0.99846
X41.1304 Y7.78344 Z-1.0009
X41.12808 Y7.76981 Z-1.00333
X41.12665 Y7.75606 Z-1.00577
X41.12613 Y7.74225 Z-1.00821
X41.12651 Y7.72843 Z-1.01065
X41.12779 Y7.71467 Z-1.01308
X41.12997 Y7.70102 Z-1.01552
X41.13304 Y7.68754 Z-1.01796
X41.13698 Y7.67429 Z-1.02039
X41.14178 Y7.66132 Z-1.02283
X41.14742 Y7.6487 Z-1.02527
X41.15387 Y7.63648 Z-1.02771
X41.16111 Y7.6247 Z-1.03015
X41.16911 Y7.61342 Z-1.03258
X41.17782 Y7.60269 Z-1.03502
X41.18722 Y7.59255 Z-1.03746
X41.19726 Y7.58305 Z-1.0399
X41.2079 Y7.57422 Z-1.04233
X41.21909 Y7.56611 Z-1.04477
X41.23079 Y7.55875 Z-1.04721
X41.24295 Y7.55217 Z-1.04965
X41.25551 Y7.5464 Z-1.05208
X41.26842 Y7.54146 Z-1.05452
X41.28163 Y7.53738 Z-1.05696
X41.29507 Y7.53417 Z-1.0594
X41.3087 Y7.53185 Z-1.06183
X41.32245 Y7.53042 Z-1.06427
X41.33627 Y7.5299 Z-1.06671
X41.35008 Y7.53028 Z-1.06915
X41.36385 Y7.53156 Z-1.07158
X41.3775 Y7.53374 Z-1.07402
X41.39098 Y7.53681 Z-1.07646
X41.40423 Y7.54075 Z-1.0789
X41.41719 Y7.54555 Z-1.08133
X41.42981 Y7.55119 Z-1.08377
X41.44204 Y7.55765 Z-1.08621
X41.45381 Y7.56488 Z-1.08865
X41.46509 Y7.57288 Z-1.09108
X41.47582 Y7.58159 Z-1.09352
X41.48596 Y7.59099 Z-1.09596
X41.49547 Y7.60103 Z-1.0984
X41.50429 Y7.61167 Z-1.10083
X41.5124 Y7.62286 Z-1.10327
X41.51976 Y7.63456 Z-1.10571
X41.52634 Y7.64672 Z-1.10815
X41.53211 Y7.65928 Z-1.11058
X41.53705 Y7.67219 Z-1.11302
X41.54113 Y7.6854 Z-1.11546
X41.54434 Y7.69885 Z-1.1179
X41.54667 Y7.71247 Z-1.12033
X41.54809 Y7.72622 Z-1.12277
X41.54862 Y7.74004 Z-1.12521
X41.54824 Y7.75386 Z-1.12765
X41.54696 Y7.76762 Z-1.13008
X41.54478 Y7.78127 Z-1.13252
X41.54171 Y7.79475 Z-1.13496
X41.53776 Y7.808 Z-1.1374
X41.53296 Y7.82096 Z-1.13983
X41.52732 Y7.83358 Z-1.14227
X41.52087 Y7.84581 Z-1.14471
X41.51363 Y7.85759 Z-1.14715
X41.50564 Y7.86886 Z-1.14958
X41.49692 Y7.8796 Z-1.15202
X41.48753 Y7.88973 Z-1.15446
X41.47749 Y7.89924 Z-1.1569
X41.46685 Y7.90806 Z-1.15933
X41.45565 Y7.91617 Z-1.16177
X41.44395 Y7.92353 Z-1.16421
X41.4318 Y7.93011 Z-1.16665
X41.41924 Y7.93589 Z-1.16908
X41.40632 Y7.94082 Z-1.17152
X41.39311 Y7.9449 Z-1.17396
X41.37967 Y7.94811 Z-1.1764
X41.36604 Y7.95044 Z-1.17883
X41.35229 Y7.95186 Z-1.18127
X41.33848 Y7.95239 Z-1.18371
X41.32466 Y7.95201 Z-1.18615
X41.3109 Y7.95073 Z-1.18858
X41.29724 Y7.94855 Z-1.19102
X41.28377 Y7.94548 Z-1.19346
X41.27052 Y7.94153 Z-1.1959
X41.25755 Y7.93673 Z-1.19833
X41.24493 Y7.93109 Z-1.20077
X41.23271 Y7.92464 Z-1.20321
X41.22093 Y7.9174 Z-1.20565
X41.20965 Y7.90941 Z-1.20808
X41.19892 Y7.9007 Z-1.21052
X41.18878 Y7.8913 Z-1.21296
X41.17928 Y7.88126 Z-1.2154
X41.17045 Y7.87062 Z-1.21783
X41.16234 Y7.85942 Z-1.22027
X41.15498 Y7.84772 Z-1.22271
X41.1484 Y7.83557 Z-1.22514
X41.14263 Y7.82301 Z-1.22758
X41.13769 Y7.81009 Z-1.23002
X41.13361 Y7.79689 Z-1.23246
X41.1304 Y7.78344 Z-1.2349
X41.12808 Y7.76981 Z-1.23733
X41.12665 Y7.75606 Z-1.23977
X41.12613 Y7.74225 Z-1.24221
X41.12651 Y7.72843 Z-1.24465
X41.12779 Y7.71467 Z-1.24708
X41.12997 Y7.70102 Z-1.24952
X41.13304 Y7.68754 Z-1.25196
X41.13698 Y7.67429 Z-1.25439
X41.14178 Y7.66132 Z-1.25683
X41.14742 Y7.6487 Z-1.25927
X41.15387 Y7.63648 Z-1.26171
X41.16111 Y7.6247 Z-1.26415
X41.16911 Y7.61342 Z-1.26658
X41.17782 Y7.60269 Z-1.26902
X41.18722 Y7.59255 Z-1.27146
X41.19726 Y7.58305 Z-1.2739
X41.2079 Y7.57422 Z-1.27633
X41.21909 Y7.56611 Z-1.27877
X41.23079 Y7.55875 Z-1.28121
X41.24295 Y7.55217 Z-1.28365
X41.25551 Y7.5464 Z-1.28608
X41.26842 Y7.54146 Z-1.28852
X41.28163 Y7.53738 Z-1.29096
X41.29507 Y7.53417 Z-1.2934
X41.3087 Y7.53185 Z-1.29583
X41.32245 Y7.53042 Z-1.29827
X41.33627 Y7.5299 Z-1.30071
X41.35008 Y7.53028 Z-1.30315
X41.36385 Y7.53156 Z-1.30558
X41.3775 Y7.53374 Z-1.30802
X41.39098 Y7.53681 Z-1.31046
X41.40423 Y7.54075 Z-1.3129
X41.41719 Y7.54555 Z-1.31533
X41.42981 Y7.55119 Z-1.31777
X41.44204 Y7.55765 Z-1.32021
X41.45381 Y7.56488 Z-1.32265
X41.46509 Y7.57288 Z-1.32508
X41.47582 Y7.58159 Z-1.32752
X41.48596 Y7.59099 Z-1.32996
X41.49547 Y7.60103 Z-1.3324
X41.50429 Y7.61167 Z-1.33483
X41.5124 Y7.62286 Z-1.33727
X41.51976 Y7.63456 Z-1.33971
X41.52634 Y7.64672 Z-1.34215
X41.53211 Y7.65928 Z-1.34458
X41.53705 Y7.67219 Z-1.34702
X41.54113 Y7.6854 Z-1.34946
X41.54434 Y7.69885 Z-1.3519
X41.54667 Y7.71247 Z-1.35433
X41.54809 Y7.72622 Z-1.35677
X41.54862 Y7.74004 Z-1.35921
X41.54824 Y7.75386 Z-1.36165
X41.54696 Y7.76762 Z-1.36408
X41.54478 Y7.78127 Z-1.36652
X41.54171 Y7.79475 Z-1.36896
X41.53776 Y7.808 Z-1.3714
X41.53296 Y7.82096 Z-1.37383
X41.52732 Y7.83358 Z-1.37627
X41.52087 Y7.84581 Z-1.37871
X41.51363 Y7.85759 Z-1.38115
X41.50564 Y7.86886 Z-1.38358
X41.49692 Y7.8796 Z-1.38602
X41.48753 Y7.88973 Z-1.38846
X41.47749 Y7.89924 Z-1.3909
X41.46685 Y7.90806 Z-1.39333
X41.45565 Y7.91617 Z-1.39577
X41.44395 Y7.92353 Z-1.39821
X41.4318 Y7.93011 Z-1.40064
X41.41924 Y7.93589 Z-1.40308
X41.40632 Y7.94082 Z-1.40552
X41.39311 Y7.9449 Z-1.40796
X41.37967 Y7.94811 Z-1.4104
X41.36604 Y7.95044 Z-1.41283
X41.35229 Y7.95186 Z-1.41527
X41.33848 Y7.95239 Z-1.41771
X41.32466 Y7.95201 Z-1.42015
X41.3109 Y7.95073 Z-1.42258
X41.29724 Y7.94855 Z-1.42502
X41.28377 Y7.94548 Z-1.42746
X41.27052 Y7.94153 Z-1.4299
X41.25755 Y7.93673 Z-1.43233
X41.24493 Y7.93109 Z-1.43477
X41.23271 Y7.92464 Z-1.43721
X41.22093 Y7.9174 Z-1.43965
X41.20965 Y7.90941 Z-1.44208
X41.19892 Y7.9007 Z-1.44452
X41.18878 Y7.8913 Z-1.44696
X41.17928 Y7.88126 Z-1.4494
X41.17045 Y7.87062 Z-1.45183
X41.16234 Y7.85942 Z-1.45427
X41.15498 Y7.84772 Z-1.45671
X41.1484 Y7.83557 Z-1.45914
X41.14263 Y7.82301 Z-1.46158
X41.13769 Y7.81009 Z-1.46402
X41.13361 Y7.79689 Z-1.46646
X41.1304 Y7.78344 Z-1.4689
X41.12808 Y7.76981 Z-1.47133
X41.12665 Y7.75606 Z-1.47377
X41.12613 Y7.74225 Z-1.47621
X41.12651 Y7.72843 Z-1.47865
X41.12779 Y7.71467 Z-1.48108
X41.12997 Y7.70102 Z-1.48352
X41.13304 Y7.68754 Z-1.48596
X41.13698 Y7.67429 Z-1.4884
X41.14178 Y7.66132 Z-1.49083
X41.14742 Y7.6487 Z-1.49327
X41.15387 Y7.63648 Z-1.49571
X41.16111 Y7.6247 Z-1.49815
X41.16911 Y7.61342 Z-1.50058
X41.17782 Y7.60269 Z-1.50302
X41.18722 Y7.59255 Z-1.50546
X41.19726 Y7.58305 Z-1.50789
X41.2079 Y7.57422 Z-1.51033
X41.21909 Y7.56611 Z-1.51277
X41.23079 Y7.55875 Z-1.51521
X41.24295 Y7.55217 Z-1.51765
X41.25551 Y7.5464 Z-1.52008
X41.26842 Y7.54146 Z-1.52252
X41.28163 Y7.53738 Z-1.52496
X41.29507 Y7.53417 Z-1.5274
X41.3087 Y7.53185 Z-1.52983
X41.32245 Y7.53042 Z-1.53227
X41.33627 Y7.5299 Z-1.53471
X41.35008 Y7.53028 Z-1.53715
X41.36385 Y7.53156 Z-1.53958
X41.3775 Y7.53374 Z-1.54202
X41.39098 Y7.53681 Z-1.54446
X41.40423 Y7.54075 Z-1.5469
X41.41719 Y7.54555 Z-1.54933
X41.42981 Y7.55119 Z-1.55177
X41.44204 Y7.55765 Z-1.55421
X41.45381 Y7.56488 Z-1.55665
X41.46509 Y7.57288 Z-1.55908
X41.47582 Y7.58159 Z-1.56152
X41.48596 Y7.59099 Z-1.56396
X41.49547 Y7.60103 Z-1.5664
X41.50429 Y7.61167 Z-1.56883
X41.5124 Y7.62286 Z-1.57127
X41.51976 Y7.63456 Z-1.57371
X41.52634 Y7.64672 Z-1.57615
X41.53211 Y7.65928 Z-1.57858
X41.53705 Y7.67219 Z-1.58102
X41.54113 Y7.6854 Z-1.58346
X41.54434 Y7.69885 Z-1.5859
X41.54667 Y7.71247 Z-1.58833
X41.54809 Y7.72622 Z-1.59077
X41.54862 Y7.74004 Z-1.59321
X41.54824 Y7.75386 Z-1.59565
X41.54696 Y7.76762 Z-1.59808
X41.54478 Y7.78127 Z-1.60052
X41.54171 Y7.79475 Z-1.60296
X41.53776 Y7.808 Z-1.6054
X41.53296 Y7.82096 Z-1.60783
X41.52732 Y7.83358 Z-1.61027
X41.52087 Y7.84581 Z-1.61271
X41.51363 Y7.85759 Z-1.61515
X41.50564 Y7.86886 Z-1.61758
X41.49692 Y7.8796 Z-1.62002
X41.48753 Y7.88973 Z-1.62246
X41.47749 Y7.89924 Z-1.6249
X41.46685 Y7.90806 Z-1.62733
X41.45565 Y7.91617 Z-1.62977
X41.44395 Y7.92353 Z-1.63221
X41.4318 Y7.93011 Z-1.63465
X41.41924 Y7.93589 Z-1.63708
X41.40632 Y7.94082 Z-1.63952
X41.39311 Y7.9449 Z-1.64196
X41.37967 Y7.94811 Z-1.6444
X41.36604 Y7.95044 Z-1.64683
X41.35229 Y7.95186 Z-1.64927
X41.33848 Y7.95239 Z-1.65171
X41.32466 Y7.95201 Z-1.65415
X41.3109 Y7.95073 Z-1.65658
X41.29724 Y7.94855 Z-1.65902
X41.28377 Y7.94548 Z-1.66146
X41.27052 Y7.94153 Z-1.66389
X41.25755 Y7.93673 Z-1.66633
X41.24493 Y7.93109 Z-1.66877
X41.23271 Y7.92464 Z-1.67121
X41.22093 Y7.9174 Z-1.67365
X41.20965 Y7.90941 Z-1.67608
X41.19892 Y7.9007 Z-1.67852
X41.18878 Y7.8913 Z-1.68096
X41.17928 Y7.88126 Z-1.6834
X41.17045 Y7.87062 Z-1.68583
X41.16234 Y7.85942 Z-1.68827
X41.15498 Y7.84772 Z-1.69071
X41.1484 Y7.83557 Z-1.69314
X41.14263 Y7.82301 Z-1.69558
X41.13769 Y7.81009 Z-1.69802
X41.13361 Y7.79689 Z-1.70046
X41.1304 Y7.78344 Z-1.7029
X41.12808 Y7.76981 Z-1.70533
X41.12665 Y7.75606 Z-1.70777
X41.12613 Y7.74225 Z-1.71021
X41.12651 Y7.72843 Z-1.71265
X41.12779 Y7.71467 Z-1.71508
X41.12997 Y7.70102 Z-1.71752
X41.13304 Y7.68754 Z-1.71996
X41.13698 Y7.67429 Z-1.7224
X41.14178 Y7.66132 Z-1.72483
X41.14742 Y7.6487 Z-1.72727
X41.15387 Y7.63648 Z-1.72971
X41.16111 Y7.6247 Z-1.73215
X41.16911 Y7.61342 Z-1.73458
X41.17782 Y7.60269 Z-1.73702
X41.18722 Y7.59255 Z-1.73946
X41.19726 Y7.58305 Z-1.74189
X41.2079 Y7.57422 Z-1.74433
X41.21909 Y7.56611 Z-1.74677
X41.23079 Y7.55875 Z-1.74921
X41.24295 Y7.55217 Z-1.75164
X41.25551 Y7.5464 Z-1.75408
X41.26842 Y7.54146 Z-1.75652
X41.28163 Y7.53738 Z-1.75896
X41.29507 Y7.53417 Z-1.7614
X41.3087 Y7.53185 Z-1.76383
X41.32245 Y7.53042 Z-1.76627
X41.33627 Y7.5299 Z-1.76871
X41.35008 Y7.53028 Z-1.77115
X41.36385 Y7.53156 Z-1.77358
X41.3775 Y7.53374 Z-1.77602
X41.39098 Y7.53681 Z-1.77846
X41.40423 Y7.54075 Z-1.7809
X41.41719 Y7.54555 Z-1.78333
X41.42981 Y7.55119 Z-1.78577
X41.44204 Y7.55765 Z-1.78821
X41.45381 Y7.56488 Z-1.79065
X41.46509 Y7.57288 Z-1.79308
X41.47582 Y7.58159 Z-1.79552
X41.48596 Y7.59099 Z-1.79796
X41.49547 Y7.60103 Z-1.8004
X41.50429 Y7.61167 Z-1.80283
X41.5124 Y7.62286 Z-1.80527
X41.51976 Y7.63456 Z-1.80771
X41.52634 Y7.64672 Z-1.81015
X41.53211 Y7.65928 Z-1.81258
X41.53705 Y7.67219 Z-1.81502
X41.54113 Y7.6854 Z-1.81746
X41.54434 Y7.69885 Z-1.8199
X41.54667 Y7.71247 Z-1.82233
X41.54809 Y7.72622 Z-1.82477
X41.54862 Y7.74004 Z-1.82721
X41.54824 Y7.75386 Z-1.82965
X41.54696 Y7.76762 Z-1.83208
X41.54478 Y7.78127 Z-1.83452
X41.54171 Y7.79475 Z-1.83696
X41.53776 Y7.808 Z-1.8394
X41.53296 Y7.82096 Z-1.84183
X41.52732 Y7.83358 Z-1.84427
X41.52087 Y7.84581 Z-1.84671
X41.51363 Y7.85759 Z-1.84915
X41.50564 Y7.86886 Z-1.85158
X41.49692 Y7.8796 Z-1.85402
X41.48753 Y7.88973 Z-1.85646
X41.47749 Y7.89924 Z-1.8589
X41.46685 Y7.90806 Z-1.86133
X41.45565 Y7.91617 Z-1.86377
X41.44395 Y7.92353 Z-1.86621
X41.4318 Y7.93011 Z-1.86865
X41.41924 Y7.93589 Z-1.87108
X41.40632 Y7.94082 Z-1.87352
X41.39311 Y7.9449 Z-1.87596
X41.37967 Y7.94811 Z-1.8784
X41.36604 Y7.95044 Z-1.88083
X41.35229 Y7.95186 Z-1.88327
X41.33848 Y7.95239 Z-1.88571
X41.32466 Y7.95201 Z-1.88815
X41.3109 Y7.95073 Z-1.89058
X41.29724 Y7.94855 Z-1.89302
X41.28377 Y7.94548 Z-1.89546
X41.27052 Y7.94153 Z-1.8979
X41.25755 Y7.93673 Z-1.90033
X41.24493 Y7.93109 Z-1.90277
X41.23271 Y7.92464 Z-1.90521
X41.22093 Y7.9174 Z-1.90765
X41.20965 Y7.90941 Z-1.91008
X41.19892 Y7.9007 Z-1.91252
X41.18878 Y7.8913 Z-1.91496
X41.17928 Y7.88126 Z-1.9174
X41.17045 Y7.87062 Z-1.91983
X41.16234 Y7.85942 Z-1.92227
X41.15498 Y7.84772 Z-1.92471
X41.1484 Y7.83557 Z-1.92715
X41.14263 Y7.82301 Z-1.92958
X41.13769 Y7.81009 Z-1.93202
X41.13361 Y7.79689 Z-1.93446
X41.1304 Y7.78344 Z-1.9369
X41.12808 Y7.76981 Z-1.93933
X41.12665 Y7.75606 Z-1.94177
X41.12613 Y7.74225 Z-1.94421
X41.12651 Y7.72843 Z-1.94665
X41.12779 Y7.71467 Z-1.94908
X41.12997 Y7.70102 Z-1.95152
X41.13304 Y7.68754 Z-1.95396
X41.13698 Y7.67429 Z-1.9564
X41.14178 Y7.66132 Z-1.95883
X41.14742 Y7.6487 Z-1.96127
X41.15387 Y7.63648 Z-1.96371
X41.16111 Y7.6247 Z-1.96615
X41.16911 Y7.61342 Z-1.96858
X41.17782 Y7.60269 Z-1.97102
X41.18722 Y7.59255 Z-1.97346
X41.19726 Y7.58305 Z-1.9759
X41.2079 Y7.57422 Z-1.97833
X41.21909 Y7.56611 Z-1.98077
X41.23079 Y7.55875 Z-1.98321
X41.24295 Y7.55217 Z-1.98565
X41.25551 Y7.5464 Z-1.98808
X41.26842 Y7.54146 Z-1.99052
X41.28163 Y7.53738 Z-1.99296
X41.29507 Y7.53417 Z-1.9954
X41.3087 Y7.53185 Z-1.99783
X41.32245 Y7.53042 Z-2.00027
X41.33627 Y7.5299 Z-2.00271
X41.35008 Y7.53028 Z-2.00515
X41.36385 Y7.53156 Z-2.00758
X41.3775 Y7.53374 Z-2.01002
X41.39098 Y7.53681 Z-2.01246
X41.40423 Y7.54075 Z-2.0149
X41.41719 Y7.54555 Z-2.01733
X41.42981 Y7.55119 Z-2.01977
X41.44204 Y7.55765 Z-2.02221
X41.45381 Y7.56488 Z-2.02465
X41.46509 Y7.57288 Z-2.02708
X41.47582 Y7.58159 Z-2.02952
X41.48596 Y7.59099 Z-2.03196
X41.49547 Y7.60103 Z-2.0344
X41.50429 Y7.61167 Z-2.03683
X41.5124 Y7.62286 Z-2.03927
X41.51976 Y7.63456 Z-2.04171
X41.52634 Y7.64672 Z-2.04415
X41.53211 Y7.65928 Z-2.04658
X41.53705 Y7.67219 Z-2.04902
X41.54113 Y7.6854 Z-2.05146
X41.54434 Y7.69885 Z-2.0539
X41.54667 Y7.71247 Z-2.05633
X41.54809 Y7.72622 Z-2.05877
X41.54862 Y7.74004 Z-2.06121
X41.54824 Y7.75386 Z-2.06365
X41.54696 Y7.76762 Z-2.06608
X41.54478 Y7.78127 Z-2.06852
X41.54171 Y7.79475 Z-2.07096
X41.53776 Y7.808 Z-2.0734
X41.53296 Y7.82096 Z-2.07583
X41.52732 Y7.83358 Z-2.07827
X41.52087 Y7.84581 Z-2.08071
X41.51363 Y7.85759 Z-2.08315
X41.50564 Y7.86886 Z-2.08558
X41.49692 Y7.8796 Z-2.08802
X41.48753 Y7.88973 Z-2.09046
X41.47749 Y7.89924 Z-2.0929
X41.46685 Y7.90806 Z-2.09533
X41.45565 Y7.91617 Z-2.09777
X41.44395 Y7.92353 Z-2.10021
X41.4318 Y7.93011 Z-2.10265
X41.41924 Y7.93589 Z-2.10508
X41.40632 Y7.94082 Z-2.10752
X41.39311 Y7.9449 Z-2.10996
X41.37967 Y7.94811 Z-2.1124
X41.36604 Y7.95044 Z-2.11483
X41.35229 Y7.95186 Z-2.11727
X41.33848 Y7.95239 Z-2.11971
X41.32466 Y7.95201 Z-2.12215
X41.3109 Y7.95073 Z-2.12458
X41.29724 Y7.94855 Z-2.12702
X41.28377 Y7.94548 Z-2.12946
X41.27052 Y7.94153 Z-2.1319
X41.25755 Y7.93673 Z-2.13433
X41.24493 Y7.93109 Z-2.13677
X41.23271 Y7.92464 Z-2.13921
X41.22093 Y7.9174 Z-2.14165
X41.20965 Y7.90941 Z-2.14408
X41.19892 Y7.9007 Z-2.14652
X41.18878 Y7.8913 Z-2.14896
X41.17928 Y7.88126 Z-2.1514
X41.17045 Y7.87062 Z-2.15383
X41.16234 Y7.85942 Z-2.15627
X41.15498 Y7.84772 Z-2.15871
X41.1484 Y7.83557 Z-2.16115
X41.14263 Y7.82301 Z-2.16358
X41.13769 Y7.81009 Z-2.16602
X41.13361 Y7.79689 Z-2.16846
X41.1304 Y7.78344 Z-2.1709
X41.12808 Y7.76981 Z-2.17333
X41.2079 Y7.57422 F2406.
X41.41719 Y7.54555
X41.54667 Y7.71247
X41.46685 Y7.90806
X41.25755 Y7.93673
X41.12808 Y7.76981
Z-3.00667
X41.2079 Y7.57422
X41.41719 Y7.54555
X41.54667 Y7.71247
X41.46685 Y7.90806
X41.25755 Y7.93673
X41.12808 Y7.76981
Z-3.84
X41.2079 Y7.57422
X41.41719 Y7.54555
X41.54667 Y7.71247
X41.46685 Y7.90806
X41.25755 Y7.93673
X41.12808 Y7.76981
G0 Z6.
X66.76344 Y7.44852
G1 Z0.43667 F601.5
X66.76367 Y7.44811 Z0.43658 F1804.5
X66.77126 Y7.43655 Z0.43415
X66.77958 Y7.42552 Z0.43171
X66.78861 Y7.41505 Z0.42927
X66.79831 Y7.4052 Z0.42683
X66.80863 Y7.396 Z0.4244
X66.81952 Y7.38749 Z0.42196
X66.83095 Y7.37972 Z0.41952
X66.84287 Y7.37271 Z0.41708
X66.85521 Y7.36649 Z0.41465
X66.86794 Y7.3611 Z0.41221
X66.88099 Y7.35654 Z0.40977
X66.89432 Y7.35286 Z0.40733
X66.90785 Y7.35005 Z0.4049
X66.92154 Y7.34813 Z0.40246
X66.93533 Y7.34712 Z0.40002
X66.94915 Y7.347 Z0.39758
X66.96295 Y7.34779 Z0.39515
X66.97667 Y7.34948 Z0.39271
X66.99025 Y7.35207 Z0.39027
X67.00363 Y7.35554 Z0.38783
X67.01676 Y7.35987 Z0.3854
X67.02957 Y7.36506 Z0.38296
X67.04202 Y7.37107 Z0.38052
X67.05405 Y7.37788 Z0.37808
X67.06561 Y7.38547 Z0.37565
X67.07664 Y7.39379 Z0.37321
X67.08711 Y7.40282 Z0.37077
X67.09696 Y7.41252 Z0.36833
X67.10616 Y7.42283 Z0.3659
X67.11467 Y7.43373 Z0.36346
X67.12244 Y7.44516 Z0.36102
X67.12945 Y7.45708 Z0.35858
X67.13567 Y7.46942 Z0.35615
X67.14106 Y7.48215 Z0.35371
X67.14561 Y7.4952 Z0.35127
X67.1493 Y7.50853 Z0.34883
X67.15211 Y7.52206 Z0.3464
X67.15403 Y7.53575 Z0.34396
X67.15504 Y7.54954 Z0.34152
X67.15516 Y7.56336 Z0.33909
X67.15437 Y7.57716 Z0.33665
X67.15267 Y7.59088 Z0.33421
X67.15009 Y7.60446 Z0.33177
X67.14662 Y7.61784 Z0.32934
X67.14229 Y7.63097 Z0.3269
X67.1371 Y7.64378 Z0.32446
X67.13109 Y7.65623 Z0.32202
X67.12427 Y7.66826 Z0.31959
X67.11669 Y7.67982 Z0.31715
X67.10836 Y7.69085 Z0.31471
X67.09934 Y7.70132 Z0.31227
X67.08964 Y7.71117 Z0.30984
X67.07932 Y7.72037 Z0.3074
X67.06843 Y7.72888 Z0.30496
X67.057 Y7.73665 Z0.30252
X67.04508 Y7.74366 Z0.30009
X67.03273 Y7.74988 Z0.29765
X67.02001 Y7.75527 Z0.29521
X67.00695 Y7.75982 Z0.29277
X66.99363 Y7.76351 Z0.29034
X66.9801 Y7.76632 Z0.2879
X66.96641 Y7.76824 Z0.28546
X66.95262 Y7.76925 Z0.28302
X66.9388 Y7.76937 Z0.28059
X66.925 Y7.76858 Z0.27815
X66.91128 Y7.76688 Z0.27571
X66.8977 Y7.7643 Z0.27327
X66.88432 Y7.76083 Z0.27084
X66.87119 Y7.75649 Z0.2684
X66.85838 Y7.75131 Z0.26596
X66.84593 Y7.7453 Z0.26352
X66.8339 Y7.73848 Z0.26109
X66.82234 Y7.7309 Z0.25865
X66.81131 Y7.72257 Z0.25621
X66.80084 Y7.71355 Z0.25377
X66.79099 Y7.70385 Z0.25134
X66.78179 Y7.69353 Z0.2489
X66.77328 Y7.68264 Z0.24646
X66.76551 Y7.67121 Z0.24402
X66.7585 Y7.65929 Z0.24159
X66.75228 Y7.64694 Z0.23915
X66.74689 Y7.63422 Z0.23671
X66.74234 Y7.62116 Z0.23428
X66.73865 Y7.60784 Z0.23184
X66.73584 Y7.59431 Z0.2294
X66.73392 Y7.58062 Z0.22696
X66.73291 Y7.56683 Z0.22452
X66.73279 Y7.55301 Z0.22209
X66.73358 Y7.53921 Z0.21965
X66.73527 Y7.52549 Z0.21721
X66.73786 Y7.51191 Z0.21477
X66.74133 Y7.49853 Z0.21234
X66.74566 Y7.4854 Z0.2099
X66.75085 Y7.47258 Z0.20746
X66.75686 Y7.46014 Z0.20502
X66.76367 Y7.44811 Z0.20259
X66.77126 Y7.43655 Z0.20015
X66.77958 Y7.42552 Z0.19771
X66.78861 Y7.41505 Z0.19527
X66.79831 Y7.4052 Z0.19284
X66.80863 Y7.396 Z0.1904
X66.81952 Y7.38749 Z0.18796
X66.83095 Y7.37972 Z0.18552
X66.84287 Y7.37271 Z0.18309
X66.85521 Y7.36649 Z0.18065
X66.86794 Y7.3611 Z0.17821
X66.88099 Y7.35654 Z0.17578
X66.89432 Y7.35286 Z0.17334
X66.90785 Y7.35005 Z0.1709
X66.92154 Y7.34813 Z0.16846
X66.93533 Y7.34712 Z0.16603
X66.94915 Y7.347 Z0.16359
X66.96295 Y7.34779 Z0.16115
X66.97667 Y7.34948 Z0.15871
X66.99025 Y7.35207 Z0.15628
X67.00363 Y7.35554 Z0.15384
X67.01676 Y7.35987 Z0.1514
X67.02957 Y7.36506 Z0.14896
X67.04202 Y7.37107 Z0.14653
X67.05405 Y7.37788 Z0.14409
X67.06561 Y7.38547 Z0.14165
X67.07664 Y7.39379 Z0.13921
X67.08711 Y7.40282 Z0.13678
X67.09696 Y7.41252 Z0.13434
X67.10616 Y7.42283 Z0.1319
X67.11467 Y7.43373 Z0.12946
X67.12244 Y7.44516 Z0.12703
X67.12945 Y7.45708 Z0.12459
X67.13567 Y7.46942 Z0.12215
X67.14106 Y7.48215 Z0.11971
X67.14561 Y7.4952 Z0.11728
X67.1493 Y7.50853 Z0.11484
X67.15211 Y7.52206 Z0.1124
X67.15403 Y7.53575 Z0.10996
X67.15504 Y7.54954 Z0.10753
X67.15516 Y7.56336 Z0.10509
X67.15437 Y7.57716 Z0.10265
X67.15267 Y7.59088 Z0.10021
X67.15009 Y7.60446 Z0.09778
X67.14662 Y7.61784 Z0.09534
X67.14229 Y7.63097 Z0.0929
X67.1371 Y7.64378 Z0.09046
X67.13109 Y7.65623 Z0.08803
X67.12427 Y7.66826 Z0.08559
X67.11669 Y7.67982 Z0.08315
X67.10836 Y7.69085 Z0.08071
X67.09934 Y7.70132 Z0.07828
X67.08964 Y7.71117 Z0.07584
X67.07932 Y7.72037 Z0.0734
X67.06843 Y7.72888 Z0.07097
X67.057 Y7.73665 Z0.06853
X67.04508 Y7.74366 Z0.06609
X67.03273 Y7.74988 Z0.06365
X67.02001 Y7.75527 Z0.06121
X67.00695 Y7.75982 Z0.05878
X66.99363 Y7.76351 Z0.05634
X66.9801 Y7.76632 Z0.0539
X66.96641 Y7.76824 Z0.05146
X66.95262 Y7.76925 Z0.04903
X66.9388 Y7.76937 Z0.04659
X66.925 Y7.76858 Z0.04415
X66.91128 Y7.76688 Z0.04171
X66.8977 Y7.7643 Z0.03928
X66.88432 Y7.76083 Z0.03684
X66.87119 Y7.75649 Z0.0344
X66.85838 Y7.75131 Z0.03196
X66.84593 Y7.7453 Z0.02953
X66.8339 Y7.73848 Z0.02709
X66.82234 Y7.7309 Z0.02465
X66.81131 Y7.72257 Z0.02222
X66.80084 Y7.71355 Z0.01978
X66.79099 Y7.70385 Z0.01734
X66.78179 Y7.69353 Z0.0149
X66.77328 Y7.68264 Z0.01247
X66.76551 Y7.67121 Z0.01003
X66.7585 Y7.65929 Z0.00759
X66.75228 Y7.64694 Z0.00515
X66.74689 Y7.63422 Z0.00272
X66.74234 Y7.62116 Z0.00028
X66.73865 Y7.60784 Z-0.00216
X66.73584 Y7.59431 Z-0.0046
X66.73392 Y7.58062 Z-0.00703
X66.73291 Y7.56683 Z-0.00947
X66.73279 Y7.55301 Z-0.01191
X66.73358 Y7.53921 Z-0.01435
X66.73527 Y7.52549 Z-0.01678
X66.73786 Y7.51191 Z-0.01922
X66.74133 Y7.49853 Z-0.02166
X66.74566 Y7.4854 Z-0.0241
X66.75085 Y7.47258 Z-0.02653
X66.75686 Y7.46014 Z-0.02897
X66.76367 Y7.44811 Z-0.03141
X66.77126 Y7.43655 Z-0.03385
X66.77958 Y7.42552 Z-0.03628
X66.78861 Y7.41505 Z-0.03872
X66.79831 Y7.4052 Z-0.04116
X66.80863 Y7.396 Z-0.0436
X66.81952 Y7.38749 Z-0.04603
X66.83095 Y7.37972 Z-0.04847
X66.84287 Y7.37271 Z-0.05091
X66.85521 Y7.36649 Z-0.05335
X66.86794 Y7.3611 Z-0.05578
X66.88099 Y7.35654 Z-0.05822
X66.89432 Y7.35286 Z-0.06066
X66.90785 Y7.35005 Z-0.0631
X66.92154 Y7.34813 Z-0.06553
X66.93533 Y7.34712 Z-0.06797
X66.94915 Y7.347 Z-0.07041
X66.96295 Y7.34779 Z-0.07285
X66.97667 Y7.34948 Z-0.07528
X66.99025 Y7.35207 Z-0.07772
X67.00363 Y7.35554 Z-0.08016
X67.01676 Y7.35987 Z-0.0826
X67.02957 Y7.36506 Z-0.08503
X67.04202 Y7.37107 Z-0.08747
X67.05405 Y7.37788 Z-0.08991
X67.06561 Y7.38547 Z-0.09235
X67.07664 Y7.39379 Z-0.09478
X67.08711 Y7.40282 Z-0.09722
X67.09696 Y7.41252 Z-0.09966
X67.10616 Y7.42283 Z-0.1021
X67.11467 Y7.43373 Z-0.10453
X67.12244 Y7.44516 Z-0.10697
X67.12945 Y7.45708 Z-0.10941
X67.13567 Y7.46942 Z-0.11185
X67.14106 Y7.48215 Z-0.11428
X67.14561 Y7.4952 Z-0.11672
X67.1493 Y7.50853 Z-0.11916
X67.15211 Y7.52206 Z-0.12159
X67.15403 Y7.53575 Z-0.12403
X67.15504 Y7.54954 Z-0.12647
X67.15516 Y7.56336 Z-0.12891
X67.15437 Y7.57716 Z-0.13134
X67.15267 Y7.59088 Z-0.13378
X67.15009 Y7.60446 Z-0.13622
X67.14662 Y7.61784 Z-0.13866
X67.14229 Y7.63097 Z-0.14109
X67.1371 Y7.64378 Z-0.14353
X67.13109 Y7.65623 Z-0.14597
X67.12427 Y7.66826 Z-0.14841
X67.11669 Y7.67982 Z-0.15084
X67.10836 Y7.69085 Z-0.15328
X67.09934 Y7.70132 Z-0.15572
X67.08964 Y7.71117 Z-0.15816
X67.07932 Y7.72037 Z-0.16059
X67.06843 Y7.72888 Z-0.16303
X67.057 Y7.73665 Z-0.16547
X67.04508 Y7.74366 Z-0.16791
X67.03273 Y7.74988 Z-0.17034
X67.02001 Y7.75527 Z-0.17278
X67.00695 Y7.75982 Z-0.17522
X66.99363 Y7.76351 Z-0.17766
X66.9801 Y7.76632 Z-0.18009
X66.96641 Y7.76824 Z-0.18253
X66.95262 Y7.76925 Z-0.18497
X66.9388 Y7.76937 Z-0.18741
X66.925 Y7.76858 Z-0.18984
X66.91128 Y7.76688 Z-0.19228
X66.8977 Y7.7643 Z-0.19472
X66.88432 Y7.76083 Z-0.19716
X66.87119 Y7.75649 Z-0.19959
X66.85838 Y7.75131 Z-0.20203
X66.84593 Y7.7453 Z-0.20447
X66.8339 Y7.73848 Z-0.20691
X66.82234 Y7.7309 Z-0.20934
X66.81131 Y7.72257 Z-0.21178
X66.80084 Y7.71355 Z-0.21422
X66.79099 Y7.70385 Z-0.21666
X66.78179 Y7.69353 Z-0.21909
X66.77328 Y7.68264 Z-0.22153
X66.76551 Y7.67121 Z-0.22397
X66.7585 Y7.65929 Z-0.22641
X66.75228 Y7.64694 Z-0.22884
X66.74689 Y7.63422 Z-0.23128
X66.74234 Y7.62116 Z-0.23372
X66.73865 Y7.60784 Z-0.23616
X66.73584 Y7.59431 Z-0.23859
X66.73392 Y7.58062 Z-0.24103
X66.73291 Y7.56683 Z-0.24347
X66.73279 Y7.55301 Z-0.2459
X66.73358 Y7.53921 Z-0.24834
X66.73527 Y7.52549 Z-0.25078
X66.73786 Y7.51191 Z-0.25322
X66.74133 Y7.49853 Z-0.25566
X66.74566 Y7.4854 Z-0.25809
X66.75085 Y7.47258 Z-0.26053
X66.75686 Y7.46014 Z-0.26297
X66.76367 Y7.44811 Z-0.2654
X66.77126 Y7.43655 Z-0.26784
X66.77958 Y7.42552 Z-0.27028
X66.78861 Y7.41505 Z-0.27272
X66.79831 Y7.4052 Z-0.27515
X66.80863 Y7.396 Z-0.27759
X66.81952 Y7.38749 Z-0.28003
X66.83095 Y7.37972 Z-0.28247
X66.84287 Y7.37271 Z-0.28491
X66.85521 Y7.36649 Z-0.28734
X66.86794 Y7.3611 Z-0.28978
X66.88099 Y7.35654 Z-0.29222
X66.89432 Y7.35286 Z-0.29465
X66.90785 Y7.35005 Z-0.29709
X66.92154 Y7.34813 Z-0.29953
X66.93533 Y7.34712 Z-0.30197
X66.94915 Y7.347 Z-0.3044
X66.96295 Y7.34779 Z-0.30684
X66.97667 Y7.34948 Z-0.30928
X66.99025 Y7.35207 Z-0.31172
X67.00363 Y7.35554 Z-0.31415
X67.01676 Y7.35987 Z-0.31659
X67.02957 Y7.36506 Z-0.31903
X67.04202 Y7.37107 Z-0.32147
X67.05405 Y7.37788 Z-0.3239
X67.06561 Y7.38547 Z-0.32634
X67.07664 Y7.39379 Z-0.32878
X67.08711 Y7.40282 Z-0.33122
X67.09696 Y7.41252 Z-0.33365
X67.10616 Y7.42283 Z-0.33609
X67.11467 Y7.43373 Z-0.33853
X67.12244 Y7.44516 Z-0.34097
X67.12945 Y7.45708 Z-0.3434
X67.13567 Y7.46942 Z-0.34584
X67.14106 Y7.48215 Z-0.34828
X67.14561 Y7.4952 Z-0.35072
X67.1493 Y7.50853 Z-0.35315
X67.15211 Y7.52206 Z-0.35559
X67.15403 Y7.53575 Z-0.35803
X67.15504 Y7.54954 Z-0.36047
X67.15516 Y7.56336 Z-0.3629
X67.15437 Y7.57716 Z-0.36534
X67.15267 Y7.59088 Z-0.36778
X67.15009 Y7.60446 Z-0.37022
X67.14662 Y7.61784 Z-0.37265
X67.14229 Y7.63097 Z-0.37509
X67.1371 Y7.64378 Z-0.37753
X67.13109 Y7.65623 Z-0.37997
X67.12427 Y7.66826 Z-0.3824
X67.11669 Y7.67982 Z-0.38484
X67.10836 Y7.69085 Z-0.38728
X67.09934 Y7.70132 Z-0.38972
X67.08964 Y7.71117 Z-0.39215
X67.07932 Y7.72037 Z-0.39459
X67.06843 Y7.72888 Z-0.39703
X67.057 Y7.73665 Z-0.39947
X67.04508 Y7.74366 Z-0.4019
X67.03273 Y7.74988 Z-0.40434
X67.02001 Y7.75527 Z-0.40678
X67.00695 Y7.75982 Z-0.40922
X66.99363 Y7.76351 Z-0.41165
X66.9801 Y7.76632 Z-0.41409
X66.96641 Y7.76824 Z-0.41653
X66.95262 Y7.76925 Z-0.41897
X66.9388 Y7.76937 Z-0.4214
X66.925 Y7.76858 Z-0.42384
X66.91128 Y7.76688 Z-0.42628
X66.8977 Y7.7643 Z-0.42872
X66.88432 Y7.76083 Z-0.43115
X66.87119 Y7.75649 Z-0.43359
X66.85838 Y7.75131 Z-0.43603
X66.84593 Y7.7453 Z-0.43847
X66.8339 Y7.73848 Z-0.4409
X66.82234 Y7.7309 Z-0.44334
X66.81131 Y7.72257 Z-0.44578
X66.80084 Y7.71355 Z-0.44821
X66.79099 Y7.70385 Z-0.45065
X66.78179 Y7.69353 Z-0.45309
X66.77328 Y7.68264 Z-0.45553
X66.76551 Y7.67121 Z-0.45796
X66.7585 Y7.65929 Z-0.4604
X66.75228 Y7.64694 Z-0.46284
X66.74689 Y7.63422 Z-0.46528
X66.74234 Y7.62116 Z-0.46771
X66.73865 Y7.60784 Z-0.47015
X66.73584 Y7.59431 Z-0.47259
X66.73392 Y7.58062 Z-0.47503
X66.73291 Y7.56683 Z-0.47746
X66.73279 Y7.55301 Z-0.4799
X66.73358 Y7.53921 Z-0.48234
X66.73527 Y7.52549 Z-0.48478
X66.73786 Y7.51191 Z-0.48721
X66.74133 Y7.49853 Z-0.48965
X66.74566 Y7.4854 Z-0.49209
X66.75085 Y7.47258 Z-0.49453
X66.75686 Y7.46014 Z-0.49696
X66.76367 Y7.44811 Z-0.4994
X66.77126 Y7.43655 Z-0.50184
X66.77958 Y7.42552 Z-0.50428
X66.78861 Y7.41505 Z-0.50671
X66.79831 Y7.4052 Z-0.50915
X66.80863 Y7.396 Z-0.51159
X66.81952 Y7.38749 Z-0.51403
X66.83095 Y7.37972 Z-0.51646
X66.84287 Y7.37271 Z-0.5189
X66.85521 Y7.36649 Z-0.52134
X66.86794 Y7.3611 Z-0.52378
X66.88099 Y7.35654 Z-0.52621
X66.89432 Y7.35286 Z-0.52865
X66.90785 Y7.35005 Z-0.53109
X66.92154 Y7.34813 Z-0.53353
X66.93533 Y7.34712 Z-0.53596
X66.94915 Y7.347 Z-0.5384
X66.96295 Y7.34779 Z-0.54084
X66.97667 Y7.34948 Z-0.54328
X66.99025 Y7.35207 Z-0.54571
X67.00363 Y7.35554 Z-0.54815
X67.01676 Y7.35987 Z-0.55059
X67.02957 Y7.36506 Z-0.55303
X67.04202 Y7.37107 Z-0.55546
X67.05405 Y7.37788 Z-0.5579
X67.06561 Y7.38547 Z-0.56034
X67.07664 Y7.39379 Z-0.56278
X67.08711 Y7.40282 Z-0.56521
X67.09696 Y7.41252 Z-0.56765
X67.10616 Y7.42283 Z-0.57009
X67.11467 Y7.43373 Z-0.57252
X67.12244 Y7.44516 Z-0.57496
X67.12945 Y7.45708 Z-0.5774
X67.13567 Y7.46942 Z-0.57984
X67.14106 Y7.48215 Z-0.58228
X67.14561 Y7.4952 Z-0.58471
X67.1493 Y7.50853 Z-0.58715
X67.15211 Y7.52206 Z-0.58959
X67.15403 Y7.53575 Z-0.59203
X67.15504 Y7.54954 Z-0.59446
X67.15516 Y7.56336 Z-0.5969
X67.15437 Y7.57716 Z-0.59934
X67.15267 Y7.59088 Z-0.60178
X67.15009 Y7.60446 Z-0.60421
X67.14662 Y7.61784 Z-0.60665
X67.14229 Y7.63097 Z-0.60909
X67.1371 Y7.64378 Z-0.61152
X67.13109 Y7.65623 Z-0.61396
X67.12427 Y7.66826 Z-0.6164
X67.11669 Y7.67982 Z-0.61884
X67.10836 Y7.69085 Z-0.62127
X67.09934 Y7.70132 Z-0.62371
X67.08964 Y7.71117 Z-0.62615
X67.07932 Y7.72037 Z-0.62859
X67.06843 Y7.72888 Z-0.63102
X67.057 Y7.73665 Z-0.63346
X67.04508 Y7.74366 Z-0.6359
X67.03273 Y7.74988 Z-0.63834
X67.02001 Y7.75527 Z-0.64077
X67.00695 Y7.75982 Z-0.64321
X66.99363 Y7.76351 Z-0.64565
X66.9801 Y7.76632 Z-0.64809
X66.96641 Y7.76824 Z-0.65052
X66.95262 Y7.76925 Z-0.65296
X66.9388 Y7.76937 Z-0.6554
X66.925 Y7.76858 Z-0.65784
X66.91128 Y7.76688 Z-0.66027
X66.8977 Y7.7643 Z-0.66271
X66.88432 Y7.76083 Z-0.66515
X66.87119 Y7.75649 Z-0.66759
X66.85838 Y7.75131 Z-0.67002
X66.84593 Y7.7453 Z-0.67246
X66.8339 Y7.73848 Z-0.6749
X66.82234 Y7.7309 Z-0.67734
X66.81131 Y7.72257 Z-0.67977
X66.80084 Y7.71355 Z-0.68221
X66.79099 Y7.70385 Z-0.68465
X66.78179 Y7.69353 Z-0.68709
X66.77328 Y7.68264 Z-0.68952
X66.76551 Y7.67121 Z-0.69196
X66.7585 Y7.65929 Z-0.6944
X66.75228 Y7.64694 Z-0.69684
X66.74689 Y7.63422 Z-0.69927
X66.74234 Y7.62116 Z-0.70171
X66.73865 Y7.60784 Z-0.70415
X66.73584 Y7.59431 Z-0.70659
X66.73392 Y7.58062 Z-0.70902
X66.73291 Y7.56683 Z-0.71146
X66.73279 Y7.55301 Z-0.7139
X66.73358 Y7.53921 Z-0.71634
X66.73527 Y7.52549 Z-0.71877
X66.73786 Y7.51191 Z-0.72121
X66.74133 Y7.49853 Z-0.72365
X66.74566 Y7.4854 Z-0.72609
X66.75085 Y7.47258 Z-0.72852
X66.75686 Y7.46014 Z-0.73096
X66.76367 Y7.44811 Z-0.7334
X66.77126 Y7.43655 Z-0.73584
X66.77958 Y7.42552 Z-0.73827
X66.78861 Y7.41505 Z-0.74071
X66.79831 Y7.4052 Z-0.74315
X66.80863 Y7.396 Z-0.74559
X66.81952 Y7.38749 Z-0.74802
X66.83095 Y7.37972 Z-0.75046
X66.84287 Y7.37271 Z-0.7529
X66.85521 Y7.36649 Z-0.75534
X66.86794 Y7.3611 Z-0.75777
X66.88099 Y7.35654 Z-0.76021
X66.89432 Y7.35286 Z-0.76265
X66.90785 Y7.35005 Z-0.76508
X66.92154 Y7.34813 Z-0.76752
X66.93533 Y7.34712 Z-0.76996
X66.94915 Y7.347 Z-0.7724
X66.96295 Y7.34779 Z-0.77483
X66.97667 Y7.34948 Z-0.77727
X66.99025 Y7.35207 Z-0.77971
X67.00363 Y7.35554 Z-0.78215
X67.01676 Y7.35987 Z-0.78458
X67.02957 Y7.36506 Z-0.78702
X67.04202 Y7.37107 Z-0.78946
X67.05405 Y7.37788 Z-0.7919
X67.06561 Y7.38547 Z-0.79433
X67.07664 Y7.39379 Z-0.79677
X67.08711 Y7.40282 Z-0.79921
X67.09696 Y7.41252 Z-0.80165
X67.10616 Y7.42283 Z-0.80408
X67.11467 Y7.43373 Z-0.80652
X67.12244 Y7.44516 Z-0.80896
X67.12945 Y7.45708 Z-0.8114
X67.13567 Y7.46942 Z-0.81383
X67.14106 Y7.48215 Z-0.81627
X67.14561 Y7.4952 Z-0.81871
X67.1493 Y7.50853 Z-0.82115
X67.15211 Y7.52206 Z-0.82358
X67.15403 Y7.53575 Z-0.82602
X67.15504 Y7.54954 Z-0.82846
X67.15516 Y7.56336 Z-0.8309
X67.15437 Y7.57716 Z-0.83333
X67.03273 Y7.74988 F2406.
X66.82234 Y7.7309
X66.73358 Y7.53921
X66.85521 Y7.36649
X67.06561 Y7.38547
X67.15437 Y7.57716
Z-1.66667
X67.03273 Y7.74988
X66.82234 Y7.7309
X66.73358 Y7.53921
X66.85521 Y7.36649
X67.06561 Y7.38547
X67.15437 Y7.57716
Z-2.5
X67.03273 Y7.74988
X66.82234 Y7.7309
X66.73358 Y7.53921
X66.85521 Y7.36649
X67.06561 Y7.38547
X67.15437 Y7.57716
G0 Z6.
X96.25346 Y7.60313
G1 Z0.43667 F601.5
X96.25367 Y7.60279 Z0.43659 F1804.5
X96.26178 Y7.59159 Z0.43416
X96.27061 Y7.58095 Z0.43172
X96.28011 Y7.57091 Z0.42928
X96.29025 Y7.56151 Z0.42685
X96.30098 Y7.5528 Z0.42441
X96.31226 Y7.54481 Z0.42197
X96.32403 Y7.53757 Z0.41953
X96.33626 Y7.53112 Z0.41709
X96.34888 Y7.52548 Z0.41466
X96.36184 Y7.52067 Z0.41222
X96.37509 Y7.51673 Z0.40978
X96.38857 Y7.51366 Z0.40734
X96.40222 Y7.51148 Z0.40491
X96.41598 Y7.5102 Z0.40247
X96.4298 Y7.50982 Z0.40003
X96.44362 Y7.51034 Z0.3976
X96.45737 Y7.51177 Z0.39516
X96.47099 Y7.51409 Z0.39272
X96.48444 Y7.5173 Z0.39028
X96.49765 Y7.52138 Z0.38785
X96.51056 Y7.52632 Z0.38541
X96.52312 Y7.53209 Z0.38297
X96.53528 Y7.53867 Z0.38053
X96.54698 Y7.54603 Z0.3781
X96.55817 Y7.55414 Z0.37566
X96.56881 Y7.56296 Z0.37322
X96.57885 Y7.57247 Z0.37078
X96.58825 Y7.5826 Z0.36835
X96.59696 Y7.59334 Z0.36591
X96.60496 Y7.60461 Z0.36347
X96.6122 Y7.61639 Z0.36103
X96.61865 Y7.62862 Z0.3586
X96.62429 Y7.64124 Z0.35616
X96.62909 Y7.6542 Z0.35372
X96.63303 Y7.66745 Z0.35128
X96.6361 Y7.68093 Z0.34885
X96.63828 Y7.69458 Z0.34641
X96.63957 Y7.70834 Z0.34397
X96.63995 Y7.72216 Z0.34153
X96.63942 Y7.73597 Z0.3391
X96.638 Y7.74972 Z0.33666
X96.63567 Y7.76335 Z0.33422
X96.63247 Y7.7768 Z0.33178
X96.62838 Y7.79001 Z0.32935
X96.62345 Y7.80292 Z0.32691
X96.61768 Y7.81548 Z0.32447
X96.6111 Y7.82764 Z0.32203
X96.60374 Y7.83934 Z0.3196
X96.59562 Y7.85053 Z0.31716
X96.5868 Y7.86117 Z0.31472
X96.5773 Y7.87121 Z0.31228
X96.56716 Y7.88061 Z0.30985
X96.55643 Y7.88932 Z0.30741
X96.54515 Y7.89732 Z0.30497
X96.53337 Y7.90455 Z0.30253
X96.52115 Y7.91101 Z0.3001
X96.50853 Y7.91665 Z0.29766
X96.49556 Y7.92145 Z0.29522
X96.48231 Y7.92539 Z0.29278
X96.46884 Y7.92846 Z0.29035
X96.45519 Y7.93064 Z0.28791
X96.44142 Y7.93193 Z0.28547
X96.4276 Y7.93231 Z0.28303
X96.41379 Y7.93178 Z0.2806
X96.40004 Y7.93036 Z0.27816
X96.38641 Y7.92803 Z0.27572
X96.37297 Y7.92482 Z0.27328
X96.35976 Y7.92074 Z0.27085
X96.34685 Y7.9158 Z0.26841
X96.33429 Y7.91003 Z0.26597
X96.32213 Y7.90345 Z0.26353
X96.31043 Y7.89609 Z0.2611
X96.29923 Y7.88798 Z0.25866
X96.28859 Y7.87916 Z0.25622
X96.27855 Y7.86966 Z0.25378
X96.26916 Y7.85952 Z0.25135
X96.26044 Y7.84879 Z0.24891
X96.25245 Y7.83751 Z0.24647
X96.24521 Y7.82573 Z0.24403
X96.23876 Y7.81351 Z0.2416
X96.23312 Y7.80088 Z0.23916
X96.22832 Y7.78792 Z0.23672
X96.22437 Y7.77467 Z0.23428
X96.2213 Y7.76119 Z0.23185
X96.21912 Y7.74754 Z0.22941
X96.21784 Y7.73378 Z0.22697
X96.21746 Y7.71996 Z0.22453
X96.21798 Y7.70615 Z0.2221
X96.21941 Y7.6924 Z0.21966
X96.22173 Y7.67877 Z0.21722
X96.22494 Y7.66532 Z0.21478
X96.22902 Y7.65212 Z0.21235
X96.23396 Y7.63921 Z0.20991
X96.23973 Y7.62664 Z0.20747
X96.24631 Y7.61449 Z0.20503
X96.25367 Y7.60279 Z0.2026
X96.26178 Y7.59159 Z0.20016
X96.27061 Y7.58095 Z0.19772
X96.28011 Y7.57091 Z0.19528
X96.29025 Y7.56151 Z0.19285
X96.30098 Y7.5528 Z0.19041
X96.31226 Y7.54481 Z0.18797
X96.32403 Y7.53757 Z0.18553
X96.33626 Y7.53112 Z0.1831
X96.34888 Y7.52548 Z0.18066
X96.36184 Y7.52067 Z0.17822
X96.37509 Y7.51673 Z0.17578
X96.38857 Y7.51366 Z0.17335
X96.40222 Y7.51148 Z0.17091
X96.41598 Y7.5102 Z0.16847
X96.4298 Y7.50982 Z0.16603
X96.44362 Y7.51034 Z0.1636
X96.45737 Y7.51177 Z0.16116
X96.47099 Y7.51409 Z0.15872
X96.48444 Y7.5173 Z0.15628
X96.49765 Y7.52138 Z0.15385
X96.51056 Y7.52632 Z0.15141
X96.52312 Y7.53209 Z0.14897
X96.53528 Y7.53867 Z0.14653
X96.54698 Y7.54603 Z0.1441
X96.55817 Y7.55414 Z0.14166
X96.56881 Y7.56296 Z0.13922
X96.57885 Y7.57247 Z0.13678
X96.58825 Y7.5826 Z0.13435
X96.59696 Y7.59334 Z0.13191
X96.60496 Y7.60461 Z0.12947
X96.6122 Y7.61639 Z0.12704
X96.61865 Y7.62862 Z0.1246
X96.62429 Y7.64124 Z0.12216
X96.62909 Y7.6542 Z0.11972
X96.63303 Y7.66745 Z0.11728
X96.6361 Y7.68093 Z0.11485
X96.63828 Y7.69458 Z0.11241
X96.63957 Y7.70834 Z0.10997
X96.63995 Y7.72216 Z0.10754
X96.63942 Y7.73597 Z0.1051
X96.638 Y7.74972 Z0.10266
X96.63567 Y7.76335 Z0.10022
X96.63247 Y7.7768 Z0.09778
X96.62838 Y7.79001 Z0.09535
X96.62345 Y7.80292 Z0.09291
X96.61768 Y7.81548 Z0.09047
X96.6111 Y7.82764 Z0.08803
X96.60374 Y7.83934 Z0.0856
X96.59562 Y7.85053 Z0.08316
X96.5868 Y7.86117 Z0.08072
X96.5773 Y7.87121 Z0.07828
X96.56716 Y7.88061 Z0.07585
X96.55643 Y7.88932 Z0.07341
X96.54515 Y7.89732 Z0.07097
X96.53337 Y7.90455 Z0.06853
X96.52115 Y7.91101 Z0.0661
X96.50853 Y7.91665 Z0.06366
X96.49556 Y7.92145 Z0.06122
X96.48231 Y7.92539 Z0.05878
X96.46884 Y7.92846 Z0.05635
X96.45519 Y7.93064 Z0.05391
X96.44142 Y7.93193 Z0.05147
X96.4276 Y7.93231 Z0.04904
X96.41379 Y7.93178 Z0.0466
X96.40004 Y7.93036 Z0.04416
X96.38641 Y7.92803 Z0.04172
X96.37297 Y7.92482 Z0.03929
X96.35976 Y7.92074 Z0.03685
X96.34685 Y7.9158 Z0.03441
X96.33429 Y7.91003 Z0.03197
X96.32213 Y7.90345 Z0.02954
X96.31043 Y7.89609 Z0.0271
X96.29923 Y7.88798 Z0.02466
X96.28859 Y7.87916 Z0.02222
X96.27855 Y7.86966 Z0.01979
X96.26916 Y7.85952 Z0.01735
X96.26044 Y7.84879 Z0.01491
X96.25245 Y7.83751 Z0.01247
X96.24521 Y7.82573 Z0.01004
X96.23876 Y7.81351 Z0.0076
X96.23312 Y7.80088 Z0.00516
X96.22832 Y7.78792 Z0.00272
X96.22437 Y7.77467 Z0.00029
X96.2213 Y7.76119 Z-0.00215
X96.21912 Y7.74754 Z-0.00459
X96.21784 Y7.73378 Z-0.00703
X96.21746 Y7.71996 Z-0.00946
X96.21798 Y7.70615 Z-0.0119
X96.21941 Y7.6924 Z-0.01434
X96.22173 Y7.67877 Z-0.01678
X96.22494 Y7.66532 Z-0.01921
X96.22902 Y7.65212 Z-0.02165
X96.23396 Y7.63921 Z-0.02409
X96.23973 Y7.62664 Z-0.02653
X96.24631 Y7.61449 Z-0.02896
X96.25367 Y7.60279 Z-0.0314
X96.26178 Y7.59159 Z-0.03384
X96.27061 Y7.58095 Z-0.03628
X96.28011 Y7.57091 Z-0.03871
X96.29025 Y7.56151 Z-0.04115
X96.30098 Y7.5528 Z-0.04359
X96.31226 Y7.54481 Z-0.04603
X96.32403 Y7.53757 Z-0.04846
X96.33626 Y7.53112 Z-0.0509
X96.34888 Y7.52548 Z-0.05334
X96.36184 Y7.52067 Z-0.05578
X96.37509 Y7.51673 Z-0.05821
X96.38857 Y7.51366 Z-0.06065
X96.40222 Y7.51148 Z-0.06309
X96.41598 Y7.5102 Z-0.06553
X96.4298 Y7.50982 Z-0.06796
X96.44362 Y7.51034 Z-0.0704
X96.45737 Y7.51177 Z-0.07284
X96.47099 Y7.51409 Z-0.07528
X96.48444 Y7.5173 Z-0.07771
X96.49765 Y7.52138 Z-0.08015
X96.51056 Y7.52632 Z-0.08259
X96.52312 Y7.53209 Z-0.08503
X96.53528 Y7.53867 Z-0.08746
X96.54698 Y7.54603 Z-0.0899
X96.55817 Y7.55414 Z-0.09234
X96.56881 Y7.56296 Z-0.09478
X96.57885 Y7.57247 Z-0.09721
X96.58825 Y7.5826 Z-0.09965
X96.59696 Y7.59334 Z-0.10209
X96.60496 Y7.60461 Z-0.10453
X96.6122 Y7.61639 Z-0.10696
X96.61865 Y7.62862 Z-0.1094
X96.62429 Y7.64124 Z-0.11184
X96.62909 Y7.6542 Z-0.11428
X96.63303 Y7.66745 Z-0.11671
X96.6361 Y7.68093 Z-0.11915
X96.63828 Y7.69458 Z-0.12159
X96.63957 Y7.70834 Z-0.12403
X96.63995 Y7.72216 Z-0.12646
X96.63942 Y7.73597 Z-0.1289
X96.638 Y7.74972 Z-0.13134
X96.63567 Y7.76335 Z-0.13378
X96.63247 Y7.7768 Z-0.13621
X96.62838 Y7.79001 Z-0.13865
X96.62345 Y7.80292 Z-0.14109
X96.61768 Y7.81548 Z-0.14353
X96.6111 Y7.82764 Z-0.14596
X96.60374 Y7.83934 Z-0.1484
X96.59562 Y7.85053 Z-0.15084
X96.5868 Y7.86117 Z-0.15328
X96.5773 Y7.87121 Z-0.15571
X96.56716 Y7.88061 Z-0.15815
X96.55643 Y7.88932 Z-0.16059
X96.54515 Y7.89732 Z-0.16303
X96.53337 Y7.90455 Z-0.16546
X96.52115 Y7.91101 Z-0.1679
X96.50853 Y7.91665 Z-0.17034
X96.49556 Y7.92145 Z-0.17278
X96.48231 Y7.92539 Z-0.17521
X96.46884 Y7.92846 Z-0.17765
X96.45519 Y7.93064 Z-0.18009
X96.44142 Y7.93193 Z-0.18253
X96.4276 Y7.93231 Z-0.18496
X96.41379 Y7.93178 Z-0.1874
X96.40004 Y7.93036 Z-0.18984
X96.38641 Y7.92803 Z-0.19227
X96.37297 Y7.92482 Z-0.19471
X96.35976 Y7.92074 Z-0.19715
X96.34685 Y7.9158 Z-0.19959
X96.33429 Y7.91003 Z-0.20203
X96.32213 Y7.90345 Z-0.20446
X96.31043 Y7.89609 Z-0.2069
X96.29923 Y7.88798 Z-0.20934
X96.28859 Y7.87916 Z-0.21178
X96.27855 Y7.86966 Z-0.21421
X96.26916 Y7.85952 Z-0.21665
X96.26044 Y7.84879 Z-0.21909
X96.25245 Y7.83751 Z-0.22153
X96.24521 Y7.82573 Z-0.22396
X96.23876 Y7.81351 Z-0.2264
X96.23312 Y7.80088 Z-0.22884
X96.22832 Y7.78792 Z-0.23128
X96.22437 Y7.77467 Z-0.23371
X96.2213 Y7.76119 Z-0.23615
X96.21912 Y7.74754 Z-0.23859
X96.21784 Y7.73378 Z-0.24103
X96.21746 Y7.71996 Z-0.24346
X96.21798 Y7.70615 Z-0.2459
X96.21941 Y7.6924 Z-0.24834
X96.22173 Y7.67877 Z-0.25078
X96.22494 Y7.66532 Z-0.25321
X96.22902 Y7.65212 Z-0.25565
X96.23396 Y7.63921 Z-0.25809
X96.23973 Y7.62664 Z-0.26053
X96.24631 Y7.61449 Z-0.26296
X96.25367 Y7.60279 Z-0.2654
X96.26178 Y7.59159 Z-0.26784
X96.27061 Y7.58095 Z-0.27028
X96.28011 Y7.57091 Z-0.27271
X96.29025 Y7.56151 Z-0.27515
X96.30098 Y7.5528 Z-0.27759
X96.31226 Y7.54481 Z-0.28003
X96.32403 Y7.53757 Z-0.28246
X96.33626 Y7.53112 Z-0.2849
X96.34888 Y7.52548 Z-0.28734
X96.36184 Y7.52067 Z-0.28978
X96.37509 Y7.51673 Z-0.29221
X96.38857 Y7.51366 Z-0.29465
X96.40222 Y7.51148 Z-0.29709
X96.41598 Y7.5102 Z-0.29953
X96.4298 Y7.50982 Z-0.30196
X96.44362 Y7.51034 Z-0.3044
X96.45737 Y7.51177 Z-0.30684
X96.47099 Y7.51409 Z-0.30927
X96.48444 Y7.5173 Z-0.31171
X96.49765 Y7.52138 Z-0.31415
X96.51056 Y7.52632 Z-0.31659
X96.52312 Y7.53209 Z-0.31902
X96.53528 Y7.53867 Z-0.32146
X96.54698 Y7.54603 Z-0.3239
X96.55817 Y7.55414 Z-0.32634
X96.56881 Y7.56296 Z-0.32877
X96.57885 Y7.57247 Z-0.33121
X96.58825 Y7.5826 Z-0.33365
X96.59696 Y7.59334 Z-0.33609
X96.60496 Y7.60461 Z-0.33852
X96.6122 Y7.61639 Z-0.34096
X96.61865 Y7.62862 Z-0.3434
X96.62429 Y7.64124 Z-0.34584
X96.62909 Y7.6542 Z-0.34827
X96.63303 Y7.66745 Z-0.35071
X96.6361 Y7.68093 Z-0.35315
X96.63828 Y7.69458 Z-0.35559
X96.63957 Y7.70834 Z-0.35802
X96.63995 Y7.72216 Z-0.36046
X96.63942 Y7.73597 Z-0.3629
X96.638 Y7.74972 Z-0.36534
X96.63567 Y7.76335 Z-0.36777
X96.63247 Y7.7768 Z-0.37021
X96.62838 Y7.79001 Z-0.37265
X96.62345 Y7.80292 Z-0.37509
X96.61768 Y7.81548 Z-0.37752
X96.6111 Y7.82764 Z-0.37996
X96.60374 Y7.83934 Z-0.3824
X96.59562 Y7.85053 Z-0.38484
X96.5868 Y7.86117 Z-0.38727
X96.5773 Y7.87121 Z-0.38971
X96.56716 Y7.88061 Z-0.39215
X96.55643 Y7.88932 Z-0.39459
X96.54515 Y7.89732 Z-0.39702
X96.53337 Y7.90455 Z-0.39946
X96.52115 Y7.91101 Z-0.4019
X96.50853 Y7.91665 Z-0.40434
X96.49556 Y7.92145 Z-0.40677
X96.48231 Y7.92539 Z-0.40921
X96.46884 Y7.92846 Z-0.41165
X96.45519 Y7.93064 Z-0.41409
X96.44142 Y7.93193 Z-0.41652
X96.4276 Y7.93231 Z-0.41896
X96.41379 Y7.93178 Z-0.4214
X96.40004 Y7.93036 Z-0.42384
X96.38641 Y7.92803 Z-0.42627
X96.37297 Y7.92482 Z-0.42871
X96.35976 Y7.92074 Z-0.43115
X96.34685 Y7.9158 Z-0.43359
X96.33429 Y7.91003 Z-0.43602
X96.32213 Y7.90345 Z-0.43846
X96.31043 Y7.89609 Z-0.4409
X96.29923 Y7.88798 Z-0.44334
X96.28859 Y7.87916 Z-0.44577
X96.27855 Y7.86966 Z-0.44821
X96.26916 Y7.85952 Z-0.45065
X96.26044 Y7.84879 Z-0.45309
X96.25245 Y7.83751 Z-0.45552
X96.24521 Y7.82573 Z-0.45796
X96.23876 Y7.81351 Z-0.4604
X96.23312 Y7.80088 Z-0.46284
X96.22832 Y7.78792 Z-0.46527
X96.22437 Y7.77467 Z-0.46771
X96.2213 Y7.76119 Z-0.47015
X96.21912 Y7.74754 Z-0.47259
X96.21784 Y7.73378 Z-0.47502
X96.21746 Y7.71996 Z-0.47746
X96.21798 Y7.70615 Z-0.4799
X96.21941 Y7.6924 Z-0.48234
X96.22173 Y7.67877 Z-0.48477
X96.22494 Y7.66532 Z-0.48721
X96.22902 Y7.65212 Z-0.48965
X96.23396 Y7.63921 Z-0.49209
X96.23973 Y7.62664 Z-0.49452
X96.24631 Y7.61449 Z-0.49696
X96.25367 Y7.60279 Z-0.4994
X96.26178 Y7.59159 Z-0.50184
X96.27061 Y7.58095 Z-0.50427
X96.28011 Y7.57091 Z-0.50671
X96.29025 Y7.56151 Z-0.50915
X96.30098 Y7.5528 Z-0.51159
X96.31226 Y7.54481 Z-0.51402
X96.32403 Y7.53757 Z-0.51646
X96.33626 Y7.53112 Z-0.5189
X96.34888 Y7.52548 Z-0.52134
X96.36184 Y7.52067 Z-0.52377
X96.37509 Y7.51673 Z-0.52621
X96.38857 Y7.51366 Z-0.52865
X96.40222 Y7.51148 Z-0.53109
X96.41598 Y7.5102 Z-0.53352
X96.4298 Y7.50982 Z-0.53596
X96.44362 Y7.51034 Z-0.5384
X96.45737 Y7.51177 Z-0.54083
X96.47099 Y7.51409 Z-0.54327
X96.48444 Y7.5173 Z-0.54571
X96.49765 Y7.52138 Z-0.54815
X96.51056 Y7.52632 Z-0.55058
X96.52312 Y7.53209 Z-0.55302
X96.53528 Y7.53867 Z-0.55546
X96.54698 Y7.54603 Z-0.5579
X96.55817 Y7.55414 Z-0.56034
X96.56881 Y7.56296 Z-0.56277
X96.57885 Y7.57247 Z-0.56521
X96.58825 Y7.5826 Z-0.56765
X96.59696 Y7.59334 Z-0.57008
X96.60496 Y7.60461 Z-0.57252
X96.6122 Y7.61639 Z-0.57496
X96.61865 Y7.62862 Z-0.5774
X96.62429 Y7.64124 Z-0.57984
X96.62909 Y7.6542 Z-0.58227
X96.63303 Y7.66745 Z-0.58471
X96.6361 Y7.68093 Z-0.58715
X96.63828 Y7.69458 Z-0.58959
X96.63957 Y7.70834 Z-0.59202
X96.63995 Y7.72216 Z-0.59446
X96.63942 Y7.73597 Z-0.5969
X96.638 Y7.74972 Z-0.59933
X96.63567 Y7.76335 Z-0.60177
X96.63247 Y7.7768 Z-0.60421
X96.62838 Y7.79001 Z-0.60665
X96.62345 Y7.80292 Z-0.60908
X96.61768 Y7.81548 Z-0.61152
X96.6111 Y7.82764 Z-0.61396
X96.60374 Y7.83934 Z-0.6164
X96.59562 Y7.85053 Z-0.61884
X96.5868 Y7.86117 Z-0.62127
X96.5773 Y7.87121 Z-0.62371
X96.56716 Y7.88061 Z-0.62615
X96.55643 Y7.88932 Z-0.62859
X96.54515 Y7.89732 Z-0.63102
X96.53337 Y7.90455 Z-0.63346
X96.52115 Y7.91101 Z-0.6359
X96.50853 Y7.91665 Z-0.63834
X96.49556 Y7.92145 Z-0.64077
X96.48231 Y7.92539 Z-0.64321
X96.46884 Y7.92846 Z-0.64565
X96.45519 Y7.93064 Z-0.64809
X96.44142 Y7.93193 Z-0.65052
X96.4276 Y7.93231 Z-0.65296
X96.41379 Y7.93178 Z-0.6554
X96.40004 Y7.93036 Z-0.65784
X96.38641 Y7.92803 Z-0.66027
X96.37297 Y7.92482 Z-0.66271
X96.35976 Y7.92074 Z-0.66515
X96.34685 Y7.9158 Z-0.66758
X96.33429 Y7.91003 Z-0.67002
X96.32213 Y7.90345 Z-0.67246
X96.31043 Y7.89609 Z-0.6749
X96.29923 Y7.88798 Z-0.67733
X96.28859 Y7.87916 Z-0.67977
X96.27855 Y7.86966 Z-0.68221
X96.26916 Y7.85952 Z-0.68465
X96.26044 Y7.84879 Z-0.68708
X96.25245 Y7.83751 Z-0.68952
X96.24521 Y7.82573 Z-0.69196
X96.23876 Y7.81351 Z-0.6944
X96.23312 Y7.80088 Z-0.69683
X96.22832 Y7.78792 Z-0.69927
X96.22437 Y7.77467 Z-0.70171
X96.2213 Y7.76119 Z-0.70415
X96.21912 Y7.74754 Z-0.70658
X96.21784 Y7.73378 Z-0.70902
X96.21746 Y7.71996 Z-0.71146
X96.21798 Y7.70615 Z-0.7139
X96.21941 Y7.6924 Z-0.71633
X96.22173 Y7.67877 Z-0.71877
X96.22494 Y7.66532 Z-0.72121
X96.22902 Y7.65212 Z-0.72365
X96.23396 Y7.63921 Z-0.72608
X96.23973 Y7.62664 Z-0.72852
X96.24631 Y7.61449 Z-0.73096
X96.25367 Y7.60279 Z-0.7334
X96.26178 Y7.59159 Z-0.73583
X96.27061 Y7.58095 Z-0.73827
X96.28011 Y7.57091 Z-0.74071
X96.29025 Y7.56151 Z-0.74315
X96.30098 Y7.5528 Z-0.74558
X96.31226 Y7.54481 Z-0.74802
X96.32403 Y7.53757 Z-0.75046
X96.33626 Y7.53112 Z-0.7529
X96.34888 Y7.52548 Z-0.75533
X96.36184 Y7.52067 Z-0.75777
X96.37509 Y7.51673 Z-0.76021
X96.38857 Y7.51366 Z-0.76265
X96.40222 Y7.51148 Z-0.76508
X96.41598 Y7.5102 Z-0.76752
X96.4298 Y7.50982 Z-0.76996
X96.44362 Y7.51034 Z-0.7724
X96.45737 Y7.51177 Z-0.77483
X96.47099 Y7.51409 Z-0.77727
X96.48444 Y7.5173 Z-0.77971
X96.49765 Y7.52138 Z-0.78215
X96.51056 Y7.52632 Z-0.78458
X96.52312 Y7.53209 Z-0.78702
X96.53528 Y7.53867 Z-0.78946
X96.54698 Y7.54603 Z-0.7919
X96.55817 Y7.55414 Z-0.79433
X96.56881 Y7.56296 Z-0.79677
X96.57885 Y7.57247 Z-0.79921
X96.58825 Y7.5826 Z-0.80165
X96.59696 Y7.59334 Z-0.80408
X96.60496 Y7.60461 Z-0.80652
X96.6122 Y7.61639 Z-0.80896
X96.61865 Y7.62862 Z-0.8114
X96.62429 Y7.64124 Z-0.81383
X96.62909 Y7.6542 Z-0.81627
X96.63303 Y7.66745 Z-0.81871
X96.6361 Y7.68093 Z-0.82115
X96.63828 Y7.69458 Z-0.82358
X96.63957 Y7.70834 Z-0.82602
X96.63995 Y7.72216 Z-0.82846
X96.63942 Y7.73597 Z-0.8309
X96.638 Y7.74972 Z-0.83333
X96.50853 Y7.91665 F2406.
X96.29923 Y7.88798
X96.21941 Y7.6924
X96.34888 Y7.52548
X96.55817 Y7.55414
X96.638 Y7.74972
Z-1.66667
X96.50853 Y7.91665
X96.29923 Y7.88798
X96.21941 Y7.6924
X96.34888 Y7.52548
X96.55817 Y7.55414
X96.638 Y7.74972
Z-2.5
X96.50853 Y7.91665
X96.29923 Y7.88798
X96.21941 Y7.6924
X96.34888 Y7.52548
X96.55817 Y7.55414
X96.638 Y7.74972
G0 Z6.
X120.98406 Y7.62315
G1 Z0.43667 F601.5
X120.98425 Y7.62286 Z0.43661 F1804.5
X120.99236 Y7.61167 Z0.43417
X121.00118 Y7.60103 Z0.43173
X121.01069 Y7.59099 Z0.42929
X121.02082 Y7.58159 Z0.42685
X121.03156 Y7.57288 Z0.42442
X121.04283 Y7.56488 Z0.42198
X121.05461 Y7.55765 Z0.41954
X121.06684 Y7.55119 Z0.4171
X121.07946 Y7.54555 Z0.41467
X121.09242 Y7.54075 Z0.41223
X121.10567 Y7.53681 Z0.40979
X121.11915 Y7.53374 Z0.40735
X121.1328 Y7.53156 Z0.40492
X121.14656 Y7.53028 Z0.40248
X121.16038 Y7.5299 Z0.40004
X121.1742 Y7.53042 Z0.3976
X121.18795 Y7.53185 Z0.39517
X121.20157 Y7.53417 Z0.39273
X121.21502 Y7.53738 Z0.39029
X121.22823 Y7.54146 Z0.38785
X121.24114 Y7.5464 Z0.38542
X121.2537 Y7.55217 Z0.38298
X121.26586 Y7.55875 Z0.38054
X121.27756 Y7.56611 Z0.3781
X121.28875 Y7.57422 Z0.37567
X121.29939 Y7.58305 Z0.37323
X121.30943 Y7.59255 Z0.37079
X121.31883 Y7.60269 Z0.36835
X121.32754 Y7.61342 Z0.36592
X121.33554 Y7.6247 Z0.36348
X121.34277 Y7.63648 Z0.36104
X121.34923 Y7.6487 Z0.3586
X121.35487 Y7.66132 Z0.35617
X121.35967 Y7.67429 Z0.35373
X121.36361 Y7.68754 Z0.35129
X121.36668 Y7.70102 Z0.34885
X121.36886 Y7.71467 Z0.34642
X121.37014 Y7.72843 Z0.34398
X121.37052 Y7.74225 Z0.34154
X121.37 Y7.75606 Z0.3391
X121.36857 Y7.76981 Z0.33667
X121.36625 Y7.78344 Z0.33423
X121.36304 Y7.79689 Z0.33179
X121.35896 Y7.81009 Z0.32935
X121.35402 Y7.82301 Z0.32692
X121.34825 Y7.83557 Z0.32448
X121.34167 Y7.84772 Z0.32204
X121.33431 Y7.85942 Z0.3196
X121.3262 Y7.87062 Z0.31717
X121.31737 Y7.88126 Z0.31473
X121.30787 Y7.8913 Z0.31229
X121.29773 Y7.9007 Z0.30985
X121.287 Y7.90941 Z0.30742
X121.27572 Y7.9174 Z0.30498
X121.26394 Y7.92464 Z0.30254
X121.25172 Y7.93109 Z0.3001
X121.2391 Y7.93673 Z0.29767
X121.22613 Y7.94153 Z0.29523
X121.21288 Y7.94548 Z0.29279
X121.1994 Y7.94855 Z0.29035
X121.18575 Y7.95073 Z0.28792
X121.17199 Y7.95201 Z0.28548
X121.15817 Y7.95239 Z0.28304
X121.14436 Y7.95186 Z0.2806
X121.13061 Y7.95044 Z0.27817
X121.11698 Y7.94811 Z0.27573
X121.10353 Y7.9449 Z0.27329
X121.09033 Y7.94082 Z0.27085
X121.07742 Y7.93589 Z0.26842
X121.06485 Y7.93011 Z0.26598
X121.0527 Y7.92353 Z0.26354
X121.04099 Y7.91617 Z0.2611
X121.0298 Y7.90806 Z0.25867
X121.01916 Y7.89924 Z0.25623
X121.00912 Y7.88973 Z0.25379
X120.99972 Y7.8796 Z0.25135
X120.99101 Y7.86886 Z0.24892
X120.98302 Y7.85759 Z0.24648
X120.97578 Y7.84581 Z0.24404
X120.96933 Y7.83358 Z0.2416
X120.96369 Y7.82096 Z0.23917
X120.95889 Y7.808 Z0.23673
X120.95494 Y7.79475 Z0.23429
X120.95187 Y7.78127 Z0.23185
X120.94969 Y7.76762 Z0.22942
X120.94841 Y7.75386 Z0.22698
X120.94803 Y7.74004 Z0.22454
X120.94856 Y7.72622 Z0.2221
X120.94998 Y7.71247 Z0.21967
X120.95231 Y7.69885 Z0.21723
X120.95552 Y7.6854 Z0.21479
X120.9596 Y7.67219 Z0.21235
X120.96453 Y7.65928 Z0.20992
X120.9703 Y7.64672 Z0.20748
X120.97689 Y7.63456 Z0.20504
X120.98425 Y7.62286 Z0.2026
X120.99236 Y7.61167 Z0.20017
X121.00118 Y7.60103 Z0.19773
X121.01069 Y7.59099 Z0.19529
X121.02082 Y7.58159 Z0.19285
X121.03156 Y7.57288 Z0.19042
X121.04283 Y7.56488 Z0.18798
X121.05461 Y7.55765 Z0.18554
X121.06684 Y7.55119 Z0.1831
X121.07946 Y7.54555 Z0.18067
X121.09242 Y7.54075 Z0.17823
X121.10567 Y7.53681 Z0.17579
X121.11915 Y7.53374 Z0.17335
X121.1328 Y7.53156 Z0.17092
X121.14656 Y7.53028 Z0.16848
X121.16038 Y7.5299 Z0.16604
X121.1742 Y7.53042 Z0.16361
X121.18795 Y7.53185 Z0.16117
X121.20157 Y7.53417 Z0.15873
X121.21502 Y7.53738 Z0.15629
X121.22823 Y7.54146 Z0.15385
X121.24114 Y7.5464 Z0.15142
X121.2537 Y7.55217 Z0.14898
X121.26586 Y7.55875 Z0.14654
X121.27756 Y7.56611 Z0.14411
X121.28875 Y7.57422 Z0.14167
X121.29939 Y7.58305 Z0.13923
X121.30943 Y7.59255 Z0.13679
X121.31883 Y7.60269 Z0.13436
X121.32754 Y7.61342 Z0.13192
X121.33554 Y7.6247 Z0.12948
X121.34277 Y7.63648 Z0.12704
X121.34923 Y7.6487 Z0.1246
X121.35487 Y7.66132 Z0.12217
X121.35967 Y7.67429 Z0.11973
X121.36361 Y7.68754 Z0.11729
X121.36668 Y7.70102 Z0.11485
X121.36886 Y7.71467 Z0.11242
X121.37014 Y7.72843 Z0.10998
X121.37052 Y7.74225 Z0.10754
X121.37 Y7.75606 Z0.1051
X121.36857 Y7.76981 Z0.10267
X121.36625 Y7.78344 Z0.10023
X121.36304 Y7.79689 Z0.09779
X121.35896 Y7.81009 Z0.09535
X121.35402 Y7.82301 Z0.09292
X121.34825 Y7.83557 Z0.09048
X121.34167 Y7.84772 Z0.08804
X121.33431 Y7.85942 Z0.0856
X121.3262 Y7.87062 Z0.08317
X121.31737 Y7.88126 Z0.08073
X121.30787 Y7.8913 Z0.07829
X121.29773 Y7.9007 Z0.07586
X121.287 Y7.90941 Z0.07342
X121.27572 Y7.9174 Z0.07098
X121.26394 Y7.92464 Z0.06854
X121.25172 Y7.93109 Z0.0661
X121.2391 Y7.93673 Z0.06367
X121.22613 Y7.94153 Z0.06123
X121.21288 Y7.94548 Z0.05879
X121.1994 Y7.94855 Z0.05636
X121.18575 Y7.95073 Z0.05392
X121.17199 Y7.95201 Z0.05148
X121.15817 Y7.95239 Z0.04904
X121.14436 Y7.95186 Z0.0466
X121.13061 Y7.95044 Z0.04417
X121.11698 Y7.94811 Z0.04173
X121.10353 Y7.9449 Z0.03929
X121.09033 Y7.94082 Z0.03685
X121.07742 Y7.93589 Z0.03442
X121.06485 Y7.93011 Z0.03198
X121.0527 Y7.92353 Z0.02954
X121.04099 Y7.91617 Z0.0271
X121.0298 Y7.90806 Z0.02467
X121.01916 Y7.89924 Z0.02223
X121.00912 Y7.88973 Z0.01979
X120.99972 Y7.8796 Z0.01735
X120.99101 Y7.86886 Z0.01492
X120.98302 Y7.85759 Z0.01248
X120.97578 Y7.84581 Z0.01004
X120.96933 Y7.83358 Z0.0076
X120.96369 Y7.82096 Z0.00517
X120.95889 Y7.808 Z0.00273
X120.95494 Y7.79475 Z0.00029
X120.95187 Y7.78127 Z-0.00215
X120.94969 Y7.76762 Z-0.00458
X120.94841 Y7.75386 Z-0.00702
X120.94803 Y7.74004 Z-0.00946
X120.94856 Y7.72622 Z-0.0119
X120.94998 Y7.71247 Z-0.01433
X120.95231 Y7.69885 Z-0.01677
X120.95552 Y7.6854 Z-0.01921
X120.9596 Y7.67219 Z-0.02165
X120.96453 Y7.65928 Z-0.02408
X120.9703 Y7.64672 Z-0.02652
X120.97689 Y7.63456 Z-0.02896
X120.98425 Y7.62286 Z-0.0314
X120.99236 Y7.61167 Z-0.03383
X121.00118 Y7.60103 Z-0.03627
X121.01069 Y7.59099 Z-0.03871
X121.02082 Y7.58159 Z-0.04114
X121.03156 Y7.57288 Z-0.04358
X121.04283 Y7.56488 Z-0.04602
X121.05461 Y7.55765 Z-0.04846
X121.06684 Y7.55119 Z-0.0509
X121.07946 Y7.54555 Z-0.05333
X121.09242 Y7.54075 Z-0.05577
X121.10567 Y7.53681 Z-0.05821
X121.11915 Y7.53374 Z-0.06064
X121.1328 Y7.53156 Z-0.06308
X121.14656 Y7.53028 Z-0.06552
X121.16038 Y7.5299 Z-0.06796
X121.1742 Y7.53042 Z-0.07039
X121.18795 Y7.53185 Z-0.07283
X121.20157 Y7.53417 Z-0.07527
X121.21502 Y7.53738 Z-0.07771
X121.22823 Y7.54146 Z-0.08014
X121.24114 Y7.5464 Z-0.08258
X121.2537 Y7.55217 Z-0.08502
X121.26586 Y7.55875 Z-0.08746
X121.27756 Y7.56611 Z-0.0899
X121.28875 Y7.57422 Z-0.09233
X121.29939 Y7.58305 Z-0.09477
X121.30943 Y7.59255 Z-0.09721
X121.31883 Y7.60269 Z-0.09965
X121.32754 Y7.61342 Z-0.10208
X121.33554 Y7.6247 Z-0.10452
X121.34277 Y7.63648 Z-0.10696
X121.34923 Y7.6487 Z-0.10939
X121.35487 Y7.66132 Z-0.11183
X121.35967 Y7.67429 Z-0.11427
X121.36361 Y7.68754 Z-0.11671
X121.36668 Y7.70102 Z-0.11915
X121.36886 Y7.71467 Z-0.12158
X121.37014 Y7.72843 Z-0.12402
X121.37052 Y7.74225 Z-0.12646
X121.37 Y7.75606 Z-0.1289
X121.36857 Y7.76981 Z-0.13133
X121.36625 Y7.78344 Z-0.13377
X121.36304 Y7.79689 Z-0.13621
X121.35896 Y7.81009 Z-0.13864
X121.35402 Y7.82301 Z-0.14108
X121.34825 Y7.83557 Z-0.14352
X121.34167 Y7.84772 Z-0.14596
X121.33431 Y7.85942 Z-0.1484
X121.3262 Y7.87062 Z-0.15083
X121.31737 Y7.88126 Z-0.15327
X121.30787 Y7.8913 Z-0.15571
X121.29773 Y7.9007 Z-0.15815
X121.287 Y7.90941 Z-0.16058
X121.27572 Y7.9174 Z-0.16302
X121.26394 Y7.92464 Z-0.16546
X121.25172 Y7.93109 Z-0.1679
X121.2391 Y7.93673 Z-0.17033
X121.22613 Y7.94153 Z-0.17277
X121.21288 Y7.94548 Z-0.17521
X121.1994 Y7.94855 Z-0.17765
X121.18575 Y7.95073 Z-0.18008
X121.17199 Y7.95201 Z-0.18252
X121.15817 Y7.95239 Z-0.18496
X121.14436 Y7.95186 Z-0.1874
X121.13061 Y7.95044 Z-0.18983
X121.11698 Y7.94811 Z-0.19227
X121.10353 Y7.9449 Z-0.19471
X121.09033 Y7.94082 Z-0.19715
X121.07742 Y7.93589 Z-0.19958
X121.06485 Y7.93011 Z-0.20202
X121.0527 Y7.92353 Z-0.20446
X121.04099 Y7.91617 Z-0.2069
X121.0298 Y7.90806 Z-0.20933
X121.01916 Y7.89924 Z-0.21177
X121.00912 Y7.88973 Z-0.21421
X120.99972 Y7.8796 Z-0.21665
X120.99101 Y7.86886 Z-0.21908
X120.98302 Y7.85759 Z-0.22152
X120.97578 Y7.84581 Z-0.22396
X120.96933 Y7.83358 Z-0.2264
X120.96369 Y7.82096 Z-0.22883
X120.95889 Y7.808 Z-0.23127
X120.95494 Y7.79475 Z-0.23371
X120.95187 Y7.78127 Z-0.23615
X120.94969 Y7.76762 Z-0.23858
X120.94841 Y7.75386 Z-0.24102
X120.94803 Y7.74004 Z-0.24346
X120.94856 Y7.72622 Z-0.2459
X120.94998 Y7.71247 Z-0.24833
X120.95231 Y7.69885 Z-0.25077
X120.95552 Y7.6854 Z-0.25321
X120.9596 Y7.67219 Z-0.25565
X120.96453 Y7.65928 Z-0.25808
X120.9703 Y7.64672 Z-0.26052
X120.97689 Y7.63456 Z-0.26296
X120.98425 Y7.62286 Z-0.2654
X120.99236 Y7.61167 Z-0.26783
X121.00118 Y7.60103 Z-0.27027
X121.01069 Y7.59099 Z-0.27271
X121.02082 Y7.58159 Z-0.27515
X121.03156 Y7.57288 Z-0.27758
X121.04283 Y7.56488 Z-0.28002
X121.05461 Y7.55765 Z-0.28246
X121.06684 Y7.55119 Z-0.2849
X121.07946 Y7.54555 Z-0.28733
X121.09242 Y7.54075 Z-0.28977
X121.10567 Y7.53681 Z-0.29221
X121.11915 Y7.53374 Z-0.29465
X121.1328 Y7.53156 Z-0.29708
X121.14656 Y7.53028 Z-0.29952
X121.16038 Y7.5299 Z-0.30196
X121.1742 Y7.53042 Z-0.3044
X121.18795 Y7.53185 Z-0.30683
X121.20157 Y7.53417 Z-0.30927
X121.21502 Y7.53738 Z-0.31171
X121.22823 Y7.54146 Z-0.31415
X121.24114 Y7.5464 Z-0.31658
X121.2537 Y7.55217 Z-0.31902
X121.26586 Y7.55875 Z-0.32146
X121.27756 Y7.56611 Z-0.3239
X121.28875 Y7.57422 Z-0.32633
X121.29939 Y7.58305 Z-0.32877
X121.30943 Y7.59255 Z-0.33121
X121.31883 Y7.60269 Z-0.33365
X121.32754 Y7.61342 Z-0.33608
X121.33554 Y7.6247 Z-0.33852
X121.34277 Y7.63648 Z-0.34096
X121.34923 Y7.6487 Z-0.3434
X121.35487 Y7.66132 Z-0.34583
X121.35967 Y7.67429 Z-0.34827
X121.36361 Y7.68754 Z-0.35071
X121.36668 Y7.70102 Z-0.35315
X121.36886 Y7.71467 Z-0.35558
X121.37014 Y7.72843 Z-0.35802
X121.37052 Y7.74225 Z-0.36046
X121.37 Y7.75606 Z-0.3629
X121.36857 Y7.76981 Z-0.36533
X121.36625 Y7.78344 Z-0.36777
X121.36304 Y7.79689 Z-0.37021
X121.35896 Y7.81009 Z-0.37265
X121.35402 Y7.82301 Z-0.37508
X121.34825 Y7.83557 Z-0.37752
X121.34167 Y7.84772 Z-0.37996
X121.33431 Y7.85942 Z-0.3824
X121.3262 Y7.87062 Z-0.38483
X121.31737 Y7.88126 Z-0.38727
X121.30787 Y7.8913 Z-0.38971
X121.29773 Y7.9007 Z-0.39215
X121.287 Y7.90941 Z-0.39458
X121.27572 Y7.9174 Z-0.39702
X121.26394 Y7.92464 Z-0.39946
X121.25172 Y7.93109 Z-0.4019
X121.2391 Y7.93673 Z-0.40433
X121.22613 Y7.94153 Z-0.40677
X121.21288 Y7.94548 Z-0.40921
X121.1994 Y7.94855 Z-0.41165
X121.18575 Y7.95073 Z-0.41408
X121.17199 Y7.95201 Z-0.41652
X121.15817 Y7.95239 Z-0.41896
X121.14436 Y7.95186 Z-0.4214
X121.13061 Y7.95044 Z-0.42383
X121.11698 Y7.94811 Z-0.42627
X121.10353 Y7.9449 Z-0.42871
X121.09033 Y7.94082 Z-0.43115
X121.07742 Y7.93589 Z-0.43358
X121.06485 Y7.93011 Z-0.43602
X121.0527 Y7.92353 Z-0.43846
X121.04099 Y7.91617 Z-0.4409
X121.0298 Y7.90806 Z-0.44333
X121.01916 Y7.89924 Z-0.44577
X121.00912 Y7.88973 Z-0.44821
X120.99972 Y7.8796 Z-0.45065
X120.99101 Y7.86886 Z-0.45308
X120.98302 Y7.85759 Z-0.45552
X120.97578 Y7.84581 Z-0.45796
X120.96933 Y7.83358 Z-0.4604
X120.96369 Y7.82096 Z-0.46283
X120.95889 Y7.808 Z-0.46527
X120.95494 Y7.79475 Z-0.46771
X120.95187 Y7.78127 Z-0.47015
X120.94969 Y7.76762 Z-0.47258
X120.94841 Y7.75386 Z-0.47502
X120.94803 Y7.74004 Z-0.47746
X120.94856 Y7.72622 Z-0.4799
X120.94998 Y7.71247 Z-0.48233
X120.95231 Y7.69885 Z-0.48477
X120.95552 Y7.6854 Z-0.48721
X120.9596 Y7.67219 Z-0.48965
X120.96453 Y7.65928 Z-0.49208
X120.9703 Y7.64672 Z-0.49452
X120.97689 Y7.63456 Z-0.49696
X120.98425 Y7.62286 Z-0.4994
X120.99236 Y7.61167 Z-0.50183
X121.00118 Y7.60103 Z-0.50427
X121.01069 Y7.59099 Z-0.50671
X121.02082 Y7.58159 Z-0.50915
X121.03156 Y7.57288 Z-0.51158
X121.04283 Y7.56488 Z-0.51402
X121.05461 Y7.55765 Z-0.51646
X121.06684 Y7.55119 Z-0.5189
X121.07946 Y7.54555 Z-0.52133
X121.09242 Y7.54075 Z-0.52377
X121.10567 Y7.53681 Z-0.52621
X121.11915 Y7.53374 Z-0.52865
X121.1328 Y7.53156 Z-0.53108
X121.14656 Y7.53028 Z-0.53352
X121.16038 Y7.5299 Z-0.53596
X121.1742 Y7.53042 Z-0.5384
X121.18795 Y7.53185 Z-0.54083
X121.20157 Y7.53417 Z-0.54327
X121.21502 Y7.53738 Z-0.54571
X121.22823 Y7.54146 Z-0.54815
X121.24114 Y7.5464 Z-0.55058
X121.2537 Y7.55217 Z-0.55302
X121.26586 Y7.55875 Z-0.55546
X121.27756 Y7.56611 Z-0.5579
X121.28875 Y7.57422 Z-0.56033
X121.29939 Y7.58305 Z-0.56277
X121.30943 Y7.59255 Z-0.56521
X121.31883 Y7.60269 Z-0.56765
X121.32754 Y7.61342 Z-0.57008
X121.33554 Y7.6247 Z-0.57252
X121.34277 Y7.63648 Z-0.57496
X121.34923 Y7.6487 Z-0.5774
X121.35487 Y7.66132 Z-0.57983
X121.35967 Y7.67429 Z-0.58227
X121.36361 Y7.68754 Z-0.58471
X121.36668 Y7.70102 Z-0.58715
X121.36886 Y7.71467 Z-0.58958
X121.37014 Y7.72843 Z-0.59202
X121.37052 Y7.74225 Z-0.59446
X121.37 Y7.75606 Z-0.5969
X121.36857 Y7.76981 Z-0.59933
X121.36625 Y7.78344 Z-0.60177
X121.36304 Y7.79689 Z-0.60421
X121.35896 Y7.81009 Z-0.60665
X121.35402 Y7.82301 Z-0.60908
X121.34825 Y7.83557 Z-0.61152
X121.34167 Y7.84772 Z-0.61396
X121.33431 Y7.85942 Z-0.6164
X121.3262 Y7.87062 Z-0.61883
X121.31737 Y7.88126 Z-0.62127
X121.30787 Y7.8913 Z-0.62371
X121.29773 Y7.9007 Z-0.62615
X121.287 Y7.90941 Z-0.62858
X121.27572 Y7.9174 Z-0.63102
X121.26394 Y7.92464 Z-0.63346
X121.25172 Y7.93109 Z-0.6359
X121.2391 Y7.93673 Z-0.63833
X121.22613 Y7.94153 Z-0.64077
X121.21288 Y7.94548 Z-0.64321
X121.1994 Y7.94855 Z-0.64565
X121.18575 Y7.95073 Z-0.64808
X121.17199 Y7.95201 Z-0.65052
X121.15817 Y7.95239 Z-0.65296
X121.14436 Y7.95186 Z-0.6554
X121.13061 Y7.95044 Z-0.65783
X121.11698 Y7.94811 Z-0.66027
X121.10353 Y7.9449 Z-0.66271
X121.09033 Y7.94082 Z-0.66515
X121.07742 Y7.93589 Z-0.66758
X121.06485 Y7.93011 Z-0.67002
X121.0527 Y7.92353 Z-0.67246
X121.04099 Y7.91617 Z-0.6749
X121.0298 Y7.90806 Z-0.67733
X121.01916 Y7.89924 Z-0.67977
X121.00912 Y7.88973 Z-0.68221
X120.99972 Y7.8796 Z-0.68465
X120.99101 Y7.86886 Z-0.68708
X120.98302 Y7.85759 Z-0.68952
X120.97578 Y7.84581 Z-0.69196
X120.96933 Y7.83358 Z-0.6944
X120.96369 Y7.82096 Z-0.69683
X120.95889 Y7.808 Z-0.69927
X120.95494 Y7.79475 Z-0.70171
X120.95187 Y7.78127 Z-0.70415
X120.94969 Y7.76762 Z-0.70658
X120.94841 Y7.75386 Z-0.70902
X120.94803 Y7.74004 Z-0.71146
X120.94856 Y7.72622 Z-0.7139
X120.94998 Y7.71247 Z-0.71633
X120.95231 Y7.69885 Z-0.71877
X120.95552 Y7.6854 Z-0.72121
X120.9596 Y7.67219 Z-0.72365
X120.96453 Y7.65928 Z-0.72608
X120.9703 Y7.64672 Z-0.72852
X120.97689 Y7.63456 Z-0.73096
X120.98425 Y7.62286 Z-0.7334
X120.99236 Y7.61167 Z-0.73583
X121.00118 Y7.60103 Z-0.73827
X121.01069 Y7.59099 Z-0.74071
X121.02082 Y7.58159 Z-0.74315
X121.03156 Y7.57288 Z-0.74558
X121.04283 Y7.56488 Z-0.74802
X121.05461 Y7.55765 Z-0.75046
X121.06684 Y7.55119 Z-0.7529
X121.07946 Y7.54555 Z-0.75533
X121.09242 Y7.54075 Z-0.75777
X121.10567 Y7.53681 Z-0.76021
X121.11915 Y7.53374 Z-0.76265
X121.1328 Y7.53156 Z-0.76508
X121.14656 Y7.53028 Z-0.76752
X121.16038 Y7.5299 Z-0.76996
X121.1742 Y7.53042 Z-0.7724
X121.18795 Y7.53185 Z-0.77483
X121.20157 Y7.53417 Z-0.77727
X121.21502 Y7.53738 Z-0.77971
X121.22823 Y7.54146 Z-0.78215
X121.24114 Y7.5464 Z-0.78458
X121.2537 Y7.55217 Z-0.78702
X121.26586 Y7.55875 Z-0.78946
X121.27756 Y7.56611 Z-0.7919
X121.28875 Y7.57422 Z-0.79433
X121.29939 Y7.58305 Z-0.79677
X121.30943 Y7.59255 Z-0.79921
X121.31883 Y7.60269 Z-0.80165
X121.32754 Y7.61342 Z-0.80408
X121.33554 Y7.6247 Z-0.80652
X121.34277 Y7.63648 Z-0.80896
X121.34923 Y7.6487 Z-0.8114
X121.35487 Y7.66132 Z-0.81383
X121.35967 Y7.67429 Z-0.81627
X121.36361 Y7.68754 Z-0.81871
X121.36668 Y7.70102 Z-0.82115
X121.36886 Y7.71467 Z-0.82358
X121.37014 Y7.72843 Z-0.82602
X121.37052 Y7.74225 Z-0.82846
X121.37 Y7.75606 Z-0.8309
X121.36857 Y7.76981 Z-0.83333
X121.2391 Y7.93673 F2406.
X121.0298 Y7.90806
X120.94998 Y7.71247
X121.07946 Y7.54555
X121.28875 Y7.57422
X121.36857 Y7.76981
Z-1.66667
X121.2391 Y7.93673
X121.0298 Y7.90806
X120.94998 Y7.71247
X121.07946 Y7.54555
X121.28875 Y7.57422
X121.36857 Y7.76981
Z-2.5
X121.2391 Y7.93673
X121.0298 Y7.90806
X120.94998 Y7.71247
X121.07946 Y7.54555
X121.28875 Y7.57422
X121.36857 Y7.76981
G0 Z6.
X146.58534 Y7.44852
G1 Z0.43667 F601.5
X146.58557 Y7.44811 Z0.43658 F1804.5
X146.59316 Y7.43655 Z0.43415
X146.60148 Y7.42552 Z0.43171
X146.61051 Y7.41505 Z0.42927
X146.62021 Y7.4052 Z0.42683
X146.63053 Y7.396 Z0.4244
X146.64142 Y7.38749 Z0.42196
X146.65285 Y7.37972 Z0.41952
X146.66477 Y7.37271 Z0.41708
X146.67711 Y7.36649 Z0.41465
X146.68984 Y7.3611 Z0.41221
X146.70289 Y7.35654 Z0.40977
X146.71622 Y7.35286 Z0.40733
X146.72975 Y7.35005 Z0.4049
X146.74344 Y7.34813 Z0.40246
X146.75723 Y7.34712 Z0.40002
X146.77105 Y7.347 Z0.39758
X146.78485 Y7.34779 Z0.39515
X146.79857 Y7.34948 Z0.39271
X146.81215 Y7.35207 Z0.39027
X146.82553 Y7.35554 Z0.38783
X146.83866 Y7.35987 Z0.3854
X146.85147 Y7.36506 Z0.38296
X146.86392 Y7.37107 Z0.38052
X146.87595 Y7.37788 Z0.37808
X146.88751 Y7.38547 Z0.37565
X146.89854 Y7.39379 Z0.37321
X146.90901 Y7.40282 Z0.37077
X146.91886 Y7.41252 Z0.36833
X146.92806 Y7.42283 Z0.3659
X146.93657 Y7.43373 Z0.36346
X146.94434 Y7.44516 Z0.36102
X146.95135 Y7.45708 Z0.35858
X146.95757 Y7.46942 Z0.35615
X146.96296 Y7.48215 Z0.35371
X146.96751 Y7.4952 Z0.35127
X146.9712 Y7.50853 Z0.34883
X146.97401 Y7.52206 Z0.3464
X146.97593 Y7.53575 Z0.34396
X146.97694 Y7.54954 Z0.34152
X146.97706 Y7.56336 Z0.33909
X146.97627 Y7.57716 Z0.33665
X146.97457 Y7.59088 Z0.33421
X146.97199 Y7.60446 Z0.33177
X146.96852 Y7.61784 Z0.32934
X146.96418 Y7.63097 Z0.3269
X146.959 Y7.64378 Z0.32446
X146.95299 Y7.65623 Z0.32202
X146.94618 Y7.66826 Z0.31959
X146.93859 Y7.67982 Z0.31715
X146.93026 Y7.69085 Z0.31471
X146.92124 Y7.70132 Z0.31227
X146.91154 Y7.71117 Z0.30984
X146.90122 Y7.72037 Z0.3074
X146.89033 Y7.72888 Z0.30496
X146.8789 Y7.73665 Z0.30252
X146.86698 Y7.74366 Z0.30009
X146.85463 Y7.74988 Z0.29765
X146.84191 Y7.75527 Z0.29521
X146.82885 Y7.75982 Z0.29277
X146.81553 Y7.76351 Z0.29034
X146.802 Y7.76632 Z0.2879
X146.78831 Y7.76824 Z0.28546
X146.77452 Y7.76925 Z0.28302
X146.7607 Y7.76937 Z0.28059
X146.7469 Y7.76858 Z0.27815
X146.73318 Y7.76688 Z0.27571
X146.7196 Y7.7643 Z0.27327
X146.70621 Y7.76083 Z0.27084
X146.69309 Y7.75649 Z0.2684
X146.68027 Y7.75131 Z0.26596
X146.66783 Y7.7453 Z0.26352
X146.6558 Y7.73848 Z0.26109
X146.64424 Y7.7309 Z0.25865
X146.63321 Y7.72257 Z0.25621
X146.62274 Y7.71355 Z0.25377
X146.61288 Y7.70385 Z0.25134
X146.60369 Y7.69353 Z0.2489
X146.59518 Y7.68264 Z0.24646
X146.58741 Y7.67121 Z0.24402
X146.5804 Y7.65929 Z0.24159
X146.57418 Y7.64694 Z0.23915
X146.56879 Y7.63422 Z0.23671
X146.56423 Y7.62116 Z0.23428
X146.56055 Y7.60784 Z0.23184
X146.55774 Y7.59431 Z0.2294
X146.55582 Y7.58062 Z0.22696
X146.55481 Y7.56683 Z0.22452
X146.55469 Y7.55301 Z0.22209
X146.55548 Y7.53921 Z0.21965
X146.55717 Y7.52549 Z0.21721
X146.55976 Y7.51191 Z0.21477
X146.56323 Y7.49853 Z0.21234
X146.56756 Y7.4854 Z0.2099
X146.57275 Y7.47258 Z0.20746
X146.57876 Y7.46014 Z0.20502
X146.58557 Y7.44811 Z0.20259
X146.59316 Y7.43655 Z0.20015
X146.60148 Y7.42552 Z0.19771
X146.61051 Y7.41505 Z0.19527
X146.62021 Y7.4052 Z0.19284
X146.63053 Y7.396 Z0.1904
X146.64142 Y7.38749 Z0.18796
X146.65285 Y7.37972 Z0.18552
X146.66477 Y7.37271 Z0.18309
X146.67711 Y7.36649 Z0.18065
X146.68984 Y7.3611 Z0.17821
X146.70289 Y7.35654 Z0.17578
X146.71622 Y7.35286 Z0.17334
X146.72975 Y7.35005 Z0.1709
X146.74344 Y7.34813 Z0.16846
X146.75723 Y7.34712 Z0.16603
X146.77105 Y7.347 Z0.16359
X146.78485 Y7.34779 Z0.16115
X146.79857 Y7.34948 Z0.15871
X146.81215 Y7.35207 Z0.15628
X146.82553 Y7.35554 Z0.15384
X146.83866 Y7.35987 Z0.1514
X146.85147 Y7.36506 Z0.14896
X146.86392 Y7.37107 Z0.14653
X146.87595 Y7.37788 Z0.14409
X146.88751 Y7.38547 Z0.14165
X146.89854 Y7.39379 Z0.13921
X146.90901 Y7.40282 Z0.13678
X146.91886 Y7.41252 Z0.13434
X146.92806 Y7.42283 Z0.1319
X146.93657 Y7.43373 Z0.12946
X146.94434 Y7.44516 Z0.12703
X146.95135 Y7.45708 Z0.12459
X146.95757 Y7.46942 Z0.12215
X146.96296 Y7.48215 Z0.11971
X146.96751 Y7.4952 Z0.11728
X146.9712 Y7.50853 Z0.11484
X146.97401 Y7.52206 Z0.1124
X146.97593 Y7.53575 Z0.10996
X146.97694 Y7.54954 Z0.10753
X146.97706 Y7.56336 Z0.10509
X146.97627 Y7.57716 Z0.10265
X146.97457 Y7.59088 Z0.10021
X146.97199 Y7.60446 Z0.09778
X146.96852 Y7.61784 Z0.09534
X146.96418 Y7.63097 Z0.0929
X146.959 Y7.64378 Z0.09046
X146.95299 Y7.65623 Z0.08803
X146.94618 Y7.66826 Z0.08559
X146.93859 Y7.67982 Z0.08315
X146.93026 Y7.69085 Z0.08071
X146.92124 Y7.70132 Z0.07828
X146.91154 Y7.71117 Z0.07584
X146.90122 Y7.72037 Z0.0734
X146.89033 Y7.72888 Z0.07097
X146.8789 Y7.73665 Z0.06853
X146.86698 Y7.74366 Z0.06609
X146.85463 Y7.74988 Z0.06365
X146.84191 Y7.75527 Z0.06121
X146.82885 Y7.75982 Z0.05878
X146.81553 Y7.76351 Z0.05634
X146.802 Y7.76632 Z0.0539
X146.78831 Y7.76824 Z0.05146
X146.77452 Y7.76925 Z0.04903
X146.7607 Y7.76937 Z0.04659
X146.7469 Y7.76858 Z0.04415
X146.73318 Y7.76688 Z0.04171
X146.7196 Y7.7643 Z0.03928
X146.70621 Y7.76083 Z0.03684
X146.69309 Y7.75649 Z0.0344
X146.68027 Y7.75131 Z0.03196
X146.66783 Y7.7453 Z0.02953
X146.6558 Y7.73848 Z0.02709
X146.64424 Y7.7309 Z0.02465
X146.63321 Y7.72257 Z0.02222
X146.62274 Y7.71355 Z0.01978
X146.61288 Y7.70385 Z0.01734
X146.60369 Y7.69353 Z0.0149
X146.59518 Y7.68264 Z0.01247
X146.58741 Y7.67121 Z0.01003
X146.5804 Y7.65929 Z0.00759
X146.57418 Y7.64694 Z0.00515
X146.56879 Y7.63422 Z0.00272
X146.56423 Y7.62116 Z0.00028
X146.56055 Y7.60784 Z-0.00216
X146.55774 Y7.59431 Z-0.0046
X146.55582 Y7.58062 Z-0.00703
X146.55481 Y7.56683 Z-0.00947
X146.55469 Y7.55301 Z-0.01191
X146.55548 Y7.53921 Z-0.01435
X146.55717 Y7.52549 Z-0.01678
X146.55976 Y7.51191 Z-0.01922
X146.56323 Y7.49853 Z-0.02166
X146.56756 Y7.4854 Z-0.0241
X146.57275 Y7.47258 Z-0.02653
X146.57876 Y7.46014 Z-0.02897
X146.58557 Y7.44811 Z-0.03141
X146.59316 Y7.43655 Z-0.03385
X146.60148 Y7.42552 Z-0.03628
X146.61051 Y7.41505 Z-0.03872
X146.62021 Y7.4052 Z-0.04116
X146.63053 Y7.396 Z-0.0436
X146.64142 Y7.38749 Z-0.04603
X146.65285 Y7.37972 Z-0.04847
X146.66477 Y7.37271 Z-0.05091
X146.67711 Y7.36649 Z-0.05335
X146.68984 Y7.3611 Z-0.05578
X146.70289 Y7.35654 Z-0.05822
X146.71622 Y7.35286 Z-0.06066
X146.72975 Y7.35005 Z-0.0631
X146.74344 Y7.34813 Z-0.06553
X146.75723 Y7.34712 Z-0.06797
X146.77105 Y7.347 Z-0.07041
X146.78485 Y7.34779 Z-0.07285
X146.79857 Y7.34948 Z-0.07528
X146.81215 Y7.35207 Z-0.07772
X146.82553 Y7.35554 Z-0.08016
X146.83866 Y7.35987 Z-0.0826
X146.85147 Y7.36506 Z-0.08503
X146.86392 Y7.37107 Z-0.08747
X146.87595 Y7.37788 Z-0.08991
X146.88751 Y7.38547 Z-0.09235
X146.89854 Y7.39379 Z-0.09478
X146.90901 Y7.40282 Z-0.09722
X146.91886 Y7.41252 Z-0.09966
X146.92806 Y7.42283 Z-0.1021
X146.93657 Y7.43373 Z-0.10453
X146.94434 Y7.44516 Z-0.10697
X146.95135 Y7.45708 Z-0.10941
X146.95757 Y7.46942 Z-0.11185
X146.96296 Y7.48215 Z-0.11428
X146.96751 Y7.4952 Z-0.11672
X146.9712 Y7.50853 Z-0.11916
X146.97401 Y7.52206 Z-0.12159
X146.97593 Y7.53575 Z-0.12403
X146.97694 Y7.54954 Z-0.12647
X146.97706 Y7.56336 Z-0.12891
X146.97627 Y7.57716 Z-0.13134
X146.97457 Y7.59088 Z-0.13378
X146.97199 Y7.60446 Z-0.13622
X146.96852 Y7.61784 Z-0.13866
X146.96418 Y7.63097 Z-0.14109
X146.959 Y7.64378 Z-0.14353
X146.95299 Y7.65623 Z-0.14597
X146.94618 Y7.66826 Z-0.14841
X146.93859 Y7.67982 Z-0.15084
X146.93026 Y7.69085 Z-0.15328
X146.92124 Y7.70132 Z-0.15572
X146.91154 Y7.71117 Z-0.15816
X146.90122 Y7.72037 Z-0.16059
X146.89033 Y7.72888 Z-0.16303
X146.8789 Y7.73665 Z-0.16547
X146.86698 Y7.74366 Z-0.16791
X146.85463 Y7.74988 Z-0.17034
X146.84191 Y7.75527 Z-0.17278
X146.82885 Y7.75982 Z-0.17522
X146.81553 Y7.76351 Z-0.17766
X146.802 Y7.76632 Z-0.18009
X146.78831 Y7.76824 Z-0.18253
X146.77452 Y7.76925 Z-0.18497
X146.7607 Y7.76937 Z-0.18741
X146.7469 Y7.76858 Z-0.18984
X146.73318 Y7.76688 Z-0.19228
X146.7196 Y7.7643 Z-0.19472
X146.70621 Y7.76083 Z-0.19716
X146.69309 Y7.75649 Z-0.19959
X146.68027 Y7.75131 Z-0.20203
X146.66783 Y7.7453 Z-0.20447
X146.6558 Y7.73848 Z-0.20691
X146.64424 Y7.7309 Z-0.20934
X146.63321 Y7.72257 Z-0.21178
X146.62274 Y7.71355 Z-0.21422
X146.61288 Y7.70385 Z-0.21666
X146.60369 Y7.69353 Z-0.21909
X146.59518 Y7.68264 Z-0.22153
X146.58741 Y7.67121 Z-0.22397
X146.5804 Y7.65929 Z-0.22641
X146.57418 Y7.64694 Z-0.22884
X146.56879 Y7.63422 Z-0.23128
X146.56423 Y7.62116 Z-0.23372
X146.56055 Y7.60784 Z-0.23616
X146.55774 Y7.59431 Z-0.23859
X146.55582 Y7.58062 Z-0.24103
X146.55481 Y7.56683 Z-0.24347
X146.55469 Y7.55301 Z-0.2459
X146.55548 Y7.53921 Z-0.24834
X146.55717 Y7.52549 Z-0.25078
X146.55976 Y7.51191 Z-0.25322
X146.56323 Y7.49853 Z-0.25566
X146.56756 Y7.4854 Z-0.25809
X146.57275 Y7.47258 Z-0.26053
X146.57876 Y7.46014 Z-0.26297
X146.58557 Y7.44811 Z-0.2654
X146.59316 Y7.43655 Z-0.26784
X146.60148 Y7.42552 Z-0.27028
X146.61051 Y7.41505 Z-0.27272
X146.62021 Y7.4052 Z-0.27515
X146.63053 Y7.396 Z-0.27759
X146.64142 Y7.38749 Z-0.28003
X146.65285 Y7.37972 Z-0.28247
X146.66477 Y7.37271 Z-0.28491
X146.67711 Y7.36649 Z-0.28734
X146.68984 Y7.3611 Z-0.28978
X146.70289 Y7.35654 Z-0.29222
X146.71622 Y7.35286 Z-0.29465
X146.72975 Y7.35005 Z-0.29709
X146.74344 Y7.34813 Z-0.29953
X146.75723 Y7.34712 Z-0.30197
X146.77105 Y7.347 Z-0.3044
X146.78485 Y7.34779 Z-0.30684
X146.79857 Y7.34948 Z-0.30928
X146.81215 Y7.35207 Z-0.31172
X146.82553 Y7.35554 Z-0.31415
X146.83866 Y7.35987 Z-0.31659
X146.85147 Y7.36506 Z-0.31903
X146.86392 Y7.37107 Z-0.32147
X146.87595 Y7.37788 Z-0.3239
X146.88751 Y7.38547 Z-0.32634
X146.89854 Y7.39379 Z-0.32878
X146.90901 Y7.40282 Z-0.33122
X146.91886 Y7.41252 Z-0.33365
X146.92806 Y7.42283 Z-0.33609
X146.93657 Y7.43373 Z-0.33853
X146.94434 Y7.44516 Z-0.34097
X146.95135 Y7.45708 Z-0.3434
X146.95757 Y7.46942 Z-0.34584
X146.96296 Y7.48215 Z-0.34828
X146.96751 Y7.4952 Z-0.35072
X146.9712 Y7.50853 Z-0.35315
X146.97401 Y7.52206 Z-0.35559
X146.97593 Y7.53575 Z-0.35803
X146.97694 Y7.54954 Z-0.36047
X146.97706 Y7.56336 Z-0.3629
X146.97627 Y7.57716 Z-0.36534
X146.97457 Y7.59088 Z-0.36778
X146.97199 Y7.60446 Z-0.37022
X146.96852 Y7.61784 Z-0.37265
X146.96418 Y7.63097 Z-0.37509
X146.959 Y7.64378 Z-0.37753
X146.95299 Y7.65623 Z-0.37997
X146.94618 Y7.66826 Z-0.3824
X146.93859 Y7.67982 Z-0.38484
X146.93026 Y7.69085 Z-0.38728
X146.92124 Y7.70132 Z-0.38972
X146.91154 Y7.71117 Z-0.39215
X146.90122 Y7.72037 Z-0.39459
X146.89033 Y7.72888 Z-0.39703
X146.8789 Y7.73665 Z-0.39947
X146.86698 Y7.74366 Z-0.4019
X146.85463 Y7.74988 Z-0.40434
X146.84191 Y7.75527 Z-0.40678
X146.82885 Y7.75982 Z-0.40922
X146.81553 Y7.76351 Z-0.41165
X146.802 Y7.76632 Z-0.41409
X146.78831 Y7.76824 Z-0.41653
X146.77452 Y7.76925 Z-0.41897
X146.7607 Y7.76937 Z-0.4214
X146.7469 Y7.76858 Z-0.42384
X146.73318 Y7.76688 Z-0.42628
X146.7196 Y7.7643 Z-0.42872
X146.70621 Y7.76083 Z-0.43115
X146.69309 Y7.75649 Z-0.43359
X146.68027 Y7.75131 Z-0.43603
X146.66783 Y7.7453 Z-0.43847
X146.6558 Y7.73848 Z-0.4409
X146.64424 Y7.7309 Z-0.44334
X146.63321 Y7.72257 Z-0.44578
X146.62274 Y7.71355 Z-0.44821
X146.61288 Y7.70385 Z-0.45065
X146.60369 Y7.69353 Z-0.45309
X146.59518 Y7.68264 Z-0.45553
X146.58741 Y7.67121 Z-0.45796
X146.5804 Y7.65929 Z-0.4604
X146.57418 Y7.64694 Z-0.46284
X146.56879 Y7.63422 Z-0.46528
X146.56423 Y7.62116 Z-0.46771
X146.56055 Y7.60784 Z-0.47015
X146.55774 Y7.59431 Z-0.47259
X146.55582 Y7.58062 Z-0.47503
X146.55481 Y7.56683 Z-0.47746
X146.55469 Y7.55301 Z-0.4799
X146.55548 Y7.53921 Z-0.48234
X146.55717 Y7.52549 Z-0.48478
X146.55976 Y7.51191 Z-0.48721
X146.56323 Y7.49853 Z-0.48965
X146.56756 Y7.4854 Z-0.49209
X146.57275 Y7.47258 Z-0.49453
X146.57876 Y7.46014 Z-0.49696
X146.58557 Y7.44811 Z-0.4994
X146.59316 Y7.43655 Z-0.50184
X146.60148 Y7.42552 Z-0.50428
X146.61051 Y7.41505 Z-0.50671
X146.62021 Y7.4052 Z-0.50915
X146.63053 Y7.396 Z-0.51159
X146.64142 Y7.38749 Z-0.51403
X146.65285 Y7.37972 Z-0.51646
X146.66477 Y7.37271 Z-0.5189
X146.67711 Y7.36649 Z-0.52134
X146.68984 Y7.3611 Z-0.52378
X146.70289 Y7.35654 Z-0.52621
X146.71622 Y7.35286 Z-0.52865
X146.72975 Y7.35005 Z-0.53109
X146.74344 Y7.34813 Z-0.53353
X146.75723 Y7.34712 Z-0.53596
X146.77105 Y7.347 Z-0.5384
X146.78485 Y7.34779 Z-0.54084
X146.79857 Y7.34948 Z-0.54328
X146.81215 Y7.35207 Z-0.54571
X146.82553 Y7.35554 Z-0.54815
X146.83866 Y7.35987 Z-0.55059
X146.85147 Y7.36506 Z-0.55303
X146.86392 Y7.37107 Z-0.55546
X146.87595 Y7.37788 Z-0.5579
X146.88751 Y7.38547 Z-0.56034
X146.89854 Y7.39379 Z-0.56278
X146.90901 Y7.40282 Z-0.56521
X146.91886 Y7.41252 Z-0.56765
X146.92806 Y7.42283 Z-0.57009
X146.93657 Y7.43373 Z-0.57252
X146.94434 Y7.44516 Z-0.57496
X146.95135 Y7.45708 Z-0.5774
X146.95757 Y7.46942 Z-0.57984
X146.96296 Y7.48215 Z-0.58228
X146.96751 Y7.4952 Z-0.58471
X146.9712 Y7.50853 Z-0.58715
X146.97401 Y7.52206 Z-0.58959
X146.97593 Y7.53575 Z-0.59203
X146.97694 Y7.54954 Z-0.59446
X146.97706 Y7.56336 Z-0.5969
X146.97627 Y7.57716 Z-0.59934
X146.97457 Y7.59088 Z-0.60178
X146.97199 Y7.60446 Z-0.60421
X146.96852 Y7.61784 Z-0.60665
X146.96418 Y7.63097 Z-0.60909
X146.959 Y7.64378 Z-0.61152
X146.95299 Y7.65623 Z-0.61396
X146.94618 Y7.66826 Z-0.6164
X146.93859 Y7.67982 Z-0.61884
X146.93026 Y7.69085 Z-0.62127
X146.92124 Y7.70132 Z-0.62371
X146.91154 Y7.71117 Z-0.62615
X146.90122 Y7.72037 Z-0.62859
X146.89033 Y7.72888 Z-0.63102
X146.8789 Y7.73665 Z-0.63346
X146.86698 Y7.74366 Z-0.6359
X146.85463 Y7.74988 Z-0.63834
X146.84191 Y7.75527 Z-0.64077
X146.82885 Y7.75982 Z-0.64321
X146.81553 Y7.76351 Z-0.64565
X146.802 Y7.76632 Z-0.64809
X146.78831 Y7.76824 Z-0.65052
X146.77452 Y7.76925 Z-0.65296
X146.7607 Y7.76937 Z-0.6554
X146.7469 Y7.76858 Z-0.65784
X146.73318 Y7.76688 Z-0.66027
X146.7196 Y7.7643 Z-0.66271
X146.70621 Y7.76083 Z-0.66515
X146.69309 Y7.75649 Z-0.66759
X146.68027 Y7.75131 Z-0.67002
X146.66783 Y7.7453 Z-0.67246
X146.6558 Y7.73848 Z-0.6749
X146.64424 Y7.7309 Z-0.67734
X146.63321 Y7.72257 Z-0.67977
X146.62274 Y7.71355 Z-0.68221
X146.61288 Y7.70385 Z-0.68465
X146.60369 Y7.69353 Z-0.68709
X146.59518 Y7.68264 Z-0.68952
X146.58741 Y7.67121 Z-0.69196
X146.5804 Y7.65929 Z-0.6944
X146.57418 Y7.64694 Z-0.69684
X146.56879 Y7.63422 Z-0.69927
X146.56423 Y7.62116 Z-0.70171
X146.56055 Y7.60784 Z-0.70415
X146.55774 Y7.59431 Z-0.70659
X146.55582 Y7.58062 Z-0.70902
X146.55481 Y7.56683 Z-0.71146
X146.55469 Y7.55301 Z-0.7139
X146.55548 Y7.53921 Z-0.71634
X146.55717 Y7.52549 Z-0.71877
X146.55976 Y7.51191 Z-0.72121
X146.56323 Y7.49853 Z-0.72365
X146.56756 Y7.4854 Z-0.72609
X146.57275 Y7.47258 Z-0.72852
X146.57876 Y7.46014 Z-0.73096
X146.58557 Y7.44811 Z-0.7334
X146.59316 Y7.43655 Z-0.73584
X146.60148 Y7.42552 Z-0.73827
X146.61051 Y7.41505 Z-0.74071
X146.62021 Y7.4052 Z-0.74315
X146.63053 Y7.396 Z-0.74559
X146.64142 Y7.38749 Z-0.74802
X146.65285 Y7.37972 Z-0.75046
X146.66477 Y7.37271 Z-0.7529
X146.67711 Y7.36649 Z-0.75534
X146.68984 Y7.3611 Z-0.75777
X146.70289 Y7.35654 Z-0.76021
X146.71622 Y7.35286 Z-0.76265
X146.72975 Y7.35005 Z-0.76508
X146.74344 Y7.34813 Z-0.76752
X146.75723 Y7.34712 Z-0.76996
X146.77105 Y7.347 Z-0.7724
X146.78485 Y7.34779 Z-0.77483
X146.79857 Y7.34948 Z-0.77727
X146.81215 Y7.35207 Z-0.77971
X146.82553 Y7.35554 Z-0.78215
X146.83866 Y7.35987 Z-0.78458
X146.85147 Y7.36506 Z-0.78702
X146.86392 Y7.37107 Z-0.78946
X146.87595 Y7.37788 Z-0.7919
X146.88751 Y7.38547 Z-0.79433
X146.89854 Y7.39379 Z-0.79677
X146.90901 Y7.40282 Z-0.79921
X146.91886 Y7.41252 Z-0.80165
X146.92806 Y7.42283 Z-0.80408
X146.93657 Y7.43373 Z-0.80652
X146.94434 Y7.44516 Z-0.80896
X146.95135 Y7.45708 Z-0.8114
X146.95757 Y7.46942 Z-0.81383
X146.96296 Y7.48215 Z-0.81627
X146.96751 Y7.4952 Z-0.81871
X146.9712 Y7.50853 Z-0.82115
X146.97401 Y7.52206 Z-0.82358
X146.97593 Y7.53575 Z-0.82602
X146.97694 Y7.54954 Z-0.82846
X146.97706 Y7.56336 Z-0.8309
X146.97627 Y7.57716 Z-0.83333
X146.85463 Y7.74988 F2406.
X146.64424 Y7.7309
X146.55548 Y7.53921
X146.67711 Y7.36649
X146.88751 Y7.38547
X146.97627 Y7.57716
Z-1.66667
X146.85463 Y7.74988
X146.64424 Y7.7309
X146.55548 Y7.53921
X146.67711 Y7.36649
X146.88751 Y7.38547
X146.97627 Y7.57716
Z-2.5
X146.85463 Y7.74988
X146.64424 Y7.7309
X146.55548 Y7.53921
X146.67711 Y7.36649
X146.88751 Y7.38547
X146.97627 Y7.57716
G0 Z6.
X152.597 Y29.95431
G1 Z0.43667 F601.5
X152.71232 Y33.99339 Z-0.27582 F1804.5
X152.72789 Y36.14667 Z-0.65551
X152.72779 Y36.19469 Z-0.66398
X152.72678 Y36.24271 Z-0.67245
X152.72487 Y36.29069 Z-0.68092
X152.72206 Y36.33863 Z-0.68939
X152.71835 Y36.38651 Z-0.69785
X152.71375 Y36.43431 Z-0.70632
X152.70824 Y36.48201 Z-0.71479
X152.70184 Y36.52961 Z-0.72326
X152.69455 Y36.57707 Z-0.73172
X152.68637 Y36.62439 Z-0.74019
X152.6773 Y36.67155 Z-0.74866
X152.66734 Y36.71853 Z-0.75713
X152.65651 Y36.76531 Z-0.76559
X152.64479 Y36.81188 Z-0.77406
X152.63221 Y36.85823 Z-0.78253
X152.61876 Y36.90433 Z-0.791
X152.60444 Y36.95016 Z-0.79946
X152.58927 Y36.99573 Z-0.80793
X152.57324 Y37.04099 Z-0.8164
X152.55636 Y37.08595 Z-0.82487
X152.53864 Y37.13059 Z-0.83333
G17
G03 X150.1717 Y38.72142 I-2.36697 J-0.96548 F2406.
G1 X140.63583
G03 X138.09575 Y35.87816 I0. J-2.55624
X140.29142 Y20.20797 I147.59788 J12.69218
X141.48379 Y19.23147 I1.19233 J0.23968
G1 X150.8253
G03 X152.03592 Y20.33097 I0.00001 J1.21623
X152.72789 Y36.14667 I-178.99637 J15.75439
X152.53864 Y37.13059 I-2.55635 J0.01847
G1 Z-1.66667
G03 X150.1717 Y38.72142 I-2.36697 J-0.96548
G1 X140.63583
G03 X138.09575 Y35.87816 I0. J-2.55624
X140.29142 Y20.20797 I147.59788 J12.69218
X141.48379 Y19.23147 I1.19233 J0.23968
G1 X150.8253
G03 X152.03592 Y20.33097 I0.00001 J1.21623
X152.72789 Y36.14667 I-178.99637 J15.75439
X152.53864 Y37.13059 I-2.55635 J0.01847
G1 Z-2.5
G03 X150.1717 Y38.72142 I-2.36697 J-0.96548
G1 X140.63583
G03 X138.09575 Y35.87816 I0. J-2.55624
X140.29142 Y20.20797 I147.59788 J12.69218
X141.48379 Y19.23147 I1.19233 J0.23968
G1 X150.8253
G03 X152.03592 Y20.33097 I0.00001 J1.21623
X152.72789 Y36.14667 I-178.99637 J15.75439
X152.53864 Y37.13059 I-2.55635 J0.01847
G0 Z6.
X126.05761 Y30.31771
G1 Z0.43667 F601.5
X126.16836 Y34.20465 Z-0.24899 F1804.5
X126.18717 Y36.8216 Z-0.71044
X126.18702 Y36.8626 Z-0.71767
X126.18598 Y36.90359 Z-0.72489
X126.18405 Y36.94454 Z-0.73212
X126.18123 Y36.98544 Z-0.73935
X126.17752 Y37.02627 Z-0.74658
X126.17292 Y37.06702 Z-0.75381
X126.16744 Y37.10765 Z-0.76104
X126.16107 Y37.14815 Z-0.76827
X126.15383 Y37.1885 Z-0.7755
X126.14572 Y37.22869 Z-0.78273
X126.13673 Y37.26869 Z-0.78996
X126.12687 Y37.30849 Z-0.79719
X126.11615 Y37.34806 Z-0.80442
X126.10457 Y37.3874 Z-0.81165
X126.09215 Y37.42647 Z-0.81888
X126.07887 Y37.46526 Z-0.8261
X126.06476 Y37.50375 Z-0.83333
X126.06475 F2406.
G03 X124.30097 Y38.72142 I-1.76379 J-0.66859
G1 X115.49673
G03 X113.61843 Y36.66216 I0.00001 J-1.88626
X115.74211 Y20.95754 I149.67159 J12.2437
X117.57285 Y19.44289 I1.84929 J0.37148
G1 X119.4474 Y19.42448
X123.66875 Y19.38305
G03 X125.54276 Y21.08853 I-0.00356 J1.88626
X126.18717 Y36.8216 I-184.09161 J15.41993
X126.06476 Y37.50375 I-1.88614 J0.01357
G1 Z-1.66667
X126.06475
G03 X124.30097 Y38.72142 I-1.76379 J-0.66859
G1 X115.49673
G03 X113.61843 Y36.66216 I0.00001 J-1.88626
X115.74211 Y20.95754 I149.67159 J12.2437
X117.57285 Y19.44289 I1.84929 J0.37148
G1 X119.4474 Y19.42448
X123.66875 Y19.38305
G03 X125.54276 Y21.08853 I-0.00356 J1.88626
X126.18717 Y36.8216 I-184.09161 J15.41993
X126.06476 Y37.50375 I-1.88614 J0.01357
G1 Z-2.5
X126.06475
G03 X124.30097 Y38.72142 I-1.76379 J-0.66859
G1 X115.49673
G03 X113.61843 Y36.66216 I0.00001 J-1.88626
X115.74211 Y20.95754 I149.67159 J12.2437
X117.57285 Y19.44289 I1.84929 J0.37148
G1 X119.4474 Y19.42448
X123.66875 Y19.38305
G03 X125.54276 Y21.08853 I-0.00356 J1.88626
X126.18717 Y36.8216 I-184.09161 J15.41993
X126.06476 Y37.50375 I-1.88614 J0.01357
G0 Z6.
X101.32782 Y30.3177
G1 Z0.43667 F601.5
X101.43799 Y34.18451 Z-0.24543 F1804.5
X101.45695 Y36.8216 Z-0.71044
X101.4568 Y36.8626 Z-0.71767
X101.45576 Y36.90359 Z-0.72489
X101.45382 Y36.94454 Z-0.73212
X101.451 Y36.98544 Z-0.73935
X101.44729 Y37.02627 Z-0.74658
X101.44269 Y37.06701 Z-0.75381
X101.43721 Y37.10765 Z-0.76104
X101.43085 Y37.14815 Z-0.76827
X101.42361 Y37.1885 Z-0.7755
X101.41549 Y37.22869 Z-0.78273
X101.4065 Y37.26869 Z-0.78996
X101.39664 Y37.30849 Z-0.79719
X101.38592 Y37.34806 Z-0.80442
