%
N1 G17 G21 G40 G90
(2 1/2 Axis Profiling)
(Endmill 4mm Single Flute Carbide)
N2 T28 M06
N3 S24000 M3
N4 G0 Z14.
N5 X61.2366 Y51.19234
N6 G1 Z10.33333 F304.7
N7 X61.058 Y50.89133 F914.2
N8 G17
N9 G03 X61.53016 Y49.04145 I1.16102 J-0.68886
N10 G02 X63. Y46.4625 I-1.52817 J-2.5793 F1219.
N11 G1 Y16.4625
N12 G02 X60. Y13.4625 I-3.00103 J0.00103
N13 G1 X49.68467
N14 G03 X46.77254 Y11.18327 I0. J-3.
N15 X46.68394 Y10.74257 I7.43746 J-1.72448
N16 G1 X46.6814 Y10.72831
N17 X46.67083 Y10.67133
N18 X46.66808 Y10.6571
N19 G02 X14.38553 Y7.27778 I-16.66808 J3.3429
N20 G1 X14.38541 Y7.27805
N21 X14.38494 Y7.27915
N22 X14.38482 Y7.27943
N23 G02 X13.25034 Y11.08357 I15.74122 J6.76561
N24 G03 X10.31533 Y13.4625 I-2.93501 J-0.62107
N25 G02 X-0.17837 Y13.46823 I-5.15766 J163.24961
N26 X-3. Y16.4625 I0.17871 J2.99502
N27 G1 Y46.4625
N28 G02 X0. Y49.4625 I3.00103 J-0.00103
N29 G1 X60.
N30 G02 X61.53016 Y49.04145 I-0.00064 J-2.99324
N31 G1 X61.01989 Y48.18143
N32 G02 X62. Y46.4625 I-1.01453 J-1.71736
N33 G1 Y16.4625
N34 G02 X60. Y14.4625 I-2. J0.
N35 G1 X49.68467
N36 G03 X45.79999 Y11.41605 I0. J-4.
N37 X45.69818 Y10.91072 I8.41001 J-1.95726
N38 G1 X45.68761 Y10.85374
N39 G02 X15.30403 Y7.6732 I-15.68761 J3.14626
N40 G1 X15.30355 Y7.6743
N41 G02 X14.23255 Y11.27207 I14.82249 J6.37074
N42 G03 X10.31533 Y14.4625 I-3.91722 J-0.80957
N43 G1 X0.
N44 G02 X-2. Y16.4625 I0. J2.
N45 G1 Y46.4625
N46 G02 X0. Y48.4625 I2. J0.
N47 G1 X60.
N48 G02 X61.01989 Y48.18143 I0.00272 J-1.98105
N49 G03 X62.86977 Y48.65359 I0.68886 J1.16102 F1828.5
N50 G1 X63.04837 Y48.95459
N51 G0 Z14.
N52 X61.2366 Y51.19234
N53 G1 Z8.66667 F304.7
N54 X61.058 Y50.89133 F914.2
N55 G03 X61.53016 Y49.04145 I1.16102 J-0.68886
N56 G02 X63. Y46.4625 I-1.52817 J-2.5793 F1219.
N57 G1 Y16.4625
N58 G02 X60. Y13.4625 I-3.00103 J0.00103
N59 G1 X49.68467
N60 G03 X46.77254 Y11.18327 I0. J-3.
N61 X46.68394 Y10.74257 I7.43746 J-1.72448
N62 G1 X46.6814 Y10.72831
N63 X46.67083 Y10.67133
N64 X46.66808 Y10.6571
N65 G02 X14.38553 Y7.27778 I-16.66808 J3.3429
N66 G1 X14.38541 Y7.27805
N67 X14.38494 Y7.27915
N68 X14.38482 Y7.27943
N69 G02 X13.25034 Y11.08357 I15.74122 J6.76561
N70 G03 X10.31533 Y13.4625 I-2.93501 J-0.62107
N71 G02 X-0.17837 Y13.46823 I-5.15766 J163.24961
N72 X-3. Y16.4625 I0.17871 J2.99502
N73 G1 Y46.4625
N74 G02 X0. Y49.4625 I3.00103 J-0.00103
N75 G1 X60.
N76 G02 X61.53016 Y49.04145 I-0.00064 J-2.99324
N77 G1 X61.01989 Y48.18143
N78 G02 X62. Y46.4625 I-1.01453 J-1.71736
N79 G1 Y16.4625
N80 G02 X60. Y14.4625 I-2. J0.
N81 G1 X49.68467
N82 G03 X45.79999 Y11.41605 I0. J-4.
N83 X45.69818 Y10.91072 I8.41001 J-1.95726
N84 G1 X45.68761 Y10.85374
N85 G02 X15.30403 Y7.6732 I-15.68761 J3.14626
N86 G1 X15.30355 Y7.6743
N87 G02 X14.23255 Y11.27207 I14.82249 J6.37074
N88 G03 X10.31533 Y14.4625 I-3.91722 J-0.80957
N89 G1 X0.
N90 G02 X-2. Y16.4625 I0. J2.
N91 G1 Y46.4625
N92 G02 X0. Y48.4625 I2. J0.
N93 G1 X60.
N94 G02 X61.01989 Y48.18143 I0.00272 J-1.98105
N95 G03 X62.86977 Y48.65359 I0.68886 J1.16102 F1828.5
N96 G1 X63.04837 Y48.95459
N97 G0 Z14.
N98 X61.2366 Y51.19234
N99 G1 Z7. F304.7
N100 X61.058 Y50.89133 F914.2
N101 G03 X61.53016 Y49.04145 I1.16102 J-0.68886
N102 G02 X63. Y46.4625 I-1.52817 J-2.5793 F1219.
N103 G1 Y16.4625
N104 G02 X60. Y13.4625 I-3.00103 J0.00103
N105 G1 X49.68467
N106 G03 X46.77254 Y11.18327 I0. J-3.
N107 X46.68394 Y10.74257 I7.43746 J-1.72448
N108 G1 X46.6814 Y10.72831
N109 X46.67083 Y10.67133
N110 X46.66808 Y10.6571
N111 G02 X14.38553 Y7.27778 I-16.66808 J3.3429
N112 G1 X14.38541 Y7.27805
N113 X14.38494 Y7.27915
N114 X14.38482 Y7.27943
N115 G02 X13.25034 Y11.08357 I15.74122 J6.76561
N116 G03 X10.31533 Y13.4625 I-2.93501 J-0.62107
N117 G02 X-0.17837 Y13.46823 I-5.15766 J163.24961
N118 X-3. Y16.4625 I0.17871 J2.99502
N119 G1 Y46.4625
N120 G02 X0. Y49.4625 I3.00103 J-0.00103
N121 G1 X60.
N122 G02 X61.53016 Y49.04145 I-0.00064 J-2.99324
N123 G1 X61.01989 Y48.18143
N124 G02 X62. Y46.4625 I-1.01453 J-1.71736
N125 G1 Y16.4625
N126 G02 X60. Y14.4625 I-2. J0.
N127 G1 X49.68467
N128 G03 X45.79999 Y11.41605 I0. J-4.
N129 X45.69818 Y10.91072 I8.41001 J-1.95726
N130 G1 X45.68761 Y10.85374
N131 G02 X15.30403 Y7.6732 I-15.68761 J3.14626
N132 G1 X15.30355 Y7.6743
N133 G02 X14.23255 Y11.27207 I14.82249 J6.37074
N134 G03 X10.31533 Y14.4625 I-3.91722 J-0.80957
N135 G1 X0.
N136 G02 X-2. Y16.4625 I0. J2.
N137 G1 Y46.4625
N138 G02 X0. Y48.4625 I2. J0.
N139 G1 X60.
N140 G02 X61.01989 Y48.18143 I0.00272 J-1.98105
N141 G03 X62.86977 Y48.65359 I0.68886 J1.16102 F1828.5
N142 G1 X63.04837 Y48.95459
N143 G0 Z14.
(2 1/2 Axis Facing)
(Endmill 4mm Single Flute Carbide)
N144 X34.35437 Y52.4625
N145 G1 Z12. F304.7
N146 Y50.4625 F914.2
N147 G02 X31.35437 Y47.4625 I-3. J0.
N148 G1 X0. F1219.
N149 G03 X-1. Y46.4625 I0. J-1.
N150 G1 Y16.4625
N151 G03 X0. Y15.4625 I1. J0.
N152 G1 X10.31533
N153 G02 X15.2152 Y11.45816 I0. J-5.
N154 G03 X16.22229 Y8.06918 I14.91084 J2.58688
N155 G1 X16.22253 Y8.06863
N156 G03 X44.70713 Y11.05038 I13.77747 J5.93137
N157 G1 X44.71242 Y11.07887
N158 G02 X44.82734 Y11.64842 I9.49758 J-1.62008
N159 X49.68467 Y15.4625 I4.85733 J-1.18592
N160 G1 X60.
N161 G03 X61. Y16.4625 I0. J1.
N162 G1 Y46.4625
N163 G03 X60. Y47.4625 I-1. J0.
N164 G1 X31.35437
N165 X30.92135 Y47.2125
N166 Y46.7125
N167 X31.35437 Y46.4625
N168 X59.9849
N169 X59.99956 Y46.46206
N170 X60. Y46.44739
N171 Y16.4776
N172 X59.99956 Y16.46294
N173 X59.9849 Y16.4625
N174 X49.68467
N175 G03 X43.85588 Y11.88561 I0. J-6.
N176 G1 X43.85351 Y11.87569
N177 G03 X43.72791 Y11.25434 I10.35649 J-2.4169
N178 G1 X43.72526 Y11.24004
N179 G02 X17.14108 Y8.46392 I-13.72526 J2.75996
N180 G1 X17.14097 Y8.46419
N181 G02 X16.20048 Y11.62909 I12.98507 J5.58085
N182 G1 X16.19517 Y11.65729
N183 G03 X10.31533 Y16.4625 I-5.87984 J-1.19479
N184 G1 X0.0151
N185 X0.00044 Y16.46294
N186 X0. Y16.4776
N187 Y46.44739
N188 X0.00044 Y46.46206
N189 X0.0151 Y46.4625
N190 X31.35437
N191 X31.78738 Y46.2125
N192 Y45.7125
N193 X31.35437 Y45.4625
N194 X1.
N195 Y17.4625
N196 X10.31533
N197 G02 X17.17514 Y11.85642 I0. J-7.
N198 G1 X17.18576 Y11.80003
N199 G03 X18.05964 Y8.8592 I12.94028 J2.24501
N200 X42.74343 Y11.42997 I11.94036 J5.1408
N201 G1 X42.74346 Y11.43013
N202 G02 X42.87968 Y12.10295 I11.46654 J-1.97134
N203 G1 X42.88442 Y12.12279
N204 G02 X49.68467 Y17.4625 I6.80025 J-1.66029
N205 G1 X59.
N206 Y45.4625
N207 X31.35437
N208 X30.92135 Y45.2125
N209 Y44.7125
N210 X31.35437 Y44.4625
N211 X58.
N212 Y18.4625
N213 X49.68467
N214 G03 X41.91295 Y12.35998 I0. J-8.
N215 G1 X41.90584 Y12.33022
N216 G03 X41.76044 Y11.61421 I12.30416 J-2.87143
N217 G02 X18.97826 Y9.25435 I-11.76044 J2.38579
N218 X18.17104 Y11.97097 I11.14778 J4.79069
N219 G1 X18.15511 Y12.05555
N220 G03 X10.31534 Y18.4625 I-7.83978 J-1.59305
N221 G1 X2.
N222 Y44.4625
N223 X31.35437
N224 X31.78738 Y44.2125
N225 Y43.7125
N226 X31.35437 Y43.4625
N227 X3.
N228 Y19.4625
N229 X10.31534
N230 G02 X19.13509 Y12.25469 I-0.00001 J-9.
N231 G1 X19.15632 Y12.1419
N232 G03 X19.89687 Y9.6495 I10.96972 J1.90314
N233 X40.77766 Y11.79953 I10.10313 J4.3505
N234 G02 X40.93201 Y12.55748 I13.43234 J-2.34074
N235 G1 X40.94149 Y12.59717
N236 G02 X49.68467 Y19.4625 I8.74318 J-2.13467
N237 G1 X57.
N238 Y43.4625
N239 X31.35437
N240 X30.92135 Y43.2125
N241 Y42.7125
N242 X31.35437 Y42.4625
N243 X56.
N244 Y20.4625
N245 X49.68467
N246 G03 X39.97002 Y12.83435 I0. J-10.
N247 G1 X39.95818 Y12.78474
N248 G03 X39.79509 Y11.98602 I14.25182 J-3.32595
N249 G02 X20.81549 Y10.04465 I-9.79509 J2.01398
N250 X20.14161 Y12.31284 I9.31055 J4.00039
N251 G1 X20.11506 Y12.45382
N252 G03 X10.31534 Y20.4625 I-9.79973 J-1.99132
N253 G1 X4.
N254 Y42.4625
N255 X31.35437
N256 X31.78738 Y42.2125
N257 Y41.7125
N258 X31.35437 Y41.4625
N259 X5.
N260 Y21.4625
N261 X10.31534
N262 G02 X21.09503 Y12.65295 I-0.00001 J-11.
N263 G1 X21.12689 Y12.48378
N264 G03 X21.73411 Y10.4398 I8.99915 J1.56126
N265 X38.81276 Y12.17371 I8.26589 J3.5602
N266 G02 X38.98435 Y13.01201 I15.39724 J-2.71492
N267 G1 X38.99856 Y13.07154
N268 G02 X49.68467 Y21.4625 I10.68611 J-2.60904
N269 G1 X55.
N270 Y41.4625
N271 X31.35437
N272 X30.92135 Y41.2125
N273 Y40.7125
N274 X31.35437 Y40.4625
N275 X54.
N276 Y22.4625
N277 X49.68467
N278 G03 X38.02709 Y13.30872 I0. J-12.
N279 G1 X38.01051 Y13.23927
N280 G03 X37.83066 Y12.3627 I16.19949 J-3.78048
N281 G02 X22.65272 Y10.83495 I-7.83066 J1.6373
N282 X22.11217 Y12.65471 I7.47332 J3.21009
N283 G1 X22.075 Y12.85208
N284 G03 X10.31534 Y22.4625 I-11.75967 J-2.38958
N285 G1 X6.
N286 Y40.4625
N287 X31.35437
N288 X31.78738 Y40.2125
N289 Y39.7125
N290 X31.35437 Y39.4625
N291 X7.
N292 Y23.4625
N293 X10.31534
N294 G02 X23.05498 Y13.05122 I-0.00001 J-13.
N295 G1 X23.09745 Y12.82565
N296 G03 X23.57134 Y11.2301 I7.02859 J1.21939
N297 X36.84883 Y12.55308 I6.42866 J2.7699
N298 G02 X37.03668 Y13.46654 I17.36117 J-3.09429
N299 G1 X37.05563 Y13.54591
N300 G02 X49.68467 Y23.4625 I12.62904 J-3.08341
N301 G1 X53.
N302 Y39.4625
N303 X31.35437
N304 X30.92135 Y39.2125
N305 Y38.7125
N306 X31.35437 Y38.4625
N307 X52.
N308 Y24.4625
N309 X49.68467
N310 G03 X36.08416 Y13.78309 I0. J-14.
N311 G1 X36.06285 Y13.6938
N312 G03 X35.86729 Y12.74503 I18.14715 J-4.23501
N313 G02 X24.48996 Y11.62525 I-5.86729 J1.25497
N314 X24.08273 Y12.99658 I5.63608 J2.41979
N315 G1 X24.03495 Y13.25035
N316 G03 X10.31534 Y24.4625 I-13.71962 J-2.78785
N317 G1 X8.
N318 Y38.4625
N319 X31.35437
N320 X31.78738 Y38.2125
N321 Y37.7125
N322 X31.35437 Y37.4625
N323 X9.
N324 Y25.4625
N325 X10.31534
N326 G02 X25.01492 Y13.44948 I-0.00001 J-15.
N327 G1 X25.06802 Y13.16752
N328 G03 X25.40857 Y12.02041 I5.05802 J0.87752
N329 X34.88609 Y12.9388 I4.59143 J1.97959
N330 G02 X35.08901 Y13.92106 I19.32391 J-3.48001
N331 G1 X35.1127 Y14.02028
N332 G02 X49.68467 Y25.4625 I14.57197 J-3.55778
N333 G1 X51.
N334 Y37.4625
N335 X31.35437
N336 X30.92135 Y37.2125
N337 Y36.7125
N338 X31.35437 Y36.4625
N339 X50.
N340 Y26.4625
N341 X49.68467
N342 G03 X34.14124 Y14.25747 I0. J-16.
N343 G1 X34.11518 Y14.14833
N344 G03 X33.90531 Y13.1348 I20.09482 J-4.68954
N345 G02 X26.32719 Y12.41556 I-3.90531 J0.8652
N346 X26.0533 Y13.33846 I3.79885 J1.62948
N347 G1 X25.99489 Y13.64861
N348 G03 X10.31534 Y26.4625 I-15.67956 J-3.18611
N349 G1 X10.
N350 Y36.4625
N351 X31.35437
N352 X31.78738 Y36.2125
N353 Y35.7125
N354 X31.35437 Y35.4625
N355 X11.
N356 Y27.44871
N357 G02 X26.97487 Y13.84775 I-0.68467 J-16.98621
N358 G1 X27.03858 Y13.50939
N359 G03 X27.2458 Y12.81072 I3.08746 J0.53565
N360 X32.92507 Y13.3337 I2.7542 J1.18928
N361 G02 X33.14135 Y14.37559 I21.28493 J-3.87491
N362 G1 X33.16977 Y14.49465
N363 G02 X49. Y27.44871 I16.5149 J-4.03215
N364 G1 Y35.4625
N365 X31.35437
N366 X30.92135 Y35.2125
N367 Y34.7125
N368 X31.35437 Y34.4625
N369 X48.
N370 Y28.38349
N371 G03 X32.19831 Y14.73184 I1.68467 J-17.92099
N372 G1 X32.16751 Y14.60286
N373 G03 X31.94563 Y13.53682 I22.04249 J-5.14407
N374 G02 X28.16441 Y13.20589 I-1.94563 J0.46318
N375 X28.02386 Y13.68033 I1.96163 J0.83915
N376 G1 X27.95484 Y14.04688
N377 G03 X12. Y28.38349 I-17.63951 J-3.58438
N378 G1 Y34.4625
N379 X31.35437
N380 X31.78738 Y34.2125
N381 Y33.7125
N382 X31.35437 Y33.4625
N383 X13.
N384 Y29.27187
N385 G02 X28.93481 Y14.24601 I-2.68467 J-18.80937
N386 G1 X29.00914 Y13.85127
N387 G03 X29.08301 Y13.6011 I1.1169 J0.19377
N388 X30.96761 Y13.74755 I0.91699 J0.3989
N389 G02 X31.19368 Y14.83012 I23.24239 J-4.28876
N390 G1 X31.22684 Y14.96902
N391 G02 X47. Y29.27187 I18.45783 J-4.50652
N392 G1 Y33.4625
N393 X31.35437
N394 X30.92135 Y33.2125
N395 Y32.7125
N396 X31.35437 Y32.4625
N397 X46.
N398 Y30.12015
N399 G03 X30.25538 Y15.20621 I3.68467 J-19.65765
N400 G1 X30.21985 Y15.05738
N401 G03 X29.99845 Y14.00549 I23.99015 J-5.59859
N402 G1 X29.99687 Y14.011
N403 X29.99553 Y14.01658
N404 X29.99443 Y14.0222
N405 X29.91479 Y14.44514
N406 G03 X14. Y30.12015 I-19.59946 J-3.98264
N407 G1 Y32.4625
N408 X31.35437
N409 X31.78738 Y32.2125
N410 Y31.7125
N411 X31.35437 Y31.4625
N412 X15.
N413 Y30.9333
N414 G02 X30. Y17.77782 I-4.68467 J-20.4708
N415 X45. Y30.9333 I19.68467 J-7.31532
N416 G1 Y31.4625
N417 X31.35437
N418 X30.92135 Y31.2125
N419 Y30.7125
N420 X31.35437 Y30.4625
N421 X40.51952
N422 G03 X30. Y20.28665 I9.16515 J-20.
N423 X19.48048 Y30.4625 I-19.68467 J-9.82415
N424 G1 X31.35437
N425 X31.78738 Y30.2125
N426 Y29.7125
N427 X31.35437 Y29.4625
N428 X23.27681
N429 G02 X30. Y22.35846 I-12.96148 J-19.
N430 X36.72319 Y29.4625 I19.68467 J-11.89596
N431 G1 X31.35437
N432 X30.92135 Y29.2125
N433 Y28.7125
N434 X31.35437 Y28.4625
N435 X33.81016
N436 G03 X30. Y24.19253 I15.87451 J-18.
N437 X26.18984 Y28.4625 I-19.68467 J-13.73003
N438 G1 X31.35437
N439 X31.78738 Y28.2125
N440 Y27.7125
N441 X31.35437 Y27.4625
N442 X28.64563
N443 G02 X30. Y25.87398 I-18.3303 J-17.
N444 X31.35437 Y27.4625 I19.68467 J-15.41148
N445 X33.39437 Y26.66214 I0. J-3. F1828.5
N446 G1 X34.12758 Y25.98214
N447 G0 Z14.
(2 1/2 Axis Profiling-4)
(Endmill 4mm Single Flute Carbide)
N448 X60.72633 Y50.33232
N449 G1 Z5. F304.7
N450 X60.54773 Y50.03132 F914.2
N451 G03 X61.01989 Y48.18143 I1.16102 J-0.68887
N452 G02 X62. Y46.4625 I-1.01453 J-1.71736 F1219.
N453 G1 Y16.4625
N454 G02 X60. Y14.4625 I-2. J0.
N455 G1 X49.68467
N456 G03 X45.79999 Y11.41605 I0. J-4.
N457 X45.69818 Y10.91072 I8.41001 J-1.95726
N458 G1 X45.68761 Y10.85374
N459 G02 X15.30403 Y7.6732 I-15.68761 J3.14626
N460 G1 X15.30355 Y7.6743
N461 G02 X14.23255 Y11.27207 I14.82249 J6.37074
N462 G03 X10.31533 Y14.4625 I-3.91722 J-0.80957
N463 G1 X0.
N464 G02 X-2. Y16.4625 I0. J2.
N465 G1 Y46.4625
N466 G02 X0. Y48.4625 I2. J0.
N467 G1 X60.
N468 G02 X61.01989 Y48.18143 I0.00272 J-1.98105
N469 G03 X62.86977 Y48.65359 I0.68886 J1.16102 F1828.5
N470 G1 X63.04837 Y48.95459
N471 G0 Z14.
N472 X60.72633 Y50.33232
N473 G1 Z3. F304.7
N474 X60.54773 Y50.03132 F914.2
N475 G03 X61.01989 Y48.18143 I1.16102 J-0.68887
N476 G02 X62. Y46.4625 I-1.01453 J-1.71736 F1219.
N477 G1 Y16.4625
N478 G02 X60. Y14.4625 I-2. J0.
N479 G1 X49.68467
N480 G03 X45.79999 Y11.41605 I0. J-4.
N481 X45.69818 Y10.91072 I8.41001 J-1.95726
N482 G1 X45.68761 Y10.85374
N483 G02 X15.30403 Y7.6732 I-15.68761 J3.14626
N484 G1 X15.30355 Y7.6743
N485 G02 X14.23255 Y11.27207 I14.82249 J6.37074
N486 G03 X10.31533 Y14.4625 I-3.91722 J-0.80957
N487 G1 X0.
N488 G02 X-2. Y16.4625 I0. J2.
N489 G1 Y46.4625
N490 G02 X0. Y48.4625 I2. J0.
N491 G1 X60.
N492 G02 X61.01989 Y48.18143 I0.00272 J-1.98105
N493 G03 X62.86977 Y48.65359 I0.68886 J1.16102 F1828.5
N494 G1 X63.04837 Y48.95459
N495 G0 Z14.
N496 X60.72633 Y50.33232
N497 G1 Z1. F304.7
N498 X60.54773 Y50.03132 F914.2
N499 G03 X61.01989 Y48.18143 I1.16102 J-0.68887
N500 G02 X62. Y46.4625 I-1.01453 J-1.71736 F1219.
N501 G1 Y16.4625
N502 G02 X60. Y14.4625 I-2. J0.
N503 G1 X49.68467
N504 G03 X45.79999 Y11.41605 I0. J-4.
N505 X45.69818 Y10.91072 I8.41001 J-1.95726
N506 G1 X45.68761 Y10.85374
N507 G02 X15.30403 Y7.6732 I-15.68761 J3.14626
N508 G1 X15.30355 Y7.6743
N509 G02 X14.23255 Y11.27207 I14.82249 J6.37074
N510 G03 X10.31533 Y14.4625 I-3.91722 J-0.80957
N511 G1 X0.
N512 G02 X-2. Y16.4625 I0. J2.
N513 G1 Y46.4625
N514 G02 X0. Y48.4625 I2. J0.
N515 G1 X60.
N516 G02 X61.01989 Y48.18143 I0.00272 J-1.98105
N517 G03 X62.86977 Y48.65359 I0.68886 J1.16102 F1828.5
N518 G1 X63.04837 Y48.95459
N519 G0 Z14.
N520 X60.72633 Y50.33232
N521 G1 Z-1. F304.7
N522 X60.54773 Y50.03132 F914.2
N523 G03 X61.01989 Y48.18143 I1.16102 J-0.68887
N524 G02 X62. Y46.4625 I-1.01453 J-1.71736 F1219.
N525 G1 Y16.4625
N526 G02 X60. Y14.4625 I-2. J0.
N527 G1 X49.68467
N528 G03 X45.79999 Y11.41605 I0. J-4.
N529 X45.69818 Y10.91072 I8.41001 J-1.95726
N530 G1 X45.68761 Y10.85374
N531 G02 X15.30403 Y7.6732 I-15.68761 J3.14626
N532 G1 X15.30355 Y7.6743
N533 G02 X14.23255 Y11.27207 I14.82249 J6.37074
N534 G03 X10.31533 Y14.4625 I-3.91722 J-0.80957
N535 G1 X0.
N536 G02 X-2. Y16.4625 I0. J2.
N537 G1 Y46.4625
N538 G02 X0. Y48.4625 I2. J0.
N539 G1 X60.
N540 G02 X61.01989 Y48.18143 I0.00272 J-1.98105
N541 G03 X62.86977 Y48.65359 I0.68886 J1.16102 F1828.5
N542 G1 X63.04837 Y48.95459
N543 G0 Z14.
N544 M30
%
