%
N1 G17 G21 G40 G90
(2 1/2 Axis Pocketing - Rough)
(Endmill 4mm Single Flute Carbide)
N2 T28 M06
N3 S24000 M3
N4 G0 Z14.
N5 X30.70767 Y13.4603
N6 G1 Z10.8 F304.7
N7 Z10.2 F914.2
N8 X30.74755 Y13.49033 Z10.1912
N9 X30.91007 Y13.71928 Z10.14169
N10 X30.74755 Y13.49033 Z10.09218
N11 X30.53442 Y13.32986 Z10.04514
N12 X30.29575 Y13.24643 Z10.00056
N13 X30.05694 Y13.24022 Z9.95844
N14 X29.84106 Y13.30362 Z9.91877
N15 X29.66667 Y13.42265 Z9.88154
N16 X29.54621 Y13.57894 Z9.84674
N17 X29.48516 Y13.75207 Z9.81437
N18 X29.48204 Y13.92193 Z9.78442
N19 X29.52913 Y14.07097 Z9.75686
N20 X29.61387 Y14.18595 Z9.73167
N21 X29.72074 Y14.25911 Z9.70883
N22 X29.83333 Y14.28867 Z9.68831
N23 X29.93642 Y14.27855 Z9.67004
N24 X30.01779 Y14.23743 Z9.65397
N25 X30.06959 Y14.17731 Z9.63997
N26 X30.08907 Y14.11169 Z9.6279
N27 X30.07869 Y14.05365 Z9.61751
N28 X30.0455 Y14.01404 Z9.6084
N29 X30. Y14. Z9.6
N30 X30.0455 Y14.01404 F1219.
N31 X30.07869 Y14.05365
N32 X30.08907 Y14.11169
N33 X30.06959 Y14.17731
N34 X30.01779 Y14.23743
N35 X29.93642 Y14.27855
N36 X29.83333 Y14.28867
N37 X29.72074 Y14.25911
N38 G17
N39 G03 X30.53442 Y13.32986 I0.40485 J-0.46636
N40 X29.8676 Y15.25973 I-0.56075 J0.88638
N41 X29.81882 Y12.27616 I0.09406 J-1.49372
N42 X30. Y16.25 I0.20562 J1.98168
N43 Y11.25 I-0.0125 J-2.5
N44 X29.38539 Y17.2219 I-0.00521 J3.01704
N45 X31.17426 Y10.38598 I0.65903 J-3.47956
N46 X28.40458 Y18.00421 I-1.24226 J3.86096
N47 X32.26128 Y9.73477 I1.68854 J-4.24656
N48 X27.03117 Y18.44317 I-2.37657 J4.49742
N49 X33.24661 Y9.1411 I3.10308 J-4.65414
N50 X26.50574 Y19.29358 I-3.3768 J5.07201
N51 X34.27536 Y8.63887 I3.64168 J-5.50465
N52 X25.0095 Y19.42112 I-4.43512 J5.56112
N53 X35.30187 Y8.19067 I5.14895 J-5.61269
N54 X35.36939 Y8.25301 I-5.30187 J5.80933
N55 G1 X35.96933 Y8.87894
N56 G03 X24.03066 Y19.12106 I-5.96933 J5.12106
N57 X35.96933 Y8.87894 I5.96934 J-5.12106
N58 G1 Z10.2 F1828.5
N59 G0 Z14.
N60 X30.70767 Y13.4603
N61 G1 Z8.9 F304.7
N62 Z8.3 F914.2
N63 X30.74755 Y13.49033 Z8.2912
N64 X30.91007 Y13.71928 Z8.24169
N65 X30.74755 Y13.49033 Z8.19218
N66 X30.53442 Y13.32986 Z8.14514
N67 X30.29575 Y13.24643 Z8.10056
N68 X30.05694 Y13.24022 Z8.05844
N69 X29.84106 Y13.30362 Z8.01877
N70 X29.66667 Y13.42265 Z7.98154
N71 X29.54621 Y13.57894 Z7.94674
N72 X29.48516 Y13.75207 Z7.91437
N73 X29.48204 Y13.92193 Z7.88442
N74 X29.52913 Y14.07097 Z7.85686
N75 X29.61387 Y14.18595 Z7.83167
N76 X29.72074 Y14.25911 Z7.80883
N77 X29.83333 Y14.28867 Z7.78831
N78 X29.93642 Y14.27855 Z7.77004
N79 X30.01779 Y14.23743 Z7.75397
N80 X30.06959 Y14.17731 Z7.73997
N81 X30.08907 Y14.11169 Z7.7279
N82 X30.07869 Y14.05365 Z7.71751
N83 X30.0455 Y14.01404 Z7.7084
N84 X30. Y14. Z7.7
N85 X30.0455 Y14.01404 F1219.
N86 X30.07869 Y14.05365
N87 X30.08907 Y14.11169
N88 X30.06959 Y14.17731
N89 X30.01779 Y14.23743
N90 X29.93642 Y14.27855
N91 X29.83333 Y14.28867
N92 X29.72074 Y14.25911
N93 G03 X30.53442 Y13.32986 I0.40485 J-0.46636
N94 X29.8676 Y15.25973 I-0.56075 J0.88638
N95 X29.81882 Y12.27616 I0.09406 J-1.49372
N96 X30. Y16.25 I0.20562 J1.98168
N97 Y11.25 I-0.0125 J-2.5
N98 X29.38539 Y17.2219 I-0.00521 J3.01704
N99 X31.17426 Y10.38598 I0.65903 J-3.47956
N100 X28.40458 Y18.00421 I-1.24226 J3.86096
N101 X32.26128 Y9.73477 I1.68854 J-4.24656
N102 X27.03117 Y18.44317 I-2.37657 J4.49742
N103 X33.24661 Y9.1411 I3.10308 J-4.65414
N104 X26.50574 Y19.29358 I-3.3768 J5.07201
N105 X34.27536 Y8.63887 I3.64168 J-5.50465
N106 X25.0095 Y19.42112 I-4.43512 J5.56112
N107 X35.30187 Y8.19067 I5.14895 J-5.61269
N108 X35.36939 Y8.25301 I-5.30187 J5.80933
N109 G1 X35.96933 Y8.87894
N110 G03 X24.03066 Y19.12106 I-5.96933 J5.12106
N111 X35.96933 Y8.87894 I5.96934 J-5.12106
N112 G1 Z8.3 F1828.5
N113 G0 Z14.
N114 X30.70767 Y13.4603
N115 G1 Z7. F304.7
N116 Z6.4 F914.2
N117 X30.74755 Y13.49033 Z6.3912
N118 X30.91007 Y13.71928 Z6.34169
N119 X30.74755 Y13.49033 Z6.29218
N120 X30.53442 Y13.32986 Z6.24514
N121 X30.29575 Y13.24643 Z6.20056
N122 X30.05694 Y13.24022 Z6.15844
N123 X29.84106 Y13.30362 Z6.11876
N124 X29.66667 Y13.42265 Z6.08154
N125 X29.54621 Y13.57894 Z6.04674
N126 X29.48516 Y13.75207 Z6.01437
N127 X29.48204 Y13.92193 Z5.98442
N128 X29.52913 Y14.07097 Z5.95686
N129 X29.61387 Y14.18595 Z5.93167
N130 X29.72074 Y14.25911 Z5.90883
N131 X29.83333 Y14.28867 Z5.88831
N132 X29.93642 Y14.27855 Z5.87004
N133 X30.01779 Y14.23743 Z5.85397
N134 X30.06959 Y14.17731 Z5.83997
N135 X30.08907 Y14.11169 Z5.8279
N136 X30.07869 Y14.05365 Z5.81751
N137 X30.0455 Y14.01404 Z5.8084
N138 X30. Y14. Z5.8
N139 X30.0455 Y14.01404 F1219.
N140 X30.07869 Y14.05365
N141 X30.08907 Y14.11169
N142 X30.06959 Y14.17731
N143 X30.01779 Y14.23743
N144 X29.93642 Y14.27855
N145 X29.83333 Y14.28867
N146 X29.72074 Y14.25911
N147 G03 X30.53442 Y13.32986 I0.40485 J-0.46636
N148 X29.8676 Y15.25973 I-0.56075 J0.88638
N149 X29.81882 Y12.27616 I0.09406 J-1.49372
N150 X30. Y16.25 I0.20562 J1.98168
N151 Y11.25 I-0.0125 J-2.5
N152 X29.38539 Y17.2219 I-0.00521 J3.01704
N153 X31.17426 Y10.38598 I0.65903 J-3.47956
N154 X28.40458 Y18.00421 I-1.24226 J3.86096
N155 X32.26128 Y9.73477 I1.68854 J-4.24656
N156 X27.03117 Y18.44317 I-2.37657 J4.49742
N157 X33.24661 Y9.1411 I3.10308 J-4.65414
N158 X26.50574 Y19.29358 I-3.3768 J5.07201
N159 X34.27536 Y8.63887 I3.64168 J-5.50465
N160 X25.0095 Y19.42112 I-4.43512 J5.56112
N161 X35.30187 Y8.19067 I5.14895 J-5.61269
N162 X35.36939 Y8.25301 I-5.30187 J5.80933
N163 G1 X35.96933 Y8.87894
N164 G03 X24.03066 Y19.12106 I-5.96933 J5.12106
N165 X35.96933 Y8.87894 I5.96934 J-5.12106
N166 G1 Z6.4 F1828.5
N167 G0 Z14.
N168 X30.70767 Y13.4603
N169 G1 Z5.1 F304.7
N170 Z4.5 F914.2
N171 X30.74755 Y13.49033 Z4.4912
N172 X30.91007 Y13.71928 Z4.44169
N173 X30.74755 Y13.49033 Z4.39218
N174 X30.53442 Y13.32986 Z4.34514
N175 X30.29575 Y13.24643 Z4.30056
N176 X30.05694 Y13.24022 Z4.25844
N177 X29.84106 Y13.30362 Z4.21877
N178 X29.66667 Y13.42265 Z4.18154
N179 X29.54621 Y13.57894 Z4.14674
N180 X29.48516 Y13.75207 Z4.11437
N181 X29.48204 Y13.92193 Z4.08442
N182 X29.52913 Y14.07097 Z4.05686
N183 X29.61387 Y14.18595 Z4.03167
N184 X29.72074 Y14.25911 Z4.00883
N185 X29.83333 Y14.28867 Z3.98831
N186 X29.93642 Y14.27855 Z3.97004
N187 X30.01779 Y14.23743 Z3.95397
N188 X30.06959 Y14.17731 Z3.93997
N189 X30.08907 Y14.11169 Z3.9279
N190 X30.07869 Y14.05365 Z3.91751
N191 X30.0455 Y14.01404 Z3.9084
N192 X30. Y14. Z3.9
N193 X30.0455 Y14.01404 F1219.
N194 X30.07869 Y14.05365
N195 X30.08907 Y14.11169
N196 X30.06959 Y14.17731
N197 X30.01779 Y14.23743
N198 X29.93642 Y14.27855
N199 X29.83333 Y14.28867
N200 X29.72074 Y14.25911
N201 G03 X30.53442 Y13.32986 I0.40485 J-0.46636
N202 X29.8676 Y15.25973 I-0.56075 J0.88638
N203 X29.81882 Y12.27616 I0.09406 J-1.49372
N204 X30. Y16.25 I0.20562 J1.98168
N205 Y11.25 I-0.0125 J-2.5
N206 X29.38539 Y17.2219 I-0.00521 J3.01704
N207 X31.17426 Y10.38598 I0.65903 J-3.47956
N208 X28.40458 Y18.00421 I-1.24226 J3.86096
N209 X32.26128 Y9.73477 I1.68854 J-4.24656
N210 X27.03117 Y18.44317 I-2.37657 J4.49742
N211 X33.24661 Y9.1411 I3.10308 J-4.65414
N212 X26.50574 Y19.29358 I-3.3768 J5.07201
N213 X34.27536 Y8.63887 I3.64168 J-5.50465
N214 X25.0095 Y19.42112 I-4.43512 J5.56112
N215 X35.30187 Y8.19067 I5.14895 J-5.61269
N216 X35.36939 Y8.25301 I-5.30187 J5.80933
N217 G1 X35.96933 Y8.87894
N218 G03 X24.03066 Y19.12106 I-5.96933 J5.12106
N219 X35.96933 Y8.87894 I5.96934 J-5.12106
N220 G1 Z4.5 F1828.5
N221 G0 Z14.
N222 X30.70767 Y13.4603
N223 G1 Z3.2 F304.7
N224 Z2.6 F914.2
N225 X30.74755 Y13.49033 Z2.5912
N226 X30.91007 Y13.71928 Z2.54169
N227 X30.74755 Y13.49033 Z2.49218
N228 X30.53442 Y13.32986 Z2.44514
N229 X30.29575 Y13.24643 Z2.40056
N230 X30.05694 Y13.24022 Z2.35844
N231 X29.84106 Y13.30362 Z2.31876
N232 X29.66667 Y13.42265 Z2.28154
N233 X29.54621 Y13.57894 Z2.24674
N234 X29.48516 Y13.75207 Z2.21437
N235 X29.48204 Y13.92193 Z2.18442
N236 X29.52913 Y14.07097 Z2.15686
N237 X29.61387 Y14.18595 Z2.13167
N238 X29.72074 Y14.25911 Z2.10883
N239 X29.83333 Y14.28867 Z2.08831
N240 X29.93642 Y14.27855 Z2.07004
N241 X30.01779 Y14.23743 Z2.05397
N242 X30.06959 Y14.17731 Z2.03997
N243 X30.08907 Y14.11169 Z2.02791
N244 X30.07869 Y14.05365 Z2.01751
N245 X30.0455 Y14.01404 Z2.0084
N246 X30. Y14. Z2.
N247 X30.0455 Y14.01404 F1219.
N248 X30.07869 Y14.05365
N249 X30.08907 Y14.11169
N250 X30.06959 Y14.17731
N251 X30.01779 Y14.23743
N252 X29.93642 Y14.27855
N253 X29.83333 Y14.28867
N254 X29.72074 Y14.25911
N255 G03 X30.53442 Y13.32986 I0.40485 J-0.46636
N256 X29.8676 Y15.25973 I-0.56075 J0.88638
N257 X29.81882 Y12.27616 I0.09406 J-1.49372
N258 X30. Y16.25 I0.20562 J1.98168
N259 Y11.25 I-0.0125 J-2.5
N260 X29.38539 Y17.2219 I-0.00521 J3.01704
N261 X31.17426 Y10.38598 I0.65903 J-3.47956
N262 X28.40458 Y18.00421 I-1.24226 J3.86096
N263 X32.26128 Y9.73477 I1.68854 J-4.24656
N264 X27.03117 Y18.44317 I-2.37657 J4.49742
N265 X33.24661 Y9.1411 I3.10308 J-4.65414
N266 X26.50574 Y19.29358 I-3.3768 J5.07201
N267 X34.27536 Y8.63887 I3.64168 J-5.50465
N268 X25.0095 Y19.42112 I-4.43512 J5.56112
N269 X35.30187 Y8.19067 I5.14895 J-5.61269
N270 X35.36939 Y8.25301 I-5.30187 J5.80933
N271 G1 X35.96933 Y8.87894
N272 G03 X24.03066 Y19.12106 I-5.96933 J5.12106
N273 X35.96933 Y8.87894 I5.96934 J-5.12106
N274 G1 Z2.6 F1828.5
N275 G0 Z14.
(2 1/2 Axis Pocketing - Rough)
(Endmill 4mm Single Flute Carbide)
N276 X30.70767 Y13.4603
N277 G1 Z2.2 F304.7
N278 Z1.6 F914.2
N279 X30.74755 Y13.49033 Z1.5912
N280 X30.91007 Y13.71928 Z1.54169
N281 X30.74755 Y13.49033 Z1.49218
N282 X30.53442 Y13.32986 Z1.44514
N283 X30.29575 Y13.24643 Z1.40056
N284 X30.05694 Y13.24023 Z1.35844
N285 X29.84106 Y13.30362 Z1.31876
N286 X29.66667 Y13.42265 Z1.28154
N287 X29.54621 Y13.57894 Z1.24674
N288 X29.48516 Y13.75207 Z1.21437
N289 X29.48204 Y13.92193 Z1.18442
N290 X29.52913 Y14.07097 Z1.15686
N291 X29.61387 Y14.18595 Z1.13167
N292 X29.72074 Y14.25911 Z1.10883
N293 X29.83333 Y14.28867 Z1.08831
N294 X29.93642 Y14.27855 Z1.07004
N295 X30.01779 Y14.23743 Z1.05397
N296 X30.06959 Y14.17731 Z1.03997
N297 X30.08907 Y14.11169 Z1.02791
N298 X30.07869 Y14.05365 Z1.01751
N299 X30.0455 Y14.01404 Z1.0084
N300 X30. Y14. Z1.
N301 X30.0455 Y14.01404 F1219.
N302 X30.07869 Y14.05365
N303 X30.08907 Y14.11169
N304 X30.06959 Y14.17731
N305 X30.01779 Y14.23743
N306 X29.93642 Y14.27855
N307 X29.83333 Y14.28867
N308 X29.72074 Y14.25911
N309 G03 X30.53442 Y13.32986 I0.40486 J-0.46636
N310 G1 X30.74755 Y13.49033
N311 X30.91007 Y13.71928
N312 G0 Z14.
N313 X30.95557 Y13.70524
N314 G1 Z1. F304.7
N315 G03 X29.04443 Y14.29476 I-0.95557 J0.29476 F1219.
N316 X30.95557 Y13.70524 I0.95557 J-0.29476
N317 G1 X30.98266 Y14.76556 Z2.06066 F1828.5
N318 Z2.66066
N319 G0 Z14.
N320 X30.70767 Y13.4603
N321 G1 Z1.2 F304.7
N322 Z0.6 F914.2
N323 X30.74755 Y13.49033 Z0.5912
N324 X30.91007 Y13.71928 Z0.54169
N325 X30.74755 Y13.49033 Z0.49218
N326 X30.53442 Y13.32986 Z0.44514
N327 X30.29575 Y13.24643 Z0.40056
N328 X30.05694 Y13.24023 Z0.35844
N329 X29.84106 Y13.30362 Z0.31876
N330 X29.66667 Y13.42265 Z0.28154
N331 X29.54621 Y13.57894 Z0.24674
N332 X29.48516 Y13.75207 Z0.21437
N333 X29.48204 Y13.92193 Z0.18442
N334 X29.52913 Y14.07097 Z0.15686
N335 X29.61387 Y14.18595 Z0.13167
N336 X29.72074 Y14.25911 Z0.10883
N337 X29.83333 Y14.28867 Z0.08831
N338 X29.93642 Y14.27855 Z0.07004
N339 X30.01779 Y14.23743 Z0.05397
N340 X30.06959 Y14.17731 Z0.03997
N341 X30.08907 Y14.11169 Z0.0279
N342 X30.07869 Y14.05365 Z0.01751
N343 X30.0455 Y14.01404 Z0.0084
N344 X30. Y14. Z0.
N345 X30.0455 Y14.01404 F1219.
N346 X30.07869 Y14.05365
N347 X30.08907 Y14.11169
N348 X30.06959 Y14.17731
N349 X30.01779 Y14.23743
N350 X29.93642 Y14.27855
N351 X29.83333 Y14.28867
N352 X29.72074 Y14.25911
N353 G03 X30.53442 Y13.32986 I0.40486 J-0.46636
N354 G1 X30.74755 Y13.49033
N355 X30.91007 Y13.71928
N356 G0 Z14.
N357 X30.95557 Y13.70524
N358 G1 Z0. F304.7
N359 G03 X29.04443 Y14.29476 I-0.95557 J0.29476 F1219.
N360 X30.95557 Y13.70524 I0.95557 J-0.29476
N361 G1 X30.98266 Y14.76556 Z1.06066 F1828.5
N362 Z1.66066
N363 G0 Z14.
N364 X30.70767 Y13.4603
N365 G1 Z0.2 F304.7
N366 Z-0.4 F914.2
N367 X30.74755 Y13.49033 Z-0.4088
N368 X30.91007 Y13.71928 Z-0.45831
N369 X30.74755 Y13.49033 Z-0.50782
N370 X30.53442 Y13.32986 Z-0.55486
N371 X30.29575 Y13.24643 Z-0.59944
N372 X30.05694 Y13.24023 Z-0.64156
N373 X29.84106 Y13.30362 Z-0.68124
N374 X29.66667 Y13.42265 Z-0.71846
N375 X29.54621 Y13.57894 Z-0.75326
N376 X29.48516 Y13.75207 Z-0.78563
N377 X29.48204 Y13.92193 Z-0.81558
N378 X29.52913 Y14.07097 Z-0.84314
N379 X29.61387 Y14.18595 Z-0.86833
N380 X29.72074 Y14.25911 Z-0.89117
N381 X29.83333 Y14.28867 Z-0.91169
N382 X29.93642 Y14.27855 Z-0.92996
N383 X30.01779 Y14.23743 Z-0.94603
N384 X30.06959 Y14.17731 Z-0.96003
N385 X30.08907 Y14.11169 Z-0.9721
N386 X30.07869 Y14.05365 Z-0.98249
N387 X30.0455 Y14.01404 Z-0.9916
N388 X30. Y14. Z-1.
N389 X30.0455 Y14.01404 F1219.
N390 X30.07869 Y14.05365
N391 X30.08907 Y14.11169
N392 X30.06959 Y14.17731
N393 X30.01779 Y14.23743
N394 X29.93642 Y14.27855
N395 X29.83333 Y14.28867
N396 X29.72074 Y14.25911
N397 G03 X30.53442 Y13.32986 I0.40486 J-0.46636
N398 G1 X30.74755 Y13.49033
N399 X30.91007 Y13.71928
N400 G0 Z14.
N401 X30.95557 Y13.70524
N402 G1 Z-1. F304.7
N403 G03 X29.04443 Y14.29476 I-0.95557 J0.29476 F1219.
N404 X30.95557 Y13.70524 I0.95557 J-0.29476
N405 G1 X30.98266 Y14.76556 Z0.06066 F1828.5
N406 Z0.66066
N407 G0 Z14.
(2 1/2 Axis Pocketing 2 - Rough)
(Endmill 4mm Single Flute Carbide)
N408 X30.70767 Y30.9228
N409 G1 Z11.34286 F304.7
N410 Z10.74286 F914.2
N411 X30.74755 Y30.95283 Z10.73406
N412 X30.91007 Y31.18178 Z10.68455
N413 X30.74755 Y30.95283 Z10.63504
N414 X30.53442 Y30.79236 Z10.588
N415 X30.29575 Y30.70894 Z10.54342
N416 X30.05694 Y30.70272 Z10.5013
N417 X29.84106 Y30.76612 Z10.46162
N418 X29.66667 Y30.88515 Z10.42439
N419 X29.54621 Y31.04144 Z10.3896
N420 X29.48516 Y31.21457 Z10.35723
N421 X29.48204 Y31.38443 Z10.32727
N422 X29.52913 Y31.53347 Z10.29971
N423 X29.61387 Y31.64845 Z10.27453
N424 X29.72074 Y31.72161 Z10.25169
N425 X29.83333 Y31.75117 Z10.23117
N426 X29.93642 Y31.74105 Z10.2129
N427 X30.01779 Y31.69993 Z10.19682
N428 X30.06959 Y31.63981 Z10.18283
N429 X30.08907 Y31.57419 Z10.17076
N430 X30.07869 Y31.51615 Z10.16037
N431 X30.0455 Y31.47654 Z10.15125
N432 X30. Y31.4625 Z10.14286
N433 X30.0455 Y31.47654 F1219.
N434 X30.07869 Y31.51615
N435 X30.08907 Y31.57419
N436 X30.06959 Y31.63981
N437 X30.01779 Y31.69993
N438 X29.93642 Y31.74105
N439 X29.83333 Y31.75117
N440 X29.72074 Y31.72161
N441 G03 X30.53442 Y30.79236 I0.40485 J-0.46636
N442 X29.8676 Y32.72223 I-0.56075 J0.88638
N443 X29.81882 Y29.73866 I0.09406 J-1.49372
N444 X30. Y33.7125 I0.20562 J1.98168
N445 Y28.7125 I-0.0125 J-2.5
N446 X29.38539 Y34.6844 I-0.00521 J3.01704
N447 X31.17426 Y27.84848 I0.65903 J-3.47956
N448 X28.40458 Y35.46671 I-1.24226 J3.86095
N449 X32.26128 Y27.19727 I1.68854 J-4.24656
N450 X27.03117 Y35.90566 I-2.37657 J4.49742
N451 X34.08719 Y27.25619 I3.11969 J-4.65783
N452 X34.2711 Y27.44305 I-4.08719 J4.20631
N453 G1 X34.58528 Y27.80553
N454 G03 X25.41472 Y35.11947 I-4.58528 J3.65697
N455 X34.58528 Y27.80553 I4.58528 J-3.65697
N456 G1 Z10.74286 F1828.5
N457 G0 Z14.
N458 X30.70767 Y30.9228
N459 G1 Z9.48571 F304.7
N460 Z8.88571 F914.2
N461 X30.74755 Y30.95283 Z8.87691
N462 X30.91007 Y31.18178 Z8.82741
N463 X30.74755 Y30.95283 Z8.7779
N464 X30.53442 Y30.79236 Z8.73086
N465 X30.29575 Y30.70894 Z8.68628
N466 X30.05694 Y30.70272 Z8.64415
N467 X29.84106 Y30.76612 Z8.60448
N468 X29.66667 Y30.88515 Z8.56725
N469 X29.54621 Y31.04144 Z8.53246
N470 X29.48516 Y31.21457 Z8.50009
N471 X29.48204 Y31.38443 Z8.47013
N472 X29.52913 Y31.53347 Z8.44257
N473 X29.61387 Y31.64845 Z8.41738
N474 X29.72074 Y31.72161 Z8.39455
N475 X29.83333 Y31.75117 Z8.37402
N476 X29.93642 Y31.74105 Z8.35576
N477 X30.01779 Y31.69993 Z8.33968
N478 X30.06959 Y31.63981 Z8.32569
N479 X30.08907 Y31.57419 Z8.31362
N480 X30.07869 Y31.51615 Z8.30322
N481 X30.0455 Y31.47654 Z8.29411
N482 X30. Y31.4625 Z8.28571
N483 X30.0455 Y31.47654 F1219.
N484 X30.07869 Y31.51615
N485 X30.08907 Y31.57419
N486 X30.06959 Y31.63981
N487 X30.01779 Y31.69993
N488 X29.93642 Y31.74105
N489 X29.83333 Y31.75117
N490 X29.72074 Y31.72161
N491 G03 X30.53442 Y30.79236 I0.40485 J-0.46636
N492 X29.8676 Y32.72223 I-0.56075 J0.88638
N493 X29.81882 Y29.73866 I0.09406 J-1.49372
N494 X30. Y33.7125 I0.20562 J1.98168
N495 Y28.7125 I-0.0125 J-2.5
N496 X29.38539 Y34.6844 I-0.00521 J3.01704
N497 X31.17426 Y27.84848 I0.65903 J-3.47956
N498 X28.40458 Y35.46671 I-1.24226 J3.86095
N499 X32.26128 Y27.19727 I1.68854 J-4.24656
N500 X27.03117 Y35.90566 I-2.37657 J4.49742
N501 X34.08719 Y27.25619 I3.11969 J-4.65783
N502 X34.2711 Y27.44305 I-4.08719 J4.20631
N503 G1 X34.58528 Y27.80553
N504 G03 X25.41472 Y35.11947 I-4.58528 J3.65697
N505 X34.58528 Y27.80553 I4.58528 J-3.65697
N506 G1 Z8.88571 F1828.5
N507 G0 Z14.
N508 X30.70767 Y30.9228
N509 G1 Z7.62857 F304.7
N510 Z7.02857 F914.2
N511 X30.74755 Y30.95283 Z7.01977
N512 X30.91007 Y31.18178 Z6.97026
N513 X30.74755 Y30.95283 Z6.92076
N514 X30.53442 Y30.79236 Z6.87371
N515 X30.29575 Y30.70894 Z6.82913
N516 X30.05694 Y30.70272 Z6.78701
N517 X29.84106 Y30.76612 Z6.74734
N518 X29.66667 Y30.88515 Z6.71011
N519 X29.54621 Y31.04144 Z6.67531
N520 X29.48516 Y31.21457 Z6.64294
N521 X29.48204 Y31.38443 Z6.61299
N522 X29.52913 Y31.53347 Z6.58543
N523 X29.61387 Y31.64845 Z6.56024
N524 X29.72074 Y31.72161 Z6.5374
N525 X29.83333 Y31.75117 Z6.51688
N526 X29.93642 Y31.74105 Z6.49861
N527 X30.01779 Y31.69993 Z6.48254
N528 X30.06959 Y31.63981 Z6.46855
N529 X30.08907 Y31.57419 Z6.45648
N530 X30.07869 Y31.51615 Z6.44608
N531 X30.0455 Y31.47654 Z6.43697
N532 X30. Y31.4625 Z6.42857
N533 X30.0455 Y31.47654 F1219.
N534 X30.07869 Y31.51615
N535 X30.08907 Y31.57419
N536 X30.06959 Y31.63981
N537 X30.01779 Y31.69993
N538 X29.93642 Y31.74105
N539 X29.83333 Y31.75117
N540 X29.72074 Y31.72161
N541 G03 X30.53442 Y30.79236 I0.40485 J-0.46636
N542 X29.8676 Y32.72223 I-0.56075 J0.88638
N543 X29.81882 Y29.73866 I0.09406 J-1.49372
N544 X30. Y33.7125 I0.20562 J1.98168
N545 Y28.7125 I-0.0125 J-2.5
N546 X29.38539 Y34.6844 I-0.00521 J3.01704
N547 X31.17426 Y27.84848 I0.65903 J-3.47956
N548 X28.40458 Y35.46671 I-1.24226 J3.86095
N549 X32.26128 Y27.19727 I1.68854 J-4.24656
N550 X27.03117 Y35.90566 I-2.37657 J4.49742
N551 X34.08719 Y27.25619 I3.11969 J-4.65783
N552 X34.2711 Y27.44305 I-4.08719 J4.20631
N553 G1 X34.58528 Y27.80553
N554 G03 X25.41472 Y35.11947 I-4.58528 J3.65697
N555 X34.58528 Y27.80553 I4.58528 J-3.65697
N556 G1 Z7.02857 F1828.5
N557 G0 Z14.
N558 X30.70767 Y30.9228
N559 G1 Z5.77143 F304.7
N560 Z5.17143 F914.2
N561 X30.74755 Y30.95283 Z5.16263
N562 X30.91007 Y31.18178 Z5.11312
N563 X30.74755 Y30.95283 Z5.06361
N564 X30.53442 Y30.79236 Z5.01657
N565 X30.29575 Y30.70894 Z4.97199
N566 X30.05694 Y30.70272 Z4.92987
N567 X29.84106 Y30.76612 Z4.89019
N568 X29.66667 Y30.88515 Z4.85296
N569 X29.54621 Y31.04144 Z4.81817
N570 X29.48516 Y31.21457 Z4.7858
N571 X29.48204 Y31.38443 Z4.75585
N572 X29.52913 Y31.53347 Z4.72828
N573 X29.61387 Y31.64845 Z4.7031
N574 X29.72074 Y31.72161 Z4.68026
N575 X29.83333 Y31.75117 Z4.65974
N576 X29.93642 Y31.74105 Z4.64147
N577 X30.01779 Y31.69993 Z4.6254
N578 X30.06959 Y31.63981 Z4.6114
N579 X30.08907 Y31.57419 Z4.59933
N580 X30.07869 Y31.51615 Z4.58894
N581 X30.0455 Y31.47654 Z4.57982
N582 X30. Y31.4625 Z4.57143
N583 X30.0455 Y31.47654 F1219.
N584 X30.07869 Y31.51615
N585 X30.08907 Y31.57419
N586 X30.06959 Y31.63981
N587 X30.01779 Y31.69993
N588 X29.93642 Y31.74105
N589 X29.83333 Y31.75117
N590 X29.72074 Y31.72161
N591 G03 X30.53442 Y30.79236 I0.40485 J-0.46636
N592 X29.8676 Y32.72223 I-0.56075 J0.88638
N593 X29.81882 Y29.73866 I0.09406 J-1.49372
N594 X30. Y33.7125 I0.20562 J1.98168
N595 Y28.7125 I-0.0125 J-2.5
N596 X29.38539 Y34.6844 I-0.00521 J3.01704
N597 X31.17426 Y27.84848 I0.65903 J-3.47956
N598 X28.40458 Y35.46671 I-1.24226 J3.86095
N599 X32.26128 Y27.19727 I1.68854 J-4.24656
N600 X27.03117 Y35.90566 I-2.37657 J4.49742
N601 X34.08719 Y27.25619 I3.11969 J-4.65783
N602 X34.2711 Y27.44305 I-4.08719 J4.20631
N603 G1 X34.58528 Y27.80553
N604 G03 X25.41472 Y35.11947 I-4.58528 J3.65697
N605 X34.58528 Y27.80553 I4.58528 J-3.65697
N606 G1 Z5.17143 F1828.5
N607 G0 Z14.
N608 X30.70767 Y30.9228
N609 G1 Z3.91429 F304.7
N610 Z3.31429 F914.2
N611 X30.74755 Y30.95283 Z3.30548
N612 X30.91007 Y31.18178 Z3.25598
N613 X30.74755 Y30.95283 Z3.20647
N614 X30.53442 Y30.79236 Z3.15943
N615 X30.29575 Y30.70894 Z3.11485
N616 X30.05694 Y30.70272 Z3.07272
N617 X29.84106 Y30.76612 Z3.03305
N618 X29.66667 Y30.88515 Z2.99582
N619 X29.54621 Y31.04144 Z2.96103
N620 X29.48516 Y31.21457 Z2.92866
N621 X29.48204 Y31.38443 Z2.8987
N622 X29.52913 Y31.53347 Z2.87114
N623 X29.61387 Y31.64845 Z2.84596
N624 X29.72074 Y31.72161 Z2.82312
N625 X29.83333 Y31.75117 Z2.80259
N626 X29.93642 Y31.74105 Z2.78433
N627 X30.01779 Y31.69993 Z2.76825
N628 X30.06959 Y31.63981 Z2.75426
N629 X30.08907 Y31.57419 Z2.74219
N630 X30.07869 Y31.51615 Z2.73179
N631 X30.0455 Y31.47654 Z2.72268
N632 X30. Y31.4625 Z2.71429
N633 X30.0455 Y31.47654 F1219.
N634 X30.07869 Y31.51615
N635 X30.08907 Y31.57419
N636 X30.06959 Y31.63981
N637 X30.01779 Y31.69993
N638 X29.93642 Y31.74105
N639 X29.83333 Y31.75117
N640 X29.72074 Y31.72161
N641 G03 X30.53442 Y30.79236 I0.40485 J-0.46636
N642 X29.8676 Y32.72223 I-0.56075 J0.88638
N643 X29.81882 Y29.73866 I0.09406 J-1.49372
N644 X30. Y33.7125 I0.20562 J1.98168
N645 Y28.7125 I-0.0125 J-2.5
N646 X29.38539 Y34.6844 I-0.00521 J3.01704
N647 X31.17426 Y27.84848 I0.65903 J-3.47956
N648 X28.40458 Y35.46671 I-1.24226 J3.86095
N649 X32.26128 Y27.19727 I1.68854 J-4.24656
N650 X27.03117 Y35.90566 I-2.37657 J4.49742
N651 X34.08719 Y27.25619 I3.11969 J-4.65783
N652 X34.2711 Y27.44305 I-4.08719 J4.20631
N653 G1 X34.58528 Y27.80553
N654 G03 X25.41472 Y35.11947 I-4.58528 J3.65697
N655 X34.58528 Y27.80553 I4.58528 J-3.65697
N656 G1 Z3.31429 F1828.5
N657 G0 Z14.
N658 X30.70767 Y30.9228
N659 G1 Z2.05714 F304.7
N660 Z1.45714 F914.2
N661 X30.74755 Y30.95283 Z1.44834
N662 X30.91007 Y31.18178 Z1.39883
N663 X30.74755 Y30.95283 Z1.34933
N664 X30.53442 Y30.79236 Z1.30228
N665 X30.29575 Y30.70894 Z1.2577
N666 X30.05694 Y30.70272 Z1.21558
N667 X29.84106 Y30.76612 Z1.17591
N668 X29.66667 Y30.88515 Z1.13868
N669 X29.54621 Y31.04144 Z1.10388
N670 X29.48516 Y31.21457 Z1.07152
N671 X29.48204 Y31.38443 Z1.04156
N672 X29.52913 Y31.53347 Z1.014
N673 X29.61387 Y31.64845 Z0.98881
N674 X29.72074 Y31.72161 Z0.96598
N675 X29.83333 Y31.75117 Z0.94545
N676 X29.93642 Y31.74105 Z0.92719
N677 X30.01779 Y31.69993 Z0.91111
N678 X30.06959 Y31.63981 Z0.89712
N679 X30.08907 Y31.57419 Z0.88505
N680 X30.07869 Y31.51615 Z0.87465
N681 X30.0455 Y31.47654 Z0.86554
N682 X30. Y31.4625 Z0.85714
N683 X30.0455 Y31.47654 F1219.
N684 X30.07869 Y31.51615
N685 X30.08907 Y31.57419
N686 X30.06959 Y31.63981
N687 X30.01779 Y31.69993
N688 X29.93642 Y31.74105
N689 X29.83333 Y31.75117
N690 X29.72074 Y31.72161
N691 G03 X30.53442 Y30.79236 I0.40485 J-0.46636
N692 X29.8676 Y32.72223 I-0.56075 J0.88638
N693 X29.81882 Y29.73866 I0.09406 J-1.49372
N694 X30. Y33.7125 I0.20562 J1.98168
N695 Y28.7125 I-0.0125 J-2.5
N696 X29.38539 Y34.6844 I-0.00521 J3.01704
N697 X31.17426 Y27.84848 I0.65903 J-3.47956
N698 X28.40458 Y35.46671 I-1.24226 J3.86095
N699 X32.26128 Y27.19727 I1.68854 J-4.24656
N700 X27.03117 Y35.90566 I-2.37657 J4.49742
N701 X34.08719 Y27.25619 I3.11969 J-4.65783
N702 X34.2711 Y27.44305 I-4.08719 J4.20631
N703 G1 X34.58528 Y27.80553
N704 G03 X25.41472 Y35.11947 I-4.58528 J3.65697
N705 X34.58528 Y27.80553 I4.58528 J-3.65697
N706 G1 Z1.45714 F1828.5
N707 G0 Z14.
N708 X30.70767 Y30.9228
N709 G1 Z0.2 F304.7
N710 Z-0.4 F914.2
N711 X30.74755 Y30.95283 Z-0.4088
N712 X30.91007 Y31.18178 Z-0.45831
N713 X30.74755 Y30.95283 Z-0.50782
N714 X30.53442 Y30.79236 Z-0.55486
N715 X30.29575 Y30.70894 Z-0.59944
N716 X30.05694 Y30.70272 Z-0.64156
N717 X29.84106 Y30.76612 Z-0.68124
N718 X29.66667 Y30.88515 Z-0.71846
N719 X29.54621 Y31.04144 Z-0.75326
N720 X29.48516 Y31.21457 Z-0.78563
N721 X29.48204 Y31.38443 Z-0.81558
N722 X29.52913 Y31.53347 Z-0.84314
N723 X29.61387 Y31.64845 Z-0.86833
N724 X29.72074 Y31.72161 Z-0.89117
N725 X29.83333 Y31.75117 Z-0.91169
N726 X29.93642 Y31.74105 Z-0.92996
N727 X30.01779 Y31.69993 Z-0.94603
N728 X30.06959 Y31.63981 Z-0.96003
N729 X30.08907 Y31.57419 Z-0.9721
N730 X30.07869 Y31.51615 Z-0.98249
N731 X30.0455 Y31.47654 Z-0.9916
N732 X30. Y31.4625 Z-1.
N733 X30.0455 Y31.47654 F1219.
N734 X30.07869 Y31.51615
N735 X30.08907 Y31.57419
N736 X30.06959 Y31.63981
N737 X30.01779 Y31.69993
N738 X29.93642 Y31.74105
N739 X29.83333 Y31.75117
N740 X29.72074 Y31.72161
N741 G03 X30.53442 Y30.79236 I0.40485 J-0.46636
N742 X29.8676 Y32.72223 I-0.56075 J0.88638
N743 X29.81882 Y29.73866 I0.09406 J-1.49372
N744 X30. Y33.7125 I0.20562 J1.98168
N745 Y28.7125 I-0.0125 J-2.5
N746 X29.38539 Y34.6844 I-0.00521 J3.01704
N747 X31.17426 Y27.84848 I0.65903 J-3.47956
N748 X28.40458 Y35.46671 I-1.24226 J3.86095
N749 X32.26128 Y27.19727 I1.68854 J-4.24656
N750 X27.03117 Y35.90566 I-2.37657 J4.49742
N751 X34.08719 Y27.25619 I3.11969 J-4.65783
N752 X34.2711 Y27.44305 I-4.08719 J4.20631
N753 G1 X34.58528 Y27.80553
N754 G03 X25.41472 Y35.11947 I-4.58528 J3.65697
N755 X34.58528 Y27.80553 I4.58528 J-3.65697
N756 G1 Z-0.4 F1828.5
N757 G0 Z14.
(2 1/2 Axis Pocketing - Finish)
(Endmill 4mm Single Flute Carbide)
N758 X30.70767 Y13.4603
N759 G1 Z3.2 F304.7
N760 Z2.6 F914.2
N761 X30.74755 Y13.49033 Z2.5912
N762 X30.91007 Y13.71928 Z2.54169
N763 X30.74755 Y13.49033 Z2.49218
N764 X30.53442 Y13.32986 Z2.44514
N765 X30.29575 Y13.24643 Z2.40056
N766 X30.05694 Y13.24022 Z2.35844
N767 X29.84106 Y13.30362 Z2.31876
N768 X29.66667 Y13.42265 Z2.28154
N769 X29.54621 Y13.57894 Z2.24674
N770 X29.48516 Y13.75207 Z2.21437
N771 X29.48204 Y13.92193 Z2.18442
N772 X29.52913 Y14.07097 Z2.15686
N773 X29.61387 Y14.18595 Z2.13167
N774 X29.72074 Y14.25911 Z2.10883
N775 X29.83333 Y14.28867 Z2.08831
N776 X29.93642 Y14.27855 Z2.07004
N777 X30.01779 Y14.23743 Z2.05397
N778 X30.06959 Y14.17731 Z2.03997
N779 X30.08907 Y14.11169 Z2.02791
N780 X30.07869 Y14.05365 Z2.01751
N781 X30.0455 Y14.01404 Z2.0084
N782 X30. Y14. Z2.
N783 X30.0455 Y14.01404 F1219.
N784 X30.07869 Y14.05365
N785 X30.08907 Y14.11169
N786 X30.06959 Y14.17731
N787 X30.01779 Y14.23743
N788 X29.93642 Y14.27855
N789 X29.83333 Y14.28867
N790 X29.72074 Y14.25911
N791 G03 X30.53442 Y13.32986 I0.40485 J-0.46636
N792 X28.76377 Y14.69549 I-0.75711 J0.84905
N793 X31.97793 Y13.82325 I1.50822 J-0.80042
N794 X27.60898 Y13.09154 I-2.27113 J0.15153
N795 X32.01104 Y16.41064 I2.63615 J1.08245
N796 X29.33284 Y10.33898 I-2.14761 J-2.67919
N797 X28.60658 Y18.0706 I0.64138 J3.96017
N798 X33.6878 Y10.79464 I1.55614 J-4.32549
N799 X24.60546 Y14.92349 I-3.96183 J3.33882
N800 X35.62298 Y16.26191 I5.69862 J-0.89365
N801 X25.97197 Y8.71329 I-5.86779 J-2.44173
N802 X30.85297 Y21.1807 I4.14027 J5.56824
N803 X33.20365 Y6.86941 I-0.81137 J-7.48197
N804 X37.99617 Y13.86493 I-3.10811 J7.26872
N805 G0 Z14.
N806 X38.49879 Y13.85644
N807 G1 Z2. F304.7
N808 G03 X21.50121 Y14.14356 I-8.49879 J0.14356 F1219.
N809 X38.49879 Y13.85644 I8.49879 J-0.14356
N810 G1 X36.48732 Y13.18264 Z4.12132 F1828.5
N811 Z7.12132
N812 G0 Z14.
(2 1/2 Axis Profiling 1)
(Endmill 4mm Single Flute Carbide)
N813 X29.22074 Y36.39254
N814 G1 Z8. F304.7
N815 X25.74596 Y31.07761 F914.2
N816 G03 X26.71674 Y26.44053 I2.80393 J-1.83315
N817 X33.28326 Y36.48447 I3.28326 J5.02197 F1219.
N818 X26.71674 Y26.44053 I-3.28326 J-5.02197
N819 G1 X26.77315 Y26.32898
N820 X26.70475 Y26.22435
N821 X26.57994 Y26.23128
N822 X26.45513 Y26.2382
N823 X26.38673 Y26.13358
N824 X26.44314 Y26.02203
N825 G03 X33.55686 Y36.90297 I3.55686 J5.44047
N826 X26.44314 Y26.02203 I-3.55686 J-5.44047
N827 X31.08022 Y26.99281 I1.83315 J2.80393 F1828.5
N828 G1 X32.91338 Y29.79675
N829 G0 Z14.
(2 1/2 Axis Profiling 2)
(Endmill 4mm Single Flute Carbide)
N830 X25.43626 Y32.59599
N831 G1 Z10.5 F304.7
N832 X25.13778 Y32.41321 F914.2
N833 G03 X24.0304 Y27.80683 I1.7495 J-2.85688
N834 X35.9696 Y35.11817 I5.9696 J3.65567 F1219.
N835 X24.0304 Y27.80683 I-5.9696 J-3.65567
N836 G1 X24.03364 Y27.68187
N837 X23.92704 Y27.61659
N838 X23.8172 Y27.67627
N839 X23.70737 Y27.73595
N840 X23.60077 Y27.67067
N841 X23.604 Y27.54571
N842 G03 X36.396 Y35.37929 I6.396 J3.91679
N843 X23.604 Y27.54571 I-6.396 J-3.91679
N844 X28.21038 Y26.43833 I2.85688 J1.7495 F1828.5
N845 G1 X28.50886 Y26.62111
N846 G0 Z14.
(2 1/2 Axis Profiling 3)
(Endmill 4mm Single Flute Carbide)
N847 X30.36009 Y15.3676
N848 G1 Z-1. F304.7
N849 X29.49624 Y14.86384 F914.2
N850 G03 X29.13616 Y13.49624 I0.50376 J-0.86384
N851 X30.86384 Y14.50376 I0.86384 J0.50376 F1219.
N852 X29.13616 Y13.49624 I-0.86384 J-0.50376
N853 G1 X29.1367 Y13.37124
N854 X29.02872 Y13.30827
N855 X28.9202 Y13.3703
N856 X28.81167 Y13.43233
N857 X28.70369 Y13.36936
N858 X28.70424 Y13.24436
N859 G03 X31.29577 Y14.75564 I1.29576 J0.75564
N860 X28.70424 Y13.24436 I-1.29577 J-0.75564
N861 X30.07184 Y12.88428 I0.86384 J0.50376 F1828.5
N862 G1 X30.93569 Y13.38804
N863 G0 Z14.
N864 M30
%
