%
N1 G17 G21 G40 G90
(Standard Drill )
(1/8in Carbide Drill)
N2 T24 M06
N3 S11586 M3
N4 G0 Z14.75
N5 X24.54 Y14.
N6 G21 S11586 M3
N7 G81 X24.54 Y14. Z-1.72169 R3.5 F100.0
N8 G80
N9 G0 Z14.75
N10 G21 S11586 M3
N11 G81 X35.46 Y14. Z-1.72169 R3.5 F100.0
N12 G80
N13 G0 Z14.75
(Standard Drill )
(1/8in Carbide Drill)
N14 Z15.75
N15 X38. Y23.4625
N16 G21 S11586 M3
N17 G81 X38. Y23.4625 Z5.27831 R14.5 F100.0
N18 G80
N19 G0 Z15.75
N20 G21 S11586 M3
N21 G81 X22. Y23.4625 Z5.27831 R14.5 F100.0
N22 G80
N23 G0 Z15.75
N24 G21 S11586 M3
N25 G81 X22. Y39.4625 Z5.27831 R14.5 F100.0
N26 G80
N27 G0 Z15.75
N28 G21 S11586 M3
N29 G81 X38. Y39.4625 Z5.27831 R14.5 F100.0
N30 G80
N31 G0 Z15.75
N32 M30
%
