%
N1 G17 G21 G40 G90
(2 1/2 Axis Pocketing - Rough)
(Endmill 4mm Single Flute Carbide)
N2 T28 M06
N3 S24000 M3
N4 G0 Z14.
N5 X0.70767 Y-0.53969
N6 G1 Z11.5 F304.7
N7 Z10.9 F914.2
N8 X0.74755 Y-0.50967 Z10.8912
N9 X0.91007 Y-0.28072 Z10.84169
N10 X0.74755 Y-0.50967 Z10.79218
N11 X0.53442 Y-0.67014 Z10.74514
N12 X0.29575 Y-0.75356 Z10.70056
N13 X0.05694 Y-0.75977 Z10.65844
N14 X-0.15894 Y-0.69638 Z10.61876
N15 X-0.33333 Y-0.57735 Z10.58154
N16 X-0.45379 Y-0.42106 Z10.54674
N17 X-0.51484 Y-0.24793 Z10.51437
N18 X-0.51796 Y-0.07807 Z10.48442
N19 X-0.47087 Y0.07097 Z10.45686
N20 X-0.38613 Y0.18595 Z10.43167
N21 X-0.27926 Y0.25911 Z10.40883
N22 X-0.16667 Y0.28867 Z10.38831
N23 X-0.06358 Y0.27855 Z10.37004
N24 X0.01779 Y0.23743 Z10.35397
N25 X0.06959 Y0.17731 Z10.33998
N26 X0.08907 Y0.11169 Z10.3279
N27 X0.07869 Y0.05365 Z10.31751
N28 X0.0455 Y0.01404 Z10.3084
N29 X0. Y0. Z10.3
N30 X0.0455 Y0.01404 F1219.
N31 X0.07869 Y0.05365
N32 X0.08907 Y0.11169
N33 X0.06959 Y0.17731
N34 X0.01779 Y0.23743
N35 X-0.06358 Y0.27855
N36 X-0.16667 Y0.28867
N37 X-0.27926 Y0.25911
N38 G17
N39 G03 X0.53442 Y-0.67014 I0.40485 J-0.46636
N40 X-0.1324 Y1.25973 I-0.56075 J0.88638
N41 X-0.18118 Y-1.72384 I0.09406 J-1.49372
N42 X0. Y2.25 I0.20562 J1.98168
N43 Y-2.75 I-0.0125 J-2.5
N44 X-0.61461 Y3.2219 I-0.00521 J3.01704
N45 X1.17426 Y-3.61402 I0.65903 J-3.47956
N46 X-1.59542 Y4.00421 I-1.24226 J3.86096
N47 X2.26128 Y-4.26523 I1.68854 J-4.24656
N48 X-2.96883 Y4.44317 I-2.37657 J4.49742
N49 X3.24661 Y-4.8589 I3.10308 J-4.65414
N50 X-3.49426 Y5.29358 I-3.3768 J5.07201
N51 X4.27536 Y-5.36113 I3.64168 J-5.50465
N52 X-4.9905 Y5.42112 I-4.43512 J5.56112
N53 X5.30187 Y-5.80933 I5.14895 J-5.61269
N54 X5.36939 Y-5.74699 I-5.30187 J5.80933
N55 G1 X5.96933 Y-5.12106
N56 G03 X-5.96934 Y5.12106 I-5.96933 J5.12106
N57 X5.96933 Y-5.12106 I5.96934 J-5.12106
N58 G1 Z10.9 F1828.5
N59 G0 Z14.
N60 X0.70767 Y-0.53969
N61 G1 Z9.8 F304.7
N62 Z9.2 F914.2
N63 X0.74755 Y-0.50967 Z9.1912
N64 X0.91007 Y-0.28072 Z9.14169
N65 X0.74755 Y-0.50967 Z9.09218
N66 X0.53442 Y-0.67014 Z9.04514
N67 X0.29575 Y-0.75356 Z9.00056
N68 X0.05694 Y-0.75977 Z8.95844
N69 X-0.15894 Y-0.69638 Z8.91877
N70 X-0.33333 Y-0.57735 Z8.88154
N71 X-0.45379 Y-0.42106 Z8.84674
N72 X-0.51484 Y-0.24793 Z8.81437
N73 X-0.51796 Y-0.07807 Z8.78442
N74 X-0.47087 Y0.07097 Z8.75686
N75 X-0.38613 Y0.18595 Z8.73167
N76 X-0.27926 Y0.25911 Z8.70883
N77 X-0.16667 Y0.28867 Z8.68831
N78 X-0.06358 Y0.27855 Z8.67004
N79 X0.01779 Y0.23743 Z8.65397
N80 X0.06959 Y0.17731 Z8.63997
N81 X0.08907 Y0.11169 Z8.6279
N82 X0.07869 Y0.05365 Z8.61751
N83 X0.0455 Y0.01404 Z8.6084
N84 X0. Y0. Z8.6
N85 X0.0455 Y0.01404 F1219.
N86 X0.07869 Y0.05365
N87 X0.08907 Y0.11169
N88 X0.06959 Y0.17731
N89 X0.01779 Y0.23743
N90 X-0.06358 Y0.27855
N91 X-0.16667 Y0.28867
N92 X-0.27926 Y0.25911
N93 G03 X0.53442 Y-0.67014 I0.40485 J-0.46636
N94 X-0.1324 Y1.25973 I-0.56075 J0.88638
N95 X-0.18118 Y-1.72384 I0.09406 J-1.49372
N96 X0. Y2.25 I0.20562 J1.98168
N97 Y-2.75 I-0.0125 J-2.5
N98 X-0.61461 Y3.2219 I-0.00521 J3.01704
N99 X1.17426 Y-3.61402 I0.65903 J-3.47956
N100 X-1.59542 Y4.00421 I-1.24226 J3.86096
N101 X2.26128 Y-4.26523 I1.68854 J-4.24656
N102 X-2.96883 Y4.44317 I-2.37657 J4.49742
N103 X3.24661 Y-4.8589 I3.10308 J-4.65414
N104 X-3.49426 Y5.29358 I-3.3768 J5.07201
N105 X4.27536 Y-5.36113 I3.64168 J-5.50465
N106 X-4.9905 Y5.42112 I-4.43512 J5.56112
N107 X5.30187 Y-5.80933 I5.14895 J-5.61269
N108 X5.36939 Y-5.74699 I-5.30187 J5.80933
N109 G1 X5.96933 Y-5.12106
N110 G03 X-5.96934 Y5.12106 I-5.96933 J5.12106
N111 X5.96933 Y-5.12106 I5.96934 J-5.12106
N112 G1 Z9.2 F1828.5
N113 G0 Z14.
N114 X0.70767 Y-0.53969
N115 G1 Z8.1 F304.7
N116 Z7.5 F914.2
N117 X0.74755 Y-0.50967 Z7.4912
N118 X0.91007 Y-0.28072 Z7.44169
N119 X0.74755 Y-0.50967 Z7.39218
N120 X0.53442 Y-0.67014 Z7.34514
N121 X0.29575 Y-0.75356 Z7.30056
N122 X0.05694 Y-0.75977 Z7.25844
N123 X-0.15894 Y-0.69638 Z7.21877
N124 X-0.33333 Y-0.57735 Z7.18154
N125 X-0.45379 Y-0.42106 Z7.14674
N126 X-0.51484 Y-0.24793 Z7.11437
N127 X-0.51796 Y-0.07807 Z7.08442
N128 X-0.47087 Y0.07097 Z7.05686
N129 X-0.38613 Y0.18595 Z7.03167
N130 X-0.27926 Y0.25911 Z7.00883
N131 X-0.16667 Y0.28867 Z6.98831
N132 X-0.06358 Y0.27855 Z6.97004
N133 X0.01779 Y0.23743 Z6.95397
N134 X0.06959 Y0.17731 Z6.93997
N135 X0.08907 Y0.11169 Z6.9279
N136 X0.07869 Y0.05365 Z6.91751
N137 X0.0455 Y0.01404 Z6.9084
N138 X0. Y0. Z6.9
N139 X0.0455 Y0.01404 F1219.
N140 X0.07869 Y0.05365
N141 X0.08907 Y0.11169
N142 X0.06959 Y0.17731
N143 X0.01779 Y0.23743
N144 X-0.06358 Y0.27855
N145 X-0.16667 Y0.28867
N146 X-0.27926 Y0.25911
N147 G03 X0.53442 Y-0.67014 I0.40485 J-0.46636
N148 X-0.1324 Y1.25973 I-0.56075 J0.88638
N149 X-0.18118 Y-1.72384 I0.09406 J-1.49372
N150 X0. Y2.25 I0.20562 J1.98168
N151 Y-2.75 I-0.0125 J-2.5
N152 X-0.61461 Y3.2219 I-0.00521 J3.01704
N153 X1.17426 Y-3.61402 I0.65903 J-3.47956
N154 X-1.59542 Y4.00421 I-1.24226 J3.86096
N155 X2.26128 Y-4.26523 I1.68854 J-4.24656
N156 X-2.96883 Y4.44317 I-2.37657 J4.49742
N157 X3.24661 Y-4.8589 I3.10308 J-4.65414
N158 X-3.49426 Y5.29358 I-3.3768 J5.07201
N159 X4.27536 Y-5.36113 I3.64168 J-5.50465
N160 X-4.9905 Y5.42112 I-4.43512 J5.56112
N161 X5.30187 Y-5.80933 I5.14895 J-5.61269
N162 X5.36939 Y-5.74699 I-5.30187 J5.80933
N163 G1 X5.96933 Y-5.12106
N164 G03 X-5.96934 Y5.12106 I-5.96933 J5.12106
N165 X5.96933 Y-5.12106 I5.96934 J-5.12106
N166 G1 Z7.5 F1828.5
N167 G0 Z14.
N168 X0.70767 Y-0.53969
N169 G1 Z6.4 F304.7
N170 Z5.8 F914.2
N171 X0.74755 Y-0.50967 Z5.7912
N172 X0.91007 Y-0.28072 Z5.74169
N173 X0.74755 Y-0.50967 Z5.69218
N174 X0.53442 Y-0.67014 Z5.64514
N175 X0.29575 Y-0.75356 Z5.60056
N176 X0.05694 Y-0.75977 Z5.55844
N177 X-0.15894 Y-0.69638 Z5.51877
N178 X-0.33333 Y-0.57735 Z5.48154
N179 X-0.45379 Y-0.42106 Z5.44674
N180 X-0.51484 Y-0.24793 Z5.41437
N181 X-0.51796 Y-0.07807 Z5.38442
N182 X-0.47087 Y0.07097 Z5.35686
N183 X-0.38613 Y0.18595 Z5.33167
N184 X-0.27926 Y0.25911 Z5.30883
N185 X-0.16667 Y0.28867 Z5.28831
N186 X-0.06358 Y0.27855 Z5.27004
N187 X0.01779 Y0.23743 Z5.25397
N188 X0.06959 Y0.17731 Z5.23997
N189 X0.08907 Y0.11169 Z5.2279
N190 X0.07869 Y0.05365 Z5.21751
N191 X0.0455 Y0.01404 Z5.2084
N192 X0. Y0. Z5.2
N193 X0.0455 Y0.01404 F1219.
N194 X0.07869 Y0.05365
N195 X0.08907 Y0.11169
N196 X0.06959 Y0.17731
N197 X0.01779 Y0.23743
N198 X-0.06358 Y0.27855
N199 X-0.16667 Y0.28867
N200 X-0.27926 Y0.25911
N201 G03 X0.53442 Y-0.67014 I0.40485 J-0.46636
N202 X-0.1324 Y1.25973 I-0.56075 J0.88638
N203 X-0.18118 Y-1.72384 I0.09406 J-1.49372
N204 X0. Y2.25 I0.20562 J1.98168
N205 Y-2.75 I-0.0125 J-2.5
N206 X-0.61461 Y3.2219 I-0.00521 J3.01704
N207 X1.17426 Y-3.61402 I0.65903 J-3.47956
N208 X-1.59542 Y4.00421 I-1.24226 J3.86096
N209 X2.26128 Y-4.26523 I1.68854 J-4.24656
N210 X-2.96883 Y4.44317 I-2.37657 J4.49742
N211 X3.24661 Y-4.8589 I3.10308 J-4.65414
N212 X-3.49426 Y5.29358 I-3.3768 J5.07201
N213 X4.27536 Y-5.36113 I3.64168 J-5.50465
N214 X-4.9905 Y5.42112 I-4.43512 J5.56112
N215 X5.30187 Y-5.80933 I5.14895 J-5.61269
N216 X5.36939 Y-5.74699 I-5.30187 J5.80933
N217 G1 X5.96933 Y-5.12106
N218 G03 X-5.96934 Y5.12106 I-5.96933 J5.12106
N219 X5.96933 Y-5.12106 I5.96934 J-5.12106
N220 G1 Z5.8 F1828.5
N221 G0 Z14.
N222 X0.70767 Y-0.53969
N223 G1 Z4.7 F304.7
N224 Z4.1 F914.2
N225 X0.74755 Y-0.50967 Z4.0912
N226 X0.91007 Y-0.28072 Z4.04169
N227 X0.74755 Y-0.50967 Z3.99218
N228 X0.53442 Y-0.67014 Z3.94514
N229 X0.29575 Y-0.75356 Z3.90056
N230 X0.05694 Y-0.75977 Z3.85844
N231 X-0.15894 Y-0.69638 Z3.81876
N232 X-0.33333 Y-0.57735 Z3.78154
N233 X-0.45379 Y-0.42106 Z3.74674
N234 X-0.51484 Y-0.24793 Z3.71437
N235 X-0.51796 Y-0.07807 Z3.68442
N236 X-0.47087 Y0.07097 Z3.65686
N237 X-0.38613 Y0.18595 Z3.63167
N238 X-0.27926 Y0.25911 Z3.60883
N239 X-0.16667 Y0.28867 Z3.58831
N240 X-0.06358 Y0.27855 Z3.57004
N241 X0.01779 Y0.23743 Z3.55397
N242 X0.06959 Y0.17731 Z3.53997
N243 X0.08907 Y0.11169 Z3.5279
N244 X0.07869 Y0.05365 Z3.51751
N245 X0.0455 Y0.01404 Z3.5084
N246 X0. Y0. Z3.5
N247 X0.0455 Y0.01404 F1219.
N248 X0.07869 Y0.05365
N249 X0.08907 Y0.11169
N250 X0.06959 Y0.17731
N251 X0.01779 Y0.23743
N252 X-0.06358 Y0.27855
N253 X-0.16667 Y0.28867
N254 X-0.27926 Y0.25911
N255 G03 X0.53442 Y-0.67014 I0.40485 J-0.46636
N256 X-0.1324 Y1.25973 I-0.56075 J0.88638
N257 X-0.18118 Y-1.72384 I0.09406 J-1.49372
N258 X0. Y2.25 I0.20562 J1.98168
N259 Y-2.75 I-0.0125 J-2.5
N260 X-0.61461 Y3.2219 I-0.00521 J3.01704
N261 X1.17426 Y-3.61402 I0.65903 J-3.47956
N262 X-1.59542 Y4.00421 I-1.24226 J3.86096
N263 X2.26128 Y-4.26523 I1.68854 J-4.24656
N264 X-2.96883 Y4.44317 I-2.37657 J4.49742
N265 X3.24661 Y-4.8589 I3.10308 J-4.65414
N266 X-3.49426 Y5.29358 I-3.3768 J5.07201
N267 X4.27536 Y-5.36113 I3.64168 J-5.50465
N268 X-4.9905 Y5.42112 I-4.43512 J5.56112
N269 X5.30187 Y-5.80933 I5.14895 J-5.61269
N270 X5.36939 Y-5.74699 I-5.30187 J5.80933
N271 G1 X5.96933 Y-5.12106
N272 G03 X-5.96934 Y5.12106 I-5.96933 J5.12106
N273 X5.96933 Y-5.12106 I5.96934 J-5.12106
N274 G1 Z4.1 F1828.5
N275 G0 Z14.
(2 1/2 Axis Pocketing - Finish)
(Endmill 4mm Single Flute Carbide)
N276 X0.70767 Y-0.53969
N277 G1 Z4.2 F304.7
N278 Z3.6 F914.2
N279 X0.74755 Y-0.50967 Z3.5912
N280 X0.91007 Y-0.28072 Z3.54169
N281 X0.74755 Y-0.50967 Z3.49218
N282 X0.53442 Y-0.67014 Z3.44514
N283 X0.29575 Y-0.75356 Z3.40056
N284 X0.05694 Y-0.75977 Z3.35844
N285 X-0.15894 Y-0.69638 Z3.31876
N286 X-0.33333 Y-0.57735 Z3.28154
N287 X-0.45379 Y-0.42106 Z3.24674
N288 X-0.51484 Y-0.24793 Z3.21437
N289 X-0.51796 Y-0.07807 Z3.18442
N290 X-0.47087 Y0.07097 Z3.15686
N291 X-0.38613 Y0.18595 Z3.13167
N292 X-0.27926 Y0.25911 Z3.10883
N293 X-0.16667 Y0.28867 Z3.08831
N294 X-0.06358 Y0.27855 Z3.07004
N295 X0.01779 Y0.23743 Z3.05397
N296 X0.06959 Y0.17731 Z3.03997
N297 X0.08907 Y0.11169 Z3.0279
N298 X0.07869 Y0.05365 Z3.01751
N299 X0.0455 Y0.01404 Z3.0084
N300 X0. Y0. Z3.
N301 X0.0455 Y0.01404 F1219.
N302 X0.07869 Y0.05365
N303 X0.08907 Y0.11169
N304 X0.06959 Y0.17731
N305 X0.01779 Y0.23743
N306 X-0.06358 Y0.27855
N307 X-0.16667 Y0.28867
N308 X-0.27926 Y0.25911
N309 G03 X0.53442 Y-0.67014 I0.40485 J-0.46636
N310 X-1.23623 Y0.69549 I-0.75711 J0.84905
N311 X1.97793 Y-0.17675 I1.50822 J-0.80042
N312 X-2.39102 Y-0.90846 I-2.27113 J0.15153
N313 X2.01104 Y2.41064 I2.63615 J1.08246
N314 X-0.66716 Y-3.66102 I-2.14761 J-2.67919
N315 X-1.39342 Y4.0706 I0.64138 J3.96017
N316 X3.6878 Y-3.20536 I1.55614 J-4.32549
N317 X-5.39454 Y0.92349 I-3.96183 J3.33882
N318 X5.62298 Y2.26191 I5.69862 J-0.89365
N319 X-4.02803 Y-5.28671 I-5.86779 J-2.44173
N320 X6.99594 Y-0.12743 I4.20699 J5.36806
N321 G0 Z14.
N322 X8.49859 Y-0.15479
N323 G1 Z3. F304.7
N324 G03 X8.49879 Y-0.14356 I-8.49859 J0.15479 F1219.
N325 G0 Z14.
N326 X7.99617 Y-0.13507
N327 G1 Z3. F304.7
N328 G03 X-8.5 Y0. I-8.24748 J0.14094 F1219.
N329 G0 Z14.
N330 X-7.44913 Y-4.09396
N331 G1 Z3. F304.7
N332 G03 X7.44913 Y4.09396 I7.44913 J4.09396 F1219.
N333 X-7.44913 Y-4.09396 I-7.44913 J-4.09396
N334 G1 X-7.25574 Y-5.81518 Z4. F1828.5
N335 Z4.6
N336 G0 Z14.
N337 M30
%
