%
G17 G21 G40 G90 G64 P0.1
(Breakchip Drill )
(1/8in Carbide Drill)
T25 M06
S20159 M3
G0 Z2.3
X56.5 Y8.
G21 S20159 M3
G83 X56.5 Y8. Z-11.46188 R-2.5 Q1. F400.0
G80
G0 Z2.3
G21 S20159 M3
G83 X53.5 Y20. Z-11.46188 R-2.5 Q1. F400.0
G80
G0 Z2.3
G21 S20159 M3
G83 X56.5 Y32. Z-11.46188 R-2.5 Q1. F400.0
G80
G0 Z2.3
G21 S20159 M3
G83 X32.5 Y32. Z-11.46188 R-2.5 Q1. F400.0
G80
G0 Z2.3
G21 S20159 M3
G83 X35.5 Y20. Z-11.46188 R-2.5 Q1. F400.0
G80
G0 Z2.3
G21 S20159 M3
G83 X32.5 Y8. Z-11.46188 R-2.5 Q1. F400.0
G80
G0 Z2.3
M30
%
