; generated by Slic3r 0.9.8 on 2013-03-24 at 16:13:46

; layer_height = 0.3
; perimeters = 3
; top_solid_layers = 3
; bottom_solid_layers = 3
; fill_density = 0.4
; perimeter_speed = 30
; infill_speed = 60
; travel_speed = 130
; scale = 1
; nozzle_diameter = 0.4
; filament_diameter = 3
; extrusion_multiplier = 1
; perimeters extrusion width = 0.42mm
; infill extrusion width = 0.42mm
; first layer extrusion width = 0.80mm

M190 P115 ; wait for bed temperature to be reached
M104 P235 ; set temperature
G92 A0                  ; Reset A to 0
G40                        ; Cancel cutter compensation
G64 P0.1                ; Path Blend within .1mm
G0 X108.5 Y108.5  ; Move to center
M109 P235 ; wait for temperature to be reached
G90 ; use absolute coordinates
G21 ; set units to millimeters
G0 Z0.400 F1800.000 A-2.00000
G0 X123.630 Y123.430 F7800.000
G0 F1800.000 A0.00000
G1 X123.220 Y123.830 F540.000 A0.02315
G1 X122.550 Y124.360 A0.05767
G1 X122.080 Y124.670 A0.08043
G1 X121.320 Y125.060 A0.11495
G1 X120.520 Y125.360 A0.14948
G1 X119.690 Y125.570 A0.18408
G1 X118.850 Y125.690 A0.21837
G1 X118.280 Y125.710 A0.24142
G1 X98.710 Y125.710 A1.03230
G1 X98.140 Y125.690 A1.05535
G1 X97.580 Y125.620 A1.07816
G1 X96.740 Y125.440 A1.11288
G1 X96.200 Y125.270 A1.13576
G1 X95.670 Y125.060 A1.15880
G1 X95.160 Y124.810 A1.18175
G1 X94.670 Y124.520 A1.20476
G1 X93.980 Y124.010 A1.23944
G1 X93.560 Y123.630 A1.26233
G1 X93.160 Y123.220 A1.28548
G1 X92.630 Y122.550 A1.32000
G1 X92.320 Y122.080 A1.34275
G1 X91.930 Y121.320 A1.37728
G1 X91.630 Y120.520 A1.41180
G1 X91.420 Y119.690 A1.44640
G1 X91.300 Y118.850 A1.48070
G1 X91.280 Y118.280 A1.50375
G1 X91.280 Y98.710 A2.29463
G1 X91.300 Y98.140 A2.31768
G1 X91.370 Y97.580 A2.34049
G1 X91.550 Y96.740 A2.37521
G1 X91.720 Y96.200 A2.39808
G1 X91.930 Y95.670 A2.42112
G1 X92.180 Y95.160 A2.44408
G1 X92.470 Y94.670 A2.46709
G1 X92.800 Y94.210 A2.48997
G1 X93.160 Y93.770 A2.51294
G1 X93.770 Y93.160 A2.54781
G1 X94.440 Y92.630 A2.58233
G1 X94.910 Y92.320 A2.60508
G1 X95.670 Y91.930 A2.63961
G1 X96.470 Y91.630 A2.67413
G1 X97.300 Y91.420 A2.70873
G1 X98.140 Y91.300 A2.74303
G1 X98.710 Y91.280 A2.76608
G1 X118.280 Y91.280 A3.55696
G1 X118.850 Y91.300 A3.58001
G1 X119.410 Y91.370 A3.60282
G1 X120.250 Y91.550 A3.63754
G1 X120.790 Y91.720 A3.66041
G1 X121.320 Y91.930 A3.68345
G1 X121.830 Y92.180 A3.70641
G1 X122.320 Y92.470 A3.72942
G1 X123.010 Y92.980 A3.76409
G1 X123.430 Y93.360 A3.78698
G1 X123.830 Y93.770 A3.81013
G1 X124.360 Y94.440 A3.84466
G1 X124.670 Y94.910 A3.86741
G1 X125.060 Y95.670 A3.90193
G1 X125.360 Y96.470 A3.93646
G1 X125.570 Y97.300 A3.97106
G1 X125.690 Y98.140 A4.00535
G1 X125.710 Y98.710 A4.02840
G1 X125.710 Y118.280 A4.81929
G1 X125.690 Y118.850 A4.84234
G1 X125.620 Y119.410 A4.86514
G1 X125.440 Y120.250 A4.89986
G1 X125.270 Y120.790 A4.92274
G1 X125.060 Y121.320 A4.94578
G1 X124.810 Y121.830 A4.96873
G1 X124.520 Y122.320 A4.99174
G1 X124.010 Y123.010 A5.02642
G1 X123.704 Y123.352 A5.04498
G1 X123.630 Y123.430 A5.04931
G0 X123.120 Y122.930 F7800.000
G1 X122.730 Y123.310 F540.000 A5.07132
G1 X122.090 Y123.810 A5.10414
G1 X121.400 Y124.230 A5.13678
G1 X121.160 Y124.350 A5.14763
G1 X120.410 Y124.650 A5.18027
G1 X119.890 Y124.800 A5.20214
G1 X119.090 Y124.950 A5.23504
G1 X118.550 Y124.990 A5.25692
G1 X98.440 Y124.990 A6.06963
G1 X97.900 Y124.950 A6.09151
G1 X97.370 Y124.860 A6.11324
G1 X96.840 Y124.730 A6.13529
G1 X96.330 Y124.560 A6.15702
G1 X95.830 Y124.350 A6.17893
G1 X95.590 Y124.230 A6.18978
G1 X94.900 Y123.810 A6.22242
G1 X94.460 Y123.480 A6.24465
G1 X94.060 Y123.120 A6.26640
G1 X93.680 Y122.730 A6.28840
G1 X93.180 Y122.090 A6.32123
G1 X92.760 Y121.400 A6.35387
G1 X92.640 Y121.160 A6.36471
G1 X92.340 Y120.410 A6.39736
G1 X92.190 Y119.890 A6.41923
G1 X92.040 Y119.090 A6.45212
G1 X92.000 Y118.550 A6.47401
G1 X92.000 Y98.440 A7.28672
G1 X92.040 Y97.900 A7.30860
G1 X92.190 Y97.100 A7.34149
G1 X92.340 Y96.580 A7.36336
G1 X92.530 Y96.080 A7.38498
G1 X92.760 Y95.590 A7.40686
G1 X93.040 Y95.120 A7.42896
G1 X93.340 Y94.680 A7.45049
G1 X93.680 Y94.260 A7.47232
G1 X94.260 Y93.680 A7.50547
G1 X94.680 Y93.340 A7.52731
G1 X95.120 Y93.040 A7.54883
G1 X95.590 Y92.760 A7.57094
G1 X95.830 Y92.640 A7.58179
G1 X96.580 Y92.340 A7.61443
G1 X97.100 Y92.190 A7.63630
G1 X97.900 Y92.040 A7.66920
G1 X98.440 Y92.000 A7.69108
G1 X118.550 Y92.000 A8.50379
G1 X119.090 Y92.040 A8.52567
G1 X119.620 Y92.130 A8.54740
G1 X120.150 Y92.260 A8.56945
G1 X120.660 Y92.430 A8.59118
G1 X121.160 Y92.640 A8.61309
G1 X121.400 Y92.760 A8.62394
G1 X122.090 Y93.180 A8.65658
G1 X122.530 Y93.510 A8.67881
G1 X122.930 Y93.870 A8.70056
G1 X123.310 Y94.260 A8.72256
G1 X123.810 Y94.900 A8.75538
G1 X124.230 Y95.590 A8.78803
G1 X124.350 Y95.830 A8.79887
G1 X124.650 Y96.580 A8.83152
G1 X124.800 Y97.100 A8.85339
G1 X124.950 Y97.900 A8.88628
G1 X124.990 Y98.440 A8.90817
G1 X124.990 Y118.550 A9.72087
G1 X124.950 Y119.090 A9.74276
G1 X124.800 Y119.890 A9.77565
G1 X124.650 Y120.410 A9.79752
G1 X124.460 Y120.910 A9.81914
G1 X124.230 Y121.400 A9.84101
G1 X123.810 Y122.090 A9.87366
G1 X123.480 Y122.530 A9.89589
G1 X123.194 Y122.852 A9.91331
G1 X123.120 Y122.930 A9.91764
G0 Z0.900 F540.000 A7.91764
G0 X100.328 Y116.672 F7800.000
G0 Z0.400
G0 F1800.000 A9.91764
G1 X100.328 Y100.328 F540.000 A10.57812
G1 X116.672 Y100.328 A11.23861
G1 X116.672 Y116.672 A11.89910
G1 X100.435 Y116.672 A12.55525
G1 X100.328 Y116.672 A12.55958
G0 X99.614 Y117.386 F7800.000
G1 X99.614 Y99.614 F540.000 A13.27779
G1 X117.386 Y99.614 A13.99600
G1 X117.386 Y117.386 A14.71421
G1 X99.721 Y117.386 A15.42809
G1 X99.614 Y117.386 A15.43242
G0 X98.900 Y118.100 F7800.000
G1 X98.900 Y98.900 F540.000 A16.20835
G1 X118.100 Y98.900 A16.98428
G1 X118.100 Y118.100 A17.76021
G1 X99.007 Y118.100 A18.53182
G1 X98.900 Y118.100 A18.53615
G0 X99.257 Y117.482 F7800.000
G0 Z0.900 F540.000 A16.53615
G0 X101.788 Y115.212 F7800.000
G0 Z0.400
G0 F1800.000 A18.53615
G1 X101.788 Y101.788 F1080.000 A19.10263
G1 X115.212 Y101.788 A19.66912
G1 X115.212 Y115.212 A20.23561
G1 X101.900 Y115.212 A20.79737
G0 X102.534 Y114.466 F7800.000
G1 X102.534 Y102.534 F1080.000 A21.30092
G1 X114.466 Y102.534 A21.80446
G1 X114.466 Y114.466 A22.30801
G1 X102.646 Y114.466 A22.80683
G0 X103.280 Y113.720 F7800.000
G1 X103.280 Y103.280 F1080.000 A23.24743
G1 X113.720 Y103.280 A23.68803
G1 X113.720 Y113.720 A24.12863
G1 X103.392 Y113.720 A24.56451
G0 X104.025 Y112.975 F7800.000
G1 X104.025 Y104.025 F1080.000 A24.94217
G1 X112.975 Y104.025 A25.31983
G1 X112.975 Y112.975 A25.69749
G1 X104.137 Y112.975 A26.07042
G0 X104.771 Y112.229 F7800.000
G1 X104.771 Y104.771 F1080.000 A26.38514
G1 X112.229 Y104.771 A26.69985
G1 X112.229 Y112.229 A27.01457
G1 X104.883 Y112.229 A27.32456
G0 X105.517 Y111.483 F7800.000
G1 X105.517 Y105.517 F1080.000 A27.57633
G1 X111.483 Y105.517 A27.82811
G1 X111.483 Y111.483 A28.07988
G1 X105.629 Y111.483 A28.32693
G0 X106.263 Y110.737 F7800.000
G1 X106.263 Y106.263 F1080.000 A28.51576
G1 X110.737 Y106.263 A28.70459
G1 X110.737 Y110.737 A28.89342
G1 X106.375 Y110.737 A29.07753
G0 X107.008 Y109.992 F7800.000
G1 X107.008 Y107.008 F1080.000 A29.20341
G1 X109.991 Y107.008 A29.32930
G1 X109.991 Y109.992 A29.45518
G1 X107.120 Y109.992 A29.57635
G0 X107.754 Y109.246 F7800.000
G1 X107.754 Y107.754 F1080.000 A29.63929
G1 X109.246 Y107.754 A29.70223
G1 X109.246 Y109.246 A29.76518
G1 X107.866 Y109.246 A29.82340
G0 Z0.900 F540.000 A27.82340
G0 X115.958 Y115.846 F7800.000
G0 Z0.400
G0 F1800.000 A29.82340
G1 X115.958 Y101.042 F1080.000 A30.44811
G1 X101.042 Y101.042 A31.07754
G1 X101.042 Y115.958 A31.70697
G1 X115.958 Y115.958 A32.33640
M104 P230 ; set temperature
M140 P110 ; set bed temperature
G0 Z0.700 F1800.000 A30.33640
G0 X118.280 Y125.710 F7800.000
G0 F1800.000 A32.33640
G1 X98.710 Y125.710 F1800.000 A32.92956
G1 X98.140 Y125.690 A32.94685
G1 X97.860 Y125.660 A32.95539
G1 X97.020 Y125.510 A32.98125
G1 X96.200 Y125.270 A33.00715
G1 X95.410 Y124.940 A33.03310
G1 X94.670 Y124.520 A33.05889
G1 X93.980 Y124.010 A33.08489
G1 X93.360 Y123.430 A33.11063
G1 X93.160 Y123.220 A33.11942
G1 X92.800 Y122.780 A33.13665
G1 X92.320 Y122.080 A33.16237
G1 X91.930 Y121.320 A33.18826
G1 X91.630 Y120.520 A33.21416
G1 X91.420 Y119.690 A33.24011
G1 X91.300 Y118.850 A33.26583
G1 X91.280 Y118.280 A33.28312
G1 X91.280 Y98.710 A33.87628
G1 X91.300 Y98.140 A33.89357
G1 X91.420 Y97.300 A33.91929
G1 X91.550 Y96.740 A33.93671
G1 X91.820 Y95.930 A33.96259
G1 X92.050 Y95.410 A33.97982
G1 X92.320 Y94.910 A33.99705
G1 X92.630 Y94.440 A34.01411
G1 X92.980 Y93.980 A34.03163
G1 X93.360 Y93.560 A34.04880
G1 X93.770 Y93.160 A34.06616
G1 X94.210 Y92.800 A34.08339
G1 X94.670 Y92.470 A34.10055
G1 X95.160 Y92.180 A34.11781
G1 X95.670 Y91.930 A34.13503
G1 X96.200 Y91.720 A34.15230
G1 X96.740 Y91.550 A34.16946
G1 X97.300 Y91.420 A34.18689
G1 X98.140 Y91.300 A34.21261
G1 X98.710 Y91.280 A34.22989
G1 X118.280 Y91.280 A34.82306
G1 X118.850 Y91.300 A34.84035
G1 X119.130 Y91.330 A34.84888
G1 X119.970 Y91.480 A34.87474
G1 X120.790 Y91.720 A34.90064
G1 X121.580 Y92.050 A34.92659
G1 X122.320 Y92.470 A34.95238
G1 X123.010 Y92.980 A34.97839
G1 X123.630 Y93.560 A35.00412
G1 X123.830 Y93.770 A35.01291
G1 X124.190 Y94.210 A35.03014
G1 X124.670 Y94.910 A35.05587
G1 X125.060 Y95.670 A35.08176
G1 X125.360 Y96.470 A35.10766
G1 X125.570 Y97.300 A35.13361
G1 X125.690 Y98.140 A35.15932
G1 X125.710 Y98.710 A35.17661
G1 X125.710 Y118.280 A35.76978
G1 X125.690 Y118.850 A35.78706
G1 X125.570 Y119.690 A35.81278
G1 X125.440 Y120.250 A35.83021
G1 X125.170 Y121.060 A35.85609
G1 X124.940 Y121.580 A35.87332
G1 X124.670 Y122.080 A35.89054
G1 X124.360 Y122.550 A35.90761
G1 X123.830 Y123.220 A35.93350
G1 X123.430 Y123.630 A35.95086
G1 X123.010 Y124.010 A35.96803
G1 X122.550 Y124.360 A35.98555
G1 X122.080 Y124.670 A36.00262
G1 X121.580 Y124.940 A36.01984
G1 X120.790 Y125.270 A36.04579
G1 X120.250 Y125.440 A36.06295
G1 X119.690 Y125.570 A36.08037
G1 X118.850 Y125.690 A36.10609
G1 X118.387 Y125.706 A36.12013
G1 X118.280 Y125.710 A36.12338
G0 X118.550 Y124.990 F7800.000
G1 X98.440 Y124.990 F1800.000 A36.73291
G1 X97.900 Y124.950 A36.74932
G1 X97.100 Y124.800 A36.77399
G1 X96.580 Y124.650 A36.79040
G1 X95.830 Y124.350 A36.81488
G1 X95.590 Y124.230 A36.82301
G1 X95.120 Y123.950 A36.83959
G1 X94.900 Y123.810 A36.84750
G1 X94.460 Y123.480 A36.86417
G1 X94.060 Y123.120 A36.88048
G1 X93.510 Y122.530 A36.90493
G1 X93.180 Y122.090 A36.92160
G1 X93.040 Y121.870 A36.92950
G1 X92.760 Y121.400 A36.94608
G1 X92.640 Y121.160 A36.95422
G1 X92.340 Y120.410 A36.97870
G1 X92.190 Y119.890 A36.99510
G1 X92.080 Y119.360 A37.01151
G1 X92.040 Y119.090 A37.01978
G1 X92.000 Y118.550 A37.03620
G1 X92.000 Y98.440 A37.64573
G1 X92.040 Y97.900 A37.66214
G1 X92.080 Y97.630 A37.67041
G1 X92.190 Y97.100 A37.68682
G1 X92.340 Y96.580 A37.70322
G1 X92.530 Y96.080 A37.71944
G1 X92.760 Y95.590 A37.73584
G1 X93.180 Y94.900 A37.76033
G1 X93.340 Y94.680 A37.76857
G1 X93.680 Y94.260 A37.78495
G1 X94.060 Y93.870 A37.80145
G1 X94.460 Y93.510 A37.81776
G1 X94.900 Y93.180 A37.83443
G1 X95.590 Y92.760 A37.85892
G1 X95.830 Y92.640 A37.86705
G1 X96.330 Y92.430 A37.88349
G1 X96.840 Y92.260 A37.89978
G1 X97.370 Y92.130 A37.91632
G1 X97.900 Y92.040 A37.93262
G1 X98.440 Y92.000 A37.94903
G1 X118.550 Y92.000 A38.55856
G1 X119.090 Y92.040 A38.57497
G1 X119.890 Y92.190 A38.59964
G1 X120.410 Y92.340 A38.61605
G1 X121.160 Y92.640 A38.64053
G1 X121.400 Y92.760 A38.64866
G1 X121.870 Y93.040 A38.66525
G1 X122.090 Y93.180 A38.67315
G1 X122.530 Y93.510 A38.68982
G1 X122.930 Y93.870 A38.70613
G1 X123.480 Y94.460 A38.73058
G1 X123.810 Y94.900 A38.74725
G1 X123.950 Y95.120 A38.75515
G1 X124.230 Y95.590 A38.77174
G1 X124.350 Y95.830 A38.77987
G1 X124.650 Y96.580 A38.80435
G1 X124.800 Y97.100 A38.82076
G1 X124.910 Y97.630 A38.83716
G1 X124.950 Y97.900 A38.84544
G1 X124.990 Y98.440 A38.86185
G1 X124.990 Y118.550 A39.47138
G1 X124.950 Y119.090 A39.48779
G1 X124.910 Y119.360 A39.49606
G1 X124.800 Y119.890 A39.51247
G1 X124.650 Y120.410 A39.52887
G1 X124.460 Y120.910 A39.54509
G1 X124.230 Y121.400 A39.56149
G1 X123.810 Y122.090 A39.58598
G1 X123.480 Y122.530 A39.60265
G1 X123.120 Y122.930 A39.61896
G1 X122.730 Y123.310 A39.63546
G1 X122.310 Y123.650 A39.65184
G1 X121.870 Y123.950 A39.66798
G1 X121.400 Y124.230 A39.68456
G1 X120.910 Y124.460 A39.70097
G1 X120.410 Y124.650 A39.71718
G1 X119.890 Y124.800 A39.73359
G1 X119.090 Y124.950 A39.75826
G1 X118.657 Y124.982 A39.77142
G1 X118.550 Y124.990 A39.77467
G0 Z1.200 F1800.000 A37.77467
G0 X117.450 Y117.450 F7800.000
G0 Z0.700
G0 F1800.000 A39.77467
G1 X99.550 Y117.450 F1800.000 A40.09290
G1 X99.550 Y99.550 A40.41113
G1 X117.450 Y99.550 A40.72936
G1 X117.450 Y117.387 A41.04647
G1 X117.450 Y117.450 A41.04759
G0 X117.869 Y117.869 F7800.000
G1 X99.131 Y117.869 F1800.000 A41.38071
G1 X99.131 Y99.600 A41.70550
G1 X99.131 Y99.131 A41.71384
G1 X117.869 Y99.131 A42.04696
G1 X117.869 Y117.806 A42.37897
G1 X117.869 Y117.869 A42.38008
G0 X118.288 Y118.288 F7800.000
G1 X98.712 Y118.288 F1800.000 A42.72810
G1 X98.712 Y99.600 A43.06033
G1 X98.712 Y98.712 A43.07612
G1 X118.288 Y98.712 A43.42413
G1 X118.288 Y118.225 A43.77103
G1 X118.288 Y118.288 A43.77215
G0 X117.925 Y118.079 F7800.000
G0 X117.220 Y117.031
G1 X99.780 Y117.031 F3600.000 A44.08788
G1 X99.780 Y116.605 A44.09561
G1 X117.220 Y116.605 A44.41134
G1 X117.220 Y116.178 A44.41906
G1 X99.780 Y116.178 A44.73479
G1 X99.780 Y115.752 A44.74251
G1 X117.220 Y115.752 A45.05825
G1 X117.220 Y115.325 A45.06597
G1 X99.780 Y115.325 A45.38170
G1 X99.780 Y114.898 A45.38942
G1 X117.220 Y114.898 A45.70516
G1 X117.220 Y114.472 A45.71288
G1 X99.780 Y114.472 A46.02861
G1 X99.780 Y114.045 A46.03633
G1 X117.220 Y114.045 A46.35207
G1 X117.220 Y113.619 A46.35979
G1 X99.780 Y113.619 A46.67552
G1 X99.780 Y113.192 A46.68324
G1 X117.220 Y113.192 A46.99897
G1 X117.220 Y112.766 A47.00670
G1 X99.780 Y112.766 A47.32243
G1 X99.780 Y112.339 A47.33015
G1 X117.220 Y112.339 A47.64588
G1 X117.220 Y111.913 A47.65361
G1 X99.780 Y111.913 A47.96934
G1 X99.780 Y111.486 A47.97706
G1 X117.220 Y111.486 A48.29279
G1 X117.220 Y111.059 A48.30052
G1 X99.780 Y111.059 A48.61625
G1 X99.780 Y110.633 A48.62397
G1 X117.220 Y110.633 A48.93970
G1 X117.220 Y110.206 A48.94742
G1 X99.780 Y110.206 A49.26316
G1 X99.780 Y109.780 A49.27088
G1 X117.220 Y109.780 A49.58661
G1 X117.220 Y109.353 A49.59433
G1 X99.780 Y109.353 A49.91007
G1 X99.780 Y108.927 A49.91779
G1 X117.220 Y108.927 A50.23352
G1 X117.220 Y108.500 A50.24124
G1 X99.780 Y108.500 A50.55697
G1 X99.780 Y108.073 A50.56470
G1 X117.220 Y108.073 A50.88043
G1 X117.220 Y107.647 A50.88815
G1 X99.780 Y107.647 A51.20388
G1 X99.780 Y107.220 A51.21161
G1 X117.220 Y107.220 A51.52734
G1 X117.220 Y106.794 A51.53506
G1 X99.780 Y106.794 A51.85079
G1 X99.780 Y106.367 A51.85851
G1 X117.220 Y106.367 A52.17425
G1 X117.220 Y105.941 A52.18197
G1 X99.780 Y105.941 A52.49770
G1 X99.780 Y105.514 A52.50542
G1 X117.220 Y105.514 A52.82116
G1 X117.220 Y105.087 A52.82888
G1 X99.780 Y105.087 A53.14461
G1 X99.780 Y104.661 A53.15233
G1 X117.220 Y104.661 A53.46807
G1 X117.220 Y104.234 A53.47579
G1 X99.780 Y104.234 A53.79152
G1 X99.780 Y103.808 A53.79924
G1 X117.220 Y103.808 A54.11497
G1 X117.220 Y103.381 A54.12270
G1 X99.780 Y103.381 A54.43843
G1 X99.780 Y102.955 A54.44615
G1 X117.220 Y102.955 A54.76188
G1 X117.220 Y102.528 A54.76961
G1 X99.780 Y102.528 A55.08534
G1 X99.780 Y102.101 A55.09306
G1 X117.220 Y102.101 A55.40879
G1 X117.220 Y101.675 A55.41652
G1 X99.780 Y101.675 A55.73225
G1 X99.780 Y101.248 A55.73997
G1 X117.220 Y101.248 A56.05570
G1 X117.220 Y100.822 A56.06342
