; generated by Slic3r 0.9.8 on 2013-03-24 at 15:24:29

; layer_height = 0.3
; perimeters = 3
; top_solid_layers = 3
; bottom_solid_layers = 3
; fill_density = 0.4
; perimeter_speed = 30
; infill_speed = 60
; travel_speed = 130
; scale = 1
; nozzle_diameter = 0.45
; filament_diameter = 3
; extrusion_multiplier = 1
; perimeters extrusion width = 0.55mm
; infill extrusion width = 0.55mm
; first layer extrusion width = 0.80mm

M190 P115 ; wait for bed temperature to be reached
M104 P235 ; set temperature
G92 A0                  ; Reset A to 0
G40                        ; Cancel cutter compensation
G64 P0.1                ; Path Blend within .1mm
G0 X108.5 Y108.5  ; Move to center
M109 P235 ; wait for temperature to be reached
G90 ; use absolute coordinates
G21 ; set units to millimeters
G0 A-3.00000
G0 Z0.400
G0 X123.590 Y123.390 F7800.000
G0 F1800.000 A0.00000
G1 X122.960 Y123.970 F540.000 A0.03513
G1 X122.510 Y124.310 A0.05826
G1 X122.030 Y124.620 A0.08170
G1 X121.530 Y124.900 A0.10521
G1 X121.270 Y125.020 A0.11696
G1 X120.470 Y125.320 A0.15200
G1 X119.640 Y125.530 A0.18712
G1 X118.790 Y125.650 A0.22234
G1 X118.220 Y125.670 A0.24573
G1 X98.770 Y125.670 A1.04358
G1 X98.200 Y125.650 A1.06697
G1 X97.630 Y125.580 A1.09053
G1 X97.070 Y125.470 A1.11394
G1 X96.520 Y125.320 A1.13733
G1 X95.720 Y125.020 A1.17237
G1 X95.460 Y124.900 A1.18412
G1 X94.960 Y124.620 A1.20763
G1 X94.480 Y124.310 A1.23107
G1 X94.030 Y123.970 A1.25420
G1 X93.600 Y123.590 A1.27774
G1 X93.020 Y122.960 A1.31287
G1 X92.680 Y122.510 A1.33600
G1 X92.370 Y122.030 A1.35944
G1 X92.090 Y121.530 A1.38295
G1 X91.970 Y121.270 A1.39470
G1 X91.670 Y120.470 A1.42974
G1 X91.460 Y119.640 A1.46486
G1 X91.340 Y118.790 A1.50008
G1 X91.320 Y118.220 A1.52347
G1 X91.320 Y98.770 A2.32132
G1 X91.340 Y98.200 A2.34472
G1 X91.410 Y97.630 A2.36827
G1 X91.520 Y97.070 A2.39168
G1 X91.670 Y96.520 A2.41507
G1 X91.970 Y95.720 A2.45012
G1 X92.090 Y95.460 A2.46186
G1 X92.520 Y94.720 A2.49697
G1 X92.850 Y94.250 A2.52053
G1 X93.210 Y93.810 A2.54385
G1 X93.400 Y93.600 A2.55546
G1 X93.810 Y93.210 A2.57868
G1 X94.030 Y93.020 A2.59060
G1 X94.480 Y92.680 A2.61374
G1 X94.960 Y92.370 A2.63718
G1 X95.460 Y92.090 A2.66068
G1 X95.720 Y91.970 A2.67243
G1 X96.520 Y91.670 A2.70748
G1 X97.350 Y91.460 A2.74260
G1 X98.200 Y91.340 A2.77781
G1 X98.770 Y91.320 A2.80121
G1 X118.220 Y91.320 A3.59905
G1 X118.790 Y91.340 A3.62245
G1 X119.360 Y91.410 A3.64600
G1 X119.920 Y91.520 A3.66941
G1 X120.470 Y91.670 A3.69280
G1 X121.270 Y91.970 A3.72785
G1 X121.530 Y92.090 A3.73959
G1 X122.030 Y92.370 A3.76310
G1 X122.510 Y92.680 A3.78654
G1 X122.960 Y93.020 A3.80968
G1 X123.390 Y93.400 A3.83322
G1 X123.970 Y94.030 A3.86834
G1 X124.310 Y94.480 A3.89148
G1 X124.620 Y94.960 A3.91492
G1 X124.900 Y95.460 A3.93842
G1 X125.020 Y95.720 A3.95017
G1 X125.320 Y96.520 A3.98522
G1 X125.530 Y97.350 A4.02034
G1 X125.650 Y98.200 A4.05555
G1 X125.670 Y98.770 A4.07895
G1 X125.670 Y118.220 A4.87679
G1 X125.650 Y118.790 A4.90019
G1 X125.580 Y119.360 A4.92375
G1 X125.470 Y119.920 A4.94716
G1 X125.320 Y120.470 A4.97054
G1 X125.020 Y121.270 A5.00559
G1 X124.900 Y121.530 A5.01734
G1 X124.470 Y122.270 A5.05244
G1 X123.970 Y122.960 A5.08740
G1 X123.663 Y123.309 A5.10648
G1 X123.590 Y123.390 A5.11094
G0 X123.070 Y122.880 F7800.000
G1 X122.680 Y123.250 F540.000 A5.13299
G1 X122.260 Y123.600 A5.15542
G1 X121.580 Y124.040 A5.18864
G1 X120.860 Y124.410 A5.22185
G1 X120.350 Y124.600 A5.24417
G1 X119.570 Y124.810 A5.27731
G1 X119.030 Y124.900 A5.29976
G1 X118.490 Y124.940 A5.32198
G1 X98.500 Y124.940 A6.14197
G1 X97.960 Y124.900 A6.16418
G1 X97.420 Y124.810 A6.18664
G1 X96.900 Y124.680 A6.20863
G1 X96.390 Y124.510 A6.23068
G1 X95.890 Y124.300 A6.25292
G1 X95.410 Y124.040 A6.27532
G1 X94.730 Y123.600 A6.30854
G1 X94.110 Y123.070 A6.34200
G1 X93.740 Y122.680 A6.36405
G1 X93.390 Y122.260 A6.38648
G1 X92.950 Y121.580 A6.41970
G1 X92.580 Y120.860 A6.45291
G1 X92.390 Y120.350 A6.47523
G1 X92.180 Y119.570 A6.50837
G1 X92.090 Y119.030 A6.53083
G1 X92.050 Y118.490 A6.55304
G1 X92.050 Y98.500 A7.37303
G1 X92.090 Y97.960 A7.39525
G1 X92.180 Y97.420 A7.41770
G1 X92.390 Y96.640 A7.45084
G1 X92.580 Y96.130 A7.47316
G1 X92.820 Y95.640 A7.49554
G1 X93.090 Y95.180 A7.51742
G1 X93.390 Y94.730 A7.53961
G1 X93.740 Y94.310 A7.56204
G1 X94.110 Y93.920 A7.58409
G1 X94.730 Y93.390 A7.61755
G1 X95.410 Y92.950 A7.65077
G1 X95.890 Y92.690 A7.67316
G1 X96.130 Y92.580 A7.68399
G1 X96.640 Y92.390 A7.70632
G1 X97.160 Y92.240 A7.72852
G1 X97.960 Y92.090 A7.76191
G1 X98.500 Y92.050 A7.78412
G1 X118.490 Y92.050 A8.60411
G1 X119.030 Y92.090 A8.62633
G1 X119.570 Y92.180 A8.64878
G1 X120.090 Y92.310 A8.67077
G1 X120.600 Y92.480 A8.69282
G1 X121.100 Y92.690 A8.71507
G1 X121.580 Y92.950 A8.73746
G1 X122.260 Y93.390 A8.77068
G1 X122.880 Y93.920 A8.80414
G1 X123.250 Y94.310 A8.82619
G1 X123.600 Y94.730 A8.84862
G1 X124.040 Y95.410 A8.88184
G1 X124.410 Y96.130 A8.91505
G1 X124.600 Y96.640 A8.93738
G1 X124.810 Y97.420 A8.97051
G1 X124.900 Y97.960 A8.99297
G1 X124.940 Y98.500 A9.01518
G1 X124.940 Y118.490 A9.83518
G1 X124.900 Y119.030 A9.85739
G1 X124.810 Y119.570 A9.87984
G1 X124.600 Y120.350 A9.91298
G1 X124.410 Y120.860 A9.93530
G1 X124.170 Y121.350 A9.95769
G1 X123.750 Y122.040 A9.99082
G1 X123.600 Y122.260 A10.00174
G1 X123.143 Y122.799 A10.03074
G1 X123.070 Y122.880 A10.03520
G0 A7.03520
G0 Z0.900
G0 X100.350 Y100.350 F7800.000
G0 Z0.400
G0 F1800.000 A10.03520
G1 X116.650 Y100.350 F540.000 A10.70385
G1 X116.650 Y116.650 A11.37250
G1 X100.350 Y116.650 A12.04115
G1 X100.350 Y100.459 A12.70534
G1 X100.350 Y100.350 A12.70980
G0 X99.625 Y99.625 F7800.000
G1 X117.375 Y99.625 F540.000 A13.43792
G1 X117.375 Y117.375 A14.16604
G1 X99.625 Y117.375 A14.89416
G1 X99.625 Y99.734 A15.61782
G1 X99.625 Y99.625 A15.62228
G0 X98.900 Y98.900 F7800.000
G1 X118.100 Y98.900 F540.000 A16.40987
G1 X118.100 Y118.100 A17.19746
G1 X98.900 Y118.100 A17.98505
G1 X98.900 Y99.009 A18.76818
G1 X98.900 Y98.900 A18.77264
G0 X99.528 Y99.262 F7800.000
G0 A15.77264
G0 Z0.900
G0 X115.925 Y100.748 F7800.000
G0 Z0.400
G0 F1800.000 A18.77264
G1 X115.925 Y116.251 F1080.000 A19.42406
G1 X115.183 Y116.251 A19.45526
G1 X115.183 Y100.748 A20.10668
G1 X114.440 Y100.748 A20.13788
G1 X114.440 Y116.251 A20.78930
G1 X113.698 Y116.251 A20.82050
G1 X113.698 Y100.748 A21.47192
G1 X112.955 Y100.748 A21.50312
G1 X112.955 Y116.251 A22.15454
G1 X112.213 Y116.251 A22.18574
G1 X112.213 Y100.748 A22.83716
G1 X111.470 Y100.748 A22.86836
G1 X111.470 Y116.251 A23.51978
G1 X110.728 Y116.251 A23.55098
G1 X110.728 Y100.748 A24.20240
G1 X109.985 Y100.748 A24.23360
G1 X109.985 Y116.251 A24.88502
G1 X109.243 Y116.251 A24.91622
G1 X109.243 Y100.748 A25.56764
G1 X108.500 Y100.748 A25.59884
G1 X108.500 Y116.251 A26.25026
G1 X107.757 Y116.251 A26.28146
G1 X107.757 Y100.748 A26.93288
G1 X107.015 Y100.748 A26.96408
G1 X107.015 Y116.251 A27.61550
G1 X106.272 Y116.251 A27.64670
G1 X106.272 Y100.748 A28.29812
G1 X105.530 Y100.748 A28.32932
G1 X105.530 Y116.251 A28.98074
G1 X104.787 Y116.251 A29.01194
G1 X104.787 Y100.748 A29.66336
G1 X104.045 Y100.748 A29.69456
G1 X104.045 Y116.251 A30.34598
G1 X103.302 Y116.251 A30.37718
G1 X103.302 Y100.748 A31.02860
G1 X102.560 Y100.748 A31.05980
G1 X102.560 Y116.251 A31.71122
G1 X101.817 Y116.251 A31.74242
G1 X101.817 Y100.748 A32.39384
G1 X101.075 Y100.748 A32.42504
G1 X101.075 Y116.251 A33.07646
M104 P230 ; set temperature
M140 P110 ; set bed temperature
G0 A30.07646
G0 Z0.700
G0 X98.770 Y125.670 F7800.000
G0 F1800.000 A33.07646
G1 X98.200 Y125.650 F1800.000 A33.09401
G1 X97.350 Y125.530 A33.12042
G1 X96.520 Y125.320 A33.14676
G1 X95.990 Y125.130 A33.16408
G1 X95.460 Y124.900 A33.18185
G1 X94.720 Y124.470 A33.20819
G1 X94.030 Y123.970 A33.23440
G1 X93.600 Y123.590 A33.25206
G1 X93.020 Y122.960 A33.27840
G1 X92.680 Y122.510 A33.29575
G1 X92.370 Y122.030 A33.31333
G1 X92.090 Y121.530 A33.33096
G1 X91.970 Y121.270 A33.33977
G1 X91.670 Y120.470 A33.36606
G1 X91.460 Y119.640 A33.39240
G1 X91.340 Y118.790 A33.41881
G1 X91.320 Y118.220 A33.43635
G1 X91.320 Y98.770 A34.03474
G1 X91.340 Y98.200 A34.05229
G1 X91.370 Y97.920 A34.06095
G1 X91.460 Y97.350 A34.07870
G1 X91.590 Y96.800 A34.09609
G1 X91.760 Y96.250 A34.11380
G1 X92.090 Y95.460 A34.14014
G1 X92.370 Y94.960 A34.15777
G1 X92.680 Y94.480 A34.17535
G1 X93.020 Y94.030 A34.19270
G1 X93.400 Y93.600 A34.21036
G1 X93.810 Y93.210 A34.22777
G1 X94.250 Y92.850 A34.24526
G1 X94.720 Y92.520 A34.26292
G1 X95.460 Y92.090 A34.28925
G1 X96.250 Y91.760 A34.31559
G1 X97.070 Y91.520 A34.34188
G1 X97.630 Y91.410 A34.35944
G1 X98.200 Y91.340 A34.37711
G1 X98.770 Y91.320 A34.39465
G1 X118.220 Y91.320 A34.99304
G1 X118.790 Y91.340 A35.01058
G1 X119.070 Y91.370 A35.01925
G1 X119.640 Y91.460 A35.03700
G1 X120.190 Y91.590 A35.05439
G1 X120.740 Y91.760 A35.07210
G1 X121.530 Y92.090 A35.09844
G1 X122.030 Y92.370 A35.11607
G1 X122.510 Y92.680 A35.13365
G1 X122.960 Y93.020 A35.15100
G1 X123.390 Y93.400 A35.16865
G1 X123.780 Y93.810 A35.18606
G1 X124.140 Y94.250 A35.20355
G1 X124.470 Y94.720 A35.22122
G1 X124.900 Y95.460 A35.24755
G1 X125.230 Y96.250 A35.27389
G1 X125.470 Y97.070 A35.30018
G1 X125.580 Y97.630 A35.31774
G1 X125.650 Y98.200 A35.33540
G1 X125.670 Y98.770 A35.35295
G1 X125.670 Y118.220 A35.95134
G1 X125.650 Y118.790 A35.96888
G1 X125.580 Y119.360 A35.98655
G1 X125.470 Y119.920 A36.00411
G1 X125.320 Y120.470 A36.02165
G1 X125.020 Y121.270 A36.04793
G1 X124.900 Y121.530 A36.05674
G1 X124.620 Y122.030 A36.07437
G1 X124.310 Y122.510 A36.09195
G1 X123.970 Y122.960 A36.10930
G1 X123.590 Y123.390 A36.12696
G1 X122.960 Y123.970 A36.15330
G1 X122.510 Y124.310 A36.17066
G1 X122.030 Y124.620 A36.18823
G1 X121.530 Y124.900 A36.20586
G1 X120.740 Y125.230 A36.23220
G1 X120.190 Y125.400 A36.24992
G1 X119.640 Y125.530 A36.26730
G1 X118.790 Y125.650 A36.29371
G1 X118.220 Y125.670 A36.31126
G1 X98.879 Y125.670 A36.90630
G1 X98.770 Y125.670 A36.90964
G0 X98.500 Y124.940 F7800.000
G1 X97.960 Y124.900 F1800.000 A36.92630
G1 X97.420 Y124.810 A36.94314
G1 X96.640 Y124.600 A36.96800
G1 X96.130 Y124.410 A36.98474
G1 X95.640 Y124.170 A37.00153
G1 X94.950 Y123.750 A37.02638
G1 X94.730 Y123.600 A37.03457
G1 X94.110 Y123.070 A37.05966
G1 X93.740 Y122.680 A37.07620
G1 X93.390 Y122.260 A37.09302
G1 X92.950 Y121.580 A37.11794
G1 X92.580 Y120.860 A37.14284
G1 X92.390 Y120.350 A37.15959
G1 X92.180 Y119.570 A37.18444
G1 X92.090 Y119.030 A37.20128
G1 X92.050 Y118.490 A37.21794
G1 X92.050 Y98.500 A37.83294
G1 X92.090 Y97.960 A37.84960
G1 X92.240 Y97.160 A37.87464
G1 X92.390 Y96.640 A37.89129
G1 X92.580 Y96.130 A37.90803
G1 X92.820 Y95.640 A37.92482
G1 X93.090 Y95.180 A37.94123
G1 X93.390 Y94.730 A37.95787
G1 X93.740 Y94.310 A37.97469
G1 X94.110 Y93.920 A37.99123
G1 X94.520 Y93.560 A38.00801
G1 X94.730 Y93.390 A38.01632
G1 X95.410 Y92.950 A38.04124
G1 X95.890 Y92.690 A38.05804
G1 X96.390 Y92.480 A38.07472
G1 X96.900 Y92.310 A38.09126
G1 X97.420 Y92.180 A38.10775
G1 X97.960 Y92.090 A38.12459
G1 X98.500 Y92.050 A38.14125
G1 X118.490 Y92.050 A38.75625
G1 X119.030 Y92.090 A38.77291
G1 X119.830 Y92.240 A38.79795
G1 X120.350 Y92.390 A38.81460
G1 X120.860 Y92.580 A38.83134
G1 X121.350 Y92.820 A38.84813
G1 X121.810 Y93.090 A38.86454
G1 X122.260 Y93.390 A38.88118
G1 X122.680 Y93.740 A38.89800
G1 X123.070 Y94.110 A38.91454
G1 X123.430 Y94.520 A38.93132
G1 X123.600 Y94.730 A38.93964
G1 X124.040 Y95.410 A38.96455
G1 X124.300 Y95.890 A38.98135
G1 X124.510 Y96.390 A38.99803
G1 X124.680 Y96.900 A39.01457
G1 X124.810 Y97.420 A39.03106
G1 X124.900 Y97.960 A39.04790
G1 X124.940 Y98.500 A39.06456
G1 X124.940 Y118.490 A39.67956
G1 X124.900 Y119.030 A39.69622
G1 X124.810 Y119.570 A39.71306
G1 X124.680 Y120.090 A39.72955
G1 X124.510 Y120.600 A39.74609
G1 X124.300 Y121.100 A39.76277
G1 X124.040 Y121.580 A39.77957
G1 X123.600 Y122.260 A39.80449
G1 X123.070 Y122.880 A39.82958
G1 X122.680 Y123.250 A39.84612
G1 X122.260 Y123.600 A39.86294
G1 X121.580 Y124.040 A39.88786
G1 X121.100 Y124.300 A39.90465
G1 X120.600 Y124.510 A39.92134
G1 X120.090 Y124.680 A39.93788
G1 X119.570 Y124.810 A39.95437
G1 X119.030 Y124.900 A39.97121
G1 X118.490 Y124.940 A39.98787
G1 X98.609 Y124.940 A40.59952
G1 X98.500 Y124.940 A40.60287
G0 A37.60287
G0 Z1.200
G0 X99.836 Y117.164 F7800.000
G0 Z0.700
G0 F1800.000 A40.60287
G1 X99.836 Y99.836 F1800.000 A40.99273
G1 X117.164 Y99.836 A41.38260
G1 X117.164 Y117.164 A41.77246
G1 X99.916 Y117.164 A42.16054
G1 X99.836 Y117.164 A42.16233
G0 X99.600 Y117.694 F7800.000
G1 X99.306 Y117.694 F1800.000 A42.16894
G1 X99.306 Y99.306 A42.58266
G1 X117.694 Y99.306 A42.99638
G1 X117.694 Y117.694 A43.41011
G1 X99.680 Y117.694 A43.81543
G1 X99.600 Y117.694 A43.81722
G0 X99.600 Y118.224 F7800.000
G1 X98.776 Y118.224 F1800.000 A43.83576
G1 X98.776 Y98.776 A44.27334
G1 X118.224 Y98.776 A44.71092
G1 X118.224 Y118.224 A45.14849
G1 X99.680 Y118.224 A45.56574
G1 X99.600 Y118.224 A45.56753
G0 X99.335 Y117.765 F7800.000
G0 A42.56753
G0 Z1.200
G0 X100.128 Y100.366 F7800.000
G0 Z0.700
G0 F1800.000 A45.56753
G1 X116.872 Y100.366 F3600.000 A45.95288
G1 X116.872 Y100.909 A45.96536
G1 X100.128 Y100.909 A46.35070
G1 X100.128 Y101.451 A46.36318
G1 X116.872 Y101.451 A46.74852
G1 X116.872 Y101.993 A46.76100
G1 X100.128 Y101.993 A47.14634
G1 X100.128 Y102.535 A47.15882
G1 X116.872 Y102.535 A47.54416
G1 X116.872 Y103.078 A47.55664
G1 X100.128 Y103.078 A47.94198
G1 X100.128 Y103.620 A47.95446
G1 X116.872 Y103.620 A48.33980
G1 X116.872 Y104.162 A48.35228
G1 X100.128 Y104.162 A48.73762
G1 X100.128 Y104.704 A48.75010
G1 X116.872 Y104.704 A49.13545
G1 X116.872 Y105.247 A49.14793
G1 X100.128 Y105.247 A49.53327
G1 X100.128 Y105.789 A49.54575
G1 X116.872 Y105.789 A49.93109
G1 X116.872 Y106.331 A49.94357
G1 X100.128 Y106.331 A50.32891
G1 X100.128 Y106.873 A50.34139
G1 X116.872 Y106.873 A50.72673
G1 X116.872 Y107.415 A50.73921
G1 X100.128 Y107.415 A51.12455
G1 X100.128 Y107.958 A51.13703
G1 X116.872 Y107.958 A51.52237
G1 X116.872 Y108.500 A51.53485
G1 X100.128 Y108.500 A51.92019
G1 X100.128 Y109.042 A51.93267
G1 X116.872 Y109.042 A52.31801
G1 X116.872 Y109.584 A52.33049
G1 X100.128 Y109.584 A52.71584
G1 X100.128 Y110.127 A52.72832
G1 X116.872 Y110.127 A53.11366
G1 X116.872 Y110.669 A53.12614
G1 X100.128 Y110.669 A53.51148
G1 X100.128 Y111.211 A53.52396
G1 X116.872 Y111.211 A53.90930
G1 X116.872 Y111.753 A53.92178
G1 X100.128 Y111.753 A54.30712
G1 X100.128 Y112.296 A54.31960
G1 X116.872 Y112.296 A54.70494
G1 X116.872 Y112.838 A54.71742
G1 X100.128 Y112.838 A55.10276
G1 X100.128 Y113.380 A55.11524
G1 X116.872 Y113.380 A55.50058
G1 X116.872 Y113.922 A55.51306
G1 X100.128 Y113.922 A55.89841
G1 X100.128 Y114.465 A55.91088
G1 X116.872 Y114.465 A56.29623
G1 X116.872 Y115.007 A56.30871
G1 X100.128 Y115.007 A56.69405
G1 X100.128 Y115.549 A56.70653
G1 X116.872 Y115.549 A57.09187
G1 X116.872 Y116.091 A57.10435
G1 X100.128 Y116.091 A57.48969
G1 X100.128 Y116.634 A57.50217
G1 X116.872 Y116.634 A57.88751
G0 A54.88751
G0 Z1.000
G0 X99.836 Y99.836 F7800.000
G0 F1800.000 A57.88751
G1 X117.164 Y99.836 F1800.000 A58.27738
G1 X117.164 Y117.164 A58.66725
G1 X99.836 Y117.164 A59.05711
G1 X99.836 Y99.916 A59.44519
G1 X99.836 Y99.836 A59.44698
G0 X99.306 Y100.200 F7800.000
G1 X99.306 Y99.306 F1800.000 A59.46709
G1 X117.694 Y99.306 A59.88081
G1 X117.694 Y117.694 A60.29453
G1 X99.306 Y117.694 A60.70825
G1 X99.306 Y100.280 A61.10008
G1 X99.306 Y100.200 A61.10187
G0 X98.776 Y100.200 F7800.000
G1 X98.776 Y98.776 F1800.000 A61.13391
G1 X118.224 Y98.776 A61.57148
G1 X118.224 Y118.224 A62.00906
G1 X98.776 Y118.224 A62.44664
G1 X98.776 Y100.280 A62.85039
G1 X98.776 Y100.200 A62.85218
