; generated by Slic3r 0.9.8 on 2013-06-04 at 08:50:50

; layer_height = 0.2
; perimeters = 3
; top_solid_layers = 3
; bottom_solid_layers = 3
; fill_density = 0.25
; perimeter_speed = 30
; infill_speed = 40
; travel_speed = 130
; scale = 1
; nozzle_diameter = 0.4
; filament_diameter = 2.95
; extrusion_multiplier = 1.105263
; perimeters extrusion width = 0.64mm
; infill extrusion width = 0.64mm
; first layer extrusion width = 0.64mm

M190 P100 ; wait for bed temperature to be reached
M104 P200 ; set temperature
G92 A0                  ; Reset A to 0
G40                        ; Cancel cutter compensation
G64 P0.1                ; Path Blend within .1mm
G0 X108.5 Y200    ; Move to plate
M109 P200 ; wait for temperature to be reached
G90 ; use absolute coordinates
G21 ; set units to millimeters
M106 P151
G0 Z0.200 F5400.000 A-1.00000
G0 X121.670 Y124.218 F7800.000
G0 F5400.000 A0.00000
G1 X121.080000 Y124.908000 Z0.200000 A0.017530 F540.000000
G3 X106.340000 Y130.358000 Z0.200000 A0.332980 I-12.4805 J-11.0969
G1 X105.410000 Y130.218000 Z0.200000 A0.351140
G3 X91.510000 Y113.768000 Z0.200000 A0.801420 I3.0763 J-16.6970
G1 X91.500000 Y98.388000 Z0.200000 A1.098420
G3 X102.510000 Y86.548000 Z0.200000 A1.440750 I11.9592 J0.0817
G1 X118.540000 Y86.538000 Z0.200000 A1.750290
G3 X125.460000 Y93.438000 Z0.200000 A1.957690 I-0.2447 J7.1654
G1 X125.490000 Y113.628000 Z0.200000 A2.347560
G3 X121.670000 Y124.218000 Z0.200000 A2.569150 I-16.5944 J-0.0019
G0 X121.190 Y123.868 F7800.000
G1 X120.650000 Y124.488000 Z0.200000 A2.585020 F540.000000
G3 X107.790000 Y129.878000 Z0.200000 A2.863180 I-12.0044 J-10.6049
G1 X106.390000 Y129.758000 Z0.200000 A2.890310
G3 X93.440000 Y119.988000 Z0.200000 A3.218000 I1.9149 J-16.0057
G1 X93.190000 Y119.448000 Z0.200000 A3.229490
G3 X92.100000 Y113.738000 Z0.200000 A3.342220 I15.8342 J-5.9817
G1 X92.090000 Y98.388000 Z0.200000 A3.638630
G3 X102.840000 Y87.138000 Z0.200000 A3.969220 I11.3539 J0.0882
G1 X118.270000 Y87.128000 Z0.200000 A4.267180
G3 X124.860000 Y93.448000 Z0.200000 A4.461840 I0.0172 J6.5779
G1 X124.900000 Y113.628000 Z0.200000 A4.851530
G3 X121.190000 Y123.868000 Z0.200000 A5.065850 I-16.0973 J-0.0400
G0 Z0.700 F1620.000 A4.06585
G0 X110.110 Y123.153 F7800.000
G0 Z0.200
G0 F5400.000 A5.06585
G1 X111.193000 Y122.941000 Z0.200000 A5.087160 F378.000000
G2 X118.303000 Y113.641000 Z0.200000 A5.329210 I-2.6508 J-9.3945
G1 X118.273000 Y93.735000 Z0.200000 A5.713610
G1 X102.629000 Y93.789000 Z0.200000 A6.015690
G1 X101.418000 Y94.181000 Z0.200000 A6.040290
G1 X100.182000 Y95.036000 Z0.200000 A6.069300
G1 X99.271000 Y96.231000 Z0.200000 A6.098320
G2 X98.699000 Y98.394000 Z0.200000 A6.141810 I4.3375 J2.3042
G1 X98.697000 Y113.358000 Z0.200000 A6.430780
G2 X110.110000 Y123.153000 Z0.200000 A6.762040 I9.7292 J0.2103
M106 P255
M104 P165 ; set temperature
M140 P50 ; set bed temperature
G0 Z0.400 F5400.000 A5.76204
G0 X111.500 Y130.208 F7800.000
G0 F5400.000 A6.76204
G1 X110.710000 Y130.328000 Z0.400000 A6.777470 F1800.000000
G3 X92.910000 Y120.258000 Z0.400000 A7.201480 I-2.3296 J-16.6489
G1 X92.640000 Y119.668000 Z0.400000 A7.214010
G3 X91.500000 Y113.368000 Z0.400000 A7.338250 I16.0315 J-6.1541
G1 X91.500000 Y98.388000 Z0.400000 A7.627530
G3 X102.510000 Y86.548000 Z0.400000 A7.969850 I11.9592 J0.0817
G1 X118.270000 Y86.538000 Z0.400000 A8.274180
G3 X125.270000 Y92.078000 Z0.400000 A8.460230 I0.1350 J7.0218
G1 X125.420000 Y92.888000 Z0.400000 A8.476130
G1 X125.490000 Y113.628000 Z0.400000 A8.876660
G1 X125.440000 Y114.498000 Z0.400000 A8.893490
G3 X119.330000 Y126.608000 Z0.400000 A9.162910 I-16.4903 J-0.7237
G1 X118.420000 Y127.308000 Z0.400000 A9.185090
G3 X111.500000 Y130.208000 Z0.400000 A9.331180 I-9.7175 J-13.4818
G0 X111.380 Y129.628 F7800.000
G1 X110.660000 Y129.728000 Z0.400000 A9.345220 F1800.000000
G3 X92.310000 Y116.138000 Z0.400000 A9.833240 I-2.2806 J-16.1042
G1 X92.230000 Y115.648000 Z0.400000 A9.842830
G3 X92.090000 Y113.368000 Z0.400000 A9.886950 I22.0671 J-2.4993
G1 X92.090000 Y98.388000 Z0.400000 A10.176220
G3 X102.840000 Y87.138000 Z0.400000 A10.506800 I11.3648 J0.0986
G1 X118.270000 Y87.128000 Z0.400000 A10.804770
G3 X124.870000 Y93.718000 Z0.400000 A11.004650 I0.0170 J6.5830
G1 X124.900000 Y113.628000 Z0.400000 A11.389120
G3 X111.380000 Y129.628000 Z0.400000 A11.827900 I-16.3066 J-0.0669
G0 Z0.900 F5400.000 A10.82790
G0 X110.092 Y123.163 F7800.000
G0 Z0.400
G0 F5400.000 A11.82790
G1 X112.535000 Y122.450000 Z0.400000 A11.877030 F1260.000000
G2 X118.307000 Y113.639000 Z0.400000 A12.091510 I-3.9558 J-8.8875
G1 X118.273000 Y93.735000 Z0.400000 A12.475870
G1 X102.844000 Y93.745000 Z0.400000 A12.773800
G1 X101.404000 Y94.181000 Z0.400000 A12.802860
G2 X98.696000 Y98.396000 Z0.400000 A12.904270 I2.0900 J4.3202
G1 X98.690000 Y113.378000 Z0.400000 A13.193570
G2 X110.092000 Y123.163000 Z0.400000 A13.524050 I9.7666 J0.1550
G0 Z0.600 F5400.000 A12.52405
G0 X106.711 Y123.154 F7800.000
G0 F5400.000 A13.52405
G1 X108.355000 Y123.314000 Z0.600000 A13.555940 F1260.000000
G2 X118.311000 Y113.637000 Z0.600000 A13.853280 I0.1649 J-9.7904
G1 X118.273000 Y93.735000 Z0.600000 A14.237590
G1 X102.831000 Y93.743000 Z0.600000 A14.535770
G1 X101.392000 Y94.183000 Z0.600000 A14.564840
G2 X98.694000 Y98.398000 Z0.600000 A14.666120 I2.1007 J4.3157
G1 X98.676000 Y111.205000 Z0.600000 A14.913440
G2 X100.255000 Y118.827000 Z0.600000 A15.066280 I11.6967 J1.5514
G1 X101.899000 Y120.770000 Z0.600000 A15.115440
G2 X106.711000 Y123.154000 Z0.600000 A15.220210 I6.7875 J-7.6520
G0 Z0.800 F5400.000 A14.22021
G0 X110.399 Y123.124 F7800.000
G0 F5400.000 A15.22021
G1 X111.774000 Y122.735000 Z0.800000 A15.247800 F1260.000000
G2 X117.090000 Y118.224000 Z0.800000 A15.385360 I-3.1054 J-9.0473
G1 X118.029000 Y115.837000 Z0.800000 A15.434890
G1 X118.319000 Y113.350000 Z0.800000 A15.483240
G1 X118.273000 Y93.737000 Z0.800000 A15.861990
G1 X102.819000 Y93.743000 Z0.800000 A16.160410
G1 X101.380000 Y94.187000 Z0.800000 A16.189500
G1 X100.148000 Y95.054000 Z0.800000 A16.218580
G1 X99.245000 Y96.259000 Z0.800000 A16.247660
G2 X98.687000 Y98.665000 Z0.800000 A16.295700 I4.5634 J2.3260
G1 X98.681000 Y113.419000 Z0.800000 A16.580610
G1 X98.939000 Y115.704000 Z0.800000 A16.625010
G1 X99.718000 Y117.844000 Z0.800000 A16.668980
G1 X101.109000 Y119.973000 Z0.800000 A16.718100
G1 X102.588000 Y121.335000 Z0.800000 A16.756930
G2 X110.399000 Y123.124000 Z0.800000 A16.916110 I5.9323 J-7.9547
G0 Z1.000 F5400.000 A15.91611
G0 X110.419 Y123.126 F7800.000
G0 F5400.000 A16.91611
G1 X111.796000 Y122.739000 Z1.000000 A16.943730 F1260.000000
G2 X118.023000 Y115.815000 Z1.000000 A17.130780 I-3.2393 J-9.1753
G1 X118.322000 Y113.350000 Z1.000000 A17.178740
G1 X118.273000 Y93.737000 Z1.000000 A17.557490
G1 X102.806000 Y93.745000 Z1.000000 A17.856150
G1 X101.368000 Y94.193000 Z1.000000 A17.885240
G1 X100.139000 Y95.063000 Z1.000000 A17.914320
G2 X98.879000 Y97.188000 Z1.000000 A17.962450 I3.2546 J3.3659
G1 X98.685000 Y98.666000 Z1.000000 A17.991220
G1 X98.677000 Y113.438000 Z1.000000 A18.276490
G1 X98.938000 Y115.724000 Z1.000000 A18.320910
G1 X99.725000 Y117.861000 Z1.000000 A18.364900
G1 X101.124000 Y119.985000 Z1.000000 A18.414020
G2 X110.419000 Y123.126000 Z1.000000 A18.612040 I7.3786 J-6.5115
G0 Z1.200 F5400.000 A17.61204
G0 X110.438 Y123.125 F7800.000
G0 F5400.000 A18.61204
G1 X112.861000 Y122.283000 Z1.200000 A18.661560 F1260.000000
G2 X117.951000 Y116.077000 Z1.200000 A18.821100 I-4.2586 J-8.6832
G1 X118.324000 Y113.350000 Z1.200000 A18.874260
G1 X118.273000 Y93.736000 Z1.200000 A19.253000
G1 X102.794000 Y93.748000 Z1.200000 A19.551910
G1 X101.358000 Y94.199000 Z1.200000 A19.580980
G1 X100.131000 Y95.072000 Z1.200000 A19.610060
G2 X98.876000 Y97.200000 Z1.200000 A19.658180 I3.2764 J3.3663
G1 X98.682000 Y98.666000 Z1.200000 A19.686720
G1 X98.675000 Y113.457000 Z1.200000 A19.972350
G1 X98.940000 Y115.743000 Z1.200000 A20.016780
G1 X99.724000 Y117.882000 Z1.200000 A20.060780
G1 X101.142000 Y119.995000 Z1.200000 A20.109910
G2 X110.438000 Y123.125000 Z1.200000 A20.307970 I7.3460 J-6.4479
G0 Z1.400 F5400.000 A19.30797
G0 X110.277 Y123.107 F7800.000
G0 F5400.000 A20.30797
G1 X111.559000 Y122.828000 Z1.400000 A20.333320 F1260.000000
G2 X118.326000 Y113.350000 Z1.400000 A20.573450 I-3.0650 J-9.3431
G1 X118.273000 Y93.736000 Z1.400000 A20.952190
G1 X102.782000 Y93.753000 Z1.400000 A21.251330
G1 X101.348000 Y94.208000 Z1.400000 A21.280390
G1 X100.124000 Y95.083000 Z1.400000 A21.309440
G1 X99.231000 Y96.294000 Z1.400000 A21.338500
G2 X98.680000 Y98.666000 Z1.400000 A21.385840 I4.6177 J2.3227
G1 X98.673000 Y113.477000 Z1.400000 A21.671840
G1 X98.946000 Y115.761000 Z1.400000 A21.716260
G1 X99.726000 Y117.902000 Z1.400000 A21.760270
G2 X107.297000 Y123.230000 Z1.400000 A21.946130 I8.7600 J-4.4047
G1 X108.936000 Y123.302000 Z1.400000 A21.977820
G1 X110.277000 Y123.107000 Z1.400000 A22.003980
G0 Z1.600 F5400.000 A21.00398
G0 X110.474 Y123.111 F7800.000
G0 F5400.000 A22.00398
G1 X112.901000 Y122.277000 Z1.600000 A22.053530 F1260.000000
G2 X118.326000 Y113.350000 Z1.600000 A22.265720 I-4.4178 J-8.7966
G1 X118.273000 Y93.736000 Z1.600000 A22.644460
G1 X102.770000 Y93.759000 Z1.600000 A22.943830
G1 X101.338000 Y94.217000 Z1.600000 A22.972860
G2 X98.874000 Y97.226000 Z1.600000 A23.049890 I2.1895 J4.3063
G1 X98.678000 Y98.666000 Z1.600000 A23.077960
G1 X98.673000 Y113.496000 Z1.600000 A23.364320
G1 X98.956000 Y115.778000 Z1.600000 A23.408740
G1 X99.732000 Y117.920000 Z1.600000 A23.452730
G1 X101.159000 Y120.031000 Z1.600000 A23.501930
G2 X110.474000 Y123.111000 Z1.600000 A23.699960 I7.3240 J-6.5245
G0 Z1.800 F5400.000 A22.69996
G0 X106.539 Y123.110 F7800.000
G0 F5400.000 A23.69996
G1 X108.064000 Y123.309000 Z1.800000 A23.729650 F1260.000000
G2 X118.326000 Y113.350000 Z1.800000 A24.038130 I0.4361 J-9.8172
G1 X118.273000 Y93.736000 Z1.800000 A24.416880
G1 X102.758000 Y93.767000 Z1.800000 A24.716480
G1 X101.808000 Y94.020000 Z1.800000 A24.735460
G1 X100.687000 Y94.621000 Z1.800000 A24.760030
G1 X99.623000 Y95.680000 Z1.800000 A24.789020
G2 X98.677000 Y98.666000 Z1.800000 A24.850370 I4.0934 J2.9397
G1 X98.673000 Y113.515000 Z1.800000 A25.137100
G2 X100.315000 Y118.923000 Z1.800000 A25.247490 I10.3370 J-0.1853
G1 X101.795000 Y120.655000 Z1.800000 A25.291480
G2 X106.539000 Y123.110000 Z1.800000 A25.395840 I6.5979 J-6.9385
G0 Z2.000 F5400.000 A24.39584
G0 X106.558 Y123.114 F7800.000
G0 F5400.000 A25.39584
G1 X108.064000 Y123.307000 Z2.000000 A25.425160 F1260.000000
G2 X118.325000 Y113.350000 Z2.000000 A25.733560 I0.4377 J-9.8146
G1 X118.273000 Y93.736000 Z2.000000 A26.112310
G1 X103.534000 Y93.683000 Z2.000000 A26.396930
G1 X102.747000 Y93.777000 Z2.000000 A26.412240
G2 X98.821000 Y97.507000 Z2.000000 A26.523130 I0.7454 J4.7157
G1 X98.676000 Y98.666000 Z2.000000 A26.545690
G1 X98.674000 Y113.534000 Z2.000000 A26.832790
G1 X99.051000 Y116.070000 Z2.000000 A26.882310
G2 X101.803000 Y120.673000 Z2.000000 A26.987120 I9.1466 J-2.3443
G1 X103.875000 Y122.148000 Z2.000000 A27.036230
G2 X106.558000 Y123.114000 Z2.000000 A27.091460 I4.3521 J-7.8788
G0 Z2.200 F5400.000 A26.09146
G0 X106.682 Y123.089 F7800.000
G0 F5400.000 A27.09146
G1 X107.781000 Y123.287000 Z2.200000 A27.113030 F1260.000000
G2 X118.318000 Y113.658000 Z2.200000 A27.420890 I0.7266 J-9.7847
G1 X118.273000 Y93.736000 Z2.200000 A27.805590
G1 X103.521000 Y93.682000 Z2.200000 A28.090460
G1 X102.735000 Y93.780000 Z2.200000 A28.105770
G2 X99.026000 Y96.797000 Z2.200000 A28.202120 I0.7640 J4.7276
G1 X98.675000 Y98.667000 Z2.200000 A28.238840
G1 X98.676000 Y113.553000 Z2.200000 A28.526310
G1 X98.988000 Y115.830000 Z2.200000 A28.570690
G1 X99.897000 Y118.202000 Z2.200000 A28.619740
G1 X101.024000 Y119.866000 Z2.200000 A28.658540
G2 X106.682000 Y123.089000 Z2.200000 A28.786690 I7.2739 J-6.1916
G0 Z2.400 F5400.000 A27.78669
G0 X106.882 Y123.171 F7800.000
G0 F5400.000 A28.78669
G1 X108.355000 Y123.313000 Z2.400000 A28.815260 F1260.000000
G2 X118.312000 Y113.654000 Z2.400000 A29.112080 I0.1518 J-9.8051
G1 X118.273000 Y93.736000 Z2.400000 A29.496710
G1 X103.508000 Y93.682000 Z2.400000 A29.781830
G1 X102.722000 Y93.778000 Z2.400000 A29.797130
G2 X99.016000 Y96.807000 Z2.400000 A29.893590 I0.7704 J4.7242
G1 X98.680000 Y98.364000 Z2.400000 A29.924340
G1 X98.679000 Y113.572000 Z2.400000 A30.218030
G1 X99.061000 Y116.107000 Z2.400000 A30.267530
G2 X106.882000 Y123.171000 Z2.400000 A30.482160 I9.3626 J-2.5043
G0 Z2.600 F5400.000 A29.48216
G0 X106.641 Y123.096 F7800.000
G0 F5400.000 A30.48216
G1 X108.064000 Y123.295000 Z2.600000 A30.509920 F1260.000000
G2 X112.716000 Y122.346000 Z2.600000 A30.602500 I0.5564 J-9.1493
G1 X114.644000 Y121.139000 Z2.600000 A30.646410
G2 X118.305000 Y113.651000 Z2.600000 A30.812400 I-6.0080 J-7.5764
G1 X118.273000 Y93.736000 Z2.600000 A31.196960
G1 X103.495000 Y93.683000 Z2.600000 A31.482330
G1 X102.709000 Y93.777000 Z2.600000 A31.497620
G2 X99.008000 Y96.817000 Z2.600000 A31.594170 I0.7729 J4.7138
G1 X98.675000 Y98.667000 Z2.600000 A31.630460
G1 X98.683000 Y113.591000 Z2.600000 A31.918660
G1 X99.059000 Y116.128000 Z2.600000 A31.968170
G2 X106.641000 Y123.096000 Z2.600000 A32.177570 I9.2942 J-2.5042
G0 Z2.800 F5400.000 A31.17757
G0 X106.637 Y123.108 F7800.000
G0 F5400.000 A32.17757
G1 X108.064000 Y123.289000 Z2.800000 A32.205350 F1260.000000
G2 X114.652000 Y121.120000 Z2.800000 A32.342220 I0.5714 J-9.3539
G1 X115.900000 Y119.938000 Z2.800000 A32.375410
G2 X118.310000 Y113.350000 Z2.800000 A32.513620 I-7.4211 J-6.4496
G1 X118.273000 Y93.736000 Z2.800000 A32.892380
G1 X102.696000 Y93.777000 Z2.800000 A33.193170
G1 X101.507000 Y94.139000 Z2.800000 A33.217180
G2 X99.001000 Y96.828000 Z2.800000 A33.289770 I2.0284 J4.4026
G1 X98.676000 Y98.667000 Z2.800000 A33.325830
G1 X98.688000 Y113.611000 Z2.800000 A33.614390
G1 X99.061000 Y116.147000 Z2.800000 A33.663900
G2 X106.637000 Y123.108000 Z2.800000 A33.872850 I9.3639 J-2.5880
G0 Z3.000 F5400.000 A32.87285
G0 X106.653 Y123.121 F7800.000
G0 F5400.000 A33.87285
G1 X107.796000 Y123.274000 Z3.000000 A33.895110 F1260.000000
G2 X118.112000 Y115.366000 Z3.000000 A34.169450 I0.7726 J-9.6748
G1 X118.304000 Y113.350000 Z3.000000 A34.208560
G1 X118.273000 Y93.736000 Z3.000000 A34.587320
G1 X103.469000 Y93.685000 Z3.000000 A34.873180
G2 X98.996000 Y96.840000 Z3.000000 A34.985080 I0.0883 J4.8734
G1 X98.676000 Y98.667000 Z3.000000 A35.020910
G1 X98.694000 Y113.630000 Z3.000000 A35.309830
G1 X99.067000 Y116.165000 Z3.000000 A35.359320
G2 X101.883000 Y120.727000 Z3.000000 A35.464030 I9.2401 J-2.5535
G1 X103.958000 Y122.196000 Z3.000000 A35.513110
G2 X106.653000 Y123.121000 Z3.000000 A35.568300 I4.3653 J-8.3299
G0 Z3.200 F5400.000 A34.56830
G0 X110.102 Y123.136 F7800.000
G0 F5400.000 A35.56830
G1 X111.722000 Y122.773000 Z3.200000 A35.600350 F1260.000000
G2 X118.297000 Y113.350000 Z3.200000 A35.837060 I-3.2061 J-9.2425
G1 X118.273000 Y93.736000 Z3.200000 A36.215810
G1 X103.456000 Y93.686000 Z3.200000 A36.501920
G1 X102.672000 Y93.782000 Z3.200000 A36.517190
G2 X100.235000 Y94.986000 Z3.200000 A36.570220 I0.7931 J4.6737
G1 X99.306000 Y96.167000 Z3.200000 A36.599240
G2 X98.678000 Y98.668000 Z3.200000 A36.649420 I4.5831 J2.4802
G1 X98.701000 Y113.649000 Z3.200000 A36.938720
G2 X110.102000 Y123.136000 Z3.200000 A37.263930 I9.7453 J-0.1174
G0 Z3.400 F5400.000 A36.26393
G0 X110.084 Y123.148 F7800.000
G0 F5400.000 A37.26393
G1 X111.738000 Y122.761000 Z3.400000 A37.296730 F1260.000000
G2 X116.916000 Y118.509000 Z3.400000 A37.428620 I-3.0992 J-9.0530
G1 X117.941000 Y116.159000 Z3.400000 A37.478130
G1 X118.293000 Y113.919000 Z3.400000 A37.521920
G1 X118.273000 Y93.736000 Z3.400000 A37.911660
G1 X103.444000 Y93.688000 Z3.400000 A38.198020
G1 X102.660000 Y93.786000 Z3.400000 A38.213280
G2 X100.227000 Y94.996000 Z3.400000 A38.266290 I0.8035 J4.6667
