; generated by Slic3r 0.9.9 on 2013-06-20 at 07:51:16

; layer_height = 0.2
; perimeters = 3
; top_solid_layers = 3
; bottom_solid_layers = 3
; fill_density = 0
; perimeter_speed = 30
; infill_speed = 40
; travel_speed = 130
; nozzle_diameter = 0.4
; filament_diameter = 2.95
; extrusion_multiplier = 1.105263
; perimeters extrusion width = 0.60mm
; infill extrusion width = 0.60mm
; solid infill extrusion width = 0.60mm
; top infill extrusion width = 0.60mm

G21 ; set units to millimeters
M190 P115 ; wait for bed temperature to be reached
M104 P210 ; set temperature
G92 A0                  ; Reset A to 0
G40                        ; Cancel cutter compensation
G64 P0.1                ; Path Blend within .1mm
G0 X108.5 Y200    ; Move to plate
M109 P210 ; wait for temperature to be reached
G90 ; use absolute coordinates
G0 Z0.200 F7800.000
G0 Z0.700 F1620.000 A-1.00000
G0 X73.090 Y61.800 F7800.000
G0 Z0.200
G0 F5400.000 A0.00000
G1 X73.470000 Y61.390000 Z0.200000 A0.010070 F540.000000
G3 X78.220000 Y59.310000 Z0.200000 A0.105670 I4.9985 J4.9511
G1 X138.780000 Y59.310000 Z0.200000 A1.196780
G3 X145.610000 Y66.140000 Z0.200000 A1.387990 I-0.2650 J7.0950
G1 X145.610000 Y150.850000 Z0.200000 A2.914200
G3 X138.780000 Y157.680000 Z0.200000 A3.105410 I-7.0950 J-0.2650
G1 X78.220000 Y157.680000 Z0.200000 A4.196510
G3 X71.390000 Y150.850000 Z0.200000 A4.387720 I0.2650 J-7.0950
G1 X71.390000 Y66.140000 Z0.200000 A5.913930
G3 X73.037000 Y61.865000 Z0.200000 A5.997970 I7.0356 J0.2558
G0 X73.420 Y62.270 F7800.000
G1 X73.770000 Y61.880000 Z0.200000 A6.007410 F540.000000
G3 X78.500000 Y59.860000 Z0.200000 A6.102600 I4.7072 J4.4744
G1 X138.500000 Y59.860000 Z0.200000 A7.183610
G3 X145.060000 Y66.420000 Z0.200000 A7.369160 I0.0185 J6.5415
G1 X145.060000 Y150.570000 Z0.200000 A8.885280
G3 X138.500000 Y157.130000 Z0.200000 A9.070830 I-6.5415 J0.0185
G1 X78.500000 Y157.130000 Z0.200000 A10.151840
G3 X71.940000 Y150.570000 Z0.200000 A10.337390 I-0.0185 J-6.5415
G1 X71.940000 Y66.420000 Z0.200000 A11.853510
G3 X73.369000 Y62.336000 Z0.200000 A11.932920 I6.4921 J-0.0204
G0 Z0.200 F7800.000
G0 Z0.700 F1620.000 A10.93292
G0 X83.647 Y113.277 F7800.000
G0 Z0.200
G0 F5400.000 A11.93292
G1 X83.647000 Y120.293000 Z0.200000 A12.059660 F720.000000
G1 X84.206000 Y119.156000 Z0.200000 A12.082540
G1 X84.206000 Y113.277000 Z0.200000 A12.188740
G1 X84.764000 Y113.277000 Z0.200000 A12.198820
G1 X84.764000 Y118.568000 Z0.200000 A12.294400
G1 X85.323000 Y118.197000 Z0.200000 A12.306510
G1 X85.323000 Y113.277000 Z0.200000 A12.395390
G1 X85.881000 Y113.277000 Z0.200000 A12.405470
G1 X85.881000 Y117.964000 Z0.200000 A12.490130
G1 X86.440000 Y117.838000 Z0.200000 A12.500470
G1 X86.440000 Y113.277000 Z0.200000 A12.582860
G1 X86.998000 Y113.277000 Z0.200000 A12.592950
G1 X86.998000 Y117.806000 Z0.200000 A12.674760
G1 X87.557000 Y117.864000 Z0.200000 A12.684900
G1 X87.557000 Y113.277000 Z0.200000 A12.767770
G1 X88.115000 Y113.277000 Z0.200000 A12.777850
G1 X88.115000 Y118.027000 Z0.200000 A12.863650
G1 X88.674000 Y118.302000 Z0.200000 A12.874900
G1 X88.674000 Y113.277000 Z0.200000 A12.965660
G1 X89.232000 Y113.277000 Z0.200000 A12.975750
G1 X89.232000 Y118.728000 Z0.200000 A13.074210
G1 X89.791000 Y119.415000 Z0.200000 A13.090210
G1 X89.791000 Y113.277000 Z0.200000 A13.201090
G1 X90.349000 Y113.277000 Z0.200000 A13.211180
G1 X90.349000 Y148.783000 Z0.200000 A13.852510
G1 X89.791000 Y148.783000 Z0.200000 A13.862600
G1 X89.791000 Y142.645000 Z0.200000 A13.973480
G1 X89.232000 Y143.332000 Z0.200000 A13.989480
G1 X89.232000 Y148.783000 Z0.200000 A14.087940
G1 X88.674000 Y148.783000 Z0.200000 A14.098030
G1 X88.674000 Y143.758000 Z0.200000 A14.188790
G1 X88.115000 Y144.033000 Z0.200000 A14.200030
G1 X88.115000 Y148.783000 Z0.200000 A14.285830
G1 X87.557000 Y148.783000 Z0.200000 A14.295920
G1 X87.557000 Y144.196000 Z0.200000 A14.378790
G1 X86.998000 Y144.254000 Z0.200000 A14.388930
G1 X86.998000 Y148.783000 Z0.200000 A14.470740
G1 X86.440000 Y148.783000 Z0.200000 A14.480830
G1 X86.440000 Y144.218000 Z0.200000 A14.563290
G1 X85.881000 Y144.096000 Z0.200000 A14.573620
G1 X85.881000 Y148.783000 Z0.200000 A14.658270
G1 X85.323000 Y148.783000 Z0.200000 A14.668360
G1 X85.323000 Y143.863000 Z0.200000 A14.757230
G1 X84.764000 Y143.492000 Z0.200000 A14.769350
G1 X84.764000 Y148.783000 Z0.200000 A14.864920
G1 X84.206000 Y148.783000 Z0.200000 A14.875010
G1 X84.206000 Y142.904000 Z0.200000 A14.981210
G1 X83.647000 Y141.767000 Z0.200000 A15.004090
G1 X83.647000 Y148.783000 Z0.200000 A15.130830
G1 X83.089000 Y148.783000 Z0.200000 A15.140920
G1 X83.089000 Y113.277000 Z0.200000 A15.782250
G1 X82.530000 Y113.277000 Z0.200000 A15.792340
G1 X82.530000 Y148.783000 Z0.200000 A16.433680
G1 X81.972000 Y148.783000 Z0.200000 A16.443760
G1 X81.972000 Y113.277000 Z0.200000 A17.085100
G1 X81.414000 Y113.277000 Z0.200000 A17.095190
G1 X81.414000 Y148.783000 Z0.200000 A17.736520
G1 X80.855000 Y148.783000 Z0.200000 A17.746610
G1 X80.855000 Y113.277000 Z0.200000 A18.387940
G1 X80.297000 Y113.277000 Z0.200000 A18.398030
G1 X80.297000 Y148.783000 Z0.200000 A19.039370
G0 X83.647 Y139.978 F7800.000
G1 X83.647000 Y122.082000 Z0.200000 A19.362620 F720.000000
G1 X84.206000 Y123.219000 Z0.200000 A19.385500
G1 X84.206000 Y138.841000 Z0.200000 A19.667670
G1 X84.764000 Y138.253000 Z0.200000 A19.682320
G1 X84.764000 Y123.807000 Z0.200000 A19.943250
G1 X85.323000 Y124.178000 Z0.200000 A19.955360
G1 X85.323000 Y137.882000 Z0.200000 A20.202880
G1 X85.881000 Y137.649000 Z0.200000 A20.213820
G1 X85.881000 Y124.411000 Z0.200000 A20.452910
G1 X86.440000 Y124.533000 Z0.200000 A20.463230
G1 X86.440000 Y137.523000 Z0.200000 A20.697870
G1 X86.998000 Y137.491000 Z0.200000 A20.707970
G1 X86.998000 Y124.569000 Z0.200000 A20.941360
G1 X87.557000 Y124.511000 Z0.200000 A20.951510
G1 X87.557000 Y137.549000 Z0.200000 A21.187020
G1 X88.115000 Y137.712000 Z0.200000 A21.197520
G1 X88.115000 Y124.348000 Z0.200000 A21.438900
G1 X88.674000 Y124.073000 Z0.200000 A21.450140
G1 X88.674000 Y137.987000 Z0.200000 A21.701450
G1 X89.232000 Y138.413000 Z0.200000 A21.714140
G1 X89.232000 Y123.647000 Z0.200000 A21.980840
G1 X89.791000 Y122.960000 Z0.200000 A21.996840
G1 X89.791000 Y139.100000 Z0.200000 A22.288370
G0 X99.844 Y148.783 F7800.000
G1 X99.844000 Y135.129000 Z0.200000 A22.535000 F720.000000
G1 X100.402000 Y135.129000 Z0.200000 A22.545090
G1 X100.402000 Y148.783000 Z0.200000 A22.791720
G1 X100.960000 Y148.783000 Z0.200000 A22.801810
G1 X100.960000 Y135.129000 Z0.200000 A23.048440
G1 X101.519000 Y135.129000 Z0.200000 A23.058530
G1 X101.519000 Y148.783000 Z0.200000 A23.305160
G1 X102.077000 Y148.783000 Z0.200000 A23.315250
G1 X102.077000 Y135.129000 Z0.200000 A23.561880
G1 X102.636000 Y135.129000 Z0.200000 A23.571970
G1 X102.636000 Y148.783000 Z0.200000 A23.818600
G1 X103.194000 Y148.783000 Z0.200000 A23.828680
G1 X103.194000 Y135.129000 Z0.200000 A24.075320
G1 X103.753000 Y135.129000 Z0.200000 A24.085400
G1 X103.753000 Y148.783000 Z0.200000 A24.332030
G1 X104.311000 Y148.783000 Z0.200000 A24.342120
G1 X104.311000 Y135.129000 Z0.200000 A24.588750
G1 X104.870000 Y135.129000 Z0.200000 A24.598840
G1 X104.870000 Y148.783000 Z0.200000 A24.845470
G1 X105.428000 Y148.783000 Z0.200000 A24.855560
G1 X105.428000 Y135.129000 Z0.200000 A25.102190
G1 X105.987000 Y135.129000 Z0.200000 A25.112280
G1 X105.987000 Y148.783000 Z0.200000 A25.358910
G1 X106.545000 Y148.783000 Z0.200000 A25.369000
G1 X106.545000 Y135.129000 Z0.200000 A25.615630
G1 X107.104000 Y135.129000 Z0.200000 A25.625720
G1 X107.104000 Y148.783000 Z0.200000 A25.872350
G1 X107.662000 Y148.783000 Z0.200000 A25.882430
G1 X107.662000 Y135.129000 Z0.200000 A26.129070
G1 X108.221000 Y135.129000 Z0.200000 A26.139150
G1 X108.221000 Y148.783000 Z0.200000 A26.385780
G1 X108.779000 Y148.783000 Z0.200000 A26.395870
G1 X108.779000 Y135.129000 Z0.200000 A26.642500
G1 X109.338000 Y135.129000 Z0.200000 A26.652590
G1 X109.338000 Y148.783000 Z0.200000 A26.899220
G1 X109.896000 Y148.783000 Z0.200000 A26.909310
G1 X109.896000 Y135.129000 Z0.200000 A27.155940
G1 X110.455000 Y135.129000 Z0.200000 A27.166030
G1 X110.455000 Y148.783000 Z0.200000 A27.412660
G1 X111.013000 Y148.783000 Z0.200000 A27.422750
G1 X111.013000 Y135.129000 Z0.200000 A27.669380
G1 X111.572000 Y135.129000 Z0.200000 A27.679470
G1 X111.572000 Y148.783000 Z0.200000 A27.926100
G1 X112.130000 Y148.783000 Z0.200000 A27.936180
G1 X112.130000 Y135.129000 Z0.200000 A28.182810
G1 X112.689000 Y135.129000 Z0.200000 A28.192900
G1 X112.689000 Y148.783000 Z0.200000 A28.439530
G1 X113.247000 Y148.783000 Z0.200000 A28.449620
G1 X113.247000 Y135.129000 Z0.200000 A28.696250
G1 X113.806000 Y135.129000 Z0.200000 A28.706340
G1 X113.806000 Y148.783000 Z0.200000 A28.952970
G1 X114.364000 Y148.783000 Z0.200000 A28.963060
G1 X114.364000 Y135.129000 Z0.200000 A29.209690
G1 X114.923000 Y135.129000 Z0.200000 A29.219780
G1 X114.923000 Y148.783000 Z0.200000 A29.466410
G1 X115.481000 Y148.783000 Z0.200000 A29.476500
G1 X115.481000 Y113.277000 Z0.200000 A30.117830
G1 X114.923000 Y113.277000 Z0.200000 A30.127920
G1 X114.923000 Y125.536000 Z0.200000 A30.349350
G1 X114.364000 Y125.536000 Z0.200000 A30.359440
G1 X114.364000 Y113.277000 Z0.200000 A30.580870
G1 X113.806000 Y113.277000 Z0.200000 A30.590960
G1 X113.806000 Y125.536000 Z0.200000 A30.812400
G1 X113.247000 Y125.536000 Z0.200000 A30.822480
G1 X113.247000 Y113.277000 Z0.200000 A31.043920
G1 X112.689000 Y113.277000 Z0.200000 A31.054010
G1 X112.689000 Y125.536000 Z0.200000 A31.275440
G1 X112.130000 Y125.536000 Z0.200000 A31.285530
G1 X112.130000 Y113.277000 Z0.200000 A31.506960
G1 X111.572000 Y113.277000 Z0.200000 A31.517050
G1 X111.572000 Y125.536000 Z0.200000 A31.738480
G1 X111.013000 Y125.536000 Z0.200000 A31.748570
G1 X111.013000 Y113.277000 Z0.200000 A31.970010
G1 X110.455000 Y113.277000 Z0.200000 A31.980090
G1 X110.455000 Y125.536000 Z0.200000 A32.201530
G1 X109.896000 Y125.536000 Z0.200000 A32.211610
G1 X109.896000 Y113.277000 Z0.200000 A32.433050
G1 X109.338000 Y113.277000 Z0.200000 A32.443140
G1 X109.338000 Y125.536000 Z0.200000 A32.664570
G1 X108.779000 Y125.536000 Z0.200000 A32.674660
G1 X108.779000 Y113.277000 Z0.200000 A32.896090
G1 X108.221000 Y113.277000 Z0.200000 A32.906180
G1 X108.221000 Y125.536000 Z0.200000 A33.127610
G1 X107.662000 Y125.536000 Z0.200000 A33.137700
G1 X107.662000 Y113.277000 Z0.200000 A33.359140
G1 X107.104000 Y113.277000 Z0.200000 A33.369220
G1 X107.104000 Y125.536000 Z0.200000 A33.590660
G1 X106.545000 Y125.536000 Z0.200000 A33.600750
G1 X106.545000 Y113.277000 Z0.200000 A33.822180
G1 X105.987000 Y113.277000 Z0.200000 A33.832270
G1 X105.987000 Y125.536000 Z0.200000 A34.053700
G1 X105.428000 Y125.536000 Z0.200000 A34.063790
G1 X105.428000 Y113.277000 Z0.200000 A34.285220
G1 X104.870000 Y113.277000 Z0.200000 A34.295310
G1 X104.870000 Y125.536000 Z0.200000 A34.516750
G1 X104.311000 Y125.536000 Z0.200000 A34.526830
G1 X104.311000 Y113.277000 Z0.200000 A34.748270
G1 X103.753000 Y113.277000 Z0.200000 A34.758350
G1 X103.753000 Y125.536000 Z0.200000 A34.979790
G1 X103.194000 Y125.536000 Z0.200000 A34.989880
G1 X103.194000 Y113.277000 Z0.200000 A35.211310
G1 X102.636000 Y113.277000 Z0.200000 A35.221400
G1 X102.636000 Y125.536000 Z0.200000 A35.442830
G1 X102.077000 Y125.536000 Z0.200000 A35.452920
G1 X102.077000 Y113.277000 Z0.200000 A35.674350
G1 X101.519000 Y113.277000 Z0.200000 A35.684440
G1 X101.519000 Y125.536000 Z0.200000 A35.905880
G1 X100.960000 Y125.536000 Z0.200000 A35.915960
G1 X100.960000 Y113.277000 Z0.200000 A36.137400
G1 X100.402000 Y113.277000 Z0.200000 A36.147490
G1 X100.402000 Y125.536000 Z0.200000 A36.368920
G1 X99.844000 Y125.536000 Z0.200000 A36.379010
G1 X99.844000 Y113.277000 Z0.200000 A36.600440
G1 X99.285000 Y113.277000 Z0.200000 A36.610530
G1 X99.285000 Y148.783000 Z0.200000 A37.251860
G1 X98.727000 Y148.783000 Z0.200000 A37.261950
G1 X98.727000 Y113.277000 Z0.200000 A37.903290
G1 X98.168000 Y113.277000 Z0.200000 A37.913370
G1 X98.168000 Y148.783000 Z0.200000 A38.554710
G1 X97.610000 Y148.783000 Z0.200000 A38.564800
G1 X97.610000 Y113.277000 Z0.200000 A39.206130
G1 X97.051000 Y113.277000 Z0.200000 A39.216220
G1 X97.051000 Y148.783000 Z0.200000 A39.857560
G1 X96.493000 Y148.783000 Z0.200000 A39.867640
G1 X96.493000 Y113.277000 Z0.200000 A40.508980
G1 X95.934000 Y113.277000 Z0.200000 A40.519070
G1 X95.934000 Y148.783000 Z0.200000 A41.160400
G1 X95.376000 Y148.783000 Z0.200000 A41.170490
G1 X95.376000 Y113.277000 Z0.200000 A41.811830
G1 X94.817000 Y113.277000 Z0.200000 A41.821910
G1 X94.817000 Y148.783000 Z0.200000 A42.463250
G1 X94.259000 Y148.783000 Z0.200000 A42.473340
G1 X94.259000 Y113.277000 Z0.200000 A43.114670
G1 X93.700000 Y113.277000 Z0.200000 A43.124760
G1 X93.700000 Y148.783000 Z0.200000 A43.766100
G1 X93.142000 Y148.783000 Z0.200000 A43.776180
G1 X93.142000 Y113.277000 Z0.200000 A44.417520
G1 X92.583000 Y113.277000 Z0.200000 A44.427610
G1 X92.583000 Y148.783000 Z0.200000 A45.068940
G1 X92.025000 Y148.783000 Z0.200000 A45.079030
G1 X92.025000 Y113.277000 Z0.200000 A45.720360
G1 X91.466000 Y113.277000 Z0.200000 A45.730450
G1 X91.466000 Y148.783000 Z0.200000 A46.371790
G1 X90.908000 Y148.783000 Z0.200000 A46.381870
G1 X90.908000 Y113.277000 Z0.200000 A47.023210
G0 X127.209 Y113.277 F7800.000
G1 X127.209000 Y119.415000 Z0.200000 A47.134090 F720.000000
G1 X127.768000 Y118.728000 Z0.200000 A47.150080
G1 X127.768000 Y113.277000 Z0.200000 A47.248550
G1 X128.326000 Y113.277000 Z0.200000 A47.258630
G1 X128.326000 Y118.302000 Z0.200000 A47.349400
G1 X128.885000 Y118.027000 Z0.200000 A47.360640
G1 X128.885000 Y113.277000 Z0.200000 A47.446440
G1 X129.443000 Y113.277000 Z0.200000 A47.456530
G1 X129.443000 Y117.864000 Z0.200000 A47.539390
G1 X130.002000 Y117.806000 Z0.200000 A47.549540
G1 X130.002000 Y113.277000 Z0.200000 A47.631340
G1 X130.560000 Y113.277000 Z0.200000 A47.641430
G1 X130.560000 Y117.838000 Z0.200000 A47.723830
G1 X131.119000 Y117.964000 Z0.200000 A47.734160
G1 X131.119000 Y113.277000 Z0.200000 A47.818820
G1 X131.677000 Y113.277000 Z0.200000 A47.828910
G1 X131.677000 Y118.197000 Z0.200000 A47.917780
G1 X132.236000 Y118.568000 Z0.200000 A47.929890
G1 X132.236000 Y113.277000 Z0.200000 A48.025470
G1 X132.794000 Y113.277000 Z0.200000 A48.035560
G1 X132.794000 Y119.156000 Z0.200000 A48.141760
G1 X133.353000 Y120.293000 Z0.200000 A48.164640
G1 X133.353000 Y113.277000 Z0.200000 A48.291390
G1 X133.911000 Y113.277000 Z0.200000 A48.301470
G1 X133.911000 Y148.783000 Z0.200000 A48.942810
G1 X133.353000 Y148.783000 Z0.200000 A48.952900
G1 X133.353000 Y141.767000 Z0.200000 A49.079640
G1 X132.794000 Y142.904000 Z0.200000 A49.102520
G1 X132.794000 Y148.783000 Z0.200000 A49.208720
G1 X132.236000 Y148.783000 Z0.200000 A49.218810
G1 X132.236000 Y143.492000 Z0.200000 A49.314390
G1 X131.677000 Y143.863000 Z0.200000 A49.326500
G1 X131.677000 Y148.783000 Z0.200000 A49.415370
G1 X131.119000 Y148.783000 Z0.200000 A49.425460
G1 X131.119000 Y144.096000 Z0.200000 A49.510120
G1 X130.560000 Y144.222000 Z0.200000 A49.520460
G1 X130.560000 Y148.783000 Z0.200000 A49.602850
G1 X130.002000 Y148.783000 Z0.200000 A49.612940
G1 X130.002000 Y144.254000 Z0.200000 A49.694750
G1 X129.443000 Y144.195000 Z0.200000 A49.704890
G1 X129.443000 Y148.783000 Z0.200000 A49.787760
G1 X128.885000 Y148.783000 Z0.200000 A49.797850
G1 X128.885000 Y144.033000 Z0.200000 A49.883640
G1 X128.326000 Y143.758000 Z0.200000 A49.894890
G1 X128.326000 Y148.783000 Z0.200000 A49.985650
G1 X127.768000 Y148.783000 Z0.200000 A49.995740
G1 X127.768000 Y143.332000 Z0.200000 A50.094200
G1 X127.209000 Y142.645000 Z0.200000 A50.110200
G1 X127.209000 Y148.783000 Z0.200000 A50.221080
G1 X126.651000 Y148.783000 Z0.200000 A50.231160
G1 X126.651000 Y113.277000 Z0.200000 A50.872500
