; generated by Slic3r 0.9.9 on 2013-04-06 at 18:13:20

; layer_height = 0.2
; perimeters = 3
; top_solid_layers = 3
; bottom_solid_layers = 3
; fill_density = 0.25
; perimeter_speed = 30
; infill_speed = 40
; travel_speed = 130
; nozzle_diameter = 0.4
; filament_diameter = 2.95
; extrusion_multiplier = 1.105263
; perimeters extrusion width = 0.67mm
; infill extrusion width = 0.67mm
; solid infill extrusion width = 0.67mm
; top infill extrusion width = 0.67mm
; first layer extrusion width = 0.80mm

G21 ; set units to millimeters
M190 P115 ; wait for bed temperature to be reached
M104 P210 ; set temperature
G92 A0                  ; Reset A to 0
G40                        ; Cancel cutter compensation
G64 P0.1                ; Path Blend within .1mm
G0 X108.5 Y200    ; Move to plate
M109 P210 ; wait for temperature to be reached
G90 ; use absolute coordinates
G0 Z0.400 F7800.000
G0 Z0.900 F1620.000 A-1.00000
G0 X55.671 Y101.074 F7800.000
G0 Z0.400
G0 F5400.000 A0.00000
G1 X56.421000 Y100.704000 Z0.400000 A0.038630 F540.000000
G1 X133.281000 Y78.264000 Z0.400000 A3.737470
G1 X134.341000 Y78.124000 Z0.400000 A3.786860
G3 X143.741000 Y82.534000 Z0.400000 A4.288570 I0.8617 J10.3865
G1 X163.241000 Y110.384000 Z0.400000 A5.859090
G3 X160.871000 Y124.764000 Z0.400000 A6.603990 I-8.5560 J5.9752
G1 X143.381000 Y137.014000 Z0.400000 A7.590390
G3 X135.531000 Y138.734000 Z0.400000 A7.971320 I-5.9469 J-8.3678
G1 X60.361000 Y124.794000 Z0.400000 A11.502940
G3 X51.871000 Y114.554000 Z0.400000 A12.170330 I1.8686 J-10.1888
G1 X51.871000 Y107.554000 Z0.400000 A12.493690
G3 X55.578000 Y101.126000 Z0.400000 A12.852460 I7.3927 J-0.0196
G0 X55.931 Y101.744 F7800.000
G1 X56.661000 Y101.384000 Z0.400000 A12.890060 F540.000000
G1 X132.701000 Y79.124000 Z0.400000 A16.550130
G1 X133.691000 Y78.914000 Z0.400000 A16.596880
G3 X143.151000 Y82.944000 Z0.400000 A17.097090 I1.4908 J9.6186
G1 X162.651000 Y110.794000 Z0.400000 A18.667600
G3 X160.441000 Y124.194000 Z0.400000 A19.362180 I-7.8591 J5.5861
G1 X142.971000 Y136.434000 Z0.400000 A20.347550
G3 X135.661000 Y138.034000 Z0.400000 A20.702240 I-5.5328 J-7.7792
G1 X60.491000 Y124.094000 Z0.400000 A24.233850
G3 X52.591000 Y114.784000 Z0.400000 A24.844920 I1.6941 J-9.4443
G1 X52.591000 Y107.284000 Z0.400000 A25.191380
G3 X55.840000 Y101.799000 Z0.400000 A25.498080 I6.6245 J0.2192
G0 Z0.900 F1620.000 A24.49808
G0 X58.857 Y106.487 F7800.000
G0 Z0.400
G0 F5400.000 A25.49808
G1 X113.529000 Y106.487000 Z0.400000 A28.023580 F540.000000
G3 X123.165000 Y99.829000 Z0.400000 A28.564810 I39.4109 J46.7366
G1 X123.537000 Y99.684000 Z0.400000 A28.583270
G3 X128.156000 Y101.199000 Z0.400000 A28.823810 I1.2919 J3.8600
G1 X139.387000 Y117.239000 Z0.400000 A29.728350
G1 X142.547000 Y115.027000 Z0.400000 A29.906540
G1 X127.668000 Y93.776000 Z0.400000 A31.104910
G3 X128.664000 Y88.125000 Z0.400000 A31.398990 I3.3290 J-2.3265
G1 X132.874000 Y85.177000 Z0.400000 A31.636370
G3 X138.525000 Y86.174000 Z0.400000 A31.930460 I2.3243 J3.3395
G1 X158.057000 Y114.068000 Z0.400000 A33.503490
G3 X157.046000 Y119.698000 Z0.400000 A33.796350 I-3.3555 J2.3032
G1 X139.708000 Y131.837000 Z0.400000 A34.774060
G3 X134.078000 Y130.826000 Z0.400000 A35.066920 I-2.3044 J-3.3491
G1 X128.222000 Y122.464000 Z0.400000 A35.538520
G2 X120.858000 Y118.630000 Z0.400000 A35.937100 I-7.3374 J5.1039
G1 X62.288000 Y118.630000 Z0.400000 A38.642670
G3 X58.230000 Y114.572000 Z0.400000 A38.936750 I0.0118 J-4.0698
G1 X58.230000 Y107.115000 Z0.400000 A39.281210
G1 X58.782000 Y106.563000 Z0.400000 A39.317260
G0 X59.153 Y107.202 F7800.000
G1 X113.754000 Y107.202000 Z0.400000 A41.839500 F540.000000
G3 X123.469000 Y100.476000 Z0.400000 A42.385470 I39.3137 J46.4054
G1 X123.776000 Y100.358000 Z0.400000 A42.400690
G3 X127.571000 Y101.609000 Z0.400000 A42.598330 I1.0553 J3.1803
G1 X139.212000 Y118.234000 Z0.400000 A43.535850
G1 X143.542000 Y115.202000 Z0.400000 A43.780030
G1 X128.258000 Y93.374000 Z0.400000 A45.010980
G3 X129.081000 Y88.705000 Z0.400000 A45.254070 I2.7440 J-1.9234
G1 X133.276000 Y85.767000 Z0.400000 A45.490640
G3 X137.945000 Y86.590000 Z0.400000 A45.733730 I1.9221 J2.7513
G1 X157.452000 Y114.449000 Z0.400000 A47.304740
G3 X156.629000 Y119.118000 Z0.400000 A47.547820 I-2.7505 J1.9222
G1 X139.320000 Y131.238000 Z0.400000 A48.523910
G3 X134.658000 Y130.410000 Z0.400000 A48.766590 I-1.9149 J-2.7566
G1 X128.795000 Y122.036000 Z0.400000 A49.238770
G2 X120.879000 Y117.916000 Z0.400000 A49.667070 I-7.9065 J5.5265
G1 X62.297000 Y117.916000 Z0.400000 A52.373230
G3 X58.944000 Y114.563000 Z0.400000 A52.616310 I0.0034 J-3.3564
G1 X58.944000 Y107.411000 Z0.400000 A52.946710
G1 X59.077000 Y107.277000 Z0.400000 A52.955420
G0 X59.658 Y107.916 F7800.000
G1 X113.979000 Y107.916000 Z0.400000 A55.464740 F378.000000
G1 X123.764000 Y101.127000 Z0.400000 A56.015030
G1 X124.007000 Y101.034000 Z0.400000 A56.027010
G3 X126.999000 Y102.037000 Z0.400000 A56.183150 I0.8252 J2.5025
G1 X139.037000 Y119.229000 Z0.400000 A57.152650
G1 X144.537000 Y115.378000 Z0.400000 A57.462810
G1 X128.850000 Y92.975000 Z0.400000 A58.726140
G3 X129.290000 Y89.446000 Z0.400000 A58.906230 I2.1598 J-1.5226
G1 X133.403000 Y86.550000 Z0.400000 A59.138620
G3 X137.368000 Y87.011000 Z0.400000 A59.346430 I1.7764 J2.0034
G1 X156.860000 Y114.848000 Z0.400000 A60.916220
G3 X156.208000 Y118.541000 Z0.400000 A61.108700 I-2.1618 J1.5224
G1 X138.928000 Y130.640000 Z0.400000 A62.083160
G3 X135.235000 Y129.989000 Z0.400000 A62.275640 I-1.5233 J-2.1592
G1 X129.368000 Y121.609000 Z0.400000 A62.748200
G2 X120.900000 Y117.202000 Z0.400000 A63.206230 I-8.4743 J5.9442
G1 X62.310000 Y117.202000 Z0.400000 A65.912770
G3 X59.658000 Y114.550000 Z0.400000 A66.105240 I-0.0072 J-2.6448
G1 X59.658000 Y108.023000 Z0.400000 A66.406750
G0 X60.277 Y108.273 F7800.000
G0 X60.372 Y108.630
G1 X114.204000 Y108.630000 Z0.400000 A68.893480 F540.000000
G1 X124.052000 Y101.781000 Z0.400000 A69.447670
G1 X124.411000 Y101.664000 Z0.400000 A69.465130
G3 X126.424000 Y102.461000 Z0.400000 A69.571070 I0.4206 J1.8783
G1 X138.861000 Y120.223000 Z0.400000 A70.572760
G1 X145.531000 Y115.553000 Z0.400000 A70.948890
G1 X129.445000 Y92.580000 Z0.400000 A72.244400
G3 X129.755000 Y89.989000 Z0.400000 A72.376580 I1.5678 J-1.1265
G1 X134.253000 Y86.840000 Z0.400000 A72.630200
G3 X136.793000 Y87.435000 Z0.400000 A72.762360 I0.9476 J1.6736
G1 X156.264000 Y115.243000 Z0.400000 A74.330530
G3 X155.784000 Y117.966000 Z0.400000 A74.472610 I-1.5681 J1.1274
G1 X138.533000 Y130.045000 Z0.400000 A75.445460
G3 X135.942000 Y129.735000 Z0.400000 A75.577590 I-1.1265 J-1.5678
G1 X129.940000 Y121.182000 Z0.400000 A76.060280
G2 X120.922000 Y116.487000 Z0.400000 A76.548030 I-9.0289 J6.3341
G1 X62.112000 Y116.477000 Z0.400000 A79.264690
G3 X60.372000 Y114.532000 Z0.400000 A79.396850 I0.1897 J-1.9205
G1 X60.372000 Y108.737000 Z0.400000 A79.664560
G0 X61.087 Y109.344 F7800.000
G1 X114.430000 Y109.344000 Z0.400000 A82.128690 F540.000000
G1 X124.340000 Y102.436000 Z0.400000 A82.686820
G1 X124.566000 Y102.362000 Z0.400000 A82.697790
G3 X125.849000 Y102.885000 Z0.400000 A82.765700 I0.2653 J1.1843
G1 X138.686000 Y121.218000 Z0.400000 A83.799560
G1 X146.526000 Y115.728000 Z0.400000 A84.241680
G1 X130.040000 Y92.185000 Z0.400000 A85.569360
G3 X130.221000 Y90.532000 Z0.400000 A85.653640 I0.9752 J-0.7296
G1 X134.465000 Y87.550000 Z0.400000 A85.893270
G3 X136.218000 Y87.859000 Z0.400000 A85.985130 I0.7310 J0.9799
G1 X155.669000 Y115.638000 Z0.400000 A87.551690
G3 X155.360000 Y117.391000 Z0.400000 A87.643550 I-0.9768 J0.7316
G1 X138.138000 Y129.450000 Z0.400000 A88.614770
G3 X136.385000 Y129.141000 Z0.400000 A88.706630 I-0.7311 J-0.9793
G1 X130.513000 Y120.755000 Z0.400000 A89.179550
G2 X120.943000 Y115.773000 Z0.400000 A89.697030 I-9.5920 J6.7428
G1 X62.182000 Y115.765000 Z0.400000 A92.411440
G3 X61.087000 Y114.515000 Z0.400000 A92.495720 I0.1179 J-1.2079
G1 X61.087000 Y109.451000 Z0.400000 A92.729630
G0 X61.604 Y109.936 F7800.000
G1 X61.604000 Y109.862000 Z0.400000 A92.733070 F720.000000
G1 X62.320000 Y109.862000 Z0.400000 A92.766230
G1 X62.320000 Y115.249000 Z0.400000 A93.015710
G1 X63.036000 Y115.249000 Z0.400000 A93.048860
G1 X63.036000 Y109.862000 Z0.400000 A93.298340
G1 X63.752000 Y109.862000 Z0.400000 A93.331490
G1 X63.752000 Y115.249000 Z0.400000 A93.580980
G1 X64.468000 Y115.249000 Z0.400000 A93.614130
G1 X64.468000 Y109.862000 Z0.400000 A93.863620
G1 X65.184000 Y109.862000 Z0.400000 A93.896770
G1 X65.184000 Y115.249000 Z0.400000 A94.146270
G1 X65.900000 Y115.249000 Z0.400000 A94.179420
G1 X65.900000 Y109.862000 Z0.400000 A94.428920
G1 X66.616000 Y109.862000 Z0.400000 A94.462070
G1 X66.616000 Y115.249000 Z0.400000 A94.711570
G1 X67.332000 Y115.249000 Z0.400000 A94.744720
G1 X67.332000 Y109.862000 Z0.400000 A94.994230
G1 X68.048000 Y109.862000 Z0.400000 A95.027380
G1 X68.048000 Y115.250000 Z0.400000 A95.276890
G1 X68.764000 Y115.250000 Z0.400000 A95.310040
G1 X68.764000 Y109.862000 Z0.400000 A95.559550
G1 X69.480000 Y109.862000 Z0.400000 A95.592710
G1 X69.480000 Y115.250000 Z0.400000 A95.842220
G1 X70.196000 Y115.250000 Z0.400000 A95.875380
G1 X70.196000 Y109.862000 Z0.400000 A96.124890
G1 X70.912000 Y109.862000 Z0.400000 A96.158050
G1 X70.912000 Y115.250000 Z0.400000 A96.407570
G1 X71.628000 Y115.250000 Z0.400000 A96.440720
G1 X71.628000 Y109.862000 Z0.400000 A96.690250
G1 X72.343000 Y109.862000 Z0.400000 A96.723400
G1 X72.343000 Y115.250000 Z0.400000 A96.972930
G1 X73.059000 Y115.250000 Z0.400000 A97.006090
G1 X73.059000 Y109.862000 Z0.400000 A97.255620
G1 X73.775000 Y109.862000 Z0.400000 A97.288780
G1 X73.775000 Y115.250000 Z0.400000 A97.538310
G1 X74.491000 Y115.250000 Z0.400000 A97.571470
G1 X74.491000 Y109.862000 Z0.400000 A97.821010
G1 X75.207000 Y109.862000 Z0.400000 A97.854160
G1 X75.207000 Y115.250000 Z0.400000 A98.103710
G1 X75.923000 Y115.250000 Z0.400000 A98.136860
G1 X75.923000 Y109.862000 Z0.400000 A98.386410
G1 X76.639000 Y109.862000 Z0.400000 A98.419560
G1 X76.639000 Y115.251000 Z0.400000 A98.669120
G1 X77.355000 Y115.251000 Z0.400000 A98.702270
G1 X77.355000 Y109.862000 Z0.400000 A98.951830
G1 X78.071000 Y109.862000 Z0.400000 A98.984980
G1 X78.071000 Y115.251000 Z0.400000 A99.234540
G1 X78.787000 Y115.251000 Z0.400000 A99.267690
G1 X78.787000 Y109.862000 Z0.400000 A99.517260
G1 X79.503000 Y109.862000 Z0.400000 A99.550410
G1 X79.503000 Y115.251000 Z0.400000 A99.799980
G1 X80.219000 Y115.251000 Z0.400000 A99.833130
G1 X80.219000 Y109.862000 Z0.400000 A100.082710
G1 X80.935000 Y109.862000 Z0.400000 A100.115860
G1 X80.935000 Y115.251000 Z0.400000 A100.365430
G1 X81.651000 Y115.251000 Z0.400000 A100.398590
G1 X81.651000 Y109.862000 Z0.400000 A100.648170
G1 X82.367000 Y109.862000 Z0.400000 A100.681320
G1 X82.367000 Y115.251000 Z0.400000 A100.930900
G1 X83.083000 Y115.251000 Z0.400000 A100.964060
G1 X83.083000 Y109.862000 Z0.400000 A101.213640
G1 X83.798000 Y109.862000 Z0.400000 A101.246800
G1 X83.798000 Y115.251000 Z0.400000 A101.496390
G1 X84.514000 Y115.251000 Z0.400000 A101.529540
G1 X84.514000 Y109.862000 Z0.400000 A101.779140
G1 X85.230000 Y109.862000 Z0.400000 A101.812290
G1 X85.230000 Y115.252000 Z0.400000 A102.061890
G1 X85.946000 Y115.252000 Z0.400000 A102.095040
G1 X85.946000 Y109.862000 Z0.400000 A102.344650
G1 X86.662000 Y109.862000 Z0.400000 A102.377800
G1 X86.662000 Y115.252000 Z0.400000 A102.627400
G1 X87.378000 Y115.252000 Z0.400000 A102.660560
G1 X87.378000 Y109.862000 Z0.400000 A102.910170
G1 X88.094000 Y109.862000 Z0.400000 A102.943320
G1 X88.094000 Y115.252000 Z0.400000 A103.192940
G1 X88.810000 Y115.252000 Z0.400000 A103.226090
G1 X88.810000 Y109.862000 Z0.400000 A103.475710
G1 X89.526000 Y109.862000 Z0.400000 A103.508860
G1 X89.526000 Y115.252000 Z0.400000 A103.758480
G1 X90.242000 Y115.252000 Z0.400000 A103.791630
G1 X90.242000 Y109.862000 Z0.400000 A104.041260
G1 X90.958000 Y109.862000 Z0.400000 A104.074410
G1 X90.958000 Y115.252000 Z0.400000 A104.324040
G1 X91.674000 Y115.252000 Z0.400000 A104.357200
G1 X91.674000 Y109.862000 Z0.400000 A104.606830
G1 X92.390000 Y109.862000 Z0.400000 A104.639980
G1 X92.390000 Y115.252000 Z0.400000 A104.889620
G1 X93.106000 Y115.252000 Z0.400000 A104.922770
G1 X93.106000 Y109.862000 Z0.400000 A105.172410
G1 X93.822000 Y109.862000 Z0.400000 A105.205560
G1 X93.822000 Y115.252000 Z0.400000 A105.455210
G1 X94.537000 Y115.253000 Z0.400000 A105.488360
G1 X94.537000 Y109.862000 Z0.400000 A105.738010
G1 X95.253000 Y109.862000 Z0.400000 A105.771160
G1 X95.253000 Y115.253000 Z0.400000 A106.020810
G1 X95.969000 Y115.253000 Z0.400000 A106.053970
G1 X95.969000 Y109.862000 Z0.400000 A106.303620
G1 X96.685000 Y109.862000 Z0.400000 A106.336780
G1 X96.685000 Y115.253000 Z0.400000 A106.586440
G1 X97.401000 Y115.253000 Z0.400000 A106.619590
G1 X97.401000 Y109.862000 Z0.400000 A106.869250
G1 X98.117000 Y109.862000 Z0.400000 A106.902410
G1 X98.117000 Y115.253000 Z0.400000 A107.152070
G1 X98.833000 Y115.253000 Z0.400000 A107.185230
G1 X98.833000 Y109.862000 Z0.400000 A107.434900
G1 X99.549000 Y109.862000 Z0.400000 A107.468050
G1 X99.549000 Y115.253000 Z0.400000 A107.717720
G1 X100.265000 Y115.253000 Z0.400000 A107.750880
G1 X100.265000 Y109.862000 Z0.400000 A108.000550
G1 X100.981000 Y109.862000 Z0.400000 A108.033710
G1 X100.981000 Y115.253000 Z0.400000 A108.283390
G1 X101.697000 Y115.253000 Z0.400000 A108.316540
G1 X101.697000 Y109.862000 Z0.400000 A108.566230
G1 X102.413000 Y109.862000 Z0.400000 A108.599380
G1 X102.413000 Y115.253000 Z0.400000 A108.849070
G1 X103.129000 Y115.254000 Z0.400000 A108.882230
G1 X103.129000 Y109.862000 Z0.400000 A109.131920
G1 X103.845000 Y109.862000 Z0.400000 A109.165070
G1 X103.845000 Y115.254000 Z0.400000 A109.414770
G1 X104.561000 Y115.254000 Z0.400000 A109.447920
G1 X104.561000 Y109.862000 Z0.400000 A109.697620
G1 X105.277000 Y109.862000 Z0.400000 A109.730780
G1 X105.277000 Y115.254000 Z0.400000 A109.980480
G1 X105.992000 Y115.254000 Z0.400000 A110.013630
G1 X105.992000 Y109.862000 Z0.400000 A110.263340
G1 X106.708000 Y109.862000 Z0.400000 A110.296500
G1 X106.708000 Y115.254000 Z0.400000 A110.546210
G1 X107.424000 Y115.254000 Z0.400000 A110.579360
G1 X107.424000 Y109.862000 Z0.400000 A110.829080
G1 X108.140000 Y109.862000 Z0.400000 A110.862230
G1 X108.140000 Y115.254000 Z0.400000 A111.111950
G1 X108.856000 Y115.254000 Z0.400000 A111.145100
G1 X108.856000 Y109.862000 Z0.400000 A111.394830
G1 X109.572000 Y109.862000 Z0.400000 A111.427980
G1 X109.572000 Y115.254000 Z0.400000 A111.677710
G1 X110.288000 Y115.254000 Z0.400000 A111.710860
G1 X110.288000 Y109.862000 Z0.400000 A111.960590
G1 X111.004000 Y109.862000 Z0.400000 A111.993750
G1 X111.004000 Y115.254000 Z0.400000 A112.243480
G1 X111.720000 Y115.255000 Z0.400000 A112.276630
G1 X111.720000 Y109.862000 Z0.400000 A112.526370
G1 X112.436000 Y109.862000 Z0.400000 A112.559530
G1 X112.436000 Y115.255000 Z0.400000 A112.809270
G1 X113.152000 Y115.255000 Z0.400000 A112.842420
G1 X113.152000 Y109.862000 Z0.400000 A113.092170
G1 X113.868000 Y109.862000 Z0.400000 A113.125320
G1 X113.868000 Y115.255000 Z0.400000 A113.375070
G1 X114.584000 Y115.255000 Z0.400000 A113.408230
G1 X114.584000 Y109.862000 Z0.400000 A113.657980
G1 X115.300000 Y109.367000 Z0.400000 A113.698280
G1 X115.300000 Y115.255000 Z0.400000 A113.970960
G1 X116.016000 Y115.255000 Z0.400000 A114.004110
G1 X116.016000 Y108.865000 Z0.400000 A114.300010
G1 X116.731000 Y108.364000 Z0.400000 A114.340480
G1 X116.731000 Y115.255000 Z0.400000 A114.659600
G1 X117.447000 Y115.255000 Z0.400000 A114.692750
G1 X117.447000 Y107.863000 Z0.400000 A115.035080
G1 X118.163000 Y107.362000 Z0.400000 A115.075560
G1 X118.163000 Y115.255000 Z0.400000 A115.441110
G1 X118.879000 Y115.255000 Z0.400000 A115.474260
G1 X118.879000 Y106.860000 Z0.400000 A115.863030
