; generated by Slic3r 0.9.9 on 2013-04-06 at 16:42:55

; layer_height = 0.2
; perimeters = 3
; top_solid_layers = 3
; bottom_solid_layers = 3
; fill_density = 0.25
; perimeter_speed = 30
; infill_speed = 40
; travel_speed = 130
; nozzle_diameter = 0.4
; filament_diameter = 2.95
; extrusion_multiplier = 1.105263
; perimeters extrusion width = 0.67mm
; infill extrusion width = 0.67mm
; solid infill extrusion width = 0.67mm
; top infill extrusion width = 0.67mm
; first layer extrusion width = 0.80mm

G21 ; set units to millimeters
M190 P115 ; wait for bed temperature to be reached
M104 P210 ; set temperature
G92 A0                  ; Reset A to 0
G40                        ; Cancel cutter compensation
G64 P0.1                ; Path Blend within .1mm
G0 X108.5 Y200    ; Move to plate
M109 P210 ; wait for temperature to be reached
G90 ; use absolute coordinates
G0 Z0.400 F7800.000
G0 Z0.900 F1620.000 A-1.00000
G0 X74.724 Y80.850 F7800.000
G0 Z0.400
G0 F5400.000 A0.00000
G1 X74.944000 Y80.650000 Z0.400000 A0.013730 F540.000000
G3 X84.814000 Y78.530000 Z0.400000 A0.500120 I6.8611 J7.9074
G1 X159.774000 Y100.420000 Z0.400000 A4.107460
G3 X165.124000 Y107.550000 Z0.400000 A4.549000 I-1.9342 J7.0235
G1 X165.124000 Y114.550000 Z0.400000 A4.872360
G3 X156.624000 Y124.800000 Z0.400000 A5.539140 I-10.4223 J0.0065
G1 X81.464000 Y138.730000 Z0.400000 A9.070220
G3 X73.864000 Y137.190000 Z0.400000 A9.437070 I-1.8862 J-10.2148
G1 X56.314000 Y124.900000 Z0.400000 A10.426790
G3 X53.754000 Y110.380000 Z0.400000 A11.183160 I5.8951 J-8.5250
G1 X73.264000 Y82.530000 Z0.400000 A12.753930
G3 X74.649000 Y80.926000 Z0.400000 A12.851960 I8.2376 J5.7129
G0 X75.204 Y81.380 F7800.000
G1 X75.424000 Y81.180000 Z0.400000 A12.865700 F540.000000
G3 X84.314000 Y79.130000 Z0.400000 A13.304150 I6.3737 J7.3389
G1 X159.574000 Y101.110000 Z0.400000 A16.925960
G3 X164.404000 Y107.280000 Z0.400000 A17.312460 I-1.8319 J6.4096
G1 X164.394000 Y115.070000 Z0.400000 A17.672310
G3 X156.494000 Y124.100000 Z0.400000 A18.269410 I-9.6602 J-0.4806
G1 X81.004000 Y138.090000 Z0.400000 A21.815980
G3 X74.244000 Y136.590000 Z0.400000 A22.142760 I-1.4265 J-9.5538
G1 X56.724000 Y124.320000 Z0.400000 A23.130820
G3 X54.334000 Y110.790000 Z0.400000 A23.835540 I5.5324 J-7.9534
G1 X73.844000 Y82.940000 Z0.400000 A25.406320
G3 X75.129000 Y81.456000 Z0.400000 A25.497120 I7.6969 J5.3664
G0 Z0.900 F1620.000 A24.49712
G0 X80.964 Y87.644 F7800.000
G0 Z0.400
G0 F5400.000 A25.49712
G1 X81.151000 Y87.497000 Z0.400000 A25.508100 F540.000000
G3 X82.535000 Y87.550000 Z0.400000 A25.575970 I0.6535 J1.0306
G1 X86.779000 Y90.532000 Z0.400000 A25.815610
G3 X86.960000 Y92.185000 Z0.400000 A25.899850 I-0.7907 J0.9230
G1 X70.474000 Y115.728000 Z0.400000 A27.227550
G1 X78.314000 Y121.218000 Z0.400000 A27.669660
G1 X91.151000 Y102.885000 Z0.400000 A28.703520
G3 X92.904000 Y102.575000 Z0.400000 A28.795390 I1.0222 J0.6691
G1 X102.570000 Y109.344000 Z0.400000 A29.340500
G1 X155.913000 Y109.344000 Z0.400000 A31.804640
G1 X155.913000 Y114.515000 Z0.400000 A32.043500
G3 X154.655000 Y115.773000 Z0.400000 A32.135300 I-1.2200 J0.0380
G1 X96.057000 Y115.773000 Z0.400000 A34.842200
G2 X86.487000 Y120.755000 Z0.400000 A35.359670 I0.0271 J11.7346
G1 X80.515000 Y129.270000 Z0.400000 A35.840110
G3 X78.862000 Y129.450000 Z0.400000 A35.924360 I-0.9227 J-0.7935
G1 X61.640000 Y117.391000 Z0.400000 A36.895580
G3 X61.331000 Y115.638000 Z0.400000 A36.987370 I0.6703 J-1.0219
G1 X80.890000 Y87.722000 Z0.400000 A38.561980
G0 X80.339 Y87.265 F7800.000
G1 X80.469000 Y87.127000 Z0.400000 A38.570720 F540.000000
G3 X82.747000 Y86.840000 Z0.400000 A38.684180 I1.3323 J1.3905
G1 X87.245000 Y89.989000 Z0.400000 A38.937800
G3 X87.555000 Y92.580000 Z0.400000 A39.069960 I-1.2578 J1.4645
G1 X71.469000 Y115.553000 Z0.400000 A40.365470
G1 X78.139000 Y120.223000 Z0.400000 A40.741610
G1 X90.576000 Y102.461000 Z0.400000 A41.743290
G3 X93.299000 Y101.980000 Z0.400000 A41.885380 I1.5962 J1.0881
G1 X102.796000 Y108.630000 Z0.400000 A42.420910
G1 X156.628000 Y108.630000 Z0.400000 A44.907630
G1 X156.628000 Y114.532000 Z0.400000 A45.180290
G3 X154.673000 Y116.487000 Z0.400000 A45.322400 I-1.9311 J0.0239
G1 X96.078000 Y116.487000 Z0.400000 A48.029120
G2 X87.060000 Y121.182000 Z0.400000 A48.516870 I0.0172 J11.0413
G1 X81.058000 Y129.735000 Z0.400000 A48.999550
G3 X78.467000 Y130.045000 Z0.400000 A49.131740 I-1.4634 J-1.2483
G1 X61.216000 Y117.966000 Z0.400000 A50.104580
G3 X60.736000 Y115.243000 Z0.400000 A50.246680 I1.0881 J-1.5956
G1 X80.273000 Y87.349000 Z0.400000 A51.819860
G0 X79.632 Y87.011 F7800.000
G1 X79.796000 Y86.799000 Z0.400000 A51.832240 F378.000000
G3 X83.325000 Y86.360000 Z0.400000 A52.012330 I2.0058 J1.7205
G1 X87.710000 Y89.446000 Z0.400000 A52.260060
G3 X88.150000 Y92.975000 Z0.400000 A52.440150 I-1.7178 J2.0061
G1 X72.463000 Y115.378000 Z0.400000 A53.703480
G1 X77.963000 Y119.229000 Z0.400000 A54.013640
G1 X90.001000 Y102.037000 Z0.400000 A54.983140
G3 X93.694000 Y101.385000 Z0.400000 A55.175620 I2.1704 J1.5088
G1 X103.021000 Y107.916000 Z0.400000 A55.701560
G1 X157.342000 Y107.916000 Z0.400000 A58.210870
G1 X157.342000 Y114.550000 Z0.400000 A58.517330
G3 X154.690000 Y117.202000 Z0.400000 A58.709800 I-2.6441 J0.0079
G1 X96.100000 Y117.202000 Z0.400000 A61.416350
G2 X87.632000 Y121.609000 Z0.400000 A61.874370 I-0.0040 J10.3314
G1 X81.765000 Y129.989000 Z0.400000 A62.346940
G3 X78.072000 Y130.640000 Z0.400000 A62.539410 I-2.1698 J-1.5086
G1 X60.792000 Y118.541000 Z0.400000 A63.513880
G3 X60.140000 Y114.848000 Z0.400000 A63.706350 I1.5098 J-2.1706
G1 X79.571000 Y87.099000 Z0.400000 A65.271190
G0 X79.898 Y87.043 F7800.000
G0 Z0.900 F1620.000 A64.27119
G0 X79.707 Y87.155 F7800.000
G0 X72.270 Y115.416
G0 X81.547 Y130.032
G0 X89.183 Y119.650
G0 X93.610 Y117.346
G0 X92.471 Y110.640
G0 Z0.400
G0 F5400.000 A65.27119
G1 X93.231000 Y109.554000 Z0.400000 A65.332570 F720.000000
G1 X94.348000 Y110.337000 Z0.400000 A65.395720
G1 X94.036000 Y110.355000 Z0.400000 A65.410190
G1 X92.576000 Y110.621000 Z0.400000 A65.478890
G0 X90.842 Y111.832 F7800.000
G1 X92.162000 Y111.424000 Z0.400000 A65.542860 F720.000000
G3 X96.486000 Y110.960000 Z0.400000 A65.744740 I3.8709 J15.6930
G1 X93.055000 Y108.557000 Z0.400000 A65.938710
G1 X90.740000 Y111.864000 Z0.400000 A66.125630
G0 X88.826 Y113.437 F7800.000
G1 X90.512000 Y112.684000 Z0.400000 A66.211140 F720.000000
G3 X95.933000 Y111.676000 Z0.400000 A66.467730 I5.5304 J14.6614
G1 X98.756000 Y111.675000 Z0.400000 A66.598460
G1 X92.879000 Y107.560000 Z0.400000 A66.930710
G1 X88.730000 Y113.486000 Z0.400000 A67.265690
G0 Z0.900 F1620.000 A66.26569
G0 X89.183 Y119.650 F7800.000
G0 X85.816 Y116.434
G0 Z0.400
G0 F5400.000 A67.26569
G1 X86.104000 Y116.149000 Z0.400000 A67.284470 F720.000000
G3 X95.955000 Y112.392000 Z0.400000 A67.782940 I9.9669 J11.3403
G1 X101.027000 Y112.391000 Z0.400000 A68.017810
G1 X92.704000 Y106.563000 Z0.400000 A68.488340
G1 X85.739000 Y116.509000 Z0.400000 A69.050630
G0 Z0.900 F1620.000 A68.05063
G0 X89.183 Y119.650 F7800.000
G0 X81.547 Y130.032
G0 X79.300 Y126.372
G0 Z0.400
G0 F5400.000 A69.05063
G1 X84.349000 Y119.160000 Z0.400000 A69.458290 F720.000000
G3 X95.977000 Y113.108000 Z0.400000 A70.088260 I11.6878 J8.2597
G1 X153.243000 Y113.101000 Z0.400000 A72.740230
G1 X153.245000 Y112.010000 Z0.400000 A72.790780
G1 X101.730000 Y112.010000 Z0.400000 A75.176380
G1 X92.528000 Y105.566000 Z0.400000 A75.696610
G1 X78.969000 Y124.930000 Z0.400000 A76.791320
G1 X66.762000 Y116.383000 Z0.400000 A77.481420
G1 X83.965000 Y91.814000 Z0.400000 A78.870380
G1 X82.154000 Y90.546000 Z0.400000 A78.972750
G1 X64.321000 Y116.014000 Z0.400000 A80.412560
G1 X79.238000 Y126.460000 Z0.400000 A81.255870
G0 X79.476 Y127.369 F7800.000
G1 X84.923000 Y119.589000 Z0.400000 A81.695700 F720.000000
G3 X95.998000 Y113.824000 Z0.400000 A82.295800 I11.1246 J7.8506
G1 X153.958000 Y113.817000 Z0.400000 A84.979880
G1 X153.962000 Y111.294000 Z0.400000 A85.096730
G1 X101.956000 Y111.294000 Z0.400000 A87.505080
G1 X92.352000 Y104.569000 Z0.400000 A88.048010
G1 X78.793000 Y123.933000 Z0.400000 A89.142730
G1 X67.759000 Y116.207000 Z0.400000 A89.766510
G1 X84.962000 Y91.638000 Z0.400000 A91.155470
G1 X81.979000 Y89.549000 Z0.400000 A91.324150
G1 X63.324000 Y116.190000 Z0.400000 A92.830270
G1 X79.414000 Y127.457000 Z0.400000 A93.739890
G0 X79.658 Y128.357 F7800.000
G1 X85.498000 Y120.017000 Z0.400000 A94.211370 F720.000000
G3 X96.020000 Y114.540000 Z0.400000 A94.781600 I10.5584 J7.4385
G1 X154.673000 Y114.533000 Z0.400000 A97.497790
G1 X154.679000 Y110.578000 Z0.400000 A97.680950
G1 X102.181000 Y110.578000 Z0.400000 A100.112040
G1 X92.177000 Y103.580000 Z0.400000 A100.677410
G1 X78.617000 Y122.936000 Z0.400000 A101.771860
G1 X68.756000 Y116.031000 Z0.400000 A102.329340
G1 X85.955000 Y91.459000 Z0.400000 A103.718300
G1 X81.812000 Y88.558000 Z0.400000 A103.952520
G1 X62.339000 Y116.368000 Z0.400000 A105.524700
G1 X79.592000 Y128.442000 Z0.400000 A106.499870
G0 Z0.900 F1620.000 A105.49987
G0 X79.584 Y130.915 F7800.000
G0 X60.966 Y118.485
G0 X65.956 Y116.285
G0 Z0.400
G0 F5400.000 A106.49987
G1 X65.318000 Y115.839000 Z0.400000 A106.535940 F720.000000
G1 X82.330000 Y91.543000 Z0.400000 A107.909440
G1 X82.968000 Y91.990000 Z0.400000 A107.945500
G1 X66.018000 Y116.197000 Z0.400000 A109.314030
G0 Z0.900 F1620.000 A108.31403
G0 X60.966 Y118.485 F7800.000
G0 X77.998 Y119.428
G0 X102.976 Y108.059
G0 X102.319 Y109.800
G0 Z0.400
G0 F5400.000 A109.31403
G1 X92.620000 Y103.009000 Z0.400000 A109.862360 F720.000000
G2 X91.566000 Y103.194000 Z0.400000 A109.918250 I-0.4462 J0.5526
G1 X78.441000 Y121.939000 Z0.400000 A110.977930
G1 X69.753000 Y115.855000 Z0.400000 A111.469100
G1 X86.527000 Y91.900000 Z0.400000 A112.823340
G2 X86.438000 Y90.923000 Z0.400000 A112.873410 I-0.5480 J-0.4426
G1 X82.142000 Y87.915000 Z0.400000 A113.116270
G2 X81.195000 Y88.172000 Z0.400000 A113.166380 I-0.3423 J0.6120
G1 X61.766000 Y115.919000 Z0.400000 A114.735040
G2 X61.949000 Y116.976000 Z0.400000 A114.790960 I0.5539 J0.4484
G1 X79.143000 Y129.015000 Z0.400000 A115.762980
G2 X80.200000 Y128.831000 Z0.400000 A115.818900 I0.4483 J-0.5525
G1 X86.072000 Y120.445000 Z0.400000 A116.292990
G3 X96.041000 Y115.255000 Z0.400000 A116.833350 I9.9952 J7.0297
G1 X154.763000 Y115.249000 Z0.400000 A119.552700
G2 X155.389000 Y114.626000 Z0.400000 A119.596900 I-0.0642 J-0.6905
G1 X155.396000 Y109.862000 Z0.400000 A119.817550
G1 X102.407000 Y109.862000 Z0.400000 A122.271390
M140 P80 ; set bed temperature
G0 Z0.600 F7800.000
G0 Z1.100 F5400.000 A121.27139
G0 X132.644 Y99.968 F7800.000
G0 X71.081 Y100.312
G0 X67.706 Y102.070
G0 X60.028 Y112.508
G0 X81.464 Y138.730
G0 Z0.600
G0 F5400.000 A122.27139
G1 X80.794000 Y138.830000 Z0.600000 A122.287030 F1800.000000
G3 X73.604000 Y137.010000 Z0.600000 A122.462110 I-1.2260 J-10.2689
G1 X55.994000 Y124.670000 Z0.600000 A122.958770
G3 X53.754000 Y110.380000 Z0.600000 A123.327850 I6.2193 J-8.2955
G1 X73.494000 Y82.210000 Z0.600000 A124.122340
G3 X84.474000 Y78.440000 Z0.600000 A124.406660 I8.2808 J6.2430
G1 X160.044000 Y100.500000 Z0.600000 A126.224960
G3 X165.124000 Y107.550000 Z0.600000 A126.439230 I-2.3367 J7.0390
G1 X165.124000 Y114.550000 Z0.600000 A126.600910
G3 X156.624000 Y124.800000 Z0.600000 A126.934290 I-10.4223 J0.0065
G1 X81.570000 Y138.711000 Z0.600000 A128.697350
G0 X81.334 Y138.030 F7800.000
G1 X80.704000 Y138.130000 Z0.600000 A128.712080 F1800.000000
G3 X74.014000 Y136.430000 Z0.600000 A128.874950 I-1.1066 J-9.6586
G1 X56.434000 Y124.110000 Z0.600000 A129.370770
G3 X54.334000 Y110.790000 Z0.600000 A129.714860 I5.8202 J-7.7431
G1 X74.054000 Y82.650000 Z0.600000 A130.508520
G3 X84.314000 Y79.130000 Z0.600000 A130.774210 I7.7362 J5.8365
G1 X159.574000 Y101.110000 Z0.600000 A132.585110
G3 X164.404000 Y107.280000 Z0.600000 A132.778360 I-1.8319 J6.4096
G1 X164.404000 Y114.770000 Z0.600000 A132.951360
G3 X156.494000 Y124.100000 Z0.600000 A133.256840 I-9.6601 J-0.1718
G1 X81.440000 Y138.011000 Z0.600000 A135.019910
G0 Z1.100 F5400.000 A134.01991
G0 X79.843 Y129.886 F7800.000
G0 Z0.600
G0 F5400.000 A135.01991
G1 X79.564000 Y129.907000 Z0.600000 A135.025590 F1800.000000
G3 X78.743000 Y129.629000 Z0.600000 A135.043430 I0.0299 J-1.4397
G1 X61.512000 Y117.564000 Z0.600000 A135.470890
G3 X61.152000 Y115.519000 Z0.600000 A135.517960 I0.7974 J-1.1946
G1 X80.609000 Y87.731000 Z0.600000 A136.207300
G3 X82.502000 Y87.276000 Z0.600000 A136.250730 I1.1921 J0.7943
G1 X86.919000 Y90.369000 Z0.600000 A136.360310
G3 X87.139000 Y92.303000 Z0.600000 A136.403750 I-0.9276 J1.0850
G1 X70.773000 Y115.676000 Z0.600000 A136.983550
G1 X78.261000 Y120.919000 Z0.600000 A137.169310
G1 X90.979000 Y102.757000 Z0.600000 A137.619860
G3 X93.023000 Y102.397000 Z0.600000 A137.666910 I1.1938 J0.7954
G1 X102.638000 Y109.129000 Z0.600000 A137.905440
G1 X156.128000 Y109.129000 Z0.600000 A138.992400
G1 X156.128000 Y114.520000 Z0.600000 A139.101950
G3 X154.839000 Y115.979000 Z0.600000 A139.145380 I-1.4305 J0.0351
G1 X96.063000 Y115.988000 Z0.600000 A140.339760
G2 X86.659000 Y120.883000 Z0.600000 A140.563460 I0.0170 J11.5134
G1 X80.788000 Y129.269000 Z0.600000 A140.771480
G3 X79.934000 Y129.865000 Z0.600000 A140.793090 I-1.1903 J-0.7957
G0 X80.149 Y130.461 F7800.000
G1 X79.952000 Y130.506000 Z0.600000 A140.797190 F1800.000000
G3 X78.396000 Y130.153000 Z0.600000 A140.830430 I-0.3554 J-2.0391
G1 X61.139000 Y118.069000 Z0.600000 A141.258520
G3 X60.628000 Y115.172000 Z0.600000 A141.325010 I1.1642 J-1.6989
G1 X80.103000 Y87.358000 Z0.600000 A142.014980
G3 X82.811000 Y86.728000 Z0.600000 A142.076890 I1.6981 J1.1642
G1 X87.151000 Y89.753000 Z0.600000 A142.184410
G3 X87.662000 Y92.651000 Z0.600000 A142.250900 I-1.1656 J1.6996
G1 X71.648000 Y115.521000 Z0.600000 A142.818250
G1 X78.107000 Y120.044000 Z0.600000 A142.978480
G1 X90.473000 Y102.384000 Z0.600000 A143.416570
G3 X93.370000 Y101.873000 Z0.600000 A143.483040 I1.6989 J1.1642
G1 X102.836000 Y108.501000 Z0.600000 A143.717860
G1 X156.756000 Y108.501000 Z0.600000 A144.813560
G1 X156.756000 Y114.535000 Z0.600000 A144.936190
G3 X154.900000 Y116.605000 Z0.600000 A144.998110 I-2.0569 J0.0228
G1 X96.082000 Y116.616000 Z0.600000 A146.193350
G2 X87.163000 Y121.259000 Z0.600000 A146.405550 I0.0120 J10.9111
G1 X81.293000 Y129.642000 Z0.600000 A146.613500
G3 X80.238000 Y130.431000 Z0.600000 A146.640730 I-1.6905 J-1.1606
G0 X80.350 Y131.056 F7800.000
G1 X80.061000 Y131.125000 Z0.600000 A146.646770 F1260.000000
G3 X78.048000 Y130.676000 Z0.600000 A146.689770 I-0.4680 J-2.6388
G1 X60.766000 Y118.575000 Z0.600000 A147.118480
G3 X60.105000 Y114.824000 Z0.600000 A147.204460 I1.5327 J-2.2038
G1 X79.597000 Y86.985000 Z0.600000 A147.895060
G3 X83.349000 Y86.324000 Z0.600000 A147.981060 I2.2049 J1.5362
G1 X87.524000 Y89.247000 Z0.600000 A148.084630
G3 X88.186000 Y92.999000 Z0.600000 A148.170630 I-1.5354 J2.2053
G1 X72.523000 Y115.367000 Z0.600000 A148.725520
G1 X77.953000 Y119.169000 Z0.600000 A148.860220
G1 X89.967000 Y102.011000 Z0.600000 A149.285850
G3 X93.718000 Y101.350000 Z0.600000 A149.371840 I2.2037 J1.5322
G1 X103.034000 Y107.873000 Z0.600000 A149.602940
G1 X157.385000 Y107.873000 Z0.600000 A150.707390
G1 X157.385000 Y114.551000 Z0.600000 A150.843090
G3 X154.691000 Y117.244000 Z0.600000 A150.929090 I-2.6853 J0.0077
G1 X96.101000 Y117.244000 Z0.600000 A152.119700
G2 X87.667000 Y121.635000 Z0.600000 A152.320400 I0.0060 J10.3068
G1 X81.799000 Y130.015000 Z0.600000 A152.528270
G3 X80.439000 Y131.026000 Z0.600000 A152.563310 I-2.1803 J-1.5127
G0 X80.136 Y130.850 F7800.000
G0 X79.584 Y129.451
G1 X80.548000 Y128.816000 Z0.600000 A152.587010 F2400.000000
G1 X78.377000 Y128.816000 Z0.600000 A152.631590
G1 X77.470000 Y128.182000 Z0.600000 A152.654320
G1 X80.993000 Y128.182000 Z0.600000 A152.726640
