; generated by Slic3r 0.9.8 on 2013-05-23 at 08:49:24

; layer_height = 0.2
; perimeters = 3
; top_solid_layers = 3
; bottom_solid_layers = 3
; fill_density = 0.25
; perimeter_speed = 30
; infill_speed = 40
; travel_speed = 130
; scale = 1
; nozzle_diameter = 0.4
; filament_diameter = 2.95
; extrusion_multiplier = 1.105263
; perimeters extrusion width = 0.64mm
; infill extrusion width = 0.64mm
; first layer extrusion width = 0.64mm

M190 P115 ; wait for bed temperature to be reached
M104 P220 ; set temperature
G92 A0                  ; Reset A to 0
G40                        ; Cancel cutter compensation
G64 P0.1                ; Path Blend within .1mm
G0 X108.5 Y200    ; Move to plate
M109 P220 ; wait for temperature to be reached
G90 ; use absolute coordinates
G21 ; set units to millimeters
G0 Z0.200 F5400.000 A-1.00000
G0 X143.360 Y143.170 F7800.000
G0 F5400.000 A0.00000
G1 X142.970000 Y143.550000 Z0.200000 A0.010510 F540.000000
G3 X138.460000 Y145.370000 Z0.200000 A0.106270 I-4.7893 J-5.3701
G1 X78.540000 Y145.370000 Z0.200000 A1.263360
G3 X71.630000 Y138.460000 Z0.200000 A1.470720 I0.2438 J-7.1538
G1 X71.630000 Y78.540000 Z0.200000 A2.627800
G3 X78.540000 Y71.630000 Z0.200000 A2.835160 I7.1538 J0.2438
G1 X138.460000 Y71.630000 Z0.200000 A3.992250
G3 X145.370000 Y78.540000 Z0.200000 A4.199610 I-0.2438 J7.1538
G1 X145.370000 Y138.460000 Z0.200000 A5.356690
G3 X143.360000 Y143.170000 Z0.200000 A5.457780 I-7.0827 J-0.2386
G0 X142.940 Y142.750 F7800.000
G1 X142.550000 Y143.120000 Z0.200000 A5.468160 F540.000000
G3 X138.180000 Y144.780000 Z0.200000 A5.560430 I-4.3263 J-4.8070
G1 X78.820000 Y144.780000 Z0.200000 A6.706700
G3 X72.220000 Y138.180000 Z0.200000 A6.906810 I-0.0170 J-6.5830
G1 X72.220000 Y78.820000 Z0.200000 A8.053090
G3 X78.820000 Y72.220000 Z0.200000 A8.253190 I6.5830 J-0.0170
G1 X138.180000 Y72.220000 Z0.200000 A9.399460
G3 X144.780000 Y78.820000 Z0.200000 A9.599580 I0.0170 J6.5830
G1 X144.780000 Y138.180000 Z0.200000 A10.745850
G3 X142.940000 Y142.750000 Z0.200000 A10.843300 I-6.5500 J0.0182
G0 Z0.700 F1620.000 A9.84330
G0 X85.563 Y85.563 F7800.000
G0 Z0.200
G0 F5400.000 A10.84330
G1 X85.351000 Y85.756000 Z0.200000 A10.848830 F540.000000
G3 X86.074000 Y84.876000 Z0.200000 A11.180640 I-1.8398 J-2.2486
G1 X85.926000 Y85.121000 Z0.200000 A11.186170
G3 X85.563000 Y85.563000 Z0.200000 A11.197220 I-3.3625 J-2.3914
G0 X85.141 Y85.141 F7800.000
G1 X84.789000 Y85.429000 Z0.200000 A11.206000 F540.000000
G3 X85.429000 Y84.789000 Z0.200000 A11.469520 I-1.2889 J-1.9289
G1 X85.201000 Y85.074000 Z0.200000 A11.476570
G1 X85.141000 Y85.141000 Z0.200000 A11.478300
G0 X85.276 Y85.722 F7800.000
G0 Z0.700 F1620.000 A10.47830
G0 X130.582 Y83.500 F7800.000
G0 Z0.200
G0 F5400.000 A11.47830
G1 X130.596000 Y83.214000 Z0.200000 A11.483840 F540.000000
G3 X130.638000 Y84.069000 Z0.200000 A11.821170 I2.9015 J0.2860
G1 X130.586000 Y83.590000 Z0.200000 A11.830480
G1 X130.582000 Y83.500000 Z0.200000 A11.832210
G0 X131.180 Y83.500 F7800.000
G1 X131.224000 Y83.047000 Z0.200000 A11.841000 F540.000000
G3 X131.224000 Y83.953000 Z0.200000 A12.104520 I2.2719 J0.4530
G1 X131.184000 Y83.590000 Z0.200000 A12.111570
G1 X131.180000 Y83.500000 Z0.200000 A12.113300
G0 X130.673 Y83.185 F7800.000
G0 Z0.700 F1620.000 A11.11330
G0 X133.214 Y130.596 F7800.000
G0 Z0.200
G0 F5400.000 A12.11330
G1 X133.500000 Y130.582000 Z0.200000 A12.118830 F540.000000
G3 X132.653000 Y130.707000 Z0.200000 A12.456160 I-0.0021 J2.9180
G1 X133.125000 Y130.609000 Z0.200000 A12.465480
G1 X133.214000 Y130.596000 Z0.200000 A12.467210
G0 X133.273 Y131.191 F7800.000
G1 X133.728000 Y131.191000 Z0.200000 A12.476000 F540.000000
G3 X132.826000 Y131.280000 Z0.200000 A12.739520 I-0.2280 J2.3046
G1 X133.184000 Y131.204000 Z0.200000 A12.746580
G1 X133.273000 Y131.191000 Z0.200000 A12.748310
G0 X133.537 Y130.655 F7800.000
G0 Z0.700 F1620.000 A11.74831
G0 X130.053 Y126.188 F7800.000
G0 Z0.200
G0 F5400.000 A12.74831
G1 X128.215000 Y128.215000 Z0.200000 A12.801140 F540.000000
G3 X131.683000 Y123.990000 Z0.200000 A16.077050 I-19.7134 J-19.7172
G1 X130.106000 Y126.116000 Z0.200000 A16.128160
G1 X130.053000 Y126.188000 Z0.200000 A16.129890
G0 X129.591 Y125.809 F7800.000
G1 X127.793000 Y127.793000 Z0.200000 A16.181590 F378.000000
G3 X131.186000 Y123.658000 Z0.200000 A19.387270 I-19.2766 J-19.2771
G1 X129.644000 Y125.737000 Z0.200000 A19.437240
G1 X129.591000 Y125.809000 Z0.200000 A19.438970
G0 X129.792 Y126.371 F7800.000
G0 Z0.700 F1620.000 A18.43897
G0 X86.362 Y132.931 F7800.000
G0 Z0.200
G0 F5400.000 A19.43897
G1 X86.404000 Y133.214000 Z0.200000 A19.444500 F540.000000
G3 X86.196000 Y132.383000 Z0.200000 A19.781830 I-2.9040 J0.2853
G1 X86.340000 Y132.844000 Z0.200000 A19.791150
G1 X86.362000 Y132.931000 Z0.200000 A19.792880
G0 X85.776 Y133.047 F7800.000
G1 X85.820000 Y133.500000 Z0.200000 A19.801670 F540.000000
G3 X85.644000 Y132.612000 Z0.200000 A20.065180 I-2.3205 J-0.0015
G1 X85.754000 Y132.960000 Z0.200000 A20.072240
G1 X85.776000 Y133.047000 Z0.200000 A20.073970
G0 X86.335 Y133.258 F7800.000
G0 Z0.700 F1620.000 A19.07397
G0 X134.856 Y136.782 F7800.000
G0 Z0.200
G0 F5400.000 A20.07397
G1 X135.453000 Y136.423000 Z0.200000 A20.087430 F540.000000
G2 X136.782000 Y134.856000 Z0.200000 A20.127530 I-2.0790 J-3.1103
G1 X136.986000 Y134.912000 Z0.200000 A20.131620
G1 X136.986000 Y136.986000 Z0.200000 A20.171660
G1 X134.912000 Y136.986000 Z0.200000 A20.211700
G2 X134.856000 Y136.782000 Z0.200000 A20.215790 I-13.9459 J3.7186
G0 X132.144 Y136.782 F7800.000
G1 X132.088000 Y136.986000 Z0.200000 A20.219880 F540.000000
G1 X113.475000 Y136.986000 Z0.200000 A20.579300
G1 X113.426000 Y136.590000 Z0.200000 A20.587000
G2 X136.590000 Y113.426000 Z0.200000 A21.259720 I-5.0800 J-28.2440
G1 X136.986000 Y113.475000 Z0.200000 A21.267420
G1 X136.986000 Y132.088000 Z0.200000 A21.626830
G1 X136.782000 Y132.144000 Z0.200000 A21.630930
G2 X130.252000 Y134.846000 Z0.200000 A21.844250 I-3.2588 J1.3659
G1 X130.399000 Y135.157000 Z0.200000 A21.850910
G2 X132.144000 Y136.782000 Z0.200000 A21.897680 I3.2614 J-1.7528
G0 Z0.700 F1620.000 A20.89768
G0 X103.574 Y136.590 F7800.000
G0 Z0.200
G0 F5400.000 A21.89768
G1 X103.525000 Y136.986000 Z0.200000 A21.905380 F540.000000
G1 X84.912000 Y136.986000 Z0.200000 A22.264800
G1 X84.856000 Y136.782000 Z0.200000 A22.268890
G2 X82.155000 Y130.252000 Z0.200000 A22.482200 I-1.3653 J-3.2589
G1 X81.843000 Y130.399000 Z0.200000 A22.488870
G2 X80.218000 Y132.144000 Z0.200000 A22.535640 I1.7685 J3.2760
G1 X80.014000 Y132.088000 Z0.200000 A22.539730
G1 X80.014000 Y113.475000 Z0.200000 A22.899150
G1 X80.410000 Y113.426000 Z0.200000 A22.906850
G2 X103.574000 Y136.590000 Z0.200000 A23.579570 I28.2440 J-5.0800
G0 Z0.700 F1620.000 A22.57957
G0 X82.144 Y136.782 F7800.000
G0 Z0.200
G0 F5400.000 A23.57957
G1 X82.088000 Y136.986000 Z0.200000 A23.583660 F540.000000
G1 X80.014000 Y136.986000 Z0.200000 A23.623700
G1 X80.014000 Y134.912000 Z0.200000 A23.663740
G1 X80.218000 Y134.856000 Z0.200000 A23.667830
G1 X80.577000 Y135.453000 Z0.200000 A23.681280
G2 X82.144000 Y136.782000 Z0.200000 A23.721390 I3.1103 J-2.0790
G0 Z0.700 F1620.000 A22.72139
G0 X136.590 Y103.574 F7800.000
G0 Z0.200
G0 F5400.000 A23.72139
G1 X135.753000 Y100.233000 Z0.200000 A23.787890 F540.000000
G2 X113.426000 Y80.410000 Z0.200000 A24.394100 I-27.3167 J8.2821
G1 X113.475000 Y80.014000 Z0.200000 A24.401800
G1 X132.088000 Y80.014000 Z0.200000 A24.761220
G1 X132.144000 Y80.218000 Z0.200000 A24.765310
G2 X134.846000 Y86.748000 Z0.200000 A24.978630 I1.3655 J3.2590
G1 X135.157000 Y86.601000 Z0.200000 A24.985300
G2 X136.782000 Y84.856000 Z0.200000 A25.032060 I-1.7685 J-3.2760
G1 X136.986000 Y84.912000 Z0.200000 A25.036160
G1 X136.986000 Y103.525000 Z0.200000 A25.395570
G1 X136.679000 Y103.563000 Z0.200000 A25.401540
G1 X136.590000 Y103.574000 Z0.200000 A25.403270
G0 Z0.700 F1620.000 A24.40327
G0 X103.574 Y80.410 F7800.000
G0 Z0.200
G0 F5400.000 A25.40327
G1 X100.233000 Y81.247000 Z0.200000 A25.469780 F540.000000
G2 X80.410000 Y103.574000 Z0.200000 A26.075990 I8.2821 J27.3167
G1 X80.014000 Y103.525000 Z0.200000 A26.083690
G1 X80.014000 Y84.912000 Z0.200000 A26.443110
G1 X80.218000 Y84.856000 Z0.200000 A26.447200
G2 X86.748000 Y82.154000 Z0.200000 A26.660540 I3.2590 J-1.3655
G1 X86.601000 Y81.843000 Z0.200000 A26.667200
G2 X84.856000 Y80.218000 Z0.200000 A26.713970 I-3.2760 J1.7685
G1 X84.912000 Y80.014000 Z0.200000 A26.718060
G1 X103.525000 Y80.014000 Z0.200000 A27.077480
G1 X103.563000 Y80.321000 Z0.200000 A27.083450
G1 X103.574000 Y80.410000 Z0.200000 A27.085180
G0 Z0.700 F1620.000 A26.08518
G0 X134.856 Y80.218 F7800.000
G0 Z0.200
G0 F5400.000 A27.08518
G1 X134.912000 Y80.014000 Z0.200000 A27.089270 F540.000000
G1 X136.986000 Y80.014000 Z0.200000 A27.129310
G1 X136.986000 Y82.088000 Z0.200000 A27.169350
G1 X136.782000 Y82.144000 Z0.200000 A27.173440
G1 X136.424000 Y81.547000 Z0.200000 A27.186890
G2 X134.856000 Y80.218000 Z0.200000 A27.227000 I-3.1315 J2.1051
G0 Z0.700 F1620.000 A26.22700
G0 X82.144 Y80.218 F7800.000
G0 Z0.200
G0 F5400.000 A27.22700
G1 X81.547000 Y80.577000 Z0.200000 A27.240450 F540.000000
G2 X80.218000 Y82.144000 Z0.200000 A27.280550 I2.1018 J3.1297
G1 X80.014000 Y82.088000 Z0.200000 A27.284650
G1 X80.014000 Y80.014000 Z0.200000 A27.324680
G1 X82.088000 Y80.014000 Z0.200000 A27.364720
G2 X82.144000 Y80.218000 Z0.200000 A27.368820 I13.9459 J-3.7186
G0 X79.417 Y79.417 F7800.000
G1 X137.583000 Y79.417000 Z0.200000 A28.492030 F540.000000
G1 X137.583000 Y137.583000 Z0.200000 A29.615240
G1 X79.417000 Y137.583000 Z0.200000 A30.738450
G1 X79.417000 Y79.417000 Z0.200000 A31.861670
G0 X78.820 Y78.820 F7800.000
G1 X138.180000 Y78.820000 Z0.200000 A33.007940 F378.000000
G1 X138.180000 Y138.180000 Z0.200000 A34.154210
G1 X78.820000 Y138.180000 Z0.200000 A35.300480
G1 X78.820000 Y78.820000 Z0.200000 A36.446760
G0 X79.337 Y79.119 F7800.000
G0 Z0.700 F1620.000 A35.44676
G0 X117.674 Y136.332 F7800.000
G0 Z0.200
G0 F5400.000 A36.44676
G1 X117.674000 Y135.794000 Z0.200000 A36.457260 F720.000000
G1 X118.278000 Y135.578000 Z0.200000 A36.469780
G1 X118.278000 Y136.657000 Z0.200000 A36.490850
G1 X118.881000 Y136.657000 Z0.200000 A36.502640
G1 X118.881000 Y135.362000 Z0.200000 A36.527930
G1 X119.485000 Y135.146000 Z0.200000 A36.540450
G1 X119.485000 Y136.657000 Z0.200000 A36.569960
G1 X120.089000 Y136.657000 Z0.200000 A36.581750
G1 X120.089000 Y134.877000 Z0.200000 A36.616510
G1 X120.692000 Y134.592000 Z0.200000 A36.629550
G1 X120.692000 Y136.657000 Z0.200000 A36.669890
G1 X121.296000 Y136.657000 Z0.200000 A36.681670
G1 X121.296000 Y134.306000 Z0.200000 A36.727590
G1 X121.900000 Y134.020000 Z0.200000 A36.740630
G1 X121.900000 Y136.657000 Z0.200000 A36.792120
G1 X122.504000 Y136.657000 Z0.200000 A36.803900
G1 X122.504000 Y133.697000 Z0.200000 A36.861700
G1 X123.107000 Y133.336000 Z0.200000 A36.875440
G1 X123.107000 Y136.657000 Z0.200000 A36.940300
G1 X123.711000 Y136.657000 Z0.200000 A36.952090
G1 X123.711000 Y132.974000 Z0.200000 A37.024010
G1 X124.315000 Y132.612000 Z0.200000 A37.037750
G1 X124.315000 Y136.657000 Z0.200000 A37.116740
G1 X124.918000 Y136.657000 Z0.200000 A37.128530
G1 X124.918000 Y132.213000 Z0.200000 A37.215320
G1 X125.522000 Y131.765000 Z0.200000 A37.229990
G1 X125.522000 Y136.657000 Z0.200000 A37.325520
G1 X126.126000 Y136.657000 Z0.200000 A37.337310
G1 X126.126000 Y131.317000 Z0.200000 A37.441580
G1 X126.729000 Y130.869000 Z0.200000 A37.456260
G1 X126.729000 Y136.657000 Z0.200000 A37.569270
G1 X127.333000 Y136.657000 Z0.200000 A37.581060
G1 X127.333000 Y130.358000 Z0.200000 A37.704060
G1 X127.937000 Y129.811000 Z0.200000 A37.719970
G1 X127.937000 Y136.657000 Z0.200000 A37.853650
G1 X128.541000 Y136.657000 Z0.200000 A37.865440
G1 X128.541000 Y129.264000 Z0.200000 A38.009810
G1 X129.144000 Y128.700000 Z0.200000 A38.025930
G1 X129.144000 Y136.657000 Z0.200000 A38.181300
G1 X129.748000 Y136.657000 Z0.200000 A38.193090
G1 X129.748000 Y134.908000 Z0.200000 A38.227240
G1 X130.352000 Y135.884000 Z0.200000 A38.249640
G1 X130.352000 Y136.657000 Z0.200000 A38.264750
G0 Z0.700 F1620.000 A37.26475
G0 X129.748 Y132.092 F7800.000
G0 Z0.200
G0 F5400.000 A38.26475
G1 X129.748000 Y128.034000 Z0.200000 A38.343980 F720.000000
G1 X130.352000 Y127.368000 Z0.200000 A38.361530
G1 X130.352000 Y131.124000 Z0.200000 A38.434880
G1 X130.955000 Y130.540000 Z0.200000 A38.451270
G1 X130.955000 Y126.702000 Z0.200000 A38.526230
G1 X131.559000 Y125.893000 Z0.200000 A38.545930
G1 X131.559000 Y130.142000 Z0.200000 A38.628890
G1 X132.163000 Y129.883000 Z0.200000 A38.641710
G1 X132.163000 Y125.079000 Z0.200000 A38.735520
G1 X132.767000 Y124.236000 Z0.200000 A38.755760
G1 X132.767000 Y129.724000 Z0.200000 A38.862900
G1 X133.370000 Y129.661000 Z0.200000 A38.874750
G1 X133.370000 Y123.229000 Z0.200000 A39.000340
G1 X133.974000 Y122.222000 Z0.200000 A39.023270
G1 X133.974000 Y129.685000 Z0.200000 A39.169000
G1 X134.578000 Y129.803000 Z0.200000 A39.181010
G1 X134.578000 Y121.021000 Z0.200000 A39.352470
G1 X135.181000 Y119.745000 Z0.200000 A39.380040
G1 X135.181000 Y130.019000 Z0.200000 A39.580640
G1 X135.785000 Y130.348000 Z0.200000 A39.594070
G1 X135.785000 Y118.182000 Z0.200000 A39.831620
G1 X136.389000 Y117.462000 Z0.200000 A39.849970
G1 X136.389000 Y130.796000 Z0.200000 A40.110320
G0 Z0.700 F1620.000 A39.11032
G0 X116.861 Y136.636 F7800.000
G0 Z0.200
G0 F5400.000 A40.11032
G1 X116.861000 Y136.099000 Z0.200000 A40.120700 F360.000000
G0 X115.564 Y136.679 F7800.000
G1 X115.564000 Y136.375000 Z0.200000 A40.124010 F360.000000
G0 Z0.700 F1620.000 A39.12401
G0 X109.247 Y137.233 F7800.000
G0 Z0.200
G0 F5400.000 A40.12401
G1 X109.247000 Y136.696000 Z0.200000 A40.134440 F360.000000
G1 X109.847000 Y136.666000 Z0.200000 A40.146110
G1 X109.847000 Y137.233000 Z0.200000 A40.157120
G1 X110.448000 Y137.233000 Z0.200000 A40.168780
G1 X110.448000 Y136.637000 Z0.200000 A40.180360
G1 X111.048000 Y136.607000 Z0.200000 A40.192040
G1 X111.048000 Y137.233000 Z0.200000 A40.204190
G1 X111.648000 Y137.233000 Z0.200000 A40.215850
G1 X111.648000 Y136.542000 Z0.200000 A40.229260
G1 X112.249000 Y136.453000 Z0.200000 A40.241050
G1 X112.249000 Y137.233000 Z0.200000 A40.256190
G1 X112.849000 Y137.233000 Z0.200000 A40.267840
G1 X112.849000 Y136.695000 Z0.200000 A40.278290
G0 Z0.700 F1620.000 A39.27829
G0 X104.151 Y137.233 F7800.000
G0 Z0.200
G0 F5400.000 A40.27829
G1 X104.151000 Y136.695000 Z0.200000 A40.288740 F360.000000
G1 X104.751000 Y136.453000 Z0.200000 A40.301310
G1 X104.751000 Y137.233000 Z0.200000 A40.316450
G1 X105.352000 Y137.233000 Z0.200000 A40.328110
G1 X105.352000 Y136.542000 Z0.200000 A40.341520
G1 X105.952000 Y136.607000 Z0.200000 A40.353250
G1 X105.952000 Y137.233000 Z0.200000 A40.365400
G1 X106.552000 Y137.233000 Z0.200000 A40.377060
G1 X106.552000 Y136.637000 Z0.200000 A40.388640
G1 X107.153000 Y136.666000 Z0.200000 A40.400310
G1 X107.153000 Y137.233000 Z0.200000 A40.411320
G1 X107.753000 Y137.233000 Z0.200000 A40.422980
G1 X107.753000 Y136.696000 Z0.200000 A40.433420
G0 Z0.700 F1620.000 A39.43342
G0 X101.168 Y136.679 F7800.000
G0 Z0.200
G0 F5400.000 A40.43342
G1 X101.168000 Y136.375000 Z0.200000 A40.436730 F360.000000
G0 X99.901 Y136.636 F7800.000
G1 X99.901000 Y136.098000 Z0.200000 A40.447120 F360.000000
G0 Z0.700 F1620.000 A39.44712
G0 X84.210 Y137.233 F7800.000
G0 Z0.200
G0 F5400.000 A40.44712
G1 X84.210000 Y136.696000 Z0.200000 A40.457500 F360.000000
G0 X82.735 Y137.233 F7800.000
G1 X82.735000 Y136.695000 Z0.200000 A40.467890 F360.000000
G0 X80.473 Y136.679 F7800.000
G1 X80.473000 Y135.920000 Z0.200000 A40.479060 F360.000000
G1 X80.928000 Y136.375000 Z0.200000 A40.488540
G1 X80.928000 Y136.679000 Z0.200000 A40.493020
G0 X80.036 Y134.533 F7800.000
G1 X80.036000 Y133.942000 Z0.200000 A40.504440 F360.000000
