; generated by Slic3r 0.9.8 on 2013-03-24 at 15:01:52

; layer_height = 0.3
; perimeters = 3
; top_solid_layers = 3
; bottom_solid_layers = 3
; fill_density = 0.4
; perimeter_speed = 30
; infill_speed = 60
; travel_speed = 130
; scale = 1
; nozzle_diameter = 0.45
; filament_diameter = 3
; extrusion_multiplier = 1
; perimeters extrusion width = 0.55mm
; infill extrusion width = 0.55mm
; first layer extrusion width = 0.80mm

M190 P115 ; wait for bed temperature to be reached
M104 P235 ; set temperature
G92 A0                  ; Reset A to 0
G40                        ; Cancel cutter compensation
G64 P0.1                ; Path Blend within .1mm
G0 X108.5 Y108.5  ; Move to center
M109 P235 ; wait for temperature to be reached
G90 ; use absolute coordinates
G21 ; set units to millimeters
G0 Z0.400 F1800.000 A-1.00000
G0 X132.431 Y132.801 F7800.000
G0 F1800.000 A0.00000
G1 X131.781 Y133.471 F540.000 A0.03829
G1 X131.141 Y134.051 A0.07372
G1 X130.421 Y134.631 A0.11165
G1 X125.641 Y137.981 A0.35108
G1 X124.831 Y138.471 A0.38992
G1 X124.071 Y138.871 A0.42515
G1 X123.221 Y139.251 A0.46334
G1 X117.741 Y141.311 A0.70349
G1 X116.781 Y141.601 A0.74463
G1 X115.951 Y141.791 A0.77955
G1 X115.111 Y141.931 A0.81449
G1 X109.301 Y142.571 A1.05426
G1 X108.311 Y142.621 A1.09492
G1 X107.451 Y142.601 A1.13021
G1 X106.561 Y142.521 A1.16686
G1 X100.771 Y141.691 A1.40680
G1 X99.841 Y141.501 A1.44573
G1 X99.011 Y141.271 A1.48106
G1 X98.131 Y140.961 A1.51934
G1 X92.741 Y138.711 A1.75893
G1 X91.901 Y138.301 A1.79727
G1 X91.151 Y137.871 A1.83273
G1 X90.381 Y137.371 A1.87039
G1 X85.711 Y133.861 A2.11003
G1 X84.971 Y133.211 A2.15044
G1 X84.361 Y132.611 A2.18553
G1 X83.761 Y131.951 A2.22212
G1 X80.111 Y127.381 A2.46204
G1 X79.561 Y126.601 A2.50119
G1 X79.111 Y125.861 A2.53672
G1 X78.691 Y125.071 A2.57342
G1 X76.361 Y119.931 A2.80491
G1 X76.031 Y119.041 A2.84385
G1 X75.721 Y118.031 A2.88719
G1 X75.501 Y117.111 A2.92599
G1 X74.501 Y111.341 A3.16621
G1 X74.401 Y110.421 A3.20417
G1 X74.361 Y109.571 A3.23907
G1 X74.371 Y108.621 A3.27804
G1 X74.841 Y102.801 A3.51756
G1 X74.981 Y101.861 A3.55654
G1 X75.161 Y101.011 A3.59219
G1 X75.411 Y100.131 A3.62971
G1 X77.311 Y94.611 A3.86918
G1 X77.671 Y93.731 A3.90818
G1 X78.051 Y92.961 A3.94341
G1 X78.511 Y92.161 A3.98126
G1 X81.731 Y87.281 A4.22109
G1 X82.271 Y86.561 A4.25801
G1 X82.831 Y85.901 A4.29351
G1 X83.511 Y85.201 A4.33355
G1 X87.841 Y81.281 A4.57314
G1 X88.611 Y80.671 A4.61344
G1 X89.321 Y80.181 A4.64882
G1 X90.071 Y79.721 A4.68491
G1 X95.241 Y76.991 A4.92474
G1 X96.101 Y76.601 A4.96348
G1 X96.901 Y76.301 A4.99852
G1 X97.791 Y76.031 A5.03667
G1 X103.481 Y74.671 A5.27665
G1 X104.431 Y74.511 A5.31617
G1 X105.281 Y74.421 A5.35124
G1 X106.191 Y74.381 A5.38860
G1 X112.041 Y74.481 A5.62860
G1 X113.041 Y74.571 A5.66979
G1 X113.891 Y74.701 A5.70506
G1 X114.741 Y74.881 A5.74070
G1 X120.371 Y76.431 A5.98024
G1 X121.231 Y76.721 A6.01747
G1 X122.031 Y77.051 A6.05297
G1 X122.901 Y77.481 A6.09278
G1 X127.971 Y80.391 A6.33257
G1 X128.611 Y80.801 A6.36375
G1 X129.051 Y81.121 A6.38607
G1 X129.481 Y81.451 A6.40830
G1 X130.141 Y82.021 A6.44407
G1 X134.331 Y86.101 A6.68397
G1 X134.931 Y86.771 A6.72087
G1 X135.471 Y87.441 A6.75617
G1 X136.031 Y88.231 A6.79589
G1 X139.071 Y93.221 A7.03557
G1 X139.471 Y93.981 A7.07080
G1 X139.831 Y94.761 A7.10604
G1 X140.201 Y95.711 A7.14786
G1 X141.901 Y101.301 A7.38754
G1 X142.111 Y102.181 A7.42465
G1 X142.261 Y103.031 A7.46005
G1 X142.361 Y103.981 A7.49924
G1 X142.631 Y109.821 A7.73905
G1 X142.621 Y110.761 A7.77761
G1 X142.551 Y111.621 A7.81301
G1 X142.411 Y112.551 A7.85159
G1 X141.211 Y118.271 A8.09133
G1 X140.961 Y119.171 A8.12965
G1 X140.681 Y119.981 A8.16480
G1 X140.331 Y120.841 A8.20289
G1 X137.751 Y126.091 A8.44285
G1 X137.271 Y126.911 A8.48182
G1 X136.801 Y127.621 A8.51675
G1 X136.241 Y128.361 A8.55482
G1 X132.502 Y132.719 A8.79035
G1 X132.431 Y132.801 A8.79481
G0 X131.881 Y132.331 F7800.000
G1 X131.301 Y132.931 F540.000 A8.82904
G1 X130.661 Y133.511 A8.86447
G1 X130.001 Y134.041 A8.89920
G1 X125.221 Y137.391 A9.13863
G1 X124.491 Y137.831 A9.17360
G1 X123.731 Y138.231 A9.20883
G1 X122.971 Y138.571 A9.24298
G1 X117.491 Y140.631 A9.48313
G1 X116.621 Y140.901 A9.52049
G1 X115.791 Y141.091 A9.55542
G1 X115.031 Y141.211 A9.58698
G1 X109.221 Y141.851 A9.82675
G1 X108.321 Y141.891 A9.86371
G1 X107.461 Y141.871 A9.89900
G1 X106.671 Y141.811 A9.93150
G1 X100.881 Y140.981 A10.17143
G1 X100.031 Y140.801 A10.20707
G1 X99.201 Y140.571 A10.24240
G1 X98.411 Y140.301 A10.27665
G1 X93.021 Y138.051 A10.51624
G1 X92.271 Y137.671 A10.55073
G1 X91.521 Y137.241 A10.58619
G1 X90.821 Y136.791 A10.62033
G1 X86.151 Y133.281 A10.85997
G1 X85.471 Y132.691 A10.89690
G1 X84.861 Y132.091 A10.93199
G1 X84.331 Y131.501 A10.96453
G1 X80.681 Y126.931 A11.20444
G1 X80.181 Y126.221 A11.24007
G1 X79.731 Y125.481 A11.27559
G1 X79.361 Y124.771 A11.30843
G1 X77.031 Y119.631 A11.53993
G1 X76.721 Y118.821 A11.57551
G1 X76.411 Y117.811 A11.61885
G1 X76.211 Y116.991 A11.65347
G1 X75.211 Y111.221 A11.89368
G1 X75.121 Y110.391 A11.92793
G1 X75.081 Y109.541 A11.96284
G1 X75.101 Y108.681 A11.99812
G1 X75.571 Y102.861 A12.23764
G1 X75.691 Y102.011 A12.27285
G1 X75.871 Y101.161 A12.30849
G1 X76.091 Y100.361 A12.34253
G1 X77.991 Y94.841 A12.58200
G1 X78.321 Y94.051 A12.61712
G1 X78.701 Y93.281 A12.65234
G1 X79.121 Y92.561 A12.68653
G1 X82.341 Y87.681 A12.92636
G1 X82.821 Y87.031 A12.95951
G1 X83.381 Y86.371 A12.99501
G1 X84.001 Y85.731 A13.03156
G1 X88.331 Y81.811 A13.27116
G1 X89.021 Y81.271 A13.30710
G1 X89.731 Y80.781 A13.34249
G1 X90.411 Y80.361 A13.37527
G1 X95.581 Y77.631 A13.61510
G1 X96.361 Y77.281 A13.65017
G1 X97.161 Y76.981 A13.68521
G1 X97.961 Y76.741 A13.71948
G1 X103.651 Y75.381 A13.95946
G1 X104.501 Y75.231 A13.99486
G1 X105.351 Y75.141 A14.02992
G1 X106.171 Y75.111 A14.06358
G1 X112.021 Y75.211 A14.30359
G1 X112.931 Y75.281 A14.34103
G1 X113.781 Y75.411 A14.37630
G1 X114.551 Y75.581 A14.40865
G1 X120.181 Y77.131 A14.64818
G1 X120.951 Y77.391 A14.68152
G1 X121.751 Y77.721 A14.71702
G1 X122.541 Y78.111 A14.75316
G1 X127.611 Y81.021 A14.99295
G1 X128.441 Y81.571 A15.03380
G1 X129.031 Y82.031 A15.06449
G1 X129.631 Y82.541 A15.09679
G1 X133.821 Y86.621 A15.33669
G1 X134.371 Y87.221 A15.37008
G1 X134.911 Y87.891 A15.40537
G1 X135.411 Y88.611 A15.44133
G1 X138.451 Y93.601 A15.68102
G1 X138.821 Y94.281 A15.71277
G1 X139.181 Y95.061 A15.74801
G1 X139.501 Y95.921 A15.78565
G1 X141.201 Y101.511 A16.02533
G1 X141.391 Y102.301 A16.05866
G1 X141.541 Y103.151 A16.09406
G1 X141.641 Y104.011 A16.12958
G1 X141.911 Y109.851 A16.36939
G1 X141.891 Y110.711 A16.40468
G1 X141.821 Y111.571 A16.44007
G1 X141.701 Y112.401 A16.47447
G1 X140.501 Y118.121 A16.71422
G1 X140.281 Y118.941 A16.74904
G1 X140.001 Y119.751 A16.78420
G1 X139.681 Y120.521 A16.81841
G1 X137.101 Y125.771 A17.05836
G1 X136.671 Y126.511 A17.09347
G1 X136.201 Y127.221 A17.12840
G1 X135.691 Y127.891 A17.16294
G1 X131.952 Y132.249 A17.39847
G1 X131.881 Y132.331 A17.40293
G0 Z0.900 F540.000 A16.40293
G0 X111.697 Y111.429 F7800.000
G0 Z0.400
G0 F1800.000 A17.40293
G1 X111.298 Y111.803 F540.000 A17.42536
G1 X110.856 Y112.124 A17.44778
G1 X110.377 Y112.388 A17.47021
G1 X109.869 Y112.589 A17.49264
G1 X109.744 Y112.621 A17.49792
G1 X109.339 Y112.725 A17.51506
G1 X108.797 Y112.793 A17.53749
G1 X108.250 Y112.793 A17.55992
G1 X107.708 Y112.725 A17.58233
G1 X107.178 Y112.589 A17.60476
G1 X106.670 Y112.388 A17.62719
G1 X106.557 Y112.326 A17.63248
G1 X106.191 Y112.124 A17.64962
G1 X105.748 Y111.803 A17.67205
G1 X105.350 Y111.429 A17.69447
G1 X105.001 Y111.008 A17.71690
G1 X104.708 Y110.546 A17.73932
G1 X104.475 Y110.051 A17.76176
G1 X104.307 Y109.531 A17.78418
G1 X104.204 Y108.994 A17.80661
G1 X104.170 Y108.449 A17.82903
G1 X104.204 Y107.903 A17.85145
G1 X104.307 Y107.366 A17.87388
G1 X104.476 Y106.846 A17.89631
G1 X104.708 Y106.351 A17.91874
G1 X105.001 Y105.890 A17.94116
G1 X105.350 Y105.468 A17.96359
G1 X105.748 Y105.094 A17.98601
G1 X106.191 Y104.773 A18.00844
G1 X106.670 Y104.509 A18.03086
G1 X107.178 Y104.308 A18.05329
G1 X107.707 Y104.172 A18.07571
G1 X108.250 Y104.104 A18.09814
G1 X108.797 Y104.104 A18.12057
G1 X108.924 Y104.120 A18.12586
G1 X109.339 Y104.172 A18.14300
G1 X109.868 Y104.308 A18.16542
G1 X110.377 Y104.509 A18.18785
G1 X110.856 Y104.773 A18.21027
G1 X111.298 Y105.094 A18.23270
G1 X111.697 Y105.468 A18.25513
G1 X112.045 Y105.890 A18.27755
G1 X112.338 Y106.351 A18.29998
G1 X112.571 Y106.846 A18.32241
G1 X112.740 Y107.366 A18.34484
G1 X112.842 Y107.903 A18.36725
G1 X112.877 Y108.449 A18.38968
G1 X112.842 Y108.994 A18.41211
G1 X112.740 Y109.531 A18.43453
G1 X112.571 Y110.051 A18.45696
G1 X112.338 Y110.546 A18.47939
G1 X112.045 Y111.007 A18.50181
G1 X111.766 Y111.345 A18.51978
G1 X111.697 Y111.429 A18.52424
G0 X111.167 Y110.931 F7800.000
G1 X110.835 Y111.243 F540.000 A18.54293
G1 X110.467 Y111.511 A18.56161
G1 X110.068 Y111.730 A18.58029
G1 X109.563 Y111.919 A18.60237
G1 X109.203 Y112.011 A18.61764
G1 X108.751 Y112.069 A18.63633
G1 X108.295 Y112.069 A18.65501
G1 X107.844 Y112.011 A18.67369
G1 X107.402 Y111.898 A18.69238
G1 X106.906 Y111.690 A18.71446
G1 X106.580 Y111.511 A18.72972
G1 X106.211 Y111.243 A18.74841
G1 X105.879 Y110.931 A18.76710
G1 X105.589 Y110.581 A18.78578
G1 X105.345 Y110.196 A18.80446
G1 X105.151 Y109.784 A18.82315
G1 X105.010 Y109.351 A18.84184
G1 X104.925 Y108.903 A18.86052
G1 X104.896 Y108.449 A18.87920
G1 X104.925 Y107.994 A18.89789
G1 X105.010 Y107.547 A18.91657
G1 X105.151 Y107.113 A18.93526
G1 X105.345 Y106.701 A18.95394
G1 X105.589 Y106.317 A18.97262
G1 X105.879 Y105.966 A18.99131
G1 X106.211 Y105.654 A19.01000
G1 X106.580 Y105.386 A19.02868
G1 X106.979 Y105.167 A19.04736
G1 X107.402 Y104.999 A19.06605
G1 X107.844 Y104.886 A19.08473
G1 X108.296 Y104.829 A19.10342
G1 X108.834 Y104.839 A19.12550
G1 X109.203 Y104.886 A19.14077
G1 X109.644 Y104.999 A19.15945
G1 X110.068 Y105.167 A19.17814
G1 X110.467 Y105.386 A19.19682
G1 X110.835 Y105.654 A19.21551
G1 X111.167 Y105.966 A19.23419
G1 X111.458 Y106.317 A19.25287
G1 X111.702 Y106.701 A19.27156
G1 X111.896 Y107.113 A19.29024
G1 X112.036 Y107.547 A19.30893
G1 X112.122 Y107.994 A19.32761
G1 X112.150 Y108.449 A19.34630
G1 X112.122 Y108.903 A19.36498
G1 X112.036 Y109.351 A19.38366
G1 X111.896 Y109.784 A19.40235
G1 X111.702 Y110.196 A19.42104
G1 X111.458 Y110.580 A19.43972
G1 X111.237 Y110.848 A19.45394
G1 X111.167 Y110.931 A19.45840
G0 X110.638 Y110.434 F7800.000
G1 X110.372 Y110.684 F540.000 A19.47335
G1 X110.078 Y110.898 A19.48829
G1 X109.758 Y111.073 A19.50323
G1 X109.383 Y111.217 A19.51971
G1 X109.067 Y111.298 A19.53311
G1 X108.705 Y111.344 A19.54805
G1 X108.341 Y111.344 A19.56300
G1 X107.980 Y111.298 A19.57794
G1 X107.627 Y111.207 A19.59288
G1 X107.255 Y111.055 A19.60936
G1 X106.969 Y110.898 A19.62275
G1 X106.674 Y110.684 A19.63770
G1 X106.409 Y110.434 A19.65264
G1 X106.176 Y110.154 A19.66758
G1 X105.981 Y109.846 A19.68253
G1 X105.826 Y109.516 A19.69747
G1 X105.714 Y109.170 A19.71241
G1 X105.645 Y108.812 A19.72736
G1 X105.622 Y108.449 A19.74230
G1 X105.645 Y108.085 A19.75724
G1 X105.714 Y107.727 A19.77218
G1 X105.826 Y107.381 A19.78713
G1 X105.981 Y107.051 A19.80207
G1 X106.176 Y106.744 A19.81701
G1 X106.409 Y106.463 A19.83196
G1 X106.674 Y106.213 A19.84690
G1 X106.969 Y105.999 A19.86185
G1 X107.288 Y105.824 A19.87679
G1 X107.627 Y105.690 A19.89173
G1 X107.980 Y105.599 A19.90667
G1 X108.341 Y105.554 A19.92162
G1 X108.743 Y105.558 A19.93810
G1 X109.067 Y105.599 A19.95149
G1 X109.420 Y105.690 A19.96643
G1 X109.758 Y105.824 A19.98138
G1 X110.078 Y105.999 A19.99632
G1 X110.372 Y106.213 A20.01126
G1 X110.638 Y106.463 A20.02621
G1 X110.870 Y106.744 A20.04115
G1 X111.065 Y107.051 A20.05609
G1 X111.220 Y107.381 A20.07104
G1 X111.333 Y107.727 A20.08598
G1 X111.401 Y108.085 A20.10092
G1 X111.424 Y108.449 A20.11587
G1 X111.415 Y108.590 A20.12166
G1 X111.401 Y108.812 A20.13081
G1 X111.333 Y109.170 A20.14575
G1 X111.220 Y109.516 A20.16070
G1 X111.065 Y109.846 A20.17564
G1 X110.870 Y110.154 A20.19058
G1 X110.707 Y110.351 A20.20106
G1 X110.638 Y110.434 A20.20552
G0 X110.833 Y111.132 F7800.000
G0 Z0.900 F540.000 A19.20552
G0 X85.902 Y109.556 F7800.000
G0 Z0.400
G0 F1800.000 A20.20552
G1 X87.470 Y108.706 F540.000 A20.27868
G1 X87.874 Y105.731 A20.40186
G1 X87.302 Y104.530 A20.45643
G1 X86.337 Y103.895 A20.50378
G1 X88.067 Y103.462 A20.57694
G1 X89.199 Y100.681 A20.70012
G1 X88.943 Y99.375 A20.75469
G1 X88.167 Y98.521 A20.80204
G1 X89.950 Y98.532 A20.87519
G1 X91.738 Y96.119 A20.99837
G1 X91.814 Y94.791 A21.05294
G1 X91.275 Y93.770 A21.10029
G1 X93.000 Y94.225 A21.17345
G1 X95.331 Y92.332 A21.29663
G1 X95.736 Y91.065 A21.35120
G1 X95.467 Y89.942 A21.39855
G1 X97.025 Y90.811 A21.47170
G1 X99.754 Y89.557 A21.59488
G1 X100.461 Y88.431 A21.64946
G1 X100.480 Y87.277 A21.69680
G1 X101.772 Y88.505 A21.76996
G1 X104.727 Y87.970 A21.89314
G1 X105.692 Y87.055 A21.94771
G1 X105.998 Y85.941 A21.99506
G1 X106.944 Y87.453 A22.06822
G1 X109.939 Y87.669 A22.19140
G1 X111.102 Y87.023 A22.24597
G1 X111.675 Y86.021 A22.29331
G1 X112.215 Y87.720 A22.36647
G1 X115.062 Y88.674 A22.48965
G1 X116.349 Y88.337 A22.54422
G1 X117.153 Y87.509 A22.59157
G1 X117.254 Y89.289 A22.66473
G1 X119.775 Y90.922 A22.78790
G1 X121.105 Y90.915 A22.84248
G1 X122.090 Y90.313 A22.88983
G1 X121.744 Y92.063 A22.96298
G1 X123.780 Y94.270 A23.08616
G1 X125.070 Y94.595 A23.14073
G1 X126.174 Y94.256 A23.18808
G1 X125.404 Y95.865 A23.26124
G1 X126.826 Y98.510 A23.38442
G1 X127.995 Y99.145 A23.43899
G1 X129.148 Y99.092 A23.48634
G1 X128.003 Y100.459 A23.55949
G1 X128.723 Y103.374 A23.68267
G1 X129.697 Y104.280 A23.73724
G1 X130.827 Y104.515 A23.78459
G1 X129.378 Y105.554 A23.85775
G1 X129.350 Y108.557 A23.98093
G1 X130.069 Y109.677 A24.03550
G1 X131.105 Y110.185 A24.08285
G1 X129.443 Y110.832 A24.15601
G1 X128.669 Y113.733 A24.27918
G1 X129.086 Y114.996 A24.33376
G1 X129.925 Y115.713 A24.37900
G1 X128.062 Y116.057 A24.45668
G1 X126.724 Y118.605 A24.57476
G1 X126.812 Y119.904 A24.62817
G1 X127.494 Y120.877 A24.67690
G1 X126.296 Y120.663 A24.72682
G1 X125.121 Y121.082 A24.77802
G1 X123.621 Y122.841 A24.87283
G1 X123.389 Y124.093 A24.92506
G1 X123.796 Y125.173 A24.97240
G1 X122.142 Y124.506 A25.04556
G1 X119.591 Y126.092 A25.16874
G1 X119.031 Y127.298 A25.22331
G1 X119.157 Y128.446 A25.27066
G1 X117.720 Y127.388 A25.34382
G1 X114.856 Y128.290 A25.46700
G1 X114.013 Y129.319 A25.52157
G1 X113.850 Y130.462 A25.56892
G1 X112.976 Y129.392 A25.62559
G1 X111.885 Y129.030 A25.67272
G1 X109.677 Y129.275 A25.76387
G1 X108.650 Y130.029 A25.81610
G1 X108.208 Y131.095 A25.86345
G1 X107.458 Y129.476 A25.93660
G1 X104.514 Y128.886 A26.05978
G1 X103.280 Y129.382 A26.11435
G1 X102.586 Y130.305 A26.16170
G1 X102.263 Y128.551 A26.23486
G1 X99.385 Y127.164 A26.36588
G1 X97.359 Y127.824 A26.45330
G1 X97.460 Y126.362 A26.51340
G1 X95.018 Y124.304 A26.64443
G1 X92.891 Y124.439 A26.73184
G1 X93.353 Y123.048 A26.79194
G1 X91.610 Y120.603 A26.91512
G1 X90.371 Y120.119 A26.96969
G1 X89.233 Y120.317 A27.01704
G1 X90.198 Y118.817 A27.09020
G1 X89.119 Y116.015 A27.21338
G1 X88.059 Y115.253 A27.26692
G1 X86.904 Y115.131 A27.31455
G1 X88.196 Y113.934 A27.38679
G1 X87.847 Y110.951 A27.50997
G1 X86.994 Y109.930 A27.56454
G1 X86.005 Y109.591 A27.60743
G1 X85.902 Y109.556 A27.61189
G0 X85.892 Y110.319 F7800.000
G1 X85.238 Y110.266 F540.000 A27.63880
G1 X84.842 Y110.268 A27.65502
G1 X84.208 Y110.178 A27.68131
G1 X83.544 Y110.011 A27.70940
G1 X82.541 Y109.696 A27.75250
G1 X83.484 Y109.294 A27.79456
G1 X84.169 Y109.050 A27.82436
G1 X84.617 Y108.934 A27.84335
G1 X85.011 Y108.874 A27.85971
