; generated by Slic3r 0.9.9 on 2013-08-05 at 20:12:52

; layer_height = 0.2
; perimeters = 3
; top_solid_layers = 3
; bottom_solid_layers = 3
; fill_density = 0.4
; perimeter_speed = 20
; infill_speed = 40
; travel_speed = 130
; nozzle_diameter = 0.4
; filament_diameter = 2.95
; extrusion_multiplier = 1.105263
; perimeters extrusion width = 0.56mm
; infill extrusion width = 0.56mm
; solid infill extrusion width = 0.56mm
; top infill extrusion width = 0.56mm

G21 ; set units to millimeters
M190 P115 ; wait for bed temperature to be reached
M104 P210 ; set temperature
G92 A0                  ; Reset A to 0
G40                        ; Cancel cutter compensation
G64 P0.1                ; Path Blend within .1mm
G0 X108.5 Y200    ; Move to plate
M109 P210 ; wait for temperature to be reached
G90 ; use absolute coordinates
G0 Z0.200 F5400.000 A-2.00000
o<wipe_nozzle> call
G0 X86.011 Y98.258 F7800.000
G0 F5400.000 A0.00000
G1 X86.681000 Y97.758000 Z0.200000 A0.014210 F360.000000
G3 X109.421000 Y85.238000 Z0.200000 A0.455550 I140.8538 J228.9207
G1 X109.971000 Y85.018000 Z0.200000 A0.465620
G3 X111.991000 Y84.628000 Z0.200000 A0.500710 I2.3208 J6.5943
G1 X116.771000 Y84.628000 Z0.200000 A0.581970
G3 X122.051000 Y87.338000 Z0.200000 A0.686030 I-0.2679 J7.0205
G1 X130.821000 Y99.528000 Z0.200000 A0.941330
G3 X133.381000 Y105.398000 Z0.200000 A1.050650 I-15.1534 J10.1019
G1 X133.461000 Y105.988000 Z0.200000 A1.060770
G3 X133.321000 Y118.558000 Z0.200000 A1.274680 I-57.6203 J5.6440
G1 X133.081000 Y119.428000 Z0.200000 A1.290020
G3 X130.461000 Y124.588000 Z0.200000 A1.388740 I-19.4280 J-6.6194
G1 X129.451000 Y125.768000 Z0.200000 A1.415140
G3 X109.691000 Y131.818000 Z0.200000 A1.783250 I-15.0382 J-13.8224
G1 X88.931000 Y126.888000 Z0.200000 A2.146000
G3 X83.511000 Y120.308000 Z0.200000 A2.301560 I1.6141 J-6.8518
G1 X83.511000 Y103.368000 Z0.200000 A2.589550
G3 X85.952000 Y98.310000 Z0.200000 A2.687670 I7.0320 J0.2757
G0 X86.311 Y98.698 F7800.000
G1 X86.731000 Y98.358000 Z0.200000 A2.696860 F360.000000
G1 X109.141000 Y85.958000 Z0.200000 A3.132310
G1 X109.951000 Y85.588000 Z0.200000 A3.147450
G3 X112.291000 Y85.148000 Z0.200000 A3.188140 I2.3149 J5.8687
G1 X116.491000 Y85.148000 Z0.200000 A3.259550
G3 X121.631000 Y87.648000 Z0.200000 A3.360030 I0.0016 J6.5306
G1 X130.401000 Y99.838000 Z0.200000 A3.615340
G3 X132.891000 Y105.668000 Z0.200000 A3.723640 I-13.5402 J9.2298
G1 X132.931000 Y105.968000 Z0.200000 A3.728790
G3 X132.771000 Y118.598000 Z0.200000 A3.943780 I-49.8325 J5.6847
G1 X132.601000 Y119.188000 Z0.200000 A3.954220
G3 X126.961000 Y127.388000 Z0.200000 A4.125920 I-15.1958 J-4.4121
G1 X125.581000 Y128.408000 Z0.200000 A4.155100
G3 X110.181000 Y131.388000 Z0.200000 A4.429070 I-11.1824 J-16.5062
G1 X89.051000 Y126.378000 Z0.200000 A4.798260
G3 X84.041000 Y120.288000 Z0.200000 A4.942190 I1.4562 J-6.3037
G1 X84.031000 Y103.648000 Z0.200000 A5.225080
G3 X86.251000 Y98.749000 Z0.200000 A5.319290 I6.4919 J-0.0107
G0 Z0.700 F1620.000 A3.31929
G0 X92.256 Y105.352 F7800.000
G0 Z0.200
G0 F5400.000 A5.31929
G1 X92.256000 Y109.194000 Z0.200000 A5.386220 F720.000000
G1 X92.795000 Y109.114000 Z0.200000 A5.395700
G1 X92.795000 Y105.352000 Z0.200000 A5.461230
G1 X93.333000 Y105.352000 Z0.200000 A5.470610
G1 X93.333000 Y109.090000 Z0.200000 A5.535730
G1 X93.872000 Y109.173000 Z0.200000 A5.545220
G1 X93.872000 Y105.352000 Z0.200000 A5.611780
G1 X94.410000 Y105.352000 Z0.200000 A5.621160
G1 X94.410000 Y109.374000 Z0.200000 A5.691210
G1 X94.949000 Y109.725000 Z0.200000 A5.702410
G1 X94.949000 Y105.352000 Z0.200000 A5.778580
G1 X95.487000 Y105.352000 Z0.200000 A5.787960
G1 X95.487000 Y110.333000 Z0.200000 A5.874710
G0 X95.487 Y113.327 F7800.000
G1 X95.487000 Y118.333000 Z0.200000 A5.961900 F720.000000
G1 X94.949000 Y118.333000 Z0.200000 A5.971280
G1 X94.949000 Y113.935000 Z0.200000 A6.047880
G1 X94.410000 Y114.286000 Z0.200000 A6.059080
G1 X94.410000 Y118.333000 Z0.200000 A6.129570
G1 X93.872000 Y118.333000 Z0.200000 A6.138950
G1 X93.872000 Y114.487000 Z0.200000 A6.205940
G1 X93.333000 Y114.570000 Z0.200000 A6.215430
G1 X93.333000 Y118.333000 Z0.200000 A6.280980
G1 X92.795000 Y118.333000 Z0.200000 A6.290360
G1 X92.795000 Y114.546000 Z0.200000 A6.356330
G1 X92.256000 Y114.466000 Z0.200000 A6.365810
G1 X92.256000 Y118.333000 Z0.200000 A6.433170
G0 Z0.700 F1620.000 A4.43317
G0 X98.180 Y118.333 F7800.000
G0 Z0.200
G0 F5400.000 A6.43317
G1 X98.180000 Y117.242000 Z0.200000 A6.452170 F720.000000
G1 X98.719000 Y117.242000 Z0.200000 A6.461550
G1 X98.719000 Y118.333000 Z0.200000 A6.480550
G1 X99.257000 Y118.333000 Z0.200000 A6.489930
G1 X99.257000 Y117.242000 Z0.200000 A6.508940
G1 X99.796000 Y117.242000 Z0.200000 A6.518320
G1 X99.796000 Y118.333000 Z0.200000 A6.537320
G1 X100.334000 Y118.333000 Z0.200000 A6.546700
G1 X100.334000 Y117.242000 Z0.200000 A6.565710
G1 X100.873000 Y117.242000 Z0.200000 A6.575090
G1 X100.873000 Y118.333000 Z0.200000 A6.594090
G1 X101.411000 Y118.333000 Z0.200000 A6.603470
G1 X101.411000 Y117.242000 Z0.200000 A6.622470
G1 X101.950000 Y117.242000 Z0.200000 A6.631850
G1 X101.950000 Y118.333000 Z0.200000 A6.650860
G1 X102.488000 Y118.333000 Z0.200000 A6.660240
G1 X102.488000 Y117.242000 Z0.200000 A6.679240
G1 X103.027000 Y117.242000 Z0.200000 A6.688620
G1 X103.027000 Y118.333000 Z0.200000 A6.707620
G1 X103.566000 Y118.333000 Z0.200000 A6.717000
G1 X103.566000 Y117.242000 Z0.200000 A6.736010
G0 Z0.700 F1620.000 A4.73601
G0 X103.566 Y106.418 F7800.000
G0 Z0.200
G0 F5400.000 A6.73601
G1 X103.566000 Y105.352000 Z0.200000 A6.754580 F720.000000
G1 X103.027000 Y105.352000 Z0.200000 A6.763960
G1 X103.027000 Y106.418000 Z0.200000 A6.782530
G1 X102.488000 Y106.418000 Z0.200000 A6.791910
G1 X102.488000 Y105.352000 Z0.200000 A6.810480
G1 X101.950000 Y105.352000 Z0.200000 A6.819860
G1 X101.950000 Y106.418000 Z0.200000 A6.838430
G1 X101.411000 Y106.418000 Z0.200000 A6.847810
G1 X101.411000 Y105.352000 Z0.200000 A6.866380
G1 X100.873000 Y105.352000 Z0.200000 A6.875760
G1 X100.873000 Y106.418000 Z0.200000 A6.894330
G1 X100.334000 Y106.418000 Z0.200000 A6.903710
G1 X100.334000 Y105.352000 Z0.200000 A6.922280
G1 X99.796000 Y105.352000 Z0.200000 A6.931660
G1 X99.796000 Y106.418000 Z0.200000 A6.950230
G1 X99.257000 Y106.418000 Z0.200000 A6.959610
G1 X99.257000 Y105.352000 Z0.200000 A6.978180
G1 X98.719000 Y105.352000 Z0.200000 A6.987560
G1 X98.719000 Y106.418000 Z0.200000 A7.006130
G1 X98.180000 Y106.418000 Z0.200000 A7.015510
G1 X98.180000 Y105.352000 Z0.200000 A7.034080
G1 X97.641000 Y105.352000 Z0.200000 A7.043460
G1 X97.641000 Y118.333000 Z0.200000 A7.269570
G1 X97.103000 Y118.333000 Z0.200000 A7.278950
G1 X97.103000 Y105.352000 Z0.200000 A7.505050
G1 X96.564000 Y105.352000 Z0.200000 A7.514430
G1 X96.564000 Y118.333000 Z0.200000 A7.740540
G1 X96.026000 Y118.333000 Z0.200000 A7.749920
G1 X96.026000 Y105.352000 Z0.200000 A7.976030
G0 Z0.700 F1620.000 A5.97603
G0 X91.537 Y112.188 F7800.000
G0 Z0.200
G0 F5400.000 A7.97603
G1 X91.537000 Y112.189000 Z0.200000 A7.976030 F360.000000
G0 X91.212 Y111.830 F7800.000
G1 X91.537000 Y111.471000 Z0.200000 A7.981120 F360.000000
G0 Z0.700 F1620.000 A5.98112
G0 X104.847 Y103.713 F7800.000
G0 Z0.200
G0 F5400.000 A7.98112
G1 X104.847000 Y103.262000 Z0.200000 A7.984940 F360.000000
G1 X105.110000 Y103.428000 Z0.200000 A7.987580
G1 X105.110000 Y102.975000 Z0.200000 A7.991420
G1 X105.372000 Y103.143000 Z0.200000 A7.994070
G1 X105.372000 Y102.716000 Z0.200000 A7.997690
G1 X105.635000 Y102.857000 Z0.200000 A8.000220
G1 X105.635000 Y102.457000 Z0.200000 A8.003620
G1 X105.898000 Y102.623000 Z0.200000 A8.006260
G1 X105.898000 Y102.206000 Z0.200000 A8.009800
G1 X106.160000 Y102.391000 Z0.200000 A8.012530
G1 X106.160000 Y101.993000 Z0.200000 A8.015910
G1 X106.423000 Y102.160000 Z0.200000 A8.018560
G1 X106.423000 Y101.779000 Z0.200000 A8.021790
G1 X106.686000 Y101.938000 Z0.200000 A8.024400
G1 X106.686000 Y101.565000 Z0.200000 A8.027570
G1 X106.948000 Y101.751000 Z0.200000 A8.030300
G1 X106.948000 Y101.373000 Z0.200000 A8.033510
G1 X107.211000 Y101.199000 Z0.200000 A8.036190
G1 X107.211000 Y101.565000 Z0.200000 A8.039300
G1 X107.474000 Y101.378000 Z0.200000 A8.042030
G1 X107.474000 Y101.024000 Z0.200000 A8.045040
G1 X107.736000 Y101.198000 Z0.200000 A8.047720
G1 X107.736000 Y100.849000 Z0.200000 A8.050680
G1 X107.999000 Y100.698000 Z0.200000 A8.053250
G1 X107.999000 Y101.050000 Z0.200000 A8.056240
G1 X108.261000 Y100.901000 Z0.200000 A8.058800
G1 X108.261000 Y100.557000 Z0.200000 A8.061730
G1 X108.524000 Y100.416000 Z0.200000 A8.064260
G1 X108.524000 Y100.753000 Z0.200000 A8.067120
G1 X108.787000 Y100.605000 Z0.200000 A8.069680
G1 X108.787000 Y100.276000 Z0.200000 A8.072480
G1 X109.049000 Y100.153000 Z0.200000 A8.074940
G1 X109.049000 Y100.486000 Z0.200000 A8.077770
G1 X109.312000 Y100.372000 Z0.200000 A8.080200
G1 X109.312000 Y100.043000 Z0.200000 A8.083000
G1 X109.575000 Y99.933000 Z0.200000 A8.085420
G1 X109.575000 Y100.258000 Z0.200000 A8.088170
G1 X109.837000 Y100.144000 Z0.200000 A8.090610
G1 X109.837000 Y99.823000 Z0.200000 A8.093330
G1 X110.100000 Y99.722000 Z0.200000 A8.095720
G1 X110.100000 Y100.039000 Z0.200000 A8.098420
G1 X110.363000 Y99.956000 Z0.200000 A8.100760
G1 X110.363000 Y99.640000 Z0.200000 A8.103450
G1 X110.625000 Y99.559000 Z0.200000 A8.105780
G1 X110.625000 Y99.874000 Z0.200000 A8.108460
G1 X110.888000 Y99.791000 Z0.200000 A8.110800
G1 X110.888000 Y99.477000 Z0.200000 A8.113460
G1 X111.151000 Y99.396000 Z0.200000 A8.115800
G1 X111.151000 Y99.708000 Z0.200000 A8.118450
G1 X111.413000 Y99.642000 Z0.200000 A8.120750
G1 X111.413000 Y99.337000 Z0.200000 A8.123340
G1 X111.676000 Y99.282000 Z0.200000 A8.125620
G1 X111.676000 Y99.589000 Z0.200000 A8.128220
G1 X111.938000 Y99.535000 Z0.200000 A8.130500
G0 X112.822 Y99.216 F7800.000
G1 X112.822000 Y99.216000 Z0.200000 A8.130500 F360.000000
G0 X112.933 Y98.793 F7800.000
G1 X112.933000 Y92.315000 Z0.200000 A8.193280 F360.000000
G1 X113.233000 Y92.315000 Z0.200000 A8.196180
G1 X113.233000 Y98.731000 Z0.200000 A8.258360
G0 X115.558 Y98.731 F7800.000
G1 X115.558000 Y92.315000 Z0.200000 A8.320540 F360.000000
G1 X115.858000 Y92.315000 Z0.200000 A8.323440
G1 X115.858000 Y98.793000 Z0.200000 A8.386220
G0 X115.726 Y99.193 F7800.000
G1 X115.726000 Y99.166000 Z0.200000 A8.386680 F360.000000
G0 Z0.700 F1620.000 A6.38668
G0 X125.802 Y107.225 F7800.000
G0 Z0.200
G0 F5400.000 A8.38668
G1 X125.802000 Y116.435000 Z0.200000 A8.464700 F360.000000
G0 Z0.700 F1620.000 A6.46470
G0 X104.847 Y120.382 F7800.000
G0 Z0.200
G0 F5400.000 A8.46470
G1 X104.847000 Y119.947000 Z0.200000 A8.468380 F360.000000
G1 X105.109000 Y120.230000 Z0.200000 A8.471650
G1 X105.109000 Y120.689000 Z0.200000 A8.475540
G1 X105.371000 Y120.512000 Z0.200000 A8.478220
G1 X105.371000 Y120.943000 Z0.200000 A8.481860
G1 X105.633000 Y120.795000 Z0.200000 A8.484410
G1 X105.633000 Y121.186000 Z0.200000 A8.487730
G1 X105.895000 Y121.037000 Z0.200000 A8.490280
G1 X105.895000 Y121.430000 Z0.200000 A8.493610
G1 X106.157000 Y121.264000 Z0.200000 A8.496240
G1 X106.157000 Y121.674000 Z0.200000 A8.499720
G1 X106.419000 Y121.490000 Z0.200000 A8.502420
G1 X106.419000 Y121.881000 Z0.200000 A8.505730
G1 X106.681000 Y121.717000 Z0.200000 A8.508340
G1 X106.681000 Y122.073000 Z0.200000 A8.511360
G1 X106.943000 Y121.908000 Z0.200000 A8.513980
G1 X106.943000 Y122.266000 Z0.200000 A8.517010
G1 X107.204000 Y122.089000 Z0.200000 A8.519680
G1 X107.204000 Y122.458000 Z0.200000 A8.522810
G1 X107.466000 Y122.643000 Z0.200000 A8.525520
G1 X107.466000 Y122.270000 Z0.200000 A8.528690
G1 X107.728000 Y122.451000 Z0.200000 A8.531380
G1 X107.728000 Y122.793000 Z0.200000 A8.534280
G1 X107.990000 Y122.942000 Z0.200000 A8.536830
G1 X107.990000 Y122.613000 Z0.200000 A8.539620
G1 X108.252000 Y122.754000 Z0.200000 A8.542140
G1 X108.252000 Y123.092000 Z0.200000 A8.545000
G1 X108.514000 Y123.241000 Z0.200000 A8.547560
G1 X108.514000 Y122.895000 Z0.200000 A8.550480
G1 X108.776000 Y123.036000 Z0.200000 A8.553000
G1 X108.776000 Y123.380000 Z0.200000 A8.555910
G1 X109.038000 Y123.491000 Z0.200000 A8.558330
G1 X109.038000 Y123.178000 Z0.200000 A8.560980
G1 X109.300000 Y123.289000 Z0.200000 A8.563400
G1 X109.300000 Y123.603000 Z0.200000 A8.566060
G1 X109.562000 Y123.715000 Z0.200000 A8.568470
G1 X109.562000 Y123.395000 Z0.200000 A8.571190
G1 X109.824000 Y123.501000 Z0.200000 A8.573580
G1 X109.824000 Y123.827000 Z0.200000 A8.576340
G1 X110.086000 Y123.935000 Z0.200000 A8.578740
G1 X110.086000 Y123.607000 Z0.200000 A8.581520
G1 X110.348000 Y123.713000 Z0.200000 A8.583920
G1 X110.348000 Y124.012000 Z0.200000 A8.586460
G1 X110.610000 Y124.090000 Z0.200000 A8.588770
G1 X110.610000 Y123.787000 Z0.200000 A8.591340
G1 X110.872000 Y123.860000 Z0.200000 A8.593650
G1 X110.872000 Y124.168000 Z0.200000 A8.596250
G1 X111.133000 Y124.245000 Z0.200000 A8.598560
G1 X111.133000 Y123.934000 Z0.200000 A8.601200
G1 X111.395000 Y124.008000 Z0.200000 A8.603510
G1 X111.395000 Y124.323000 Z0.200000 A8.606170
G1 X111.657000 Y124.378000 Z0.200000 A8.608440
G1 X111.657000 Y124.082000 Z0.200000 A8.610950
G1 X111.919000 Y124.127000 Z0.200000 A8.613200
G1 X111.919000 Y124.424000 Z0.200000 A8.615720
G1 X112.181000 Y124.469000 Z0.200000 A8.617970
G1 X112.181000 Y124.170000 Z0.200000 A8.620500
G1 X112.443000 Y124.214000 Z0.200000 A8.622750
G1 X112.443000 Y124.515000 Z0.200000 A8.625300
G1 X112.705000 Y124.561000 Z0.200000 A8.627550
G1 X112.705000 Y124.257000 Z0.200000 A8.630120
G1 X112.967000 Y124.301000 Z0.200000 A8.632370
G1 X112.967000 Y124.601000 Z0.200000 A8.634920
G1 X113.229000 Y124.617000 Z0.200000 A8.637140
G1 X113.229000 Y124.322000 Z0.200000 A8.639640
G1 X113.491000 Y124.336000 Z0.200000 A8.641860
G1 X113.491000 Y124.632000 Z0.200000 A8.644360
G1 X113.753000 Y124.647000 Z0.200000 A8.646580
G1 X113.753000 Y124.351000 Z0.200000 A8.649090
G1 X114.015000 Y124.365000 Z0.200000 A8.651310
G1 X114.015000 Y124.662000 Z0.200000 A8.653830
G1 X114.277000 Y124.677000 Z0.200000 A8.656050
G1 X114.277000 Y124.379000 Z0.200000 A8.658570
G1 X114.539000 Y124.378000 Z0.200000 A8.660790
G1 X114.539000 Y124.676000 Z0.200000 A8.663310
G1 X114.801000 Y124.661000 Z0.200000 A8.665530
G1 X114.801000 Y124.364000 Z0.200000 A8.668050
G1 X115.062000 Y124.349000 Z0.200000 A8.670270
G1 X115.062000 Y124.645000 Z0.200000 A8.672780
G1 X115.324000 Y124.630000 Z0.200000 A8.675000
G1 X115.324000 Y124.335000 Z0.200000 A8.677500
G1 X115.586000 Y124.321000 Z0.200000 A8.679720
G1 X115.586000 Y124.615000 Z0.200000 A8.682220
G1 X115.848000 Y124.600000 Z0.200000 A8.684440
G1 X115.848000 Y124.297000 Z0.200000 A8.687010
G1 X116.110000 Y124.254000 Z0.200000 A8.689260
G1 X116.110000 Y124.557000 Z0.200000 A8.691830
G1 X116.372000 Y124.511000 Z0.200000 A8.694080
G1 X116.372000 Y124.210000 Z0.200000 A8.696630
G1 X116.634000 Y124.166000 Z0.200000 A8.698880
G1 X116.634000 Y124.465000 Z0.200000 A8.701410
G1 X116.896000 Y124.419000 Z0.200000 A8.703660
G1 X116.896000 Y124.123000 Z0.200000 A8.706170
G1 X117.158000 Y124.075000 Z0.200000 A8.708430
G1 X117.158000 Y124.374000 Z0.200000 A8.710960
G1 X117.420000 Y124.316000 Z0.200000 A8.713230
G1 X117.420000 Y124.001000 Z0.200000 A8.715900
G1 X117.682000 Y123.927000 Z0.200000 A8.718200
G1 X117.682000 Y124.238000 Z0.200000 A8.720830
G1 X117.944000 Y124.161000 Z0.200000 A8.723150
G1 X117.944000 Y123.854000 Z0.200000 A8.725750
G1 X118.206000 Y123.780000 Z0.200000 A8.728050
G1 X118.206000 Y124.083000 Z0.200000 A8.730620
G1 X118.468000 Y124.005000 Z0.200000 A8.732940
G1 X118.468000 Y123.703000 Z0.200000 A8.735500
G1 X118.729000 Y123.597000 Z0.200000 A8.737890
G1 X118.729000 Y123.928000 Z0.200000 A8.740690
G1 X118.991000 Y123.817000 Z0.200000 A8.743100
G1 X118.991000 Y123.491000 Z0.200000 A8.745860
