; generated by Slic3r 0.9.8 on 2013-05-22 at 18:47:29

; layer_height = 0.2
; perimeters = 3
; top_solid_layers = 3
; bottom_solid_layers = 3
; fill_density = 0.25
; perimeter_speed = 30
; infill_speed = 40
; travel_speed = 130
; scale = 1
; nozzle_diameter = 0.4
; filament_diameter = 2.95
; extrusion_multiplier = 1.105263
; perimeters extrusion width = 0.64mm
; infill extrusion width = 0.64mm
; first layer extrusion width = 0.64mm

M190 P115 ; wait for bed temperature to be reached
M104 P210 ; set temperature
G92 A0                  ; Reset A to 0
G40                        ; Cancel cutter compensation
G64 P0.1                ; Path Blend within .1mm
G0 X108.5 Y200    ; Move to plate
M109 P210 ; wait for temperature to be reached
G90 ; use absolute coordinates
G21 ; set units to millimeters
G0 Z0.200 F5400.000 A-1.00000
G0 X120.650 Y120.190 F7800.000
G0 F5400.000 A0.00000
G1 X120.190000 Y120.650000 Z0.200000 A0.012560 F540.000000
G3 X123.930000 Y115.300000 Z0.200000 A1.932410 I-11.6877 J-12.1527
G1 X123.520000 Y116.160000 Z0.200000 A1.950810
G3 X120.650000 Y120.190000 Z0.200000 A2.046690 I-14.6699 J-7.4103
G0 X120.210 Y119.790 F7800.000
G1 X119.790000 Y120.210000 Z0.200000 A2.058160 F540.000000
G3 X94.320000 Y100.520000 Z0.200000 A2.953800 I-11.3221 J-11.6726
G1 X95.110000 Y99.240000 Z0.200000 A2.982840
G3 X122.670000 Y100.520000 Z0.200000 A3.618860 I13.3850 J9.1459
G1 X122.980000 Y101.090000 Z0.200000 A3.631390
G3 X120.210000 Y119.790000 Z0.200000 A4.020920 I-14.3175 J7.4343
G0 Z0.700 F1620.000 A3.02092
G0 X110.279 Y110.279 F7800.000
G0 Z0.200
G0 F5400.000 A4.02092
G1 X109.898000 Y110.592000 Z0.200000 A4.030440 F540.000000
G3 X110.592000 Y109.898000 Z0.200000 A4.316170 I-1.3918 J-2.0858
G1 X110.339000 Y110.213000 Z0.200000 A4.323970
G1 X110.279000 Y110.279000 Z0.200000 A4.325700
G0 X109.856 Y109.856 F7800.000
G1 X109.566000 Y110.095000 Z0.200000 A4.332960 F540.000000
G3 X110.095000 Y109.566000 Z0.200000 A4.550800 I-1.0607 J-1.5897
G1 X109.916000 Y109.790000 Z0.200000 A4.556330
G1 X109.856000 Y109.856000 Z0.200000 A4.558060
G0 X109.434 Y109.434 F7800.000
G1 X109.234000 Y109.598000 Z0.200000 A4.563060 F540.000000
G3 X109.598000 Y109.234000 Z0.200000 A4.713010 I-0.7296 J-1.0936
G1 X109.494000 Y109.367000 Z0.200000 A4.716280
G1 X109.434000 Y109.434000 Z0.200000 A4.718010
G0 X109.569 Y110.015 F7800.000
G0 Z0.700 F1620.000 A3.71801
G0 X113.213 Y115.554 F7800.000
G0 Z0.200
G0 F5400.000 A4.71801
G1 X112.499000 Y115.982000 Z0.200000 A4.734090 F540.000000
G3 X113.882000 Y115.058000 Z0.200000 A5.730900 I-3.9987 J-7.4821
G1 X113.285000 Y115.501000 Z0.200000 A5.745250
G1 X113.213000 Y115.554000 Z0.200000 A5.746980
G0 X113.546 Y116.051 F7800.000
G1 X112.781000 Y116.509000 Z0.200000 A5.764190 F540.000000
G3 X114.261000 Y115.520000 Z0.200000 A6.831240 I-4.2810 J-8.0082
G1 X113.618000 Y115.998000 Z0.200000 A6.846720
G1 X113.546000 Y116.051000 Z0.200000 A6.848450
G0 X113.878 Y116.548 F7800.000
G1 X113.063000 Y117.037000 Z0.200000 A6.866790 F378.000000
G3 X115.345000 Y115.345000 Z0.200000 A7.986690 I-4.5584 J-8.5328
G1 X114.641000 Y115.982000 Z0.200000 A8.005040
G3 X113.878000 Y116.548000 Z0.200000 A8.023380 I-69.9480 J-93.4965
G0 X113.347 Y116.275 F7800.000
G0 X112.746 Y115.407
G1 X112.746000 Y101.593000 Z0.200000 A8.294400 F720.000000
G1 X113.353000 Y102.024000 Z0.200000 A8.308990
G1 X113.353000 Y114.976000 Z0.200000 A8.563110
G1 X113.960000 Y114.451000 Z0.200000 A8.578850
G1 X113.960000 Y102.549000 Z0.200000 A8.812360
G1 X114.566000 Y103.195000 Z0.200000 A8.829750
G1 X114.566000 Y113.805000 Z0.200000 A9.037900
G1 X115.173000 Y112.957000 Z0.200000 A9.058360
G1 X115.173000 Y104.043000 Z0.200000 A9.233240
G1 X115.780000 Y105.200000 Z0.200000 A9.258870
G1 X115.780000 Y111.800000 Z0.200000 A9.388370
G1 X116.386000 Y108.770000 Z0.200000 A9.448990
G1 X116.386000 Y108.230000 Z0.200000 A9.459600
G0 Z0.700 F1620.000 A8.45960
G0 X105.467 Y108.079 F7800.000
G0 Z0.200
G0 F5400.000 A9.45960
G1 X105.467000 Y100.952000 Z0.200000 A9.599410 F720.000000
G1 X106.073000 Y100.734000 Z0.200000 A9.612060
G1 X106.073000 Y106.820000 Z0.200000 A9.731470
G1 X106.680000 Y106.247000 Z0.200000 A9.747850
G1 X106.680000 Y100.567000 Z0.200000 A9.859280
G1 X107.287000 Y100.448000 Z0.200000 A9.871400
G1 X107.287000 Y105.902000 Z0.200000 A9.978410
G1 X107.893000 Y105.715000 Z0.200000 A9.990870
G1 X107.893000 Y100.375000 Z0.200000 A10.095630
G1 X108.500000 Y100.345000 Z0.200000 A10.107550
G1 X108.500000 Y105.655000 Z0.200000 A10.211730
G1 X109.107000 Y105.715000 Z0.200000 A10.223690
G1 X109.107000 Y100.375000 Z0.200000 A10.328450
G1 X109.713000 Y100.448000 Z0.200000 A10.340440
G1 X109.713000 Y105.902000 Z0.200000 A10.447450
G1 X110.320000 Y106.247000 Z0.200000 A10.461130
G1 X110.320000 Y100.567000 Z0.200000 A10.572560
G1 X110.927000 Y100.734000 Z0.200000 A10.584910
G1 X110.927000 Y106.820000 Z0.200000 A10.704310
G1 X111.533000 Y108.079000 Z0.200000 A10.731730
G1 X111.533000 Y100.952000 Z0.200000 A10.871540
G1 X112.140000 Y101.239000 Z0.200000 A10.884710
G1 X112.140000 Y115.761000 Z0.200000 A11.169610
G1 X111.533000 Y116.047000 Z0.200000 A11.182770
G1 X111.533000 Y108.921000 Z0.200000 A11.322590
G1 X110.927000 Y110.165000 Z0.200000 A11.349740
G1 X110.927000 Y116.266000 Z0.200000 A11.469440
G1 X110.320000 Y116.433000 Z0.200000 A11.481780
G1 X110.320000 Y110.753000 Z0.200000 A11.593210
G1 X109.713000 Y111.098000 Z0.200000 A11.606900
G1 X109.713000 Y116.552000 Z0.200000 A11.713900
G1 X109.107000 Y116.625000 Z0.200000 A11.725890
G1 X109.107000 Y111.285000 Z0.200000 A11.830660
G1 X108.500000 Y111.345000 Z0.200000 A11.842620
G1 X108.500000 Y116.655000 Z0.200000 A11.946790
G1 X107.893000 Y116.625000 Z0.200000 A11.958710
G1 X107.893000 Y111.285000 Z0.200000 A12.063480
G1 X107.287000 Y111.098000 Z0.200000 A12.075930
G1 X107.287000 Y116.552000 Z0.200000 A12.182940
G1 X106.680000 Y116.433000 Z0.200000 A12.195070
G1 X106.680000 Y110.753000 Z0.200000 A12.306500
G1 X106.073000 Y110.180000 Z0.200000 A12.322870
G1 X106.073000 Y116.266000 Z0.200000 A12.442280
G0 Z0.700 F1620.000 A11.44228
G0 X105.467 Y108.921 F7800.000
G0 Z0.200
G0 F5400.000 A12.44228
G1 X105.467000 Y116.047000 Z0.200000 A12.582090 F720.000000
G1 X104.860000 Y115.761000 Z0.200000 A12.595260
G1 X104.860000 Y101.239000 Z0.200000 A12.880160
G1 X104.254000 Y101.593000 Z0.200000 A12.893930
G1 X104.254000 Y115.407000 Z0.200000 A13.164950
G1 X103.647000 Y114.976000 Z0.200000 A13.179550
G1 X103.647000 Y102.024000 Z0.200000 A13.433660
G1 X103.040000 Y102.549000 Z0.200000 A13.449400
G1 X103.040000 Y114.451000 Z0.200000 A13.682920
G1 X102.434000 Y113.805000 Z0.200000 A13.700310
G1 X102.434000 Y103.195000 Z0.200000 A13.908460
G1 X101.827000 Y104.043000 Z0.200000 A13.928910
G1 X101.827000 Y112.957000 Z0.200000 A14.103800
G1 X101.220000 Y111.800000 Z0.200000 A14.129420
G1 X101.220000 Y105.200000 Z0.200000 A14.258920
G1 X100.614000 Y108.229000 Z0.200000 A14.319540
G1 X100.614000 Y108.771000 Z0.200000 A14.330160
M140 P110 ; set bed temperature
G0 Z0.400 F5400.000 A13.33016
G0 X91.630 Y108.790 F7800.000
G0 F5400.000 A14.33016
G1 X91.630000 Y107.620000 Z0.400000 A14.352760 F1800.000000
G3 X125.360000 Y108.790000 Z0.400000 A15.364930 I16.8553 J0.8643
G1 X125.320000 Y109.740000 Z0.400000 A15.383290
G3 X98.890000 Y122.360000 Z0.400000 A16.068240 I-16.7831 J-1.1626
G1 X98.120000 Y121.800000 Z0.400000 A16.086620
G3 X91.630000 Y108.790000 Z0.400000 A16.376860 I10.3636 J-13.2936
G0 X92.220 Y108.770 F7800.000
G1 X92.230000 Y107.670000 Z0.400000 A16.398100 F1800.000000
G3 X124.760000 Y108.770000 Z0.400000 A17.374610 I16.2560 J0.8151
G1 X124.720000 Y109.720000 Z0.400000 A17.392970
G3 X115.900000 Y122.980000 Z0.400000 A17.714350 I-15.9386 J-1.0384
G1 X115.040000 Y123.390000 Z0.400000 A17.732740
G3 X100.520000 Y122.670000 Z0.400000 A18.023860 I-6.5618 J-14.4408
G1 X99.240000 Y121.880000 Z0.400000 A18.052910
G3 X92.220000 Y108.770000 Z0.400000 A18.351080 I9.0826 J-13.2979
G0 Z0.900 F5400.000 A17.35108
G0 X105.984 Y108.500 F7800.000
G0 Z0.400
G0 F5400.000 A18.35108
G1 X106.032000 Y108.009000 Z0.400000 A18.360610 F1800.000000
G3 X106.032000 Y108.991000 Z0.400000 A18.646340 I2.4549 J0.4910
G1 X105.988000 Y108.589000 Z0.400000 A18.654140
G1 X105.984000 Y108.500000 Z0.400000 A18.655870
G0 X106.582 Y108.500 F7800.000
G1 X106.619000 Y108.126000 Z0.400000 A18.663130 F1800.000000
G3 X106.619000 Y108.874000 Z0.400000 A18.880980 I1.8785 J0.3740
G1 X106.586000 Y108.589000 Z0.400000 A18.886510
G1 X106.582000 Y108.500000 Z0.400000 A18.888240
G0 X107.180 Y108.500 F7800.000
G1 X107.205000 Y108.242000 Z0.400000 A18.893240 F1800.000000
G3 X107.236000 Y108.883000 Z0.400000 A19.040690 I1.2945 J0.2586
G1 X107.184000 Y108.589000 Z0.400000 A19.046460
G1 X107.180000 Y108.500000 Z0.400000 A19.048190
G0 X106.667 Y108.193 F7800.000
G0 Z0.900 F5400.000 A18.04819
G0 X100.147 Y107.062 F7800.000
G0 Z0.400
G0 F5400.000 A19.04819
G1 X100.179000 Y106.845000 Z0.400000 A19.052440 F1800.000000
G3 X100.057000 Y107.668000 Z0.400000 A20.066270 I8.3105 J1.6525
G1 X100.134000 Y107.151000 Z0.400000 A20.076370
G1 X100.147000 Y107.062000 Z0.400000 A20.078100
G0 X99.556 Y106.975 F7800.000
G1 X99.593000 Y106.728000 Z0.400000 A20.082910 F1800.000000
G3 X99.462000 Y107.610000 Z0.400000 A21.167170 I8.9068 J1.7736
G1 X99.543000 Y107.063000 Z0.400000 A21.177840
G1 X99.556000 Y106.975000 Z0.400000 A21.179570
G0 X98.965 Y106.887 F7800.000
G1 X99.006000 Y106.612000 Z0.400000 A21.184950 F1260.000000
G3 X98.820000 Y108.500000 Z0.400000 A22.322230 I9.4914 J1.8882
G1 X98.867000 Y107.551000 Z0.400000 A22.340580
G2 X98.965000 Y106.887000 Z0.400000 A22.353540 I-192.8061 J-28.7956
G0 X99.521 Y106.668 F7800.000
G0 Z0.900 F5400.000 A21.35354
G0 X108.079 Y111.533 F7800.000
G0 Z0.400
G0 F5400.000 A22.35354
G1 X100.953000 Y111.533000 Z0.400000 A22.493350 F2400.000000
G1 X100.734000 Y110.926000 Z0.400000 A22.506000
G1 X106.820000 Y110.926000 Z0.400000 A22.625410
G1 X106.246000 Y110.320000 Z0.400000 A22.641790
G1 X100.567000 Y110.320000 Z0.400000 A22.753220
G1 X100.448000 Y109.713000 Z0.400000 A22.765350
G1 X105.902000 Y109.713000 Z0.400000 A22.872350
G1 X105.715000 Y109.107000 Z0.400000 A22.884810
G1 X100.375000 Y109.107000 Z0.400000 A22.989580
G1 X100.345000 Y108.500000 Z0.400000 A23.001490
G1 X105.655000 Y108.500000 Z0.400000 A23.105670
G1 X105.715000 Y107.893000 Z0.400000 A23.117630
G1 X100.375000 Y107.893000 Z0.400000 A23.222390
G1 X100.448000 Y107.287000 Z0.400000 A23.234380
G1 X105.902000 Y107.287000 Z0.400000 A23.341390
G1 X106.247000 Y106.680000 Z0.400000 A23.355080
G1 X100.567000 Y106.680000 Z0.400000 A23.466510
G1 X100.734000 Y106.073000 Z0.400000 A23.478850
G1 X106.820000 Y106.073000 Z0.400000 A23.598260
G1 X108.079000 Y105.467000 Z0.400000 A23.625670
G1 X100.953000 Y105.467000 Z0.400000 A23.765490
G1 X101.239000 Y104.860000 Z0.400000 A23.778650
G1 X115.761000 Y104.860000 Z0.400000 A24.063550
G1 X116.047000 Y105.467000 Z0.400000 A24.076720
G1 X108.921000 Y105.467000 Z0.400000 A24.216530
G1 X110.180000 Y106.073000 Z0.400000 A24.243950
G1 X116.266000 Y106.073000 Z0.400000 A24.363360
G1 X116.433000 Y106.680000 Z0.400000 A24.375700
G1 X110.753000 Y106.680000 Z0.400000 A24.487130
G1 X111.098000 Y107.287000 Z0.400000 A24.500810
G1 X116.552000 Y107.287000 Z0.400000 A24.607820
G1 X116.625000 Y107.893000 Z0.400000 A24.619810
G1 X111.285000 Y107.893000 Z0.400000 A24.724580
G1 X111.345000 Y108.500000 Z0.400000 A24.736540
G1 X116.655000 Y108.500000 Z0.400000 A24.840710
G1 X116.625000 Y109.107000 Z0.400000 A24.852630
G1 X111.285000 Y109.107000 Z0.400000 A24.957390
G1 X111.088000 Y109.713000 Z0.400000 A24.969910
G1 X116.552000 Y109.713000 Z0.400000 A25.077110
G1 X116.433000 Y110.320000 Z0.400000 A25.089240
G1 X110.753000 Y110.320000 Z0.400000 A25.200670
G1 X110.180000 Y110.926000 Z0.400000 A25.217050
G1 X116.266000 Y110.926000 Z0.400000 A25.336450
G0 Z0.900 F5400.000 A24.33645
G0 X115.407 Y104.254 F7800.000
G0 Z0.400
G0 F5400.000 A25.33645
G1 X101.593000 Y104.254000 Z0.400000 A25.607470 F2400.000000
G1 X102.024000 Y103.647000 Z0.400000 A25.622070
G1 X114.976000 Y103.647000 Z0.400000 A25.876190
G1 X114.451000 Y103.040000 Z0.400000 A25.891930
G1 X102.549000 Y103.040000 Z0.400000 A26.125440
G1 X103.195000 Y102.434000 Z0.400000 A26.142830
G1 X113.805000 Y102.434000 Z0.400000 A26.350980
G1 X112.957000 Y101.827000 Z0.400000 A26.371430
G1 X104.043000 Y101.827000 Z0.400000 A26.546320
G1 X105.200000 Y101.220000 Z0.400000 A26.571950
G1 X111.800000 Y101.220000 Z0.400000 A26.701440
G1 X108.770000 Y100.614000 Z0.400000 A26.762070
G1 X108.230000 Y100.614000 Z0.400000 A26.772680
G0 Z0.900 F5400.000 A25.77268
G0 X108.921 Y111.533 F7800.000
G0 Z0.400
G0 F5400.000 A26.77268
G1 X116.047000 Y111.533000 Z0.400000 A26.912490 F2400.000000
G1 X115.761000 Y112.140000 Z0.400000 A26.925650
G1 X101.239000 Y112.140000 Z0.400000 A27.210550
G1 X101.593000 Y112.746000 Z0.400000 A27.224330
G1 X115.407000 Y112.746000 Z0.400000 A27.495350
G1 X114.976000 Y113.353000 Z0.400000 A27.509940
G1 X102.024000 Y113.353000 Z0.400000 A27.764060
G1 X102.549000 Y113.960000 Z0.400000 A27.779800
G1 X114.451000 Y113.960000 Z0.400000 A28.013310
G1 X113.805000 Y114.566000 Z0.400000 A28.030700
G1 X103.195000 Y114.566000 Z0.400000 A28.238850
G1 X104.043000 Y115.173000 Z0.400000 A28.259310
G1 X112.957000 Y115.173000 Z0.400000 A28.434200
G1 X111.800000 Y115.780000 Z0.400000 A28.459820
G1 X105.200000 Y115.780000 Z0.400000 A28.589320
G1 X108.229000 Y116.386000 Z0.400000 A28.649940
G1 X108.771000 Y116.386000 Z0.400000 A28.660560
G0 Z0.600 F5400.000 A27.66056
G0 X108.500 Y111.016 F7800.000
G0 F5400.000 A28.66056
G1 X108.009000 Y110.968000 Z0.600000 A28.670090 F1800.000000
G3 X108.991000 Y110.968000 Z0.600000 A28.955820 I0.4910 J-2.4549
G1 X108.589000 Y111.012000 Z0.600000 A28.963620
G1 X108.500000 Y111.016000 Z0.600000 A28.965350
G0 X108.500 Y110.418 F7800.000
G1 X108.126000 Y110.381000 Z0.600000 A28.972610 F1800.000000
G3 X108.874000 Y110.381000 Z0.600000 A29.190460 I0.3740 J-1.8798
G1 X108.589000 Y110.414000 Z0.600000 A29.195990
G1 X108.500000 Y110.418000 Z0.600000 A29.197720
G0 X108.500 Y109.820 F7800.000
G1 X108.242000 Y109.795000 Z0.600000 A29.202720 F1800.000000
G3 X108.883000 Y109.764000 Z0.600000 A29.350170 I0.2587 J-1.2940
G1 X108.589000 Y109.816000 Z0.600000 A29.355940
G1 X108.500000 Y109.820000 Z0.600000 A29.357670
G0 X108.193 Y110.333 F7800.000
G0 Z1.100 F5400.000 A28.35767
G0 X106.845 Y116.821 F7800.000
G0 Z0.600
G0 F5400.000 A29.35767
G1 X106.037000 Y116.619000 Z0.600000 A29.373740 F1800.000000
G3 X109.332000 Y116.943000 Z0.600000 A30.338390 I2.4596 J-8.0965
G1 X108.500000 Y116.984000 Z0.600000 A30.354460
G3 X106.845000 Y116.821000 Z0.600000 A30.386620 I0.0021 J-8.5046
G0 X106.728 Y117.407 F7800.000
G1 X105.864000 Y117.191000 Z0.600000 A30.403830 F1800.000000
G3 X107.610000 Y117.538000 Z0.600000 A31.470880 I2.6305 J-8.6697
G1 X106.817000 Y117.420000 Z0.600000 A31.486360
G1 X106.728000 Y117.407000 Z0.600000 A31.488090
G0 X106.612 Y117.994 F7800.000
G1 X105.690000 Y117.763000 Z0.600000 A31.506430 F1260.000000
G3 X107.551000 Y118.133000 Z0.600000 A32.643720 I2.8059 J-9.2478
G1 X106.700000 Y118.007000 Z0.600000 A32.660330
G1 X106.612000 Y117.994000 Z0.600000 A32.662060
G0 X106.429 Y117.425 F7800.000
G0 X106.073 Y116.266
G1 X106.073000 Y110.180000 Z0.600000 A32.781470 F2400.000000
G1 X106.680000 Y110.753000 Z0.600000 A32.797850
G1 X106.680000 Y116.433000 Z0.600000 A32.909280
G1 X107.287000 Y116.552000 Z0.600000 A32.921400
G1 X107.287000 Y111.098000 Z0.600000 A33.028410
G1 X107.893000 Y111.285000 Z0.600000 A33.040870
G1 X107.893000 Y116.625000 Z0.600000 A33.145640
G1 X108.500000 Y116.655000 Z0.600000 A33.157550
G1 X108.500000 Y111.345000 Z0.600000 A33.261730
