; generated by Slic3r 0.9.8 on 2013-03-27 at 22:24:40

; layer_height = 0.3
; perimeters = 4
; top_solid_layers = 3
; bottom_solid_layers = 3
; fill_density = .2
; perimeter_speed = 15
; infill_speed = 40
; travel_speed = 130
; scale = 1
; nozzle_diameter = 0.4
; filament_diameter = 3
; extrusion_multiplier = 1
; perimeters extrusion width = 0.42mm
; infill extrusion width = 0.42mm
; support material extrusion width = 0.42mm
; first layer extrusion width = 0.42mm

M190 P115 ; wait for bed temperature to be reached
M104 P235 ; set temperature
G92 A0                  ; Reset A to 0
G40                        ; Cancel cutter compensation
G64 P0.1                ; Path Blend within .1mm
G0 X108.5 Y108.5  ; Move to center
M109 P235 ; wait for temperature to be reached
G90 ; use absolute coordinates
G21 ; set units to millimeters
G0 Z0.400 F1800.000 A-1.00000
G0 X97.338 Y63.798 F7800.000
G0 F1800.000 A0.00000
G1 X97.918 Y63.588 F480.000 A0.01451
G1 X98.678 Y63.348 A0.03326
G1 X99.268 Y63.188 A0.04764
G1 X100.038 Y63.018 A0.06619
G1 X100.738 Y62.898 A0.08290
G1 X101.528 Y62.808 A0.10160
G1 X102.128 Y62.768 A0.11575
G1 X102.928 Y62.748 A0.13457
G1 X103.698 Y62.778 A0.15270
G1 X104.488 Y62.848 A0.17136
G1 X105.098 Y62.928 A0.18583
G1 X105.878 Y63.068 A0.20447
G1 X106.548 Y63.218 A0.22062
G1 X107.318 Y63.438 A0.23946
G1 X107.928 Y63.648 A0.25464
G1 X108.668 Y63.938 A0.27334
G1 X109.268 Y64.208 A0.28881
G1 X109.978 Y64.568 A0.30754
G1 X110.588 Y64.918 A0.32408
G1 X111.168 Y65.288 A0.34027
G1 X183.048 Y111.398 A2.34920
G1 X183.898 Y112.008 A2.37381
G1 X184.388 Y112.418 A2.38884
G1 X184.818 Y112.808 A2.40250
G1 X185.298 Y113.288 A2.41847
G1 X185.678 Y113.708 A2.43179
G1 X186.098 Y114.228 A2.44751
G1 X186.438 Y114.688 A2.46097
G1 X186.828 Y115.268 A2.47741
G1 X187.118 Y115.758 A2.49081
G1 X187.368 Y116.228 A2.50333
G1 X187.618 Y116.738 A2.51669
G1 X187.918 Y117.438 A2.53461
G1 X188.108 Y117.968 A2.54785
G1 X188.308 Y118.618 A2.56385
G1 X188.448 Y119.178 A2.57743
G1 X188.578 Y119.868 A2.59395
G1 X188.658 Y120.428 A2.60725
G1 X188.718 Y121.038 A2.62167
G1 X188.748 Y121.608 A2.63510
G1 X188.748 Y122.338 A2.65227
G1 X188.718 Y122.898 A2.66546
G1 X188.658 Y123.518 A2.68012
G1 X185.768 Y143.178 A3.14757
G1 X185.658 Y143.828 A3.16308
G1 X185.568 Y144.318 A3.17480
G1 X185.438 Y144.868 A3.18810
G1 X185.198 Y145.668 A3.20775
G1 X184.998 Y146.208 A3.22129
G1 X184.768 Y146.748 A3.23510
G1 X184.528 Y147.258 A3.24836
G1 X184.228 Y147.828 A3.26351
G1 X183.938 Y148.318 A3.27691
G1 X183.508 Y148.958 A3.29504
G1 X183.168 Y149.408 A3.30831
G1 X182.788 Y149.868 A3.32235
G1 X181.988 Y150.718 A3.34981
G1 X181.568 Y151.108 A3.36329
G1 X180.898 Y151.648 A3.38353
G1 X180.028 Y152.258 A3.40853
G1 X179.538 Y152.558 A3.42204
G1 X178.878 Y152.908 A3.43962
G1 X178.368 Y153.148 A3.45288
G1 X177.768 Y153.398 A3.46817
G1 X177.238 Y153.588 A3.48141
G1 X176.618 Y153.778 A3.49667
G1 X176.068 Y153.918 A3.51002
G1 X175.328 Y154.068 A3.52778
G1 X174.758 Y154.148 A3.54132
G1 X174.168 Y154.198 A3.55525
G1 X173.248 Y154.238 A3.57691
G1 X65.078 Y154.428 A6.12154
G1 X42.568 Y154.428 A6.65107
G1 X42.128 Y154.418 A6.66142
G1 X39.328 Y154.228 A6.72744
G1 X38.718 Y154.138 A6.74194
G1 X38.118 Y153.988 A6.75649
G1 X37.818 Y153.888 A6.76393
G1 X35.028 Y152.778 A6.83457
G1 X34.518 Y152.548 A6.84773
G1 X34.028 Y152.278 A6.86089
G1 X33.568 Y151.978 A6.87381
G1 X32.918 Y151.448 A6.89354
G1 X32.528 Y151.048 A6.90668
G1 X32.338 Y150.838 A6.91334
G1 X31.998 Y150.398 A6.92642
G1 X31.838 Y150.168 A6.93302
G1 X31.558 Y149.688 A6.94609
G1 X28.918 Y144.778 A7.07723
G1 X28.788 Y144.498 A7.08449
G1 X28.568 Y143.928 A7.09886
G1 X28.408 Y143.328 A7.11347
G1 X28.298 Y142.728 A7.12782
G1 X28.248 Y142.118 A7.14222
G1 X28.238 Y110.718 A7.88088
G1 X28.288 Y100.038 A8.13212
G1 X28.308 Y99.478 A8.14531
G1 X28.338 Y99.198 A8.15193
G1 X28.498 Y98.378 A8.17158
G1 X28.658 Y97.838 A8.18483
G1 X28.978 Y97.068 A8.20445
G1 X29.108 Y96.818 A8.21108
G1 X29.248 Y96.568 A8.21782
G1 X29.718 Y95.878 A8.23746
G1 X30.078 Y95.448 A8.25065
G1 X30.688 Y94.868 A8.27045
G1 X30.898 Y94.688 A8.27696
G1 X31.588 Y94.218 A8.29660
G1 X47.058 Y84.898 A8.72146
G1 X47.948 Y84.448 A8.74492
G1 X97.281 Y63.823 A10.00278
G1 X97.338 Y63.798 A10.00424
G0 X97.508 Y64.178 F7800.000
G1 X98.048 Y63.978 F480.000 A10.01779
G1 X98.808 Y63.738 A10.03654
G1 X100.128 Y63.428 A10.06844
G1 X100.778 Y63.318 A10.08394
G1 X101.568 Y63.228 A10.10265
G1 X102.138 Y63.188 A10.11609
G1 X102.938 Y63.168 A10.13492
G1 X103.668 Y63.188 A10.15210
G1 X104.458 Y63.258 A10.17075
G1 X105.798 Y63.478 A10.20270
G1 X106.428 Y63.618 A10.21788
G1 X107.198 Y63.838 A10.23672
G1 X107.778 Y64.038 A10.25115
G1 X108.518 Y64.328 A10.26985
G1 X109.078 Y64.578 A10.28427
G1 X109.788 Y64.938 A10.30300
G1 X110.358 Y65.268 A10.31849
G1 X110.938 Y65.638 A10.33468
G1 X182.818 Y111.748 A12.34361
G1 X183.648 Y112.348 A12.36770
G1 X184.108 Y112.728 A12.38174
G1 X184.538 Y113.118 A12.39539
G1 X184.988 Y113.568 A12.41036
G1 X185.368 Y113.988 A12.42369
G1 X185.768 Y114.478 A12.43857
G1 X186.108 Y114.938 A12.45202
G1 X186.468 Y115.478 A12.46729
G1 X186.998 Y116.418 A12.49268
G1 X187.248 Y116.928 A12.50604
G1 X187.528 Y117.578 A12.52269
G1 X187.718 Y118.108 A12.53593
G1 X187.898 Y118.718 A12.55089
G1 X188.038 Y119.278 A12.56447
G1 X188.168 Y119.928 A12.58007
G1 X188.248 Y120.488 A12.59337
G1 X188.308 Y121.058 A12.60686
G1 X188.338 Y121.628 A12.62028
G1 X188.338 Y122.308 A12.63628
G1 X188.308 Y122.868 A12.64947
G1 X188.248 Y123.458 A12.66342
G1 X185.358 Y143.118 A13.13088
G1 X185.248 Y143.768 A13.14639
G1 X185.028 Y144.778 A13.17071
G1 X184.808 Y145.528 A13.18909
G1 X184.398 Y146.568 A13.21539
G1 X184.158 Y147.078 A13.22865
G1 X183.578 Y148.108 A13.25646
G1 X183.178 Y148.708 A13.27342
G1 X182.838 Y149.158 A13.28669
G1 X182.478 Y149.588 A13.29988
G1 X181.708 Y150.408 A13.32634
G1 X181.288 Y150.798 A13.33983
G1 X180.658 Y151.308 A13.35889
G1 X179.808 Y151.898 A13.38323
G1 X179.318 Y152.198 A13.39675
G1 X178.698 Y152.538 A13.41338
G1 X178.188 Y152.778 A13.42664
G1 X177.628 Y153.008 A13.44088
G1 X177.098 Y153.198 A13.45413
G1 X176.508 Y153.378 A13.46864
G1 X175.958 Y153.518 A13.48199
G1 X175.268 Y153.648 A13.49851
G1 X174.698 Y153.728 A13.51205
G1 X174.148 Y153.788 A13.52506
G1 X173.248 Y153.828 A13.54626
G1 X65.078 Y154.018 A16.09088
G1 X42.568 Y154.018 A16.62041
G1 X39.368 Y153.818 A16.69584
G1 X38.798 Y153.728 A16.70941
G1 X38.238 Y153.588 A16.72299
G1 X37.958 Y153.498 A16.72991
G1 X35.188 Y152.398 A16.80002
G1 X34.428 Y152.038 A16.81980
G1 X34.188 Y151.898 A16.82634
G1 X33.508 Y151.408 A16.84606
G1 X32.898 Y150.838 A16.86570
G1 X32.368 Y150.198 A16.88524
G1 X31.918 Y149.488 A16.90502
G1 X29.288 Y144.598 A17.03563
G1 X29.168 Y144.338 A17.04237
G1 X28.968 Y143.798 A17.05592
G1 X28.888 Y143.518 A17.06277
G1 X28.708 Y142.668 A17.08321
G1 X28.658 Y142.098 A17.09667
G1 X28.648 Y110.718 A17.83486
G1 X28.698 Y100.038 A18.08610
G1 X28.728 Y99.488 A18.09906
G1 X28.798 Y98.948 A18.11187
G1 X28.918 Y98.418 A18.12465
G1 X29.078 Y97.888 A18.13767
G1 X29.408 Y97.138 A18.15695
G1 X29.678 Y96.668 A18.16970
G1 X29.988 Y96.208 A18.18275
G1 X30.338 Y95.788 A18.19561
G1 X30.718 Y95.398 A18.20842
G1 X31.128 Y95.038 A18.22125
G1 X31.808 Y94.568 A18.24070
G1 X47.278 Y85.248 A18.66556
G1 X48.118 Y84.828 A18.68765
G1 X97.451 Y64.203 A19.94551
G1 X97.508 Y64.178 A19.94698
G0 Z0.900 F480.000 A18.94698
G0 X43.888 Y126.181 F7800.000
G0 Z0.400
G0 F1800.000 A19.94698
G1 X43.511 Y126.276 F480.000 A19.95612
G1 X43.127 Y126.333 A19.96525
G1 X42.739 Y126.352 A19.97440
G1 X42.351 Y126.333 A19.98354
G1 X41.967 Y126.276 A19.99267
G1 X41.590 Y126.181 A20.00181
G1 X41.224 Y126.050 A20.01095
G1 X40.873 Y125.884 A20.02010
G1 X40.540 Y125.685 A20.02923
G1 X40.228 Y125.453 A20.03837
G1 X39.940 Y125.192 A20.04751
G1 X39.679 Y124.904 A20.05665
G1 X39.447 Y124.592 A20.06578
G1 X39.248 Y124.259 A20.07493
G1 X39.082 Y123.908 A20.08406
G1 X38.951 Y123.542 A20.09320
G1 X38.856 Y123.165 A20.10235
G1 X38.799 Y122.781 A20.11149
G1 X38.780 Y122.393 A20.12062
G1 X38.799 Y122.005 A20.12976
G1 X38.856 Y121.620 A20.13890
G1 X38.951 Y121.244 A20.14804
G1 X39.082 Y120.878 A20.15718
G1 X39.248 Y120.527 A20.16632
G1 X39.447 Y120.193 A20.17546
G1 X39.679 Y119.881 A20.18460
G1 X39.940 Y119.593 A20.19374
G1 X40.228 Y119.333 A20.20288
G1 X40.540 Y119.101 A20.21202
G1 X40.873 Y118.901 A20.22116
G1 X41.224 Y118.735 A20.23029
G1 X41.590 Y118.604 A20.23943
G1 X41.967 Y118.510 A20.24858
G1 X42.351 Y118.453 A20.25772
G1 X42.739 Y118.434 A20.26686
G1 X43.127 Y118.453 A20.27599
G1 X43.511 Y118.510 A20.28513
G1 X43.888 Y118.604 A20.29427
G1 X44.254 Y118.735 A20.30341
G1 X44.605 Y118.901 A20.31255
G1 X44.938 Y119.101 A20.32169
G1 X45.251 Y119.333 A20.33083
G1 X45.538 Y119.593 A20.33997
G1 X45.799 Y119.881 A20.34911
G1 X46.031 Y120.193 A20.35825
G1 X46.230 Y120.527 A20.36739
G1 X46.397 Y120.878 A20.37653
G1 X46.527 Y121.244 A20.38567
G1 X46.622 Y121.620 A20.39480
G1 X46.679 Y122.005 A20.40394
G1 X46.698 Y122.393 A20.41308
G1 X46.679 Y122.781 A20.42222
G1 X46.622 Y123.165 A20.43136
G1 X46.527 Y123.542 A20.44050
G1 X46.397 Y123.908 A20.44964
G1 X46.230 Y124.259 A20.45878
G1 X46.031 Y124.592 A20.46792
G1 X45.799 Y124.904 A20.47706
G1 X45.538 Y125.192 A20.48620
G1 X45.251 Y125.453 A20.49534
G1 X44.938 Y125.685 A20.50448
G1 X44.605 Y125.884 A20.51362
G1 X44.254 Y126.050 A20.52275
G1 X43.947 Y126.160 A20.53043
G1 X43.888 Y126.181 A20.53190
G0 X43.767 Y125.783 F7800.000
G1 X43.430 Y125.867 F480.000 A20.54007
G1 X43.086 Y125.918 A20.54825
G1 X42.739 Y125.935 A20.55643
G1 X42.392 Y125.918 A20.56461
G1 X42.048 Y125.867 A20.57279
G1 X41.711 Y125.783 A20.58097
G1 X41.383 Y125.666 A20.58914
G1 X41.069 Y125.517 A20.59732
G1 X40.771 Y125.338 A20.60550
G1 X40.492 Y125.131 A20.61368
G1 X40.234 Y124.898 A20.62186
G1 X40.001 Y124.640 A20.63004
G1 X39.794 Y124.361 A20.63821
G1 X39.615 Y124.063 A20.64639
G1 X39.466 Y123.749 A20.65457
G1 X39.349 Y123.421 A20.66275
G1 X39.264 Y123.084 A20.67093
G1 X39.213 Y122.740 A20.67911
G1 X39.196 Y122.393 A20.68729
G1 X39.213 Y122.046 A20.69546
G1 X39.264 Y121.702 A20.70364
G1 X39.349 Y121.364 A20.71182
G1 X39.466 Y121.037 A20.72000
G1 X39.615 Y120.723 A20.72818
G1 X39.793 Y120.425 A20.73636
G1 X40.001 Y120.145 A20.74454
G1 X40.234 Y119.888 A20.75272
G1 X40.492 Y119.654 A20.76089
G1 X40.771 Y119.447 A20.76907
G1 X41.069 Y119.268 A20.77725
G1 X41.383 Y119.120 A20.78543
G1 X41.711 Y119.003 A20.79361
G1 X42.048 Y118.918 A20.80178
G1 X42.392 Y118.867 A20.80997
G1 X42.739 Y118.850 A20.81814
G1 X43.086 Y118.867 A20.82632
G1 X43.430 Y118.918 A20.83450
G1 X43.767 Y119.003 A20.84268
G1 X44.095 Y119.120 A20.85086
G1 X44.409 Y119.268 A20.85904
G1 X44.707 Y119.447 A20.86721
G1 X44.986 Y119.654 A20.87539
G1 X45.244 Y119.888 A20.88357
G1 X45.478 Y120.145 A20.89175
G1 X45.685 Y120.425 A20.89993
G1 X45.863 Y120.723 A20.90810
G1 X46.012 Y121.037 A20.91628
G1 X46.129 Y121.364 A20.92446
G1 X46.214 Y121.702 A20.93264
G1 X46.265 Y122.045 A20.94082
G1 X46.282 Y122.393 A20.94900
G1 X46.265 Y122.740 A20.95718
G1 X46.214 Y123.084 A20.96535
G1 X46.129 Y123.421 A20.97353
G1 X46.012 Y123.748 A20.98171
G1 X45.863 Y124.063 A20.98989
G1 X45.685 Y124.361 A20.99807
G1 X45.478 Y124.640 A21.00625
G1 X45.244 Y124.898 A21.01443
G1 X44.987 Y125.131 A21.02260
G1 X44.707 Y125.338 A21.03078
G1 X44.409 Y125.517 A21.03896
G1 X44.095 Y125.666 A21.04714
G1 X43.826 Y125.762 A21.05385
G1 X43.767 Y125.783 A21.05532
G0 X43.647 Y125.385 F7800.000
G1 X43.349 Y125.459 F480.000 A21.06254
G1 X43.046 Y125.504 A21.06975
G1 X42.739 Y125.519 A21.07697
G1 X42.433 Y125.504 A21.08419
G1 X42.129 Y125.459 A21.09141
G1 X41.831 Y125.385 A21.09862
G1 X41.543 Y125.281 A21.10584
G1 X41.265 Y125.150 A21.11306
G1 X41.002 Y124.992 A21.12028
G1 X40.756 Y124.810 A21.12749
G1 X40.528 Y124.604 A21.13471
G1 X40.322 Y124.376 A21.14193
G1 X40.140 Y124.130 A21.14915
G1 X39.982 Y123.867 A21.15637
G1 X39.851 Y123.589 A21.16358
G1 X39.747 Y123.300 A21.17080
G1 X39.673 Y123.003 A21.17802
G1 X39.628 Y122.699 A21.18524
G1 X39.613 Y122.393 A21.19245
G1 X39.628 Y122.086 A21.19967
G1 X39.673 Y121.783 A21.20689
G1 X39.747 Y121.485 A21.21411
G1 X39.851 Y121.196 A21.22132
G1 X39.982 Y120.919 A21.22854
G1 X40.139 Y120.656 A21.23576
G1 X40.322 Y120.409 A21.24298
G1 X40.528 Y120.182 A21.25020
G1 X40.756 Y119.976 A21.25741
G1 X41.002 Y119.793 A21.26463
G1 X41.265 Y119.636 A21.27185
G1 X41.543 Y119.504 A21.27906
G1 X41.831 Y119.401 A21.28628
G1 X42.129 Y119.326 A21.29350
G1 X42.433 Y119.281 A21.30072
G1 X42.739 Y119.266 A21.30794
G1 X43.045 Y119.281 A21.31515
G1 X43.349 Y119.326 A21.32237
G1 X43.647 Y119.401 A21.32959
G1 X43.936 Y119.504 A21.33681
G1 X44.213 Y119.636 A21.34402
G1 X44.476 Y119.793 A21.35124
G1 X44.722 Y119.976 A21.35846
G1 X44.950 Y120.182 A21.36568
G1 X45.156 Y120.409 A21.37289
G1 X45.339 Y120.656 A21.38011
G1 X45.496 Y120.919 A21.38733
G1 X45.628 Y121.196 A21.39455
G1 X45.731 Y121.485 A21.40176
G1 X45.805 Y121.783 A21.40898
G1 X45.850 Y122.086 A21.41620
G1 X45.866 Y122.393 A21.42342
G1 X45.850 Y122.699 A21.43064
G1 X45.805 Y123.003 A21.43785
G1 X45.731 Y123.300 A21.44507
G1 X45.628 Y123.589 A21.45229
G1 X45.496 Y123.867 A21.45951
G1 X45.339 Y124.130 A21.46672
G1 X45.156 Y124.376 A21.47394
G1 X44.950 Y124.604 A21.48116
G1 X44.722 Y124.810 A21.48838
G1 X44.476 Y124.992 A21.49559
G1 X44.213 Y125.150 A21.50281
G1 X43.935 Y125.281 A21.51003
G1 X43.705 Y125.364 A21.51578
G1 X43.647 Y125.385 A21.51725
G0 X43.526 Y124.986 F7800.000
G1 X43.268 Y125.051 F480.000 A21.52350
G1 X43.005 Y125.090 A21.52976
G1 X42.739 Y125.103 A21.53602
G1 X42.473 Y125.090 A21.54227
G1 X42.210 Y125.051 A21.54853
G1 X41.952 Y124.986 A21.55479
G1 X41.702 Y124.897 A21.56104
G1 X41.461 Y124.783 A21.56730
G1 X41.233 Y124.646 A21.57356
G1 X41.020 Y124.488 A21.57982
G1 X40.823 Y124.309 A21.58607
G1 X40.644 Y124.112 A21.59233
G1 X40.486 Y123.899 A21.59858
G1 X40.349 Y123.670 A21.60484
G1 X40.235 Y123.430 A21.61110
G1 X40.146 Y123.180 A21.61736
G1 X40.081 Y122.922 A21.62361
G1 X40.042 Y122.658 A21.62987
G1 X40.029 Y122.393 A21.63613
G1 X40.042 Y122.127 A21.64238
G1 X40.081 Y121.864 A21.64864
G1 X40.145 Y121.606 A21.65490
G1 X40.235 Y121.356 A21.66115
G1 X40.349 Y121.115 A21.66741
G1 X40.486 Y120.887 A21.67367
G1 X40.644 Y120.673 A21.67992
G1 X40.823 Y120.476 A21.68618
G1 X41.020 Y120.298 A21.69244
G1 X41.233 Y120.139 A21.69869
G1 X41.461 Y120.003 A21.70495
G1 X41.702 Y119.889 A21.71121
G1 X41.952 Y119.799 A21.71746
G1 X42.210 Y119.735 A21.72372
G1 X42.473 Y119.696 A21.72998
G1 X42.739 Y119.683 A21.73624
G1 X43.005 Y119.696 A21.74249
G1 X43.268 Y119.735 A21.74875
G1 X43.526 Y119.799 A21.75501
G1 X43.776 Y119.889 A21.76126
G1 X44.017 Y120.003 A21.76752
G1 X44.245 Y120.139 A21.77378
G1 X44.458 Y120.298 A21.78003
G1 X44.655 Y120.476 A21.78629
G1 X44.834 Y120.673 A21.79255
G1 X44.993 Y120.887 A21.79880
G1 X45.129 Y121.115 A21.80506
G1 X45.243 Y121.356 A21.81132
G1 X45.333 Y121.606 A21.81757
G1 X45.397 Y121.864 A21.82383
G1 X45.436 Y122.127 A21.83009
G1 X45.449 Y122.393 A21.83634
G1 X45.436 Y122.658 A21.84260
G1 X45.397 Y122.922 A21.84886
G1 X45.333 Y123.180 A21.85511
G1 X45.243 Y123.430 A21.86137
G1 X45.129 Y123.670 A21.86763
G1 X44.993 Y123.899 A21.87388
G1 X44.834 Y124.112 A21.88014
G1 X44.655 Y124.309 A21.88640
G1 X44.458 Y124.488 A21.89265
G1 X44.245 Y124.646 A21.89891
G1 X44.017 Y124.783 A21.90517
G1 X43.584 Y124.965 A21.91620
G1 X43.526 Y124.986 A21.91767
G0 X43.431 Y125.391 F7800.000
G0 Z0.900 F480.000 A20.91767
G0 X112.354 Y122.393 F7800.000
G0 Z0.400
G0 F1800.000 A21.91767
G1 X112.374 Y122.005 F480.000 A21.92680
