; generated by Slic3r 0.9.8 on 2013-03-31 at 14:57:16

; layer_height = 0.3
; perimeters = 3
; top_solid_layers = 3
; bottom_solid_layers = 3
; fill_density = 0.4
; perimeter_speed = 30
; infill_speed = 40
; travel_speed = 130
; scale = 1
; nozzle_diameter = 0.4
; filament_diameter = 3
; extrusion_multiplier = 1
; perimeters extrusion width = 0.42mm
; infill extrusion width = 0.36mm
; support material extrusion width = 0.24mm
; first layer extrusion width = 0.42mm

M190 P115 ; wait for bed temperature to be reached
M104 P235 ; set temperature
G92 A0                  ; Reset A to 0
G40                        ; Cancel cutter compensation
G64 P0.1                ; Path Blend within .1mm
G0 X108.5 Y108.5  ; Move to center
M109 P235 ; wait for temperature to be reached
G90 ; use absolute coordinates
G21 ; set units to millimeters
G0 Z0.400 F3600.000 A-1.00000
G0 X123.230 Y76.660 F7800.000
G0 F3600.000 A0.00000
G1 X143.110 Y94.860 F540.000 A0.63405
G1 X143.670 Y95.490 A0.65387
G1 X144.000 Y95.950 A0.66719
G1 X144.420 Y96.690 A0.68721
G1 X144.750 Y97.470 A0.70713
G1 X144.840 Y97.740 A0.71383
G1 X145.030 Y98.570 A0.73386
G1 X145.120 Y99.420 A0.75396
G1 X145.120 Y125.570 A1.36912
G1 X145.070 Y126.130 A1.38235
G1 X144.920 Y126.950 A1.40196
G1 X144.760 Y127.490 A1.41521
G1 X144.560 Y128.010 A1.42831
G1 X144.180 Y128.760 A1.44809
G1 X144.030 Y129.000 A1.45475
G1 X143.710 Y129.450 A1.46774
G1 X143.350 Y129.880 A1.48093
G1 X142.750 Y130.470 A1.50073
G1 X142.530 Y130.650 A1.50742
G1 X142.080 Y130.970 A1.52041
G1 X126.840 Y141.130 A1.95128
G1 X126.340 Y141.410 A1.96476
G1 X126.080 Y141.530 A1.97150
G1 X125.270 Y141.830 A1.99182
G1 X124.990 Y141.910 A1.99867
G1 X124.430 Y142.030 A2.01214
G1 X123.580 Y142.120 A2.03225
G1 X93.410 Y142.120 A2.74197
G1 X92.560 Y142.030 A2.76208
G1 X92.000 Y141.910 A2.77555
G1 X91.450 Y141.740 A2.78910
G1 X90.910 Y141.530 A2.80273
G1 X90.650 Y141.410 A2.80946
G1 X90.150 Y141.130 A2.82294
G1 X74.910 Y130.970 A3.25382
G1 X74.460 Y130.650 A3.26681
G1 X74.240 Y130.470 A3.27349
G1 X73.640 Y129.880 A3.29329
G1 X73.280 Y129.450 A3.30648
G1 X72.810 Y128.760 A3.32612
G1 X72.550 Y128.260 A3.33938
G1 X72.430 Y128.010 A3.34590
G1 X72.230 Y127.490 A3.35901
G1 X72.070 Y126.950 A3.37226
G1 X71.920 Y126.130 A3.39187
G1 X71.870 Y125.570 A3.40509
G1 X71.870 Y99.420 A4.02025
G1 X71.960 Y98.570 A4.04036
G1 X72.150 Y97.740 A4.06039
G1 X72.340 Y97.210 A4.07364
G1 X72.570 Y96.690 A4.08701
G1 X72.990 Y95.950 A4.10703
G1 X73.320 Y95.490 A4.12035
G1 X73.690 Y95.060 A4.13369
G1 X74.090 Y94.660 A4.14700
G1 X93.970 Y76.470 A4.78088
G1 X94.410 Y76.130 A4.79397
G1 X94.890 Y75.820 A4.80741
G1 X95.380 Y75.560 A4.82046
G1 X95.900 Y75.330 A4.83383
G1 X96.430 Y75.150 A4.84700
G1 X96.970 Y75.010 A4.86012
G1 X97.530 Y74.920 A4.87346
G1 X98.090 Y74.870 A4.88669
G1 X118.900 Y74.870 A5.37623
G1 X119.460 Y74.920 A5.38946
G1 X120.020 Y75.010 A5.40280
G1 X120.560 Y75.150 A5.41592
G1 X121.090 Y75.330 A5.42909
G1 X121.610 Y75.560 A5.44247
G1 X122.100 Y75.820 A5.45551
G1 X122.580 Y76.130 A5.46896
G1 X123.184 Y76.618 A5.48722
G1 X123.230 Y76.660 A5.48869
G0 X122.950 Y76.970 F7800.000
G1 X142.810 Y95.150 F540.000 A6.12207
G1 X143.180 Y95.540 A6.13471
G1 X143.500 Y95.960 A6.14714
G1 X143.800 Y96.410 A6.15986
G1 X144.050 Y96.870 A6.17217
G1 X144.360 Y97.610 A6.19105
G1 X144.510 Y98.120 A6.20355
G1 X144.620 Y98.640 A6.21606
G1 X144.660 Y98.900 A6.22225
G1 X144.710 Y99.700 A6.24110
G1 X144.700 Y125.560 A6.84944
G1 X144.650 Y126.110 A6.86243
G1 X144.560 Y126.650 A6.87531
G1 X144.500 Y126.920 A6.88182
G1 X144.240 Y127.700 A6.90116
G1 X144.010 Y128.200 A6.91410
G1 X143.740 Y128.670 A6.92685
G1 X143.430 Y129.130 A6.93990
G1 X143.090 Y129.550 A6.95262
G1 X142.500 Y130.130 A6.97208
G1 X141.850 Y130.630 A6.99137
G1 X126.850 Y140.630 A7.41546
G1 X126.350 Y140.930 A7.42918
G1 X126.090 Y141.060 A7.43601
G1 X125.290 Y141.390 A7.45637
G1 X124.730 Y141.540 A7.47001
G1 X124.160 Y141.650 A7.48367
G1 X123.290 Y141.710 A7.50418
G1 X93.700 Y141.710 A8.20026
G1 X92.830 Y141.650 A8.22078
G1 X92.260 Y141.540 A8.23443
G1 X91.700 Y141.390 A8.24807
G1 X91.160 Y141.180 A8.26170
G1 X90.640 Y140.930 A8.27528
G1 X90.140 Y140.630 A8.28899
G1 X75.140 Y130.630 A8.71308
G1 X74.700 Y130.300 A8.72602
G1 X74.290 Y129.950 A8.73870
G1 X73.900 Y129.550 A8.75184
G1 X73.560 Y129.130 A8.76456
G1 X73.400 Y128.900 A8.77115
G1 X73.110 Y128.440 A8.78394
G1 X72.750 Y127.700 A8.80330
G1 X72.490 Y126.920 A8.82264
G1 X72.430 Y126.650 A8.82914
G1 X72.310 Y125.840 A8.84841
G1 X72.280 Y125.290 A8.86137
G1 X72.290 Y99.430 A9.46970
G1 X72.330 Y98.900 A9.48221
G1 X72.480 Y98.120 A9.50089
G1 X72.630 Y97.610 A9.51340
G1 X72.830 Y97.110 A9.52606
G1 X73.060 Y96.640 A9.53837
G1 X73.340 Y96.180 A9.55104
G1 X73.810 Y95.540 A9.56972
G1 X73.990 Y95.340 A9.57605
G1 X74.370 Y94.970 A9.58853
G1 X94.250 Y76.780 A10.22241
G1 X94.690 Y76.440 A10.23550
G1 X95.160 Y76.140 A10.24861
G1 X95.660 Y75.880 A10.26187
G1 X96.180 Y75.670 A10.27506
G1 X96.710 Y75.500 A10.28816
G1 X97.260 Y75.380 A10.30140
G1 X97.810 Y75.310 A10.31444
G1 X98.370 Y75.280 A10.32763
G1 X118.900 Y75.290 A10.81059
G1 X119.460 Y75.340 A10.82381
G1 X120.010 Y75.440 A10.83696
G1 X120.550 Y75.580 A10.85009
G1 X121.070 Y75.770 A10.86311
G1 X121.330 Y75.880 A10.86975
G1 X121.830 Y76.140 A10.88301
G1 X122.300 Y76.440 A10.89612
G1 X122.904 Y76.928 A10.91439
G1 X122.950 Y76.970 A10.91586
G0 Z0.900 F1080.000 A9.91586
G0 X117.916 Y130.732 F7800.000
G0 Z0.400
G0 F3600.000 A10.91586
G1 X117.742 Y130.557 F1080.000 A10.92166
G0 Z0.900 F1080.000 A9.92166
G0 X97.907 Y130.661 F7800.000
G0 Z0.400
G0 F3600.000 A10.92166
G1 X97.731 Y130.484 F1080.000 A10.92753
G0 Z0.900 F1080.000 A9.92753
G0 X81.914 Y103.730 F7800.000
G0 Z0.400
G0 F3600.000 A10.92753
G1 X81.738 Y103.555 F1080.000 A10.93337
G0 Z0.900 F1080.000 A9.93337
G0 X107.731 Y83.984 F7800.000
G0 Z0.400
G0 F3600.000 A10.93337
G1 X107.907 Y84.161 F1080.000 A10.93923
G0 Z0.900 F1080.000 A9.93923
G0 X133.740 Y103.559 F7800.000
G0 Z0.400
G0 F3600.000 A10.93923
G1 X133.915 Y103.734 F1080.000 A10.94503
G0 X132.593 Y104.228 F7800.000
G1 X132.497 Y103.898 F540.000 A10.95311
G1 X132.457 Y103.500 A10.96252
G1 X132.497 Y103.102 A10.97194
G1 X132.613 Y102.718 A10.98137
G1 X132.802 Y102.365 A10.99079
G1 X133.056 Y102.056 A11.00021
G1 X133.365 Y101.802 A11.00963
G1 X133.718 Y101.613 A11.01905
G1 X134.101 Y101.497 A11.02846
G1 X134.500 Y101.457 A11.03788
G1 X134.899 Y101.497 A11.04731
G1 X135.282 Y101.613 A11.05673
G1 X135.635 Y101.802 A11.06614
G1 X135.944 Y102.056 A11.07556
G1 X136.199 Y102.365 A11.08499
G1 X136.387 Y102.718 A11.09440
G1 X136.503 Y103.102 A11.10383
G1 X136.543 Y103.500 A11.11324
G1 X136.503 Y103.898 A11.12266
G1 X136.387 Y104.281 A11.13208
G1 X136.198 Y104.635 A11.14150
G1 X135.944 Y104.944 A11.15093
G1 X135.635 Y105.198 A11.16035
G1 X135.282 Y105.387 A11.16976
G1 X134.899 Y105.503 A11.17918
G1 X134.500 Y105.543 A11.18861
G1 X134.101 Y105.503 A11.19803
G1 X133.718 Y105.387 A11.20744
G1 X133.365 Y105.198 A11.21686
G1 X133.056 Y104.944 A11.22628
G1 X132.801 Y104.635 A11.23571
G1 X132.615 Y104.286 A11.24501
G1 X132.593 Y104.228 A11.24647
G0 X132.985 Y104.088 F7800.000
G1 X132.905 Y103.817 F540.000 A11.25310
G1 X132.874 Y103.500 A11.26060
G1 X132.905 Y103.183 A11.26810
G1 X132.997 Y102.878 A11.27560
G1 X133.148 Y102.596 A11.28311
G1 X133.350 Y102.350 A11.29061
G1 X133.596 Y102.148 A11.29811
G1 X133.878 Y101.997 A11.30561
G1 X134.183 Y101.905 A11.31311
G1 X134.500 Y101.874 A11.32060
G1 X134.817 Y101.905 A11.32811
G1 X135.122 Y101.997 A11.33561
G1 X135.404 Y102.148 A11.34311
G1 X135.650 Y102.350 A11.35061
G1 X135.852 Y102.597 A11.35811
G1 X136.003 Y102.878 A11.36561
G1 X136.095 Y103.183 A11.37311
G1 X136.126 Y103.500 A11.38061
G1 X136.095 Y103.817 A11.38811
G1 X136.003 Y104.122 A11.39561
G1 X135.852 Y104.404 A11.40311
G1 X135.650 Y104.650 A11.41061
G1 X135.404 Y104.852 A11.41812
G1 X135.122 Y105.003 A11.42561
G1 X134.817 Y105.095 A11.43311
G1 X134.500 Y105.126 A11.44062
G1 X134.183 Y105.095 A11.44812
G1 X133.878 Y105.003 A11.45562
G1 X133.596 Y104.852 A11.46312
G1 X133.350 Y104.650 A11.47062
G1 X133.148 Y104.404 A11.47812
G1 X133.008 Y104.145 A11.48503
G1 X132.985 Y104.088 A11.48649
G0 X133.376 Y103.947 F7800.000
G1 X133.313 Y103.736 F540.000 A11.49168
G1 X133.290 Y103.500 A11.49726
G1 X133.313 Y103.264 A11.50284
G1 X133.382 Y103.037 A11.50842
G1 X133.494 Y102.828 A11.51400
G1 X133.644 Y102.644 A11.51958
G1 X133.828 Y102.494 A11.52517
G1 X134.037 Y102.382 A11.53075
G1 X134.264 Y102.313 A11.53633
G1 X134.500 Y102.290 A11.54191
G1 X134.736 Y102.313 A11.54749
G1 X134.963 Y102.382 A11.55307
G1 X135.172 Y102.494 A11.55865
G1 X135.356 Y102.644 A11.56423
G1 X135.506 Y102.828 A11.56982
G1 X135.618 Y103.037 A11.57540
G1 X135.687 Y103.264 A11.58098
G1 X135.710 Y103.500 A11.58656
G1 X135.687 Y103.736 A11.59214
G1 X135.618 Y103.963 A11.59772
G1 X135.506 Y104.172 A11.60330
G1 X135.356 Y104.356 A11.60888
G1 X135.172 Y104.506 A11.61446
G1 X134.963 Y104.618 A11.62004
G1 X134.736 Y104.687 A11.62562
G1 X134.500 Y104.710 A11.63121
G1 X134.264 Y104.687 A11.63679
G1 X134.037 Y104.618 A11.64237
G1 X133.828 Y104.506 A11.64795
G1 X133.644 Y104.356 A11.65353
G1 X133.494 Y104.172 A11.65911
G1 X133.401 Y104.004 A11.66362
G1 X133.376 Y103.947 A11.66509
G0 X132.966 Y103.877 F7800.000
G0 Z0.900 F1080.000 A10.66509
G0 X126.172 Y97.298 F7800.000
G0 Z0.400
G0 F3600.000 A11.66509
G1 X125.787 Y97.614 F540.000 A11.67681
G1 X125.347 Y97.849 A11.68854
G1 X124.870 Y97.994 A11.70027
G1 X124.374 Y98.043 A11.71199
G1 X123.878 Y97.994 A11.72372
G1 X123.401 Y97.849 A11.73544
G1 X122.961 Y97.614 A11.74717
G1 X122.576 Y97.298 A11.75889
G1 X122.260 Y96.913 A11.77062
G1 X122.025 Y96.473 A11.78235
G1 X121.880 Y95.996 A11.79407
G1 X121.844 Y95.749 A11.79994
G1 X121.844 Y95.251 A11.81167
G1 X121.941 Y94.762 A11.82339
G1 X122.131 Y94.302 A11.83511
G1 X122.408 Y93.887 A11.84684
G1 X122.761 Y93.535 A11.85857
G1 X123.175 Y93.258 A11.87030
G1 X123.636 Y93.067 A11.88202
G1 X124.125 Y92.970 A11.89375
G1 X124.623 Y92.970 A11.90547
G1 X125.112 Y93.067 A11.91720
G1 X125.573 Y93.258 A11.92893
G1 X125.987 Y93.534 A11.94065
G1 X126.340 Y93.887 A11.95238
G1 X126.616 Y94.301 A11.96410
G1 X126.807 Y94.762 A11.97582
G1 X126.904 Y95.251 A11.98755
G1 X126.904 Y95.749 A11.99928
G1 X126.807 Y96.238 A12.01100
G1 X126.616 Y96.699 A12.02273
G1 X126.488 Y96.913 A12.02860
G1 X126.214 Y97.252 A12.03886
G1 X126.172 Y97.298 A12.04033
G0 X125.878 Y97.004 F7800.000
G1 X125.555 Y97.268 F540.000 A12.05013
G1 X125.188 Y97.465 A12.05994
G1 X124.789 Y97.586 A12.06975
G1 X124.374 Y97.626 A12.07955
G1 X123.959 Y97.586 A12.08936
G1 X123.560 Y97.465 A12.09917
G1 X123.193 Y97.268 A12.10897
G1 X122.870 Y97.004 A12.11878
G1 X122.606 Y96.681 A12.12859
G1 X122.409 Y96.314 A12.13839
G1 X122.288 Y95.915 A12.14820
G1 X122.258 Y95.708 A12.15311
G1 X122.258 Y95.292 A12.16291
G1 X122.339 Y94.883 A12.17272
G1 X122.499 Y94.498 A12.18252
G1 X122.730 Y94.151 A12.19233
G1 X123.025 Y93.856 A12.20214
G1 X123.372 Y93.625 A12.21194
G1 X123.757 Y93.465 A12.22175
G1 X124.166 Y93.384 A12.23156
G1 X124.582 Y93.384 A12.24136
G1 X124.991 Y93.465 A12.25117
G1 X125.376 Y93.625 A12.26098
G1 X125.723 Y93.856 A12.27078
G1 X126.018 Y94.151 A12.28059
G1 X126.249 Y94.498 A12.29039
G1 X126.409 Y94.883 A12.30020
G1 X126.490 Y95.292 A12.31001
G1 X126.490 Y95.708 A12.31981
G1 X126.409 Y96.117 A12.32962
G1 X126.249 Y96.502 A12.33943
G1 X126.142 Y96.681 A12.34433
G1 X125.920 Y96.957 A12.35268
G1 X125.878 Y97.004 A12.35414
G0 X125.583 Y96.709 F7800.000
G1 X125.324 Y96.922 F540.000 A12.36203
G1 X125.028 Y97.080 A12.36992
G1 X124.708 Y97.177 A12.37780
G1 X124.374 Y97.210 A12.38569
G1 X124.040 Y97.177 A12.39358
G1 X123.720 Y97.080 A12.40147
G1 X123.424 Y96.922 A12.40935
G1 X123.165 Y96.709 A12.41724
G1 X122.952 Y96.450 A12.42513
G1 X122.794 Y96.154 A12.43301
G1 X122.697 Y95.834 A12.44090
G1 X122.672 Y95.668 A12.44485
G1 X122.672 Y95.332 A12.45273
G1 X122.737 Y95.004 A12.46062
G1 X122.866 Y94.694 A12.46851
G1 X123.052 Y94.415 A12.47640
G1 X123.289 Y94.178 A12.48428
G1 X123.568 Y93.992 A12.49217
G1 X123.878 Y93.863 A12.50006
G1 X124.206 Y93.798 A12.50794
G1 X124.542 Y93.798 A12.51583
G1 X124.870 Y93.863 A12.52372
G1 X125.180 Y93.992 A12.53160
G1 X125.459 Y94.178 A12.53949
G1 X125.696 Y94.415 A12.54738
G1 X125.882 Y94.694 A12.55527
G1 X126.011 Y95.004 A12.56315
G1 X126.076 Y95.332 A12.57104
G1 X126.076 Y95.668 A12.57893
G1 X126.011 Y95.996 A12.58681
G1 X125.882 Y96.306 A12.59470
G1 X125.796 Y96.450 A12.59865
G1 X125.625 Y96.663 A12.60507
G1 X125.583 Y96.709 A12.60654
G0 X125.678 Y97.114 F7800.000
G0 Z0.900 F1080.000 A11.60654
G0 X117.300 Y93.108 F7800.000
G0 Z0.400
G0 F3600.000 A12.60654
G1 X117.091 Y93.492 F540.000 A12.61683
G1 X116.775 Y93.878 A12.62856
G1 X116.390 Y94.194 A12.64028
G1 X115.950 Y94.429 A12.65201
G1 X115.473 Y94.574 A12.66373
G1 X114.977 Y94.622 A12.67546
G1 X114.481 Y94.574 A12.68718
G1 X114.004 Y94.429 A12.69891
G1 X113.564 Y94.194 A12.71064
G1 X113.179 Y93.878 A12.72236
G1 X112.863 Y93.492 A12.73409
G1 X112.628 Y93.053 A12.74581
G1 X112.483 Y92.576 A12.75754
G1 X112.434 Y92.080 A12.76926
G1 X112.483 Y91.584 A12.78099
G1 X112.628 Y91.107 A12.79272
G1 X112.863 Y90.667 A12.80444
G1 X113.179 Y90.282 A12.81617
G1 X113.565 Y89.966 A12.82789
G1 X114.004 Y89.731 A12.83962
G1 X114.481 Y89.586 A12.85135
G1 X114.977 Y89.537 A12.86307
G1 X115.473 Y89.586 A12.87480
G1 X115.950 Y89.731 A12.88652
G1 X116.390 Y89.966 A12.89824
G1 X116.775 Y90.282 A12.90998
G1 X117.091 Y90.667 A12.92170
G1 X117.326 Y91.107 A12.93342
G1 X117.471 Y91.584 A12.94515
G1 X117.520 Y92.080 A12.95688
G1 X117.471 Y92.576 A12.96860
G1 X117.327 Y93.052 A12.98029
G1 X117.300 Y93.108 A12.98176
G0 X116.924 Y92.930 F7800.000
G1 X116.745 Y93.261 F540.000 A12.99061
G1 X116.481 Y93.583 A13.00042
G1 X116.159 Y93.848 A13.01022
G1 X115.791 Y94.044 A13.02003
G1 X115.392 Y94.165 A13.02984
G1 X114.977 Y94.206 A13.03965
G1 X114.562 Y94.165 A13.04945
G1 X114.163 Y94.044 A13.05926
G1 X113.796 Y93.848 A13.06907
G1 X113.473 Y93.583 A13.07887
G1 X113.209 Y93.261 A13.08868
G1 X113.012 Y92.894 A13.09848
G1 X112.891 Y92.495 A13.10829
G1 X112.851 Y92.080 A13.11809
G1 X112.891 Y91.665 A13.12790
G1 X113.013 Y91.266 A13.13771
G1 X113.209 Y90.898 A13.14752
G1 X113.473 Y90.576 A13.15732
G1 X113.796 Y90.312 A13.16713
G1 X114.163 Y90.115 A13.17693
G1 X114.562 Y89.994 A13.18674
G1 X114.977 Y89.953 A13.19655
G1 X115.392 Y89.994 A13.20635
G1 X115.791 Y90.115 A13.21616
G1 X116.158 Y90.312 A13.22596
G1 X116.481 Y90.576 A13.23577
G1 X116.745 Y90.898 A13.24558
G1 X116.942 Y91.266 A13.25538
G1 X117.063 Y91.665 A13.26519
G1 X117.104 Y92.080 A13.27500
G1 X117.063 Y92.495 A13.28480
G1 X116.949 Y92.873 A13.29410
G1 X116.924 Y92.930 A13.29556
G0 X116.549 Y92.752 F7800.000
G1 X116.399 Y93.030 F540.000 A13.30298
G1 X116.186 Y93.289 A13.31086
G1 X115.927 Y93.502 A13.31875
G1 X115.632 Y93.660 A13.32664
G1 X115.311 Y93.757 A13.33453
G1 X114.977 Y93.790 A13.34241
G1 X114.643 Y93.757 A13.35030
G1 X114.323 Y93.660 A13.35819
G1 X114.027 Y93.502 A13.36607
G1 X113.768 Y93.289 A13.37396
G1 X113.555 Y93.030 A13.38185
G1 X113.397 Y92.734 A13.38973
G1 X113.300 Y92.413 A13.39762
G1 X113.267 Y92.080 A13.40551
G1 X113.300 Y91.746 A13.41339
G1 X113.397 Y91.425 A13.42128
G1 X113.555 Y91.130 A13.42917
G1 X113.768 Y90.870 A13.43705
G1 X114.027 Y90.658 A13.44494
G1 X114.323 Y90.500 A13.45283
G1 X114.643 Y90.402 A13.46072
G1 X114.977 Y90.370 A13.46860
G1 X115.311 Y90.402 A13.47649
G1 X115.632 Y90.500 A13.48438
G1 X115.927 Y90.658 A13.49226
G1 X116.186 Y90.870 A13.50015
G1 X116.399 Y91.130 A13.50804
