; generated by Slic3r 0.9.8 on 2013-03-31 at 14:57:16

; layer_height = 0.3
; perimeters = 3
; top_solid_layers = 3
; bottom_solid_layers = 3
; fill_density = 0.4
; perimeter_speed = 30
; infill_speed = 40
; travel_speed = 130
; scale = 1
; nozzle_diameter = 0.4
; filament_diameter = 3
; extrusion_multiplier = 1
; perimeters extrusion width = 0.42mm
; infill extrusion width = 0.36mm
; support material extrusion width = 0.24mm
; first layer extrusion width = 0.42mm

M190 P115 ; wait for bed temperature to be reached
M104 P235 ; set temperature
G92 A0                  ; Reset A to 0
G40                        ; Cancel cutter compensation
G64 P0.1                ; Path Blend within .1mm
G0 X108.5 Y108.5  ; Move to center
M109 P235 ; wait for temperature to be reached
G90 ; use absolute coordinates
G21 ; set units to millimeters
G0 Z0.400 F3600.000 A-1.00000
G0 X123.230 Y76.660 F7800.000
G0 F3600.000 A0.00000
G1 X143.110000 Y94.860000 Z0.400000 A0.634050 F540.000000
G1 X143.110000 Y94.860000 Z0.400000 A0.634050 F540.000000
G3 X145.120000 Y99.420000 Z0.400000 A0.753960 I-4.8184 J4.8469
G1 X145.120000 Y99.420000 Z0.400000 A0.753960
G1 X145.120000 Y125.570000 Z0.400000 A1.369120
G1 X145.120000 Y125.570000 Z0.400000 A1.369120
G3 X144.760000 Y127.490000 Z0.400000 A1.415210 I-6.7945 J-0.2802
G1 X144.760000 Y127.490000 Z0.400000 A1.415210
G1 X144.760000 Y127.490000 Z0.400000 A1.415210
G3 X142.530000 Y130.650000 Z0.400000 A1.507420 I-6.4232 J-2.1660
G1 X142.530000 Y130.650000 Z0.400000 A1.507420
G1 X142.530000 Y130.650000 Z0.400000 A1.507420
G3 X126.340000 Y141.410000 Z0.400000 A1.964760 I-76.5801 J-97.6659
G1 X126.340000 Y141.410000 Z0.400000 A1.964760
G1 X126.340000 Y141.410000 Z0.400000 A1.964760
G3 X123.580000 Y142.120000 Z0.400000 A2.032250 I-3.0716 J-6.2209
G1 X123.580000 Y142.120000 Z0.400000 A2.032250
G1 X93.410000 Y142.120000 Z0.400000 A2.741970
G1 X92.560000 Y142.030000 Z0.400000 A2.762080
G1 X92.560000 Y142.030000 Z0.400000 A2.762080
G3 X90.150000 Y141.130000 Z0.400000 A2.822940 I1.1615 J-6.7869
G1 X90.150000 Y141.130000 Z0.400000 A2.822940
G1 X90.150000 Y141.130000 Z0.400000 A2.822940
G3 X74.240000 Y130.470000 Z0.400000 A3.273490 I92.3156 J-154.9834
G1 X74.240000 Y130.470000 Z0.400000 A3.273490
G1 X74.240000 Y130.470000 Z0.400000 A3.273490
G3 X71.870000 Y125.570000 Z0.400000 A3.405090 I4.4535 J-5.1772
G1 X71.870000 Y125.570000 Z0.400000 A3.405090
G1 X71.870000 Y99.420000 Z0.400000 A4.020250
G1 X71.870000 Y99.420000 Z0.400000 A4.020250
G3 X73.690000 Y95.060000 Z0.400000 A4.133690 I6.7654 J0.2642
G1 X73.690000 Y95.060000 Z0.400000 A4.133690
G1 X73.690000 Y95.060000 Z0.400000 A4.133690
G3 X93.970000 Y76.470000 Z0.400000 A4.780880 I219.5250 J219.1250
G1 X93.970000 Y76.470000 Z0.400000 A4.780880
G1 X93.970000 Y76.470000 Z0.400000 A4.780880
G3 X95.900000 Y75.330000 Z0.400000 A4.833830 I4.3850 J5.2200
G1 X95.900000 Y75.330000 Z0.400000 A4.833830
G1 X95.900000 Y75.330000 Z0.400000 A4.833830
G3 X98.090000 Y74.870000 Z0.400000 A4.886690 I2.4657 J6.2959
G1 X98.090000 Y74.870000 Z0.400000 A4.886690
G1 X118.900000 Y74.870000 Z0.400000 A5.376230
G1 X118.900000 Y74.870000 Z0.400000 A5.376230
G3 X123.230000 Y76.660000 Z0.400000 A5.488690 I-0.2835 J6.8179
G1 X123.230000 Y76.660000 Z0.400000 A5.488690
G0 X122.950 Y76.970 F7800.000
G1 X142.810000 Y95.150000 Z0.400000 A6.122070 F540.000000
G1 X142.810000 Y95.150000 Z0.400000 A6.122070 F540.000000
G3 X144.360000 Y97.610000 Z0.400000 A6.191050 I-4.2299 J4.3835
G1 X144.360000 Y97.610000 Z0.400000 A6.191050
G1 X144.360000 Y97.610000 Z0.400000 A6.191050
G3 X144.710000 Y99.700000 Z0.400000 A6.241100 I-6.1967 J2.1120
G1 X144.710000 Y99.700000 Z0.400000 A6.241100
G1 X144.700000 Y125.560000 Z0.400000 A6.849440
G1 X144.700000 Y125.560000 Z0.400000 A6.849440
G3 X144.240000 Y127.700000 Z0.400000 A6.901160 I-6.5360 J-0.2855
G1 X144.240000 Y127.700000 Z0.400000 A6.901160
G1 X144.240000 Y127.700000 Z0.400000 A6.901160
G3 X141.850000 Y130.630000 Z0.400000 A6.991370 I-5.9632 J-2.4244
G1 X141.850000 Y130.630000 Z0.400000 A6.991370
G1 X141.850000 Y130.630000 Z0.400000 A6.991370
G3 X126.350000 Y140.930000 Z0.400000 A7.429180 I-115.9000 J-157.6000
G1 X126.350000 Y140.930000 Z0.400000 A7.429180
G1 X126.350000 Y140.930000 Z0.400000 A7.429180
G3 X124.730000 Y141.540000 Z0.400000 A7.470010 I-2.8596 J-5.1383
G1 X124.730000 Y141.540000 Z0.400000 A7.470010
G1 X123.290000 Y141.710000 Z0.400000 A7.504180
G1 X93.700000 Y141.710000 Z0.400000 A8.200260
G1 X92.260000 Y141.540000 Z0.400000 A8.234430
G1 X92.260000 Y141.540000 Z0.400000 A8.234430
G3 X90.140000 Y140.630000 Z0.400000 A8.288990 I1.2853 J-5.9188
G1 X90.140000 Y140.630000 Z0.400000 A8.288990
G1 X90.140000 Y140.630000 Z0.400000 A8.288990
G3 X74.290000 Y129.950000 Z0.400000 A8.738700 I53.4850 J-96.4775
G1 X74.290000 Y129.950000 Z0.400000 A8.738700
G1 X74.290000 Y129.950000 Z0.400000 A8.738700
G3 X72.750000 Y127.700000 Z0.400000 A8.803300 I4.3430 J-4.6246
G1 X72.750000 Y127.700000 Z0.400000 A8.803300
G1 X72.750000 Y127.700000 Z0.400000 A8.803300
G3 X72.430000 Y126.650000 Z0.400000 A8.829140 I4.9150 J-2.0717
G1 X72.430000 Y126.650000 Z0.400000 A8.829140
G1 X72.430000 Y126.650000 Z0.400000 A8.829140
G3 X72.280000 Y125.290000 Z0.400000 A8.861370 I7.2485 J-1.4877
G1 X72.280000 Y125.290000 Z0.400000 A8.861370
G1 X72.290000 Y99.430000 Z0.400000 A9.469700
G1 X72.290000 Y99.430000 Z0.400000 A9.469700
G3 X73.990000 Y95.340000 Z0.400000 A9.576050 I6.2667 J0.2065
G1 X73.990000 Y95.340000 Z0.400000 A9.576050
G1 X73.990000 Y95.340000 Z0.400000 A9.576050
G3 X94.250000 Y76.780000 Z0.400000 A10.222410 I309.0971 J317.0709
G1 X94.250000 Y76.780000 Z0.400000 A10.222410
G1 X94.250000 Y76.780000 Z0.400000 A10.222410
G3 X96.180000 Y75.670000 Z0.400000 A10.275060 I3.9952 J4.7137
G1 X96.180000 Y75.670000 Z0.400000 A10.275060
G1 X96.180000 Y75.670000 Z0.400000 A10.275060
G3 X97.260000 Y75.380000 Z0.400000 A10.301400 I2.0526 J5.4880
G1 X97.260000 Y75.380000 Z0.400000 A10.301400
G1 X97.260000 Y75.380000 Z0.400000 A10.301400
G3 X98.370000 Y75.280000 Z0.400000 A10.327630 I1.2380 J7.5317
G1 X98.370000 Y75.280000 Z0.400000 A10.327630
G1 X118.900000 Y75.290000 Z0.400000 A10.810590
G1 X118.900000 Y75.290000 Z0.400000 A10.810590
G3 X122.950000 Y76.970000 Z0.400000 A10.915860 I-0.2692 J6.3707
G1 X122.950000 Y76.970000 Z0.400000 A10.915860
G0 Z0.900 F1080.000 A9.91586
G0 X117.916 Y130.732 F7800.000
G0 Z0.400
G0 F3600.000 A10.91586
G1 X117.742000 Y130.557000 Z0.400000 A10.921660 F1080.000000
G0 Z0.900 F1080.000 A9.92166
G0 X97.907 Y130.661 F7800.000
G0 Z0.400
G0 F3600.000 A10.92166
G1 X97.731000 Y130.484000 Z0.400000 A10.927530 F1080.000000
G0 Z0.900 F1080.000 A9.92753
G0 X81.914 Y103.730 F7800.000
G0 Z0.400
G0 F3600.000 A10.92753
G1 X81.738000 Y103.555000 Z0.400000 A10.933370 F1080.000000
G0 Z0.900 F1080.000 A9.93337
G0 X107.731 Y83.984 F7800.000
G0 Z0.400
G0 F3600.000 A10.93337
G1 X107.907000 Y84.161000 Z0.400000 A10.939230 F1080.000000
G0 Z0.900 F1080.000 A9.93923
G0 X133.740 Y103.559 F7800.000
G0 Z0.400
G0 F3600.000 A10.93923
G1 X133.915000 Y103.734000 Z0.400000 A10.945030 F1080.000000
G0 X132.593 Y104.228 F7800.000
G1 X132.497000 Y103.898000 Z0.400000 A10.953110 F540.000000
G1 X132.497000 Y103.102000 Z0.400000 A10.971940
G1 X132.497000 Y103.102000 Z0.400000 A10.971940
G3 X132.802000 Y102.365000 Z0.400000 A10.990790 I1.9873 J0.3908
G1 X132.802000 Y102.365000 Z0.400000 A10.990790
G1 X132.802000 Y102.365000 Z0.400000 A10.990790
G3 X134.101000 Y101.497000 Z0.400000 A11.028460 I1.6977 J1.1347
G1 X134.101000 Y101.497000 Z0.400000 A11.028460
G1 X134.899000 Y101.497000 Z0.400000 A11.047310
G1 X134.899000 Y101.497000 Z0.400000 A11.047310
G3 X135.635000 Y101.802000 Z0.400000 A11.066140 I-0.3942 J1.9917
G1 X135.635000 Y101.802000 Z0.400000 A11.066140
G1 X135.635000 Y101.802000 Z0.400000 A11.066140
G3 X136.503000 Y103.102000 Z0.400000 A11.103830 I-1.1248 J1.6908
G1 X136.503000 Y103.102000 Z0.400000 A11.103830
G1 X136.503000 Y103.898000 Z0.400000 A11.122660
G1 X136.503000 Y103.898000 Z0.400000 A11.122660
G3 X136.198000 Y104.635000 Z0.400000 A11.141500 I-2.0055 J-0.3983
G1 X136.198000 Y104.635000 Z0.400000 A11.141500
G1 X136.198000 Y104.635000 Z0.400000 A11.141500
G3 X134.899000 Y105.503000 Z0.400000 A11.179180 I-1.6977 J-1.1347
G1 X134.899000 Y105.503000 Z0.400000 A11.179180
G1 X134.101000 Y105.503000 Z0.400000 A11.198030
G1 X134.101000 Y105.503000 Z0.400000 A11.198030
G3 X133.365000 Y105.198000 Z0.400000 A11.216860 I0.3942 J-1.9917
G1 X133.365000 Y105.198000 Z0.400000 A11.216860
G1 X133.365000 Y105.198000 Z0.400000 A11.216860
G3 X132.593000 Y104.228000 Z0.400000 A11.246470 I1.1083 J-1.6743
G1 X132.593000 Y104.228000 Z0.400000 A11.246470
G0 X132.985 Y104.088 F7800.000
G1 X132.905000 Y103.817000 Z0.400000 A11.253100 F540.000000
G1 X132.905000 Y103.183000 Z0.400000 A11.268100
G1 X132.905000 Y103.183000 Z0.400000 A11.268100
G3 X133.148000 Y102.596000 Z0.400000 A11.283110 I1.5795 J0.3101
G1 X133.148000 Y102.596000 Z0.400000 A11.283110
G1 X133.148000 Y102.596000 Z0.400000 A11.283110
G3 X134.183000 Y101.905000 Z0.400000 A11.313110 I1.3511 J0.9031
G1 X134.183000 Y101.905000 Z0.400000 A11.313110
G1 X134.817000 Y101.905000 Z0.400000 A11.328110
G1 X134.817000 Y101.905000 Z0.400000 A11.328110
G3 X135.404000 Y102.148000 Z0.400000 A11.343110 I-0.3101 J1.5795
G1 X135.404000 Y102.148000 Z0.400000 A11.343110
G1 X135.404000 Y102.148000 Z0.400000 A11.343110
G3 X136.095000 Y103.183000 Z0.400000 A11.373110 I-0.9040 J1.3517
G1 X136.095000 Y103.183000 Z0.400000 A11.373110
G1 X136.095000 Y103.817000 Z0.400000 A11.388110
G1 X136.095000 Y103.817000 Z0.400000 A11.388110
G3 X135.852000 Y104.404000 Z0.400000 A11.403110 I-1.5795 J-0.3101
G1 X135.852000 Y104.404000 Z0.400000 A11.403110
G1 X135.852000 Y104.404000 Z0.400000 A11.403110
G3 X134.817000 Y105.095000 Z0.400000 A11.433110 I-1.3511 J-0.9031
G1 X134.817000 Y105.095000 Z0.400000 A11.433110
G1 X134.183000 Y105.095000 Z0.400000 A11.448120
G1 X134.183000 Y105.095000 Z0.400000 A11.448120
G3 X133.596000 Y104.852000 Z0.400000 A11.463120 I0.3101 J-1.5795
G1 X133.596000 Y104.852000 Z0.400000 A11.463120
G1 X133.596000 Y104.852000 Z0.400000 A11.463120
G3 X132.985000 Y104.088000 Z0.400000 A11.486490 I0.8904 J-1.3384
G1 X132.985000 Y104.088000 Z0.400000 A11.486490
G0 X133.376 Y103.947 F7800.000
G1 X133.313000 Y103.736000 Z0.400000 A11.491680 F540.000000
G1 X133.313000 Y103.264000 Z0.400000 A11.502840
G1 X133.313000 Y103.264000 Z0.400000 A11.502840
G3 X133.494000 Y102.828000 Z0.400000 A11.514000 I1.1836 J0.2358
G1 X133.494000 Y102.828000 Z0.400000 A11.514000
G1 X133.494000 Y102.828000 Z0.400000 A11.514000
G3 X134.264000 Y102.313000 Z0.400000 A11.536330 I1.0001 J0.6621
G1 X134.264000 Y102.313000 Z0.400000 A11.536330
G1 X134.736000 Y102.313000 Z0.400000 A11.547490
G1 X134.736000 Y102.313000 Z0.400000 A11.547490
G3 X135.172000 Y102.494000 Z0.400000 A11.558650 I-0.2358 J1.1836
G1 X135.172000 Y102.494000 Z0.400000 A11.558650
G1 X135.172000 Y102.494000 Z0.400000 A11.558650
G3 X135.687000 Y103.264000 Z0.400000 A11.580980 I-0.6621 J1.0001
G1 X135.687000 Y103.264000 Z0.400000 A11.580980
G1 X135.687000 Y103.736000 Z0.400000 A11.592140
G1 X135.687000 Y103.736000 Z0.400000 A11.592140
G3 X135.506000 Y104.172000 Z0.400000 A11.603300 I-1.1836 J-0.2358
G1 X135.506000 Y104.172000 Z0.400000 A11.603300
G1 X135.506000 Y104.172000 Z0.400000 A11.603300
G3 X134.736000 Y104.687000 Z0.400000 A11.625620 I-1.0001 J-0.6621
G1 X134.736000 Y104.687000 Z0.400000 A11.625620
G1 X134.264000 Y104.687000 Z0.400000 A11.636790
G1 X134.264000 Y104.687000 Z0.400000 A11.636790
G3 X133.828000 Y104.506000 Z0.400000 A11.647950 I0.2358 J-1.1836
G1 X133.828000 Y104.506000 Z0.400000 A11.647950
G1 X133.828000 Y104.506000 Z0.400000 A11.647950
G3 X133.376000 Y103.947000 Z0.400000 A11.665090 I0.6563 J-0.9929
G1 X133.376000 Y103.947000 Z0.400000 A11.665090
G0 X132.966 Y103.877 F7800.000
G0 Z0.900 F1080.000 A10.66509
G0 X126.172 Y97.298 F7800.000
G0 Z0.400
G0 F3600.000 A11.66509
G1 X125.787000 Y97.614000 Z0.400000 A11.676810 F540.000000
G3 X126.172000 Y97.298000 Z0.400000 A12.040330 I-1.4097 J-2.1101
G0 X125.878 Y97.004 F7800.000
G1 X125.555000 Y97.268000 Z0.400000 A12.050130 F540.000000
G1 X125.555000 Y97.268000 Z0.400000 A12.050130 F540.000000
G3 X124.789000 Y97.586000 Z0.400000 A12.069750 I-1.1747 J-1.7480
G1 X124.789000 Y97.586000 Z0.400000 A12.069750
G1 X123.959000 Y97.586000 Z0.400000 A12.089360
G1 X123.959000 Y97.586000 Z0.400000 A12.089360
G3 X122.606000 Y96.681000 Z0.400000 A12.128590 I0.4136 J-2.0822
G1 X122.606000 Y96.681000 Z0.400000 A12.128590
G1 X122.606000 Y96.681000 Z0.400000 A12.128590
G3 X122.288000 Y95.915000 Z0.400000 A12.148200 I1.7480 J-1.1747
G1 X122.288000 Y95.915000 Z0.400000 A12.148200
G1 X122.258000 Y95.292000 Z0.400000 A12.162910
G1 X122.258000 Y95.292000 Z0.400000 A12.162910
G3 X123.025000 Y93.856000 Z0.400000 A12.202140 I2.1135 J0.2061
G1 X123.025000 Y93.856000 Z0.400000 A12.202140
G1 X123.025000 Y93.856000 Z0.400000 A12.202140
G3 X123.757000 Y93.465000 Z0.400000 A12.221750 I1.3639 J1.6726
G1 X123.757000 Y93.465000 Z0.400000 A12.221750
G1 X124.582000 Y93.384000 Z0.400000 A12.241360
G1 X124.582000 Y93.384000 Z0.400000 A12.241360
G3 X126.018000 Y94.151000 Z0.400000 A12.280590 I-0.2061 J2.1135
G1 X126.018000 Y94.151000 Z0.400000 A12.280590
G1 X126.018000 Y94.151000 Z0.400000 A12.280590
G3 X126.409000 Y94.883000 Z0.400000 A12.300200 I-1.6726 J1.3639
G1 X126.409000 Y94.883000 Z0.400000 A12.300200
G1 X126.490000 Y95.708000 Z0.400000 A12.319810
G1 X126.490000 Y95.708000 Z0.400000 A12.319810
G3 X125.878000 Y97.004000 Z0.400000 A12.354140 I-2.1153 J-0.2064
G1 X125.878000 Y97.004000 Z0.400000 A12.354140
G0 X125.583 Y96.709 F7800.000
G1 X125.324000 Y96.922000 Z0.400000 A12.362030 F540.000000
G3 X125.583000 Y96.709000 Z0.400000 A12.606540 I-0.9434 J-1.4111
G0 X125.678 Y97.114 F7800.000
G0 Z0.900 F1080.000 A11.60654
G0 X117.300 Y93.108 F7800.000
G0 Z0.400
G0 F3600.000 A12.60654
G1 X117.091000 Y93.492000 Z0.400000 A12.616830 F540.000000
G1 X117.091000 Y93.492000 Z0.400000 A12.616830 F540.000000
G3 X115.473000 Y94.574000 Z0.400000 A12.663730 I-2.1108 J-1.4056
G1 X115.473000 Y94.574000 Z0.400000 A12.663730
G1 X114.481000 Y94.574000 Z0.400000 A12.687180
G1 X114.481000 Y94.574000 Z0.400000 A12.687180
G3 X113.564000 Y94.194000 Z0.400000 A12.710640 I0.5013 J-2.5060
G1 X113.564000 Y94.194000 Z0.400000 A12.710640
G1 X113.564000 Y94.194000 Z0.400000 A12.710640
G3 X112.483000 Y92.576000 Z0.400000 A12.757540 I1.4131 J-2.1143
G1 X112.483000 Y92.576000 Z0.400000 A12.757540
G1 X112.483000 Y91.584000 Z0.400000 A12.780990
G1 X112.483000 Y91.584000 Z0.400000 A12.780990
G3 X112.863000 Y90.667000 Z0.400000 A12.804440 I2.5060 J0.5013
G1 X112.863000 Y90.667000 Z0.400000 A12.804440
G1 X112.863000 Y90.667000 Z0.400000 A12.804440
G3 X114.481000 Y89.586000 Z0.400000 A12.851350 I2.1143 J1.4131
G1 X114.481000 Y89.586000 Z0.400000 A12.851350
G1 X115.473000 Y89.586000 Z0.400000 A12.874800
G1 X115.473000 Y89.586000 Z0.400000 A12.874800
G3 X116.390000 Y89.966000 Z0.400000 A12.898240 I-0.5013 J2.5060
G1 X116.390000 Y89.966000 Z0.400000 A12.898240
G1 X116.390000 Y89.966000 Z0.400000 A12.898240
G3 X117.471000 Y91.584000 Z0.400000 A12.945150 I-1.4131 J2.1143
G1 X117.471000 Y91.584000 Z0.400000 A12.945150
G1 X117.471000 Y92.576000 Z0.400000 A12.968600
G1 X117.471000 Y92.576000 Z0.400000 A12.968600
G3 X117.300000 Y93.108000 Z0.400000 A12.981760 I-1.7824 J-0.2794
G1 X117.300000 Y93.108000 Z0.400000 A12.981760
G0 X116.924 Y92.930 F7800.000
G1 X116.745000 Y93.261000 Z0.400000 A12.990610 F540.000000
G1 X116.745000 Y93.261000 Z0.400000 A12.990610 F540.000000
G3 X115.392000 Y94.165000 Z0.400000 A13.029840 I-1.7627 J-1.1737
G1 X115.392000 Y94.165000 Z0.400000 A13.029840
G1 X114.562000 Y94.165000 Z0.400000 A13.049450
G1 X114.562000 Y94.165000 Z0.400000 A13.049450
G3 X113.796000 Y93.848000 Z0.400000 A13.069070 I0.4150 J-2.0867
G1 X113.796000 Y93.848000 Z0.400000 A13.069070
G1 X113.796000 Y93.848000 Z0.400000 A13.069070
G3 X112.891000 Y92.495000 Z0.400000 A13.108290 I1.1815 J-1.7695
G1 X112.891000 Y92.495000 Z0.400000 A13.108290
