; generated by Slic3r 0.9.8 on 2013-03-31 at 19:29:43

; layer_height = 0.3
; perimeters = 3
; top_solid_layers = 3
; bottom_solid_layers = 3
; fill_density = 0.4
; perimeter_speed = 30
; infill_speed = 40
; travel_speed = 130
; scale = 1
; nozzle_diameter = 0.4
; filament_diameter = 3
; extrusion_multiplier = 1
; perimeters extrusion width = 0.42mm
; infill extrusion width = 0.42mm
; support material extrusion width = 0.24mm
; first layer extrusion width = 0.28mm

M190 P115 ; wait for bed temperature to be reached
M104 P235 ; set temperature
G92 A0                  ; Reset A to 0
G40                        ; Cancel cutter compensation
G64 P0.1                ; Path Blend within .1mm
G0 X108.5 Y108.5  ; Move to center
M109 P235 ; wait for temperature to be reached
G90 ; use absolute coordinates
G21 ; set units to millimeters
G0 Z0.400 F3600.000 A-1.00000
G0 X130.310 Y114.336 F7800.000
G0 F3600.000 A0.00000
G1 X129.590000 Y115.066000 Z0.400000 A0.017740 F540.000000
G1 X129.590000 Y115.066000 Z0.400000 A0.017740 F540.000000
G3 X124.010000 Y117.456000 Z0.400000 A0.124840 I-6.0816 J-6.4900
G1 X124.010000 Y117.456000 Z0.400000 A0.124840
G1 X93.500000 Y117.466000 Z0.400000 A0.652720
G1 X93.500000 Y117.466000 Z0.400000 A0.652720
G3 X91.860000 Y117.316000 Z0.400000 A0.681230 I0.4409 J-13.8610
G1 X91.860000 Y117.316000 Z0.400000 A0.681230
G1 X91.860000 Y117.316000 Z0.400000 A0.681230
G3 X86.130000 Y113.616000 Z0.400000 A0.802250 I1.5734 J-8.7235
G1 X86.130000 Y113.616000 Z0.400000 A0.802250
G1 X86.130000 Y113.616000 Z0.400000 A0.802250
G3 X84.660000 Y110.056000 Z0.400000 A0.869400 I7.0334 J-4.9877
G1 X84.660000 Y110.056000 Z0.400000 A0.869400
G1 X84.530000 Y108.206000 Z0.400000 A0.901520
G1 X84.530000 Y108.206000 Z0.400000 A0.901520
G3 X84.740000 Y106.506000 Z0.400000 A0.931180 I11.8190 J0.5970
G1 X84.740000 Y106.506000 Z0.400000 A0.931180
G1 X84.740000 Y106.506000 Z0.400000 A0.931180
G3 X92.180000 Y99.616000 Z0.400000 A1.117420 I8.7810 J2.0200
G1 X92.180000 Y99.616000 Z0.400000 A1.117420
G1 X92.180000 Y99.616000 Z0.400000 A1.117420
G3 X93.500000 Y99.526000 Z0.400000 A1.140320 I1.4606 J11.6975
G1 X93.500000 Y99.526000 Z0.400000 A1.140320
G1 X123.490000 Y99.526000 Z0.400000 A1.659210
G1 X123.490000 Y99.526000 Z0.400000 A1.659210
G3 X124.810000 Y99.616000 Z0.400000 A1.682110 I-0.1406 J11.7875
G1 X124.810000 Y99.616000 Z0.400000 A1.682110
G1 X124.810000 Y99.616000 Z0.400000 A1.682110
G3 X131.880000 Y105.326000 Z0.400000 A1.846920 I-1.3208 J8.8674
G1 X131.880000 Y105.326000 Z0.400000 A1.846920
G1 X131.880000 Y105.326000 Z0.400000 A1.846920
G3 X132.410000 Y107.506000 Z0.400000 A1.885830 I-7.8245 J3.0567
G1 X132.410000 Y107.506000 Z0.400000 A1.885830
G1 X132.410000 Y109.506000 Z0.400000 A1.920490
G1 X132.410000 Y109.506000 Z0.400000 A1.920490
G3 X130.310000 Y114.336000 Z0.400000 A2.012890 I-9.0245 J-1.0522
G1 X130.310000 Y114.336000 Z0.400000 A2.012890
G0 X130.080 Y114.136 F7800.000
G1 X129.380000 Y114.846000 Z0.400000 A2.030140 F540.000000
G1 X129.380000 Y114.846000 Z0.400000 A2.030140 F540.000000
G3 X123.990000 Y117.146000 Z0.400000 A2.133530 I-5.8185 J-6.1698
G1 X123.990000 Y117.146000 Z0.400000 A2.133530
G1 X93.500000 Y117.166000 Z0.400000 A2.661080
G1 X93.500000 Y117.166000 Z0.400000 A2.661080
G3 X91.910000 Y117.016000 Z0.400000 A2.688720 I0.4668 J-13.4500
G1 X91.910000 Y117.016000 Z0.400000 A2.688720
G1 X91.910000 Y117.016000 Z0.400000 A2.688720
G3 X86.230000 Y113.226000 Z0.400000 A2.810050 I1.5855 J-8.5274
G1 X86.230000 Y113.226000 Z0.400000 A2.810050
G1 X86.230000 Y113.226000 Z0.400000 A2.810050
G3 X85.010000 Y110.256000 Z0.400000 A2.865900 I7.2307 J-4.7058
G1 X85.010000 Y110.256000 Z0.400000 A2.865900
G1 X84.840000 Y108.226000 Z0.400000 A2.901210
G1 X84.840000 Y108.226000 Z0.400000 A2.901210
G3 X84.960000 Y107.006000 Z0.400000 A2.922430 I9.2009 J0.2891
G1 X84.960000 Y107.006000 Z0.400000 A2.922430
G1 X84.960000 Y107.006000 Z0.400000 A2.922430
G3 X91.940000 Y99.966000 Z0.400000 A3.104890 I8.3903 J1.3385
G1 X91.940000 Y99.966000 Z0.400000 A3.104890
G1 X91.940000 Y99.966000 Z0.400000 A3.104890
G3 X93.500000 Y99.826000 Z0.400000 A3.132000 I2.1831 J15.5642
G1 X93.500000 Y99.826000 Z0.400000 A3.132000
G1 X123.490000 Y99.826000 Z0.400000 A3.650890
G1 X123.490000 Y99.826000 Z0.400000 A3.650890
G3 X125.330000 Y100.016000 Z0.400000 A3.682910 I-0.3970 J12.8487
G1 X125.330000 Y100.016000 Z0.400000 A3.682910
G1 X125.330000 Y100.016000 Z0.400000 A3.682910
G3 X131.760000 Y105.896000 Z0.400000 A3.840690 I-1.8668 J8.4972
G1 X131.760000 Y105.896000 Z0.400000 A3.840690
G1 X131.760000 Y105.896000 Z0.400000 A3.840690
G3 X132.150000 Y108.266000 Z0.400000 A3.882380 I-8.2059 J2.5674
G1 X132.150000 Y108.266000 Z0.400000 A3.882380
G1 X132.130000 Y109.226000 Z0.400000 A3.898990
G1 X132.130000 Y109.226000 Z0.400000 A3.898990
G3 X131.890000 Y110.636000 Z0.400000 A3.923750 I-9.9815 J-0.9735
G1 X131.890000 Y110.636000 Z0.400000 A3.923750
G1 X131.890000 Y110.636000 Z0.400000 A3.923750
G3 X130.080000 Y114.136000 Z0.400000 A3.992490 I-8.2378 J-2.0421
G1 X130.080000 Y114.136000 Z0.400000 A3.992490
G0 Z0.900 F1080.000 A2.99249
G0 X94.411 Y109.864 F7800.000
G0 Z0.400
G0 F3600.000 A3.99249
G1 X94.128000 Y110.015000 Z0.400000 A3.998050 F540.000000
G1 X93.500000 Y110.140000 Z0.400000 A4.009170
G1 X92.872000 Y110.015000 Z0.400000 A4.020300
G1 X92.872000 Y110.015000 Z0.400000 A4.020300
G3 X92.053000 Y109.273000 Z0.400000 A4.039770 I0.6253 J-1.5132
G1 X92.053000 Y109.273000 Z0.400000 A4.039770
G1 X92.053000 Y109.273000 Z0.400000 A4.039770
G3 X91.868000 Y108.661000 Z0.400000 A4.050900 I1.4304 J-0.7663
G1 X91.868000 Y108.661000 Z0.400000 A4.050900
G1 X91.930000 Y108.024000 Z0.400000 A4.062030
G1 X91.930000 Y108.024000 Z0.400000 A4.062030
G3 X92.727000 Y107.053000 Z0.400000 A4.084280 I1.5697 J0.4758
G1 X92.727000 Y107.053000 Z0.400000 A4.084280
G1 X92.727000 Y107.053000 Z0.400000 A4.084280
G3 X93.339000 Y106.868000 Z0.400000 A4.095410 I0.7663 J1.4304
G1 X93.339000 Y106.868000 Z0.400000 A4.095410
G1 X93.976000 Y106.930000 Z0.400000 A4.106530
G1 X93.976000 Y106.930000 Z0.400000 A4.106530
G3 X94.946000 Y107.727000 Z0.400000 A4.128780 I-0.4730 J1.5645
G1 X94.946000 Y107.727000 Z0.400000 A4.128780
G1 X94.946000 Y107.727000 Z0.400000 A4.128780
G3 X95.132000 Y108.339000 Z0.400000 A4.139910 I-1.4076 J0.7620
G1 X95.132000 Y108.339000 Z0.400000 A4.139910
G1 X95.070000 Y108.976000 Z0.400000 A4.151040
G1 X95.070000 Y108.976000 Z0.400000 A4.151040
G3 X94.411000 Y109.864000 Z0.400000 A4.170510 I-1.5670 J-0.4744
G1 X94.411000 Y109.864000 Z0.400000 A4.170510
G0 X94.421 Y110.169 F7800.000
G0 Z0.900 F1080.000 A3.17051
G0 X107.561 Y108.642 F7800.000
G0 Z0.400
G0 F3600.000 A4.17051
G1 X107.561000 Y108.358000 Z0.400000 A4.175420 F540.000000
G1 X107.561000 Y108.358000 Z0.400000 A4.175420 F540.000000
G3 X108.858000 Y107.061000 Z0.400000 A4.209760 I1.4368 J0.1398
G1 X108.858000 Y107.061000 Z0.400000 A4.209760
G1 X109.420000 Y107.116000 Z0.400000 A4.219570
G1 X109.420000 Y107.116000 Z0.400000 A4.219570
G3 X109.918000 Y107.382000 Z0.400000 A4.229380 I-0.4106 J1.3679
G1 X109.918000 Y107.382000 Z0.400000 A4.229380
G1 X109.918000 Y107.382000 Z0.400000 A4.229380
G3 X110.439000 Y108.358000 Z0.400000 A4.249000 I-0.9225 J1.1195
G1 X110.439000 Y108.358000 Z0.400000 A4.249000
G1 X110.384000 Y108.920000 Z0.400000 A4.258810
G1 X110.384000 Y108.920000 Z0.400000 A4.258810
G3 X110.118000 Y109.418000 Z0.400000 A4.268620 I-1.4086 J-0.4324
G1 X110.118000 Y109.418000 Z0.400000 A4.268620
G1 X110.118000 Y109.418000 Z0.400000 A4.268620
G3 X109.142000 Y109.939000 Z0.400000 A4.288240 I-1.1195 J-0.9225
G1 X109.142000 Y109.939000 Z0.400000 A4.288240
G1 X108.580000 Y109.884000 Z0.400000 A4.298050
G1 X108.580000 Y109.884000 Z0.400000 A4.298050
G3 X108.082000 Y109.618000 Z0.400000 A4.307870 I0.4324 J-1.4086
G1 X108.082000 Y109.618000 Z0.400000 A4.307870
G1 X108.082000 Y109.618000 Z0.400000 A4.307870
G3 X107.561000 Y108.642000 Z0.400000 A4.327490 I0.9123 J-1.1140
G1 X107.561000 Y108.642000 Z0.400000 A4.327490
G0 X107.865 Y108.612 F7800.000
G1 X107.865000 Y108.388000 Z0.400000 A4.331360 F540.000000
G1 X107.865000 Y108.388000 Z0.400000 A4.331360 F540.000000
G3 X108.888000 Y107.365000 Z0.400000 A4.358430 I1.1356 J0.1126
G1 X108.888000 Y107.365000 Z0.400000 A4.358430
G1 X109.331000 Y107.409000 Z0.400000 A4.366160
G1 X109.331000 Y107.409000 Z0.400000 A4.366160
G3 X109.723000 Y107.619000 Z0.400000 A4.373900 I-0.3210 J1.0700
G1 X109.723000 Y107.619000 Z0.400000 A4.373900
G1 X109.723000 Y107.619000 Z0.400000 A4.373900
G3 X110.135000 Y108.388000 Z0.400000 A4.389370 I-0.7196 J0.8804
G1 X110.135000 Y108.388000 Z0.400000 A4.389370
G1 X110.091000 Y108.831000 Z0.400000 A4.397100
G1 X110.091000 Y108.831000 Z0.400000 A4.397100
G3 X109.881000 Y109.223000 Z0.400000 A4.404830 I-1.0700 J-0.3210
G1 X109.881000 Y109.223000 Z0.400000 A4.404830
G1 X109.881000 Y109.223000 Z0.400000 A4.404830
G3 X109.112000 Y109.635000 Z0.400000 A4.420300 I-0.8775 J-0.7142
G1 X109.112000 Y109.635000 Z0.400000 A4.420300
G1 X108.669000 Y109.591000 Z0.400000 A4.428040
G1 X108.669000 Y109.591000 Z0.400000 A4.428040
G3 X108.277000 Y109.381000 Z0.400000 A4.435770 I0.3101 J-1.0497
G1 X108.277000 Y109.381000 Z0.400000 A4.435770
G1 X108.277000 Y109.381000 Z0.400000 A4.435770
G3 X107.865000 Y108.612000 Z0.400000 A4.451240 I0.7196 J-0.8804
G1 X107.865000 Y108.612000 Z0.400000 A4.451240
G0 X107.591 Y108.477 F7800.000
G0 Z0.900 F1080.000 A3.45124
G0 X121.860 Y108.500 F7800.000
G0 Z0.400
G0 F3600.000 A4.45124
G1 X121.891000 Y108.180000 Z0.400000 A4.456800 F540.000000
G1 X121.891000 Y108.180000 Z0.400000 A4.456800 F540.000000
G3 X122.589000 Y107.136000 Z0.400000 A4.479060 I1.6102 J0.3212
G1 X122.589000 Y107.136000 Z0.400000 A4.479060
G1 X122.589000 Y107.136000 Z0.400000 A4.479060
G3 X123.180000 Y106.891000 Z0.400000 A4.490180 I0.9192 J1.3821
G1 X123.180000 Y106.891000 Z0.400000 A4.490180
G1 X123.661000 Y106.868000 Z0.400000 A4.498530
G1 X123.661000 Y106.868000 Z0.400000 A4.498530
G3 X124.768000 Y107.459000 Z0.400000 A4.520780 I-0.1562 J1.6249
G1 X124.768000 Y107.459000 Z0.400000 A4.520780
G1 X124.768000 Y107.459000 Z0.400000 A4.520780
G3 X125.070000 Y108.024000 Z0.400000 A4.531910 I-1.2701 J1.0421
G1 X125.070000 Y108.024000 Z0.400000 A4.531910
G1 X125.132000 Y108.661000 Z0.400000 A4.543040
G1 X125.132000 Y108.661000 Z0.400000 A4.543040
G3 X124.541000 Y109.768000 Z0.400000 A4.565290 I-1.6249 J-0.1562
G1 X124.541000 Y109.768000 Z0.400000 A4.565290
G1 X124.541000 Y109.768000 Z0.400000 A4.565290
G3 X123.976000 Y110.070000 Z0.400000 A4.576410 I-1.0644 J-1.3118
G1 X123.976000 Y110.070000 Z0.400000 A4.576410
G1 X123.339000 Y110.132000 Z0.400000 A4.587540
G1 X123.339000 Y110.132000 Z0.400000 A4.587540
G3 X122.232000 Y109.541000 Z0.400000 A4.609790 I0.1562 J-1.6249
G1 X122.232000 Y109.541000 Z0.400000 A4.609790
G1 X122.232000 Y109.541000 Z0.400000 A4.609790
G3 X121.930000 Y108.976000 Z0.400000 A4.620920 I1.3118 J-1.0644
G1 X121.930000 Y108.976000 Z0.400000 A4.620920
G1 X121.860000 Y108.500000 Z0.400000 A4.629270
G0 X121.600 Y108.339 F7800.000
G0 X122.049 Y110.248
G1 X109.691000 Y110.248000 Z0.400000 A4.843080 F540.000000
G1 X109.662000 Y110.144000 Z0.400000 A4.844960
G1 X109.662000 Y110.144000 Z0.400000 A4.844960
G2 X110.457000 Y109.473000 Z0.400000 A4.863130 I-0.8370 J-1.7981
G1 X110.457000 Y109.473000 Z0.400000 A4.863130
G1 X110.457000 Y109.473000 Z0.400000 A4.863130
G2 X110.677000 Y109.009000 Z0.400000 A4.872050 I-1.4402 J-0.9670
G1 X110.677000 Y109.009000 Z0.400000 A4.872050
G1 X110.752000 Y108.500000 Z0.400000 A4.880970
G1 X110.752000 Y108.500000 Z0.400000 A4.880970
G2 X110.677000 Y107.991000 Z0.400000 A4.889890 I-1.9161 J0.0223
G1 X110.677000 Y107.991000 Z0.400000 A4.889890
G1 X110.677000 Y107.991000 Z0.400000 A4.889890
G2 X110.457000 Y107.526000 Z0.400000 A4.898810 I-1.8393 J0.5857
G1 X110.457000 Y107.526000 Z0.400000 A4.898810
G1 X110.457000 Y107.526000 Z0.400000 A4.898810
G2 X109.662000 Y106.856000 Z0.400000 A4.916980 I-1.6061 J1.0991
G1 X109.662000 Y106.856000 Z0.400000 A4.916980
G1 X109.691000 Y106.752000 Z0.400000 A4.918850
G1 X122.049000 Y106.752000 Z0.400000 A5.132670
G1 X122.049000 Y106.752000 Z0.400000 A5.132670
G2 X121.248000 Y108.500000 Z0.400000 A5.166870 I1.5447 J1.7654
G1 X121.248000 Y108.500000 Z0.400000 A5.166870
G1 X121.248000 Y108.500000 Z0.400000 A5.166870
G2 X122.049000 Y110.248000 Z0.400000 A5.201080 I2.3201 J-0.0057
G1 X122.049000 Y110.248000 Z0.400000 A5.201080
G0 Z0.900 F1080.000 A4.20108
G0 X108.309 Y110.248 F7800.000
G0 Z0.400
G0 F3600.000 A5.20108
G1 X94.951000 Y110.248000 Z0.400000 A5.432190 F540.000000
G1 X94.951000 Y110.248000 Z0.400000 A5.432190 F540.000000
G2 X95.752000 Y108.500000 Z0.400000 A5.466400 I-1.5447 J-1.7654
G1 X95.752000 Y108.500000 Z0.400000 A5.466400
G1 X95.752000 Y108.500000 Z0.400000 A5.466400
G2 X94.951000 Y106.752000 Z0.400000 A5.500610 I-2.3201 J0.0057
G1 X94.951000 Y106.752000 Z0.400000 A5.500610
G1 X108.309000 Y106.752000 Z0.400000 A5.731720
G1 X108.338000 Y106.856000 Z0.400000 A5.733600
G1 X108.338000 Y106.856000 Z0.400000 A5.733600
G2 X107.543000 Y107.526000 Z0.400000 A5.751770 I0.8415 J1.8052
G1 X107.543000 Y107.526000 Z0.400000 A5.751770
G1 X107.543000 Y107.526000 Z0.400000 A5.751770
G2 X107.323000 Y107.991000 Z0.400000 A5.760690 I1.6193 J1.0507
G1 X107.323000 Y107.991000 Z0.400000 A5.760690
G1 X107.248000 Y108.500000 Z0.400000 A5.769610
G1 X107.248000 Y108.500000 Z0.400000 A5.769610
G2 X107.323000 Y109.009000 Z0.400000 A5.778530 I1.9161 J-0.0223
G1 X107.323000 Y109.009000 Z0.400000 A5.778530
G1 X107.323000 Y109.009000 Z0.400000 A5.778530
G2 X107.543000 Y109.473000 Z0.400000 A5.787440 I1.6602 J-0.5030
G1 X107.543000 Y109.473000 Z0.400000 A5.787440
G1 X107.543000 Y109.473000 Z0.400000 A5.787440
G2 X108.338000 Y110.144000 Z0.400000 A5.805620 I1.5511 J-1.0313
G1 X108.338000 Y110.144000 Z0.400000 A5.805620
G1 X108.338000 Y110.144000 Z0.400000 A5.805620
G2 X108.309000 Y110.248000 Z0.400000 A5.807500 I5.2672 J1.5248
G1 X108.309000 Y110.248000 Z0.400000 A5.807500
G0 Z0.900 F1080.000 A4.80750
G0 X95.437 Y108.691 F7800.000
G0 Z0.400
G0 F3600.000 A5.80750
G1 X95.437000 Y108.309000 Z0.400000 A5.814100 F540.000000
G1 X95.437000 Y108.309000 Z0.400000 A5.814100 F540.000000
G2 X95.118000 Y107.419000 Z0.400000 A5.830600 I-1.9485 J0.1962
G1 X95.118000 Y107.419000 Z0.400000 A5.830600
G1 X95.118000 Y107.419000 Z0.400000 A5.830600
G2 X93.987000 Y106.580000 Z0.400000 A5.855350 I-1.7720 J1.2068
G1 X93.987000 Y106.580000 Z0.400000 A5.855350
G1 X94.017000 Y106.446000 Z0.400000 A5.857730
G1 X122.983000 Y106.446000 Z0.400000 A6.358900
G1 X123.013000 Y106.580000 Z0.400000 A6.361280
G1 X123.013000 Y106.580000 Z0.400000 A6.361280
G2 X121.554000 Y108.500000 Z0.400000 A6.405840 I0.5654 J1.9440
G1 X121.554000 Y108.500000 Z0.400000 A6.405840
G1 X121.691000 Y109.215000 Z0.400000 A6.418490
G1 X121.691000 Y109.215000 Z0.400000 A6.418490
G2 X121.995000 Y109.735000 Z0.400000 A6.428940 I1.8230 J-0.7169
G1 X121.995000 Y109.735000 Z0.400000 A6.428940
G1 X121.995000 Y109.735000 Z0.400000 A6.428940
G2 X123.013000 Y110.420000 Z0.400000 A6.450390 I1.7381 J-1.4841
G1 X123.013000 Y110.420000 Z0.400000 A6.450390
G1 X122.983000 Y110.554000 Z0.400000 A6.452770
G1 X94.017000 Y110.554000 Z0.400000 A6.953940
G1 X93.987000 Y110.420000 Z0.400000 A6.956320
G1 X93.987000 Y110.420000 Z0.400000 A6.956320
G2 X95.005000 Y109.735000 Z0.400000 A6.977770 I-0.7567 J-2.2235
G1 X95.005000 Y109.735000 Z0.400000 A6.977770
G1 X95.005000 Y109.735000 Z0.400000 A6.977770
G2 X95.437000 Y108.691000 Z0.400000 A6.997580 I-1.5137 J-1.2378
G1 X95.437000 Y108.691000 Z0.400000 A6.997580
G0 X93.503 Y110.860 F7800.000
G1 X93.040000 Y110.814000 Z0.400000 A7.005650 F378.000000
G1 X93.040000 Y110.814000 Z0.400000 A7.005650 F378.000000
G3 X91.538000 Y109.811000 Z0.400000 A7.037660 I0.4572 J-2.3108
G1 X91.538000 Y109.811000 Z0.400000 A7.037660
G1 X91.538000 Y109.811000 Z0.400000 A7.037660
G3 X91.186000 Y108.960000 Z0.400000 A7.053670 I1.9560 J-1.3074
G1 X91.186000 Y108.960000 Z0.400000 A7.053670
G1 X91.152000 Y108.269000 Z0.400000 A7.065680
