; generated by Slic3r 0.9.8 on 2013-03-31 at 19:29:43

; layer_height = 0.3
; perimeters = 3
; top_solid_layers = 3
; bottom_solid_layers = 3
; fill_density = 0.4
; perimeter_speed = 30
; infill_speed = 40
; travel_speed = 130
; scale = 1
; nozzle_diameter = 0.4
; filament_diameter = 3
; extrusion_multiplier = 1
; perimeters extrusion width = 0.42mm
; infill extrusion width = 0.42mm
; support material extrusion width = 0.24mm
; first layer extrusion width = 0.28mm

M190 P115 ; wait for bed temperature to be reached
M104 P235 ; set temperature
G92 A0                  ; Reset A to 0
G40                        ; Cancel cutter compensation
G64 P0.1                ; Path Blend within .1mm
G0 X108.5 Y108.5  ; Move to center
M109 P235 ; wait for temperature to be reached
G90 ; use absolute coordinates
G21 ; set units to millimeters
G0 Z0.400 F3600.000 A-1.00000
G0 X130.310 Y114.336 F7800.000
G0 F3600.000 A0.00000
G1 X129.590 Y115.066 F540.000 A0.01774
G1 X128.720 Y115.776 A0.03717
G1 X127.890 Y116.316 A0.05430
G1 X127.410 Y116.566 A0.06367
G1 X126.490 Y116.956 A0.08095
G1 X125.730 Y117.186 A0.09469
G1 X125.030 Y117.326 A0.10704
G1 X124.010 Y117.456 A0.12484
G1 X93.500 Y117.466 A0.65272
G1 X92.800 Y117.426 A0.66485
G1 X91.860 Y117.316 A0.68123
G1 X91.620 Y117.266 A0.68547
G1 X90.720 Y117.016 A0.70163
G1 X90.200 Y116.846 A0.71110
G1 X89.460 Y116.506 A0.72519
G1 X88.820 Y116.156 A0.73781
G1 X88.600 Y116.016 A0.74232
G1 X88.170 Y115.716 A0.75139
G1 X87.610 Y115.256 A0.76393
G1 X87.250 Y114.936 A0.77226
G1 X86.910 Y114.586 A0.78071
G1 X86.280 Y113.826 A0.79779
G1 X86.130 Y113.616 A0.80225
G1 X85.700 Y112.936 A0.81617
G1 X85.480 Y112.526 A0.82422
G1 X85.140 Y111.786 A0.83831
G1 X84.770 Y110.576 A0.86020
G1 X84.660 Y110.056 A0.86940
G1 X84.590 Y109.526 A0.87865
G1 X84.550 Y109.066 A0.88664
G1 X84.530 Y108.206 A0.90152
G1 X84.610 Y107.306 A0.91716
G1 X84.660 Y106.966 A0.92310
G1 X84.740 Y106.506 A0.93118
G1 X84.930 Y105.836 A0.94323
G1 X85.040 Y105.506 A0.94925
G1 X85.480 Y104.466 A0.96879
G1 X85.700 Y104.056 A0.97684
G1 X85.980 Y103.596 A0.98615
G1 X86.280 Y103.166 A0.99523
G1 X86.450 Y102.956 A0.99990
G1 X86.910 Y102.406 A1.01231
G1 X87.250 Y102.056 A1.02075
G1 X87.960 Y101.446 A1.03695
G1 X88.170 Y101.276 A1.04162
G1 X88.600 Y100.976 A1.05069
G1 X88.820 Y100.836 A1.05520
G1 X89.460 Y100.486 A1.06782
G1 X90.130 Y100.176 A1.08060
G1 X91.310 Y99.796 A1.10205
G1 X92.180 Y99.616 A1.11742
G1 X92.940 Y99.546 A1.13062
G1 X93.500 Y99.526 A1.14032
G1 X123.490 Y99.526 A1.65921
G1 X124.050 Y99.546 A1.66890
G1 X124.810 Y99.616 A1.68211
G1 X125.680 Y99.796 A1.69748
G1 X126.860 Y100.176 A1.71893
G1 X127.530 Y100.486 A1.73170
G1 X128.150 Y100.826 A1.74393
G1 X128.550 Y101.086 A1.75219
G1 X129.290 Y101.656 A1.76835
G1 X130.100 Y102.426 A1.78769
G1 X130.260 Y102.606 A1.79185
G1 X130.820 Y103.326 A1.80764
G1 X131.080 Y103.716 A1.81575
G1 X131.230 Y103.946 A1.82050
G1 X131.490 Y104.416 A1.82979
G1 X131.880 Y105.326 A1.84692
G1 X132.050 Y105.806 A1.85573
G1 X132.190 Y106.286 A1.86438
G1 X132.330 Y106.996 A1.87690
G1 X132.410 Y107.506 A1.88583
G1 X132.450 Y108.006 A1.89451
G1 X132.450 Y108.986 A1.91147
G1 X132.410 Y109.506 A1.92049
G1 X132.230 Y110.476 A1.93756
G1 X132.060 Y111.156 A1.94969
G1 X131.980 Y111.386 A1.95390
G1 X131.730 Y112.036 A1.96595
G1 X131.500 Y112.546 A1.97563
G1 X131.080 Y113.276 A1.99020
G1 X130.660 Y113.896 A2.00316
G1 X130.339 Y114.300 A2.01210
G1 X130.310 Y114.336 A2.01289
G0 X130.080 Y114.136 F7800.000
G1 X129.380 Y114.846 F540.000 A2.03014
G1 X128.550 Y115.516 A2.04860
G1 X127.740 Y116.056 A2.06544
G1 X127.510 Y116.176 A2.06993
G1 X126.610 Y116.576 A2.08697
G1 X125.900 Y116.826 A2.09999
G1 X124.970 Y117.026 A2.11645
G1 X123.990 Y117.146 A2.13353
G1 X123.490 Y117.166 A2.14219
G1 X93.500 Y117.166 A2.66108
G1 X92.830 Y117.126 A2.67269
G1 X92.360 Y117.076 A2.68087
G1 X91.910 Y117.016 A2.68872
G1 X91.460 Y116.916 A2.69670
G1 X90.800 Y116.726 A2.70858
G1 X90.310 Y116.556 A2.71756
G1 X89.610 Y116.236 A2.73087
G1 X89.200 Y116.016 A2.73892
G1 X88.770 Y115.756 A2.74762
G1 X88.350 Y115.466 A2.75645
G1 X87.460 Y114.716 A2.77659
G1 X87.140 Y114.376 A2.78467
G1 X86.690 Y113.846 A2.79670
G1 X86.230 Y113.226 A2.81005
G1 X85.750 Y112.376 A2.82694
G1 X85.530 Y111.916 A2.83576
G1 X85.340 Y111.426 A2.84486
G1 X85.130 Y110.746 A2.85717
G1 X85.010 Y110.256 A2.86590
G1 X84.920 Y109.756 A2.87469
G1 X84.860 Y109.046 A2.88702
G1 X84.840 Y108.226 A2.90121
G1 X84.910 Y107.346 A2.91648
G1 X84.960 Y107.006 A2.92243
G1 X85.040 Y106.576 A2.93000
G1 X85.150 Y106.146 A2.93768
G1 X85.330 Y105.606 A2.94753
G1 X85.750 Y104.616 A2.96613
G1 X86.230 Y103.766 A2.98302
G1 X86.690 Y103.146 A2.99638
G1 X87.140 Y102.616 A3.00841
G1 X87.460 Y102.276 A3.01649
G1 X88.160 Y101.676 A3.03244
G1 X88.770 Y101.236 A3.04545
G1 X89.610 Y100.756 A3.06219
G1 X90.240 Y100.466 A3.07419
G1 X90.680 Y100.306 A3.08229
G1 X91.390 Y100.086 A3.09515
G1 X91.940 Y99.966 A3.10489
G1 X92.970 Y99.856 A3.12281
G1 X93.500 Y99.826 A3.13200
G1 X123.490 Y99.826 A3.65089
G1 X124.490 Y99.896 A3.66823
G1 X125.330 Y100.016 A3.68291
G1 X126.310 Y100.306 A3.70060
G1 X126.750 Y100.466 A3.70870
G1 X127.380 Y100.756 A3.72070
G1 X127.790 Y100.976 A3.72875
G1 X128.380 Y101.336 A3.74071
G1 X129.100 Y101.896 A3.75649
G1 X129.870 Y102.626 A3.77485
G1 X130.030 Y102.806 A3.77901
G1 X130.570 Y103.496 A3.79417
G1 X130.830 Y103.886 A3.80228
G1 X131.090 Y104.326 A3.81112
G1 X131.430 Y105.016 A3.82443
G1 X131.760 Y105.896 A3.84069
G1 X131.890 Y106.356 A3.84897
G1 X132.070 Y107.296 A3.86552
G1 X132.130 Y107.776 A3.87389
G1 X132.150 Y108.266 A3.88238
G1 X132.130 Y109.226 A3.89899
G1 X132.070 Y109.716 A3.90753
G1 X131.890 Y110.636 A3.92375
G1 X131.690 Y111.286 A3.93552
G1 X131.230 Y112.416 A3.95663
G1 X130.830 Y113.106 A3.97043
G1 X130.570 Y113.496 A3.97854
G1 X130.109 Y114.100 A3.99169
G1 X130.080 Y114.136 A3.99249
G0 Z0.900 F1080.000 A2.99249
G0 X94.411 Y109.864 F7800.000
G0 Z0.400
G0 F3600.000 A3.99249
G1 X94.128 Y110.015 F540.000 A3.99805
G1 X93.820 Y110.109 A4.00361
G1 X93.500 Y110.140 A4.00917
G1 X93.180 Y110.109 A4.01474
G1 X92.872 Y110.015 A4.02030
G1 X92.589 Y109.864 A4.02586
G1 X92.340 Y109.660 A4.03143
G1 X92.222 Y109.527 A4.03450
G1 X92.053 Y109.273 A4.03977
G1 X91.930 Y108.976 A4.04534
G1 X91.868 Y108.661 A4.05090
G1 X91.868 Y108.339 A4.05646
G1 X91.930 Y108.024 A4.06203
G1 X92.053 Y107.727 A4.06759
G1 X92.232 Y107.459 A4.07315
G1 X92.459 Y107.232 A4.07872
G1 X92.727 Y107.053 A4.08428
G1 X93.024 Y106.930 A4.08984
G1 X93.339 Y106.868 A4.09541
G1 X93.661 Y106.868 A4.10097
G1 X93.976 Y106.930 A4.10653
G1 X94.273 Y107.053 A4.11209
G1 X94.541 Y107.232 A4.11766
G1 X94.768 Y107.459 A4.12322
G1 X94.946 Y107.727 A4.12878
G1 X95.070 Y108.024 A4.13435
G1 X95.132 Y108.339 A4.13991
G1 X95.132 Y108.661 A4.14547
G1 X95.070 Y108.976 A4.15104
G1 X94.947 Y109.273 A4.15660
G1 X94.768 Y109.541 A4.16216
G1 X94.660 Y109.660 A4.16495
G1 X94.448 Y109.836 A4.16972
G1 X94.411 Y109.864 A4.17051
G0 X94.421 Y110.169 F7800.000
G0 Z0.900 F1080.000 A3.17051
G0 X107.561 Y108.642 F7800.000
G0 Z0.400
G0 F3600.000 A4.17051
G1 X107.561 Y108.358 F540.000 A4.17542
G1 X107.616 Y108.080 A4.18032
G1 X107.725 Y107.818 A4.18523
G1 X107.882 Y107.582 A4.19013
G1 X108.082 Y107.382 A4.19504
G1 X108.318 Y107.225 A4.19994
G1 X108.580 Y107.116 A4.20485
G1 X108.858 Y107.061 A4.20976
G1 X109.142 Y107.061 A4.21466
G1 X109.420 Y107.116 A4.21957
G1 X109.682 Y107.224 A4.22447
G1 X109.918 Y107.382 A4.22938
G1 X110.118 Y107.583 A4.23428
G1 X110.275 Y107.818 A4.23919
G1 X110.384 Y108.080 A4.24409
G1 X110.439 Y108.358 A4.24900
G1 X110.439 Y108.642 A4.25390
G1 X110.384 Y108.920 A4.25881
G1 X110.275 Y109.182 A4.26372
G1 X110.118 Y109.418 A4.26862
G1 X109.917 Y109.618 A4.27353
G1 X109.682 Y109.775 A4.27843
G1 X109.420 Y109.884 A4.28334
G1 X109.142 Y109.939 A4.28824
G1 X108.858 Y109.939 A4.29315
G1 X108.580 Y109.884 A4.29805
G1 X108.318 Y109.775 A4.30296
G1 X108.082 Y109.618 A4.30787
G1 X107.882 Y109.417 A4.31277
G1 X107.724 Y109.182 A4.31768
G1 X107.616 Y108.920 A4.32258
G1 X107.567 Y108.687 A4.32670
G1 X107.561 Y108.642 A4.32749
G0 X107.865 Y108.612 F7800.000
G1 X107.865 Y108.388 F540.000 A4.33136
G1 X107.909 Y108.169 A4.33522
G1 X107.994 Y107.963 A4.33909
G1 X108.119 Y107.777 A4.34296
G1 X108.277 Y107.619 A4.34683
G1 X108.462 Y107.494 A4.35069
G1 X108.669 Y107.409 A4.35456
G1 X108.888 Y107.365 A4.35843
G1 X109.112 Y107.365 A4.36229
G1 X109.331 Y107.409 A4.36616
G1 X109.537 Y107.494 A4.37003
G1 X109.723 Y107.619 A4.37390
G1 X109.881 Y107.777 A4.37776
G1 X110.006 Y107.963 A4.38163
G1 X110.091 Y108.169 A4.38550
G1 X110.135 Y108.388 A4.38937
G1 X110.135 Y108.612 A4.39323
G1 X110.091 Y108.831 A4.39710
G1 X110.006 Y109.037 A4.40097
G1 X109.881 Y109.223 A4.40483
G1 X109.723 Y109.381 A4.40870
G1 X109.538 Y109.506 A4.41257
G1 X109.331 Y109.591 A4.41643
G1 X109.112 Y109.635 A4.42030
G1 X108.888 Y109.635 A4.42417
G1 X108.669 Y109.591 A4.42804
G1 X108.462 Y109.506 A4.43191
G1 X108.277 Y109.381 A4.43577
G1 X108.119 Y109.223 A4.43964
G1 X107.994 Y109.037 A4.44351
G1 X107.909 Y108.831 A4.44737
G1 X107.872 Y108.657 A4.45045
G1 X107.865 Y108.612 A4.45124
G0 X107.591 Y108.477 F7800.000
G0 Z0.900 F1080.000 A3.45124
G0 X121.860 Y108.500 F7800.000
G0 Z0.400
G0 F3600.000 A4.45124
G1 X121.891 Y108.180 F540.000 A4.45680
G1 X121.985 Y107.872 A4.46237
G1 X122.136 Y107.589 A4.46793
G1 X122.340 Y107.340 A4.47349
G1 X122.589 Y107.136 A4.47906
G1 X122.872 Y106.985 A4.48462
G1 X123.180 Y106.891 A4.49018
G1 X123.356 Y106.867 A4.49326
G1 X123.661 Y106.868 A4.49853
G1 X123.976 Y106.930 A4.50409
G1 X124.273 Y107.053 A4.50966
G1 X124.541 Y107.232 A4.51522
G1 X124.768 Y107.459 A4.52078
G1 X124.947 Y107.727 A4.52635
G1 X125.070 Y108.024 A4.53191
G1 X125.132 Y108.339 A4.53747
G1 X125.132 Y108.661 A4.54304
G1 X125.070 Y108.976 A4.54860
G1 X124.946 Y109.273 A4.55416
G1 X124.768 Y109.541 A4.55972
G1 X124.541 Y109.768 A4.56529
G1 X124.273 Y109.946 A4.57085
G1 X123.976 Y110.070 A4.57641
G1 X123.661 Y110.132 A4.58198
G1 X123.339 Y110.132 A4.58754
G1 X123.024 Y110.070 A4.59310
G1 X122.727 Y109.947 A4.59867
G1 X122.459 Y109.768 A4.60423
G1 X122.232 Y109.541 A4.60979
G1 X122.054 Y109.273 A4.61536
G1 X121.930 Y108.976 A4.62092
G1 X121.891 Y108.820 A4.62370
G1 X121.862 Y108.546 A4.62847
G1 X121.860 Y108.500 A4.62927
G0 X121.600 Y108.339 F7800.000
G0 X122.049 Y110.248
G1 X109.691 Y110.248 F540.000 A4.84308
G1 X109.662 Y110.144 A4.84496
G1 X110.112 Y109.855 A4.85421
G1 X110.355 Y109.612 A4.86015
G1 X110.457 Y109.473 A4.86313
G1 X110.619 Y109.171 A4.86907
G1 X110.677 Y109.009 A4.87205
G1 X110.719 Y108.842 A4.87502
G1 X110.752 Y108.500 A4.88097
G1 X110.725 Y108.201 A4.88616
G1 X110.677 Y107.991 A4.88989
G1 X110.564 Y107.713 A4.89508
G1 X110.457 Y107.526 A4.89881
G1 X110.239 Y107.261 A4.90475
G1 X110.112 Y107.145 A4.90772
G1 X109.662 Y106.856 A4.91698
G1 X109.691 Y106.752 A4.91885
G1 X122.049 Y106.752 A5.13267
G1 X121.759 Y107.071 A5.14013
G1 X121.627 Y107.249 A5.14395
G1 X121.419 Y107.638 A5.15159
G1 X121.291 Y108.061 A5.15923
G1 X121.248 Y108.500 A5.16687
G1 X121.291 Y108.939 A5.17451
G1 X121.419 Y109.362 A5.18215
G1 X121.627 Y109.751 A5.18979
G1 X121.759 Y109.929 A5.19361
G1 X122.018 Y110.215 A5.20028
G1 X122.049 Y110.248 A5.20108
G0 Z0.900 F1080.000 A4.20108
G0 X108.309 Y110.248 F7800.000
G0 Z0.400
G0 F3600.000 A5.20108
G1 X94.951 Y110.248 F540.000 A5.43219
G1 X95.241 Y109.929 A5.43966
G1 X95.373 Y109.751 A5.44348
G1 X95.581 Y109.362 A5.45112
G1 X95.709 Y108.939 A5.45876
G1 X95.752 Y108.500 A5.46640
G1 X95.709 Y108.061 A5.47404
G1 X95.581 Y107.638 A5.48168
G1 X95.373 Y107.249 A5.48932
G1 X95.241 Y107.071 A5.49314
G1 X94.951 Y106.752 A5.50061
G1 X108.309 Y106.752 A5.73172
G1 X108.338 Y106.856 A5.73360
G1 X107.888 Y107.145 A5.74285
G1 X107.761 Y107.261 A5.74583
G1 X107.543 Y107.526 A5.75177
G1 X107.436 Y107.713 A5.75550
G1 X107.323 Y107.991 A5.76069
G1 X107.281 Y108.158 A5.76367
G1 X107.248 Y108.500 A5.76961
G1 X107.275 Y108.799 A5.77480
G1 X107.323 Y109.009 A5.77853
G1 X107.381 Y109.171 A5.78151
G1 X107.543 Y109.473 A5.78744
G1 X107.645 Y109.612 A5.79042
G1 X107.888 Y109.855 A5.79636
G1 X108.338 Y110.144 A5.80562
G1 X108.321 Y110.204 A5.80670
G1 X108.309 Y110.248 A5.80750
G0 Z0.900 F1080.000 A4.80750
G0 X95.437 Y108.691 F7800.000
G0 Z0.400
G0 F3600.000 A5.80750
G1 X95.437 Y108.309 F540.000 A5.81410
G1 X95.362 Y107.935 A5.82070
G1 X95.230 Y107.611 A5.82675
G1 X95.118 Y107.419 A5.83060
G1 X94.876 Y107.124 A5.83720
G1 X94.581 Y106.882 A5.84381
G1 X94.417 Y106.784 A5.84711
G1 X93.987 Y106.580 A5.85535
G1 X94.017 Y106.446 A5.85773
G1 X122.983 Y106.446 A6.35890
G1 X123.013 Y106.580 A6.36128
G1 X122.582 Y106.784 A6.36952
G1 X122.419 Y106.882 A6.37282
G1 X122.124 Y107.124 A6.37942
G1 X121.882 Y107.419 A6.38603
G1 X121.784 Y107.583 A6.38933
G1 X121.638 Y107.935 A6.39593
G1 X121.568 Y108.278 A6.40199
G1 X121.554 Y108.500 A6.40584
G1 X121.591 Y108.880 A6.41244
G1 X121.691 Y109.215 A6.41849
G1 X121.784 Y109.417 A6.42234
G1 X121.995 Y109.735 A6.42894
G1 X122.242 Y109.983 A6.43500
G1 X122.419 Y110.118 A6.43885
G1 X122.583 Y110.216 A6.44215
G1 X123.013 Y110.420 A6.45039
G1 X122.983 Y110.554 A6.45277
G1 X94.017 Y110.554 A6.95394
G1 X93.987 Y110.420 A6.95632
G1 X94.417 Y110.216 A6.96456
G1 X94.581 Y110.118 A6.96787
G1 X94.876 Y109.876 A6.97447
G1 X95.005 Y109.735 A6.97777
G1 X95.200 Y109.445 A6.98383
G1 X95.298 Y109.245 A6.98768
G1 X95.362 Y109.065 A6.99098
G1 X95.430 Y108.736 A6.99679
G1 X95.437 Y108.691 A6.99758
G0 X93.503 Y110.860 F7800.000
G1 X93.040 Y110.814 F378.000 A7.00565
G1 X92.597 Y110.680 A7.01365
G1 X92.189 Y110.462 A7.02166
G1 X91.831 Y110.169 A7.02966
G1 X91.538 Y109.811 A7.03766
G1 X91.320 Y109.403 A7.04567
G1 X91.186 Y108.960 A7.05367
G1 X91.140 Y108.500 A7.06168
G1 X91.152 Y108.269 A7.06568
G1 X91.202 Y107.930 A7.07162
G1 X91.320 Y107.597 A7.07772
G1 X91.538 Y107.189 A7.08573
G1 X91.831 Y106.831 A7.09373
G1 X92.189 Y106.538 A7.10173
G1 X92.597 Y106.320 A7.10974
G1 X93.040 Y106.186 A7.11774
G1 X93.503 Y106.140 A7.12581
G1 X123.731 Y106.152 A7.64881
G1 X124.185 Y106.242 A7.65681
G1 X124.612 Y106.419 A7.66482
G1 X124.997 Y106.676 A7.67282
G1 X125.324 Y107.003 A7.68083
G1 X125.462 Y107.189 A7.68483
G1 X125.680 Y107.597 A7.69284
G1 X125.814 Y108.040 A7.70084
G1 X125.860 Y108.500 A7.70884
G1 X125.814 Y108.960 A7.71685
G1 X125.680 Y109.403 A7.72485
G1 X125.462 Y109.811 A7.73286
G1 X125.169 Y110.169 A7.74086
G1 X124.811 Y110.462 A7.74886
G1 X124.403 Y110.680 A7.75687
G1 X123.970 Y110.812 A7.76471
G1 X123.731 Y110.848 A7.76888
G1 X93.549 Y110.860 A8.29109
G1 X93.503 Y110.860 A8.29188
G0 X93.368 Y110.586 F7800.000
G0 Z0.900 F1080.000 A7.29188
G0 X110.490 Y110.080 F7800.000
G0 Z0.400
G0 F3600.000 A8.29188
G1 X110.490 Y109.805 F720.000 A8.29673
G1 X110.801 Y110.080 A8.30405
G1 X110.801 Y109.338 A8.31712
G1 X111.112 Y110.080 A8.33130
G1 X111.112 Y106.920 A8.38698
G1 X110.801 Y106.920 A8.39246
G1 X110.801 Y107.662 A8.40553
G1 X110.490 Y107.195 A8.41541
G1 X110.490 Y106.920 A8.42026
G0 X111.424 Y106.920 F7800.000
G1 X111.424 Y110.080 F720.000 A8.47594
G1 X111.735 Y110.080 A8.48142
G1 X111.735 Y106.920 A8.53710
G1 X112.046 Y106.920 A8.54259
G1 X112.046 Y110.080 A8.59827
G1 X112.358 Y110.080 A8.60375
G1 X112.358 Y106.920 A8.65943
G1 X112.669 Y106.920 A8.66491
G1 X112.669 Y110.080 A8.72059
G1 X112.980 Y110.080 A8.72608
G1 X112.980 Y106.920 A8.78176
G1 X113.292 Y106.920 A8.78724
G1 X113.292 Y110.080 A8.84292
G1 X113.603 Y110.080 A8.84840
G1 X113.603 Y106.920 A8.90408
G1 X113.914 Y106.920 A8.90957
G1 X113.914 Y110.080 A8.96525
G1 X114.225 Y110.080 A8.97073
G1 X114.225 Y106.920 A9.02641
