; generated by Slic3r 0.9.8 on 2013-03-27 at 21:16:12

; layer_height = 0.3
; perimeters = 4
; top_solid_layers = 3
; bottom_solid_layers = 3
; fill_density = .2
; perimeter_speed = 15
; infill_speed = 40
; travel_speed = 130
; scale = 1
; nozzle_diameter = 0.4
; filament_diameter = 3
; extrusion_multiplier = 1
; perimeters extrusion width = 0.42mm
; infill extrusion width = 0.42mm
; first layer extrusion width = 0.42mm

M190 P115 ; wait for bed temperature to be reached
M104 P235 ; set temperature
G92 A0                  ; Reset A to 0
G40                        ; Cancel cutter compensation
G64 P0.1                ; Path Blend within .1mm
G0 X108.5 Y108.5  ; Move to center
M109 P235 ; wait for temperature to be reached
G90 ; use absolute coordinates
G21 ; set units to millimeters
G0 Z0.400 F1800.000 A-1.00000
G0 X13.981 Y102.812 F7800.000
G0 F1800.000 A0.00000
G1 X13.601 Y102.392 F480.000 A0.01332
G1 X13.261 Y101.952 A0.02640
G1 X12.821 Y101.242 A0.04605
G1 X12.581 Y100.732 A0.05931
G1 X12.381 Y100.212 A0.07242
G1 X12.221 Y99.682 A0.08544
G1 X12.071 Y98.862 A0.10505
G1 X12.021 Y98.302 A0.11828
G1 X12.021 Y58.892 A1.04537
G1 X12.101 Y58.092 A1.06428
G1 X12.151 Y57.832 A1.07051
G1 X12.351 Y57.052 A1.08945
G1 X12.441 Y56.802 A1.09571
G1 X12.761 Y56.062 A1.11467
G1 X12.891 Y55.822 A1.12109
G1 X13.321 Y55.142 A1.14002
G1 X13.661 Y54.722 A1.15273
G1 X13.831 Y54.522 A1.15891
G1 X14.211 Y54.142 A1.17155
G1 X14.831 Y53.632 A1.19043
G1 X15.051 Y53.482 A1.19670
G1 X15.751 Y53.072 A1.21578
G1 X16.241 Y52.852 A1.22842
G1 X16.741 Y52.662 A1.24100
G1 X17.261 Y52.522 A1.25367
G1 X17.781 Y52.412 A1.26617
G1 X18.581 Y52.332 A1.28508
G1 X198.401 Y52.332 A5.51522
G1 X199.201 Y52.412 A5.53413
G1 X199.721 Y52.522 A5.54663
G1 X200.241 Y52.662 A5.55930
G1 X200.491 Y52.752 A5.56555
G1 X201.231 Y53.072 A5.58452
G1 X201.471 Y53.202 A5.59094
G1 X202.151 Y53.632 A5.60986
G1 X202.771 Y54.142 A5.62875
G1 X203.151 Y54.522 A5.64139
G1 X203.661 Y55.142 A5.66028
G1 X203.811 Y55.362 A5.66654
G1 X204.221 Y56.062 A5.68562
G1 X204.441 Y56.552 A5.69826
G1 X204.631 Y57.052 A5.71084
G1 X204.831 Y57.832 A5.72978
G1 X204.881 Y58.092 A5.73601
G1 X204.961 Y58.892 A5.75493
G1 X204.961 Y98.302 A6.68202
G1 X204.911 Y98.862 A6.69524
G1 X204.761 Y99.682 A6.71485
G1 X204.601 Y100.212 A6.72788
G1 X204.401 Y100.732 A6.74098
G1 X204.161 Y101.242 A6.75424
G1 X204.021 Y101.482 A6.76078
G1 X203.721 Y101.952 A6.77390
G1 X203.381 Y102.392 A6.78698
G1 X203.001 Y102.812 A6.80030
G1 X149.421 Y157.392 A8.59953
G1 X148.951 Y157.832 A8.61467
G1 X147.121 Y159.372 A8.67094
G1 X146.421 Y159.882 A8.69131
G1 X144.401 Y161.182 A8.74782
G1 X143.641 Y161.612 A8.76836
G1 X141.481 Y162.642 A8.82466
G1 X140.661 Y162.972 A8.84545
G1 X138.391 Y163.712 A8.90162
G1 X137.581 Y163.922 A8.92130
G1 X135.221 Y164.382 A8.97786
G1 X134.341 Y164.492 A8.99872
G1 X131.951 Y164.642 A9.05506
G1 X131.521 Y164.652 A9.06518
G1 X85.041 Y164.642 A10.15858
G1 X82.641 Y164.492 A10.21515
G1 X81.761 Y164.372 A10.23605
G1 X79.411 Y163.912 A10.29238
G1 X78.601 Y163.712 A10.31200
G1 X76.331 Y162.972 A10.36817
G1 X75.521 Y162.642 A10.38874
G1 X73.351 Y161.612 A10.44525
G1 X72.571 Y161.182 A10.46620
G1 X70.561 Y159.882 A10.52251
G1 X69.871 Y159.372 A10.54270
G1 X68.041 Y157.832 A10.59896
G1 X67.571 Y157.392 A10.61411
G1 X14.024 Y102.856 A12.41203
G1 X13.981 Y102.812 A12.41350
G0 X14.271 Y102.512 F7800.000
G1 X13.901 Y102.102 F480.000 A12.42649
G1 X13.571 Y101.662 A12.43943
G1 X13.271 Y101.192 A12.45255
G1 X12.911 Y100.452 A12.47191
G1 X12.721 Y99.932 A12.48493
G1 X12.581 Y99.392 A12.49805
G1 X12.491 Y98.852 A12.51093
G1 X12.441 Y98.302 A12.52392
G1 X12.441 Y58.892 A13.45101
G1 X12.481 Y58.372 A13.46328
G1 X12.571 Y57.842 A13.47593
G1 X12.701 Y57.332 A13.48831
G1 X12.871 Y56.832 A13.50073
G1 X12.971 Y56.582 A13.50707
G1 X13.341 Y55.882 A13.52569
G1 X13.631 Y55.432 A13.53829
G1 X13.951 Y55.012 A13.55071
G1 X14.311 Y54.622 A13.56319
G1 X14.701 Y54.262 A13.57568
G1 X15.341 Y53.792 A13.59436
G1 X15.801 Y53.522 A13.60691
G1 X16.271 Y53.282 A13.61932
G1 X16.771 Y53.092 A13.63190
G1 X17.281 Y52.942 A13.64441
G1 X18.061 Y52.792 A13.66309
G1 X18.851 Y52.742 A13.68172
G1 X198.131 Y52.742 A17.89915
G1 X198.921 Y52.792 A17.91777
G1 X199.451 Y52.882 A17.93041
G1 X199.961 Y53.012 A17.94279
G1 X200.711 Y53.282 A17.96155
G1 X201.411 Y53.652 A17.98017
G1 X201.861 Y53.942 A17.99277
G1 X202.281 Y54.262 A18.00519
G1 X202.671 Y54.622 A18.01767
G1 X203.031 Y55.012 A18.03016
G1 X203.351 Y55.432 A18.04258
G1 X203.641 Y55.882 A18.05517
G1 X204.011 Y56.582 A18.07380
G1 X204.281 Y57.332 A18.09255
G1 X204.411 Y57.842 A18.10493
G1 X204.501 Y58.372 A18.11758
G1 X204.551 Y59.162 A18.13620
G1 X204.551 Y98.022 A19.05035
G1 X204.521 Y98.572 A19.06331
G1 X204.451 Y99.122 A19.07635
G1 X204.401 Y99.392 A19.08281
G1 X204.261 Y99.932 A19.09593
G1 X204.071 Y100.452 A19.10896
G1 X203.711 Y101.192 A19.12832
G1 X203.251 Y101.892 A19.14802
G1 X202.711 Y102.512 A19.16736
G1 X149.131 Y157.092 A20.96659
G1 X148.681 Y157.512 A20.98107
G1 X146.851 Y159.052 A21.03733
G1 X146.191 Y159.542 A21.05667
G1 X144.171 Y160.842 A21.11318
G1 X143.461 Y161.232 A21.13224
G1 X141.301 Y162.262 A21.18853
G1 X140.531 Y162.572 A21.20806
G1 X138.261 Y163.312 A21.26422
G1 X137.501 Y163.512 A21.28271
G1 X135.141 Y163.972 A21.33927
G1 X134.311 Y164.072 A21.35894
G1 X131.521 Y164.242 A21.42469
G1 X85.471 Y164.242 A22.50799
G1 X82.671 Y164.072 A22.57397
G1 X81.841 Y163.972 A22.59364
G1 X79.491 Y163.512 A22.64997
G1 X78.731 Y163.312 A22.66846
G1 X76.461 Y162.572 A22.72463
G1 X75.701 Y162.272 A22.74385
G1 X73.531 Y161.242 A22.80035
G1 X72.801 Y160.832 A22.82005
G1 X70.791 Y159.532 A22.87636
G1 X70.141 Y159.052 A22.89537
G1 X68.311 Y157.512 A22.95163
G1 X67.861 Y157.092 A22.96611
G1 X14.314 Y102.556 A24.76404
G1 X14.271 Y102.512 A24.76551
G0 Z0.900 F480.000 A23.76551
G0 X143.955 Y112.653 F7800.000
G0 Z0.400
G0 F1800.000 A24.76551
G1 X144.012 Y112.269 F480.000 A24.77464
G1 X144.107 Y111.892 A24.78378
G1 X144.238 Y111.526 A24.79293
G1 X144.403 Y111.175 A24.80205
G1 X144.603 Y110.842 A24.81120
G1 X144.835 Y110.530 A24.82034
G1 X145.096 Y110.242 A24.82948
G1 X145.384 Y109.981 A24.83862
G1 X145.695 Y109.749 A24.84775
G1 X146.029 Y109.550 A24.85690
G1 X146.380 Y109.384 A24.86603
G1 X146.746 Y109.253 A24.87517
G1 X147.123 Y109.158 A24.88431
G1 X147.507 Y109.101 A24.89346
G1 X147.895 Y109.082 A24.90259
G1 X148.283 Y109.101 A24.91173
G1 X148.667 Y109.158 A24.92087
G1 X149.044 Y109.253 A24.93001
G1 X149.410 Y109.384 A24.93915
G1 X149.761 Y109.550 A24.94829
G1 X150.094 Y109.749 A24.95743
G1 X150.407 Y109.981 A24.96657
G1 X150.694 Y110.242 A24.97570
G1 X150.955 Y110.530 A24.98484
G1 X151.187 Y110.842 A24.99399
G1 X151.386 Y111.175 A25.00312
G1 X151.553 Y111.526 A25.01226
G1 X151.683 Y111.892 A25.02141
G1 X151.778 Y112.269 A25.03054
G1 X151.835 Y112.653 A25.03968
G1 X151.854 Y113.041 A25.04883
G1 X151.835 Y113.429 A25.05796
G1 X151.778 Y113.813 A25.06710
G1 X151.683 Y114.190 A25.07624
G1 X151.553 Y114.556 A25.08538
G1 X151.386 Y114.908 A25.09453
G1 X151.187 Y115.241 A25.10366
G1 X150.955 Y115.553 A25.11280
G1 X150.694 Y115.841 A25.12194
G1 X150.406 Y116.101 A25.13107
G1 X150.095 Y116.333 A25.14021
G1 X149.761 Y116.533 A25.14936
G1 X149.410 Y116.699 A25.15850
G1 X149.044 Y116.829 A25.16763
G1 X148.667 Y116.924 A25.17677
G1 X148.283 Y116.981 A25.18591
G1 X147.895 Y117.000 A25.19505
G1 X147.507 Y116.981 A25.20418
G1 X147.123 Y116.924 A25.21333
G1 X146.746 Y116.829 A25.22247
G1 X146.380 Y116.699 A25.23161
G1 X146.029 Y116.533 A25.24074
G1 X145.696 Y116.333 A25.24988
G1 X145.384 Y116.101 A25.25902
G1 X145.096 Y115.841 A25.26816
G1 X144.835 Y115.553 A25.27730
G1 X144.603 Y115.241 A25.28644
G1 X144.404 Y114.908 A25.29557
G1 X144.237 Y114.556 A25.30473
G1 X144.107 Y114.190 A25.31386
G1 X144.012 Y113.813 A25.32300
G1 X143.955 Y113.429 A25.33214
G1 X143.936 Y113.041 A25.34127
G1 X143.952 Y112.715 A25.34896
G1 X143.955 Y112.653 A25.35042
G0 X144.369 Y112.694 F7800.000
G1 X144.420 Y112.350 F480.000 A25.35860
G1 X144.505 Y112.013 A25.36677
G1 X144.622 Y111.685 A25.37496
G1 X144.771 Y111.371 A25.38313
G1 X144.949 Y111.073 A25.39131
G1 X145.156 Y110.794 A25.39949
G1 X145.390 Y110.536 A25.40767
G1 X145.648 Y110.303 A25.41585
G1 X145.927 Y110.096 A25.42402
G1 X146.225 Y109.917 A25.43221
G1 X146.539 Y109.768 A25.44038
G1 X146.867 Y109.651 A25.44856
G1 X147.204 Y109.566 A25.45674
G1 X147.548 Y109.515 A25.46492
G1 X147.895 Y109.498 A25.47310
G1 X148.242 Y109.515 A25.48127
G1 X148.586 Y109.566 A25.48945
G1 X148.923 Y109.651 A25.49763
G1 X149.251 Y109.768 A25.50581
G1 X149.565 Y109.917 A25.51399
G1 X149.863 Y110.095 A25.52217
G1 X150.142 Y110.303 A25.53035
G1 X150.400 Y110.536 A25.53852
G1 X150.633 Y110.794 A25.54670
G1 X150.841 Y111.073 A25.55489
G1 X151.019 Y111.371 A25.56306
G1 X151.168 Y111.685 A25.57124
G1 X151.285 Y112.013 A25.57942
G1 X151.370 Y112.350 A25.58760
G1 X151.421 Y112.694 A25.59577
G1 X151.438 Y113.041 A25.60396
G1 X151.421 Y113.388 A25.61213
G1 X151.370 Y113.732 A25.62031
G1 X151.285 Y114.069 A25.62849
G1 X151.168 Y114.397 A25.63667
G1 X151.019 Y114.711 A25.64485
G1 X150.841 Y115.009 A25.65302
G1 X150.633 Y115.289 A25.66120
G1 X150.400 Y115.546 A25.66938
G1 X150.142 Y115.780 A25.67756
G1 X149.863 Y115.987 A25.68573
G1 X149.565 Y116.165 A25.69392
G1 X149.251 Y116.314 A25.70210
G1 X148.924 Y116.431 A25.71027
G1 X148.586 Y116.516 A25.71845
G1 X148.242 Y116.567 A25.72663
G1 X147.895 Y116.584 A25.73481
G1 X147.548 Y116.567 A25.74298
G1 X147.204 Y116.516 A25.75116
G1 X146.867 Y116.431 A25.75935
G1 X146.539 Y116.314 A25.76752
G1 X146.225 Y116.165 A25.77570
G1 X145.927 Y115.987 A25.78387
G1 X145.648 Y115.780 A25.79205
G1 X145.390 Y115.546 A25.80023
G1 X145.157 Y115.289 A25.80841
G1 X144.949 Y115.009 A25.81659
G1 X144.771 Y114.711 A25.82476
G1 X144.622 Y114.397 A25.83295
G1 X144.505 Y114.069 A25.84113
G1 X144.420 Y113.732 A25.84931
G1 X144.369 Y113.388 A25.85749
G1 X144.352 Y113.041 A25.86566
G1 X144.366 Y112.756 A25.87238
G1 X144.369 Y112.694 A25.87384
G0 X144.784 Y112.735 F7800.000
G1 X144.829 Y112.431 F480.000 A25.88106
G1 X144.903 Y112.134 A25.88828
G1 X145.007 Y111.845 A25.89550
G1 X145.138 Y111.567 A25.90271
G1 X145.295 Y111.304 A25.90993
G1 X145.478 Y111.058 A25.91715
G1 X145.684 Y110.830 A25.92437
G1 X145.912 Y110.624 A25.93158
G1 X146.158 Y110.442 A25.93880
G1 X146.421 Y110.284 A25.94602
G1 X146.699 Y110.153 A25.95323
G1 X146.987 Y110.049 A25.96045
G1 X147.285 Y109.975 A25.96767
G1 X147.589 Y109.930 A25.97489
G1 X147.895 Y109.915 A25.98211
G1 X148.201 Y109.930 A25.98932
G1 X148.505 Y109.975 A25.99654
G1 X148.803 Y110.049 A26.00376
G1 X149.092 Y110.153 A26.01098
G1 X149.369 Y110.284 A26.01820
G1 X149.632 Y110.442 A26.02541
G1 X149.878 Y110.624 A26.03263
G1 X150.106 Y110.830 A26.03985
G1 X150.312 Y111.058 A26.04707
G1 X150.495 Y111.304 A26.05429
G1 X150.652 Y111.567 A26.06150
G1 X150.783 Y111.845 A26.06872
G1 X150.887 Y112.134 A26.07594
G1 X150.961 Y112.431 A26.08315
G1 X151.006 Y112.735 A26.09037
G1 X151.021 Y113.041 A26.09759
G1 X151.006 Y113.347 A26.10481
G1 X150.961 Y113.651 A26.11202
G1 X150.887 Y113.949 A26.11924
G1 X150.783 Y114.238 A26.12646
G1 X150.652 Y114.515 A26.13368
G1 X150.495 Y114.778 A26.14090
G1 X150.312 Y115.025 A26.14811
G1 X150.106 Y115.252 A26.15533
G1 X149.878 Y115.458 A26.16255
G1 X149.632 Y115.641 A26.16976
G1 X149.369 Y115.798 A26.17699
G1 X149.091 Y115.930 A26.18420
G1 X148.803 Y116.033 A26.19142
G1 X148.505 Y116.108 A26.19864
G1 X148.201 Y116.152 A26.20585
G1 X147.895 Y116.168 A26.21307
G1 X147.589 Y116.152 A26.22029
G1 X147.285 Y116.108 A26.22751
G1 X146.987 Y116.033 A26.23473
G1 X146.699 Y115.930 A26.24194
G1 X146.421 Y115.798 A26.24916
G1 X146.158 Y115.641 A26.25637
G1 X145.912 Y115.458 A26.26359
G1 X145.684 Y115.252 A26.27081
G1 X145.478 Y115.025 A26.27803
G1 X145.295 Y114.778 A26.28525
G1 X145.138 Y114.515 A26.29246
G1 X145.006 Y114.237 A26.29969
G1 X144.903 Y113.949 A26.30690
G1 X144.829 Y113.651 A26.31412
G1 X144.784 Y113.347 A26.32134
G1 X144.769 Y113.041 A26.32855
G1 X144.781 Y112.797 A26.33431
G1 X144.784 Y112.735 A26.33577
G0 X145.198 Y112.775 F7800.000
G1 X145.237 Y112.512 F480.000 A26.34203
G1 X145.301 Y112.254 A26.34828
G1 X145.391 Y112.004 A26.35454
G1 X145.505 Y111.764 A26.36080
G1 X145.642 Y111.535 A26.36706
G1 X145.800 Y111.322 A26.37331
G1 X145.979 Y111.125 A26.37957
G1 X146.176 Y110.946 A26.38583
G1 X146.389 Y110.788 A26.39208
G1 X146.617 Y110.651 A26.39834
G1 X146.858 Y110.537 A26.40460
G1 X147.108 Y110.448 A26.41085
G1 X147.366 Y110.383 A26.41711
G1 X147.629 Y110.344 A26.42337
G1 X147.895 Y110.331 A26.42962
G1 X148.161 Y110.344 A26.43588
G1 X148.424 Y110.383 A26.44214
G1 X148.682 Y110.448 A26.44839
G1 X148.932 Y110.537 A26.45465
G1 X149.173 Y110.651 A26.46091
G1 X149.401 Y110.788 A26.46716
G1 X149.614 Y110.946 A26.47342
G1 X149.825 Y111.140 A26.48015
G1 X149.990 Y111.322 A26.48593
G1 X150.149 Y111.535 A26.49219
G1 X150.285 Y111.763 A26.49845
G1 X150.399 Y112.004 A26.50470
G1 X150.489 Y112.254 A26.51096
G1 X150.553 Y112.512 A26.51722
G1 X150.592 Y112.775 A26.52347
G1 X150.605 Y113.041 A26.52973
G1 X150.592 Y113.307 A26.53599
G1 X150.553 Y113.570 A26.54224
G1 X150.489 Y113.828 A26.54850
G1 X150.399 Y114.078 A26.55476
G1 X150.285 Y114.319 A26.56102
G1 X150.148 Y114.547 A26.56727
G1 X149.990 Y114.760 A26.57353
G1 X149.811 Y114.958 A26.57979
G1 X149.614 Y115.136 A26.58604
G1 X149.401 Y115.295 A26.59230
G1 X149.173 Y115.431 A26.59856
G1 X148.932 Y115.545 A26.60481
G1 X148.682 Y115.635 A26.61107
G1 X148.424 Y115.699 A26.61733
G1 X148.161 Y115.738 A26.62358
G1 X147.895 Y115.751 A26.62984
G1 X147.629 Y115.738 A26.63610
G1 X147.366 Y115.699 A26.64235
G1 X147.108 Y115.635 A26.64861
G1 X146.858 Y115.545 A26.65487
G1 X146.617 Y115.431 A26.66112
G1 X146.389 Y115.295 A26.66738
G1 X146.176 Y115.136 A26.67364
G1 X145.979 Y114.958 A26.67989
G1 X145.800 Y114.761 A26.68615
G1 X145.642 Y114.547 A26.69241
G1 X145.505 Y114.319 A26.69866
G1 X145.391 Y114.078 A26.70492
G1 X145.301 Y113.828 A26.71118
G1 X145.237 Y113.570 A26.71743
G1 X145.198 Y113.307 A26.72369
G1 X145.195 Y112.838 A26.73473
G1 X145.198 Y112.775 A26.73619
G0 X144.860 Y112.533 F7800.000
G0 Z0.900 F480.000 A25.73619
G0 X128.497 Y119.887 F7800.000
G0 Z0.400
G0 F1800.000 A26.73619
G1 X128.628 Y120.252 F480.000 A26.74532
G1 X128.722 Y120.629 A26.75446
G1 X128.779 Y121.013 A26.76360
G1 X128.798 Y121.401 A26.77273
G1 X128.779 Y121.790 A26.78189
G1 X128.722 Y122.173 A26.79102
G1 X128.628 Y122.550 A26.80015
G1 X128.497 Y122.916 A26.80930
G1 X128.331 Y123.267 A26.81843
G1 X128.131 Y123.601 A26.82758
G1 X127.900 Y123.912 A26.83670
G1 X127.638 Y124.201 A26.84586
G1 X127.351 Y124.461 A26.85499
G1 X127.038 Y124.693 A26.86414
G1 X126.705 Y124.893 A26.87327
G1 X126.354 Y125.059 A26.88241
G1 X125.989 Y125.189 A26.89154
G1 X125.611 Y125.284 A26.90069
G1 X125.227 Y125.341 A26.90983
G1 X124.839 Y125.360 A26.91897
G1 X124.451 Y125.341 A26.92811
G1 X124.067 Y125.284 A26.93724
G1 X123.690 Y125.190 A26.94639
G1 X123.324 Y125.059 A26.95552
G1 X122.973 Y124.893 A26.96466
G1 X122.639 Y124.693 A26.97381
G1 X122.328 Y124.461 A26.98294
G1 X122.040 Y124.201 A26.99208
G1 X121.779 Y123.913 A27.00122
G1 X121.547 Y123.600 A27.01037
G1 X121.348 Y123.267 A27.01951
G1 X121.181 Y122.916 A27.02864
G1 X121.051 Y122.550 A27.03778
G1 X120.956 Y122.173 A27.04692
G1 X120.899 Y121.789 A27.05606
G1 X120.880 Y121.401 A27.06520
G1 X120.899 Y121.013 A27.07434
G1 X120.956 Y120.629 A27.08348
G1 X121.051 Y120.252 A27.09261
G1 X121.181 Y119.886 A27.10175
G1 X121.348 Y119.535 A27.11090
G1 X121.547 Y119.202 A27.12003
G1 X121.779 Y118.890 A27.12917
