; generated by Slic3r 0.9.8 on 2013-03-28 at 13:14:35

; layer_height = 0.3
; perimeters = 4
; top_solid_layers = 3
; bottom_solid_layers = 3
; fill_density = .2
; perimeter_speed = 15
; infill_speed = 40
; travel_speed = 130
; scale = 1
; nozzle_diameter = 0.4
; filament_diameter = 3
; extrusion_multiplier = 1
; perimeters extrusion width = 0.42mm
; infill extrusion width = 0.42mm
; support material extrusion width = 0.42mm
; first layer extrusion width = 0.42mm

M190 P115 ; wait for bed temperature to be reached
M104 P235 ; set temperature
G92 A0                  ; Reset A to 0
G40                        ; Cancel cutter compensation
G64 P0.1                ; Path Blend within .1mm
G0 X108.5 Y108.5  ; Move to center
M109 P235 ; wait for temperature to be reached
G90 ; use absolute coordinates
G21 ; set units to millimeters
G0 Z0.400 F1800.000 A-1.00000
G0 X112.495 Y157.392 F7800.000
G0 F1800.000 A0.00000
G1 X58.905 Y102.812 F480.000 A1.79939
G1 X58.525 Y102.392 A1.81272
G1 X58.185 Y101.952 A1.82580
G1 X57.745 Y101.242 A1.84545
G1 X57.405 Y100.482 A1.86503
G1 X57.145 Y99.682 A1.88482
G1 X56.995 Y98.862 A1.90443
G1 X56.945 Y98.302 A1.91766
G1 X56.945 Y58.892 A2.84475
G1 X57.025 Y58.092 A2.86366
G1 X57.075 Y57.832 A2.86989
G1 X57.275 Y57.052 A2.88883
G1 X57.465 Y56.552 A2.90142
G1 X57.685 Y56.062 A2.91405
G1 X57.815 Y55.822 A2.92047
G1 X58.245 Y55.142 A2.93940
G1 X58.755 Y54.522 A2.95828
G1 X59.135 Y54.142 A2.97093
G1 X59.755 Y53.632 A2.98981
G1 X59.975 Y53.482 A2.99607
G1 X60.675 Y53.072 A3.01516
G1 X61.165 Y52.852 A3.02779
G1 X61.665 Y52.662 A3.04038
G1 X62.185 Y52.522 A3.05304
G1 X62.705 Y52.412 A3.06555
G1 X63.505 Y52.332 A3.08446
G1 X153.475 Y52.332 A5.20094
G1 X154.275 Y52.412 A5.21985
G1 X154.535 Y52.462 A5.22608
G1 X155.315 Y52.662 A5.24502
G1 X155.815 Y52.852 A5.25761
G1 X156.305 Y53.072 A5.27024
G1 X157.005 Y53.482 A5.28932
G1 X157.225 Y53.632 A5.29559
G1 X157.845 Y54.142 A5.31447
G1 X158.225 Y54.522 A5.32712
G1 X158.735 Y55.142 A5.34600
G1 X158.885 Y55.362 A5.35227
G1 X159.295 Y56.062 A5.37135
G1 X159.615 Y56.802 A5.39031
G1 X159.705 Y57.052 A5.39657
G1 X159.845 Y57.572 A5.40923
G1 X159.955 Y58.092 A5.42174
G1 X160.035 Y58.892 A5.44065
G1 X160.035 Y158.092 A7.77426
G1 X159.955 Y158.892 A7.79317
G1 X159.905 Y159.152 A7.79940
G1 X159.705 Y159.932 A7.81834
G1 X159.515 Y160.432 A7.83092
G1 X159.295 Y160.922 A7.84356
G1 X159.165 Y161.162 A7.84998
G1 X158.735 Y161.842 A7.86891
G1 X158.225 Y162.462 A7.88779
G1 X157.845 Y162.842 A7.90043
G1 X157.225 Y163.352 A7.91932
G1 X156.545 Y163.782 A7.93825
G1 X156.305 Y163.912 A7.94467
G1 X155.815 Y164.132 A7.95730
G1 X155.315 Y164.322 A7.96988
G1 X154.795 Y164.462 A7.98255
G1 X154.275 Y164.572 A7.99506
G1 X153.475 Y164.652 A8.01397
G1 X130.395 Y164.652 A8.55691
G1 X129.965 Y164.642 A8.56703
G1 X127.565 Y164.492 A8.62360
G1 X126.685 Y164.372 A8.64449
G1 X124.335 Y163.912 A8.70082
G1 X123.525 Y163.712 A8.72045
G1 X121.255 Y162.972 A8.77661
G1 X120.445 Y162.642 A8.79719
G1 X118.275 Y161.612 A8.85369
G1 X117.495 Y161.182 A8.87465
G1 X115.485 Y159.882 A8.93096
G1 X114.795 Y159.372 A8.95114
G1 X112.965 Y157.832 A9.00741
G1 X112.541 Y157.434 A9.02109
G1 X112.495 Y157.392 A9.02255
G0 X112.785 Y157.092 F7800.000
G1 X59.195 Y102.512 F480.000 A10.82194
G1 X58.655 Y101.892 A10.84129
G1 X58.195 Y101.192 A10.86099
G1 X57.835 Y100.452 A10.88035
G1 X57.645 Y99.932 A10.89337
G1 X57.505 Y99.392 A10.90650
G1 X57.455 Y99.122 A10.91296
G1 X57.385 Y98.572 A10.92600
G1 X57.355 Y98.022 A10.93896
G1 X57.355 Y59.162 A11.85311
G1 X57.405 Y58.372 A11.87173
G1 X57.495 Y57.842 A11.88438
G1 X57.625 Y57.332 A11.89676
G1 X57.895 Y56.582 A11.91551
G1 X58.135 Y56.112 A11.92792
G1 X58.405 Y55.652 A11.94047
G1 X58.875 Y55.012 A11.95915
G1 X59.235 Y54.622 A11.97164
G1 X59.625 Y54.262 A11.98412
G1 X60.265 Y53.792 A12.00280
G1 X60.725 Y53.522 A12.01535
G1 X61.195 Y53.282 A12.02776
G1 X61.945 Y53.012 A12.04651
G1 X62.455 Y52.882 A12.05890
G1 X62.985 Y52.792 A12.07154
G1 X63.775 Y52.742 A12.09016
G1 X153.205 Y52.742 A14.19394
G1 X153.995 Y52.792 A14.21256
G1 X154.265 Y52.832 A14.21898
G1 X155.035 Y53.012 A14.23758
G1 X155.535 Y53.182 A14.25000
G1 X156.025 Y53.402 A14.26264
G1 X156.715 Y53.792 A14.28129
G1 X157.355 Y54.262 A14.29996
G1 X157.555 Y54.442 A14.30629
G1 X158.105 Y55.012 A14.32493
G1 X158.425 Y55.432 A14.33735
G1 X158.715 Y55.882 A14.34994
G1 X159.085 Y56.582 A14.36857
G1 X159.355 Y57.332 A14.38732
G1 X159.485 Y57.842 A14.39970
G1 X159.575 Y58.372 A14.41235
G1 X159.625 Y59.162 A14.43097
G1 X159.625 Y157.822 A16.75187
G1 X159.575 Y158.612 A16.77049
G1 X159.485 Y159.142 A16.78314
G1 X159.355 Y159.652 A16.79552
G1 X159.085 Y160.402 A16.81427
G1 X158.845 Y160.872 A16.82669
G1 X158.575 Y161.332 A16.83923
G1 X158.105 Y161.972 A16.85791
G1 X157.555 Y162.542 A16.87655
G1 X157.355 Y162.722 A16.88288
G1 X156.935 Y163.042 A16.89530
G1 X156.255 Y163.462 A16.91410
G1 X155.785 Y163.702 A16.92651
G1 X155.535 Y163.802 A16.93285
G1 X154.775 Y164.042 A16.95160
G1 X153.995 Y164.192 A16.97028
G1 X153.205 Y164.242 A16.98890
G1 X130.395 Y164.242 A17.52549
G1 X127.595 Y164.072 A17.59148
G1 X126.765 Y163.972 A17.61115
G1 X124.415 Y163.512 A17.66748
G1 X123.655 Y163.312 A17.68597
G1 X121.385 Y162.572 A17.74213
G1 X120.625 Y162.272 A17.76135
G1 X118.455 Y161.242 A17.81786
G1 X117.725 Y160.832 A17.83755
G1 X115.715 Y159.532 A17.89387
G1 X115.065 Y159.052 A17.91287
G1 X113.235 Y157.512 A17.96914
G1 X112.831 Y157.134 A17.98215
G1 X112.785 Y157.092 A17.98362
G0 Z0.900 F480.000 A16.98362
G0 X114.029 Y117.000 F7800.000
G0 Z0.400
G0 F1800.000 A17.98362
G1 X113.642 Y116.981 F480.000 A17.99275
G1 X113.257 Y116.924 A18.00189
G1 X112.880 Y116.829 A18.01104
G1 X112.515 Y116.699 A18.02017
G1 X112.163 Y116.532 A18.02931
G1 X111.830 Y116.333 A18.03845
G1 X111.518 Y116.101 A18.04759
G1 X111.230 Y115.841 A18.05672
G1 X110.969 Y115.553 A18.06587
G1 X110.738 Y115.241 A18.07500
G1 X110.538 Y114.907 A18.08415
G1 X110.372 Y114.556 A18.09329
G1 X110.241 Y114.190 A18.10242
G1 X110.147 Y113.813 A18.11158
G1 X110.090 Y113.429 A18.12071
G1 X110.071 Y113.041 A18.12984
G1 X110.090 Y112.653 A18.13899
G1 X110.147 Y112.268 A18.14813
G1 X110.241 Y111.892 A18.15726
G1 X110.372 Y111.526 A18.16640
G1 X110.538 Y111.175 A18.17554
G1 X110.738 Y110.842 A18.18468
G1 X110.969 Y110.530 A18.19381
G1 X111.230 Y110.242 A18.20296
G1 X111.518 Y109.981 A18.21210
G1 X111.830 Y109.749 A18.22124
G1 X112.163 Y109.550 A18.23038
G1 X112.514 Y109.384 A18.23951
G1 X112.880 Y109.253 A18.24865
G1 X113.257 Y109.158 A18.25780
G1 X113.642 Y109.101 A18.26694
G1 X114.030 Y109.082 A18.27608
G1 X114.418 Y109.101 A18.28521
G1 X114.802 Y109.158 A18.29435
G1 X115.179 Y109.253 A18.30349
G1 X115.545 Y109.384 A18.31263
G1 X115.896 Y109.550 A18.32176
G1 X116.229 Y109.749 A18.33091
G1 X116.541 Y109.981 A18.34005
G1 X116.829 Y110.242 A18.34919
G1 X117.090 Y110.530 A18.35833
G1 X117.321 Y110.842 A18.36747
G1 X117.521 Y111.175 A18.37660
G1 X117.687 Y111.526 A18.38574
G1 X117.818 Y111.892 A18.39489
G1 X117.912 Y112.269 A18.40402
G1 X117.969 Y112.653 A18.41316
G1 X117.988 Y113.041 A18.42230
G1 X117.969 Y113.429 A18.43144
G1 X117.912 Y113.813 A18.44058
G1 X117.818 Y114.190 A18.44972
G1 X117.687 Y114.556 A18.45886
G1 X117.521 Y114.907 A18.46800
G1 X117.321 Y115.241 A18.47714
G1 X117.090 Y115.553 A18.48628
G1 X116.829 Y115.841 A18.49542
G1 X116.541 Y116.101 A18.50456
G1 X116.229 Y116.333 A18.51370
G1 X115.896 Y116.533 A18.52284
G1 X115.544 Y116.699 A18.53198
G1 X115.179 Y116.829 A18.54111
G1 X114.802 Y116.924 A18.55025
G1 X114.418 Y116.981 A18.55939
G1 X114.092 Y116.997 A18.56707
G1 X114.029 Y117.000 A18.56854
G0 X114.029 Y116.584 F7800.000
G1 X113.682 Y116.567 F480.000 A18.57671
G1 X113.338 Y116.516 A18.58489
G1 X113.001 Y116.431 A18.59307
G1 X112.674 Y116.314 A18.60124
G1 X112.360 Y116.165 A18.60943
G1 X112.061 Y115.987 A18.61760
G1 X111.782 Y115.780 A18.62578
G1 X111.525 Y115.546 A18.63396
G1 X111.291 Y115.289 A18.64214
G1 X111.084 Y115.009 A18.65031
G1 X110.905 Y114.711 A18.65850
G1 X110.756 Y114.397 A18.66668
G1 X110.640 Y114.070 A18.67485
G1 X110.555 Y113.732 A18.68304
G1 X110.504 Y113.388 A18.69121
G1 X110.487 Y113.041 A18.69939
G1 X110.504 Y112.694 A18.70757
G1 X110.555 Y112.350 A18.71575
G1 X110.639 Y112.013 A18.72392
G1 X110.757 Y111.685 A18.73210
G1 X110.905 Y111.371 A18.74028
G1 X111.084 Y111.073 A18.74846
G1 X111.291 Y110.794 A18.75663
G1 X111.525 Y110.536 A18.76482
G1 X111.782 Y110.303 A18.77299
G1 X112.061 Y110.095 A18.78117
G1 X112.360 Y109.917 A18.78935
G1 X112.674 Y109.768 A18.79753
G1 X113.001 Y109.651 A18.80571
G1 X113.338 Y109.566 A18.81389
G1 X113.682 Y109.515 A18.82207
G1 X114.030 Y109.498 A18.83025
G1 X114.377 Y109.515 A18.83842
G1 X114.721 Y109.566 A18.84660
G1 X115.058 Y109.651 A18.85478
G1 X115.385 Y109.768 A18.86296
G1 X115.699 Y109.917 A18.87113
G1 X115.998 Y110.095 A18.87932
G1 X116.277 Y110.303 A18.88749
G1 X116.535 Y110.536 A18.89567
G1 X116.768 Y110.794 A18.90385
G1 X116.975 Y111.073 A18.91203
G1 X117.154 Y111.371 A18.92020
G1 X117.303 Y111.685 A18.92838
G1 X117.420 Y112.013 A18.93657
G1 X117.504 Y112.350 A18.94474
G1 X117.555 Y112.694 A18.95292
G1 X117.572 Y113.041 A18.96110
G1 X117.555 Y113.388 A18.96928
G1 X117.504 Y113.732 A18.97746
G1 X117.420 Y114.069 A18.98563
G1 X117.303 Y114.397 A18.99381
G1 X117.154 Y114.711 A19.00199
G1 X116.975 Y115.009 A19.01017
G1 X116.768 Y115.288 A19.01835
G1 X116.535 Y115.546 A19.02653
G1 X116.277 Y115.780 A19.03471
G1 X115.998 Y115.987 A19.04289
G1 X115.700 Y116.165 A19.05107
G1 X115.385 Y116.314 A19.05924
G1 X115.058 Y116.431 A19.06742
G1 X114.721 Y116.516 A19.07560
G1 X114.377 Y116.567 A19.08378
G1 X114.092 Y116.581 A19.09049
G1 X114.029 Y116.584 A19.09196
G0 X114.030 Y116.168 F7800.000
G1 X113.723 Y116.152 F480.000 A19.09917
G1 X113.420 Y116.108 A19.10639
G1 X113.122 Y116.033 A19.11361
G1 X112.833 Y115.930 A19.12083
G1 X112.556 Y115.798 A19.12805
G1 X112.293 Y115.641 A19.13526
G1 X112.046 Y115.458 A19.14248
G1 X111.819 Y115.252 A19.14969
G1 X111.613 Y115.024 A19.15692
G1 X111.430 Y114.778 A19.16413
G1 X111.272 Y114.515 A19.17135
G1 X111.141 Y114.237 A19.17857
G1 X111.038 Y113.949 A19.18578
G1 X110.963 Y113.651 A19.19301
G1 X110.918 Y113.348 A19.20022
G1 X110.903 Y113.041 A19.20744
G1 X110.918 Y112.735 A19.21466
G1 X110.963 Y112.431 A19.22188
G1 X111.038 Y112.134 A19.22909
G1 X111.141 Y111.845 A19.23631
G1 X111.272 Y111.567 A19.24353
G1 X111.430 Y111.304 A19.25074
G1 X111.613 Y111.058 A19.25796
G1 X111.819 Y110.830 A19.26518
G1 X112.046 Y110.624 A19.27240
G1 X112.293 Y110.442 A19.27961
G1 X112.556 Y110.284 A19.28683
G1 X112.833 Y110.153 A19.29405
G1 X113.122 Y110.049 A19.30127
G1 X113.420 Y109.975 A19.30849
G1 X113.723 Y109.930 A19.31570
G1 X114.030 Y109.915 A19.32292
G1 X114.336 Y109.930 A19.33014
G1 X114.640 Y109.975 A19.33736
G1 X114.937 Y110.049 A19.34457
G1 X115.226 Y110.153 A19.35179
G1 X115.503 Y110.284 A19.35901
G1 X115.767 Y110.442 A19.36623
G1 X116.013 Y110.624 A19.37344
G1 X116.240 Y110.830 A19.38066
G1 X116.446 Y111.058 A19.38788
G1 X116.629 Y111.304 A19.39510
G1 X116.787 Y111.567 A19.40231
G1 X116.918 Y111.845 A19.40953
G1 X117.021 Y112.134 A19.41675
G1 X117.096 Y112.431 A19.42397
G1 X117.141 Y112.735 A19.43118
G1 X117.156 Y113.041 A19.43840
G1 X117.141 Y113.348 A19.44562
G1 X117.096 Y113.651 A19.45284
G1 X117.021 Y113.949 A19.46006
G1 X116.918 Y114.238 A19.46727
G1 X116.787 Y114.515 A19.47449
G1 X116.629 Y114.778 A19.48171
G1 X116.446 Y115.024 A19.48893
G1 X116.240 Y115.252 A19.49615
G1 X116.013 Y115.458 A19.50336
G1 X115.767 Y115.641 A19.51058
G1 X115.503 Y115.798 A19.51780
G1 X115.226 Y115.930 A19.52502
G1 X114.937 Y116.033 A19.53223
G1 X114.640 Y116.108 A19.53945
G1 X114.336 Y116.152 A19.54667
G1 X114.092 Y116.164 A19.55242
G1 X114.030 Y116.168 A19.55389
G0 X114.030 Y115.751 F7800.000
G1 X113.764 Y115.738 F480.000 A19.56014
G1 X113.501 Y115.699 A19.56640
G1 X113.243 Y115.635 A19.57266
G1 X112.992 Y115.545 A19.57891
G1 X112.752 Y115.431 A19.58517
G1 X112.524 Y115.295 A19.59143
G1 X112.310 Y115.136 A19.59768
G1 X112.113 Y114.958 A19.60394
G1 X111.935 Y114.760 A19.61020
G1 X111.776 Y114.547 A19.61645
G1 X111.639 Y114.319 A19.62271
G1 X111.526 Y114.078 A19.62897
G1 X111.436 Y113.828 A19.63522
G1 X111.371 Y113.570 A19.64148
G1 X111.332 Y113.307 A19.64774
G1 X111.319 Y113.041 A19.65399
G1 X111.332 Y112.775 A19.66025
G1 X111.371 Y112.512 A19.66651
G1 X111.436 Y112.254 A19.67276
G1 X111.526 Y112.004 A19.67902
G1 X111.639 Y111.764 A19.68528
G1 X111.776 Y111.535 A19.69153
G1 X111.935 Y111.322 A19.69779
G1 X112.113 Y111.125 A19.70405
G1 X112.310 Y110.946 A19.71031
G1 X112.524 Y110.788 A19.71656
G1 X112.752 Y110.651 A19.72282
G1 X112.992 Y110.537 A19.72908
G1 X113.243 Y110.447 A19.73533
G1 X113.501 Y110.383 A19.74159
G1 X113.764 Y110.344 A19.74785
G1 X114.030 Y110.331 A19.75410
G1 X114.295 Y110.344 A19.76036
G1 X114.558 Y110.383 A19.76662
G1 X114.816 Y110.448 A19.77287
G1 X115.067 Y110.537 A19.77913
G1 X115.307 Y110.651 A19.78539
G1 X115.535 Y110.788 A19.79164
G1 X115.749 Y110.946 A19.79790
G1 X115.946 Y111.125 A19.80416
G1 X116.125 Y111.322 A19.81041
G1 X116.283 Y111.535 A19.81667
G1 X116.420 Y111.763 A19.82293
G1 X116.534 Y112.004 A19.82918
G1 X116.623 Y112.254 A19.83544
G1 X116.688 Y112.512 A19.84170
G1 X116.727 Y112.775 A19.84795
G1 X116.740 Y113.041 A19.85421
G1 X116.727 Y113.307 A19.86047
G1 X116.688 Y113.570 A19.86673
G1 X116.623 Y113.828 A19.87298
G1 X116.534 Y114.078 A19.87924
G1 X116.420 Y114.319 A19.88550
G1 X116.283 Y114.547 A19.89175
G1 X116.125 Y114.760 A19.89801
G1 X115.946 Y114.958 A19.90427
G1 X115.749 Y115.136 A19.91052
G1 X115.535 Y115.295 A19.91678
G1 X115.307 Y115.431 A19.92304
G1 X115.067 Y115.545 A19.92929
G1 X114.816 Y115.635 A19.93555
G1 X114.558 Y115.699 A19.94181
G1 X114.092 Y115.748 A19.95284
G1 X114.030 Y115.751 A19.95431
G0 X113.822 Y116.111 F7800.000
G0 Z0.900 F480.000 A18.95431
G0 X133.203 Y120.629 F7800.000
G0 Z0.400
G0 F1800.000 A19.95431
G1 X133.297 Y120.252 F480.000 A19.96345
G1 X133.428 Y119.886 A19.97259
G1 X133.594 Y119.535 A19.98173
G1 X133.794 Y119.202 A19.99086
G1 X134.025 Y118.890 A20.00001
G1 X134.286 Y118.602 A20.00915
G1 X134.574 Y118.341 A20.01829
G1 X134.886 Y118.110 A20.02742
G1 X135.219 Y117.910 A20.03657
G1 X135.570 Y117.744 A20.04570
G1 X135.936 Y117.613 A20.05484
G1 X136.313 Y117.518 A20.06398
G1 X136.697 Y117.461 A20.07312
G1 X137.085 Y117.442 A20.08226
G1 X137.474 Y117.461 A20.09140
G1 X137.858 Y117.518 A20.10055
G1 X138.235 Y117.613 A20.10968
G1 X138.601 Y117.744 A20.11882
G1 X138.952 Y117.910 A20.12796
G1 X139.285 Y118.110 A20.13710
G1 X139.597 Y118.341 A20.14623
G1 X139.885 Y118.602 A20.15537
G1 X140.146 Y118.890 A20.16452
G1 X140.377 Y119.202 A20.17365
G1 X140.577 Y119.535 A20.18278
G1 X140.743 Y119.886 A20.19194
G1 X140.874 Y120.252 A20.20107
G1 X140.968 Y120.628 A20.21020
G1 X141.025 Y121.013 A20.21935
G1 X141.044 Y121.401 A20.22849
G1 X141.025 Y121.789 A20.23763
G1 X140.968 Y122.174 A20.24677
G1 X140.874 Y122.550 A20.25591
G1 X140.743 Y122.916 A20.26505
G1 X140.577 Y123.267 A20.27418
G1 X140.377 Y123.600 A20.28332
G1 X140.146 Y123.913 A20.29247
G1 X139.885 Y124.201 A20.30161
G1 X139.597 Y124.461 A20.31074
G1 X139.285 Y124.693 A20.31989
G1 X138.952 Y124.893 A20.32902
G1 X138.600 Y125.059 A20.33817
G1 X138.235 Y125.189 A20.34730
G1 X137.858 Y125.284 A20.35644
G1 X137.473 Y125.341 A20.36558
G1 X137.085 Y125.360 A20.37472
G1 X136.698 Y125.341 A20.38386
G1 X136.313 Y125.284 A20.39300
G1 X135.936 Y125.190 A20.40214
G1 X135.571 Y125.059 A20.41127
G1 X135.219 Y124.893 A20.42042
G1 X134.886 Y124.693 A20.42956
G1 X134.574 Y124.461 A20.43870
