; generated by Slic3r 0.9.8 on 2013-03-28 at 13:14:35

; layer_height = 0.3
; perimeters = 4
; top_solid_layers = 3
; bottom_solid_layers = 3
; fill_density = .2
; perimeter_speed = 15
; infill_speed = 40
; travel_speed = 130
; scale = 1
; nozzle_diameter = 0.4
; filament_diameter = 3
; extrusion_multiplier = 1
; perimeters extrusion width = 0.42mm
; infill extrusion width = 0.42mm
; support material extrusion width = 0.42mm
; first layer extrusion width = 0.42mm

M190 P115 ; wait for bed temperature to be reached
M104 P235 ; set temperature
G92 A0                  ; Reset A to 0
G40                        ; Cancel cutter compensation
G64 P0.1                ; Path Blend within .1mm
G0 X108.5 Y108.5  ; Move to center
M109 P235 ; wait for temperature to be reached
G90 ; use absolute coordinates
G21 ; set units to millimeters
G0 Z0.400 F1800.000 A-1.00000
G0 X112.495 Y157.392 F7800.000
G0 F1800.000 A0.00000
G1 X58.905000 Y102.812000 Z0.400000 A1.799390 F480.000000
G1 X58.905000 Y102.812000 Z0.400000 A1.799390 F480.000000
G3 X56.945000 Y98.302000 Z0.400000 A1.917660 I4.8227 J-4.7768
G1 X56.945000 Y98.302000 Z0.400000 A1.917660
G1 X56.945000 Y58.892000 Z0.400000 A2.844750
G1 X56.945000 Y58.892000 Z0.400000 A2.844750
G3 X60.675000 Y53.072000 Z0.400000 A3.015160 I6.8142 J0.2619
G1 X60.675000 Y53.072000 Z0.400000 A3.015160
G1 X60.675000 Y53.072000 Z0.400000 A3.015160
G3 X63.505000 Y52.332000 Z0.400000 A3.084460 I3.1079 J6.1042
G1 X63.505000 Y52.332000 Z0.400000 A3.084460
G1 X153.475000 Y52.332000 Z0.400000 A5.200940
G1 X153.475000 Y52.332000 Z0.400000 A5.200940
G3 X158.225000 Y54.522000 Z0.400000 A5.327120 I-0.2793 J6.8521
G1 X158.225000 Y54.522000 Z0.400000 A5.327120
G1 X158.225000 Y54.522000 Z0.400000 A5.327120
G3 X160.035000 Y58.892000 Z0.400000 A5.440650 I-4.9954 J4.6289
G1 X160.035000 Y58.892000 Z0.400000 A5.440650
G1 X160.035000 Y158.092000 Z0.400000 A7.774260
G1 X160.035000 Y158.092000 Z0.400000 A7.774260
G3 X159.515000 Y160.432000 Z0.400000 A7.830920 I-6.7400 J-0.2700
G1 X159.515000 Y160.432000 Z0.400000 A7.830920
G1 X159.515000 Y160.432000 Z0.400000 A7.830920
G3 X154.275000 Y164.572000 Z0.400000 A7.995060 I-6.2344 J-2.5047
G1 X154.275000 Y164.572000 Z0.400000 A7.995060
G1 X130.395000 Y164.652000 Z0.400000 A8.556910
G1 X130.395000 Y164.652000 Z0.400000 A8.556910
G3 X127.565000 Y164.492000 Z0.400000 A8.623600 I0.6265 J-36.1887
G1 X127.565000 Y164.492000 Z0.400000 A8.623600
G1 X127.565000 Y164.492000 Z0.400000 A8.623600
G3 X112.495000 Y157.392000 Z0.400000 A9.022550 I2.8026 J-25.4920
G1 X112.495000 Y157.392000 Z0.400000 A9.022550
G0 X112.785 Y157.092 F7800.000
G1 X59.195000 Y102.512000 Z0.400000 A10.821940 F480.000000
G1 X59.195000 Y102.512000 Z0.400000 A10.821940 F480.000000
G3 X57.835000 Y100.452000 Z0.400000 A10.880350 I4.4302 J-4.4037
G1 X57.835000 Y100.452000 Z0.400000 A10.880350
G1 X57.835000 Y100.452000 Z0.400000 A10.880350
G3 X57.505000 Y99.392000 Z0.400000 A10.906500 I5.3022 J-2.2320
G1 X57.505000 Y99.392000 Z0.400000 A10.906500
G1 X57.505000 Y99.392000 Z0.400000 A10.906500
G3 X57.355000 Y98.022000 Z0.400000 A10.938960 I7.3132 J-1.4939
G1 X57.355000 Y98.022000 Z0.400000 A10.938960
G1 X57.355000 Y59.162000 Z0.400000 A11.853110
G1 X57.355000 Y59.162000 Z0.400000 A11.853110
G3 X58.405000 Y55.652000 Z0.400000 A11.940470 I6.4254 J0.0101
G1 X58.405000 Y55.652000 Z0.400000 A11.940470
G1 X58.405000 Y55.652000 Z0.400000 A11.940470
G3 X61.195000 Y53.282000 Z0.400000 A12.027760 I5.2720 J3.3790
G1 X61.195000 Y53.282000 Z0.400000 A12.027760
G1 X61.195000 Y53.282000 Z0.400000 A12.027760
G3 X63.775000 Y52.742000 Z0.400000 A12.090160 I2.6102 J6.0376
G1 X63.775000 Y52.742000 Z0.400000 A12.090160
G1 X153.205000 Y52.742000 Z0.400000 A14.193940
G1 X153.205000 Y52.742000 Z0.400000 A14.193940
G3 X157.555000 Y54.442000 Z0.400000 A14.306290 I-0.0096 J6.4400
G1 X157.555000 Y54.442000 Z0.400000 A14.306290
G1 X157.555000 Y54.442000 Z0.400000 A14.306290
G3 X159.085000 Y56.582000 Z0.400000 A14.368570 I-4.2671 J4.6677
G1 X159.085000 Y56.582000 Z0.400000 A14.368570
G1 X159.085000 Y56.582000 Z0.400000 A14.368570
G3 X159.625000 Y59.162000 Z0.400000 A14.430970 I-6.0376 J2.6102
G1 X159.625000 Y59.162000 Z0.400000 A14.430970
G1 X159.625000 Y157.822000 Z0.400000 A16.751870
G1 X159.625000 Y157.822000 Z0.400000 A16.751870
G3 X159.085000 Y160.402000 Z0.400000 A16.814270 I-6.5059 J-0.0152
G1 X159.085000 Y160.402000 Z0.400000 A16.814270
G1 X159.085000 Y160.402000 Z0.400000 A16.814270
G3 X153.995000 Y164.192000 Z0.400000 A16.970280 I-5.8728 J-2.5743
G1 X153.995000 Y164.192000 Z0.400000 A16.970280
G1 X130.395000 Y164.242000 Z0.400000 A17.525490
G1 X127.595000 Y164.072000 Z0.400000 A17.591480
G1 X127.595000 Y164.072000 Z0.400000 A17.591480
G3 X112.785000 Y157.092000 Z0.400000 A17.983620 I2.5424 J-24.5961
G1 X112.785000 Y157.092000 Z0.400000 A17.983620
G0 Z0.900 F480.000 A16.98362
G0 X114.029 Y117.000 F7800.000
G0 Z0.400
G0 F1800.000 A17.98362
G1 X113.642000 Y116.981000 Z0.400000 A17.992750 F480.000000
G1 X113.642000 Y116.981000 Z0.400000 A17.992750 F480.000000
G3 X110.969000 Y115.553000 Z0.400000 A18.065870 I0.3865 J-3.9392
G1 X110.969000 Y115.553000 Z0.400000 A18.065870
G1 X110.969000 Y115.553000 Z0.400000 A18.065870
G3 X110.241000 Y114.190000 Z0.400000 A18.102420 I3.0747 J-2.5182
G1 X110.241000 Y114.190000 Z0.400000 A18.102420
G1 X110.090000 Y112.653000 Z0.400000 A18.138990
G1 X110.090000 Y112.653000 Z0.400000 A18.138990
G3 X111.518000 Y109.981000 Z0.400000 A18.212100 I3.9347 J0.3853
G1 X111.518000 Y109.981000 Z0.400000 A18.212100
G1 X111.518000 Y109.981000 Z0.400000 A18.212100
G3 X112.880000 Y109.253000 Z0.400000 A18.248650 I2.4946 J3.0290
G1 X112.880000 Y109.253000 Z0.400000 A18.248650
G1 X114.418000 Y109.101000 Z0.400000 A18.285210
G1 X114.418000 Y109.101000 Z0.400000 A18.285210
G3 X117.090000 Y110.530000 Z0.400000 A18.358330 I-0.3885 J3.9390
G1 X117.090000 Y110.530000 Z0.400000 A18.358330
G1 X117.090000 Y110.530000 Z0.400000 A18.358330
G3 X117.818000 Y111.892000 Z0.400000 A18.394890 I-3.0593 J2.5108
G1 X117.818000 Y111.892000 Z0.400000 A18.394890
G1 X117.969000 Y113.429000 Z0.400000 A18.431440
G1 X117.969000 Y113.429000 Z0.400000 A18.431440
G3 X116.829000 Y115.841000 Z0.400000 A18.495420 I-3.9382 J-0.3860
G1 X116.829000 Y115.841000 Z0.400000 A18.495420
G1 X116.829000 Y115.841000 Z0.400000 A18.495420
G3 X115.544000 Y116.699000 Z0.400000 A18.531980 I-2.8020 J-2.8052
G1 X115.544000 Y116.699000 Z0.400000 A18.531980
G1 X114.029000 Y117.000000 Z0.400000 A18.568540
G0 X114.029 Y116.584 F7800.000
G1 X113.682000 Y116.567000 Z0.400000 A18.576710 F480.000000
G1 X113.682000 Y116.567000 Z0.400000 A18.576710 F480.000000
G3 X111.291000 Y115.289000 Z0.400000 A18.642140 I0.3467 J-3.5243
G1 X111.291000 Y115.289000 Z0.400000 A18.642140
G1 X111.291000 Y115.289000 Z0.400000 A18.642140
G3 X110.640000 Y114.070000 Z0.400000 A18.674850 I2.7318 J-2.2422
G1 X110.640000 Y114.070000 Z0.400000 A18.674850
G1 X110.504000 Y112.694000 Z0.400000 A18.707570
G1 X110.504000 Y112.694000 Z0.400000 A18.707570
G3 X111.782000 Y110.303000 Z0.400000 A18.772990 I3.5185 J0.3436
G1 X111.782000 Y110.303000 Z0.400000 A18.772990
G1 X111.782000 Y110.303000 Z0.400000 A18.772990
G3 X113.001000 Y109.651000 Z0.400000 A18.805710 I2.2231 J2.6908
G1 X113.001000 Y109.651000 Z0.400000 A18.805710
G1 X114.377000 Y109.515000 Z0.400000 A18.838420
G1 X114.377000 Y109.515000 Z0.400000 A18.838420
G3 X116.768000 Y110.794000 Z0.400000 A18.903850 I-0.3464 J3.5219
G1 X116.768000 Y110.794000 Z0.400000 A18.903850
G1 X116.768000 Y110.794000 Z0.400000 A18.903850
G3 X117.420000 Y112.013000 Z0.400000 A18.936570 I-2.7309 J2.2445
G1 X117.420000 Y112.013000 Z0.400000 A18.936570
G1 X117.555000 Y113.388000 Z0.400000 A18.969280
G1 X117.555000 Y113.388000 Z0.400000 A18.969280
G3 X116.277000 Y115.780000 Z0.400000 A19.034710 I-3.5196 J-0.3431
G1 X116.277000 Y115.780000 Z0.400000 A19.034710
G1 X116.277000 Y115.780000 Z0.400000 A19.034710
G3 X115.058000 Y116.431000 Z0.400000 A19.067420 I-2.2400 J-2.7276
G1 X115.058000 Y116.431000 Z0.400000 A19.067420
G1 X114.029000 Y116.584000 Z0.400000 A19.091960
G0 X114.030 Y116.168 F7800.000
G1 X113.723000 Y116.152000 Z0.400000 A19.099170 F480.000000
G1 X113.723000 Y116.152000 Z0.400000 A19.099170 F480.000000
G3 X111.613000 Y115.024000 Z0.400000 A19.156920 I0.2935 J-3.0865
G1 X111.613000 Y115.024000 Z0.400000 A19.156920
G1 X111.613000 Y115.024000 Z0.400000 A19.156920
G3 X111.038000 Y113.949000 Z0.400000 A19.185780 I2.3883 J-1.9687
G1 X111.038000 Y113.949000 Z0.400000 A19.185780
G1 X110.918000 Y112.735000 Z0.400000 A19.214660
G1 X110.918000 Y112.735000 Z0.400000 A19.214660
G3 X112.046000 Y110.624000 Z0.400000 A19.272400 I3.1100 J0.3049
G1 X112.046000 Y110.624000 Z0.400000 A19.272400
G1 X112.046000 Y110.624000 Z0.400000 A19.272400
G3 X113.122000 Y110.049000 Z0.400000 A19.301270 I1.9977 J2.4441
G1 X113.122000 Y110.049000 Z0.400000 A19.301270
G1 X114.336000 Y109.930000 Z0.400000 A19.330140
G1 X114.336000 Y109.930000 Z0.400000 A19.330140
G3 X116.446000 Y111.058000 Z0.400000 A19.387880 I-0.3020 J3.1023
G1 X116.446000 Y111.058000 Z0.400000 A19.387880
G1 X116.446000 Y111.058000 Z0.400000 A19.387880
G3 X117.021000 Y112.134000 Z0.400000 A19.416750 I-2.3822 J1.9646
G1 X117.021000 Y112.134000 Z0.400000 A19.416750
G1 X117.141000 Y113.348000 Z0.400000 A19.445620
G1 X117.141000 Y113.348000 Z0.400000 A19.445620
G3 X114.030000 Y116.168000 Z0.400000 A19.553890 I-3.1116 J-0.3067
G1 X114.030000 Y116.168000 Z0.400000 A19.553890
G0 X114.030 Y115.751 F7800.000
G1 X113.764000 Y115.738000 Z0.400000 A19.560140 F480.000000
G1 X113.764000 Y115.738000 Z0.400000 A19.560140 F480.000000
G3 X111.935000 Y114.760000 Z0.400000 A19.610200 I0.2604 J-2.6862
G1 X111.935000 Y114.760000 Z0.400000 A19.610200
G1 X111.935000 Y114.760000 Z0.400000 A19.610200
G3 X111.436000 Y113.828000 Z0.400000 A19.635220 I2.0549 J-1.6998
G1 X111.436000 Y113.828000 Z0.400000 A19.635220
G1 X111.332000 Y112.775000 Z0.400000 A19.660250
G1 X111.332000 Y112.775000 Z0.400000 A19.660250
G3 X112.310000 Y110.946000 Z0.400000 A19.710310 I2.6954 J0.2653
G1 X112.310000 Y110.946000 Z0.400000 A19.710310
G1 X112.310000 Y110.946000 Z0.400000 A19.710310
G3 X113.243000 Y110.447000 Z0.400000 A19.735330 I1.7314 J2.1156
G1 X113.243000 Y110.447000 Z0.400000 A19.735330
G1 X114.030000 Y110.331000 Z0.400000 A19.754100
G1 X114.030000 Y110.331000 Z0.400000 A19.754100
G3 X115.067000 Y110.537000 Z0.400000 A19.779130 I-0.0004 J2.7150
G1 X115.067000 Y110.537000 Z0.400000 A19.779130
G1 X115.067000 Y110.537000 Z0.400000 A19.779130
G3 X115.946000 Y111.125000 Z0.400000 A19.804160 I-1.0508 J2.5219
G1 X115.946000 Y111.125000 Z0.400000 A19.804160
G1 X115.946000 Y111.125000 Z0.400000 A19.804160
G3 X116.534000 Y112.004000 Z0.400000 A19.829180 I-1.9039 J1.9098
G1 X116.534000 Y112.004000 Z0.400000 A19.829180
G1 X116.740000 Y113.041000 Z0.400000 A19.854210
G1 X116.534000 Y114.078000 Z0.400000 A19.879240
G1 X116.534000 Y114.078000 Z0.400000 A19.879240
G3 X115.946000 Y114.958000 Z0.400000 A19.904270 I-2.5056 J-1.0378
G1 X115.946000 Y114.958000 Z0.400000 A19.904270
G1 X115.946000 Y114.958000 Z0.400000 A19.904270
G3 X115.067000 Y115.545000 Z0.400000 A19.929290 I-1.9164 J-1.9181
G1 X115.067000 Y115.545000 Z0.400000 A19.929290
G1 X114.030000 Y115.751000 Z0.400000 A19.954310
G0 X113.822 Y116.111 F7800.000
G0 Z0.900 F480.000 A18.95431
G0 X133.203 Y120.629 F7800.000
G0 Z0.400
G0 F1800.000 A19.95431
G1 X133.297000 Y120.252000 Z0.400000 A19.963450 F480.000000
G3 X133.203000 Y120.629000 Z0.400000 A20.539230 I3.7451 J1.1340
G0 X133.611 Y120.710 F7800.000
G1 X133.695000 Y120.373000 Z0.400000 A20.547400 F480.000000
G3 X133.611000 Y120.710000 Z0.400000 A21.062650 I3.3481 J1.0135
G0 X134.019 Y120.791 F7800.000
G1 X134.094000 Y120.494000 Z0.400000 A21.069870 F480.000000
G1 X134.094000 Y120.494000 Z0.400000 A21.069870 F480.000000
G3 X135.612000 Y118.644000 Z0.400000 A21.127610 I2.9816 J0.8987
G1 X135.612000 Y118.644000 Z0.400000 A21.127610
G1 X135.612000 Y118.644000 Z0.400000 A21.127610
G3 X136.779000 Y118.290000 Z0.400000 A21.156480 I1.4654 J2.7304
G1 X136.779000 Y118.290000 Z0.400000 A21.156480
G1 X137.993000 Y118.409000 Z0.400000 A21.185350
G1 X137.993000 Y118.409000 Z0.400000 A21.185350
G3 X139.843000 Y119.927000 Z0.400000 A21.243090 I-0.9072 J2.9919
G1 X139.843000 Y119.927000 Z0.400000 A21.243090
G1 X139.843000 Y119.927000 Z0.400000 A21.243090
G3 X140.197000 Y121.095000 Z0.400000 A21.271960 I-2.7821 J1.4808
G1 X140.197000 Y121.095000 Z0.400000 A21.271960
G1 X140.077000 Y122.309000 Z0.400000 A21.300830
G1 X140.077000 Y122.309000 Z0.400000 A21.300830
G3 X138.822000 Y124.001000 Z0.400000 A21.351360 I-2.9808 J-0.8995
G1 X138.822000 Y124.001000 Z0.400000 A21.351360
G1 X138.822000 Y124.001000 Z0.400000 A21.351360
G3 X137.695000 Y124.468000 Z0.400000 A21.380230 I-1.7336 J-2.5902
G1 X137.695000 Y124.468000 Z0.400000 A21.380230
G1 X136.476000 Y124.468000 Z0.400000 A21.409100
G1 X136.476000 Y124.468000 Z0.400000 A21.409100
G3 X134.486000 Y123.138000 Z0.400000 A21.466840 I0.6089 J-3.0648
G1 X134.486000 Y123.138000 Z0.400000 A21.466840
G1 X134.486000 Y123.138000 Z0.400000 A21.466840
G3 X134.019000 Y122.011000 Z0.400000 A21.495710 I2.5823 J-1.7303
G1 X134.019000 Y122.011000 Z0.400000 A21.495710
G1 X134.019000 Y120.791000 Z0.400000 A21.524580
G0 X134.427 Y120.873 F7800.000
G1 X134.492000 Y120.614000 Z0.400000 A21.530830 F480.000000
G3 X134.427000 Y120.873000 Z0.400000 A21.925000 I2.5575 J0.7795
G0 X134.115 Y120.598 F7800.000
G0 Z0.900 F480.000 A20.92500
G0 X151.967 Y156.581 F7800.000
G0 Z0.400
G0 F1800.000 A21.92500
G1 X130.441000 Y156.581000 Z0.400000 A22.431390 F480.000000
G1 X128.163000 Y156.436000 Z0.400000 A22.485100
G1 X128.163000 Y156.436000 Z0.400000 A22.485100
G3 X123.842000 Y155.313000 Z0.400000 A22.590330 I2.2270 J-17.4434
G1 X123.842000 Y155.313000 Z0.400000 A22.590330
G1 X123.842000 Y155.313000 Z0.400000 A22.590330
G3 X116.715000 Y150.055000 Z0.400000 A22.800790 I6.5593 J-16.3500
G1 X116.715000 Y150.055000 Z0.400000 A22.800790
G1 X116.715000 Y150.055000 Z0.400000 A22.800790
G3 X86.941000 Y102.169000 Z0.400000 A24.127380 I362.6629 J-258.6916
G1 X86.941000 Y102.169000 Z0.400000 A24.127380
G1 X86.941000 Y102.169000 Z0.400000 A24.127380
G2 X85.139000 Y99.948000 Z0.400000 A24.194790 I-9.5992 J5.9468
G1 X85.139000 Y99.948000 Z0.400000 A24.194790
G1 X85.139000 Y99.948000 Z0.400000 A24.194790
G2 X78.673000 Y96.865000 Z0.400000 A24.366050 I-7.9165 J8.2812
G1 X78.673000 Y96.865000 Z0.400000 A24.366050
G1 X65.033000 Y96.775000 Z0.400000 A24.687010
G1 X65.033000 Y60.419000 Z0.400000 A25.542270
G1 X151.967000 Y60.419000 Z0.400000 A27.587350
G1 X151.967000 Y156.581000 Z0.400000 A29.849490
G0 X152.383 Y156.997 F7800.000
G1 X130.428000 Y156.997000 Z0.400000 A30.365980 F480.000000
G1 X128.110000 Y156.849000 Z0.400000 A30.420620
G1 X128.110000 Y156.849000 Z0.400000 A30.420620
G3 X123.687000 Y155.700000 Z0.400000 A30.528340 I2.2916 J-17.9090
G1 X123.687000 Y155.700000 Z0.400000 A30.528340
G1 X123.687000 Y155.700000 Z0.400000 A30.528340
G3 X116.392000 Y150.317000 Z0.400000 A30.743780 I6.6997 J-16.7139
G1 X116.392000 Y150.317000 Z0.400000 A30.743780
G1 X116.392000 Y150.317000 Z0.400000 A30.743780
G3 X86.595000 Y102.398000 Z0.400000 A32.071300 I360.0561 J-257.1138
G1 X86.595000 Y102.398000 Z0.400000 A32.071300
G1 X86.595000 Y102.398000 Z0.400000 A32.071300
G2 X84.851000 Y100.249000 Z0.400000 A32.136530 I-9.2731 J5.7433
G1 X84.851000 Y100.249000 Z0.400000 A32.136530
G1 X84.851000 Y100.249000 Z0.400000 A32.136530
G2 X78.621000 Y97.278000 Z0.400000 A32.301570 I-7.6328 J7.9880
G1 X78.621000 Y97.278000 Z0.400000 A32.301570
G1 X64.617000 Y97.191000 Z0.400000 A32.631060
G1 X64.617000 Y60.003000 Z0.400000 A33.505880
G1 X152.383000 Y60.003000 Z0.400000 A35.570520
G1 X152.383000 Y156.997000 Z0.400000 A37.852220
G0 X152.799 Y157.412 F7800.000
G1 X130.415000 Y157.412000 Z0.400000 A38.378800 F480.000000
G1 X128.057000 Y157.262000 Z0.400000 A38.434370
G1 X128.057000 Y157.262000 Z0.400000 A38.434370
G3 X123.532000 Y156.086000 Z0.400000 A38.544580 I2.3375 J-18.2877
G1 X123.532000 Y156.086000 Z0.400000 A38.544580
