; generated by Slic3r 0.9.8 on 2013-05-23 at 15:28:18

; layer_height = 0.2
; perimeters = 3
; top_solid_layers = 3
; bottom_solid_layers = 3
; fill_density = 0.25
; perimeter_speed = 30
; infill_speed = 40
; travel_speed = 130
; scale = 1
; nozzle_diameter = 0.4
; filament_diameter = 2.95
; extrusion_multiplier = 1.105263
; perimeters extrusion width = 0.64mm
; infill extrusion width = 0.64mm
; first layer extrusion width = 0.64mm

M190 P115 ; wait for bed temperature to be reached
M104 P210 ; set temperature
G92 A0                  ; Reset A to 0
G40                        ; Cancel cutter compensation
G64 P0.1                ; Path Blend within .1mm
G0 X108.5 Y200    ; Move to plate
M109 P210 ; wait for temperature to be reached
G90 ; use absolute coordinates
G21 ; set units to millimeters
G0 Z0.200 F5400.000 A-1.00000
G0 X156.490 Y154.620 F7800.000
G0 F5400.000 A0.00000
G1 X60.500000 Y154.620000 Z0.200000 A1.853620 F540.000000
G3 X50.640000 Y145.280000 Z0.200000 A2.142680 I-0.0060 J-9.8682
G1 X50.640000 Y71.960000 Z0.200000 A3.558530
G3 X59.960000 Y62.390000 Z0.200000 A3.841970 I9.7711 J0.1926
G1 X156.760000 Y62.380000 Z0.200000 A5.711230
G3 X166.350000 Y71.930000 Z0.200000 A5.999350 I-0.2298 J9.8208
G1 X166.370000 Y75.040000 Z0.200000 A6.059400
G3 X166.350000 Y145.060000 Z0.200000 A7.411530 I-5444.0650 J33.4550
G1 X166.270000 Y146.100000 Z0.200000 A7.431670
G3 X156.490000 Y154.620000 Z0.200000 A7.704830 I-9.7126 J-1.2757
G0 X156.490 Y154.030 F7800.000
G1 X60.500000 Y154.030000 Z0.200000 A9.558450 F540.000000
G3 X51.220000 Y144.740000 Z0.200000 A9.839830 I0.0110 J-9.2910
G1 X51.230000 Y71.960000 Z0.200000 A11.245250
G3 X60.500000 Y62.970000 Z0.200000 A11.521010 I9.2431 J0.2567
G1 X156.490000 Y62.970000 Z0.200000 A13.374620
G3 X165.760000 Y71.940000 Z0.200000 A13.650040 I0.0175 J9.2569
G1 X165.780000 Y75.050000 Z0.200000 A13.710100
G3 X165.760000 Y145.050000 Z0.200000 A15.061840 I-5442.5100 J33.4450
G1 X165.680000 Y146.010000 Z0.200000 A15.080440
G3 X156.490000 Y154.030000 Z0.200000 A15.337230 I-9.1755 J-1.2387
G0 Z0.700 F1620.000 A14.33723
G0 X155.727 Y143.419 F7800.000
G0 Z0.200
G0 F5400.000 A15.33723
G1 X155.353000 Y143.419000 Z0.200000 A15.344450 F540.000000
G3 X156.094000 Y143.346000 Z0.200000 A15.561130 I0.1871 J-1.8977
G1 X155.816000 Y143.406000 Z0.200000 A15.566620
G1 X155.727000 Y143.419000 Z0.200000 A15.568350
G0 X155.463 Y143.954 F7800.000
G0 Z0.700 F1620.000 A14.56835
G0 X155.540 Y77.388 F7800.000
G0 Z0.200
G0 F5400.000 A15.56835
G1 X155.168000 Y77.351000 Z0.200000 A15.575580 F540.000000
G3 X155.912000 Y77.351000 Z0.200000 A15.792250 I0.3720 J-1.8707
G1 X155.629000 Y77.383000 Z0.200000 A15.797750
G1 X155.540000 Y77.388000 Z0.200000 A15.799480
G0 X155.225 Y77.895 F7800.000
G0 Z0.700 F1620.000 A14.79948
G0 X63.368 Y75.480 F7800.000
G0 Z0.200
G0 F5400.000 A15.79948
G1 X63.331000 Y75.852000 Z0.200000 A15.806700 F540.000000
G3 X63.331000 Y75.108000 Z0.200000 A16.023380 I-1.8681 J-0.3720
G1 X63.363000 Y75.390000 Z0.200000 A16.028870
G1 X63.368000 Y75.480000 Z0.200000 A16.030600
G0 X63.875 Y75.795 F7800.000
G0 Z0.700 F1620.000 A15.03060
G0 X61.460 Y139.612 F7800.000
G0 Z0.200
G0 F5400.000 A16.03060
G1 X61.832000 Y139.649000 Z0.200000 A16.037830 F540.000000
G3 X61.088000 Y139.649000 Z0.200000 A16.254510 I-0.3720 J1.8510
G1 X61.370000 Y139.617000 Z0.200000 A16.260000
G1 X61.460000 Y139.612000 Z0.200000 A16.261730
G0 X61.775 Y139.105 F7800.000
G0 Z0.700 F1620.000 A15.26173
G0 X59.080 Y71.819 F7800.000
G0 Z0.200
G0 F5400.000 A16.26173
G1 X59.129000 Y71.682000 Z0.200000 A16.264540 F540.000000
G3 X60.537000 Y70.764000 Z0.200000 A16.298970 I1.3760 J0.5717
G1 X76.168000 Y70.764000 Z0.200000 A16.600810
G3 X80.703000 Y72.045000 Z0.200000 A16.692910 I0.0305 J8.5600
G1 X102.507000 Y85.472000 Z0.200000 A17.187400
G2 X114.493000 Y85.472000 Z0.200000 A17.430710 I5.9930 J-9.7777
G1 X136.297000 Y72.045000 Z0.200000 A17.925200
G3 X140.832000 Y70.764000 Z0.200000 A18.017300 I4.5045 J7.2790
G1 X156.463000 Y70.764000 Z0.200000 A18.319130
G3 X157.986000 Y72.287000 Z0.200000 A18.365530 I0.0306 J1.4924
G1 X157.986000 Y73.434000 Z0.200000 A18.387680
G2 X153.141000 Y73.511000 Z0.200000 A18.493230 I-2.3884 J2.1820
G1 X152.960000 Y73.756000 Z0.200000 A18.499120
G2 X154.639000 Y78.450000 Z0.200000 A18.610850 I2.5745 J1.7264
G1 X155.411000 Y78.643000 Z0.200000 A18.626210
G1 X122.806000 Y98.721000 Z0.200000 A19.365620
G1 X121.649000 Y99.540000 Z0.200000 A19.392990
G2 X122.806000 Y118.279000 Z0.200000 A19.816630 I7.2322 J8.9587
G1 X155.411000 Y138.357000 Z0.200000 A20.556040
G2 X154.352000 Y144.387000 Z0.200000 A20.718420 I0.1741 J3.1386
G1 X154.639000 Y144.490000 Z0.200000 A20.724300
G2 X157.986000 Y143.565000 Z0.200000 A20.794580 I0.9392 J-3.1193
G1 X157.986000 Y144.713000 Z0.200000 A20.816740
G3 X156.463000 Y146.236000 Z0.200000 A20.863130 I-1.4924 J0.0306
G1 X140.832000 Y146.236000 Z0.200000 A21.164960
G3 X136.297000 Y144.955000 Z0.200000 A21.257070 I-0.0305 J-8.5600
G1 X114.493000 Y131.528000 Z0.200000 A21.751550
G2 X102.507000 Y131.528000 Z0.200000 A21.994860 I-5.9930 J9.7777
G1 X80.703000 Y144.955000 Z0.200000 A22.489350
G3 X76.168000 Y146.236000 Z0.200000 A22.581450 I-4.5045 J-7.2790
G1 X60.537000 Y146.236000 Z0.200000 A22.883290
G3 X59.014000 Y144.713000 Z0.200000 A22.929680 I-0.0306 J-1.4924
G1 X59.014000 Y143.565000 Z0.200000 A22.951840
G2 X63.654000 Y143.715000 Z0.200000 A23.051520 I2.3927 J-2.1754
G1 X63.859000 Y143.489000 Z0.200000 A23.057410
G2 X62.361000 Y138.550000 Z0.200000 A23.175030 I-2.3960 J-1.9700
G1 X61.589000 Y138.357000 Z0.200000 A23.190380
G1 X94.194000 Y118.279000 Z0.200000 A23.929790
G1 X95.351000 Y117.460000 Z0.200000 A23.957160
G2 X94.194000 Y98.721000 Z0.200000 A24.380810 I-7.2322 J-8.9587
G1 X61.589000 Y78.643000 Z0.200000 A25.120220
G2 X62.648000 Y72.613000 Z0.200000 A25.282600 I-0.1741 J-3.1386
G1 X62.361000 Y72.510000 Z0.200000 A25.288480
G2 X59.014000 Y73.435000 Z0.200000 A25.358760 I-0.9381 J3.1234
G1 X59.014000 Y72.287000 Z0.200000 A25.380920
G3 X59.080000 Y71.819000 Z0.200000 A25.390060 I1.7859 J0.0132
G0 X58.508 Y71.646 F7800.000
G1 X58.577000 Y71.453000 Z0.200000 A25.394000 F540.000000
G3 X60.296000 Y70.178000 Z0.200000 A25.437360 I1.9206 J0.7931
G1 X76.188000 Y70.167000 Z0.200000 A25.744250
G3 X81.002000 Y71.528000 Z0.200000 A25.842030 I0.0223 J9.1154
G1 X102.803000 Y84.953000 Z0.200000 A26.336420
G2 X114.197000 Y84.953000 Z0.200000 A26.567780 I5.6970 J-9.2824
G1 X135.998000 Y71.528000 Z0.200000 A27.062170
G3 X140.812000 Y70.167000 Z0.200000 A27.159940 I4.7917 J7.7544
G1 X156.477000 Y70.167000 Z0.200000 A27.462460
G3 X158.583000 Y72.273000 Z0.200000 A27.526390 I0.0203 J2.0857
G1 X158.583000 Y75.700000 Z0.200000 A27.592560
G1 X158.187000 Y75.748000 Z0.200000 A27.600260
G1 X157.938000 Y74.752000 Z0.200000 A27.620090
G2 X156.932000 Y77.563000 Z0.200000 A27.862000 I-2.3947 J0.7285
G1 X157.722000 Y76.977000 Z0.200000 A27.881000
G1 X158.002000 Y77.275000 Z0.200000 A27.888890
G1 X157.446000 Y77.934000 Z0.200000 A27.905530
G3 X156.616000 Y78.602000 Z0.200000 A27.926160 I-3.0239 J-2.9076
G1 X123.136000 Y99.219000 Z0.200000 A28.685440
G2 X123.136000 Y117.781000 Z0.200000 A29.113660 I5.7325 J9.2810
G1 X156.616000 Y138.398000 Z0.200000 A29.872940
G3 X158.002000 Y139.725000 Z0.200000 A29.910210 I-2.4736 J3.9709
G1 X157.722000 Y140.023000 Z0.200000 A29.918090
G2 X154.581000 Y139.205000 Z0.200000 A29.984530 I-2.1637 J1.8688
G1 X154.148000 Y139.436000 Z0.200000 A29.994020
G2 X157.938000 Y142.247000 Z0.200000 A30.179000 I1.4004 J2.0724
G1 X158.188000 Y141.252000 Z0.200000 A30.198820
G1 X158.583000 Y141.301000 Z0.200000 A30.206510
G1 X158.583000 Y144.728000 Z0.200000 A30.272680
G3 X156.704000 Y146.822000 Z0.200000 A30.332240 I-2.0847 J0.0194
G1 X140.812000 Y146.833000 Z0.200000 A30.639130
G3 X135.998000 Y145.472000 Z0.200000 A30.736900 I-0.0223 J-9.1154
G1 X114.197000 Y132.047000 Z0.200000 A31.231290
G2 X102.803000 Y132.047000 Z0.200000 A31.462650 I-5.6970 J9.2824
G1 X81.002000 Y145.472000 Z0.200000 A31.957040
G3 X76.188000 Y146.833000 Z0.200000 A32.054820 I-4.7917 J-7.7544
G1 X60.522000 Y146.833000 Z0.200000 A32.357340
G3 X58.417000 Y144.727000 Z0.200000 A32.421260 I-0.0194 J-2.0857
G1 X58.417000 Y141.301000 Z0.200000 A32.487440
G1 X58.813000 Y141.252000 Z0.200000 A32.495140
G1 X59.062000 Y142.247000 Z0.200000 A32.514960
G2 X60.068000 Y139.437000 Z0.200000 A32.756870 I2.3946 J-0.7278
G1 X59.278000 Y140.023000 Z0.200000 A32.775870
G1 X58.998000 Y139.725000 Z0.200000 A32.783750
G1 X59.554000 Y139.066000 Z0.200000 A32.800400
G3 X60.384000 Y138.398000 Z0.200000 A32.821020 I3.0239 J2.9076
G1 X93.864000 Y117.781000 Z0.200000 A33.580300
G2 X93.864000 Y99.219000 Z0.200000 A34.008530 I-5.7325 J-9.2810
G1 X60.384000 Y78.602000 Z0.200000 A34.767810
G3 X58.998000 Y77.275000 Z0.200000 A34.805080 I2.4736 J-3.9709
G1 X59.278000 Y76.977000 Z0.200000 A34.812960
G2 X62.419000 Y77.795000 Z0.200000 A34.879400 I2.1637 J-1.8688
G1 X62.852000 Y77.563000 Z0.200000 A34.888890
G2 X59.062000 Y74.753000 Z0.200000 A35.073880 I-1.3923 J-2.0830
G1 X58.813000 Y75.748000 Z0.200000 A35.093700
G1 X58.417000 Y75.700000 Z0.200000 A35.101400
G1 X58.417000 Y72.273000 Z0.200000 A35.167580
G3 X58.508000 Y71.646000 Z0.200000 A35.179840 I2.1343 J-0.0103
G0 X57.936 Y71.472 F7800.000
G1 X58.024000 Y71.225000 Z0.200000 A35.184920 F378.000000
G3 X60.508000 Y69.570000 Z0.200000 A35.246010 I2.4759 J1.0244
G1 X76.209000 Y69.570000 Z0.200000 A35.549200
G3 X81.303000 Y71.012000 Z0.200000 A35.652660 I0.0089 J9.6870
G1 X103.098000 Y84.433000 Z0.200000 A36.146940
G2 X113.902000 Y84.433000 Z0.200000 A36.366350 I5.4020 J-8.7808
G1 X135.697000 Y71.012000 Z0.200000 A36.860630
G3 X140.791000 Y69.570000 Z0.200000 A36.964090 I5.0873 J8.2530
G1 X156.492000 Y69.570000 Z0.200000 A37.267290
G3 X159.180000 Y72.258000 Z0.200000 A37.348840 I0.0078 J2.6802
G1 X159.180000 Y75.100000 Z0.200000 A37.403720
G3 X156.945000 Y79.100000 Z0.200000 A37.496110 I-4.6820 J0.0083
G1 X123.465000 Y99.718000 Z0.200000 A38.255390
G2 X123.465000 Y117.282000 Z0.200000 A38.660820 I5.4091 J8.7820
G1 X156.945000 Y137.900000 Z0.200000 A39.420100
G3 X159.180000 Y141.900000 Z0.200000 A39.512490 I-2.4417 J3.9887
G1 X159.180000 Y144.742000 Z0.200000 A39.567370
G3 X156.492000 Y147.430000 Z0.200000 A39.648920 I-2.6802 J0.0078
G1 X140.791000 Y147.430000 Z0.200000 A39.952120
G3 X135.697000 Y145.988000 Z0.200000 A40.055580 I-0.0089 J-9.6870
G1 X113.902000 Y132.567000 Z0.200000 A40.549860
G2 X103.098000 Y132.567000 Z0.200000 A40.769270 I-5.4020 J8.7808
G1 X81.303000 Y145.988000 Z0.200000 A41.263550
G3 X76.209000 Y147.430000 Z0.200000 A41.367010 I-5.0873 J-8.2530
G1 X60.508000 Y147.430000 Z0.200000 A41.670200
G3 X57.820000 Y144.742000 Z0.200000 A41.751750 I-0.0078 J-2.6802
G1 X57.820000 Y141.900000 Z0.200000 A41.806640
G3 X60.055000 Y137.900000 Z0.200000 A41.899030 I4.6820 J-0.0083
G1 X93.535000 Y117.282000 Z0.200000 A42.658310
G2 X93.535000 Y99.718000 Z0.200000 A43.063730 I-5.4091 J-8.7820
G1 X60.055000 Y79.100000 Z0.200000 A43.823010
G3 X57.820000 Y75.100000 Z0.200000 A43.915410 I2.4417 J-3.9887
G1 X57.820000 Y72.258000 Z0.200000 A43.970290
G3 X57.936000 Y71.472000 Z0.200000 A43.985670 I2.6678 J-0.0078
G0 X58.517 Y71.337 F7800.000
G0 Z0.700 F1620.000 A42.98567
G0 X61.833 Y71.418 F7800.000
G0 Z0.200
G0 F5400.000 A43.98567
G1 X61.833000 Y71.956000 Z0.200000 A43.996080 F720.000000
G1 X62.431000 Y72.170000 Z0.200000 A44.008370
G1 X62.431000 Y71.093000 Z0.200000 A44.029220
G1 X63.029000 Y71.093000 Z0.200000 A44.040790
G1 X63.029000 Y72.402000 Z0.200000 A44.066120
G1 X63.628000 Y72.754000 Z0.200000 A44.079560
G1 X63.628000 Y71.093000 Z0.200000 A44.111700
G1 X64.226000 Y71.093000 Z0.200000 A44.123280
G1 X64.226000 Y73.296000 Z0.200000 A44.165910
G1 X64.824000 Y74.215000 Z0.200000 A44.187140
G1 X64.824000 Y71.093000 Z0.200000 A44.247570
G1 X65.422000 Y71.093000 Z0.200000 A44.259140
G1 X65.422000 Y80.571000 Z0.200000 A44.442550
G1 X66.021000 Y80.940000 Z0.200000 A44.456150
G1 X66.021000 Y71.093000 Z0.200000 A44.646690
G1 X66.619000 Y71.093000 Z0.200000 A44.658270
G1 X66.619000 Y81.308000 Z0.200000 A44.855940
G1 X67.217000 Y81.676000 Z0.200000 A44.869530
G1 X67.217000 Y71.093000 Z0.200000 A45.074330
G1 X67.816000 Y71.093000 Z0.200000 A45.085910
G1 X67.816000 Y82.045000 Z0.200000 A45.297830
G1 X68.414000 Y82.413000 Z0.200000 A45.311430
G1 X68.414000 Y71.093000 Z0.200000 A45.530490
G1 X69.012000 Y71.093000 Z0.200000 A45.542060
G1 X69.012000 Y82.782000 Z0.200000 A45.768250
G1 X69.610000 Y83.150000 Z0.200000 A45.781850
G1 X69.610000 Y71.093000 Z0.200000 A46.015160
G1 X70.209000 Y71.093000 Z0.200000 A46.026740
G1 X70.209000 Y83.519000 Z0.200000 A46.267180
G1 X70.807000 Y83.887000 Z0.200000 A46.280780
G1 X70.807000 Y71.093000 Z0.200000 A46.528350
G1 X71.405000 Y71.093000 Z0.200000 A46.539930
G1 X71.405000 Y84.255000 Z0.200000 A46.794630
G1 X72.004000 Y84.624000 Z0.200000 A46.808230
G1 X72.004000 Y71.093000 Z0.200000 A47.070060
G1 X72.602000 Y71.093000 Z0.200000 A47.081640
G1 X72.602000 Y84.992000 Z0.200000 A47.350600
G1 X73.200000 Y85.361000 Z0.200000 A47.364200
G1 X73.200000 Y71.093000 Z0.200000 A47.640290
G1 X73.799000 Y71.093000 Z0.200000 A47.651860
G1 X73.799000 Y85.729000 Z0.200000 A47.935080
G1 X74.397000 Y86.098000 Z0.200000 A47.948680
G1 X74.397000 Y71.093000 Z0.200000 A48.239030
G1 X74.995000 Y71.093000 Z0.200000 A48.250610
G1 X74.995000 Y86.466000 Z0.200000 A48.548080
G1 X75.593000 Y86.834000 Z0.200000 A48.561680
G1 X75.593000 Y71.093000 Z0.200000 A48.866290
G1 X76.192000 Y71.096000 Z0.200000 A48.877860
G1 X76.192000 Y87.203000 Z0.200000 A49.189540
G1 X76.790000 Y87.571000 Z0.200000 A49.203140
G1 X76.790000 Y71.137000 Z0.200000 A49.521150
G1 X77.388000 Y71.189000 Z0.200000 A49.532770
G1 X77.388000 Y87.940000 Z0.200000 A49.856890
G1 X77.987000 Y88.308000 Z0.200000 A49.870490
G1 X77.987000 Y71.315000 Z0.200000 A50.199310
G1 X78.585000 Y71.472000 Z0.200000 A50.211280
G1 X78.585000 Y88.677000 Z0.200000 A50.544180
G1 X79.183000 Y89.045000 Z0.200000 A50.557780
G1 X79.183000 Y71.687000 Z0.200000 A50.893650
G1 X79.782000 Y71.967000 Z0.200000 A50.906430
G1 X79.782000 Y89.414000 Z0.200000 A51.244020
G1 X80.380000 Y89.782000 Z0.200000 A51.257610
G1 X80.380000 Y72.281000 Z0.200000 A51.596260
G1 X80.978000 Y72.647000 Z0.200000 A51.609830
G1 X80.978000 Y90.150000 Z0.200000 A51.948530
G1 X81.576000 Y90.519000 Z0.200000 A51.962130
G1 X81.576000 Y73.015000 Z0.200000 A52.300820
G1 X82.175000 Y73.384000 Z0.200000 A52.314420
G1 X82.175000 Y90.887000 Z0.200000 A52.653110
G1 X82.773000 Y91.256000 Z0.200000 A52.666710
G1 X82.773000 Y73.752000 Z0.200000 A53.005410
G1 X83.371000 Y74.120000 Z0.200000 A53.019000
G1 X83.371000 Y91.624000 Z0.200000 A53.357700
G1 X83.970000 Y91.993000 Z0.200000 A53.371300
G1 X83.970000 Y74.489000 Z0.200000 A53.709990
G1 X84.568000 Y74.857000 Z0.200000 A53.723590
G1 X84.568000 Y92.361000 Z0.200000 A54.062290
G1 X85.166000 Y92.729000 Z0.200000 A54.075880
G1 X85.166000 Y75.226000 Z0.200000 A54.414580
G1 X85.765000 Y75.594000 Z0.200000 A54.428170
G1 X85.765000 Y93.098000 Z0.200000 A54.766870
G1 X86.363000 Y93.466000 Z0.200000 A54.780470
G1 X86.363000 Y75.963000 Z0.200000 A55.119160
G1 X86.961000 Y76.331000 Z0.200000 A55.132760
G1 X86.961000 Y93.835000 Z0.200000 A55.471460
G1 X87.559000 Y94.203000 Z0.200000 A55.485050
G1 X87.559000 Y76.700000 Z0.200000 A55.823750
G1 X88.158000 Y77.068000 Z0.200000 A55.837340
G1 X88.158000 Y94.572000 Z0.200000 A56.176040
G1 X88.756000 Y94.940000 Z0.200000 A56.189640
G1 X88.756000 Y77.436000 Z0.200000 A56.528330
G1 X89.354000 Y77.805000 Z0.200000 A56.541930
G1 X89.354000 Y95.308000 Z0.200000 A56.880620
G1 X89.953000 Y95.677000 Z0.200000 A56.894220
G1 X89.953000 Y78.173000 Z0.200000 A57.232920
G1 X90.551000 Y78.542000 Z0.200000 A57.246510
