; generated by Slic3r 0.9.8 on 2013-03-25 at 11:04:53

; layer_height = 0.3
; perimeters = 3
; top_solid_layers = 3
; bottom_solid_layers = 3
; fill_density = 0.4
; perimeter_speed = 30
; infill_speed = 60
; travel_speed = 130
; scale = 1
; nozzle_diameter = 0.4
; filament_diameter = 3
; extrusion_multiplier = 1
; perimeters extrusion width = 0.42mm
; infill extrusion width = 0.42mm
; first layer extrusion width = 0.80mm

M190 P115 ; wait for bed temperature to be reached
M104 P235 ; set temperature
G92 A0                  ; Reset A to 0
G40                        ; Cancel cutter compensation
G64 P0.1                ; Path Blend within .1mm
G0 X108.5 Y108.5  ; Move to center
M109 P235 ; wait for temperature to be reached
G90 ; use absolute coordinates
G21 ; set units to millimeters
G0 Z0.400 F1800.000 A-2.00000
G0 X125.881 Y125.929 F7800.000
G0 F1800.000 A0.00000
G1 X125.041 Y126.729 F540.000 A0.04688
G1 X124.021 Y127.519 A0.09902
G1 X119.261 Y130.589 A0.32792
G1 X118.231 Y131.109 A0.37455
G1 X117.551 Y131.389 A0.40427
G1 X116.041 Y131.929 A0.46908
G1 X115.221 Y132.139 A0.50329
G1 X109.681 Y133.009 A0.72992
G1 X108.931 Y133.089 A0.76040
G1 X108.181 Y133.099 A0.79072
G1 X106.791 Y133.049 A0.84693
G1 X105.811 Y132.969 A0.88666
G1 X105.011 Y132.829 A0.91949
G1 X99.601 Y131.369 A1.14594
G1 X99.231 Y131.259 A1.16154
G1 X98.171 Y130.839 A1.20762
G1 X97.251 Y130.389 A1.24901
G1 X96.391 Y129.929 A1.28843
G1 X95.661 Y129.489 A1.32287
G1 X95.211 Y129.149 A1.34566
G1 X91.071 Y125.789 A1.56114
G1 X90.401 Y125.169 A1.59803
G1 X89.961 Y124.699 A1.62405
G1 X89.331 Y123.949 A1.66364
G1 X88.371 Y122.689 A1.72765
G1 X87.951 Y121.959 A1.76169
G1 X85.531 Y117.199 A1.97749
G1 X85.291 Y116.689 A2.00027
G1 X85.021 Y115.899 A2.03401
G1 X84.621 Y114.489 A2.09324
G1 X84.341 Y113.239 A2.14501
G1 X84.251 Y112.429 A2.17794
G1 X83.981 Y107.109 A2.39322
G1 X83.971 Y106.589 A2.41424
G1 X84.041 Y105.579 A2.45515
G1 X84.141 Y104.849 A2.48493
G1 X84.411 Y103.319 A2.54772
G1 X84.551 Y102.769 A2.57065
G1 X84.741 Y102.219 A2.59417
G1 X86.661 Y97.249 A2.80949
G1 X86.911 Y96.689 A2.83427
G1 X87.321 Y95.919 A2.86953
G1 X87.921 Y94.959 A2.91528
G1 X88.801 Y93.709 A2.97706
G1 X89.341 Y93.109 A3.00968
G1 X93.111 Y89.349 A3.22486
G1 X93.491 Y88.999 A3.24574
G1 X94.251 Y88.399 A3.28487
G1 X94.861 Y87.979 A3.31480
G1 X96.051 Y87.239 A3.37143
G1 X96.521 Y86.979 A3.39314
G1 X97.261 Y86.649 A3.42588
G1 X102.231 Y84.749 A3.64091
G1 X102.701 Y84.589 A3.66098
G1 X103.491 Y84.379 A3.69401
G1 X104.461 Y84.189 A3.73396
G1 X105.971 Y83.989 A3.79552
G1 X106.541 Y83.949 A3.81861
G1 X107.111 Y83.959 A3.84165
G1 X112.431 Y84.249 A4.05697
G1 X113.161 Y84.329 A4.08664
G1 X113.871 Y84.459 A4.11581
G1 X115.001 Y84.739 A4.16286
G1 X116.201 Y85.099 A4.21349
G1 X116.451 Y85.189 A4.22423
G1 X117.201 Y85.519 A4.25735
G1 X121.941 Y87.939 A4.47243
G1 X122.301 Y88.139 A4.48907
G1 X123.211 Y88.739 A4.53312
G1 X124.331 Y89.629 A4.59093
G1 X124.861 Y90.079 A4.61903
G1 X125.441 Y90.639 A4.65161
G1 X125.801 Y91.049 A4.67366
G1 X129.371 Y95.489 A4.90391
G1 X129.691 Y95.959 A4.92688
G1 X129.981 Y96.449 A4.94989
G1 X130.331 Y97.099 A4.97973
G1 X131.031 Y98.549 A5.04480
G1 X131.231 Y99.059 A5.06694
G1 X131.391 Y99.589 A5.08931
G1 X132.761 Y104.739 A5.30468
G1 X132.871 Y105.229 A5.32497
G1 X133.021 Y106.279 A5.36784
G1 X133.071 Y107.009 A5.39741
G1 X133.121 Y108.549 A5.45968
G1 X133.091 Y109.109 A5.48234
G1 X133.031 Y109.669 A5.50510
G1 X132.191 Y114.929 A5.72037
G1 X132.091 Y115.429 A5.74098
G1 X131.821 Y116.389 A5.78128
G1 X131.571 Y117.089 A5.81132
G1 X131.071 Y118.309 A5.86460
G1 X130.841 Y118.819 A5.88721
G1 X130.571 Y119.309 A5.90982
G1 X127.511 Y124.009 A6.13647
G1 X127.011 Y124.689 A6.17058
G1 X126.771 Y124.979 A6.18579
G1 X125.955 Y125.852 A6.23407
G1 X125.881 Y125.929 A6.23840
G0 X125.371 Y125.439 F7800.000
G1 X124.551 Y126.209 F540.000 A6.28386
G1 X123.641 Y126.919 A6.33051
G1 X119.171 Y129.809 A6.54562
G1 X118.781 Y130.039 A6.56392
G1 X117.961 Y130.449 A6.60097
G1 X117.281 Y130.729 A6.63069
G1 X115.831 Y131.249 A6.69294
G1 X115.091 Y131.439 A6.72382
G1 X109.571 Y132.299 A6.94959
G1 X108.881 Y132.379 A6.97766
G1 X108.201 Y132.389 A7.00515
G1 X106.851 Y132.339 A7.05974
G1 X105.891 Y132.259 A7.09867
G1 X105.181 Y132.129 A7.12784
G1 X99.571 Y130.619 A7.36263
G1 X98.481 Y130.199 A7.40984
G1 X97.581 Y129.759 A7.45032
G1 X96.501 Y129.179 A7.49986
G1 X95.861 Y128.749 A7.53102
G1 X91.521 Y125.229 A7.75685
G1 X91.001 Y124.769 A7.78491
G1 X90.511 Y124.239 A7.81408
G1 X89.881 Y123.489 A7.85367
G1 X89.111 Y122.499 A7.90435
G1 X88.831 Y122.079 A7.92475
G1 X88.581 Y121.629 A7.94556
G1 X86.161 Y116.869 A8.16136
G1 X86.051 Y116.649 A8.17130
G1 X85.861 Y116.179 A8.19178
G1 X85.701 Y115.699 A8.21223
G1 X85.391 Y114.629 A8.25725
G1 X85.041 Y113.129 A8.31950
G1 X84.961 Y112.389 A8.34958
G1 X84.691 Y107.069 A8.56485
G1 X84.691 Y106.589 A8.58425
G1 X84.751 Y105.679 A8.62111
G1 X84.891 Y104.689 A8.66152
G1 X85.111 Y103.469 A8.71161
G1 X85.241 Y102.969 A8.73249
G1 X85.411 Y102.479 A8.75345
G1 X87.331 Y97.509 A8.96877
G1 X87.551 Y96.989 A8.99159
G1 X87.931 Y96.289 A9.02378
G1 X88.511 Y95.359 A9.06808
G1 X89.211 Y94.349 A9.11774
G1 X89.681 Y93.789 A9.14728
G1 X93.971 Y89.529 A9.39161
G1 X94.651 Y88.989 A9.42671
G1 X95.261 Y88.569 A9.45664
G1 X96.631 Y87.729 A9.52158
G1 X96.851 Y87.609 A9.53171
G1 X97.511 Y87.319 A9.56084
G1 X102.911 Y85.269 A9.79427
G1 X103.641 Y85.079 A9.82475
G1 X104.121 Y84.979 A9.84457
G1 X104.561 Y84.899 A9.86264
G1 X106.041 Y84.699 A9.92300
G1 X106.561 Y84.669 A9.94405
G1 X107.081 Y84.679 A9.96506
G1 X112.401 Y84.969 A10.18038
G1 X113.051 Y85.029 A10.20676
G1 X114.421 Y85.329 A10.26344
G1 X115.971 Y85.779 A10.32867
G1 X116.651 Y86.049 A10.35824
G1 X121.941 Y88.759 A10.59844
G1 X122.771 Y89.309 A10.63868
G1 X123.301 Y89.709 A10.66551
G1 X124.391 Y90.619 A10.72290
G1 X124.751 Y90.949 A10.74263
G1 X125.241 Y91.499 A10.77240
G1 X128.801 Y95.919 A11.00176
G1 X129.231 Y96.559 A11.03292
G1 X129.851 Y97.729 A11.08644
G1 X130.371 Y98.829 A11.13561
G1 X130.471 Y99.059 A11.14574
G1 X130.701 Y99.769 A11.17590
G1 X132.151 Y105.239 A11.40460
G1 X132.311 Y106.329 A11.44912
G1 X132.361 Y107.059 A11.47869
G1 X132.401 Y108.289 A11.52843
G1 X132.401 Y108.799 A11.54904
G1 X132.361 Y109.309 A11.56971
G1 X131.481 Y114.819 A11.79521
G1 X131.361 Y115.399 A11.81915
G1 X131.141 Y116.149 A11.85073
G1 X130.781 Y117.139 A11.89330
G1 X130.311 Y118.269 A11.94276
G1 X130.081 Y118.729 A11.96355
G1 X129.821 Y119.159 A11.98386
G1 X126.911 Y123.619 A12.19907
G1 X126.461 Y124.229 A12.22971
G1 X126.221 Y124.519 A12.24492
G1 X125.891 Y124.899 A12.26526
G1 X125.445 Y125.362 A12.29122
G1 X125.371 Y125.439 A12.29555
G0 Z0.900 F540.000 A10.29555
G0 X111.547 Y111.567 F7800.000
G0 Z0.400
G0 F1800.000 A12.29555
G1 X111.219 Y111.860 F540.000 A12.31333
G1 X110.934 Y112.072 A12.32769
G1 X110.539 Y112.311 A12.34634
G1 X110.120 Y112.508 A12.36503
G1 X109.682 Y112.657 A12.38374
G1 X109.364 Y112.735 A12.39699
G1 X108.958 Y112.797 A12.41358
G1 X108.352 Y112.819 A12.43808
G1 X107.861 Y112.774 A12.45801
G1 X107.485 Y112.700 A12.47350
G1 X107.105 Y112.589 A12.48948
G1 X106.756 Y112.455 A12.50461
G1 X106.376 Y112.264 A12.52178
G1 X106.010 Y112.035 A12.53922
G1 X105.692 Y111.787 A12.55554
G1 X105.400 Y111.513 A12.57171
G1 X105.033 Y111.086 A12.59447
G1 X104.851 Y110.822 A12.60744
G1 X104.643 Y110.455 A12.62450
G1 X104.451 Y110.024 A12.64354
G1 X104.308 Y109.569 A12.66281
G1 X104.217 Y109.125 A12.68114
G1 X104.183 Y108.797 A12.69446
G1 X104.173 Y108.324 A12.71359
G1 X104.223 Y107.822 A12.73398
G1 X104.300 Y107.443 A12.74961
G1 X104.410 Y107.076 A12.76508
G1 X104.542 Y106.739 A12.77970
G1 X104.722 Y106.380 A12.79593
G1 X104.968 Y105.989 A12.81461
G1 X105.146 Y105.753 A12.82655
G1 X105.437 Y105.432 A12.84406
G1 X105.781 Y105.123 A12.86273
G1 X106.077 Y104.905 A12.87760
G1 X106.372 Y104.723 A12.89161
G1 X106.798 Y104.511 A12.91086
G1 X107.198 Y104.363 A12.92808
G1 X107.661 Y104.246 A12.94738
G1 X108.023 Y104.189 A12.96221
G1 X108.418 Y104.165 A12.97820
G1 X108.890 Y104.181 A12.99728
G1 X109.316 Y104.240 A13.01464
G1 X109.646 Y104.318 A13.02838
G1 X110.050 Y104.451 A13.04556
G1 X110.407 Y104.606 A13.06127
G1 X110.759 Y104.799 A13.07750
G1 X111.098 Y105.029 A13.09406
G1 X111.485 Y105.357 A13.11457
G1 X111.782 Y105.669 A13.13197
G1 X112.033 Y105.989 A13.14838
G1 X112.225 Y106.284 A13.16263
G1 X112.447 Y106.715 A13.18223
G1 X112.610 Y107.137 A13.20049
G1 X112.712 Y107.490 A13.21534
G1 X112.793 Y107.941 A13.23388
G1 X112.827 Y108.372 A13.25136
G1 X112.817 Y108.819 A13.26942
G1 X112.760 Y109.255 A13.28719
G1 X112.705 Y109.525 A13.29832
G1 X112.548 Y110.023 A13.31942
G1 X112.380 Y110.410 A13.33648
G1 X112.166 Y110.794 A13.35423
G1 X111.907 Y111.163 A13.37247
G1 X111.622 Y111.490 A13.39000
G1 X111.547 Y111.567 A13.39433
G0 X111.043 Y111.061 F7800.000
G1 X110.771 Y111.303 F540.000 A13.40905
G1 X110.531 Y111.482 A13.42114
G1 X110.203 Y111.681 A13.43666
G1 X109.853 Y111.845 A13.45226
G1 X109.491 Y111.969 A13.46773
G1 X109.221 Y112.035 A13.47899
G1 X108.887 Y112.086 A13.49261
G1 X108.376 Y112.105 A13.51329
G1 X107.966 Y112.067 A13.52994
G1 X107.650 Y112.005 A13.54295
G1 X107.334 Y111.912 A13.55625
G1 X107.044 Y111.801 A13.56882
G1 X106.730 Y111.643 A13.58302
G1 X106.419 Y111.449 A13.59782
G1 X106.152 Y111.241 A13.61150
G1 X105.910 Y111.014 A13.62490
G1 X105.605 Y110.657 A13.64388
G1 X105.453 Y110.436 A13.65473
G1 X105.279 Y110.131 A13.66890
G1 X105.119 Y109.771 A13.68483
G1 X105.000 Y109.392 A13.70091
G1 X104.924 Y109.022 A13.71617
G1 X104.895 Y108.748 A13.72730
G1 X104.887 Y108.353 A13.74328
G1 X104.929 Y107.929 A13.76047
G1 X104.992 Y107.621 A13.77317
G1 X105.086 Y107.307 A13.78643
G1 X105.195 Y107.027 A13.79856
G1 X105.344 Y106.731 A13.81196
G1 X105.552 Y106.401 A13.82774
G1 X105.702 Y106.202 A13.83779
G1 X105.945 Y105.935 A13.85239
G1 X106.227 Y105.681 A13.86775
G1 X106.478 Y105.497 A13.88031
G1 X106.725 Y105.344 A13.89204
G1 X107.081 Y105.167 A13.90811
G1 X107.415 Y105.044 A13.92252
G1 X107.802 Y104.947 A13.93862
G1 X108.100 Y104.899 A13.95082
G1 X108.431 Y104.879 A13.96424
G1 X108.823 Y104.892 A13.98009
G1 X109.183 Y104.942 A13.99479
G1 X109.457 Y105.007 A14.00614
G1 X109.796 Y105.118 A14.02057
G1 X110.094 Y105.247 A14.03369
G1 X110.385 Y105.408 A14.04711
G1 X110.668 Y105.599 A14.06094
G1 X110.990 Y105.872 A14.07798
G1 X111.245 Y106.140 A14.09294
G1 X111.452 Y106.404 A14.10650
G1 X111.609 Y106.645 A14.11812
G1 X111.795 Y107.008 A14.13461
G1 X111.933 Y107.364 A14.15004
G1 X112.017 Y107.656 A14.16230
G1 X112.085 Y108.036 A14.17793
G1 X112.113 Y108.387 A14.19213
G1 X112.104 Y108.767 A14.20749
G1 X112.056 Y109.132 A14.22237
G1 X112.011 Y109.354 A14.23153
G1 X111.880 Y109.769 A14.24913
G1 X111.740 Y110.093 A14.26341
G1 X111.562 Y110.413 A14.27821
G1 X111.347 Y110.719 A14.29328
G1 X111.118 Y110.984 A14.30746
G1 X111.043 Y111.061 A14.31179
G0 X110.539 Y110.554 F7800.000
G1 X110.128 Y110.892 F540.000 A14.33326
G1 X109.866 Y111.050 A14.34565
G1 X109.586 Y111.182 A14.35815
G1 X109.077 Y111.335 A14.37964
G1 X108.817 Y111.375 A14.39030
G1 X108.400 Y111.391 A14.40716
G1 X108.070 Y111.361 A14.42052
G1 X107.815 Y111.310 A14.43106
G1 X107.332 Y111.147 A14.45166
G1 X107.083 Y111.023 A14.46290
G1 X106.828 Y110.863 A14.47505
G1 X106.421 Y110.515 A14.49671
G1 X106.177 Y110.229 A14.51190
G1 X106.054 Y110.051 A14.52064
G1 X105.916 Y109.808 A14.53192
G1 X105.787 Y109.519 A14.54473
G1 X105.692 Y109.214 A14.55762
G1 X105.631 Y108.919 A14.56981
G1 X105.601 Y108.381 A14.59158
G1 X105.635 Y108.037 A14.60556
G1 X105.684 Y107.800 A14.61533
G1 X105.849 Y107.316 A14.63601
G1 X105.966 Y107.082 A14.64658
G1 X106.136 Y106.812 A14.65945
G1 X106.452 Y106.438 A14.67927
G1 X106.674 Y106.238 A14.69132
G1 X106.879 Y106.088 A14.70158
G1 X107.363 Y105.823 A14.72389
G1 X107.643 Y105.721 A14.73591
G1 X107.942 Y105.647 A14.74839
G1 X108.444 Y105.593 A14.76878
G1 X108.756 Y105.603 A14.78142
G1 X109.051 Y105.644 A14.79344
G1 X109.542 Y105.785 A14.81407
G1 X110.011 Y106.016 A14.83520
G1 X110.238 Y106.170 A14.84628
G1 X110.494 Y106.387 A14.85986
G1 X110.708 Y106.611 A14.87238
G1 X110.870 Y106.820 A14.88308
G1 X110.992 Y107.007 A14.89208
G1 X111.144 Y107.301 A14.90546
G1 X111.322 Y107.822 A14.92772
G1 X111.377 Y108.132 A14.94043
G1 X111.399 Y108.401 A14.95135
G1 X111.392 Y108.714 A14.96402
G1 X111.353 Y109.008 A14.97600
G1 X111.213 Y109.515 A14.99725
G1 X111.100 Y109.776 A15.00876
G1 X110.957 Y110.033 A15.02060
G1 X110.788 Y110.274 A15.03251
G1 X110.614 Y110.478 A15.04335
G1 X110.539 Y110.554 A15.04768
G0 X110.692 Y111.252 F7800.000
G0 Z0.900 F540.000 A13.04768
G0 X107.319 Y121.970 F7800.000
G0 Z0.400
G0 F1800.000 A15.04768
G1 X106.380 Y120.719 F540.000 A15.11088
G1 X103.831 Y119.947 A15.21850
G1 X102.916 Y119.898 A15.25554
G1 X101.979 Y120.491 A15.30036
G1 X101.589 Y118.799 A15.37054
G1 X99.488 Y116.980 A15.48285
G1 X98.465 Y116.612 A15.52678
G1 X97.652 Y116.837 A15.56088
G1 X97.995 Y115.099 A15.63246
G1 X96.728 Y112.397 A15.75307
G1 X95.318 Y111.523 A15.82009
G1 X96.217 Y110.258 A15.88281
G1 X96.158 Y107.262 A16.00392
G1 X95.220 Y105.907 A16.07050
G1 X96.561 Y105.105 A16.13364
G1 X97.722 Y102.354 A16.25432
G1 X97.422 Y100.728 A16.32115
G1 X98.971 Y100.544 A16.38418
G1 X101.154 Y98.498 A16.50507
G1 X101.538 Y96.890 A16.57187
G1 X103.024 Y97.356 A16.63481
G1 X105.851 Y96.375 A16.75573
G1 X106.859 Y95.066 A16.82251
G1 X108.030 Y96.092 A16.88544
G1 X111.011 Y96.345 A17.00634
G1 X112.463 Y95.555 A17.07314
G1 X113.113 Y96.971 A17.13610
G1 X115.733 Y98.416 A17.25703
G1 X117.381 Y98.288 A17.32383
G1 X117.400 Y99.845 A17.38675
G1 X119.208 Y102.232 A17.50775
G1 X120.762 Y102.777 A17.57428
G1 X120.149 Y104.216 A17.63751
G1 X120.828 Y107.129 A17.75838
G1 X122.026 Y108.258 A17.82492
G1 X120.882 Y109.324 A17.88809
G1 X120.318 Y112.257 A18.00878
G1 X120.979 Y113.858 A18.07878
G1 X120.243 Y113.699 A18.10918
G1 X117.769 Y116.647 A18.26472
G1 X117.718 Y118.482 A18.33888
G1 X116.464 Y118.115 A18.39164
G1 X113.612 Y119.782 A18.52516
G1 X112.901 Y121.285 A18.59236
G1 X111.536 Y120.525 A18.65550
G1 X108.567 Y120.895 A18.77645
G1 X107.400 Y121.900 A18.83868
G1 X107.319 Y121.970 A18.84301
G0 X106.546 Y122.130 F7800.000
G1 X105.949 Y121.334 F540.000 A18.88319
G1 X103.707 Y120.656 A18.97787
G1 X103.106 Y120.623 A19.00221
G1 X102.373 Y121.087 A19.03725
G1 X101.732 Y122.118 A19.08630
G1 X101.329 Y122.567 A19.11068
G1 X100.929 Y122.922 A19.13231
G1 X100.337 Y122.596 A19.15960
G1 X100.425 Y122.068 A19.18127
G1 X100.536 Y121.642 A19.19904
G1 X100.661 Y121.322 A19.21293
G1 X100.957 Y120.798 A19.23724
G1 X101.169 Y120.156 A19.26455
G1 X100.945 Y119.187 A19.30477
G1 X99.121 Y117.607 A19.40229
G1 X98.437 Y117.361 A19.43167
G1 X97.639 Y117.581 A19.46513
G1 X96.772 Y118.188 A19.50787
G1 X96.227 Y118.433 A19.53201
G1 X95.715 Y118.596 A19.55374
G1 X95.305 Y118.058 A19.58108
G1 X95.601 Y117.609 A19.60283
G1 X95.874 Y117.268 A19.62046
G1 X96.124 Y117.020 A19.63471
G1 X96.601 Y116.666 A19.65869
G1 X97.056 Y116.169 A19.68594
G1 X97.249 Y115.191 A19.72624
G1 X96.171 Y112.892 A19.82882
G1 X95.398 Y112.413 A19.86557
G1 X94.820 Y112.390 A19.88894
G1 X94.009 Y112.560 A19.92245
G1 X93.656 Y112.591 A19.93675
G1 X93.202 Y112.577 A19.95511
G1 X92.710 Y112.522 A19.97513
G1 X92.554 Y111.863 A20.00249
G1 X93.007 Y111.575 A20.02418
G1 X93.395 Y111.374 A20.04184
G1 X93.725 Y111.249 A20.05609
G1 X94.310 Y111.120 A20.08031
G1 X94.924 Y110.846 A20.10748
G1 X95.498 Y110.036 A20.14758
G1 X95.448 Y107.491 A20.25046
G1 X94.916 Y106.722 A20.28826
G1 X94.274 Y106.439 A20.31663
G1 X93.606 Y106.313 A20.34410
G1 X93.271 Y106.198 A20.35839
