; generated by Slic3r 0.9.8 on 2013-03-25 at 21:20:49

; layer_height = 0.3
; perimeters = 4
; top_solid_layers = 3
; bottom_solid_layers = 3
; fill_density = 0
; perimeter_speed = 15
; infill_speed = 40
; travel_speed = 130
; scale = 1
; nozzle_diameter = 0.4
; filament_diameter = 3
; extrusion_multiplier = 1
; perimeters extrusion width = 0.42mm
; infill extrusion width = 0.42mm
; first layer extrusion width = 0.42mm

M190 P115 ; wait for bed temperature to be reached
M104 P235 ; set temperature
G92 A0                  ; Reset A to 0
G40                        ; Cancel cutter compensation
G64 P0.1                ; Path Blend within .1mm
G0 X108.5 Y108.5  ; Move to center
M109 P235 ; wait for temperature to be reached
G90 ; use absolute coordinates
G21 ; set units to millimeters
G0 Z0.300 F1800.000 A-2.00000
G0 X46.657 Y118.044 F7800.000
G0 F1800.000 A0.00000
G1 X46.107 Y118.024 F540.000 A0.00978
G1 X45.837 Y117.994 A0.01461
G1 X45.027 Y117.844 A0.02926
G1 X44.507 Y117.694 A0.03888
G1 X43.997 Y117.504 A0.04856
G1 X43.747 Y117.394 A0.05341
G1 X43.257 Y117.134 A0.06327
G1 X42.567 Y116.684 A0.07792
G1 X42.147 Y116.344 A0.08752
G1 X41.747 Y115.964 A0.09733
G1 X41.567 Y115.764 A0.10212
G1 X41.217 Y115.344 A0.11184
G1 X40.897 Y114.894 A0.12165
G1 X40.497 Y114.184 A0.13614
G1 X40.187 Y113.424 A0.15073
G1 X39.967 Y112.634 A0.16531
G1 X39.917 Y112.364 A0.17019
G1 X39.847 Y111.824 A0.17987
G1 X39.817 Y111.274 A0.18966
G1 X39.787 Y108.304 A0.24247
G1 X39.807 Y107.684 A0.25349
G1 X39.887 Y107.064 A0.26461
G1 X39.947 Y106.764 A0.27005
G1 X40.107 Y106.164 A0.28109
G1 X40.327 Y105.574 A0.29228
G1 X41.777 Y102.524 A0.35232
G1 X42.217 Y101.804 A0.36732
G1 X42.557 Y101.354 A0.37735
G1 X42.747 Y101.134 A0.38251
G1 X43.347 Y100.544 A0.39747
G1 X43.787 Y100.194 A0.40747
G1 X44.507 Y99.734 A0.42266
G1 X45.007 Y99.484 A0.43260
G1 X45.797 Y99.184 A0.44762
G1 X46.067 Y99.104 A0.45263
G1 X46.617 Y98.984 A0.46263
G1 X47.387 Y98.884 A0.47644
G1 X48.037 Y98.854 A0.48801
G1 X170.097 Y98.854 A2.65796
G1 X170.647 Y98.874 A2.66775
G1 X171.457 Y98.994 A2.68230
G1 X172.257 Y99.204 A2.69701
G1 X172.517 Y99.294 A2.70190
G1 X173.017 Y99.514 A2.71161
G1 X173.267 Y99.634 A2.71654
G1 X173.737 Y99.904 A2.72618
G1 X174.407 Y100.384 A2.74083
G1 X175.017 Y100.944 A2.75555
G1 X175.207 Y101.144 A2.76045
G1 X175.717 Y101.794 A2.77514
G1 X176.007 Y102.254 A2.78481
G1 X176.267 Y102.744 A2.79467
G1 X177.577 Y105.784 A2.85352
G1 X177.767 Y106.374 A2.86454
G1 X177.907 Y106.974 A2.87549
G1 X177.987 Y107.584 A2.88643
G1 X178.017 Y108.204 A2.89746
G1 X178.017 Y111.184 A2.95044
G1 X177.997 Y111.724 A2.96005
G1 X177.927 Y112.274 A2.96990
G1 X177.817 Y112.804 A2.97953
G1 X177.667 Y113.334 A2.98932
G1 X177.477 Y113.844 A2.99900
G1 X177.247 Y114.334 A3.00862
G1 X176.977 Y114.804 A3.01825
G1 X176.507 Y115.474 A3.03280
G1 X176.147 Y115.884 A3.04250
G1 X175.757 Y116.264 A3.05218
G1 X175.337 Y116.614 A3.06190
G1 X174.657 Y117.074 A3.07650
G1 X174.177 Y117.334 A3.08620
G1 X173.417 Y117.644 A3.10080
G1 X172.897 Y117.804 A3.11047
G1 X172.097 Y117.964 A3.12497
G1 X171.617 Y118.014 A3.13355
G1 X170.967 Y118.044 A3.14512
G1 X46.720 Y118.044 A5.35396
G1 X46.657 Y118.044 A5.35507
G0 X46.657 Y117.624 F7800.000
G1 X46.127 Y117.604 F540.000 A5.36450
G1 X45.867 Y117.574 A5.36916
G1 X45.347 Y117.484 A5.37854
G1 X44.837 Y117.364 A5.38785
G1 X44.097 Y117.094 A5.40186
G1 X43.387 Y116.734 A5.41601
G1 X42.947 Y116.444 A5.42538
G1 X42.527 Y116.124 A5.43476
G1 X42.137 Y115.764 A5.44420
G1 X41.787 Y115.384 A5.45338
G1 X41.307 Y114.754 A5.46746
G1 X40.907 Y114.064 A5.48164
G1 X40.697 Y113.584 A5.49096
G1 X40.517 Y113.084 A5.50040
G1 X40.447 Y112.834 A5.50502
G1 X40.297 Y112.054 A5.51914
G1 X40.237 Y111.264 A5.53323
G1 X40.207 Y108.294 A5.58603
G1 X40.227 Y107.714 A5.59635
G1 X40.307 Y107.134 A5.60675
G1 X40.427 Y106.564 A5.61711
G1 X40.507 Y106.284 A5.62229
G1 X40.827 Y105.474 A5.63777
G1 X42.147 Y102.714 A5.69216
G1 X42.417 Y102.264 A5.70149
G1 X42.717 Y101.824 A5.71096
G1 X43.057 Y101.414 A5.72043
G1 X43.627 Y100.864 A5.73451
G1 X44.037 Y100.534 A5.74386
G1 X44.477 Y100.234 A5.75333
G1 X45.177 Y99.864 A5.76741
G1 X45.667 Y99.664 A5.77682
G1 X46.437 Y99.444 A5.79105
G1 X47.217 Y99.324 A5.80508
G1 X48.037 Y99.274 A5.81969
G1 X170.097 Y99.274 A7.98964
G1 X170.627 Y99.294 A7.99907
G1 X171.427 Y99.414 A8.01345
G1 X172.197 Y99.624 A8.02764
G1 X172.937 Y99.934 A8.04190
G1 X173.627 Y100.334 A8.05608
G1 X174.267 Y100.814 A8.07031
G1 X174.657 Y101.174 A8.07974
G1 X175.017 Y101.574 A8.08931
G1 X175.347 Y101.994 A8.09880
G1 X175.767 Y102.674 A8.11301
G1 X175.997 Y103.154 A8.12248
G1 X177.077 Y105.664 A8.17105
G1 X177.277 Y106.204 A8.18129
G1 X177.437 Y106.764 A8.19164
G1 X177.537 Y107.334 A8.20193
G1 X177.597 Y108.204 A8.21744
G1 X177.597 Y111.184 A8.27041
G1 X177.577 Y111.714 A8.27984
G1 X177.507 Y112.234 A8.28917
G1 X177.337 Y113.004 A8.30319
G1 X177.167 Y113.494 A8.31241
G1 X176.957 Y113.984 A8.32189
G1 X176.567 Y114.674 A8.33598
G1 X176.267 Y115.094 A8.34515
G1 X175.747 Y115.694 A8.35927
G1 X175.357 Y116.054 A8.36870
G1 X175.157 Y116.224 A8.37337
G1 X174.507 Y116.674 A8.38742
G1 X174.047 Y116.924 A8.39673
G1 X173.327 Y117.234 A8.41067
G1 X172.567 Y117.454 A8.42473
G1 X172.307 Y117.504 A8.42944
G1 X171.577 Y117.594 A8.44252
G1 X170.967 Y117.624 A8.45337
G1 X46.720 Y117.624 A10.66221
G1 X46.657 Y117.624 A10.66333
G0 Z0.800 F540.000 A8.66333
G0 X48.306 Y108.616 F7800.000
G0 Z0.300
G0 F1800.000 A10.66333
G1 X48.670 Y109.035 F540.000 A10.67319
G1 X49.094 Y109.314 A10.68223
G1 X49.580 Y109.467 A10.69127
G1 X50.088 Y109.481 A10.70031
G1 X50.581 Y109.356 A10.70935
G1 X51.021 Y109.102 A10.71838
G1 X51.482 Y108.627 A10.73015
G1 X51.666 Y108.894 A10.73591
G1 X52.058 Y109.218 A10.74495
G1 X52.523 Y109.422 A10.75398
G1 X52.955 Y109.482 A10.76173
G1 X53.376 Y109.448 A10.76924
G1 X53.852 Y109.270 A10.77828
G1 X54.262 Y108.969 A10.78732
G1 X54.536 Y108.616 A10.79526
G1 X54.899 Y109.035 A10.80512
G1 X55.325 Y109.314 A10.81416
G1 X55.810 Y109.467 A10.82320
G1 X56.318 Y109.481 A10.83223
G1 X56.811 Y109.356 A10.84127
G1 X57.251 Y109.102 A10.85031
G1 X57.712 Y108.627 A10.86207
G1 X57.896 Y108.894 A10.86783
G1 X58.288 Y109.218 A10.87687
G1 X58.753 Y109.422 A10.88591
G1 X59.185 Y109.482 A10.89365
G1 X59.606 Y109.448 A10.90117
G1 X60.082 Y109.270 A10.91021
G1 X60.492 Y108.969 A10.91925
G1 X60.766 Y108.616 A10.92718
G1 X61.129 Y109.036 A10.93705
G1 X61.555 Y109.314 A10.94608
G1 X62.040 Y109.467 A10.95512
G1 X62.548 Y109.481 A10.96416
G1 X63.041 Y109.356 A10.97320
G1 X63.481 Y109.102 A10.98224
G1 X63.942 Y108.627 A10.99400
G1 X64.126 Y108.894 A10.99976
G1 X64.518 Y109.218 A11.00880
G1 X64.983 Y109.422 A11.01784
G1 X65.415 Y109.482 A11.02559
G1 X65.836 Y109.448 A11.03310
G1 X66.312 Y109.270 A11.04214
G1 X66.722 Y108.969 A11.05117
G1 X66.996 Y108.616 A11.05911
G1 X67.359 Y109.035 A11.06897
G1 X67.785 Y109.314 A11.07801
G1 X68.270 Y109.467 A11.08705
G1 X68.778 Y109.481 A11.09609
G1 X69.271 Y109.356 A11.10513
G1 X69.711 Y109.102 A11.11417
G1 X70.172 Y108.627 A11.12593
G1 X70.356 Y108.894 A11.13169
G1 X70.748 Y109.218 A11.14073
G1 X71.213 Y109.422 A11.14977
G1 X71.645 Y109.482 A11.15752
G1 X72.066 Y109.448 A11.16503
G1 X72.542 Y109.270 A11.17407
G1 X72.952 Y108.969 A11.18310
G1 X73.226 Y108.616 A11.19104
G1 X73.589 Y109.036 A11.20090
G1 X74.015 Y109.314 A11.20994
G1 X74.500 Y109.467 A11.21898
G1 X75.008 Y109.481 A11.22802
G1 X75.501 Y109.356 A11.23706
G1 X75.941 Y109.102 A11.24609
G1 X76.402 Y108.627 A11.25786
G1 X76.586 Y108.894 A11.26362
G1 X76.978 Y109.218 A11.27266
G1 X77.443 Y109.422 A11.28170
G1 X77.875 Y109.482 A11.28945
G1 X78.296 Y109.448 A11.29696
G1 X78.772 Y109.270 A11.30599
G1 X79.182 Y108.969 A11.31503
G1 X79.456 Y108.616 A11.32297
G1 X79.819 Y109.035 A11.33283
G1 X80.245 Y109.314 A11.34187
G1 X80.730 Y109.467 A11.35091
G1 X81.238 Y109.481 A11.35995
G1 X81.731 Y109.356 A11.36899
G1 X82.171 Y109.102 A11.37802
G1 X82.632 Y108.627 A11.38979
G1 X82.816 Y108.894 A11.39555
G1 X83.208 Y109.218 A11.40459
G1 X83.673 Y109.422 A11.41363
G1 X84.105 Y109.482 A11.42138
G1 X84.526 Y109.448 A11.42888
G1 X85.002 Y109.270 A11.43792
G1 X85.412 Y108.969 A11.44696
G1 X85.686 Y108.616 A11.45490
G1 X86.049 Y109.036 A11.46476
G1 X86.475 Y109.314 A11.47380
G1 X86.960 Y109.467 A11.48284
G1 X87.468 Y109.481 A11.49188
G1 X87.961 Y109.356 A11.50092
G1 X88.401 Y109.102 A11.50995
G1 X88.862 Y108.627 A11.52172
G1 X89.046 Y108.894 A11.52748
G1 X89.438 Y109.218 A11.53652
G1 X89.903 Y109.422 A11.54556
G1 X90.335 Y109.482 A11.55331
G1 X90.756 Y109.448 A11.56081
G1 X91.232 Y109.270 A11.56985
G1 X91.642 Y108.969 A11.57889
G1 X91.916 Y108.616 A11.58683
G1 X92.279 Y109.035 A11.59669
G1 X92.705 Y109.314 A11.60573
G1 X93.190 Y109.467 A11.61477
G1 X93.698 Y109.481 A11.62381
G1 X94.191 Y109.356 A11.63284
G1 X94.631 Y109.102 A11.64188
G1 X95.092 Y108.627 A11.65365
G1 X95.276 Y108.894 A11.65941
G1 X95.668 Y109.218 A11.66845
G1 X96.133 Y109.422 A11.67749
G1 X96.565 Y109.482 A11.68524
G1 X96.986 Y109.448 A11.69274
G1 X97.462 Y109.270 A11.70178
G1 X97.872 Y108.969 A11.71082
G1 X98.146 Y108.616 A11.71876
G1 X98.509 Y109.036 A11.72862
G1 X98.935 Y109.314 A11.73766
G1 X99.420 Y109.467 A11.74670
G1 X99.928 Y109.481 A11.75574
G1 X100.421 Y109.356 A11.76477
G1 X100.861 Y109.102 A11.77381
G1 X101.322 Y108.627 A11.78558
G1 X101.506 Y108.894 A11.79134
G1 X101.898 Y109.218 A11.80038
G1 X102.363 Y109.422 A11.80942
G1 X102.795 Y109.482 A11.81716
G1 X103.216 Y109.448 A11.82467
G1 X103.692 Y109.270 A11.83371
G1 X104.102 Y108.969 A11.84275
G1 X104.376 Y108.616 A11.85069
G1 X104.739 Y109.036 A11.86055
G1 X105.165 Y109.314 A11.86959
G1 X105.650 Y109.467 A11.87863
G1 X106.158 Y109.481 A11.88767
G1 X106.651 Y109.356 A11.89670
G1 X107.091 Y109.102 A11.90574
G1 X107.552 Y108.627 A11.91751
G1 X107.736 Y108.894 A11.92327
G1 X108.128 Y109.218 A11.93231
G1 X108.593 Y109.422 A11.94134
G1 X109.025 Y109.482 A11.94909
G1 X109.446 Y109.448 A11.95660
G1 X109.922 Y109.270 A11.96564
G1 X110.332 Y108.969 A11.97468
G1 X110.606 Y108.616 A11.98262
G1 X110.969 Y109.035 A11.99248
G1 X111.395 Y109.314 A12.00152
G1 X111.880 Y109.467 A12.01056
G1 X112.388 Y109.481 A12.01959
G1 X112.881 Y109.356 A12.02863
G1 X113.321 Y109.102 A12.03767
G1 X113.782 Y108.627 A12.04944
G1 X113.966 Y108.894 A12.05520
G1 X114.358 Y109.218 A12.06424
G1 X114.823 Y109.422 A12.07327
G1 X115.255 Y109.482 A12.08102
G1 X115.676 Y109.448 A12.08853
G1 X116.152 Y109.270 A12.09757
G1 X116.562 Y108.969 A12.10661
G1 X116.836 Y108.616 A12.11455
G1 X117.199 Y109.035 A12.12441
G1 X117.625 Y109.314 A12.13345
G1 X118.110 Y109.467 A12.14248
G1 X118.618 Y109.481 A12.15152
G1 X119.111 Y109.356 A12.16056
G1 X119.551 Y109.102 A12.16960
G1 X120.012 Y108.627 A12.18136
G1 X120.196 Y108.894 A12.18713
G1 X120.588 Y109.218 A12.19616
G1 X121.053 Y109.422 A12.20520
G1 X121.485 Y109.482 A12.21295
G1 X121.906 Y109.448 A12.22046
G1 X122.382 Y109.270 A12.22950
G1 X122.792 Y108.969 A12.23854
G1 X123.066 Y108.616 A12.24648
G1 X123.429 Y109.036 A12.25634
G1 X123.855 Y109.314 A12.26538
G1 X124.340 Y109.467 A12.27441
G1 X124.848 Y109.481 A12.28345
G1 X125.341 Y109.356 A12.29249
G1 X125.781 Y109.102 A12.30153
G1 X126.242 Y108.627 A12.31329
G1 X126.426 Y108.894 A12.31906
G1 X126.818 Y109.218 A12.32810
G1 X127.283 Y109.422 A12.33713
G1 X127.715 Y109.482 A12.34488
G1 X128.136 Y109.448 A12.35239
G1 X128.612 Y109.270 A12.36143
G1 X129.022 Y108.969 A12.37047
G1 X129.296 Y108.616 A12.37841
G1 X129.659 Y109.036 A12.38827
G1 X130.085 Y109.314 A12.39731
G1 X130.570 Y109.467 A12.40634
G1 X131.078 Y109.481 A12.41538
G1 X131.571 Y109.356 A12.42442
G1 X132.011 Y109.102 A12.43346
G1 X132.472 Y108.627 A12.44522
G1 X132.656 Y108.894 A12.45099
G1 X133.048 Y109.218 A12.46002
G1 X133.513 Y109.422 A12.46906
G1 X133.945 Y109.482 A12.47681
G1 X134.366 Y109.448 A12.48432
G1 X134.842 Y109.270 A12.49336
G1 X135.252 Y108.969 A12.50240
G1 X135.526 Y108.616 A12.51034
G1 X135.889 Y109.036 A12.52020
G1 X136.315 Y109.314 A12.52924
G1 X136.800 Y109.467 A12.53827
G1 X137.308 Y109.481 A12.54731
G1 X137.801 Y109.356 A12.55635
G1 X138.241 Y109.102 A12.56539
G1 X138.702 Y108.627 A12.57715
G1 X138.886 Y108.894 A12.58292
G1 X139.278 Y109.218 A12.59195
G1 X139.743 Y109.422 A12.60099
G1 X140.175 Y109.482 A12.60874
G1 X140.596 Y109.448 A12.61625
G1 X141.072 Y109.270 A12.62529
G1 X141.482 Y108.969 A12.63433
G1 X141.756 Y108.616 A12.64226
G1 X142.119 Y109.036 A12.65213
G1 X142.545 Y109.314 A12.66117
G1 X143.030 Y109.467 A12.67020
G1 X143.538 Y109.481 A12.67924
G1 X144.031 Y109.356 A12.68828
G1 X144.471 Y109.102 A12.69732
G1 X144.932 Y108.627 A12.70908
G1 X145.116 Y108.894 A12.71484
G1 X145.508 Y109.218 A12.72388
G1 X145.973 Y109.422 A12.73292
G1 X146.405 Y109.482 A12.74067
G1 X146.826 Y109.448 A12.74818
G1 X147.302 Y109.270 A12.75722
G1 X147.712 Y108.969 A12.76626
G1 X147.986 Y108.616 A12.77419
G1 X148.349 Y109.035 A12.78406
G1 X148.775 Y109.314 A12.79309
G1 X149.260 Y109.467 A12.80213
G1 X149.768 Y109.481 A12.81117
G1 X150.261 Y109.356 A12.82021
G1 X150.701 Y109.102 A12.82925
G1 X151.162 Y108.627 A12.84101
G1 X151.346 Y108.894 A12.84677
G1 X151.738 Y109.218 A12.85581
G1 X152.203 Y109.422 A12.86485
G1 X152.635 Y109.482 A12.87260
G1 X153.056 Y109.448 A12.88011
G1 X153.532 Y109.270 A12.88915
G1 X153.942 Y108.969 A12.89819
G1 X154.216 Y108.616 A12.90612
G1 X154.579 Y109.036 A12.91599
G1 X155.005 Y109.314 A12.92502
G1 X155.490 Y109.467 A12.93406
G1 X155.998 Y109.481 A12.94310
G1 X156.491 Y109.356 A12.95214
G1 X156.931 Y109.102 A12.96118
G1 X157.392 Y108.627 A12.97294
G1 X157.576 Y108.894 A12.97870
G1 X157.968 Y109.218 A12.98774
G1 X158.433 Y109.422 A12.99678
G1 X158.865 Y109.482 A13.00453
G1 X159.286 Y109.448 A13.01204
G1 X159.762 Y109.270 A13.02107
G1 X160.172 Y108.969 A13.03011
G1 X160.446 Y108.616 A13.03805
G1 X160.809 Y109.035 A13.04791
G1 X161.235 Y109.314 A13.05695
G1 X161.720 Y109.467 A13.06599
G1 X162.228 Y109.481 A13.07503
G1 X162.721 Y109.356 A13.08407
G1 X163.161 Y109.102 A13.09311
G1 X163.622 Y108.627 A13.10487
G1 X163.806 Y108.894 A13.11063
G1 X164.198 Y109.218 A13.11967
G1 X164.663 Y109.422 A13.12871
G1 X165.095 Y109.482 A13.13646
G1 X165.516 Y109.448 A13.14397
G1 X165.992 Y109.270 A13.15300
G1 X166.402 Y108.969 A13.16204
G1 X166.676 Y108.616 A13.16998
G1 X167.039 Y109.036 A13.17984
G1 X167.465 Y109.314 A13.18888
G1 X167.950 Y109.467 A13.19792
G1 X168.458 Y109.481 A13.20696
G1 X168.951 Y109.356 A13.21599
G1 X169.391 Y109.102 A13.22503
G1 X169.928 Y108.548 A13.23875
G1 X169.928 Y109.931 A13.26332
G1 X48.114 Y109.931 A15.42892
G1 X48.103 Y108.878 A15.44763
G1 X48.267 Y108.666 A15.45241
G1 X48.306 Y108.616 A15.45352
G0 X47.978 Y108.356 F7800.000
G1 X48.299 Y107.560 F540.000 A15.46879
G1 X48.445 Y107.576 A15.47139
G1 X48.525 Y108.066 A15.48021
G1 X48.691 Y108.421 A15.48718
G1 X48.948 Y108.717 A15.49415
G1 X49.276 Y108.932 A15.50112
G1 X49.650 Y109.050 A15.50809
G1 X50.041 Y109.061 A15.51506
G1 X50.421 Y108.965 A15.52203
G1 X50.761 Y108.769 A15.52899
G1 X51.034 Y108.487 A15.53596
G1 X51.220 Y108.142 A15.54293
G1 X51.353 Y107.542 A15.55386
G1 X51.499 Y107.534 A15.55646
G1 X51.755 Y108.285 A15.57057
G1 X51.978 Y108.608 A15.57754
G1 X52.280 Y108.858 A15.58451
G1 X52.639 Y109.015 A15.59147
G1 X52.967 Y109.061 A15.59737
G1 X53.284 Y109.035 A15.60302
G1 X53.651 Y108.898 A15.60999
G1 X53.967 Y108.666 A15.61696
G1 X54.208 Y108.356 A15.62393
G1 X54.529 Y107.560 A15.63919
G1 X54.675 Y107.577 A15.64179
G1 X54.755 Y108.066 A15.65061
G1 X54.921 Y108.421 A15.65758
G1 X55.178 Y108.717 A15.66455
G1 X55.506 Y108.932 A15.67151
G1 X55.880 Y109.050 A15.67848
G1 X56.271 Y109.061 A15.68545
