; generated by Slic3r 0.9.8 on 2013-03-25 at 11:55:16

; layer_height = 0.3
; perimeters = 3
; top_solid_layers = 3
; bottom_solid_layers = 3
; fill_density = 0.4
; perimeter_speed = 30
; infill_speed = 60
; travel_speed = 130
; scale = 1
; nozzle_diameter = 0.4
; filament_diameter = 3
; extrusion_multiplier = 1
; perimeters extrusion width = 0.42mm
; infill extrusion width = 0.42mm
; first layer extrusion width = 0.80mm

M190 P115 ; wait for bed temperature to be reached
M104 P235 ; set temperature
G92 A0                  ; Reset A to 0
G40                        ; Cancel cutter compensation
G64 P0.1                ; Path Blend within .1mm
G0 X108.5 Y108.5  ; Move to center
M109 P235 ; wait for temperature to be reached
G90 ; use absolute coordinates
G21 ; set units to millimeters
G0 Z0.400 F1800.000 A-2.00000
G0 X87.435 Y132.655 F7800.000
G0 F1800.000 A0.00000
G1 X86.525 Y131.835 F540.000 A0.04950
G1 X85.905 Y131.235 A0.08437
G1 X85.295 Y130.565 A0.12099
G1 X82.025 Y126.515 A0.33135
G1 X81.485 Y125.745 A0.36936
G1 X80.985 Y124.935 A0.40783
G1 X80.435 Y123.975 A0.45254
G1 X80.015 Y123.125 A0.49086
G1 X78.025 Y118.315 A0.70123
G1 X77.735 Y117.505 A0.73599
G1 X77.465 Y116.525 A0.77708
G1 X77.205 Y115.435 A0.82236
G1 X77.045 Y114.495 A0.86090
G1 X76.485 Y109.175 A1.07708
G1 X76.445 Y108.305 A1.11228
G1 X76.465 Y107.155 A1.15876
G1 X76.515 Y106.295 A1.19357
G1 X76.625 Y105.395 A1.23022
G1 X77.585 Y100.135 A1.44630
G1 X77.825 Y99.195 A1.48551
G1 X78.075 Y98.415 A1.51861
G1 X78.445 Y97.375 A1.56322
G1 X78.795 Y96.545 A1.59962
G1 X81.195 Y91.765 A1.81578
G1 X81.675 Y90.945 A1.85418
G1 X81.985 Y90.485 A1.87660
G1 X82.755 Y89.405 A1.93020
G1 X83.375 Y88.645 A1.96984
G1 X87.025 Y84.745 A2.18571
G1 X87.575 Y84.215 A2.21658
G1 X88.075 Y83.795 A2.24297
G1 X89.295 Y82.835 A2.30570
G1 X89.975 Y82.385 A2.33866
G1 X94.575 Y79.665 A2.55463
G1 X95.425 Y79.225 A2.59331
G1 X95.705 Y79.105 A2.60562
G1 X97.095 Y78.545 A2.66618
G1 X98.085 Y78.215 A2.70835
G1 X103.265 Y76.905 A2.92428
G1 X104.105 Y76.745 A2.95884
G1 X104.685 Y76.665 A2.98250
G1 X105.955 Y76.545 A3.03406
G1 X107.045 Y76.515 A3.07812
G1 X112.435 Y76.725 A3.29611
G1 X113.435 Y76.825 A3.33673
G1 X114.685 Y77.045 A3.38802
G1 X115.205 Y77.155 A3.40950
G1 X116.105 Y77.395 A3.44714
G1 X121.175 Y79.095 A3.66325
G1 X122.035 Y79.445 A3.70077
G1 X122.475 Y79.655 A3.72048
G1 X123.705 Y80.285 A3.77633
G1 X124.565 Y80.805 A3.81694
G1 X128.945 Y83.865 A4.03287
G1 X129.665 Y84.435 A4.06998
G1 X130.465 Y85.155 A4.11348
G1 X131.085 Y85.755 A4.14835
G1 X131.705 Y86.445 A4.18583
G1 X135.055 Y90.615 A4.40200
G1 X135.585 Y91.355 A4.43879
G1 X135.845 Y91.775 A4.45875
G1 X136.545 Y92.985 A4.51524
G1 X136.985 Y93.885 A4.55573
G1 X139.015 Y98.835 A4.77194
G1 X139.295 Y99.635 A4.80620
G1 X139.525 Y100.465 A4.84100
G1 X139.785 Y101.555 A4.88629
G1 X139.945 Y102.495 A4.92482
G1 X140.505 Y107.815 A5.14101
G1 X140.545 Y108.685 A5.17621
G1 X140.525 Y109.835 A5.22269
G1 X140.475 Y110.695 A5.25750
G1 X140.365 Y111.595 A5.29415
G1 X139.405 Y116.855 A5.51023
G1 X139.165 Y117.795 A5.54944
G1 X138.915 Y118.575 A5.58254
G1 X138.545 Y119.615 A5.62715
G1 X138.195 Y120.445 A5.66355
G1 X135.795 Y125.225 A5.87971
G1 X135.315 Y126.045 A5.91811
G1 X135.005 Y126.505 A5.94053
G1 X134.235 Y127.585 A5.99413
G1 X133.615 Y128.345 A6.03377
G1 X129.965 Y132.245 A6.24964
G1 X129.415 Y132.775 A6.28051
G1 X128.905 Y133.205 A6.30746
G1 X127.825 Y134.055 A6.36301
G1 X127.015 Y134.605 A6.40257
G1 X122.415 Y137.325 A6.61854
G1 X121.555 Y137.765 A6.65758
G1 X120.645 Y138.155 A6.69759
G1 X119.845 Y138.475 A6.73241
G1 X118.905 Y138.775 A6.77229
G1 X113.725 Y140.085 A6.98822
G1 X112.885 Y140.245 A7.02278
G1 X112.305 Y140.325 A7.04644
G1 X111.035 Y140.445 A7.09799
G1 X109.945 Y140.475 A7.14206
G1 X104.555 Y140.265 A7.36005
G1 X103.555 Y140.165 A7.40067
G1 X102.305 Y139.945 A7.45196
G1 X101.785 Y139.835 A7.47344
G1 X100.885 Y139.595 A7.51108
G1 X95.815 Y137.895 A7.72719
G1 X94.955 Y137.545 A7.76471
G1 X93.285 Y136.705 A7.84026
G1 X92.445 Y136.195 A7.87997
G1 X88.175 Y133.235 A8.08994
G1 X87.519 Y132.721 A8.12361
G1 X87.435 Y132.655 A8.12794
G0 X87.905 Y132.125 F7800.000
G1 X87.195 Y131.485 F540.000 A8.16657
G1 X86.405 Y130.715 A8.21115
G1 X85.855 Y130.115 A8.24405
G1 X82.585 Y126.065 A8.45441
G1 X82.095 Y125.375 A8.48861
G1 X81.595 Y124.565 A8.52708
G1 X81.055 Y123.625 A8.57089
G1 X80.675 Y122.855 A8.60559
G1 X78.685 Y118.045 A8.81596
G1 X78.425 Y117.305 A8.84766
G1 X78.165 Y116.365 A8.88707
G1 X77.905 Y115.275 A8.93236
G1 X77.755 Y114.415 A8.96764
G1 X77.195 Y109.095 A9.18383
G1 X77.165 Y108.315 A9.21537
G1 X77.185 Y107.195 A9.26064
G1 X77.235 Y106.335 A9.29545
G1 X77.325 Y105.515 A9.32879
G1 X78.285 Y100.255 A9.54488
G1 X78.505 Y99.415 A9.57997
G1 X78.825 Y98.425 A9.62202
G1 X79.115 Y97.615 A9.65679
G1 X79.435 Y96.865 A9.68974
G1 X81.835 Y92.085 A9.90590
G1 X82.265 Y91.345 A9.94048
G1 X82.575 Y90.885 A9.96290
G1 X83.335 Y89.825 A10.01561
G1 X83.895 Y89.135 A10.05153
G1 X87.545 Y85.235 A10.26740
G1 X88.035 Y84.755 A10.29512
G1 X88.265 Y84.555 A10.30743
G1 X89.645 Y83.465 A10.37850
G1 X90.335 Y82.995 A10.41224
G1 X94.935 Y80.275 A10.62821
G1 X95.715 Y79.885 A10.66345
G1 X95.995 Y79.765 A10.67576
G1 X97.365 Y79.205 A10.73558
G1 X98.255 Y78.905 A10.77353
G1 X103.435 Y77.595 A10.98946
G1 X104.195 Y77.445 A11.02077
G1 X104.495 Y77.405 A11.03300
G1 X106.085 Y77.255 A11.09754
G1 X107.015 Y77.225 A11.13515
G1 X112.405 Y77.435 A11.35314
G1 X113.305 Y77.535 A11.38974
G1 X114.555 Y77.755 A11.44103
G1 X115.065 Y77.855 A11.46203
G1 X115.875 Y78.065 A11.49585
G1 X120.945 Y79.765 A11.71195
G1 X121.725 Y80.085 A11.74603
G1 X122.145 Y80.285 A11.76483
G1 X123.375 Y80.915 A11.82068
G1 X124.165 Y81.395 A11.85803
G1 X128.545 Y84.455 A12.07396
G1 X129.185 Y84.965 A12.10703
G1 X129.785 Y85.505 A12.13966
G1 X130.585 Y86.275 A12.18453
G1 X131.145 Y86.885 A12.21799
G1 X134.495 Y91.055 A12.43416
G1 X134.975 Y91.735 A12.46780
G1 X135.235 Y92.155 A12.48776
G1 X135.925 Y93.345 A12.54335
G1 X136.325 Y94.155 A12.57986
G1 X138.355 Y99.105 A12.79608
G1 X138.605 Y99.825 A12.82688
G1 X138.825 Y100.625 A12.86041
G1 X139.085 Y101.715 A12.90569
G1 X139.235 Y102.575 A12.94097
G1 X139.795 Y107.895 A13.15716
G1 X139.825 Y108.675 A13.18871
G1 X139.805 Y109.795 A13.23398
G1 X139.755 Y110.655 A13.26879
G1 X139.665 Y111.475 A13.30213
G1 X138.705 Y116.735 A13.51821
G1 X138.485 Y117.575 A13.55330
G1 X138.165 Y118.565 A13.59535
G1 X137.875 Y119.375 A13.63012
G1 X137.555 Y120.125 A13.66307
G1 X135.155 Y124.905 A13.87923
G1 X134.725 Y125.645 A13.91382
G1 X134.415 Y126.105 A13.93624
G1 X133.655 Y127.165 A13.98895
G1 X133.095 Y127.855 A14.02486
G1 X129.445 Y131.755 A14.24073
G1 X128.955 Y132.235 A14.26845
G1 X128.465 Y132.645 A14.29427
G1 X127.385 Y133.495 A14.34981
G1 X126.655 Y133.995 A14.38557
G1 X122.055 Y136.715 A14.60154
G1 X121.265 Y137.115 A14.63733
G1 X120.515 Y137.435 A14.67028
G1 X119.575 Y137.805 A14.71111
G1 X118.735 Y138.085 A14.74689
G1 X113.555 Y139.395 A14.96282
G1 X112.795 Y139.545 A14.99413
G1 X112.495 Y139.585 A15.00636
G1 X110.905 Y139.735 A15.07090
G1 X109.975 Y139.765 A15.10850
G1 X104.585 Y139.555 A15.32650
G1 X103.685 Y139.455 A15.36309
G1 X102.435 Y139.235 A15.41438
G1 X101.925 Y139.135 A15.43539
G1 X101.115 Y138.925 A15.46920
G1 X96.045 Y137.225 A15.68531
G1 X95.265 Y136.905 A15.71938
G1 X93.615 Y136.075 A15.79402
G1 X92.845 Y135.615 A15.83027
G1 X88.575 Y132.655 A16.04024
G1 X87.989 Y132.191 A16.07044
G1 X87.905 Y132.125 A16.07477
G0 Z0.900 F540.000 A14.07477
G0 X112.660 Y109.700 F7800.000
G0 Z0.400
G0 F1800.000 A16.07477
G1 X112.490 Y110.177 F540.000 A16.09526
G1 X112.315 Y110.546 A16.11175
G1 X112.116 Y110.881 A16.12750
G1 X111.828 Y111.271 A16.14708
G1 X111.658 Y111.462 A16.15743
G1 X111.322 Y111.783 A16.17620
G1 X110.924 Y112.088 A16.19647
G1 X110.648 Y112.258 A16.20957
G1 X110.335 Y112.421 A16.22382
G1 X109.844 Y112.616 A16.24516
G1 X109.458 Y112.721 A16.26135
G1 X109.066 Y112.791 A16.27743
G1 X108.690 Y112.825 A16.29269
G1 X108.157 Y112.817 A16.31422
G1 X107.671 Y112.750 A16.33406
G1 X107.385 Y112.683 A16.34591
G1 X106.985 Y112.556 A16.36288
G1 X106.576 Y112.378 A16.38090
G1 X106.122 Y112.117 A16.40206
G1 X105.830 Y111.907 A16.41663
G1 X105.474 Y111.597 A16.43568
G1 X105.247 Y111.356 A16.44907
G1 X105.026 Y111.085 A16.46320
G1 X104.732 Y110.632 A16.48500
G1 X104.564 Y110.301 A16.50001
G1 X104.406 Y109.909 A16.51712
G1 X104.293 Y109.515 A16.53367
G1 X104.211 Y109.088 A16.55123
G1 X104.176 Y108.698 A16.56709
G1 X104.180 Y108.213 A16.58666
G1 X104.227 Y107.810 A16.60305
G1 X104.310 Y107.416 A16.61932
G1 X104.409 Y107.082 A16.63341
G1 X104.601 Y106.621 A16.65361
G1 X104.833 Y106.198 A16.67308
G1 X105.006 Y105.944 A16.68552
G1 X105.289 Y105.598 A16.70358
G1 X105.611 Y105.276 A16.72200
G1 X105.952 Y105.001 A16.73970
G1 X106.244 Y104.805 A16.75391
G1 X106.550 Y104.636 A16.76803
G1 X107.019 Y104.432 A16.78870
G1 X107.374 Y104.320 A16.80375
G1 X107.861 Y104.219 A16.82385
G1 X108.246 Y104.180 A16.83948
G1 X108.765 Y104.180 A16.86046
G1 X109.272 Y104.240 A16.88109
G1 X109.627 Y104.321 A16.89583
G1 X110.035 Y104.454 A16.91314
G1 X110.410 Y104.615 A16.92964
G1 X110.757 Y104.806 A16.94566
G1 X111.147 Y105.074 A16.96479
G1 X111.388 Y105.274 A16.97743
G1 X111.745 Y105.633 A16.99791
G1 X112.046 Y106.017 A17.01761
G1 X112.234 Y106.309 A17.03166
G1 X112.416 Y106.653 A17.04738
G1 X112.586 Y107.070 A17.06556
G1 X112.689 Y107.407 A17.07981
G1 X112.786 Y107.890 A17.09971
G1 X112.823 Y108.262 A17.11484
G1 X112.827 Y108.663 A17.13103
G1 X112.798 Y109.028 A17.14585
G1 X112.687 Y109.596 A17.16923
G1 X112.660 Y109.700 A17.17356
G0 X111.973 Y109.504 F7800.000
G1 X111.839 Y109.883 F540.000 A17.18978
G1 X111.720 Y110.142 A17.20130
G1 X111.520 Y110.487 A17.21742
G1 X111.356 Y110.716 A17.22883
G1 X111.138 Y110.971 A17.24237
G1 X110.857 Y111.241 A17.25811
G1 X110.521 Y111.498 A17.27520
G1 X110.289 Y111.641 A17.28624
G1 X110.035 Y111.772 A17.29777
G1 X109.627 Y111.935 A17.31552
G1 X109.297 Y112.025 A17.32935
G1 X108.975 Y112.082 A17.34258
G1 X108.667 Y112.111 A17.35507
G1 X108.214 Y112.104 A17.37338
G1 X107.805 Y112.048 A17.39009
G1 X107.570 Y111.993 A17.39981
G1 X107.236 Y111.887 A17.41400
G1 X106.895 Y111.739 A17.42903
G1 X106.509 Y111.516 A17.44703
G1 X106.266 Y111.341 A17.45912
G1 X105.975 Y111.087 A17.47476
G1 X105.785 Y110.885 A17.48595
G1 X105.600 Y110.659 A17.49775
G1 X105.355 Y110.283 A17.51590
G1 X105.214 Y110.006 A17.52845
G1 X105.081 Y109.674 A17.54292
G1 X104.987 Y109.349 A17.55659
G1 X104.918 Y108.987 A17.57147
G1 X104.890 Y108.668 A17.58439
G1 X104.893 Y108.259 A17.60095
G1 X104.944 Y107.852 A17.61753
G1 X105.008 Y107.566 A17.62937
G1 X105.122 Y107.214 A17.64433
G1 X105.275 Y106.866 A17.65968
G1 X105.437 Y106.580 A17.67297
G1 X105.633 Y106.299 A17.68682
G1 X105.815 Y106.081 A17.69827
G1 X106.091 Y105.805 A17.71404
G1 X106.375 Y105.576 A17.72880
G1 X106.721 Y105.355 A17.74541
G1 X107.048 Y105.191 A17.76019
G1 X107.423 Y105.049 A17.77637
G1 X107.740 Y104.966 A17.78961
G1 X108.057 Y104.913 A17.80260
G1 X108.421 Y104.887 A17.81736
G1 X108.721 Y104.893 A17.82950
G1 X109.143 Y104.943 A17.84665
G1 X109.445 Y105.012 A17.85919
G1 X109.783 Y105.122 A17.87356
G1 X110.096 Y105.256 A17.88730
G1 X110.384 Y105.415 A17.90059
G1 X110.708 Y105.638 A17.91650
G1 X110.914 Y105.808 A17.92727
G1 X111.210 Y106.107 A17.94428
G1 X111.465 Y106.432 A17.96097
G1 X111.616 Y106.669 A17.97234
G1 X111.769 Y106.955 A17.98547
G1 X111.910 Y107.303 A18.00064
G1 X111.998 Y107.587 A18.01263
G1 X112.079 Y107.989 A18.02920
G1 X112.110 Y108.302 A18.04194
G1 X112.113 Y108.638 A18.05550
G1 X112.089 Y108.939 A18.06770
G1 X112.000 Y109.400 A18.08670
G1 X111.973 Y109.504 A18.09103
G0 X111.286 Y109.309 F7800.000
G1 X111.085 Y109.816 F540.000 A18.11310
G1 X110.795 Y110.273 A18.13496
G1 X110.619 Y110.481 A18.14595
G1 X110.392 Y110.698 A18.15868
G1 X110.119 Y110.908 A18.17259
G1 X109.930 Y111.024 A18.18156
G1 X109.736 Y111.124 A18.19036
G1 X109.410 Y111.254 A18.20453
G1 X108.884 Y111.374 A18.22636
G1 X108.644 Y111.397 A18.23608
G1 X108.271 Y111.392 A18.25116
G1 X107.755 Y111.303 A18.27231
G1 X107.487 Y111.218 A18.28371
G1 X107.213 Y111.099 A18.29577
G1 X106.895 Y110.916 A18.31061
G1 X106.703 Y110.776 A18.32022
G1 X106.322 Y110.415 A18.34142
G1 X106.174 Y110.233 A18.35088
G1 X105.978 Y109.933 A18.36537
G1 X105.755 Y109.439 A18.38729
G1 X105.682 Y109.182 A18.39806
G1 X105.625 Y108.886 A18.41026
G1 X105.603 Y108.639 A18.42026
G1 X105.606 Y108.304 A18.43380
G1 X105.646 Y107.983 A18.44687
G1 X105.697 Y107.754 A18.45636
G1 X105.787 Y107.476 A18.46819
G1 X105.912 Y107.190 A18.48080
G1 X106.041 Y106.961 A18.49141
G1 X106.200 Y106.733 A18.50266
G1 X106.411 Y106.490 A18.51566
G1 X106.645 Y106.270 A18.52864
G1 X107.077 Y105.973 A18.54983
G1 X107.349 Y105.839 A18.56208
G1 X107.636 Y105.731 A18.57445
G1 X108.143 Y105.622 A18.59544
G1 X108.677 Y105.606 A18.61703
G1 X109.013 Y105.646 A18.63070
G1 X109.263 Y105.702 A18.64105
G1 X109.781 Y105.898 A18.66343
G1 X110.010 Y106.024 A18.67400
G1 X110.269 Y106.201 A18.68668
G1 X110.439 Y106.342 A18.69559
G1 X110.675 Y106.580 A18.70913
G1 X110.999 Y107.028 A18.73147
G1 X111.122 Y107.258 A18.74200
G1 X111.235 Y107.536 A18.75417
G1 X111.306 Y107.766 A18.76389
G1 X111.371 Y108.088 A18.77714
G1 X111.399 Y108.613 A18.79840
G1 X111.380 Y108.849 A18.80798
G1 X111.313 Y109.205 A18.82261
G1 X111.286 Y109.309 A18.82694
G0 X111.761 Y109.842 F7800.000
G0 Z0.900 F540.000 A16.82694
G0 X105.133 Y129.427 F7800.000
G0 Z0.400
G0 F1800.000 A18.82694
G1 X104.328 Y127.881 F540.000 A18.89740
G1 X101.140 Y126.898 A19.03220
G1 X99.374 Y127.626 A19.10939
G1 X99.033 Y125.919 A19.17972
G1 X96.130 Y123.995 A19.32045
G1 X94.344 Y124.444 A19.39488
G1 X94.508 Y122.542 A19.47205
G1 X92.240 Y119.855 A19.61412
G1 X90.413 Y119.846 A19.68796
G1 X91.117 Y118.031 A19.76665
G1 X89.773 Y114.979 A19.90141
G1 X88.063 Y114.132 A19.97855
G1 X89.139 Y112.756 A20.04913
G1 X88.707 Y109.448 A20.18396
G1 X87.310 Y108.141 A20.26128
G1 X88.725 Y107.130 A20.33152
G1 X89.240 Y103.836 A20.46629
G1 X88.274 Y102.186 A20.54357
G1 X89.911 Y101.611 A20.61369
G1 X91.334 Y98.601 A20.74825
G1 X90.874 Y96.746 A20.82549
G1 X92.607 Y96.651 A20.89560
G1 X94.828 Y94.157 A21.03055
G1 X94.887 Y92.255 A21.10747
G1 X96.591 Y92.652 A21.17817
G1 X99.417 Y90.890 A21.31275
G1 X100.020 Y89.082 A21.38980
G1 X101.539 Y89.937 A21.46025
G1 X104.744 Y89.044 A21.59473
G1 X105.836 Y87.481 A21.67177
G1 X107.052 Y88.729 A21.74219
G1 X110.384 Y88.774 A21.87686
G1 X111.867 Y87.573 A21.95400
G1 X112.672 Y89.119 A22.02447
G1 X115.860 Y90.102 A22.15927
G1 X117.626 Y89.374 A22.23645
G1 X117.967 Y91.081 A22.30678
G1 X120.748 Y92.924 A22.44162
G1 X122.642 Y92.717 A22.51861
G1 X122.492 Y94.458 A22.58924
G1 X124.640 Y97.003 A22.72380
G1 X126.514 Y97.342 A22.80077
G1 X125.883 Y98.969 A22.87130
G1 X127.227 Y102.021 A23.00606
G1 X128.937 Y102.868 A23.08320
G1 X127.861 Y104.244 A23.15378
G1 X128.293 Y107.552 A23.28861
G1 X129.690 Y108.859 A23.36593
G1 X128.275 Y109.870 A23.43618
G1 X127.760 Y113.164 A23.57095
G1 X128.726 Y114.814 A23.64822
G1 X127.089 Y115.389 A23.71834
G1 X125.666 Y118.399 A23.85290
G1 X126.152 Y120.362 A23.93465
G1 X124.741 Y120.100 A23.99265
G1 X122.173 Y122.811 A24.14356
G1 X122.110 Y124.840 A24.22560
G1 X120.686 Y124.230 A24.28819
G1 X117.588 Y126.095 A24.43435
G1 X116.980 Y127.918 A24.51204
G1 X115.461 Y127.063 A24.58250
G1 X112.256 Y127.956 A24.71697
G1 X111.164 Y129.519 A24.79401
G1 X109.948 Y128.271 A24.86443
G1 X106.616 Y128.226 A24.99911
G1 X105.216 Y129.360 A25.07192
G1 X105.133 Y129.427 A25.07625
G0 X104.325 Y129.422 F7800.000
