; generated by Slic3r 0.9.8 on 2013-03-27 at 14:05:58

; layer_height = 0.3
; perimeters = 3
; top_solid_layers = 3
; bottom_solid_layers = 3
; fill_density = 0.4
; perimeter_speed = 30
; infill_speed = 40
; travel_speed = 130
; scale = 1
; nozzle_diameter = 0.4
; filament_diameter = 3
; extrusion_multiplier = 1
; perimeters extrusion width = 0.42mm
; infill extrusion width = 0.42mm
; support material extrusion width = 0.42mm
; first layer extrusion width = 0.80mm

M190 P115 ; wait for bed temperature to be reached
M104 P235 ; set temperature
G92 A0                  ; Reset A to 0
G40                        ; Cancel cutter compensation
G64 P0.1                ; Path Blend within .1mm
G0 X108.5 Y108.5  ; Move to center
M109 P235 ; wait for temperature to be reached
G90 ; use absolute coordinates
G21 ; set units to millimeters
G0 Z0.400 F1800.000 A-2.00000
G0 X126.753 Y125.763 F7800.000
G0 F1800.000 A0.00000
G1 X126.233 Y126.253 F540.000 A0.02887
G1 X125.673 Y126.693 A0.05766
G1 X125.383 Y126.893 A0.07189
G1 X118.833 Y131.223 A0.38921
G1 X118.183 Y131.613 A0.41984
G1 X117.493 Y131.943 A0.45075
G1 X117.143 Y132.083 A0.46599
G1 X116.393 Y132.343 A0.49807
G1 X115.713 Y132.533 A0.52660
G1 X115.363 Y132.603 A0.54103
G1 X114.663 Y132.693 A0.56955
G1 X113.953 Y132.723 A0.59827
G1 X104.033 Y132.743 A0.99917
G1 X103.703 Y132.723 A1.01253
G1 X103.053 Y132.643 A1.03899
G1 X102.413 Y132.513 A1.06539
G1 X101.773 Y132.333 A1.09226
G1 X101.163 Y132.103 A1.11860
G1 X100.863 Y131.963 A1.13198
G1 X95.023 Y129.203 A1.39302
G1 X94.483 Y128.923 A1.41761
G1 X92.953 Y128.053 A1.48873
G1 X92.373 Y127.693 A1.51632
G1 X92.093 Y127.493 A1.53023
G1 X91.563 Y127.063 A1.55781
G1 X91.223 Y126.753 A1.57640
G1 X90.983 Y126.513 A1.59012
G1 X90.543 Y126.003 A1.61734
G1 X90.333 Y125.733 A1.63117
G1 X89.953 Y125.173 A1.65852
G1 X85.553 Y118.053 A1.99677
G1 X85.253 Y117.523 A2.02138
G1 X84.993 Y116.963 A2.04633
G1 X84.773 Y116.383 A2.07140
G1 X84.593 Y115.793 A2.09633
G1 X84.413 Y114.893 A2.13342
G1 X84.353 Y114.283 A2.15819
G1 X83.793 Y105.303 A2.52181
G1 X83.793 Y104.293 A2.56262
G1 X83.863 Y103.623 A2.58985
G1 X84.013 Y102.813 A2.62314
G1 X84.093 Y102.503 A2.63608
G1 X84.183 Y102.193 A2.64912
G1 X84.403 Y101.583 A2.67533
G1 X84.673 Y100.983 A2.70192
G1 X84.823 Y100.703 A2.71476
G1 X84.983 Y100.423 A2.72779
G1 X85.343 Y99.873 A2.75436
G1 X85.743 Y99.363 A2.78055
G1 X92.213 Y91.733 A3.18484
G1 X96.193 Y87.203 A3.42853
G1 X96.913 Y86.523 A3.46855
G1 X97.443 Y86.123 A3.49539
G1 X98.313 Y85.593 A3.53656
G1 X98.893 Y85.283 A3.56314
G1 X99.503 Y85.023 A3.58993
G1 X100.973 Y84.523 A3.65268
G1 X101.623 Y84.333 A3.68005
G1 X102.293 Y84.203 A3.70763
G1 X102.633 Y84.153 A3.72152
G1 X103.313 Y84.103 A3.74908
G1 X110.423 Y84.183 A4.03643
G1 X110.833 Y84.193 A4.05301
G1 X113.203 Y84.343 A4.14898
G1 X113.883 Y84.413 A4.17660
G1 X114.543 Y84.543 A4.20379
G1 X115.203 Y84.723 A4.23144
G1 X115.523 Y84.833 A4.24511
G1 X122.093 Y87.583 A4.53295
G1 X122.683 Y87.853 A4.55917
G1 X123.253 Y88.173 A4.58559
G1 X123.793 Y88.543 A4.61204
G1 X124.043 Y88.743 A4.62498
G1 X125.703 Y90.183 A4.71379
G1 X126.403 Y90.933 A4.75525
G1 X126.813 Y91.473 A4.78265
G1 X130.963 Y97.503 A5.07848
G1 X131.163 Y97.813 A5.09338
G1 X131.523 Y98.443 A5.12271
G1 X131.943 Y99.453 A5.16691
G1 X132.553 Y101.223 A5.24257
G1 X132.723 Y101.893 A5.27051
G1 X132.833 Y102.573 A5.29835
G1 X132.873 Y102.913 A5.31218
G1 X133.473 Y110.583 A5.62310
G1 X133.463 Y111.333 A5.65341
G1 X133.433 Y111.703 A5.66841
G1 X133.313 Y112.453 A5.69911
G1 X133.013 Y113.953 A5.76093
G1 X132.863 Y114.603 A5.78789
G1 X132.653 Y115.233 A5.81473
G1 X132.523 Y115.543 A5.82831
G1 X129.243 Y122.453 A6.13743
G1 X128.933 Y123.053 A6.16472
G1 X128.363 Y123.903 A6.20608
G1 X127.533 Y124.893 A6.25829
G1 X126.826 Y125.684 A6.30118
G1 X126.753 Y125.763 A6.30551
G0 X126.233 Y125.263 F7800.000
G1 X126.003 Y125.493 F540.000 A6.31866
G1 X125.513 Y125.923 A6.34500
G1 X124.993 Y126.303 A6.37103
G1 X118.443 Y130.633 A6.68835
G1 X117.843 Y130.983 A6.71642
G1 X117.533 Y131.143 A6.73052
G1 X116.893 Y131.413 A6.75859
G1 X116.483 Y131.563 A6.77624
G1 X115.873 Y131.753 A6.80206
G1 X115.553 Y131.833 A6.81539
G1 X114.913 Y131.943 A6.84163
G1 X114.593 Y131.983 A6.85466
G1 X113.953 Y132.013 A6.88055
G1 X104.363 Y132.033 A7.26812
G1 X103.763 Y132.013 A7.29238
G1 X103.463 Y131.983 A7.30456
G1 X102.873 Y131.883 A7.32875
G1 X102.293 Y131.743 A7.35286
G1 X101.723 Y131.553 A7.37714
G1 X101.173 Y131.323 A7.40123
G1 X95.333 Y128.563 A7.66228
G1 X94.833 Y128.303 A7.68505
G1 X93.033 Y127.273 A7.76886
G1 X92.523 Y126.923 A7.79386
G1 X92.033 Y126.523 A7.81942
G1 X91.683 Y126.203 A7.83859
G1 X91.193 Y125.673 A7.86776
G1 X90.973 Y125.393 A7.88215
G1 X90.563 Y124.803 A7.91119
G1 X86.163 Y117.683 A8.24944
G1 X85.863 Y117.153 A8.27405
G1 X85.733 Y116.873 A8.28653
G1 X85.503 Y116.313 A8.31099
G1 X85.313 Y115.733 A8.33566
G1 X85.133 Y114.843 A8.37235
G1 X85.073 Y114.233 A8.39712
G1 X84.493 Y104.883 A8.77571
G1 X84.523 Y104.153 A8.80524
G1 X84.563 Y103.783 A8.82028
G1 X84.653 Y103.263 A8.84161
G1 X84.783 Y102.683 A8.86563
G1 X84.863 Y102.403 A8.87740
G1 X85.063 Y101.843 A8.90143
G1 X85.453 Y101.043 A8.93740
G1 X85.593 Y100.793 A8.94898
G1 X85.923 Y100.293 A8.97319
G1 X86.283 Y99.833 A8.99679
G1 X92.753 Y92.203 A9.40108
G1 X96.503 Y87.923 A9.63105
G1 X96.983 Y87.423 A9.65906
G1 X97.503 Y86.973 A9.68685
G1 X98.073 Y86.573 A9.71499
G1 X98.933 Y86.063 A9.75540
G1 X99.473 Y85.803 A9.77962
G1 X99.753 Y85.693 A9.79178
G1 X101.193 Y85.203 A9.85325
G1 X101.793 Y85.033 A9.87845
G1 X102.403 Y84.903 A9.90366
G1 X103.023 Y84.833 A9.92887
G1 X103.653 Y84.813 A9.95435
G1 X110.413 Y84.893 A10.22756
G1 X113.473 Y85.083 A10.35146
G1 X114.083 Y85.173 A10.37638
G1 X114.683 Y85.313 A10.40128
G1 X115.273 Y85.503 A10.42633
G1 X121.823 Y88.243 A10.71326
G1 X122.433 Y88.533 A10.74056
G1 X122.733 Y88.693 A10.75430
G1 X123.293 Y89.063 A10.78142
G1 X123.823 Y89.483 A10.80875
G1 X125.253 Y90.743 A10.88578
G1 X125.513 Y91.003 A10.90064
G1 X126.003 Y91.583 A10.93132
G1 X130.373 Y97.913 A11.24218
G1 X130.723 Y98.473 A11.26886
G1 X130.883 Y98.773 A11.28260
G1 X131.273 Y99.683 A11.32262
G1 X131.883 Y101.483 A11.39942
G1 X131.983 Y101.853 A11.41491
G1 X132.123 Y102.593 A11.44535
G1 X132.733 Y110.263 A11.75630
G1 X132.763 Y110.953 A11.78421
G1 X132.753 Y111.293 A11.79795
G1 X132.673 Y111.973 A11.82562
G1 X132.313 Y113.813 A11.90139
G1 X132.143 Y114.523 A11.93090
G1 X131.893 Y115.213 A11.96056
G1 X128.433 Y122.473 A12.28557
G1 X128.043 Y123.113 A12.31586
G1 X127.603 Y123.713 A12.34593
G1 X126.305 Y125.184 A12.42520
G1 X126.233 Y125.263 A12.42953
G0 X125.683 Y124.813 F7800.000
G1 X125.163 Y125.283 F540.000 A12.45786
G1 X124.593 Y125.703 A12.48647
G1 X117.783 Y130.203 A12.81635
G1 X116.943 Y130.623 A12.85430
G1 X116.653 Y130.743 A12.86698
G1 X115.963 Y130.983 A12.89651
G1 X115.113 Y131.193 A12.93189
G1 X114.823 Y131.243 A12.94378
G1 X114.243 Y131.293 A12.96731
G1 X104.063 Y131.313 A13.37872
G1 X103.463 Y131.263 A13.40305
G1 X103.173 Y131.213 A13.41494
G1 X102.303 Y131.003 A13.45111
G1 X101.473 Y130.673 A13.48721
G1 X95.633 Y127.913 A13.74825
G1 X95.183 Y127.683 A13.76867
G1 X93.653 Y126.813 A13.83980
G1 X93.173 Y126.513 A13.86268
G1 X92.723 Y126.173 A13.88547
G1 X92.183 Y125.693 A13.91467
G1 X91.953 Y125.453 A13.92810
G1 X91.543 Y124.963 A13.95392
G1 X91.173 Y124.423 A13.98038
G1 X86.773 Y117.303 A14.31863
G1 X86.353 Y116.513 A14.35479
G1 X86.233 Y116.233 A14.36710
G1 X86.043 Y115.663 A14.39138
G1 X85.893 Y115.083 A14.41559
G1 X85.803 Y114.493 A14.43971
G1 X85.223 Y105.213 A14.81548
G1 X85.213 Y104.543 A14.84256
G1 X85.233 Y104.213 A14.85592
G1 X85.323 Y103.553 A14.88284
G1 X85.483 Y102.833 A14.91264
G1 X85.663 Y102.283 A14.93603
G1 X85.773 Y102.013 A14.94781
G1 X85.893 Y101.743 A14.95975
G1 X86.163 Y101.233 A14.98308
G1 X86.473 Y100.753 A15.00617
G1 X86.653 Y100.513 A15.01829
G1 X93.303 Y92.663 A15.43407
G1 X97.253 Y88.163 A15.67605
G1 X97.703 Y87.733 A15.70120
G1 X98.193 Y87.343 A15.72651
G1 X98.723 Y87.003 A15.75196
G1 X99.513 Y86.573 A15.78831
G1 X99.753 Y86.463 A15.79898
G1 X100.263 Y86.273 A15.82097
G1 X101.733 Y85.783 A15.88359
G1 X102.363 Y85.633 A15.90976
G1 X102.673 Y85.583 A15.92245
G1 X103.323 Y85.533 A15.94880
G1 X103.643 Y85.533 A15.96173
G1 X110.403 Y85.613 A16.23494
G1 X113.113 Y85.773 A16.34465
G1 X113.753 Y85.843 A16.37067
G1 X114.373 Y85.973 A16.39627
G1 X114.983 Y86.163 A16.42209
G1 X121.543 Y88.903 A16.70940
G1 X122.103 Y89.163 A16.73435
G1 X122.883 Y89.643 A16.77137
G1 X123.363 Y90.023 A16.79611
G1 X124.763 Y91.253 A16.87142
G1 X125.223 Y91.753 A16.89888
G1 X125.433 Y92.013 A16.91238
G1 X129.783 Y98.313 A17.22178
G1 X130.163 Y98.933 A17.25117
G1 X130.473 Y99.583 A17.28027
G1 X131.203 Y101.683 A17.37012
G1 X131.413 Y102.693 A17.41181
G1 X132.043 Y110.633 A17.73370
G1 X132.033 Y111.253 A17.75876
G1 X131.973 Y111.863 A17.78353
G1 X131.543 Y113.993 A17.87135
G1 X131.353 Y114.623 A17.89794
G1 X131.233 Y114.933 A17.91137
G1 X127.803 Y122.133 A18.23368
G1 X127.453 Y122.713 A18.26106
G1 X127.053 Y123.253 A18.28822
G1 X125.756 Y124.734 A18.36779
G1 X125.683 Y124.813 A18.37212
G0 Z0.900 F540.000 A16.37212
G0 X123.506 Y121.264 F7800.000
G0 Z0.400
G0 F1800.000 A18.37212
G1 X123.126 Y121.360 F540.000 A18.38799
G1 X122.844 Y121.642 A18.40409
G1 X121.984 Y121.650 A18.43883
G1 X121.464 Y121.910 A18.46236
G1 X120.906 Y121.944 A18.48495
G1 X120.126 Y122.343 A18.52034
G1 X119.210 Y122.047 A18.55923
G1 X119.005 Y122.059 A18.56754
G1 X118.865 Y121.935 A18.57510
G1 X118.573 Y121.841 A18.58752
G1 X118.089 Y121.820 A18.60709
G1 X117.676 Y121.670 A18.62483
G1 X117.320 Y121.398 A18.64294
G1 X117.146 Y121.337 A18.65039
G1 X116.811 Y123.638 A18.74436
G1 X116.443 Y124.181 A18.77086
G1 X116.181 Y124.332 A18.78308
G1 X116.181 Y126.230 A18.85980
G1 X115.344 Y127.067 A18.90762
G1 X115.070 Y127.067 A18.91870
G1 X114.925 Y127.212 A18.92697
G1 X112.942 Y127.212 A19.00712
G1 X112.105 Y126.375 A19.05494
G1 X112.105 Y124.332 A19.13752
G1 X111.643 Y124.065 A19.15909
G1 X110.420 Y124.771 A19.21617
G1 X109.886 Y124.628 A19.23849
G1 X109.738 Y124.885 A19.25050
G1 X108.595 Y125.192 A19.29832
G1 X106.643 Y124.065 A19.38940
G1 X106.313 Y124.255 A19.40478
G1 X106.866 Y125.091 A19.44525
G1 X106.629 Y126.250 A19.49307
G1 X104.975 Y127.344 A19.57322
G1 X103.815 Y127.107 A19.62104
G1 X102.751 Y125.497 A19.69905
G1 X102.572 Y125.449 A19.70653
G1 X101.646 Y123.845 A19.78138
G1 X101.360 Y123.779 A19.79325
G1 X100.823 Y122.920 A19.83418
G1 X98.676 Y123.741 A19.92708
G1 X98.027 Y123.687 A19.95340
G1 X97.694 Y123.492 A19.96901
G1 X97.137 Y123.532 A19.99159
G1 X95.809 Y122.384 A20.06254
G1 X95.693 Y122.316 A20.06798
G1 X95.682 Y122.274 A20.06971
G1 X95.346 Y121.984 A20.08764
G1 X95.090 Y121.467 A20.11096
G1 X95.037 Y120.583 A20.14675
G1 X94.286 Y119.283 A20.20742
G1 X94.592 Y118.140 A20.25524
G1 X97.105 Y116.689 A20.37249
G1 X97.105 Y115.672 A20.41361
G1 X96.643 Y115.405 A20.43518
G1 X96.181 Y115.672 A20.45675
G1 X96.181 Y116.399 A20.48614
G1 X95.762 Y116.736 A20.50788
G1 X95.762 Y116.943 A20.51624
G1 X94.925 Y117.780 A20.56406
G1 X92.942 Y117.780 A20.64421
G1 X92.105 Y116.943 A20.69203
G1 X92.105 Y116.601 A20.70587
G1 X92.078 Y116.595 A20.70700
G1 X91.438 Y115.599 A20.75482
G1 X91.499 Y115.321 A20.76631
G1 X90.023 Y114.470 A20.83516
G1 X89.717 Y113.327 A20.88298
G1 X90.709 Y111.609 A20.96313
G1 X91.276 Y111.457 A20.98684
G1 X91.742 Y110.652 A21.02443
G1 X91.942 Y110.430 A21.03654
G1 X92.999 Y109.663 A21.08930
G1 X92.874 Y109.655 A21.09437
G1 X92.105 Y108.831 A21.13989
G1 X92.105 Y107.320 A21.20096
G1 X91.838 Y106.857 A21.22258
G1 X90.374 Y106.012 A21.29088
G1 X89.995 Y105.180 A21.32781
G1 X90.254 Y103.843 A21.38285
G1 X90.574 Y103.365 A21.40611
G1 X91.530 Y102.733 A21.45243
G1 X92.117 Y102.007 A21.49015
G1 X93.674 Y101.843 A21.55340
G1 X93.910 Y101.735 A21.56392
G1 X93.941 Y101.672 A21.56672
G1 X95.060 Y101.289 A21.61454
G1 X95.548 Y101.529 A21.63651
G1 X95.662 Y101.507 A21.64120
G1 X95.645 Y101.240 A21.65200
G1 X95.695 Y100.566 A21.67934
G1 X96.072 Y99.965 A21.70800
G1 X97.105 Y99.368 A21.75622
G1 X97.105 Y98.351 A21.79733
G1 X96.268 Y97.868 A21.83641
G1 X95.900 Y96.949 A21.87640
G1 X96.274 Y95.680 A21.92987
G1 X97.081 Y95.107 A21.96986
G1 X98.092 Y95.157 A22.01075
G1 X98.361 Y94.888 A22.02613
G1 X100.024 Y94.888 A22.09334
G1 X100.024 Y93.449 A22.15150
G1 X100.056 Y93.235 A22.16023
G1 X100.481 Y91.873 A22.21789
G1 X100.817 Y91.452 A22.23966
G1 X101.714 Y90.949 A22.28124
G1 X103.401 Y90.366 A22.35337
G1 X103.976 Y90.404 A22.37662
G1 X105.521 Y91.175 A22.44643
G1 X106.326 Y91.314 A22.47942
G1 X107.215 Y92.577 A22.54182
G1 X107.375 Y92.694 A22.54986
G1 X107.535 Y92.704 A22.55630
G1 X107.612 Y92.790 A22.56101
G1 X109.451 Y90.504 A22.67961
G1 X110.490 Y90.309 A22.72231
G1 X111.643 Y90.975 A22.77612
G1 X112.603 Y90.421 A22.82092
G1 X113.706 Y90.681 A22.86670
G1 X114.475 Y91.844 A22.92308
G1 X114.735 Y91.869 A22.93365
G1 X115.488 Y92.782 A22.98147
G1 X115.474 Y92.930 A22.98748
G1 X115.749 Y93.379 A23.00874
G1 X115.861 Y93.267 A23.01511
G1 X117.844 Y93.267 A23.09526
G1 X118.033 Y93.456 A23.10607
G1 X119.036 Y93.188 A23.14802
G1 X119.729 Y93.348 A23.17675
G1 X121.655 Y95.018 A23.27977
G1 X121.909 Y95.534 A23.30305
G1 X122.021 Y97.373 A23.37747
G1 X121.637 Y98.088 A23.41029
G1 X121.181 Y98.351 A23.43157
G1 X121.181 Y99.822 A23.49102
G1 X121.918 Y99.462 A23.52418
G1 X122.738 Y99.974 A23.56326
G1 X123.672 Y100.075 A23.60124
G1 X125.279 Y100.512 A23.66852
G1 X125.795 Y100.994 A23.69707
G1 X126.633 Y103.398 A23.79996
G1 X126.597 Y103.974 A23.82330
G1 X125.914 Y105.343 A23.88513
G1 X126.107 Y106.066 A23.91535
G1 X125.116 Y107.783 A23.99550
G1 X124.610 Y107.919 A24.01665
G1 X126.982 Y109.843 A24.14007
G1 X127.252 Y110.590 A24.17217
G1 X126.743 Y113.162 A24.27813
G1 X126.424 Y113.637 A24.30128
G1 X124.988 Y114.586 A24.37084
G1 X124.915 Y114.974 A24.38680
G1 X124.553 Y115.223 A24.40457
G1 X124.530 Y115.370 A24.41057
G1 X123.578 Y116.072 A24.45839
G1 X122.487 Y115.907 A24.50296
G1 X122.425 Y115.970 A24.50653
G1 X121.181 Y115.970 A24.55682
G1 X121.181 Y116.689 A24.58590
G1 X121.643 Y116.956 A24.60746
G1 X122.049 Y116.721 A24.62641
G1 X123.358 Y117.274 A24.68384
G1 X124.112 Y120.247 A24.80781
G1 X123.561 Y121.172 A24.85130
G1 X123.506 Y121.264 A24.85563
G0 Z0.900 F540.000 A22.85563
G0 X117.105 Y116.689 F7800.000
G0 Z0.400
G0 F1800.000 A24.85563
G1 X116.643 Y116.956 F540.000 A24.87720
G1 X116.181 Y116.689 A24.89877
G1 X116.181 Y115.672 A24.93989
G1 X116.643 Y115.405 A24.96146
G1 X117.105 Y115.672 A24.98303
G1 X117.105 Y116.582 A25.01982
G1 X117.105 Y116.689 A25.02415
G0 Z0.900 F540.000 A23.02415
G0 X102.105 Y116.689 F7800.000
G0 Z0.400
G0 F1800.000 A25.02415
G1 X101.643 Y116.956 F540.000 A25.04572
G1 X101.181 Y116.689 A25.06729
G1 X101.181 Y115.672 A25.10840
G1 X101.643 Y115.405 A25.12998
G1 X102.105 Y115.672 A25.15155
G1 X102.105 Y116.582 A25.18833
G1 X102.105 Y116.689 A25.19266
G0 Z0.900 F540.000 A23.19266
G0 X106.213 Y116.708 F7800.000
G0 Z0.400
G0 F1800.000 A25.19266
G1 X106.811 Y116.859 F540.000 A25.21759
G1 X106.643 Y116.956 A25.22542
G1 X106.306 Y116.761 A25.24116
G1 X106.213 Y116.708 A25.24549
G0 Z0.900 F540.000 A23.24549
G0 X111.181 Y116.689 F7800.000
G0 Z0.400
G0 F1800.000 A25.24549
G1 X111.181 Y116.590 F540.000 A25.24948
G1 X111.784 Y116.370 A25.27544
G1 X112.105 Y116.222 A25.28972
G1 X112.105 Y116.689 A25.30858
G1 X111.643 Y116.956 A25.33015
G1 X111.273 Y116.743 A25.34739
G1 X111.181 Y116.689 A25.35172
G0 Z0.900 F540.000 A23.35172
G0 X99.605 Y112.359 F7800.000
G0 Z0.400
G0 F1800.000 A25.35172
G1 X99.143 Y112.626 F540.000 A25.37329
