; generated by Slic3r 0.9.9 on 2013-07-18 at 16:16:45

; layer_height = 0.2
; perimeters = 3
; top_solid_layers = 3
; bottom_solid_layers = 3
; fill_density = 0.25
; perimeter_speed = 20
; infill_speed = 40
; travel_speed = 130
; nozzle_diameter = 0.4
; filament_diameter = 2.95
; extrusion_multiplier = 1.105263
; perimeters extrusion width = 0.56mm
; infill extrusion width = 0.56mm
; solid infill extrusion width = 0.56mm
; top infill extrusion width = 0.56mm

G21 ; set units to millimeters
M190 P115 ; wait for bed temperature to be reached
M104 P210 ; set temperature
G92 A0                  ; Reset A to 0
G40                        ; Cancel cutter compensation
G64 P0.1                ; Path Blend within .1mm
G0 X108.5 Y200    ; Move to plate
M109 P210 ; wait for temperature to be reached
G90 ; use absolute coordinates
G0 Z0.200 F5400.000 A-2.00000
o<wipe_nozzle> call
G0 X75.320 Y67.520 F7800.000
G0 F5400.000 A0.00000
G1 X75.930000 Y66.870000 Z0.200000 A0.015150 F360.000000
G3 X84.360000 Y63.430000 Z0.200000 A0.173840 I8.4162 J8.5753
G1 X132.800000 Y63.430000 Z0.200000 A0.997360
G3 X144.660000 Y75.880000 Z0.200000 A1.322880 I-0.1645 J12.0307
G1 X141.480000 Y142.180000 Z0.200000 A2.451330
G3 X129.580000 Y153.560000 Z0.200000 A2.759440 I-11.9960 J-0.6323
G1 X87.250000 Y153.560000 Z0.200000 A3.479090
G3 X75.500000 Y141.790000 Z0.200000 A3.791170 I0.2441 J-11.9937
G1 X72.330000 Y75.810000 Z0.200000 A4.914180
G3 X75.269000 Y67.580000 Z0.200000 A5.066240 I11.9166 J-0.3842
G0 X75.720 Y67.860 F7800.000
G1 X76.310000 Y67.240000 Z0.200000 A5.080790 F360.000000
G3 X84.360000 Y63.950000 Z0.200000 A5.232370 I8.0148 J8.1172
G1 X132.800000 Y63.950000 Z0.200000 A6.055890
G3 X144.140000 Y75.850000 Z0.200000 A6.366900 I-0.1842 J11.5287
G1 X140.960000 Y142.150000 Z0.200000 A7.495350
G3 X129.580000 Y153.040000 Z0.200000 A7.789940 I-11.5083 J-0.6351
G1 X87.540000 Y153.040000 Z0.200000 A8.504660
G3 X76.040000 Y142.270000 Z0.200000 A8.799440 I0.0018 J-11.5266
G1 X72.850000 Y75.780000 Z0.200000 A9.931130
G3 X75.669000 Y67.920000 Z0.200000 A10.076400 I11.4458 J-0.3305
G0 Z0.700 F1620.000 A8.07640
G0 X83.867 Y78.884 F7800.000
G0 Z0.200
G0 F5400.000 A10.07640
G1 X84.397000 Y78.805000 Z0.200000 A10.085580 F720.000000
G1 X84.397000 Y79.276000 Z0.200000 A10.093650
G1 X84.927000 Y79.689000 Z0.200000 A10.105160
G1 X84.927000 Y78.727000 Z0.200000 A10.121650
G1 X85.457000 Y78.589000 Z0.200000 A10.131030
G1 X85.457000 Y80.202000 Z0.200000 A10.158670
G1 X85.987000 Y80.872000 Z0.200000 A10.173320
G1 X85.987000 Y78.351000 Z0.200000 A10.216530
G1 X86.517000 Y77.979000 Z0.200000 A10.227620
G1 X86.517000 Y81.767000 Z0.200000 A10.292530
G1 X87.047000 Y83.357000 Z0.200000 A10.321260
G1 X87.047000 Y77.400000 Z0.200000 A10.423350
G1 X87.576000 Y76.294000 Z0.200000 A10.444350
G1 X87.576000 Y138.224000 Z0.200000 A11.505700
G1 X87.047000 Y138.265000 Z0.200000 A11.514810
G1 X87.047000 Y135.819000 Z0.200000 A11.556720
G1 X86.517000 Y137.347000 Z0.200000 A11.584440
G1 X86.517000 Y138.383000 Z0.200000 A11.602190
G1 X85.987000 Y138.278000 Z0.200000 A11.611450
G1 X85.987000 Y138.515000 Z0.200000 A11.615520
G0 X88.106 Y138.274 F7800.000
G1 X88.106000 Y76.568000 Z0.200000 A12.673030 F720.000000
G1 X88.636000 Y77.673000 Z0.200000 A12.694040
G1 X88.636000 Y138.413000 Z0.200000 A13.734980
G1 X89.166000 Y138.652000 Z0.200000 A13.744950
G1 X89.166000 Y104.785000 Z0.200000 A14.325350
G1 X89.696000 Y105.696000 Z0.200000 A14.343400
G1 X89.696000 Y139.025000 Z0.200000 A14.914600
G1 X90.226000 Y139.606000 Z0.200000 A14.928080
G1 X90.226000 Y106.133000 Z0.200000 A15.501740
G1 X90.756000 Y106.383000 Z0.200000 A15.511780
G1 X90.756000 Y140.300000 Z0.200000 A16.093040
G0 Z0.700 F1620.000 A14.09304
G0 X91.286 Y132.188 F7800.000
G0 Z0.200
G0 F5400.000 A16.09304
G1 X91.286000 Y106.492000 Z0.200000 A16.533420 F720.000000
G1 X91.816000 Y106.472000 Z0.200000 A16.542510
G1 X91.816000 Y130.863000 Z0.200000 A16.960520
G1 X92.346000 Y129.895000 Z0.200000 A16.979430
G1 X92.346000 Y106.344000 Z0.200000 A17.383040
G1 X92.875000 Y106.077000 Z0.200000 A17.393200
G1 X92.875000 Y129.139000 Z0.200000 A17.788430
G1 X93.405000 Y128.511000 Z0.200000 A17.802520
G1 X93.405000 Y105.573000 Z0.200000 A18.195620
G1 X93.935000 Y104.182000 Z0.200000 A18.221130
G1 X93.935000 Y127.976000 Z0.200000 A18.628890
G1 X94.465000 Y127.505000 Z0.200000 A18.641040
G1 X94.465000 Y82.340000 Z0.200000 A19.415070
G1 X94.995000 Y82.484000 Z0.200000 A19.424480
G1 X94.995000 Y127.112000 Z0.200000 A20.189310
G1 X95.525000 Y126.774000 Z0.200000 A20.200080
G1 X95.525000 Y82.615000 Z0.200000 A20.956880
G1 X96.055000 Y82.663000 Z0.200000 A20.966000
G1 X96.055000 Y126.467000 Z0.200000 A21.716720
G1 X96.585000 Y126.217000 Z0.200000 A21.726760
G1 X96.585000 Y82.709000 Z0.200000 A22.472400
G1 X97.115000 Y82.744000 Z0.200000 A22.481500
G1 X97.115000 Y125.996000 Z0.200000 A23.222760
G1 X97.645000 Y125.809000 Z0.200000 A23.232390
G1 X97.645000 Y82.744000 Z0.200000 A23.970440
G1 X98.174000 Y82.744000 Z0.200000 A23.979520
G1 X98.174000 Y125.664000 Z0.200000 A24.715070
G1 X98.704000 Y125.540000 Z0.200000 A24.724400
G1 X98.704000 Y82.744000 Z0.200000 A25.457840
G1 X99.234000 Y82.744000 Z0.200000 A25.466920
G1 X99.234000 Y125.459000 Z0.200000 A26.198960
G1 X99.764000 Y125.398000 Z0.200000 A26.208110
G1 X99.764000 Y82.744000 Z0.200000 A26.939100
G1 X100.294000 Y82.745000 Z0.200000 A26.948180
G1 X100.294000 Y125.371000 Z0.200000 A27.678700
G1 X100.824000 Y125.360000 Z0.200000 A27.687780
G1 X100.824000 Y82.745000 Z0.200000 A28.418110
G1 X101.354000 Y82.745000 Z0.200000 A28.427200
G1 X101.354000 Y125.360000 Z0.200000 A29.157530
G1 X101.884000 Y125.360000 Z0.200000 A29.166610
G1 X101.884000 Y82.745000 Z0.200000 A29.896940
G1 X102.414000 Y82.745000 Z0.200000 A29.906020
G1 X102.414000 Y125.360000 Z0.200000 A30.636340
G1 X102.944000 Y125.360000 Z0.200000 A30.645420
G1 X102.944000 Y82.745000 Z0.200000 A31.375750
G1 X103.474000 Y82.745000 Z0.200000 A31.384830
G1 X103.474000 Y125.360000 Z0.200000 A32.115150
G1 X104.003000 Y125.360000 Z0.200000 A32.124230
G1 X104.003000 Y82.746000 Z0.200000 A32.854550
G1 X104.533000 Y82.746000 Z0.200000 A32.863630
G1 X104.533000 Y125.360000 Z0.200000 A33.593950
G1 X105.063000 Y125.360000 Z0.200000 A33.603030
G1 X105.063000 Y82.746000 Z0.200000 A34.333340
G1 X105.593000 Y82.746000 Z0.200000 A34.342420
G1 X105.593000 Y125.360000 Z0.200000 A35.072730
G1 X106.123000 Y125.360000 Z0.200000 A35.081810
G1 X106.123000 Y82.746000 Z0.200000 A35.812120
G1 X106.653000 Y82.746000 Z0.200000 A35.821200
G1 X106.653000 Y125.360000 Z0.200000 A36.551510
G1 X107.183000 Y125.360000 Z0.200000 A36.560590
G1 X107.183000 Y82.747000 Z0.200000 A37.290890
G1 X107.713000 Y82.747000 Z0.200000 A37.299970
G1 X107.713000 Y125.360000 Z0.200000 A38.030270
G1 X108.243000 Y125.360000 Z0.200000 A38.039360
G1 X108.243000 Y82.747000 Z0.200000 A38.769650
G1 X108.773000 Y82.747000 Z0.200000 A38.778730
G1 X108.773000 Y125.360000 Z0.200000 A39.509030
G1 X109.302000 Y125.360000 Z0.200000 A39.518110
G1 X109.302000 Y82.747000 Z0.200000 A40.248400
G1 X109.832000 Y82.747000 Z0.200000 A40.257480
G1 X109.832000 Y125.360000 Z0.200000 A40.987770
G1 X110.362000 Y125.360000 Z0.200000 A40.996860
G1 X110.362000 Y82.747000 Z0.200000 A41.727140
G1 X110.892000 Y82.748000 Z0.200000 A41.736220
G1 X110.892000 Y125.360000 Z0.200000 A42.466510
G1 X111.422000 Y125.360000 Z0.200000 A42.475590
G1 X111.422000 Y82.748000 Z0.200000 A43.205870
G1 X111.952000 Y82.748000 Z0.200000 A43.214950
G1 X111.952000 Y125.360000 Z0.200000 A43.945230
G1 X112.482000 Y125.360000 Z0.200000 A43.954320
G1 X112.482000 Y82.748000 Z0.200000 A44.684590
G1 X113.012000 Y82.748000 Z0.200000 A44.693670
G1 X113.012000 Y125.360000 Z0.200000 A45.423950
G1 X113.542000 Y125.360000 Z0.200000 A45.433030
G1 X113.542000 Y82.748000 Z0.200000 A46.163300
G1 X114.072000 Y82.748000 Z0.200000 A46.172380
G1 X114.072000 Y125.360000 Z0.200000 A46.902650
G1 X114.601000 Y125.360000 Z0.200000 A46.911730
G1 X114.601000 Y82.749000 Z0.200000 A47.642000
G1 X115.131000 Y82.749000 Z0.200000 A47.651080
G1 X115.131000 Y125.360000 Z0.200000 A48.381350
G1 X115.661000 Y125.360000 Z0.200000 A48.390430
G1 X115.661000 Y82.749000 Z0.200000 A49.120690
G1 X116.191000 Y82.749000 Z0.200000 A49.129770
G1 X116.191000 Y125.360000 Z0.200000 A49.860030
G1 X116.721000 Y125.372000 Z0.200000 A49.869110
G1 X116.721000 Y82.749000 Z0.200000 A50.599580
G1 X117.251000 Y82.749000 Z0.200000 A50.608660
G1 X117.251000 Y125.400000 Z0.200000 A51.339600
G1 X117.781000 Y125.460000 Z0.200000 A51.348740
G1 X117.781000 Y82.750000 Z0.200000 A52.080710
G1 X118.311000 Y82.750000 Z0.200000 A52.089790
G1 X118.311000 Y125.539000 Z0.200000 A52.823100
G1 X118.841000 Y125.669000 Z0.200000 A52.832450
G1 X118.841000 Y82.750000 Z0.200000 A53.567990
G1 X119.371000 Y82.750000 Z0.200000 A53.577070
G1 X119.371000 Y125.817000 Z0.200000 A54.315150
G1 X119.900000 Y126.005000 Z0.200000 A54.324790
G1 X119.900000 Y82.750000 Z0.200000 A55.066090
G1 X120.430000 Y82.707000 Z0.200000 A55.075200
G1 X120.430000 Y126.222000 Z0.200000 A55.820960
G1 X120.960000 Y126.475000 Z0.200000 A55.831020
G1 X120.960000 Y82.661000 Z0.200000 A56.581890
G1 X121.490000 Y82.615000 Z0.200000 A56.591010
G1 X121.490000 Y126.786000 Z0.200000 A57.348000
G1 X122.020000 Y127.124000 Z0.200000 A57.358770
G1 X122.020000 Y82.481000 Z0.200000 A58.123850
G1 X122.550000 Y82.341000 Z0.200000 A58.133240
G1 X122.550000 Y127.517000 Z0.200000 A58.907470
G1 X123.080000 Y127.988000 Z0.200000 A58.919620
G1 X123.080000 Y104.373000 Z0.200000 A59.324320
G0 X123.080 Y103.737 F7800.000
G1 X123.080000 Y82.200000 Z0.200000 A59.693420 F720.000000
G1 X123.610000 Y81.969000 Z0.200000 A59.703330
G1 X123.610000 Y102.519000 Z0.200000 A60.055520
G1 X124.140000 Y102.020000 Z0.200000 A60.067990
G1 X124.140000 Y81.724000 Z0.200000 A60.415820
G1 X124.670000 Y81.479000 Z0.200000 A60.425830
G1 X124.670000 Y101.762000 Z0.200000 A60.773420
G1 X125.200000 Y101.637000 Z0.200000 A60.782750
G1 X125.200000 Y81.113000 Z0.200000 A61.134500
G1 X125.729000 Y80.746000 Z0.200000 A61.145540
G1 X125.729000 Y101.630000 Z0.200000 A61.503440
G1 X126.259000 Y101.740000 Z0.200000 A61.512720
G1 X126.259000 Y80.317000 Z0.200000 A61.879860
G1 X126.789000 Y79.795000 Z0.200000 A61.892610
G1 X126.789000 Y101.982000 Z0.200000 A62.272860
G1 X127.319000 Y102.432000 Z0.200000 A62.284770
G1 X127.319000 Y79.239000 Z0.200000 A62.682240
G1 X127.849000 Y78.497000 Z0.200000 A62.697870
G1 X127.849000 Y103.407000 Z0.200000 A63.124780
G0 X127.849 Y104.703 F7800.000
G1 X127.849000 Y138.643000 Z0.200000 A63.706440 F720.000000
G1 X128.379000 Y138.407000 Z0.200000 A63.716380
G1 X128.379000 Y77.640000 Z0.200000 A64.757810
G1 X128.909000 Y76.534000 Z0.200000 A64.778820
G1 X128.909000 Y138.272000 Z0.200000 A65.836870
G1 X129.439000 Y138.224000 Z0.200000 A65.845990
G1 X129.439000 Y76.336000 Z0.200000 A66.906610
G1 X129.969000 Y77.420000 Z0.200000 A66.927270
G1 X129.969000 Y83.291000 Z0.200000 A67.027900
G1 X130.499000 Y81.741000 Z0.200000 A67.055990
G1 X130.499000 Y77.993000 Z0.200000 A67.120220
G1 X131.028000 Y78.359000 Z0.200000 A67.131270
G1 X131.028000 Y80.853000 Z0.200000 A67.174010
G1 X131.558000 Y80.182000 Z0.200000 A67.188660
G1 X131.558000 Y78.594000 Z0.200000 A67.215870
G1 X132.088000 Y78.729000 Z0.200000 A67.225240
G1 X132.088000 Y79.674000 Z0.200000 A67.241450
G1 X132.618000 Y79.262000 Z0.200000 A67.252950
G1 X132.618000 Y78.807000 Z0.200000 A67.260750
G1 X133.148000 Y78.886000 Z0.200000 A67.269930
G0 Z0.700 F1620.000 A65.26993
G0 X127.319 Y105.678 F7800.000
G0 Z0.200
G0 F5400.000 A67.26993
G1 X127.319000 Y139.011000 Z0.200000 A67.841190 F720.000000
G1 X126.789000 Y139.586000 Z0.200000 A67.854590
G1 X126.789000 Y106.128000 Z0.200000 A68.428000
G1 X126.259000 Y106.370000 Z0.200000 A68.437980
G1 X126.259000 Y140.301000 Z0.200000 A69.019480
G0 Z0.700 F1620.000 A67.01948
G0 X129.969 Y138.267 F7800.000
G0 Z0.200
G0 F5400.000 A69.01948
G1 X129.969000 Y135.878000 Z0.200000 A69.060430 F720.000000
G1 X130.499000 Y137.378000 Z0.200000 A69.087700
G1 X130.499000 Y138.386000 Z0.200000 A69.104980
G1 X131.028000 Y138.303000 Z0.200000 A69.114180
G1 X131.028000 Y138.519000 Z0.200000 A69.117890
G0 Z0.700 F1620.000 A67.11789
G0 X125.729 Y132.225 F7800.000
G0 Z0.200
G0 F5400.000 A69.11789
G1 X125.729000 Y106.480000 Z0.200000 A69.559100 F720.000000
G1 X125.200000 Y106.479000 Z0.200000 A69.568180
G1 X125.200000 Y130.889000 Z0.200000 A69.986520
G1 X124.670000 Y129.922000 Z0.200000 A70.005420
G1 X124.670000 Y106.347000 Z0.200000 A70.409440
G1 X124.140000 Y106.075000 Z0.200000 A70.419640
G1 X124.140000 Y129.161000 Z0.200000 A70.815280
G1 X123.610000 Y128.533000 Z0.200000 A70.829370
G1 X123.610000 Y105.609000 Z0.200000 A71.222230
G0 Z0.700 F1620.000 A69.22223
G0 X93.935 Y103.928 F7800.000
G0 Z0.200
G0 F5400.000 A71.22223
G1 X93.935000 Y82.196000 Z0.200000 A71.594650 F720.000000
G1 X93.405000 Y81.973000 Z0.200000 A71.604510
G1 X93.405000 Y102.537000 Z0.200000 A71.956920
G1 X92.875000 Y102.033000 Z0.200000 A71.969460
G1 X92.875000 Y81.728000 Z0.200000 A72.317440
G1 X92.346000 Y81.482000 Z0.200000 A72.327450
G1 X92.346000 Y101.766000 Z0.200000 A72.675070
G1 X91.816000 Y101.638000 Z0.200000 A72.684410
G1 X91.816000 Y81.120000 Z0.200000 A73.036050
G1 X91.286000 Y80.757000 Z0.200000 A73.047060
G1 X91.286000 Y101.628000 Z0.200000 A73.404760
G1 X90.756000 Y101.735000 Z0.200000 A73.414030
G1 X90.756000 Y80.333000 Z0.200000 A73.780820
G1 X90.226000 Y79.811000 Z0.200000 A73.793570
G1 X90.226000 Y101.974000 Z0.200000 A74.173410
G1 X89.696000 Y102.406000 Z0.200000 A74.185120
G1 X89.696000 Y79.245000 Z0.200000 A74.582040
G1 X89.166000 Y78.514000 Z0.200000 A74.597530
G1 X89.166000 Y103.325000 Z0.200000 A75.022730
G0 Z0.700 F1620.000 A73.02273
G0 X83.457 Y78.640 F7800.000
G0 Z0.200
G0 F5400.000 A75.02273
G1 X83.457000 Y78.712000 Z0.200000 A75.023350 F360.000000
G3 X81.594000 Y77.271000 Z0.200000 A75.044180 I1.3232 J-3.6355
G1 X81.594000 Y77.242000 Z0.200000 A75.044430
G1 X81.328000 Y76.735000 Z0.200000 A75.049370
G0 X81.062 Y75.459 F7800.000
G1 X81.328000 Y74.185000 Z0.200000 A75.060560 F360.000000
G3 X83.724000 Y72.253000 Z0.200000 A75.088890 I2.9764 J1.2395
G1 X83.724000 Y72.236000 Z0.200000 A75.089040
G1 X84.788000 Y72.201000 Z0.200000 A75.098530
G1 X84.788000 Y72.219000 Z0.200000 A75.098690
G1 X85.587000 Y72.424000 Z0.200000 A75.106180
G1 X85.853000 Y72.522000 Z0.200000 A75.108630
G1 X86.651000 Y73.111000 Z0.200000 A75.117570
G1 X86.918000 Y73.373000 Z0.200000 A75.120780
G1 X87.450000 Y74.270000 Z0.200000 A75.129870
G1 X87.450000 Y74.330000 Z0.200000 A75.130390
G1 X87.716000 Y75.221000 Z0.200000 A75.138400
G0 Z0.700 F1620.000 A73.13840
G0 X129.283 Y75.222 F7800.000
G0 Z0.200
G0 F5400.000 A75.13840
G1 X129.549000 Y74.295000 Z0.200000 A75.146700 F360.000000
G3 X135.937000 Y75.523000 Z0.200000 A75.227070 I3.0867 J1.1723
G1 X135.671000 Y76.779000 Z0.200000 A75.238120
G3 X133.542000 Y78.640000 Z0.200000 A75.263760 I-2.9971 J-1.2804
G1 X133.542000 Y78.712000 Z0.200000 A75.264380
G0 Z0.700 F1620.000 A73.26438
G0 X132.759 Y141.356 F7800.000
G0 Z0.200
G0 F5400.000 A75.26438
G1 X132.494000 Y140.220000 Z0.200000 A75.274360 F360.000000
G2 X131.436000 Y138.858000 Z0.200000 A75.289560 I-3.2356 J1.4215
G0 Z0.700 F1620.000 A73.28956
G0 X126.409 Y142.762 F7800.000
G0 Z0.200
G0 F5400.000 A75.28956
G1 X126.409000 Y142.798000 Z0.200000 A75.289860 F360.000000
G2 X132.494000 Y142.783000 Z0.200000 A75.357650 I3.0394 J-1.2639
G0 Z0.700 F1620.000 A73.35765
G0 X126.144 Y141.470 F7800.000
G0 Z0.200
G0 F5400.000 A75.35765
G1 X126.144000 Y140.129000 Z0.200000 A75.369120 F360.000000
G1 X126.409000 Y140.216000 Z0.200000 A75.371510
G1 X126.409000 Y140.277000 Z0.200000 A75.372030
