; generated by Slic3r 0.9.8 on 2013-03-29 at 11:33:46

; layer_height = 0.3
; perimeters = 3
; top_solid_layers = 3
; bottom_solid_layers = 3
; fill_density = 0.4
; perimeter_speed = 30
; infill_speed = 40
; travel_speed = 130
; scale = 1
; nozzle_diameter = 0.4
; filament_diameter = 3
; extrusion_multiplier = 1
; perimeters extrusion width = 0.42mm
; infill extrusion width = 0.42mm
; first layer extrusion width = 0.42mm

M190 P115 ; wait for bed temperature to be reached
M104 P235 ; set temperature
G92 A0                  ; Reset A to 0
G40                        ; Cancel cutter compensation
G64 P0.1                ; Path Blend within .1mm
G0 X108.5 Y108.5  ; Move to center
M109 P235 ; wait for temperature to be reached
G90 ; use absolute coordinates
G21 ; set units to millimeters
G0 Z0.400 F1800.000 A-2.00000
G0 X124.423 Y125.523 F7800.000
G0 F1800.000 A0.00000
G1 X124.053000 Y125.863000 Z0.400000 A0.011820 F540.000000
G1 X124.053000 Y125.863000 Z0.400000 A0.011820 F540.000000
G3 X115.243000 Y130.823000 Z0.400000 A0.251210 I-16.5053 J-19.0127
G1 X115.243000 Y130.823000 Z0.400000 A0.251210
G1 X115.243000 Y130.823000 Z0.400000 A0.251210
G3 X111.633000 Y131.593000 Z0.400000 A0.338110 I-6.2015 J-20.2273
G1 X111.633000 Y131.593000 Z0.400000 A0.338110
G1 X110.523000 Y131.703000 Z0.400000 A0.364350
G1 X107.433000 Y131.753000 Z0.400000 A0.437050
G1 X107.433000 Y131.753000 Z0.400000 A0.437050
G3 X104.293000 Y131.393000 Z0.400000 A0.511430 I1.0774 J-23.2710
G1 X104.293000 Y131.393000 Z0.400000 A0.511430
G1 X101.313000 Y130.903000 Z0.400000 A0.582480
G1 X101.313000 Y130.903000 Z0.400000 A0.582480
G3 X99.813000 Y130.473000 Z0.400000 A0.619240 I1.1090 J-6.6998
G1 X99.813000 Y130.473000 Z0.400000 A0.619240
G1 X99.813000 Y130.473000 Z0.400000 A0.619240
G3 X98.713000 Y129.893000 Z0.400000 A0.648520 I3.4777 J-7.9287
G1 X98.713000 Y129.893000 Z0.400000 A0.648520
G1 X98.713000 Y129.893000 Z0.400000 A0.648520
G3 X94.423000 Y127.033000 Z0.400000 A0.769820 I52.7150 J-83.7200
G1 X94.423000 Y127.033000 Z0.400000 A0.769820
G1 X94.423000 Y127.033000 Z0.400000 A0.769820
G3 X91.123000 Y124.053000 Z0.400000 A0.874520 I15.5398 J-20.5257
G1 X91.123000 Y124.053000 Z0.400000 A0.874520
G1 X91.123000 Y124.053000 Z0.400000 A0.874520
G3 X86.163000 Y115.243000 Z0.400000 A1.113900 I19.0127 J-16.5053
G1 X86.163000 Y115.243000 Z0.400000 A1.113900
G1 X86.163000 Y115.243000 Z0.400000 A1.113900
G3 X85.403000 Y111.603000 Z0.400000 A1.201450 I21.1037 J-6.3056
G1 X85.403000 Y111.603000 Z0.400000 A1.201450
G1 X85.293000 Y110.553000 Z0.400000 A1.226280
G1 X85.233000 Y107.433000 Z0.400000 A1.299690
G1 X85.233000 Y107.433000 Z0.400000 A1.299690
G3 X85.603000 Y104.263000 Z0.400000 A1.374810 I21.4538 J0.8975
G1 X85.603000 Y104.263000 Z0.400000 A1.374810
G1 X86.133000 Y101.023000 Z0.400000 A1.452050
G1 X86.133000 Y101.023000 Z0.400000 A1.452050
G3 X86.633000 Y99.533000 Z0.400000 A1.489070 I6.8633 J1.4742
G1 X86.633000 Y99.533000 Z0.400000 A1.489070
G1 X86.633000 Y99.533000 Z0.400000 A1.489070
G3 X87.093000 Y98.713000 Z0.400000 A1.511200 I5.9700 J2.8100
G1 X87.093000 Y98.713000 Z0.400000 A1.511200
G1 X87.093000 Y98.713000 Z0.400000 A1.511200
G3 X89.953000 Y94.423000 Z0.400000 A1.632500 I83.7200 J52.7150
G1 X89.953000 Y94.423000 Z0.400000 A1.632500
G1 X89.953000 Y94.423000 Z0.400000 A1.632500
G3 X92.943000 Y91.113000 Z0.400000 A1.737530 I20.5595 J15.5664
G1 X92.943000 Y91.113000 Z0.400000 A1.737530
G1 X92.943000 Y91.113000 Z0.400000 A1.737530
G3 X101.733000 Y86.163000 Z0.400000 A1.976340 I16.6266 J19.2454
G1 X101.733000 Y86.163000 Z0.400000 A1.976340
G1 X101.733000 Y86.163000 Z0.400000 A1.976340
G3 X105.383000 Y85.403000 Z0.400000 A2.064150 I4.8183 J13.9959
G1 X105.383000 Y85.403000 Z0.400000 A2.064150
G1 X106.433000 Y85.293000 Z0.400000 A2.088990
G1 X109.553000 Y85.233000 Z0.400000 A2.162400
G1 X109.553000 Y85.233000 Z0.400000 A2.162400
G3 X112.723000 Y85.603000 Z0.400000 A2.237520 I-0.8975 J21.4538
G1 X112.723000 Y85.603000 Z0.400000 A2.237520
G1 X115.963000 Y86.133000 Z0.400000 A2.314750
G1 X115.963000 Y86.133000 Z0.400000 A2.314750
G3 X117.463000 Y86.633000 Z0.400000 A2.352010 I-1.5473 J7.1419
G1 X117.463000 Y86.633000 Z0.400000 A2.352010
G1 X117.463000 Y86.633000 Z0.400000 A2.352010
G3 X120.653000 Y88.633000 Z0.400000 A2.440630 I-7.8865 J16.1230
G1 X120.653000 Y88.633000 Z0.400000 A2.440630
G1 X122.583000 Y89.963000 Z0.400000 A2.495770
G1 X122.583000 Y89.963000 Z0.400000 A2.495770
G3 X125.703000 Y92.753000 Z0.400000 A2.594280 I-17.0308 J22.1847
G1 X125.703000 Y92.753000 Z0.400000 A2.594280
G1 X125.703000 Y92.753000 Z0.400000 A2.594280
G3 X130.823000 Y101.733000 Z0.400000 A2.839090 I-18.8299 J16.6856
G1 X130.823000 Y101.733000 Z0.400000 A2.839090
G1 X130.823000 Y101.733000 Z0.400000 A2.839090
G3 X131.593000 Y105.353000 Z0.400000 A2.926220 I-20.8403 J6.3248
G1 X131.593000 Y105.353000 Z0.400000 A2.926220
G1 X131.703000 Y106.463000 Z0.400000 A2.952460
G1 X131.753000 Y109.553000 Z0.400000 A3.025160
G1 X131.753000 Y109.553000 Z0.400000 A3.025160
G3 X131.393000 Y112.693000 Z0.400000 A3.099550 I-23.2710 J-1.0774
G1 X131.393000 Y112.693000 Z0.400000 A3.099550
G1 X130.903000 Y115.683000 Z0.400000 A3.170820
G1 X130.903000 Y115.683000 Z0.400000 A3.170820
G3 X130.473000 Y117.183000 Z0.400000 A3.207590 I-6.6998 J-1.1090
G1 X130.473000 Y117.183000 Z0.400000 A3.207590
G1 X130.473000 Y117.183000 Z0.400000 A3.207590
G3 X129.893000 Y118.283000 Z0.400000 A3.236860 I-7.9287 J-3.4777
G1 X129.893000 Y118.283000 Z0.400000 A3.236860
G1 X129.893000 Y118.283000 Z0.400000 A3.236860
G3 X127.023000 Y122.583000 Z0.400000 A3.358490 I-80.5787 J-50.6738
G1 X127.023000 Y122.583000 Z0.400000 A3.358490
G1 X127.023000 Y122.583000 Z0.400000 A3.358490
G3 X124.423000 Y125.523000 Z0.400000 A3.450850 I-22.5334 J-17.3079
G1 X124.423000 Y125.523000 Z0.400000 A3.450850
G0 X124.123 Y125.223 F7800.000
G1 X123.603000 Y125.703000 Z0.400000 A3.467500 F540.000000
G1 X123.603000 Y125.703000 Z0.400000 A3.467500 F540.000000
G3 X115.093000 Y130.433000 Z0.400000 A3.697960 I-16.0423 J-18.8422
G1 X115.093000 Y130.433000 Z0.400000 A3.697960
G1 X115.093000 Y130.433000 Z0.400000 A3.697960
G3 X111.563000 Y131.183000 Z0.400000 A3.782930 I-5.9551 J-19.3464
G1 X111.563000 Y131.183000 Z0.400000 A3.782930
G1 X110.513000 Y131.283000 Z0.400000 A3.807740
G1 X107.433000 Y131.343000 Z0.400000 A3.880210
G1 X107.433000 Y131.343000 Z0.400000 A3.880210
G3 X104.343000 Y130.983000 Z0.400000 A3.953420 I1.2605 J-24.2606
G1 X104.343000 Y130.983000 Z0.400000 A3.953420
G1 X101.383000 Y130.493000 Z0.400000 A4.024000
G1 X101.383000 Y130.493000 Z0.400000 A4.024000
G3 X99.703000 Y129.973000 Z0.400000 A4.065490 I0.9585 J-6.0705
G1 X99.703000 Y129.973000 Z0.400000 A4.065490
G1 X99.703000 Y129.973000 Z0.400000 A4.065490
G3 X98.933000 Y129.543000 Z0.400000 A4.086250 I2.7683 J-5.8617
G1 X98.933000 Y129.543000 Z0.400000 A4.086250
G1 X98.933000 Y129.543000 Z0.400000 A4.086250
G3 X94.653000 Y126.693000 Z0.400000 A4.207220 I54.9656 J-87.1836
G1 X94.653000 Y126.693000 Z0.400000 A4.207220
G1 X94.653000 Y126.693000 Z0.400000 A4.207220
G3 X91.433000 Y123.783000 Z0.400000 A4.309380 I17.5577 J-22.6646
G1 X91.433000 Y123.783000 Z0.400000 A4.309380
G1 X91.433000 Y123.783000 Z0.400000 A4.309380
G3 X86.553000 Y115.093000 Z0.400000 A4.545350 I18.7912 J-16.2677
G1 X86.553000 Y115.093000 Z0.400000 A4.545350
G1 X86.553000 Y115.093000 Z0.400000 A4.545350
G3 X85.813000 Y111.533000 Z0.400000 A4.630950 I20.3064 J-6.0779
G1 X85.813000 Y111.533000 Z0.400000 A4.630950
G1 X85.713000 Y110.543000 Z0.400000 A4.654360
G1 X85.643000 Y107.433000 Z0.400000 A4.727540
G1 X85.643000 Y107.433000 Z0.400000 A4.727540
G3 X86.043000 Y104.173000 Z0.400000 A4.804830 I28.0798 J1.7908
G1 X86.043000 Y104.173000 Z0.400000 A4.804830
G1 X86.543000 Y101.113000 Z0.400000 A4.877760
G1 X86.543000 Y101.113000 Z0.400000 A4.877760
G3 X87.013000 Y99.713000 Z0.400000 A4.912570 I5.9970 J1.2344
G1 X87.013000 Y99.713000 Z0.400000 A4.912570
G1 X87.013000 Y99.713000 Z0.400000 A4.912570
G3 X87.443000 Y98.933000 Z0.400000 A4.933530 I4.9030 J2.1944
G1 X87.443000 Y98.933000 Z0.400000 A4.933530
G1 X87.443000 Y98.933000 Z0.400000 A4.933530
G3 X90.293000 Y94.653000 Z0.400000 A5.054510 I87.1836 J54.9656
G1 X90.293000 Y94.653000 Z0.400000 A5.054510
G1 X90.293000 Y94.653000 Z0.400000 A5.054510
G3 X92.863000 Y91.753000 Z0.400000 A5.145700 I23.3714 J18.1231
G1 X92.863000 Y91.753000 Z0.400000 A5.145700
G1 X92.863000 Y91.753000 Z0.400000 A5.145700
G3 X101.883000 Y86.553000 Z0.400000 A5.392410 I15.6881 J16.7896
G1 X101.883000 Y86.553000 Z0.400000 A5.392410
G1 X101.883000 Y86.553000 Z0.400000 A5.392410
G3 X105.453000 Y85.813000 Z0.400000 A5.478280 I4.5394 J12.9183
G1 X105.453000 Y85.813000 Z0.400000 A5.478280
G1 X106.443000 Y85.713000 Z0.400000 A5.501680
G1 X109.553000 Y85.643000 Z0.400000 A5.574860
G1 X109.553000 Y85.643000 Z0.400000 A5.574860
G3 X112.813000 Y86.043000 Z0.400000 A5.652150 I-1.7908 J28.0798
G1 X112.813000 Y86.043000 Z0.400000 A5.652150
G1 X115.883000 Y86.543000 Z0.400000 A5.725320
G1 X115.883000 Y86.543000 Z0.400000 A5.725320
G3 X117.283000 Y87.013000 Z0.400000 A5.760120 I-1.2344 J5.9970
G1 X117.283000 Y87.013000 Z0.400000 A5.760120
G1 X117.283000 Y87.013000 Z0.400000 A5.760120
G3 X120.433000 Y88.983000 Z0.400000 A5.847580 I-8.7712 J17.5284
G1 X120.433000 Y88.983000 Z0.400000 A5.847580
G1 X122.343000 Y90.303000 Z0.400000 A5.902200
G1 X122.343000 Y90.303000 Z0.400000 A5.902200
G3 X125.393000 Y93.033000 Z0.400000 A5.998550 I-17.1918 J22.2757
G1 X125.393000 Y93.033000 Z0.400000 A5.998550
G1 X125.393000 Y93.033000 Z0.400000 A5.998550
G3 X130.433000 Y101.883000 Z0.400000 A6.239770 I-17.3386 J15.7343
G1 X130.433000 Y101.883000 Z0.400000 A6.239770
G1 X130.433000 Y101.883000 Z0.400000 A6.239770
G3 X131.183000 Y105.423000 Z0.400000 A6.324960 I-19.9670 J6.0798
G1 X131.183000 Y105.423000 Z0.400000 A6.324960
G1 X131.283000 Y106.473000 Z0.400000 A6.349770
G1 X131.343000 Y109.553000 Z0.400000 A6.422240
G1 X131.343000 Y109.553000 Z0.400000 A6.422240
G3 X130.983000 Y112.643000 Z0.400000 A6.495450 I-24.2606 J-1.2605
G1 X130.983000 Y112.643000 Z0.400000 A6.495450
G1 X130.443000 Y115.903000 Z0.400000 A6.573180
G1 X130.443000 Y115.903000 Z0.400000 A6.573180
G3 X129.973000 Y117.293000 Z0.400000 A6.607760 I-6.7505 J-1.5081
G1 X129.973000 Y117.293000 Z0.400000 A6.607760
G1 X129.973000 Y117.293000 Z0.400000 A6.607760
G3 X128.003000 Y120.433000 Z0.400000 A6.695010 I-15.9000 J-7.7875
G1 X128.003000 Y120.433000 Z0.400000 A6.695010
G1 X126.683000 Y122.343000 Z0.400000 A6.749630
G1 X126.683000 Y122.343000 Z0.400000 A6.749630
G3 X124.123000 Y125.223000 Z0.400000 A6.840310 I-21.9374 J-16.9221
G1 X124.123000 Y125.223000 Z0.400000 A6.840310
G0 Z0.900 F540.000 A4.84031
G0 X110.796 Y111.182 F7800.000
G0 Z0.400
G0 F1800.000 A6.84031
G1 X110.410000 Y111.490000 Z0.400000 A6.851920 F540.000000
G1 X110.410000 Y111.490000 Z0.400000 A6.851920 F540.000000
G3 X109.234000 Y111.978000 Z0.400000 A6.881920 I-2.7047 J-4.8569
G1 X109.234000 Y111.978000 Z0.400000 A6.881920
G1 X108.764000 Y112.056000 Z0.400000 A6.893140
G1 X107.766000 Y111.978000 Z0.400000 A6.916780
G1 X107.766000 Y111.978000 Z0.400000 A6.916780
G3 X105.381000 Y110.224000 Z0.400000 A6.988150 I0.7937 J-3.5778
G1 X105.381000 Y110.224000 Z0.400000 A6.988150
G1 X105.381000 Y110.224000 Z0.400000 A6.988150
G3 X104.932000 Y108.538000 Z0.400000 A7.029390 I4.2059 J-2.0229
G1 X104.932000 Y108.538000 Z0.400000 A7.029390
G1 X105.073000 Y107.613000 Z0.400000 A7.051390
G1 X105.073000 Y107.613000 Z0.400000 A7.051390
G3 X106.589000 Y105.510000 Z0.400000 A7.113750 I3.1816 J0.6956
G1 X106.589000 Y105.510000 Z0.400000 A7.113750
G1 X106.589000 Y105.510000 Z0.400000 A7.113750
G3 X107.766000 Y105.022000 Z0.400000 A7.143740 I2.7221 J4.9021
G1 X107.766000 Y105.022000 Z0.400000 A7.143740
G1 X108.236000 Y104.944000 Z0.400000 A7.154960
G1 X109.234000 Y105.022000 Z0.400000 A7.178600
G1 X109.234000 Y105.022000 Z0.400000 A7.178600
G3 X111.619000 Y106.776000 Z0.400000 A7.249980 I-0.7937 J3.5778
G1 X111.619000 Y106.776000 Z0.400000 A7.249980
G1 X111.619000 Y106.776000 Z0.400000 A7.249980
G3 X112.056000 Y108.388000 Z0.400000 A7.289450 I-4.0259 J1.9566
G1 X112.056000 Y108.388000 Z0.400000 A7.289450
G1 X111.927000 Y109.387000 Z0.400000 A7.313190
G1 X111.927000 Y109.387000 Z0.400000 A7.313190
G3 X110.796000 Y111.182000 Z0.400000 A7.363940 I-2.9708 J-0.6180
G1 X110.796000 Y111.182000 Z0.400000 A7.363940
G0 X110.518 Y110.872 F7800.000
G1 X110.185000 Y111.138000 Z0.400000 A7.373970 F540.000000
G1 X110.185000 Y111.138000 Z0.400000 A7.373970 F540.000000
G3 X109.134000 Y111.573000 Z0.400000 A7.400780 I-2.3838 J-4.2722
G1 X109.134000 Y111.573000 Z0.400000 A7.400780
G1 X108.730000 Y111.640000 Z0.400000 A7.410420
G1 X107.866000 Y111.573000 Z0.400000 A7.430870
G1 X107.866000 Y111.573000 Z0.400000 A7.430870
G3 X105.744000 Y110.012000 Z0.400000 A7.494400 I0.6962 J-3.1692
G1 X105.744000 Y110.012000 Z0.400000 A7.494400
G1 X105.744000 Y110.012000 Z0.400000 A7.494400
G3 X105.352000 Y108.533000 Z0.400000 A7.530550 I3.7467 J-1.7845
G1 X105.352000 Y108.533000 Z0.400000 A7.530550
G1 X105.478000 Y107.714000 Z0.400000 A7.550050
G1 X105.478000 Y107.714000 Z0.400000 A7.550050
G3 X106.815000 Y105.862000 Z0.400000 A7.604950 I2.8039 J0.6156
G1 X106.815000 Y105.862000 Z0.400000 A7.604950
G1 X106.815000 Y105.862000 Z0.400000 A7.604950
G3 X107.866000 Y105.427000 Z0.400000 A7.631760 I2.3838 J4.2722
G1 X107.866000 Y105.427000 Z0.400000 A7.631760
G1 X108.270000 Y105.360000 Z0.400000 A7.641400
G1 X109.134000 Y105.427000 Z0.400000 A7.661840
G1 X109.134000 Y105.427000 Z0.400000 A7.661840
G3 X111.256000 Y106.988000 Z0.400000 A7.725380 I-0.6962 J3.1692
G1 X111.256000 Y106.988000 Z0.400000 A7.725380
G1 X111.256000 Y106.988000 Z0.400000 A7.725380
G3 X111.640000 Y108.423000 Z0.400000 A7.760480 I-3.6150 J1.7362
G1 X111.640000 Y108.423000 Z0.400000 A7.760480
G1 X111.522000 Y109.286000 Z0.400000 A7.781020
G1 X111.522000 Y109.286000 Z0.400000 A7.781020
G3 X110.518000 Y110.872000 Z0.400000 A7.825900 I-2.6216 J-0.5488
G1 X110.518000 Y110.872000 Z0.400000 A7.825900
G0 X110.240 Y110.562 F7800.000
G1 X109.960000 Y110.786000 Z0.400000 A7.834350 F540.000000
G1 X109.960000 Y110.786000 Z0.400000 A7.834350 F540.000000
G3 X109.033000 Y111.168000 Z0.400000 A7.857970 I-2.1110 J-3.8070
G1 X109.033000 Y111.168000 Z0.400000 A7.857970
G1 X108.695000 Y111.225000 Z0.400000 A7.866040
G1 X107.967000 Y111.168000 Z0.400000 A7.883290
G1 X107.967000 Y111.168000 Z0.400000 A7.883290
G3 X106.107000 Y109.801000 Z0.400000 A7.938980 I0.5939 J-2.7570
G1 X106.107000 Y109.801000 Z0.400000 A7.938980
G1 X106.107000 Y109.801000 Z0.400000 A7.938980
G3 X105.773000 Y108.528000 Z0.400000 A7.970060 I3.2597 J-1.5356
G1 X105.773000 Y108.528000 Z0.400000 A7.970060
G1 X105.883000 Y107.814000 Z0.400000 A7.987050
G1 X105.883000 Y107.814000 Z0.400000 A7.987050
G3 X107.040000 Y106.214000 Z0.400000 A8.034510 I2.4242 J0.5347
G1 X107.040000 Y106.214000 Z0.400000 A8.034510
G1 X107.040000 Y106.214000 Z0.400000 A8.034510
G3 X107.967000 Y105.832000 Z0.400000 A8.058130 I2.1365 J3.8688
G1 X107.967000 Y105.832000 Z0.400000 A8.058130
G1 X108.305000 Y105.775000 Z0.400000 A8.066190
G1 X109.033000 Y105.832000 Z0.400000 A8.083440
G1 X109.033000 Y105.832000 Z0.400000 A8.083440
G3 X110.893000 Y107.199000 Z0.400000 A8.139130 I-0.5939 J2.7570
G1 X110.893000 Y107.199000 Z0.400000 A8.139130
G1 X110.893000 Y107.199000 Z0.400000 A8.139130
G3 X111.225000 Y108.543000 Z0.400000 A8.171850 I-3.1118 J1.4817
G1 X111.225000 Y108.543000 Z0.400000 A8.171850
G1 X111.117000 Y109.186000 Z0.400000 A8.187180
G1 X111.117000 Y109.186000 Z0.400000 A8.187180
G3 X110.240000 Y110.562000 Z0.400000 A8.226200 I-2.2670 J-0.4774
G1 X110.240000 Y110.562000 Z0.400000 A8.226200
G0 X110.318 Y110.970 F7800.000
G0 Z0.900 F540.000 A6.22620
G0 X109.821 Y122.419 F7800.000
G0 Z0.400
G0 F1800.000 A8.22620
G1 X107.257000 Y122.419000 Z0.400000 A8.286510 F540.000000
G1 X105.096000 Y121.987000 Z0.400000 A8.338340
G1 X105.096000 Y122.037000 Z0.400000 A8.339520
G1 X103.200000 Y121.360000 Z0.400000 A8.386890
G1 X103.175000 Y121.436000 Z0.400000 A8.388780
