; generated by Slic3r 0.9.8 on 2013-03-29 at 11:33:46

; layer_height = 0.3
; perimeters = 3
; top_solid_layers = 3
; bottom_solid_layers = 3
; fill_density = 0.4
; perimeter_speed = 30
; infill_speed = 40
; travel_speed = 130
; scale = 1
; nozzle_diameter = 0.4
; filament_diameter = 3
; extrusion_multiplier = 1
; perimeters extrusion width = 0.42mm
; infill extrusion width = 0.42mm
; first layer extrusion width = 0.42mm

M190 P115 ; wait for bed temperature to be reached
M104 P235 ; set temperature
G92 A0                  ; Reset A to 0
G40                        ; Cancel cutter compensation
G64 P0.1                ; Path Blend within .1mm
G0 X108.5 Y108.5  ; Move to center
M109 P235 ; wait for temperature to be reached
G90 ; use absolute coordinates
G21 ; set units to millimeters
G0 Z0.400 F1800.000 A-2.00000
G0 X124.423 Y125.523 F7800.000
G0 F1800.000 A0.00000
G1 X124.053 Y125.863 F540.000 A0.01182
G1 X123.663 Y126.183 A0.02369
G1 X121.553 Y127.773 A0.08584
G1 X120.703 Y128.313 A0.10953
G1 X118.293 Y129.623 A0.17406
G1 X117.393 Y130.033 A0.19732
G1 X115.243 Y130.823 A0.25121
G1 X114.123 Y131.133 A0.27854
G1 X111.633 Y131.593 A0.33811
G1 X110.523 Y131.703 A0.36435
G1 X107.433 Y131.753 A0.43705
G1 X106.523 Y131.693 A0.45850
G1 X104.293 Y131.393 A0.51143
G1 X101.313 Y130.903 A0.58248
G1 X100.703 Y130.773 A0.59715
G1 X99.813 Y130.473 A0.61924
G1 X99.253 Y130.203 A0.63387
G1 X98.713 Y129.893 A0.64852
G1 X96.343 Y128.353 A0.71501
G1 X94.423 Y127.033 A0.76982
G1 X93.673 Y126.443 A0.79226
G1 X91.463 Y124.423 A0.86270
G1 X91.123 Y124.053 A0.87452
G1 X90.803 Y123.663 A0.88639
G1 X89.213 Y121.553 A0.94854
G1 X88.673 Y120.703 A0.97223
G1 X87.363 Y118.293 A1.03675
G1 X86.953 Y117.393 A1.06002
G1 X86.163 Y115.243 A1.11390
G1 X85.853 Y114.093 A1.14192
G1 X85.403 Y111.603 A1.20145
G1 X85.293 Y110.553 A1.22628
G1 X85.233 Y107.943 A1.28770
G1 X85.233 Y107.433 A1.29969
G1 X85.293 Y106.493 A1.32185
G1 X85.603 Y104.263 A1.37481
G1 X86.133 Y101.023 A1.45205
G1 X86.293 Y100.413 A1.46688
G1 X86.633 Y99.533 A1.48907
G1 X86.773 Y99.253 A1.49644
G1 X87.093 Y98.713 A1.51120
G1 X88.633 Y96.343 A1.57769
G1 X89.953 Y94.423 A1.63250
G1 X90.543 Y93.673 A1.65495
G1 X92.573 Y91.463 A1.72555
G1 X92.943 Y91.113 A1.73753
G1 X93.333 Y90.793 A1.74939
G1 X95.453 Y89.203 A1.81173
G1 X96.293 Y88.673 A1.83510
G1 X98.703 Y87.363 A1.89963
G1 X99.593 Y86.953 A1.92268
G1 X101.733 Y86.163 A1.97634
G1 X102.193 Y86.013 A1.98772
G1 X102.653 Y85.893 A1.99891
G1 X105.383 Y85.403 A2.06415
G1 X106.433 Y85.293 A2.08899
G1 X109.053 Y85.233 A2.15064
G1 X109.553 Y85.233 A2.16240
G1 X110.493 Y85.293 A2.18456
G1 X112.723 Y85.603 A2.23752
G1 X115.963 Y86.133 A2.31475
G1 X116.573 Y86.293 A2.32959
G1 X116.873 Y86.393 A2.33703
G1 X117.463 Y86.633 A2.35201
G1 X117.743 Y86.773 A2.35938
G1 X118.283 Y87.093 A2.37414
G1 X120.653 Y88.633 A2.44063
G1 X122.583 Y89.963 A2.49577
G1 X123.313 Y90.543 A2.51770
G1 X125.333 Y92.393 A2.58214
G1 X125.703 Y92.753 A2.59428
G1 X126.033 Y93.133 A2.60612
G1 X127.783 Y95.453 A2.67448
G1 X128.313 Y96.293 A2.69785
G1 X129.623 Y98.703 A2.76238
G1 X130.033 Y99.593 A2.78543
G1 X130.823 Y101.733 A2.83909
G1 X131.133 Y102.863 A2.86665
G1 X131.593 Y105.353 A2.92622
G1 X131.703 Y106.463 A2.95246
G1 X131.753 Y109.553 A3.02516
G1 X131.693 Y110.463 A3.04661
G1 X131.393 Y112.693 A3.09955
G1 X130.903 Y115.683 A3.17082
G1 X130.773 Y116.293 A3.18549
G1 X130.473 Y117.183 A3.20759
G1 X130.203 Y117.743 A3.22221
G1 X129.893 Y118.283 A3.23686
G1 X128.353 Y120.653 A3.30335
G1 X127.023 Y122.583 A3.35849
G1 X126.443 Y123.313 A3.38042
G1 X124.465 Y125.477 A3.44939
G1 X124.423 Y125.523 A3.45085
G0 X124.123 Y125.223 F7800.000
G1 X123.603 Y125.703 F540.000 A3.46750
G1 X121.303 Y127.433 A3.53520
G1 X120.503 Y127.953 A3.55765
G1 X118.093 Y129.263 A3.62218
G1 X117.243 Y129.643 A3.64408
G1 X115.093 Y130.433 A3.69796
G1 X114.053 Y130.723 A3.72336
G1 X111.563 Y131.183 A3.78293
G1 X110.513 Y131.283 A3.80774
G1 X107.433 Y131.343 A3.88021
G1 X106.573 Y131.283 A3.90049
G1 X104.343 Y130.983 A3.95342
G1 X101.383 Y130.493 A4.02400
G1 X100.523 Y130.293 A4.04477
G1 X99.973 Y130.093 A4.05854
G1 X99.703 Y129.973 A4.06549
G1 X99.443 Y129.843 A4.07233
G1 X98.933 Y129.543 A4.08625
G1 X96.563 Y128.003 A4.15273
G1 X94.653 Y126.693 A4.20722
G1 X93.953 Y126.133 A4.22831
G1 X91.933 Y124.283 A4.29274
G1 X91.433 Y123.783 A4.30938
G1 X89.553 Y121.303 A4.38259
G1 X89.033 Y120.503 A4.40503
G1 X87.723 Y118.093 A4.46956
G1 X87.343 Y117.243 A4.49146
G1 X86.553 Y115.093 A4.54535
G1 X86.263 Y114.023 A4.57142
G1 X85.813 Y111.533 A4.63095
G1 X85.713 Y110.543 A4.65436
G1 X85.643 Y107.433 A4.72754
G1 X85.713 Y106.553 A4.74830
G1 X86.043 Y104.173 A4.80483
G1 X86.543 Y101.113 A4.87776
G1 X86.783 Y100.263 A4.89854
G1 X87.013 Y99.713 A4.91257
G1 X87.143 Y99.443 A4.91961
G1 X87.443 Y98.933 A4.93353
G1 X88.983 Y96.563 A5.00002
G1 X90.293 Y94.653 A5.05451
G1 X90.853 Y93.953 A5.07559
G1 X92.863 Y91.753 A5.14570
G1 X93.393 Y91.273 A5.16252
G1 X95.703 Y89.543 A5.23041
G1 X96.493 Y89.033 A5.25253
G1 X98.903 Y87.723 A5.31706
G1 X99.743 Y87.343 A5.33874
G1 X101.883 Y86.553 A5.39241
G1 X102.303 Y86.413 A5.40282
G1 X102.743 Y86.303 A5.41349
G1 X105.453 Y85.813 A5.47828
G1 X106.443 Y85.713 A5.50168
G1 X109.553 Y85.643 A5.57486
G1 X110.433 Y85.713 A5.59563
G1 X112.813 Y86.043 A5.65215
G1 X115.883 Y86.543 A5.72532
G1 X116.733 Y86.783 A5.74610
G1 X117.283 Y87.013 A5.76012
G1 X117.803 Y87.283 A5.77391
G1 X118.063 Y87.443 A5.78109
G1 X120.433 Y88.983 A5.84758
G1 X122.343 Y90.303 A5.90220
G1 X123.033 Y90.853 A5.92295
G1 X125.233 Y92.863 A5.99305
G1 X125.393 Y93.033 A5.99855
G1 X125.713 Y93.393 A6.00988
G1 X127.443 Y95.703 A6.07777
G1 X127.953 Y96.493 A6.09989
G1 X129.263 Y98.903 A6.16442
G1 X129.643 Y99.743 A6.18610
G1 X130.433 Y101.883 A6.23977
G1 X130.723 Y102.933 A6.26539
G1 X131.183 Y105.423 A6.32496
G1 X131.283 Y106.473 A6.34977
G1 X131.343 Y109.553 A6.42224
G1 X131.283 Y110.413 A6.44252
G1 X130.983 Y112.643 A6.49545
G1 X130.443 Y115.903 A6.57318
G1 X130.293 Y116.463 A6.58682
G1 X130.093 Y117.023 A6.60081
G1 X129.973 Y117.293 A6.60776
G1 X129.843 Y117.553 A6.61460
G1 X129.543 Y118.063 A6.62852
G1 X128.003 Y120.433 A6.69501
G1 X126.683 Y122.343 A6.74963
G1 X126.133 Y123.033 A6.77038
G1 X124.166 Y125.178 A6.83884
G1 X124.123 Y125.223 A6.84031
G0 Z0.900 F540.000 A4.84031
G0 X110.796 Y111.182 F7800.000
G0 Z0.400
G0 F1800.000 A6.84031
G1 X110.410 Y111.490 F540.000 A6.85192
G1 X109.968 Y111.711 A6.86355
G1 X109.646 Y111.841 A6.87172
G1 X109.234 Y111.978 A6.88192
G1 X108.764 Y112.056 A6.89314
G1 X108.236 Y112.056 A6.90556
G1 X107.766 Y111.978 A6.91678
G1 X107.354 Y111.841 A6.92698
G1 X107.032 Y111.711 A6.93515
G1 X106.589 Y111.490 A6.94678
G1 X106.204 Y111.182 A6.95839
G1 X105.919 Y110.897 A6.96786
G1 X105.381 Y110.224 A6.98815
G1 X105.210 Y109.798 A6.99894
G1 X105.073 Y109.387 A7.00914
G1 X104.932 Y108.538 A7.02939
G1 X105.073 Y107.613 A7.05139
G1 X105.210 Y107.202 A7.06159
G1 X105.381 Y106.776 A7.07238
G1 X105.919 Y106.103 A7.09267
G1 X106.204 Y105.818 A7.10214
G1 X106.589 Y105.510 A7.11375
G1 X107.032 Y105.289 A7.12538
G1 X107.766 Y105.022 A7.14374
G1 X108.236 Y104.944 A7.15496
G1 X108.764 Y104.944 A7.16738
G1 X109.234 Y105.022 A7.17860
G1 X109.646 Y105.160 A7.18880
G1 X109.968 Y105.289 A7.19698
G1 X110.411 Y105.510 A7.20861
G1 X110.796 Y105.818 A7.22021
G1 X111.081 Y106.103 A7.22969
G1 X111.619 Y106.776 A7.24998
G1 X111.790 Y107.202 A7.26076
G1 X111.927 Y107.613 A7.27096
G1 X112.056 Y108.388 A7.28945
G1 X112.056 Y108.612 A7.29471
G1 X111.927 Y109.387 A7.31319
G1 X111.790 Y109.798 A7.32339
G1 X111.619 Y110.224 A7.33417
G1 X111.081 Y110.897 A7.35447
G1 X110.840 Y111.138 A7.36247
G1 X110.796 Y111.182 A7.36394
G0 X110.518 Y110.872 F7800.000
G1 X110.185 Y111.138 F540.000 A7.37397
G1 X109.798 Y111.332 A7.38415
G1 X109.503 Y111.450 A7.39164
G1 X109.134 Y111.573 A7.40078
G1 X108.730 Y111.640 A7.41042
G1 X108.270 Y111.640 A7.42122
G1 X107.866 Y111.573 A7.43087
G1 X107.497 Y111.450 A7.44001
G1 X107.202 Y111.332 A7.44749
G1 X106.815 Y111.138 A7.45768
G1 X106.482 Y110.872 A7.46771
G1 X106.230 Y110.620 A7.47610
G1 X105.744 Y110.012 A7.49440
G1 X105.478 Y109.286 A7.51258
G1 X105.352 Y108.533 A7.53055
G1 X105.478 Y107.714 A7.55005
G1 X105.744 Y106.988 A7.56823
G1 X106.230 Y106.380 A7.58653
G1 X106.482 Y106.128 A7.59493
G1 X106.815 Y105.862 A7.60495
G1 X107.202 Y105.668 A7.61514
G1 X107.866 Y105.427 A7.63176
G1 X108.270 Y105.360 A7.64140
G1 X108.730 Y105.360 A7.65220
G1 X109.134 Y105.427 A7.66184
G1 X109.503 Y105.550 A7.67099
G1 X109.798 Y105.668 A7.67847
G1 X110.185 Y105.862 A7.68866
G1 X110.518 Y106.128 A7.69869
G1 X110.770 Y106.380 A7.70708
G1 X111.256 Y106.988 A7.72538
G1 X111.399 Y107.345 A7.73443
G1 X111.522 Y107.714 A7.74357
G1 X111.640 Y108.423 A7.76048
G1 X111.640 Y108.577 A7.76412
G1 X111.522 Y109.286 A7.78102
G1 X111.256 Y110.012 A7.79921
G1 X110.770 Y110.620 A7.81751
G1 X110.562 Y110.828 A7.82444
G1 X110.518 Y110.872 A7.82590
G0 X110.240 Y110.562 F7800.000
G1 X109.960 Y110.786 F540.000 A7.83435
G1 X109.628 Y110.952 A7.84310
G1 X109.360 Y111.059 A7.84988
G1 X109.033 Y111.168 A7.85797
G1 X108.695 Y111.225 A7.86604
G1 X108.305 Y111.225 A7.87522
G1 X107.967 Y111.168 A7.88329
G1 X107.640 Y111.059 A7.89138
G1 X107.372 Y110.952 A7.89817
G1 X107.040 Y110.786 A7.90691
G1 X106.760 Y110.562 A7.91536
G1 X106.540 Y110.342 A7.92267
G1 X106.107 Y109.801 A7.93898
G1 X105.883 Y109.186 A7.95437
G1 X105.773 Y108.528 A7.97006
G1 X105.883 Y107.814 A7.98705
G1 X106.107 Y107.199 A8.00245
G1 X106.540 Y106.658 A8.01875
G1 X106.760 Y106.438 A8.02606
G1 X107.040 Y106.214 A8.03451
G1 X107.373 Y106.048 A8.04326
G1 X107.967 Y105.832 A8.05813
G1 X108.305 Y105.775 A8.06619
G1 X108.695 Y105.775 A8.07538
G1 X109.033 Y105.832 A8.08344
G1 X109.360 Y105.941 A8.09153
G1 X109.628 Y106.048 A8.09832
G1 X109.960 Y106.214 A8.10706
G1 X110.240 Y106.438 A8.11551
G1 X110.460 Y106.658 A8.12282
G1 X110.893 Y107.199 A8.13913
G1 X111.117 Y107.814 A8.15453
G1 X111.225 Y108.543 A8.17185
G1 X111.117 Y109.186 A8.18718
G1 X110.893 Y109.801 A8.20258
G1 X110.460 Y110.342 A8.21889
G1 X110.285 Y110.518 A8.22473
G1 X110.240 Y110.562 A8.22620
G0 X110.318 Y110.970 F7800.000
G0 Z0.900 F540.000 A6.22620
G0 X109.821 Y122.419 F7800.000
G0 Z0.400
G0 F1800.000 A8.22620
G1 X107.257 Y122.419 F540.000 A8.28651
G1 X105.096 Y121.987 A8.33834
G1 X105.096 Y122.037 A8.33952
G1 X103.200 Y121.360 A8.38689
G1 X103.175 Y121.436 A8.38878
G1 X101.530 Y120.551 A8.43274
G1 X101.504 Y120.576 A8.43358
G1 X99.588 Y119.298 A8.48777
G1 X98.300 Y118.011 A8.53060
G1 X96.888 Y116.285 A8.58307
G1 X95.721 Y114.117 A8.64099
G1 X94.952 Y111.966 A8.69473
G1 X94.646 Y109.821 A8.74570
G1 X94.581 Y109.821 A8.74722
G1 X94.581 Y107.257 A8.80754
G1 X95.013 Y105.096 A8.85937
G1 X94.963 Y105.096 A8.86055
G1 X95.640 Y103.200 A8.90792
G1 X95.563 Y103.175 A8.90981
G1 X96.449 Y101.530 A8.95376
G1 X96.424 Y101.504 A8.95461
G1 X97.702 Y99.588 A9.00880
G1 X98.989 Y98.300 A9.05162
G1 X100.715 Y96.888 A9.10410
G1 X102.883 Y95.721 A9.16202
G1 X105.034 Y94.952 A9.21576
G1 X107.179 Y94.646 A9.26672
G1 X107.179 Y94.581 A9.26825
G1 X109.743 Y94.581 A9.32857
G1 X111.904 Y95.013 A9.38040
G1 X111.904 Y94.963 A9.38158
G1 X113.800 Y95.640 A9.42894
G1 X113.825 Y95.564 A9.43084
G1 X115.470 Y96.449 A9.47479
G1 X115.496 Y96.424 A9.47564
G1 X117.412 Y97.702 A9.52982
G1 X118.700 Y98.989 A9.57265
G1 X120.112 Y100.715 A9.62512
G1 X121.279 Y102.883 A9.68304
G1 X122.048 Y105.034 A9.73678
G1 X122.354 Y107.179 A9.78775
G1 X122.419 Y107.179 A9.78928
G1 X122.419 Y109.743 A9.84959
G1 X121.987 Y111.904 A9.90142
G1 X122.099 Y111.904 A9.90406
G1 X121.296 Y113.778 A9.95204
G1 X121.437 Y113.825 A9.95553
G1 X120.551 Y115.470 A9.99948
G1 X120.576 Y115.496 A10.00033
G1 X119.298 Y117.412 A10.05452
G1 X118.011 Y118.700 A10.09735
G1 X116.285 Y120.112 A10.14982
G1 X114.117 Y121.279 A10.20774
G1 X111.966 Y122.048 A10.26148
G1 X109.821 Y122.357 A10.31245
G1 X109.821 Y122.419 A10.31392
G0 X110.236 Y122.715 F7800.000
G1 X110.236 Y122.835 F540.000 A10.31675
G1 X107.849 Y122.835 A10.37291
G1 X107.849 Y122.962 A10.37589
G1 X105.512 Y122.494 A10.43195
G1 X105.512 Y122.627 A10.43508
G1 X103.460 Y121.894 A10.48633
G1 X103.413 Y122.037 A10.48987
G1 X101.605 Y121.063 A10.53817
G1 X100.884 Y121.785 A10.56217
G1 X100.732 Y121.691 A10.56635
G1 X101.041 Y120.767 A10.58927
G1 X99.159 Y119.513 A10.64246
G1 X99.178 Y119.476 A10.64341
G1 X98.032 Y118.330 A10.68153
G1 X97.176 Y118.758 A10.70403
G1 X97.036 Y118.563 A10.70969
G1 X97.684 Y117.915 A10.73127
G1 X96.552 Y116.530 A10.77334
G1 X95.872 Y116.870 A10.79122
G1 X95.700 Y116.575 A10.79927
G1 X96.341 Y116.147 A10.81741
G1 X95.428 Y114.451 A10.86273
G1 X94.856 Y114.737 A10.87779
G1 X94.684 Y114.441 A10.88583
G1 X95.258 Y114.058 A10.90207
G1 X94.547 Y112.066 A10.95184
G1 X94.285 Y110.236 A10.99531
G1 X94.165 Y110.236 A10.99814
G1 X94.165 Y107.849 A11.05431
G1 X94.038 Y107.849 A11.05728
G1 X94.506 Y105.512 A11.11334
G1 X94.373 Y105.512 A11.11647
G1 X95.106 Y103.460 A11.16773
G1 X94.963 Y103.413 A11.17126
G1 X95.937 Y101.605 A11.21956
G1 X95.215 Y100.884 A11.24356
G1 X95.309 Y100.732 A11.24774
G1 X96.233 Y101.041 A11.27067
G1 X97.487 Y99.159 A11.32385
G1 X97.524 Y99.178 A11.32481
G1 X98.670 Y98.032 A11.36293
G1 X98.242 Y97.176 A11.38543
G1 X98.437 Y97.036 A11.39108
G1 X99.085 Y97.684 A11.41266
G1 X100.470 Y96.552 A11.45473
G1 X100.129 Y95.872 A11.47262
G1 X100.425 Y95.700 A11.48067
G1 X100.853 Y96.341 A11.49881
G1 X102.549 Y95.428 A11.54413
G1 X102.263 Y94.856 A11.55918
G1 X102.559 Y94.684 A11.56723
G1 X102.942 Y95.258 A11.58347
G1 X104.934 Y94.547 A11.63323
G1 X106.764 Y94.285 A11.67670
G1 X106.764 Y94.165 A11.67953
G1 X109.151 Y94.165 A11.73570
G1 X109.151 Y94.038 A11.73868
G1 X111.488 Y94.506 A11.79474
G1 X111.488 Y94.373 A11.79787
G1 X113.540 Y95.106 A11.84912
G1 X113.587 Y94.963 A11.85265
G1 X115.395 Y95.937 A11.90095
G1 X116.116 Y95.215 A11.92495
G1 X116.268 Y95.309 A11.92913
G1 X115.959 Y96.233 A11.95206
G1 X117.841 Y97.487 A12.00524
G1 X117.822 Y97.524 A12.00620
G1 X118.968 Y98.670 A12.04432
G1 X119.824 Y98.242 A12.06682
G1 X119.964 Y98.437 A12.07247
G1 X119.316 Y99.085 A12.09405
G1 X120.448 Y100.470 A12.13612
G1 X121.128 Y100.129 A12.15401
G1 X121.300 Y100.425 A12.16206
G1 X120.659 Y100.853 A12.18020
G1 X121.572 Y102.549 A12.22552
G1 X122.144 Y102.263 A12.24056
G1 X122.316 Y102.559 A12.24861
G1 X121.742 Y102.942 A12.26484
G1 X122.453 Y104.934 A12.31461
G1 X122.715 Y106.764 A12.35808
G1 X122.835 Y106.764 A12.36090
G1 X122.835 Y109.151 A12.41707
G1 X122.962 Y109.151 A12.42005
G1 X122.494 Y111.488 A12.47611
G1 X122.729 Y111.488 A12.48164
G1 X121.856 Y113.527 A12.53383
G1 X122.037 Y113.587 A12.53832
G1 X121.063 Y115.395 A12.58662
G1 X121.785 Y116.116 A12.61062
G1 X121.691 Y116.268 A12.61480
G1 X120.767 Y115.959 A12.63773
G1 X119.513 Y117.841 A12.69091
G1 X119.476 Y117.822 A12.69187
G1 X118.330 Y118.968 A12.72999
G1 X118.758 Y119.824 A12.75249
G1 X118.563 Y119.964 A12.75814
G1 X117.915 Y119.316 A12.77972
G1 X116.530 Y120.448 A12.82179
G1 X116.870 Y121.128 A12.83968
G1 X116.575 Y121.300 A12.84773
G1 X116.147 Y120.658 A12.86586
G1 X114.451 Y121.572 A12.91118
G1 X114.737 Y122.145 A12.92624
G1 X114.441 Y122.316 A12.93429
G1 X114.058 Y121.742 A12.95053
G1 X112.066 Y122.453 A13.00030
G1 X110.298 Y122.706 A13.04230
G1 X110.236 Y122.715 A13.04377
G0 X110.652 Y123.075 F7800.000
G1 X110.652 Y123.528 F540.000 A13.05442
G1 X110.601 Y123.681 A13.05820
G1 X110.601 Y123.935 A13.06418
G1 X110.551 Y124.087 A13.06796
G1 X110.551 Y124.239 A13.07154
G1 X110.398 Y124.646 A13.08175
G1 X110.398 Y124.876 A13.08717
G1 X110.027 Y124.876 A13.09591
