; generated by Slic3r 0.9.8 on 2013-03-27 at 16:24:10

; layer_height = 0.3
; perimeters = 4
; top_solid_layers = 3
; bottom_solid_layers = 3
; fill_density = 1
; perimeter_speed = 15
; infill_speed = 40
; travel_speed = 130
; scale = 1
; nozzle_diameter = 0.4
; filament_diameter = 3
; extrusion_multiplier = 1
; perimeters extrusion width = 0.42mm
; infill extrusion width = 0.42mm
; first layer extrusion width = 0.42mm

M190 P115 ; wait for bed temperature to be reached
M104 P235 ; set temperature
G92 A0                  ; Reset A to 0
G40                        ; Cancel cutter compensation
G64 P0.1                ; Path Blend within .1mm
G0 X108.5 Y108.5  ; Move to center
M109 P235 ; wait for temperature to be reached
G90 ; use absolute coordinates
G21 ; set units to millimeters
G0 Z0.400 F7800.000
G0 X118.667 Y119.570
G1 X118.457 Y119.780 F480.000 A0.00699
G1 X117.997 Y120.160 A0.02102
G1 X117.517 Y120.510 A0.03500
G1 X117.257 Y120.670 A0.04218
G1 X114.627 Y122.210 A0.11387
G1 X114.107 Y122.480 A0.12766
G1 X113.287 Y122.810 A0.14845
G1 X112.367 Y123.080 A0.17101
G1 X111.807 Y123.190 A0.18443
G1 X108.197 Y123.570 A0.26982
G1 X107.347 Y123.570 A0.28982
G1 X106.397 Y123.470 A0.31229
G1 X105.557 Y123.290 A0.33250
G1 X102.367 Y122.270 A0.41128
G1 X101.537 Y121.940 A0.43230
G1 X100.667 Y121.460 A0.45567
G1 X99.987 Y121.010 A0.47485
G1 X97.107 Y118.450 A0.56550
G1 X96.717 Y118.040 A0.57881
G1 X96.367 Y117.600 A0.59204
G1 X95.947 Y117.020 A0.60888
G1 X95.637 Y116.520 A0.62272
G1 X95.377 Y115.990 A0.63661
G1 X94.137 Y113.210 A0.70822
G1 X93.847 Y112.450 A0.72735
G1 X93.627 Y111.530 A0.74960
G1 X93.517 Y110.930 A0.76395
G1 X93.457 Y110.030 A0.78517
G1 X93.457 Y106.710 A0.86327
G1 X93.477 Y106.420 A0.87011
G1 X93.507 Y106.140 A0.87674
G1 X93.607 Y105.570 A0.89035
G1 X93.757 Y104.880 A0.90696
G1 X93.917 Y104.340 A0.92021
G1 X95.347 Y101.060 A1.00438
G1 X95.607 Y100.520 A1.01848
G1 X95.917 Y100.010 A1.03252
G1 X96.097 Y99.760 A1.03977
G1 X96.507 Y99.210 A1.05591
G1 X96.867 Y98.790 A1.06892
G1 X97.257 Y98.410 A1.08173
G1 X99.727 Y96.180 A1.16001
G1 X99.947 Y96.000 A1.16670
G1 X100.407 Y95.680 A1.17988
G1 X101.267 Y95.180 A1.20328
G1 X102.067 Y94.820 A1.22392
G1 X105.507 Y93.700 A1.30902
G1 X105.797 Y93.620 A1.31610
G1 X106.387 Y93.510 A1.33022
G1 X107.377 Y93.420 A1.35360
G1 X107.917 Y93.410 A1.36631
G1 X108.457 Y93.440 A1.37903
G1 X111.727 Y93.780 A1.45637
G1 X112.037 Y93.830 A1.46376
G1 X112.647 Y93.980 A1.47854
G1 X113.597 Y94.290 A1.50204
G1 X114.337 Y94.620 A1.52110
G1 X117.457 Y96.420 A1.60584
G1 X118.167 Y96.930 A1.62640
G1 X118.697 Y97.400 A1.64307
G1 X119.097 Y97.790 A1.65621
G1 X119.627 Y98.430 A1.67576
G1 X121.417 Y100.870 A1.74694
G1 X121.747 Y101.370 A1.76104
G1 X122.047 Y101.910 A1.77557
G1 X122.447 Y102.820 A1.79895
G1 X122.697 Y103.600 A1.81822
G1 X123.397 Y106.860 A1.89666
G1 X123.497 Y107.430 A1.91027
G1 X123.547 Y108.000 A1.92373
G1 X123.547 Y108.970 A1.94655
G1 X123.457 Y109.820 A1.96666
G1 X122.707 Y113.390 A2.05247
G1 X122.527 Y113.970 A2.06676
G1 X122.417 Y114.250 A2.07384
G1 X122.127 Y114.900 A2.09058
G1 X121.847 Y115.450 A2.10510
G1 X121.517 Y115.960 A2.11939
G1 X119.517 Y118.580 A2.19693
G1 X119.067 Y119.130 A2.21364
G1 X118.710 Y119.525 A2.22617
G1 X118.667 Y119.570 A2.22763
G0 X118.317 Y119.330 F7800.000
G1 X117.587 Y119.960 F480.000 A2.25032
G1 X117.047 Y120.310 A2.26545
G1 X114.417 Y121.850 A2.33715
G1 X113.927 Y122.110 A2.35020
G1 X113.417 Y122.320 A2.36317
G1 X112.527 Y122.610 A2.38519
G1 X112.267 Y122.680 A2.39153
G1 X111.747 Y122.780 A2.40398
G1 X108.437 Y123.130 A2.48228
G1 X107.907 Y123.160 A2.49477
G1 X107.377 Y123.150 A2.50724
G1 X106.457 Y123.060 A2.52899
G1 X105.927 Y122.960 A2.54168
G1 X105.407 Y122.820 A2.55434
G1 X102.497 Y121.880 A2.62628
G1 X101.967 Y121.680 A2.63961
G1 X101.457 Y121.440 A2.65287
G1 X100.657 Y120.970 A2.67469
G1 X100.047 Y120.520 A2.69253
G1 X97.397 Y118.150 A2.77616
G1 X97.027 Y117.770 A2.78864
G1 X96.697 Y117.350 A2.80120
G1 X96.287 Y116.790 A2.81753
G1 X96.007 Y116.320 A2.83040
G1 X95.757 Y115.820 A2.84355
G1 X94.417 Y112.810 A2.92106
G1 X94.177 Y112.090 A2.93891
G1 X93.967 Y111.160 A2.96134
G1 X93.897 Y110.600 A2.97461
G1 X93.867 Y110.030 A2.98804
G1 X93.877 Y106.730 A3.06567
G1 X93.967 Y105.920 A3.08484
G1 X94.107 Y105.240 A3.10118
G1 X94.237 Y104.730 A3.11356
G1 X94.507 Y103.990 A3.13209
G1 X95.727 Y101.220 A3.20329
G1 X95.977 Y100.720 A3.21644
G1 X96.267 Y100.240 A3.22963
G1 X96.677 Y99.670 A3.24615
G1 X96.997 Y99.270 A3.25820
G1 X97.347 Y98.890 A3.27035
G1 X99.987 Y96.500 A3.35413
G1 X100.197 Y96.330 A3.36048
G1 X100.867 Y95.890 A3.37934
G1 X101.707 Y95.420 A3.40198
G1 X102.467 Y95.120 A3.42120
G1 X105.617 Y94.100 A3.49909
G1 X106.167 Y93.970 A3.51239
G1 X106.727 Y93.890 A3.52569
G1 X107.397 Y93.830 A3.54152
G1 X107.907 Y93.830 A3.55352
G1 X108.417 Y93.860 A3.56553
G1 X111.377 Y94.160 A3.63552
G1 X111.957 Y94.240 A3.64930
G1 X112.247 Y94.300 A3.65626
G1 X113.207 Y94.590 A3.67985
G1 X113.687 Y94.770 A3.69191
G1 X114.147 Y94.990 A3.70391
G1 X117.237 Y96.770 A3.78780
G1 X117.467 Y96.920 A3.79426
G1 X117.897 Y97.250 A3.80701
G1 X118.607 Y97.890 A3.82949
G1 X118.967 Y98.270 A3.84181
G1 X119.127 Y98.470 A3.84783
G1 X121.247 Y101.350 A3.93196
G1 X121.667 Y102.090 A3.95197
G1 X122.057 Y102.970 A3.97462
G1 X122.227 Y103.460 A3.98682
G1 X122.347 Y103.960 A3.99891
G1 X123.037 Y107.210 A4.07707
G1 X123.127 Y108.020 A4.09624
G1 X123.137 Y108.690 A4.11201
G1 X123.087 Y109.490 A4.13086
G1 X123.047 Y109.750 A4.13705
G1 X122.367 Y113.000 A4.21516
G1 X122.227 Y113.560 A4.22874
G1 X122.137 Y113.830 A4.23544
G1 X121.917 Y114.360 A4.24893
G1 X121.487 Y115.240 A4.27198
G1 X121.177 Y115.730 A4.28562
G1 X119.187 Y118.330 A4.36264
G1 X118.747 Y118.860 A4.37884
G1 X118.360 Y119.285 A4.39236
G1 X118.317 Y119.330 A4.39383
G0 X110.963 Y111.551 F7800.000
G1 X110.561 Y111.844 F480.000 A4.40553
G1 X110.125 Y112.083 A4.41722
G1 X109.663 Y112.266 A4.42892
G1 X109.181 Y112.390 A4.44062
G1 X108.688 Y112.452 A4.45232
G1 X108.191 Y112.452 A4.46402
G1 X107.697 Y112.390 A4.47572
G1 X107.216 Y112.266 A4.48742
G1 X106.753 Y112.083 A4.49911
G1 X106.317 Y111.844 A4.51081
G1 X105.915 Y111.551 A4.52251
G1 X105.553 Y111.211 A4.53421
G1 X105.180 Y110.740 A4.54834
G1 X104.969 Y110.408 A4.55759
G1 X104.757 Y109.958 A4.56929
G1 X104.604 Y109.485 A4.58099
G1 X104.511 Y108.996 A4.59269
G1 X104.479 Y108.500 A4.60439
G1 X104.511 Y108.004 A4.61608
G1 X104.604 Y107.515 A4.62778
G1 X104.757 Y107.042 A4.63948
G1 X104.969 Y106.592 A4.65118
G1 X105.236 Y106.172 A4.66288
G1 X105.629 Y105.718 A4.67701
G1 X105.915 Y105.449 A4.68626
G1 X106.318 Y105.156 A4.69796
G1 X106.753 Y104.917 A4.70966
G1 X107.216 Y104.734 A4.72135
G1 X107.697 Y104.610 A4.73306
G1 X108.191 Y104.548 A4.74475
G1 X108.688 Y104.548 A4.75645
G1 X109.282 Y104.636 A4.77058
G1 X109.663 Y104.734 A4.77983
G1 X110.125 Y104.917 A4.79153
G1 X110.645 Y105.218 A4.80566
G1 X110.963 Y105.449 A4.81491
G1 X111.326 Y105.789 A4.82661
G1 X111.643 Y106.172 A4.83831
G1 X111.910 Y106.592 A4.85001
G1 X112.121 Y107.042 A4.86171
G1 X112.275 Y107.515 A4.87341
G1 X112.368 Y108.004 A4.88511
G1 X112.399 Y108.500 A4.89680
G1 X112.368 Y108.996 A4.90851
G1 X112.275 Y109.485 A4.92020
G1 X112.121 Y109.958 A4.93190
G1 X111.910 Y110.408 A4.94360
G1 X111.643 Y110.828 A4.95530
G1 X111.326 Y111.211 A4.96700
G1 X111.009 Y111.509 A4.97723
G1 X110.963 Y111.551 A4.97870
G0 X110.698 Y111.230 F7800.000
G1 X110.338 Y111.492 F480.000 A4.98916
G1 X109.948 Y111.706 A4.99963
G1 X109.534 Y111.870 A5.01010
G1 X109.103 Y111.981 A5.02057
G1 X108.662 Y112.037 A5.03104
G1 X108.217 Y112.037 A5.04151
G1 X107.775 Y111.981 A5.05197
G1 X107.344 Y111.870 A5.06244
G1 X106.931 Y111.706 A5.07291
G1 X106.541 Y111.492 A5.08338
G1 X106.181 Y111.230 A5.09384
G1 X105.856 Y110.926 A5.10431
G1 X105.531 Y110.517 A5.11660
G1 X105.334 Y110.207 A5.12524
G1 X105.145 Y109.805 A5.13570
G1 X105.007 Y109.381 A5.14617
G1 X104.924 Y108.944 A5.15664
G1 X104.896 Y108.500 A5.16711
G1 X104.924 Y108.056 A5.17758
G1 X105.007 Y107.619 A5.18805
G1 X105.145 Y107.196 A5.19851
G1 X105.334 Y106.793 A5.20898
G1 X105.573 Y106.417 A5.21945
G1 X105.913 Y106.021 A5.23174
G1 X106.181 Y105.770 A5.24037
G1 X106.541 Y105.508 A5.25084
G1 X106.931 Y105.294 A5.26131
G1 X107.344 Y105.130 A5.27178
G1 X107.775 Y105.019 A5.28225
G1 X108.217 Y104.964 A5.29271
G1 X108.662 Y104.964 A5.30318
G1 X109.179 Y105.039 A5.31547
G1 X109.534 Y105.130 A5.32411
G1 X109.948 Y105.294 A5.33457
G1 X110.401 Y105.554 A5.34687
G1 X110.698 Y105.770 A5.35550
G1 X111.022 Y106.074 A5.36597
G1 X111.306 Y106.417 A5.37643
G1 X111.545 Y106.793 A5.38690
G1 X111.734 Y107.196 A5.39737
G1 X111.872 Y107.619 A5.40784
G1 X111.955 Y108.056 A5.41831
G1 X111.983 Y108.500 A5.42878
G1 X111.955 Y108.944 A5.43925
G1 X111.871 Y109.381 A5.44971
G1 X111.734 Y109.804 A5.46018
G1 X111.545 Y110.207 A5.47065
G1 X111.306 Y110.583 A5.48112
G1 X111.022 Y110.926 A5.49158
G1 X110.743 Y111.188 A5.50059
G1 X110.698 Y111.230 A5.50205
G0 X110.433 Y110.909 F7800.000
G1 X110.115 Y111.140 F480.000 A5.51129
G1 X109.771 Y111.329 A5.52053
G1 X109.406 Y111.474 A5.52977
G1 X109.025 Y111.572 A5.53900
G1 X108.636 Y111.621 A5.54824
G1 X108.243 Y111.621 A5.55748
G1 X107.853 Y111.572 A5.56672
G1 X107.473 Y111.474 A5.57595
G1 X107.108 Y111.329 A5.58519
G1 X106.764 Y111.140 A5.59443
G1 X106.446 Y110.909 A5.60367
G1 X106.160 Y110.641 A5.61290
G1 X105.882 Y110.294 A5.62336
G1 X105.699 Y110.006 A5.63137
G1 X105.532 Y109.651 A5.64061
G1 X105.411 Y109.278 A5.64985
G1 X105.337 Y108.892 A5.65909
G1 X105.312 Y108.500 A5.66832
G1 X105.337 Y108.108 A5.67756
G1 X105.411 Y107.722 A5.68680
G1 X105.532 Y107.349 A5.69603
G1 X105.699 Y106.994 A5.70527
G1 X105.910 Y106.662 A5.71451
G1 X106.198 Y106.324 A5.72496
G1 X106.446 Y106.091 A5.73298
G1 X106.764 Y105.860 A5.74221
G1 X107.108 Y105.671 A5.75145
G1 X107.473 Y105.526 A5.76069
G1 X107.853 Y105.428 A5.76993
G1 X108.243 Y105.379 A5.77917
G1 X108.636 Y105.379 A5.78840
G1 X109.076 Y105.441 A5.79885
G1 X109.406 Y105.526 A5.80687
G1 X109.771 Y105.671 A5.81611
G1 X110.157 Y105.890 A5.82656
G1 X110.433 Y106.091 A5.83457
G1 X110.719 Y106.359 A5.84381
G1 X110.969 Y106.662 A5.85305
G1 X111.180 Y106.994 A5.86229
G1 X111.347 Y107.349 A5.87153
G1 X111.468 Y107.722 A5.88076
G1 X111.542 Y108.108 A5.89000
G1 X111.566 Y108.500 A5.89924
G1 X111.542 Y108.892 A5.90848
G1 X111.468 Y109.278 A5.91771
G1 X111.347 Y109.651 A5.92695
G1 X111.180 Y110.006 A5.93619
G1 X110.969 Y110.338 A5.94543
G1 X110.719 Y110.641 A5.95466
G1 X110.478 Y110.867 A5.96243
G1 X110.433 Y110.909 A5.96390
G0 X110.167 Y110.588 F7800.000
G1 X109.892 Y110.789 F480.000 A5.97191
G1 X109.593 Y110.952 A5.97992
G1 X109.277 Y111.078 A5.98792
G1 X108.947 Y111.162 A5.99593
G1 X108.610 Y111.205 A6.00394
G1 X108.269 Y111.205 A6.01194
G1 X107.931 Y111.162 A6.01995
G1 X107.602 Y111.078 A6.02796
G1 X107.285 Y110.952 A6.03597
G1 X106.987 Y110.789 A6.04397
G1 X106.712 Y110.588 A6.05198
G1 X106.464 Y110.355 A6.05999
G1 X106.247 Y110.093 A6.06799
G1 X106.064 Y109.806 A6.07600
G1 X105.919 Y109.498 A6.08401
G1 X105.814 Y109.174 A6.09201
G1 X105.750 Y108.840 A6.10002
G1 X105.729 Y108.500 A6.10803
G1 X105.755 Y108.135 A6.11664
G1 X105.814 Y107.826 A6.12404
G1 X105.919 Y107.502 A6.13205
G1 X106.064 Y107.194 A6.14005
G1 X106.247 Y106.907 A6.14806
G1 X106.482 Y106.627 A6.15667
G1 X106.712 Y106.412 A6.16407
G1 X106.987 Y106.212 A6.17208
G1 X107.285 Y106.048 A6.18008
G1 X107.602 Y105.922 A6.18809
G1 X107.931 Y105.838 A6.19610
G1 X108.269 Y105.795 A6.20411
G1 X108.610 Y105.795 A6.21211
G1 X108.972 Y105.844 A6.22072
G1 X109.277 Y105.922 A6.22812
G1 X109.593 Y106.048 A6.23613
G1 X109.912 Y106.227 A6.24474
G1 X110.167 Y106.412 A6.25214
G1 X110.415 Y106.645 A6.26015
G1 X110.632 Y106.907 A6.26815
G1 X110.815 Y107.194 A6.27616
G1 X110.959 Y107.502 A6.28417
G1 X111.065 Y107.826 A6.29218
G1 X111.128 Y108.160 A6.30018
G1 X111.150 Y108.500 A6.30819
G1 X111.128 Y108.840 A6.31620
G1 X111.065 Y109.174 A6.32420
G1 X110.959 Y109.498 A6.33221
G1 X110.815 Y109.806 A6.34022
G1 X110.632 Y110.093 A6.34822
G1 X110.415 Y110.355 A6.35623
G1 X110.212 Y110.546 A6.36277
G1 X110.167 Y110.588 A6.36424
G0 X110.228 Y111.000 F7800.000
G0 X113.313 Y106.813
G1 X113.296 Y108.799 F480.000 A6.41096
G1 X113.641 Y108.864 A6.41923
G1 X112.627 Y110.740 A6.46941
G1 X112.859 Y110.879 A6.47576
G1 X111.969 Y112.223 A6.51369
G1 X111.625 Y112.074 A6.52251
G1 X110.185 Y113.524 A6.57059
G1 X109.615 Y113.066 A6.58778
G1 X107.930 Y113.848 A6.63150
G1 X105.741 Y112.474 A6.69230
G1 X105.518 Y112.772 A6.70105
G1 X104.246 Y110.987 A6.75262
G1 X104.015 Y111.128 A6.75896
G1 X103.679 Y109.474 A6.79865
G1 X103.265 Y109.388 A6.80860
G1 X103.776 Y107.085 A6.86409
G1 X103.505 Y107.000 A6.87079
G1 X104.755 Y105.311 A6.92022
G1 X104.542 Y105.122 A6.92692
G1 X106.371 Y104.088 A6.97635
G1 X106.252 Y103.829 A6.98305
G1 X108.344 Y103.628 A7.03248
G1 X108.341 Y103.343 A7.03918
G1 X110.337 Y104.012 A7.08868
G1 X110.449 Y103.751 A7.09535
G1 X111.996 Y105.169 A7.14472
G1 X112.206 Y104.977 A7.15142
G1 X113.043 Y106.904 A7.20086
G1 X113.254 Y106.833 A7.20609
G1 X113.313 Y106.813 A7.20755
G0 X113.729 Y106.797 F7800.000
G1 X113.714 Y108.455 F480.000 A7.24654
G1 X114.278 Y108.560 A7.26003
G1 X113.182 Y110.587 A7.31425
G1 X113.446 Y110.745 A7.32147
G1 X112.123 Y112.744 A7.37787
G1 X111.720 Y112.568 A7.38822
G1 X110.216 Y114.082 A7.43842
G1 X109.556 Y113.552 A7.45834
G1 X107.900 Y114.320 A7.50130
G1 X105.844 Y113.030 A7.55840
G1 X105.510 Y113.477 A7.57153
G1 X104.132 Y111.544 A7.62738
G1 X103.726 Y111.792 A7.63856
G1 X103.326 Y109.825 A7.68576
G1 X102.768 Y109.708 A7.69917
G1 X103.288 Y107.367 A7.75558
G1 X102.823 Y107.221 A7.76704
G1 X104.194 Y105.370 A7.82123
G1 X103.829 Y105.048 A7.83268
G1 X105.834 Y103.914 A7.88687
G1 X105.632 Y103.471 A7.89832
G1 X107.925 Y103.251 A7.95250
G1 X107.920 Y102.764 A7.96396
G1 X110.106 Y103.496 A8.01820
G1 X110.299 Y103.049 A8.02964
G1 X111.996 Y104.605 A8.08380
G1 X112.355 Y104.276 A8.09525
G1 X113.273 Y106.388 A8.14944
G1 X113.734 Y106.234 A8.16089
G1 X113.730 Y106.735 A8.17269
G1 X113.729 Y106.797 A8.17416
G0 X114.145 Y106.801 F7800.000
G1 X114.133 Y108.110 F480.000 A8.20494
G1 X115.480 Y108.360 A8.23717
G1 X115.434 Y108.711 A8.24550
G1 X114.701 Y108.652 A8.26280
G1 X113.737 Y110.434 A8.31045
G1 X115.395 Y111.423 A8.35585
G1 X115.318 Y111.630 A8.36106
G1 X114.679 Y111.518 A8.37633
G1 X113.699 Y111.115 A8.40124
G1 X112.606 Y112.767 A8.44784
G1 X113.224 Y113.535 A8.47103
G1 X113.081 Y113.702 A8.47619
G1 X112.484 Y113.355 A8.49242
G1 X111.814 Y113.063 A8.50963
G1 X110.554 Y114.332 A8.55170
G1 X110.732 Y115.028 A8.56860
G1 X110.459 Y115.131 A8.57545
G1 X110.186 Y114.592 A8.58965
G1 X109.497 Y114.037 A8.61046
G1 X107.993 Y114.736 A8.64948
G1 X107.891 Y115.308 A8.66315
G1 X107.556 Y115.271 A8.67108
G1 X107.584 Y114.613 A8.68659
G1 X105.948 Y113.586 A8.73203
G1 X104.890 Y115.000 A8.77358
G1 X104.625 Y114.837 A8.78089
G1 X105.177 Y113.726 A8.81007
G1 X104.018 Y112.100 A8.85703
G1 X102.678 Y112.918 A8.89396
G1 X102.485 Y112.648 A8.90177
G1 X103.333 Y111.947 A8.92766
G1 X102.974 Y110.176 A8.97017
G1 X102.313 Y110.038 A8.98605
G1 X101.674 Y110.045 A9.00107
G1 X101.636 Y109.778 A9.00741
G1 X102.373 Y109.572 A9.02541
G1 X102.800 Y107.650 A9.07174
G1 X101.228 Y107.156 A9.11048
G1 X101.301 Y106.841 A9.11809
G1 X102.461 Y107.012 A9.14569
G1 X103.633 Y105.429 A9.19201
G1 X102.399 Y104.339 A9.23075
G1 X102.593 Y104.080 A9.23837
G1 X103.583 Y104.709 A9.26596
G1 X105.298 Y103.740 A9.31229
G1 X104.613 Y102.242 A9.35103
G1 X104.896 Y102.085 A9.35864
G1 X105.545 Y103.062 A9.38624
G1 X107.505 Y102.873 A9.43256
