; generated by Slic3r 0.9.8 on 2013-03-31 at 18:27:50

; layer_height = 0.3
; perimeters = 3
; top_solid_layers = 3
; bottom_solid_layers = 3
; fill_density = 0.4
; perimeter_speed = 30
; infill_speed = 40
; travel_speed = 130
; scale = 1
; nozzle_diameter = 0.4
; filament_diameter = 3
; extrusion_multiplier = 1
; perimeters extrusion width = 0.42mm
; infill extrusion width = 0.42mm
; support material extrusion width = 0.24mm
; first layer extrusion width = 0.32mm

M190 P115 ; wait for bed temperature to be reached
M104 P235 ; set temperature
G92 A0                  ; Reset A to 0
G40                        ; Cancel cutter compensation
G64 P0.1                ; Path Blend within .1mm
G0 X108.5 Y108.5  ; Move to center
M109 P235 ; wait for temperature to be reached
G90 ; use absolute coordinates
G21 ; set units to millimeters
G0 Z0.400 F3600.000 A-1.00000
G0 X129.140 Y117.023 F7800.000
G0 F3600.000 A0.00000
G1 X128.510 Y117.463 F540.000 A0.01466
G1 X127.780 Y117.893 A0.03083
G1 X107.460 Y128.213 A0.46566
G1 X106.760 Y128.553 A0.48051
G1 X105.840 Y128.913 A0.49936
G1 X105.230 Y129.103 A0.51155
G1 X104.500 Y129.293 A0.52594
G1 X103.870 Y129.413 A0.53818
G1 X102.930 Y129.523 A0.55624
G1 X102.290 Y129.553 A0.56846
G1 X101.360 Y129.533 A0.58621
G1 X100.720 Y129.473 A0.59848
G1 X95.340 Y128.773 A0.70199
G1 X95.060 Y128.733 A0.70739
G1 X94.510 Y128.613 A0.71813
G1 X93.710 Y128.343 A0.73424
G1 X93.200 Y128.113 A0.74491
G1 X92.710 Y127.843 A0.75559
G1 X92.250 Y127.533 A0.76617
G1 X91.810 Y127.183 A0.77690
G1 X91.400 Y126.793 A0.78769
G1 X89.610 Y124.943 A0.83681
G1 X88.930 Y124.123 A0.85713
G1 X87.460 Y122.013 A0.90620
G1 X86.940 Y121.123 A0.92587
G1 X85.810 Y118.813 A0.97493
G1 X85.430 Y117.833 A0.99499
G1 X84.680 Y115.373 A1.04406
G1 X84.450 Y114.333 A1.06438
G1 X84.100 Y111.783 A1.11349
G1 X84.040 Y110.743 A1.13336
G1 X84.090 Y108.173 A1.18241
G1 X84.180 Y107.193 A1.20119
G1 X84.610 Y104.653 A1.25034
G1 X84.880 Y103.583 A1.27139
G1 X85.720 Y101.153 A1.32045
G1 X86.140 Y100.193 A1.34044
G1 X87.350 Y97.923 A1.38952
G1 X87.910 Y97.053 A1.40926
G1 X89.460 Y94.993 A1.45845
G1 X90.150 Y94.203 A1.47846
G1 X92.000 Y92.413 A1.52758
G1 X92.820 Y91.733 A1.54790
G1 X94.930 Y90.263 A1.59697
G1 X95.820 Y89.743 A1.61664
G1 X98.130 Y88.613 A1.66570
G1 X99.140 Y88.223 A1.68636
G1 X101.880 Y87.403 A1.74093
G1 X102.700 Y87.253 A1.75683
G1 X103.250 Y87.203 A1.76737
G1 X103.800 Y87.203 A1.77786
G1 X104.080 Y87.223 A1.78322
G1 X104.630 Y87.293 A1.79380
G1 X105.440 Y87.473 A1.80963
G1 X106.220 Y87.763 A1.82551
G1 X106.960 Y88.143 A1.84138
G1 X128.810 Y102.483 A2.34004
G1 X129.510 Y103.013 A2.35679
G1 X130.250 Y103.743 A2.37662
G1 X130.970 Y104.623 A2.39832
G1 X131.390 Y105.243 A2.41261
G1 X131.670 Y105.743 A2.42354
G1 X132.080 Y106.693 A2.44328
G1 X132.320 Y107.403 A2.45758
G1 X132.570 Y108.593 A2.48078
G1 X132.610 Y108.853 A2.48580
G1 X132.650 Y109.383 A2.49594
G1 X132.650 Y110.363 A2.51464
G1 X132.610 Y110.893 A2.52478
G1 X132.570 Y111.153 A2.52980
G1 X132.320 Y112.343 A2.55300
G1 X132.170 Y112.823 A2.56260
G1 X131.910 Y113.473 A2.57595
G1 X131.440 Y114.403 A2.59583
G1 X130.800 Y115.363 A2.61785
G1 X130.130 Y116.153 A2.63761
G1 X129.720 Y116.543 A2.64841
G1 X129.180 Y116.991 A2.66181
G1 X129.140 Y117.023 A2.66277
G0 X128.930 Y116.763 F7800.000
G1 X128.330 Y117.183 F540.000 A2.67675
G1 X127.630 Y117.593 A2.69223
G1 X107.200 Y127.973 A3.12945
G1 X106.620 Y128.253 A3.14174
G1 X105.740 Y128.593 A3.15974
G1 X105.130 Y128.783 A3.17193
G1 X104.440 Y128.963 A3.18554
G1 X103.810 Y129.083 A3.19777
G1 X102.920 Y129.183 A3.21486
G1 X102.280 Y129.213 A3.22709
G1 X101.390 Y129.193 A3.24407
G1 X100.750 Y129.133 A3.25634
G1 X95.380 Y128.433 A3.35966
G1 X94.820 Y128.343 A3.37048
G1 X94.270 Y128.193 A3.38136
G1 X93.740 Y127.993 A3.39217
G1 X93.230 Y127.753 A3.40292
G1 X92.500 Y127.303 A3.41928
G1 X91.850 Y126.763 A3.43541
G1 X89.860 Y124.713 A3.48992
G1 X89.210 Y123.923 A3.50944
G1 X87.740 Y121.813 A3.55850
G1 X87.250 Y120.973 A3.57706
G1 X86.120 Y118.663 A3.62612
G1 X85.750 Y117.733 A3.64522
G1 X85.000 Y115.273 A3.69429
G1 X84.780 Y114.283 A3.71364
G1 X84.430 Y111.733 A3.76275
G1 X84.370 Y110.753 A3.78148
G1 X84.420 Y108.183 A3.83053
G1 X84.510 Y107.243 A3.84854
G1 X84.940 Y104.703 A3.89770
G1 X85.200 Y103.693 A3.91760
G1 X86.040 Y101.263 A3.96665
G1 X86.440 Y100.353 A3.98562
G1 X87.650 Y98.083 A4.03470
G1 X88.180 Y97.253 A4.05349
G1 X89.730 Y95.193 A4.10267
G1 X90.380 Y94.453 A4.12147
G1 X92.230 Y92.663 A4.17058
G1 X93.020 Y92.013 A4.19010
G1 X95.130 Y90.543 A4.23917
G1 X95.970 Y90.053 A4.25772
G1 X98.280 Y88.923 A4.30679
G1 X99.240 Y88.543 A4.32649
G1 X101.710 Y87.803 A4.37568
G1 X102.250 Y87.663 A4.38633
G1 X102.520 Y87.613 A4.39157
G1 X103.070 Y87.553 A4.40212
G1 X103.620 Y87.533 A4.41262
G1 X103.900 Y87.543 A4.41797
G1 X104.450 Y87.603 A4.42852
G1 X104.990 Y87.703 A4.43900
G1 X105.260 Y87.773 A4.44432
G1 X105.520 Y87.853 A4.44952
G1 X106.290 Y88.163 A4.46535
G1 X107.010 Y88.573 A4.48116
G1 X128.850 Y102.923 A4.97976
G1 X129.490 Y103.453 A4.99562
G1 X130.010 Y103.983 A5.00979
G1 X130.690 Y104.813 A5.03026
G1 X131.100 Y105.423 A5.04428
G1 X131.370 Y105.903 A5.05479
G1 X131.490 Y106.143 A5.05991
G1 X131.850 Y107.033 A5.07823
G1 X131.930 Y107.263 A5.08287
G1 X132.050 Y107.723 A5.09194
G1 X132.240 Y108.643 A5.10987
G1 X132.300 Y109.143 A5.11948
G1 X132.320 Y109.643 A5.12902
G1 X132.300 Y110.603 A5.14734
G1 X132.240 Y111.103 A5.15695
G1 X132.050 Y112.023 A5.17488
G1 X131.930 Y112.483 A5.18395
G1 X131.590 Y113.353 A5.20177
G1 X131.150 Y114.233 A5.22054
G1 X130.540 Y115.153 A5.24160
G1 X130.250 Y115.513 A5.25042
G1 X129.890 Y115.913 A5.26069
G1 X129.290 Y116.473 A5.27635
G1 X128.970 Y116.731 A5.28420
G1 X128.930 Y116.763 A5.28517
G0 Z0.900 F1080.000 A4.28517
G0 X124.713 Y111.163 F7800.000
G0 Z0.400
G0 F3600.000 A5.28517
G1 X124.442 Y111.344 F540.000 A5.29138
G1 X124.141 Y111.468 A5.29759
G1 X123.822 Y111.532 A5.30380
G1 X123.497 Y111.532 A5.31001
G1 X123.178 Y111.468 A5.31622
G1 X122.877 Y111.344 A5.32243
G1 X122.606 Y111.163 A5.32864
G1 X122.376 Y110.933 A5.33485
G1 X122.195 Y110.662 A5.34106
G1 X122.071 Y110.361 A5.34727
G1 X122.007 Y110.042 A5.35347
G1 X122.007 Y109.717 A5.35968
G1 X122.071 Y109.397 A5.36589
G1 X122.195 Y109.097 A5.37210
G1 X122.376 Y108.826 A5.37831
G1 X122.606 Y108.596 A5.38452
G1 X122.877 Y108.415 A5.39073
G1 X123.178 Y108.291 A5.39694
G1 X123.497 Y108.227 A5.40315
G1 X123.822 Y108.227 A5.40936
G1 X124.141 Y108.291 A5.41557
G1 X124.442 Y108.415 A5.42178
G1 X124.713 Y108.596 A5.42799
G1 X124.943 Y108.826 A5.43420
G1 X125.124 Y109.097 A5.44041
G1 X125.248 Y109.397 A5.44662
G1 X125.312 Y109.717 A5.45283
G1 X125.312 Y110.042 A5.45904
G1 X125.248 Y110.361 A5.46525
G1 X125.124 Y110.662 A5.47146
G1 X124.943 Y110.933 A5.47767
G1 X124.750 Y111.129 A5.48291
G1 X124.713 Y111.163 A5.48388
G0 X124.757 Y111.497 F7800.000
G0 Z0.900 F1080.000 A4.48388
G0 X109.405 Y110.022 F7800.000
G0 Z0.400
G0 F3600.000 A5.48388
G1 X109.385 Y110.234 F540.000 A5.48793
G1 X109.171 Y111.240 A5.50757
G1 X108.949 Y111.203 A5.51187
G1 X108.885 Y111.300 A5.51408
G1 X108.621 Y111.583 A5.52147
G1 X108.313 Y111.819 A5.52887
G1 X107.970 Y111.999 A5.53626
G1 X107.520 Y112.131 A5.54521
G1 X107.218 Y112.175 A5.55102
G1 X106.831 Y112.166 A5.55841
G1 X106.451 Y112.092 A5.56580
G1 X106.088 Y111.956 A5.57320
G1 X105.753 Y111.761 A5.58059
G1 X105.456 Y111.512 A5.58798
G1 X105.205 Y111.217 A5.59537
G1 X105.007 Y110.884 A5.60276
G1 X104.868 Y110.522 A5.61016
G1 X104.791 Y110.141 A5.61757
G1 X104.780 Y109.745 A5.62514
G1 X104.838 Y109.351 A5.63273
G1 X104.962 Y108.973 A5.64032
G1 X105.150 Y108.623 A5.64791
G1 X105.395 Y108.310 A5.65550
G1 X105.691 Y108.043 A5.66309
G1 X106.028 Y107.832 A5.67068
G1 X106.397 Y107.682 A5.67826
G1 X106.785 Y107.598 A5.68585
G1 X107.183 Y107.582 A5.69344
G1 X107.577 Y107.635 A5.70103
G1 X108.149 Y107.815 A5.71247
G1 X108.625 Y108.179 A5.72391
G1 X108.717 Y108.279 A5.72650
G1 X108.932 Y108.207 A5.73082
G1 X109.301 Y109.168 A5.75047
G1 X109.368 Y109.429 A5.75561
G1 X109.405 Y109.696 A5.76075
G1 X109.410 Y109.972 A5.76601
G1 X109.405 Y110.022 A5.76698
G0 X109.070 Y109.990 F7800.000
G1 X109.051 Y110.182 F540.000 A5.77066
G1 X108.908 Y110.854 A5.78377
G1 X108.788 Y110.834 A5.78609
G1 X108.619 Y111.091 A5.79196
G1 X108.394 Y111.333 A5.79827
G1 X108.131 Y111.533 A5.80457
G1 X107.838 Y111.687 A5.81087
G1 X107.524 Y111.789 A5.81718
G1 X107.197 Y111.837 A5.82348
G1 X106.867 Y111.830 A5.82979
G1 X106.543 Y111.767 A5.83609
G1 X106.233 Y111.650 A5.84240
G1 X105.948 Y111.484 A5.84870
G1 X105.695 Y111.272 A5.85501
G1 X105.481 Y111.020 A5.86131
G1 X105.312 Y110.736 A5.86761
G1 X105.193 Y110.428 A5.87392
G1 X105.128 Y110.103 A5.88023
G1 X105.118 Y109.765 A5.88670
G1 X105.167 Y109.429 A5.89317
G1 X105.273 Y109.107 A5.89964
G1 X105.434 Y108.808 A5.90611
G1 X105.643 Y108.541 A5.91259
G1 X105.895 Y108.314 A5.91906
G1 X106.182 Y108.133 A5.92553
G1 X106.497 Y108.006 A5.93200
G1 X106.828 Y107.934 A5.93848
G1 X107.167 Y107.920 A5.94495
G1 X107.503 Y107.965 A5.95142
G1 X107.827 Y108.067 A5.95789
G1 X108.128 Y108.223 A5.96437
G1 X108.397 Y108.429 A5.97084
G1 X108.618 Y108.668 A5.97704
G1 X108.733 Y108.630 A5.97936
G1 X108.980 Y109.271 A5.99247
G1 X109.037 Y109.494 A5.99687
G1 X109.068 Y109.723 A6.00127
G1 X109.073 Y109.940 A6.00541
G1 X109.070 Y109.990 A6.00637
G0 X108.734 Y109.958 F7800.000
G1 X108.717 Y110.131 F540.000 A6.00969
G1 X108.646 Y110.468 A6.01626
G1 X108.588 Y110.458 A6.01736
G1 X108.503 Y110.654 A6.02143
G1 X108.353 Y110.882 A6.02665
G1 X108.166 Y111.082 A6.03186
G1 X107.949 Y111.248 A6.03708
G1 X107.682 Y111.383 A6.04278
G1 X107.447 Y111.460 A6.04751
G1 X107.176 Y111.499 A6.05272
G1 X106.903 Y111.493 A6.05794
G1 X106.635 Y111.441 A6.06316
G1 X106.356 Y111.332 A6.06886
G1 X106.143 Y111.207 A6.07358
G1 X105.933 Y111.031 A6.07880
G1 X105.756 Y110.823 A6.08402
G1 X105.616 Y110.588 A6.08923
G1 X105.518 Y110.333 A6.09445
G1 X105.464 Y110.065 A6.09967
G1 X105.456 Y109.784 A6.10502
G1 X105.497 Y109.507 A6.11038
G1 X105.585 Y109.240 A6.11574
G1 X105.717 Y108.993 A6.12109
G1 X105.890 Y108.772 A6.12645
G1 X106.099 Y108.584 A6.13180
G1 X106.337 Y108.435 A6.13716
G1 X106.597 Y108.329 A6.14251
G1 X106.871 Y108.269 A6.14787
G1 X107.151 Y108.258 A6.15323
G1 X107.430 Y108.295 A6.15858
G1 X107.697 Y108.380 A6.16394
G1 X107.946 Y108.509 A6.16929
G1 X108.169 Y108.680 A6.17465
G1 X108.360 Y108.886 A6.18001
G1 X108.479 Y109.071 A6.18420
G1 X108.534 Y109.052 A6.18532
G1 X108.658 Y109.374 A6.19189
G1 X108.706 Y109.559 A6.19554
G1 X108.735 Y109.908 A6.20222
G1 X108.734 Y109.958 A6.20318
G0 X109.019 Y110.138 F7800.000
G0 Z0.900 F1080.000 A5.20318
G0 X103.772 Y116.322 F7800.000
G0 Z0.400
G0 F3600.000 A6.20318
G1 X103.967 Y116.520 F540.000 A6.20849
G1 X104.141 Y116.737 A6.21380
G1 X104.293 Y116.970 A6.21911
G1 X104.441 Y117.264 A6.22538
G1 X104.603 Y117.742 A6.23502
G1 X104.655 Y118.016 A6.24033
G1 X104.679 Y118.293 A6.24564
G1 X104.676 Y118.571 A6.25094
G1 X104.646 Y118.848 A6.25626
G1 X104.589 Y119.120 A6.26156
G1 X104.505 Y119.386 A6.26687
G1 X104.396 Y119.641 A6.27218
G1 X104.262 Y119.885 A6.27749
G1 X104.105 Y120.115 A6.28280
G1 X103.927 Y120.328 A6.28811
G1 X103.728 Y120.523 A6.29342
G1 X103.511 Y120.697 A6.29873
G1 X103.278 Y120.849 A6.30403
G1 X103.031 Y120.978 A6.30934
G1 X102.773 Y121.082 A6.31465
G1 X102.506 Y121.160 A6.31996
G1 X102.233 Y121.211 A6.32527
G1 X101.955 Y121.236 A6.33058
G1 X101.677 Y121.233 A6.33589
G1 X101.401 Y121.203 A6.34120
G1 X101.128 Y121.145 A6.34650
G1 X100.863 Y121.062 A6.35181
G1 X100.607 Y120.953 A6.35712
G1 X100.362 Y120.819 A6.36245
G1 X99.280 Y120.076 A6.38749
G1 X98.279 Y119.226 A6.41255
G1 X97.370 Y118.277 A6.43761
G1 X96.562 Y117.242 A6.46268
G1 X95.865 Y116.128 A6.48774
G1 X95.285 Y114.950 A6.51280
G1 X94.828 Y113.718 A6.53786
G1 X94.500 Y112.447 A6.56291
G1 X94.457 Y112.164 A6.56836
G1 X94.443 Y111.881 A6.57377
G1 X94.491 Y111.361 A6.58373
G1 X94.633 Y110.861 A6.59366
G1 X94.760 Y110.581 A6.59953
G1 X95.010 Y110.179 A6.60855
G1 X95.359 Y109.793 A6.61848
G1 X95.772 Y109.477 A6.62841
G1 X96.236 Y109.243 A6.63834
G1 X96.736 Y109.097 A6.64826
G1 X97.254 Y109.044 A6.65819
G1 X97.772 Y109.087 A6.66812
G1 X98.274 Y109.225 A6.67804
G1 X98.742 Y109.451 A6.68797
G1 X98.959 Y109.596 A6.69294
G1 X99.348 Y109.941 A6.70287
G1 X99.667 Y110.352 A6.71279
G1 X99.797 Y110.578 A6.71776
G1 X99.993 Y111.060 A6.72769
G1 X100.240 Y112.022 A6.74665
G1 X100.495 Y112.710 A6.76063
G1 X100.818 Y113.368 A6.77462
G1 X101.208 Y113.989 A6.78861
G1 X101.658 Y114.567 A6.80260
G1 X102.166 Y115.096 A6.81659
G1 X102.725 Y115.571 A6.83058
G1 X103.559 Y116.143 A6.84987
G1 X103.733 Y116.289 A6.85422
G1 X103.772 Y116.322 A6.85518
G0 X103.543 Y116.569 F7800.000
G1 X103.868 Y116.936 F540.000 A6.86453
G1 X104.002 Y117.141 A6.86920
G1 X104.128 Y117.390 A6.87453
G1 X104.275 Y117.821 A6.88322
G1 X104.320 Y118.062 A6.88790
G1 X104.339 Y118.551 A6.89724
G1 X104.262 Y119.035 A6.90658
G1 X104.093 Y119.494 A6.91592
G1 X103.836 Y119.911 A6.92527
G1 X103.679 Y120.099 A6.92994
G1 X103.313 Y120.424 A6.93929
G1 X102.890 Y120.671 A6.94863
G1 X102.427 Y120.832 A6.95797
G1 X101.942 Y120.898 A6.96731
G1 X101.454 Y120.869 A6.97666
G1 X100.980 Y120.745 A6.98600
G1 X100.754 Y120.649 A6.99067
G1 X100.539 Y120.531 A6.99536
G1 X99.485 Y119.808 A7.01975
G1 X98.510 Y118.980 A7.04415
G1 X97.625 Y118.057 A7.06856
G1 X96.839 Y117.048 A7.09296
G1 X96.160 Y115.964 A7.11736
G1 X95.595 Y114.817 A7.14176
G1 X95.151 Y113.617 A7.16616
G1 X94.831 Y112.379 A7.19056
G1 X94.793 Y112.130 A7.19536
G1 X94.781 Y111.881 A7.20014
G1 X94.823 Y111.423 A7.20890
G1 X94.875 Y111.200 A7.21328
G1 X95.040 Y110.772 A7.22202
G1 X95.280 Y110.381 A7.23077
G1 X95.587 Y110.041 A7.23952
G1 X95.763 Y109.894 A7.24389
G1 X96.151 Y109.651 A7.25264
G1 X96.578 Y109.482 A7.26138
G1 X97.027 Y109.394 A7.27013
G1 X97.257 Y109.382 A7.27451
G1 X97.713 Y109.420 A7.28325
G1 X98.155 Y109.541 A7.29199
G1 X98.568 Y109.740 A7.30074
G1 X98.937 Y110.012 A7.30948
G1 X99.250 Y110.347 A7.31823
G1 X99.497 Y110.733 A7.32697
G1 X99.670 Y111.157 A7.33572
G1 X99.918 Y112.123 A7.35475
G1 X100.184 Y112.843 A7.36939
G1 X100.523 Y113.532 A7.38404
G1 X100.931 Y114.182 A7.39869
G1 X101.403 Y114.788 A7.41334
G1 X101.934 Y115.342 A7.42798
G1 X102.519 Y115.839 A7.44263
G1 X103.355 Y116.412 A7.46196
G1 X103.504 Y116.537 A7.46567
G1 X103.543 Y116.569 A7.46663
G0 X103.313 Y116.817 F7800.000
G1 X103.594 Y117.134 F540.000 A7.47471
G1 X103.815 Y117.516 A7.48313
G1 X103.947 Y117.900 A7.49087
G1 X103.986 Y118.108 A7.49491
G1 X104.002 Y118.531 A7.50299
G1 X103.936 Y118.949 A7.51107
G1 X103.789 Y119.346 A7.51915
G1 X103.567 Y119.707 A7.52723
G1 X103.431 Y119.870 A7.53128
G1 X103.115 Y120.151 A7.53936
G1 X102.749 Y120.365 A7.54744
G1 X102.349 Y120.503 A7.55552
G1 X101.929 Y120.561 A7.56360
G1 X101.507 Y120.536 A7.57168
G1 X101.097 Y120.429 A7.57976
G1 X100.716 Y120.244 A7.58784
G1 X99.690 Y119.539 A7.61158
G1 X98.742 Y118.734 A7.63532
G1 X97.880 Y117.836 A7.65906
G1 X97.115 Y116.854 A7.68281
G1 X96.455 Y115.800 A7.70655
G1 X95.905 Y114.683 A7.73029
G1 X95.473 Y113.516 A7.75403
G1 X95.162 Y112.312 A7.77778
G1 X95.118 Y111.880 A7.78606
G1 X95.155 Y111.485 A7.79363
G1 X95.200 Y111.291 A7.79741
G1 X95.342 Y110.922 A7.80497
G1 X95.550 Y110.584 A7.81254
G1 X95.816 Y110.290 A7.82010
G1 X95.968 Y110.162 A7.82389
G1 X96.304 Y109.952 A7.83145
G1 X96.672 Y109.806 A7.83901
G1 X97.061 Y109.730 A7.84658
G1 X97.259 Y109.719 A7.85036
G1 X97.654 Y109.752 A7.85793
G1 X98.037 Y109.857 A7.86549
G1 X98.394 Y110.029 A7.87305
G1 X98.713 Y110.264 A7.88062
G1 X98.984 Y110.554 A7.88818
