; generated by Slic3r 0.9.8 on 2013-03-31 at 18:28:20

; layer_height = 0.3
; perimeters = 3
; top_solid_layers = 3
; bottom_solid_layers = 3
; fill_density = 0.4
; perimeter_speed = 30
; infill_speed = 40
; travel_speed = 130
; scale = 1
; nozzle_diameter = 0.4
; filament_diameter = 3
; extrusion_multiplier = 1
; perimeters extrusion width = 0.42mm
; infill extrusion width = 0.42mm
; support material extrusion width = 0.24mm
; first layer extrusion width = 0.32mm

M190 P115 ; wait for bed temperature to be reached
M104 P235 ; set temperature
G92 A0                  ; Reset A to 0
G40                        ; Cancel cutter compensation
G64 P0.1                ; Path Blend within .1mm
G0 X108.5 Y108.5  ; Move to center
M109 P235 ; wait for temperature to be reached
G90 ; use absolute coordinates
G21 ; set units to millimeters
G0 Z0.400 F3600.000 A-1.00000
G0 X132.243 Y108.619 F7800.000
G0 F3600.000 A0.00000
G1 X131.883 Y109.539 F540.000 A0.01885
G1 X131.443 Y110.389 A0.03711
G1 X131.323 Y110.589 A0.04156
G1 X130.743 Y111.419 A0.06088
G1 X130.293 Y111.959 A0.07429
G1 X129.763 Y112.489 A0.08859
G1 X129.013 Y113.109 A0.10716
G1 X128.353 Y113.549 A0.12229
G1 X127.583 Y113.969 A0.13903
G1 X107.473 Y124.199 A0.56952
G1 X106.683 Y124.569 A0.58616
G1 X105.943 Y124.859 A0.60133
G1 X105.333 Y125.059 A0.61357
G1 X104.403 Y125.289 A0.63185
G1 X103.773 Y125.399 A0.64406
G1 X102.953 Y125.499 A0.65982
G1 X102.343 Y125.529 A0.67147
G1 X101.463 Y125.509 A0.68826
G1 X100.823 Y125.459 A0.70051
G1 X99.873 Y125.319 A0.71883
G1 X99.023 Y125.129 A0.73545
G1 X93.583 Y123.699 A0.84277
G1 X93.053 Y123.529 A0.85339
G1 X92.543 Y123.329 A0.86384
G1 X92.053 Y123.079 A0.87434
G1 X91.573 Y122.789 A0.88504
G1 X90.913 Y122.289 A0.90084
G1 X90.323 Y121.709 A0.91662
G1 X88.503 Y119.519 A0.97095
G1 X87.893 Y118.649 A0.99123
G1 X86.583 Y116.429 A1.04041
G1 X86.123 Y115.479 A1.06055
G1 X85.183 Y113.089 A1.10955
G1 X84.873 Y112.099 A1.12934
G1 X84.313 Y109.579 A1.17860
G1 X84.173 Y108.489 A1.19956
G1 X84.033 Y105.919 A1.24867
G1 X84.043 Y104.939 A1.26737
G1 X84.283 Y102.379 A1.31643
G1 X84.473 Y101.339 A1.33660
G1 X85.113 Y98.849 A1.38565
G1 X85.453 Y97.839 A1.40599
G1 X86.483 Y95.479 A1.45512
G1 X86.723 Y94.999 A1.46536
G1 X86.993 Y94.529 A1.47570
G1 X87.303 Y94.089 A1.48597
G1 X87.833 Y93.479 A1.50139
G1 X88.233 Y93.109 A1.51178
G1 X88.653 Y92.769 A1.52209
G1 X89.093 Y92.469 A1.53225
G1 X89.813 Y92.089 A1.54779
G1 X90.303 Y91.879 A1.55796
G1 X91.083 Y91.649 A1.57347
G1 X91.613 Y91.549 A1.58377
G1 X92.153 Y91.489 A1.59413
G1 X92.773 Y91.469 A1.60597
G1 X93.743 Y91.509 A1.62449
G1 X94.873 Y91.659 A1.64624
G1 X125.653 Y97.079 A2.24255
G1 X126.453 Y97.289 A2.25833
G1 X127.423 Y97.659 A2.27814
G1 X127.633 Y97.759 A2.28258
G1 X128.533 Y98.279 A2.30241
G1 X128.913 Y98.539 A2.31120
G1 X129.793 Y99.259 A2.33289
G1 X130.523 Y99.999 A2.35272
G1 X130.883 Y100.459 A2.36387
G1 X131.303 Y101.079 A2.37816
G1 X131.753 Y101.879 A2.39567
G1 X131.853 Y102.089 A2.40011
G1 X132.223 Y103.069 A2.42009
G1 X132.353 Y103.509 A2.42885
G1 X132.573 Y104.489 A2.44801
G1 X132.663 Y105.629 A2.46983
G1 X132.663 Y106.359 A2.48376
G1 X132.623 Y106.899 A2.49409
G1 X132.443 Y107.869 A2.51291
G1 X132.258 Y108.571 A2.52676
G1 X132.243 Y108.619 A2.52772
G0 X131.923 Y108.509 F7800.000
G1 X131.573 Y109.409 F540.000 A2.54615
G1 X131.153 Y110.219 A2.56356
G1 X131.033 Y110.419 A2.56801
G1 X130.483 Y111.199 A2.58622
G1 X130.043 Y111.729 A2.59936
G1 X129.533 Y112.239 A2.61312
G1 X128.813 Y112.839 A2.63100
G1 X128.183 Y113.259 A2.64545
G1 X127.423 Y113.669 A2.66193
G1 X107.313 Y123.899 A3.09241
G1 X106.533 Y124.269 A3.10889
G1 X105.833 Y124.539 A3.12320
G1 X105.223 Y124.739 A3.13545
G1 X104.343 Y124.959 A3.15276
G1 X103.713 Y125.069 A3.16496
G1 X102.933 Y125.159 A3.17994
G1 X102.013 Y125.199 A3.19751
G1 X101.493 Y125.179 A3.20744
G1 X100.853 Y125.129 A3.21969
G1 X99.943 Y124.989 A3.23725
G1 X99.113 Y124.799 A3.25350
G1 X93.403 Y123.289 A3.36619
G1 X92.613 Y122.989 A3.38231
G1 X92.113 Y122.729 A3.39307
G1 X91.643 Y122.429 A3.40370
G1 X90.983 Y121.899 A3.41985
G1 X90.583 Y121.499 A3.43065
G1 X88.763 Y119.299 A3.48513
G1 X88.183 Y118.479 A3.50429
G1 X86.873 Y116.259 A3.55347
G1 X86.433 Y115.359 A3.57258
G1 X85.493 Y112.969 A3.62159
G1 X85.203 Y112.019 A3.64054
G1 X84.643 Y109.499 A3.68979
G1 X84.503 Y108.469 A3.70962
G1 X84.363 Y105.899 A3.75873
G1 X84.383 Y104.969 A3.77648
G1 X84.623 Y102.409 A3.82554
G1 X84.793 Y101.419 A3.84470
G1 X85.433 Y98.929 A3.89376
G1 X85.763 Y97.979 A3.91295
G1 X86.903 Y95.369 A3.96729
G1 X87.023 Y95.139 A3.97224
G1 X87.453 Y94.459 A3.98759
G1 X87.773 Y94.039 A3.99766
G1 X88.133 Y93.649 A4.00779
G1 X88.733 Y93.129 A4.02294
G1 X89.173 Y92.819 A4.03321
G1 X89.623 Y92.549 A4.04322
G1 X90.103 Y92.329 A4.05329
G1 X90.853 Y92.059 A4.06850
G1 X91.373 Y91.929 A4.07873
G1 X91.893 Y91.849 A4.08877
G1 X92.423 Y91.819 A4.09890
G1 X92.783 Y91.809 A4.10577
G1 X93.713 Y91.849 A4.12353
G1 X94.823 Y91.989 A4.14487
G1 X124.993 Y97.289 A4.72933
G1 X125.583 Y97.409 A4.74082
G1 X126.343 Y97.609 A4.75581
G1 X127.273 Y97.969 A4.77484
G1 X127.483 Y98.069 A4.77927
G1 X128.343 Y98.559 A4.79816
G1 X128.723 Y98.819 A4.80694
G1 X129.553 Y99.499 A4.82742
G1 X130.083 Y100.019 A4.84158
G1 X130.613 Y100.659 A4.85744
G1 X131.013 Y101.269 A4.87136
G1 X131.443 Y102.029 A4.88802
G1 X131.543 Y102.239 A4.89245
G1 X131.903 Y103.159 A4.91130
G1 X132.033 Y103.599 A4.92006
G1 X132.233 Y104.539 A4.93839
G1 X132.333 Y105.629 A4.95928
G1 X132.313 Y106.599 A4.97779
G1 X132.203 Y107.359 A4.99244
G1 X132.113 Y107.799 A5.00101
G1 X131.938 Y108.460 A5.01407
G1 X131.923 Y108.509 A5.01503
G0 Z0.900 F1080.000 A4.01503
G0 X123.830 Y107.512 F7800.000
G0 Z0.400
G0 F3600.000 A5.01503
G1 X123.504 Y107.512 F540.000 A5.02124
G1 X123.185 Y107.448 A5.02745
G1 X122.884 Y107.324 A5.03366
G1 X122.614 Y107.143 A5.03987
G1 X122.384 Y106.913 A5.04608
G1 X122.203 Y106.642 A5.05229
G1 X122.078 Y106.341 A5.05850
G1 X122.015 Y106.022 A5.06471
G1 X122.015 Y105.697 A5.07092
G1 X122.078 Y105.377 A5.07713
G1 X122.203 Y105.077 A5.08334
G1 X122.384 Y104.806 A5.08955
G1 X122.614 Y104.576 A5.09576
G1 X122.884 Y104.395 A5.10197
G1 X123.185 Y104.271 A5.10818
G1 X123.489 Y104.209 A5.11410
G1 X123.830 Y104.207 A5.12060
G1 X124.149 Y104.271 A5.12681
G1 X124.450 Y104.395 A5.13301
G1 X124.720 Y104.576 A5.13922
G1 X124.950 Y104.806 A5.14543
G1 X125.131 Y105.077 A5.15164
G1 X125.256 Y105.377 A5.15785
G1 X125.319 Y105.697 A5.16406
G1 X125.319 Y106.022 A5.17027
G1 X125.256 Y106.341 A5.17648
G1 X125.131 Y106.642 A5.18269
G1 X124.950 Y106.913 A5.18890
G1 X124.720 Y107.143 A5.19511
G1 X124.450 Y107.324 A5.20132
G1 X124.149 Y107.448 A5.20753
G1 X123.880 Y107.504 A5.21278
G1 X123.830 Y107.512 A5.21374
G0 X123.681 Y107.814 F7800.000
G0 Z0.900 F1080.000 A4.21374
G0 X108.733 Y106.051 F7800.000
G0 Z0.400
G0 F3600.000 A5.21374
G1 X108.700 Y106.239 F540.000 A5.21739
G1 X108.602 Y106.569 A5.22396
G1 X108.546 Y106.555 A5.22507
G1 X108.445 Y106.743 A5.22914
G1 X108.278 Y106.959 A5.23435
G1 X108.076 Y107.144 A5.23957
G1 X107.847 Y107.292 A5.24479
G1 X107.595 Y107.400 A5.25000
G1 X107.329 Y107.464 A5.25522
G1 X107.057 Y107.482 A5.26044
G1 X106.785 Y107.455 A5.26565
G1 X106.521 Y107.382 A5.27087
G1 X106.252 Y107.251 A5.27657
G1 X106.049 Y107.110 A5.28130
G1 X105.854 Y106.918 A5.28651
G1 X105.694 Y106.697 A5.29173
G1 X105.573 Y106.451 A5.29695
G1 X105.495 Y106.189 A5.30216
G1 X105.462 Y105.918 A5.30738
G1 X105.476 Y105.638 A5.31274
G1 X105.538 Y105.364 A5.31809
G1 X105.647 Y105.105 A5.32345
G1 X105.798 Y104.869 A5.32881
G1 X105.988 Y104.662 A5.33416
G1 X106.211 Y104.491 A5.33952
G1 X106.485 Y104.353 A5.34537
G1 X106.727 Y104.276 A5.35022
G1 X107.005 Y104.238 A5.35558
G1 X107.286 Y104.249 A5.36093
G1 X107.585 Y104.318 A5.36679
G1 X107.821 Y104.413 A5.37164
G1 X108.059 Y104.562 A5.37699
G1 X108.268 Y104.749 A5.38235
G1 X108.441 Y104.970 A5.38771
G1 X108.546 Y105.163 A5.39191
G1 X108.602 Y105.149 A5.39302
G1 X108.700 Y105.480 A5.39959
G1 X108.733 Y105.668 A5.40324
G1 X108.736 Y106.000 A5.40958
G1 X108.733 Y106.051 A5.41054
G0 X109.004 Y106.252 F7800.000
G0 Z0.900 F1080.000 A4.41054
G0 X103.779 Y112.302 F7800.000
G0 Z0.400
G0 F3600.000 A5.41054
G1 X103.974 Y112.500 F540.000 A5.41585
G1 X104.148 Y112.717 A5.42116
G1 X104.301 Y112.950 A5.42647
G1 X104.429 Y113.197 A5.43178
G1 X104.533 Y113.455 A5.43708
G1 X104.611 Y113.722 A5.44239
G1 X104.662 Y113.996 A5.44770
G1 X104.687 Y114.273 A5.45301
G1 X104.684 Y114.551 A5.45832
G1 X104.654 Y114.828 A5.46363
G1 X104.596 Y115.100 A5.46894
G1 X104.513 Y115.366 A5.47425
G1 X104.404 Y115.621 A5.47956
G1 X104.270 Y115.865 A5.48487
G1 X104.113 Y116.095 A5.49018
G1 X103.934 Y116.308 A5.49548
G1 X103.735 Y116.503 A5.50079
G1 X103.519 Y116.677 A5.50610
G1 X103.286 Y116.829 A5.51141
G1 X103.039 Y116.958 A5.51672
G1 X102.781 Y117.062 A5.52203
G1 X102.514 Y117.140 A5.52734
G1 X102.240 Y117.191 A5.53265
G1 X101.963 Y117.216 A5.53796
G1 X101.685 Y117.213 A5.54326
G1 X101.408 Y117.183 A5.54857
G1 X101.136 Y117.125 A5.55388
G1 X100.870 Y117.042 A5.55919
G1 X100.614 Y116.933 A5.56450
G1 X100.370 Y116.799 A5.56982
G1 X99.288 Y116.056 A5.59487
G1 X98.286 Y115.206 A5.61993
G1 X97.313 Y114.175 A5.64697
G1 X96.570 Y113.221 A5.67004
G1 X95.872 Y112.108 A5.69510
G1 X95.292 Y110.930 A5.72016
G1 X94.836 Y109.698 A5.74522
G1 X94.508 Y108.427 A5.77028
G1 X94.465 Y108.144 A5.77573
G1 X94.451 Y107.861 A5.78114
G1 X94.498 Y107.341 A5.79110
G1 X94.640 Y106.841 A5.80103
G1 X94.768 Y106.561 A5.80690
G1 X95.017 Y106.159 A5.81592
G1 X95.366 Y105.773 A5.82585
G1 X95.780 Y105.457 A5.83577
G1 X96.244 Y105.223 A5.84570
G1 X96.743 Y105.077 A5.85563
G1 X97.048 Y105.036 A5.86150
G1 X97.521 Y105.034 A5.87052
G1 X98.034 Y105.125 A5.88045
G1 X98.521 Y105.307 A5.89037
G1 X98.966 Y105.576 A5.90030
G1 X99.355 Y105.921 A5.91023
G1 X99.675 Y106.332 A5.92015
G1 X99.805 Y106.558 A5.92512
G1 X100.000 Y107.040 A5.93505
G1 X100.247 Y108.002 A5.95401
G1 X100.502 Y108.690 A5.96800
G1 X100.826 Y109.348 A5.98199
G1 X101.215 Y109.969 A5.99597
G1 X101.666 Y110.547 A6.00996
G1 X102.173 Y111.076 A6.02395
G1 X102.732 Y111.551 A6.03794
G1 X103.566 Y112.123 A6.05724
G1 X103.741 Y112.269 A6.06158
G1 X103.779 Y112.302 A6.06255
G0 X103.550 Y112.549 F7800.000
G1 X103.875 Y112.916 F540.000 A6.07189
G1 X104.009 Y113.121 A6.07657
G1 X104.135 Y113.370 A6.08189
G1 X104.283 Y113.801 A6.09058
G1 X104.328 Y114.042 A6.09526
G1 X104.347 Y114.531 A6.10460
G1 X104.270 Y115.015 A6.11395
G1 X104.100 Y115.474 A6.12329
G1 X103.844 Y115.891 A6.13263
G1 X103.687 Y116.079 A6.13731
G1 X103.320 Y116.404 A6.14665
G1 X102.898 Y116.651 A6.15599
G1 X102.435 Y116.812 A6.16534
G1 X101.950 Y116.878 A6.17468
G1 X101.461 Y116.849 A6.18402
G1 X100.987 Y116.725 A6.19336
G1 X100.762 Y116.629 A6.19804
G1 X100.547 Y116.511 A6.20273
G1 X99.493 Y115.787 A6.22712
G1 X98.518 Y114.960 A6.25152
G1 X97.633 Y114.037 A6.27592
G1 X96.800 Y112.954 A6.30197
G1 X96.167 Y111.944 A6.32472
G1 X95.603 Y110.797 A6.34912
G1 X95.158 Y109.597 A6.37352
G1 X94.839 Y108.359 A6.39792
G1 X94.801 Y108.110 A6.40272
G1 X94.788 Y107.860 A6.40749
G1 X94.830 Y107.403 A6.41626
G1 X94.883 Y107.180 A6.42064
G1 X95.047 Y106.752 A6.42938
G1 X95.287 Y106.361 A6.43813
G1 X95.595 Y106.021 A6.44687
G1 X95.770 Y105.874 A6.45125
G1 X96.159 Y105.630 A6.45999
G1 X96.585 Y105.462 A6.46874
G1 X97.035 Y105.374 A6.47748
G1 X97.296 Y105.363 A6.48247
G1 X97.721 Y105.400 A6.49060
G1 X98.163 Y105.521 A6.49935
G1 X98.575 Y105.720 A6.50809
G1 X98.945 Y105.992 A6.51684
G1 X99.258 Y106.326 A6.52558
G1 X99.505 Y106.713 A6.53433
G1 X99.677 Y107.137 A6.54307
G1 X99.925 Y108.103 A6.56210
G1 X100.192 Y108.823 A6.57675
G1 X100.531 Y109.512 A6.59140
G1 X100.939 Y110.162 A6.60604
G1 X101.410 Y110.768 A6.62069
G1 X101.942 Y111.322 A6.63534
G1 X102.527 Y111.819 A6.64999
G1 X103.362 Y112.392 A6.66931
G1 X103.511 Y112.517 A6.67302
G1 X103.550 Y112.549 A6.67399
G0 X103.321 Y112.797 F7800.000
G1 X103.602 Y113.114 F540.000 A6.68207
G1 X103.822 Y113.496 A6.69048
G1 X103.954 Y113.879 A6.69822
G1 X103.993 Y114.088 A6.70227
G1 X104.010 Y114.511 A6.71035
G1 X103.943 Y114.929 A6.71843
G1 X103.796 Y115.326 A6.72651
G1 X103.575 Y115.687 A6.73459
G1 X103.439 Y115.850 A6.73863
G1 X103.122 Y116.131 A6.74671
G1 X102.757 Y116.345 A6.75479
G1 X102.356 Y116.483 A6.76287
G1 X101.937 Y116.541 A6.77095
G1 X101.514 Y116.516 A6.77903
G1 X101.104 Y116.409 A6.78711
G1 X100.723 Y116.223 A6.79519
G1 X99.698 Y115.519 A6.81893
G1 X98.749 Y114.714 A6.84268
G1 X97.845 Y113.761 A6.86774
G1 X97.123 Y112.834 A6.89016
G1 X96.462 Y111.780 A6.91390
G1 X95.913 Y110.663 A6.93764
G1 X95.480 Y109.496 A6.96138
G1 X95.169 Y108.292 A6.98512
G1 X95.126 Y107.860 A6.99340
G1 X95.162 Y107.465 A7.00097
G1 X95.207 Y107.271 A7.00476
G1 X95.350 Y106.902 A7.01232
G1 X95.557 Y106.564 A7.01989
G1 X95.823 Y106.270 A7.02745
G1 X95.975 Y106.142 A7.03124
G1 X96.311 Y105.932 A7.03880
G1 X96.680 Y105.786 A7.04636
G1 X97.069 Y105.710 A7.05393
G1 X97.283 Y105.700 A7.05803
G1 X97.662 Y105.732 A7.06527
G1 X98.044 Y105.837 A7.07284
G1 X98.401 Y106.009 A7.08040
G1 X98.720 Y106.244 A7.08796
G1 X98.991 Y106.534 A7.09553
G1 X99.205 Y106.868 A7.10309
G1 X99.354 Y107.235 A7.11065
G1 X99.603 Y108.204 A7.12975
G1 X99.882 Y108.956 A7.14505
G1 X100.236 Y109.676 A7.16036
G1 X100.662 Y110.356 A7.17567
G1 X101.155 Y110.989 A7.19097
G1 X101.710 Y111.568 A7.20628
G1 X102.322 Y112.087 A7.22159
G1 X103.158 Y112.661 A7.24094
G1 X103.282 Y112.765 A7.24402
G1 X103.321 Y112.797 A7.24498
G0 X103.647 Y112.713 F7800.000
G0 Z0.900 F1080.000 A6.24498
G0 X94.875 Y99.473 F7800.000
G0 Z0.400
G0 F3600.000 A7.24498
G1 X101.340 Y103.371 F540.000 A7.38900
G1 X102.018 Y103.719 A7.40356
G1 X102.764 Y103.982 A7.41865
G1 X103.539 Y104.142 A7.43374
G1 X104.300 Y104.194 A7.44829
G1 X105.430 Y104.194 A7.46986
G1 X105.048 Y104.790 A7.48338
G1 X104.894 Y105.157 A7.49097
G1 X104.806 Y105.545 A7.49856
G1 X104.786 Y105.941 A7.50613
G1 X104.832 Y106.327 A7.51354
G1 X104.943 Y106.698 A7.52093
G1 X105.114 Y107.046 A7.52832
G1 X105.341 Y107.360 A7.53571
G1 X105.617 Y107.631 A7.54311
G1 X105.868 Y107.805 A7.54892
G1 X106.286 Y108.016 A7.55787
G1 X106.660 Y108.120 A7.56526
G1 X106.963 Y108.151 A7.57107
G1 X107.432 Y108.133 A7.58003
G1 X107.808 Y108.042 A7.58742
G1 X108.164 Y107.890 A7.59481
G1 X108.490 Y107.679 A7.60220
G1 X108.775 Y107.418 A7.60959
G1 X108.847 Y107.326 A7.61181
G1 X109.065 Y107.380 A7.61610
G1 X109.358 Y106.394 A7.63574
G1 X109.404 Y106.128 A7.64088
G1 X109.420 Y105.860 A7.64602
G1 X109.404 Y105.590 A7.65116
G1 X109.358 Y105.325 A7.65630
G1 X109.022 Y104.194 A7.67882
G1 X121.998 Y104.194 A7.92641
G1 X121.725 Y104.562 A7.93515
G1 X121.509 Y104.966 A7.94389
G1 X121.377 Y105.404 A7.95262
G1 X121.332 Y105.860 A7.96136
G1 X121.377 Y106.315 A7.97009
G1 X121.509 Y106.753 A7.97883
G1 X121.725 Y107.157 A7.98756
G1 X121.998 Y107.525 A7.99631
G1 X112.063 Y107.525 A8.18586
G1 X111.512 Y107.552 A8.19640
G1 X110.946 Y107.636 A8.20733
G1 X110.390 Y107.775 A8.21825
G1 X109.851 Y107.968 A8.22918
G1 X109.333 Y108.213 A8.24010
G1 X108.842 Y108.507 A8.25103
G1 X108.382 Y108.849 A8.26196
G1 X107.958 Y109.233 A8.27288
G1 X107.573 Y109.657 A8.28381
G1 X107.271 Y110.065 A8.29348
G1 X106.938 Y110.609 A8.30566
G1 X106.693 Y111.126 A8.31658
G1 X106.500 Y111.665 A8.32751
G1 X106.361 Y112.221 A8.33843
G1 X106.277 Y112.787 A8.34936
G1 X106.250 Y113.339 A8.35989
G1 X106.250 Y114.000 A8.37252
G1 X106.211 Y114.578 A8.38356
G1 X106.102 Y115.119 A8.39408
G1 X105.923 Y115.640 A8.40460
G1 X105.676 Y116.133 A8.41512
G1 X105.367 Y116.589 A8.42564
G1 X105.000 Y117.000 A8.43616
G1 X104.581 Y117.360 A8.44668
