; generated by Slic3r 0.9.8 on 2013-03-31 at 18:27:50

; layer_height = 0.3
; perimeters = 3
; top_solid_layers = 3
; bottom_solid_layers = 3
; fill_density = 0.4
; perimeter_speed = 30
; infill_speed = 40
; travel_speed = 130
; scale = 1
; nozzle_diameter = 0.4
; filament_diameter = 3
; extrusion_multiplier = 1
; perimeters extrusion width = 0.42mm
; infill extrusion width = 0.42mm
; support material extrusion width = 0.24mm
; first layer extrusion width = 0.32mm

M190 P115 ; wait for bed temperature to be reached
M104 P235 ; set temperature
G92 A0                  ; Reset A to 0
G40                        ; Cancel cutter compensation
G64 P0.1                ; Path Blend within .1mm
G0 X108.5 Y108.5  ; Move to center
M109 P235 ; wait for temperature to be reached
G90 ; use absolute coordinates
G21 ; set units to millimeters
G0 Z0.400 F3600.000 A-1.00000
G0 X129.140 Y117.023 F7800.000
G0 F3600.000 A0.00000
G1 X128.510000 Y117.463000 Z0.400000 A0.014660 F540.000000
G1 X128.510000 Y117.463000 Z0.400000 A0.014660 F540.000000
G3 X105.840000 Y128.913000 Z0.400000 A0.499360 I-96.8425 J-163.5724
G1 X105.840000 Y128.913000 Z0.400000 A0.499360
G1 X105.840000 Y128.913000 Z0.400000 A0.499360
G3 X103.870000 Y129.413000 Z0.400000 A0.538180 I-3.8152 J-10.9008
G1 X103.870000 Y129.413000 Z0.400000 A0.538180
G1 X102.930000 Y129.523000 Z0.400000 A0.556240
G1 X101.360000 Y129.533000 Z0.400000 A0.586210
G1 X101.360000 Y129.533000 Z0.400000 A0.586210
G3 X95.060000 Y128.733000 Z0.400000 A0.707390 I7.7957 J-86.5972
G1 X95.060000 Y128.733000 Z0.400000 A0.707390
G1 X95.060000 Y128.733000 Z0.400000 A0.707390
G3 X93.710000 Y128.343000 Z0.400000 A0.734240 I1.0796 J-6.2687
G1 X93.710000 Y128.343000 Z0.400000 A0.734240
G1 X93.710000 Y128.343000 Z0.400000 A0.734240
G3 X91.400000 Y126.793000 Z0.400000 A0.787690 I2.4453 J-6.1406
G1 X91.400000 Y126.793000 Z0.400000 A0.787690
G1 X91.400000 Y126.793000 Z0.400000 A0.787690
G3 X87.460000 Y122.013000 Z0.400000 A0.906200 I15.2373 J-16.5734
G1 X87.460000 Y122.013000 Z0.400000 A0.906200
G1 X87.460000 Y122.013000 Z0.400000 A0.906200
G3 X84.680000 Y115.373000 Z0.400000 A1.044060 I19.3560 J-12.0058
G1 X84.680000 Y115.373000 Z0.400000 A1.044060
G1 X84.680000 Y115.373000 Z0.400000 A1.044060
G3 X84.100000 Y111.783000 Z0.400000 A1.113490 I21.7542 J-5.3565
G1 X84.100000 Y111.783000 Z0.400000 A1.113490
G1 X84.040000 Y110.743000 Z0.400000 A1.133360
G1 X84.090000 Y108.173000 Z0.400000 A1.182410
G1 X84.090000 Y108.173000 Z0.400000 A1.182410
G3 X85.720000 Y101.153000 Z0.400000 A1.320450 I22.5039 J1.5260
G1 X85.720000 Y101.153000 Z0.400000 A1.320450
G1 X85.720000 Y101.153000 Z0.400000 A1.320450
G3 X94.930000 Y90.263000 Z0.400000 A1.596970 I21.4412 J8.7939
G1 X94.930000 Y90.263000 Z0.400000 A1.596970
G1 X94.930000 Y90.263000 Z0.400000 A1.596970
G3 X101.880000 Y87.403000 Z0.400000 A1.740930 I12.1189 J19.5753
G1 X101.880000 Y87.403000 Z0.400000 A1.740930
G1 X102.700000 Y87.253000 Z0.400000 A1.756830
G1 X103.800000 Y87.203000 Z0.400000 A1.777860
G1 X103.800000 Y87.203000 Z0.400000 A1.777860
G3 X105.440000 Y87.473000 Z0.400000 A1.809630 I-0.3950 J7.5150
G1 X105.440000 Y87.473000 Z0.400000 A1.809630
G1 X105.440000 Y87.473000 Z0.400000 A1.809630
G3 X106.960000 Y88.143000 Z0.400000 A1.841380 I-2.0551 J6.7216
G1 X106.960000 Y88.143000 Z0.400000 A1.841380
G1 X128.810000 Y102.483000 Z0.400000 A2.340040
G1 X128.810000 Y102.483000 Z0.400000 A2.340040
G3 X130.970000 Y104.623000 Z0.400000 A2.398320 I-4.6011 J6.8042
G1 X130.970000 Y104.623000 Z0.400000 A2.398320
G1 X130.970000 Y104.623000 Z0.400000 A2.398320
G3 X132.320000 Y107.403000 Z0.400000 A2.457580 I-6.5979 J4.9218
G1 X132.320000 Y107.403000 Z0.400000 A2.457580
G1 X132.320000 Y107.403000 Z0.400000 A2.457580
G3 X132.610000 Y108.853000 Z0.400000 A2.485800 I-13.1633 J3.3867
G1 X132.610000 Y108.853000 Z0.400000 A2.485800
G1 X132.610000 Y110.893000 Z0.400000 A2.524780
G1 X132.610000 Y110.893000 Z0.400000 A2.524780
G3 X129.140000 Y117.023000 Z0.400000 A2.662770 I-8.9680 J-1.0294
G1 X129.140000 Y117.023000 Z0.400000 A2.662770
G0 X128.930 Y116.763 F7800.000
G1 X128.330000 Y117.183000 Z0.400000 A2.676750 F540.000000
G1 X128.330000 Y117.183000 Z0.400000 A2.676750 F540.000000
G3 X105.740000 Y128.593000 Z0.400000 A3.159740 I-92.0261 J-154.1298
G1 X105.740000 Y128.593000 Z0.400000 A3.159740
G1 X105.740000 Y128.593000 Z0.400000 A3.159740
G3 X103.810000 Y129.083000 Z0.400000 A3.197770 I-3.7086 J-10.5615
G1 X103.810000 Y129.083000 Z0.400000 A3.197770
G1 X103.810000 Y129.083000 Z0.400000 A3.197770
G3 X102.280000 Y129.213000 Z0.400000 A3.227090 I-1.7628 J-11.6787
G1 X102.280000 Y129.213000 Z0.400000 A3.227090
G1 X101.390000 Y129.193000 Z0.400000 A3.244070
G1 X101.390000 Y129.193000 Z0.400000 A3.244070
G3 X94.270000 Y128.193000 Z0.400000 A3.381360 I2.1627 J-41.2456
G1 X94.270000 Y128.193000 Z0.400000 A3.381360
G1 X94.270000 Y128.193000 Z0.400000 A3.381360
G3 X91.850000 Y126.763000 Z0.400000 A3.435410 I1.9567 J-6.0741
G1 X91.850000 Y126.763000 Z0.400000 A3.435410
G1 X91.850000 Y126.763000 Z0.400000 A3.435410
G3 X89.210000 Y123.923000 Z0.400000 A3.509440 I15.9440 J-17.4682
G1 X89.210000 Y123.923000 Z0.400000 A3.509440
G1 X89.210000 Y123.923000 Z0.400000 A3.509440
G3 X85.750000 Y117.733000 Z0.400000 A3.645220 I18.1166 J-14.1886
G1 X85.750000 Y117.733000 Z0.400000 A3.645220
G1 X85.750000 Y117.733000 Z0.400000 A3.645220
G3 X84.370000 Y110.753000 Z0.400000 A3.781480 I21.1506 J-7.8081
G1 X84.370000 Y110.753000 Z0.400000 A3.781480
G1 X84.420000 Y108.183000 Z0.400000 A3.830530
G1 X84.510000 Y107.243000 Z0.400000 A3.848540
G1 X84.510000 Y107.243000 Z0.400000 A3.848540
G3 X85.200000 Y103.693000 Z0.400000 A3.917600 I21.3624 J2.3101
G1 X85.200000 Y103.693000 Z0.400000 A3.917600
G1 X85.200000 Y103.693000 Z0.400000 A3.917600
G3 X93.020000 Y92.013000 Z0.400000 A4.190100 I21.9170 J6.2161
G1 X93.020000 Y92.013000 Z0.400000 A4.190100
G1 X93.020000 Y92.013000 Z0.400000 A4.190100
G3 X99.240000 Y88.543000 Z0.400000 A4.326490 I14.1694 J18.0891
G1 X99.240000 Y88.543000 Z0.400000 A4.326490
G1 X99.240000 Y88.543000 Z0.400000 A4.326490
G3 X102.520000 Y87.613000 Z0.400000 A4.391570 I9.2934 J26.5276
G1 X102.520000 Y87.613000 Z0.400000 A4.391570
G1 X103.900000 Y87.543000 Z0.400000 A4.417970
G1 X103.900000 Y87.543000 Z0.400000 A4.417970
G3 X105.260000 Y87.773000 Z0.400000 A4.444320 I-0.4872 J7.0165
G1 X105.260000 Y87.773000 Z0.400000 A4.444320
G1 X105.260000 Y87.773000 Z0.400000 A4.444320
G3 X107.010000 Y88.573000 Z0.400000 A4.481160 I-1.6734 J5.9746
G1 X107.010000 Y88.573000 Z0.400000 A4.481160
G1 X128.850000 Y102.923000 Z0.400000 A4.979760
G1 X128.850000 Y102.923000 Z0.400000 A4.979760
G3 X130.690000 Y104.813000 Z0.400000 A5.030260 I-5.0822 J6.7884
G1 X130.690000 Y104.813000 Z0.400000 A5.030260
G1 X130.690000 Y104.813000 Z0.400000 A5.030260
G3 X132.050000 Y107.723000 Z0.400000 A5.091940 I-6.4644 J4.7940
G1 X132.050000 Y107.723000 Z0.400000 A5.091940
G1 X132.050000 Y107.723000 Z0.400000 A5.091940
G3 X132.300000 Y109.143000 Z0.400000 A5.119480 I-8.2844 J2.1905
G1 X132.300000 Y109.143000 Z0.400000 A5.119480
G1 X132.240000 Y111.103000 Z0.400000 A5.156950
G1 X132.240000 Y111.103000 Z0.400000 A5.156950
G3 X128.930000 Y116.763000 Z0.400000 A5.285170 I-8.5322 J-1.1918
G1 X128.930000 Y116.763000 Z0.400000 A5.285170
G0 Z0.900 F1080.000 A4.28517
G0 X124.713 Y111.163 F7800.000
G0 Z0.400
G0 F3600.000 A5.28517
G1 X124.442000 Y111.344000 Z0.400000 A5.291380 F540.000000
G3 X124.713000 Y111.163000 Z0.400000 A5.483880 I-0.7748 J-1.4534
G0 X124.757 Y111.497 F7800.000
G0 Z0.900 F1080.000 A4.48388
G0 X109.405 Y110.022 F7800.000
G0 Z0.400
G0 F3600.000 A5.48388
G1 X109.385000 Y110.234000 Z0.400000 A5.487930 F540.000000
G1 X109.171000 Y111.240000 Z0.400000 A5.507570
G1 X108.949000 Y111.203000 Z0.400000 A5.511870
G1 X108.949000 Y111.203000 Z0.400000 A5.511870
G3 X107.970000 Y111.999000 Z0.400000 A5.536260 I-1.6320 J-1.0072
G1 X107.970000 Y111.999000 Z0.400000 A5.536260
G1 X107.520000 Y112.131000 Z0.400000 A5.545210
G1 X106.831000 Y112.166000 Z0.400000 A5.558410
G1 X106.831000 Y112.166000 Z0.400000 A5.558410
G3 X105.205000 Y111.217000 Z0.400000 A5.595370 I0.2429 J-2.2836
G1 X105.205000 Y111.217000 Z0.400000 A5.595370
G1 X105.205000 Y111.217000 Z0.400000 A5.595370
G3 X104.868000 Y110.522000 Z0.400000 A5.610160 I1.8581 J-1.3302
G1 X104.868000 Y110.522000 Z0.400000 A5.610160
G1 X104.780000 Y109.745000 Z0.400000 A5.625140
G1 X104.780000 Y109.745000 Z0.400000 A5.625140
G3 X105.691000 Y108.043000 Z0.400000 A5.663090 I2.2950 J0.1336
G1 X105.691000 Y108.043000 Z0.400000 A5.663090
G1 X105.691000 Y108.043000 Z0.400000 A5.663090
G3 X106.397000 Y107.682000 Z0.400000 A5.678260 I1.3841 J1.8360
G1 X106.397000 Y107.682000 Z0.400000 A5.678260
G1 X107.183000 Y107.582000 Z0.400000 A5.693440
G1 X107.183000 Y107.582000 Z0.400000 A5.693440
G3 X108.149000 Y107.815000 Z0.400000 A5.712470 I-0.1910 J2.9108
G1 X108.149000 Y107.815000 Z0.400000 A5.712470
G1 X108.149000 Y107.815000 Z0.400000 A5.712470
G3 X108.717000 Y108.279000 Z0.400000 A5.726500 I-1.0343 J1.8458
G1 X108.717000 Y108.279000 Z0.400000 A5.726500
G1 X108.932000 Y108.207000 Z0.400000 A5.730820
G1 X108.932000 Y108.207000 Z0.400000 A5.730820
G3 X109.405000 Y110.022000 Z0.400000 A5.766980 I-3.3865 J1.8517
G1 X109.405000 Y110.022000 Z0.400000 A5.766980
G0 X109.070 Y109.990 F7800.000
G1 X109.051000 Y110.182000 Z0.400000 A5.770660 F540.000000
G1 X108.908000 Y110.854000 Z0.400000 A5.783770
G1 X108.788000 Y110.834000 Z0.400000 A5.786090
G1 X108.788000 Y110.834000 Z0.400000 A5.786090
G3 X108.131000 Y111.533000 Z0.400000 A5.804570 I-1.6796 J-0.9204
G1 X108.131000 Y111.533000 Z0.400000 A5.804570
G1 X108.131000 Y111.533000 Z0.400000 A5.804570
G3 X107.524000 Y111.789000 Z0.400000 A5.817180 I-1.0499 J-1.6419
G1 X107.524000 Y111.789000 Z0.400000 A5.817180
G1 X106.867000 Y111.830000 Z0.400000 A5.829790
G1 X106.867000 Y111.830000 Z0.400000 A5.829790
G3 X105.481000 Y111.020000 Z0.400000 A5.861310 I0.2088 J-1.9481
G1 X105.481000 Y111.020000 Z0.400000 A5.861310
G1 X105.481000 Y111.020000 Z0.400000 A5.861310
G3 X105.193000 Y110.428000 Z0.400000 A5.873920 I1.6003 J-1.1446
G1 X105.193000 Y110.428000 Z0.400000 A5.873920
G1 X105.118000 Y109.765000 Z0.400000 A5.886700
G1 X105.118000 Y109.765000 Z0.400000 A5.886700
G3 X105.895000 Y108.314000 Z0.400000 A5.919060 I1.9547 J0.1132
G1 X105.895000 Y108.314000 Z0.400000 A5.919060
G1 X105.895000 Y108.314000 Z0.400000 A5.919060
G3 X106.497000 Y108.006000 Z0.400000 A5.932000 I1.1501 J1.5056
G1 X106.497000 Y108.006000 Z0.400000 A5.932000
G1 X107.167000 Y107.920000 Z0.400000 A5.944950
G1 X107.167000 Y107.920000 Z0.400000 A5.944950
G3 X107.827000 Y108.067000 Z0.400000 A5.957890 I-0.0935 J1.9748
G1 X107.827000 Y108.067000 Z0.400000 A5.957890
G1 X107.827000 Y108.067000 Z0.400000 A5.957890
G3 X108.618000 Y108.668000 Z0.400000 A5.977040 I-0.7380 J1.7923
G1 X108.618000 Y108.668000 Z0.400000 A5.977040
G1 X108.733000 Y108.630000 Z0.400000 A5.979360
G1 X108.733000 Y108.630000 Z0.400000 A5.979360
G3 X109.037000 Y109.494000 Z0.400000 A5.996870 I-3.5060 J1.7191
G1 X109.037000 Y109.494000 Z0.400000 A5.996870
G1 X109.070000 Y109.990000 Z0.400000 A6.006370
G0 X108.734 Y109.958 F7800.000
G1 X108.717000 Y110.131000 Z0.400000 A6.009690 F540.000000
G1 X108.646000 Y110.468000 Z0.400000 A6.016260
G1 X108.588000 Y110.458000 Z0.400000 A6.017360
G1 X108.588000 Y110.458000 Z0.400000 A6.017360
G3 X108.353000 Y110.882000 Z0.400000 A6.026650 I-1.3328 J-0.4615
G1 X108.353000 Y110.882000 Z0.400000 A6.026650
G1 X108.353000 Y110.882000 Z0.400000 A6.026650
G3 X107.949000 Y111.248000 Z0.400000 A6.037080 I-1.2945 J-1.0230
G1 X107.949000 Y111.248000 Z0.400000 A6.037080
G1 X107.949000 Y111.248000 Z0.400000 A6.037080
G3 X107.447000 Y111.460000 Z0.400000 A6.047510 I-0.9453 J-1.5381
G1 X107.447000 Y111.460000 Z0.400000 A6.047510
G1 X106.903000 Y111.493000 Z0.400000 A6.057940
G1 X106.903000 Y111.493000 Z0.400000 A6.057940
G3 X105.756000 Y110.823000 Z0.400000 A6.084020 I0.1744 J-1.6153
G1 X105.756000 Y110.823000 Z0.400000 A6.084020
G1 X105.756000 Y110.823000 Z0.400000 A6.084020
G3 X105.518000 Y110.333000 Z0.400000 A6.094450 I1.3051 J-0.9367
G1 X105.518000 Y110.333000 Z0.400000 A6.094450
G1 X105.456000 Y109.784000 Z0.400000 A6.105020
G1 X105.456000 Y109.784000 Z0.400000 A6.105020
G3 X105.890000 Y108.772000 Z0.400000 A6.126450 I1.6261 J0.0983
G1 X105.890000 Y108.772000 Z0.400000 A6.126450
G1 X105.890000 Y108.772000 Z0.400000 A6.126450
G3 X106.597000 Y108.329000 Z0.400000 A6.142510 I1.1885 J1.1110
G1 X106.597000 Y108.329000 Z0.400000 A6.142510
G1 X107.151000 Y108.258000 Z0.400000 A6.153230
G1 X107.151000 Y108.258000 Z0.400000 A6.153230
G3 X107.946000 Y108.509000 Z0.400000 A6.169290 I-0.0718 J1.6120
G1 X107.946000 Y108.509000 Z0.400000 A6.169290
G1 X107.946000 Y108.509000 Z0.400000 A6.169290
G3 X108.479000 Y109.071000 Z0.400000 A6.184200 I-0.8514 J1.3412
G1 X108.479000 Y109.071000 Z0.400000 A6.184200
G1 X108.534000 Y109.052000 Z0.400000 A6.185320
G1 X108.534000 Y109.052000 Z0.400000 A6.185320
G3 X108.706000 Y109.559000 Z0.400000 A6.195540 I-2.1334 J1.0064
G1 X108.706000 Y109.559000 Z0.400000 A6.195540
G1 X108.734000 Y109.958000 Z0.400000 A6.203180
G0 X109.019 Y110.138 F7800.000
G0 Z0.900 F1080.000 A5.20318
G0 X103.772 Y116.322 F7800.000
G0 Z0.400
G0 F3600.000 A6.20318
G1 X103.967000 Y116.520000 Z0.400000 A6.208490 F540.000000
G1 X103.967000 Y116.520000 Z0.400000 A6.208490 F540.000000
G3 X104.603000 Y117.742000 Z0.400000 A6.235020 I-2.1248 J1.8824
G1 X104.603000 Y117.742000 Z0.400000 A6.235020
G1 X104.603000 Y117.742000 Z0.400000 A6.235020
G3 X104.679000 Y118.293000 Z0.400000 A6.245640 I-2.6771 J0.6500
G1 X104.679000 Y118.293000 Z0.400000 A6.245640
G1 X104.646000 Y118.848000 Z0.400000 A6.256260
G1 X104.646000 Y118.848000 Z0.400000 A6.256260
G3 X103.511000 Y120.697000 Z0.400000 A6.298730 I-2.7972 J-0.4442
G1 X103.511000 Y120.697000 Z0.400000 A6.298730
G1 X103.511000 Y120.697000 Z0.400000 A6.298730
G3 X102.506000 Y121.160000 Z0.400000 A6.319960 I-1.6689 J-2.3004
G1 X102.506000 Y121.160000 Z0.400000 A6.319960
G1 X102.506000 Y121.160000 Z0.400000 A6.319960
G3 X101.955000 Y121.236000 Z0.400000 A6.330580 I-0.6743 J-2.8533
G1 X101.955000 Y121.236000 Z0.400000 A6.330580
G1 X101.401000 Y121.203000 Z0.400000 A6.341200
G1 X101.401000 Y121.203000 Z0.400000 A6.341200
G3 X99.280000 Y120.076000 Z0.400000 A6.387490 I0.6683 J-3.8171
G1 X99.280000 Y120.076000 Z0.400000 A6.387490
G1 X99.280000 Y120.076000 Z0.400000 A6.387490
G3 X95.285000 Y114.950000 Z0.400000 A6.512800 I7.7871 J-10.1887
G1 X95.285000 Y114.950000 Z0.400000 A6.512800
G1 X95.285000 Y114.950000 Z0.400000 A6.512800
G3 X94.457000 Y112.164000 Z0.400000 A6.568360 I11.0560 J-4.8019
G1 X94.457000 Y112.164000 Z0.400000 A6.568360
G1 X94.491000 Y111.361000 Z0.400000 A6.583730
G1 X94.491000 Y111.361000 Z0.400000 A6.583730
G3 X95.010000 Y110.179000 Z0.400000 A6.608550 I2.8035 J0.5260
G1 X95.010000 Y110.179000 Z0.400000 A6.608550
G1 X95.010000 Y110.179000 Z0.400000 A6.608550
G3 X96.736000 Y109.097000 Z0.400000 A6.648260 I2.2622 J1.6910
G1 X96.736000 Y109.097000 Z0.400000 A6.648260
G1 X97.772000 Y109.087000 Z0.400000 A6.668120
G1 X97.772000 Y109.087000 Z0.400000 A6.668120
G3 X98.959000 Y109.596000 Z0.400000 A6.692940 I-0.5028 J2.8111
G1 X98.959000 Y109.596000 Z0.400000 A6.692940
G1 X98.959000 Y109.596000 Z0.400000 A6.692940
G3 X99.797000 Y110.578000 Z0.400000 A6.717760 I-1.6659 J2.2702
G1 X99.797000 Y110.578000 Z0.400000 A6.717760
G1 X100.495000 Y112.710000 Z0.400000 A6.760630
G1 X100.495000 Y112.710000 Z0.400000 A6.760630
G2 X101.208000 Y113.989000 Z0.400000 A6.788610 I6.4573 J-2.7615
G1 X101.208000 Y113.989000 Z0.400000 A6.788610
G1 X101.208000 Y113.989000 Z0.400000 A6.788610
G2 X103.772000 Y116.322000 Z0.400000 A6.855180 I6.5881 J-4.6650
G1 X103.772000 Y116.322000 Z0.400000 A6.855180
G0 X103.543 Y116.569 F7800.000
G1 X103.868000 Y116.936000 Z0.400000 A6.864530 F540.000000
G1 X103.868000 Y116.936000 Z0.400000 A6.864530 F540.000000
G3 X104.275000 Y117.821000 Z0.400000 A6.883220 I-2.0116 J1.4612
G1 X104.275000 Y117.821000 Z0.400000 A6.883220
G1 X104.339000 Y118.551000 Z0.400000 A6.897240
