; generated by Slic3r 0.9.8 on 2013-03-31 at 18:28:20

; layer_height = 0.3
; perimeters = 3
; top_solid_layers = 3
; bottom_solid_layers = 3
; fill_density = 0.4
; perimeter_speed = 30
; infill_speed = 40
; travel_speed = 130
; scale = 1
; nozzle_diameter = 0.4
; filament_diameter = 3
; extrusion_multiplier = 1
; perimeters extrusion width = 0.42mm
; infill extrusion width = 0.42mm
; support material extrusion width = 0.24mm
; first layer extrusion width = 0.32mm

M190 P115 ; wait for bed temperature to be reached
M104 P235 ; set temperature
G92 A0                  ; Reset A to 0
G40                        ; Cancel cutter compensation
G64 P0.1                ; Path Blend within .1mm
G0 X108.5 Y108.5  ; Move to center
M109 P235 ; wait for temperature to be reached
G90 ; use absolute coordinates
G21 ; set units to millimeters
G0 Z0.400 F3600.000 A-1.00000
G0 X132.243 Y108.619 F7800.000
G0 F3600.000 A0.00000
G1 X131.883000 Y109.539000 Z0.400000 A0.018850 F540.000000
G1 X131.883000 Y109.539000 Z0.400000 A0.018850 F540.000000
G3 X128.353000 Y113.549000 Z0.400000 A0.122290 I-8.1800 J-3.6422
G1 X128.353000 Y113.549000 Z0.400000 A0.122290
G1 X128.353000 Y113.549000 Z0.400000 A0.122290
G3 X107.473000 Y124.199000 Z0.400000 A0.569520 I-195.5312 J-357.5581
G1 X107.473000 Y124.199000 Z0.400000 A0.569520
G1 X107.473000 Y124.199000 Z0.400000 A0.569520
G3 X103.773000 Y125.399000 Z0.400000 A0.644060 I-5.3980 J-10.3397
G1 X103.773000 Y125.399000 Z0.400000 A0.644060
G1 X103.773000 Y125.399000 Z0.400000 A0.644060
G3 X102.343000 Y125.529000 Z0.400000 A0.671470 I-1.6136 J-9.8193
G1 X102.343000 Y125.529000 Z0.400000 A0.671470
G1 X100.823000 Y125.459000 Z0.400000 A0.700510
G1 X99.873000 Y125.319000 Z0.400000 A0.718830
G1 X99.873000 Y125.319000 Z0.400000 A0.718830
G3 X93.583000 Y123.699000 Z0.400000 A0.842770 I18.6555 J-85.4553
G1 X93.583000 Y123.699000 Z0.400000 A0.842770
G1 X93.583000 Y123.699000 Z0.400000 A0.842770
G3 X92.053000 Y123.079000 Z0.400000 A0.874340 I1.6067 J-6.1627
G1 X92.053000 Y123.079000 Z0.400000 A0.874340
G1 X92.053000 Y123.079000 Z0.400000 A0.874340
G3 X90.323000 Y121.709000 Z0.400000 A0.916620 I3.1053 J-5.6985
G1 X90.323000 Y121.709000 Z0.400000 A0.916620
G1 X90.323000 Y121.709000 Z0.400000 A0.916620
G3 X87.893000 Y118.649000 Z0.400000 A0.991230 I17.4263 J-16.3334
G1 X87.893000 Y118.649000 Z0.400000 A0.991230
G1 X87.893000 Y118.649000 Z0.400000 A0.991230
G3 X84.313000 Y109.579000 Z0.400000 A1.178600 I19.1676 J-12.8071
G1 X84.313000 Y109.579000 Z0.400000 A1.178600
G1 X84.313000 Y109.579000 Z0.400000 A1.178600
G3 X84.033000 Y105.919000 Z0.400000 A1.248670 I24.7743 J-3.7360
G1 X84.033000 Y105.919000 Z0.400000 A1.248670
G1 X84.043000 Y104.939000 Z0.400000 A1.267370
G1 X84.283000 Y102.379000 Z0.400000 A1.316430
G1 X84.283000 Y102.379000 Z0.400000 A1.316430
G3 X85.453000 Y97.839000 Z0.400000 A1.405990 I24.7183 J3.9494
G1 X85.453000 Y97.839000 Z0.400000 A1.405990
G1 X85.453000 Y97.839000 Z0.400000 A1.405990
G3 X87.833000 Y93.479000 Z0.400000 A1.501390 I11.4059 J3.3965
G1 X87.833000 Y93.479000 Z0.400000 A1.501390
G1 X87.833000 Y93.479000 Z0.400000 A1.501390
G3 X90.303000 Y91.879000 Z0.400000 A1.557960 I4.7788 J4.6707
G1 X90.303000 Y91.879000 Z0.400000 A1.557960
G1 X90.303000 Y91.879000 Z0.400000 A1.557960
G3 X92.153000 Y91.489000 Z0.400000 A1.594130 I2.3258 J6.4501
G1 X92.153000 Y91.489000 Z0.400000 A1.594130
G1 X93.743000 Y91.509000 Z0.400000 A1.624490
G1 X93.743000 Y91.509000 Z0.400000 A1.624490
G3 X125.653000 Y97.079000 Z0.400000 A2.242550 I-49.7988 J379.4822
G1 X125.653000 Y97.079000 Z0.400000 A2.242550
G1 X125.653000 Y97.079000 Z0.400000 A2.242550
G3 X127.423000 Y97.659000 Z0.400000 A2.278140 I-1.7973 J8.4755
G1 X127.423000 Y97.659000 Z0.400000 A2.278140
G1 X127.423000 Y97.659000 Z0.400000 A2.278140
G3 X131.853000 Y102.089000 Z0.400000 A2.400110 I-3.7814 J8.2114
G1 X131.853000 Y102.089000 Z0.400000 A2.400110
G1 X131.853000 Y102.089000 Z0.400000 A2.400110
G3 X132.663000 Y105.629000 Z0.400000 A2.469830 I-8.6346 J3.8384
G1 X132.663000 Y105.629000 Z0.400000 A2.469830
G1 X132.623000 Y106.899000 Z0.400000 A2.494090
G1 X132.623000 Y106.899000 Z0.400000 A2.494090
G3 X132.243000 Y108.619000 Z0.400000 A2.527720 I-11.3190 J-1.5987
G1 X132.243000 Y108.619000 Z0.400000 A2.527720
G0 X131.923 Y108.509 F7800.000
G1 X131.573000 Y109.409000 Z0.400000 A2.546150 F540.000000
G1 X131.573000 Y109.409000 Z0.400000 A2.546150 F540.000000
G3 X127.423000 Y113.669000 Z0.400000 A2.661930 I-7.9026 J-3.5471
G1 X127.423000 Y113.669000 Z0.400000 A2.661930
G1 X127.423000 Y113.669000 Z0.400000 A2.661930
G3 X106.533000 Y124.269000 Z0.400000 A3.108890 I-202.0095 J-372.2265
G1 X106.533000 Y124.269000 Z0.400000 A3.108890
G1 X106.533000 Y124.269000 Z0.400000 A3.108890
G3 X103.713000 Y125.069000 Z0.400000 A3.164960 I-4.4860 J-10.4429
G1 X103.713000 Y125.069000 Z0.400000 A3.164960
G1 X103.713000 Y125.069000 Z0.400000 A3.164960
G3 X102.013000 Y125.199000 Z0.400000 A3.197510 I-1.7585 J-11.8152
G1 X102.013000 Y125.199000 Z0.400000 A3.197510
G1 X102.013000 Y125.199000 Z0.400000 A3.197510
G3 X100.853000 Y125.129000 Z0.400000 A3.219690 I0.3051 J-14.7020
G1 X100.853000 Y125.129000 Z0.400000 A3.219690
G1 X100.853000 Y125.129000 Z0.400000 A3.219690
G3 X92.613000 Y122.989000 Z0.400000 A3.382310 I5.2486 J-37.1436
G1 X92.613000 Y122.989000 Z0.400000 A3.382310
G1 X92.613000 Y122.989000 Z0.400000 A3.382310
G3 X90.983000 Y121.899000 Z0.400000 A3.419850 I2.6960 J-5.7954
G1 X90.983000 Y121.899000 Z0.400000 A3.419850
G1 X90.983000 Y121.899000 Z0.400000 A3.419850
G3 X88.763000 Y119.299000 Z0.400000 A3.485130 I12.6426 J-13.0426
G1 X88.763000 Y119.299000 Z0.400000 A3.485130
G1 X88.763000 Y119.299000 Z0.400000 A3.485130
G3 X85.203000 Y112.019000 Z0.400000 A3.640540 I17.8434 J-13.2360
G1 X85.203000 Y112.019000 Z0.400000 A3.640540
G1 X85.203000 Y112.019000 Z0.400000 A3.640540
G3 X84.503000 Y108.469000 Z0.400000 A3.709620 I20.8391 J-5.9531
G1 X84.503000 Y108.469000 Z0.400000 A3.709620
G1 X84.363000 Y105.899000 Z0.400000 A3.758730
G1 X84.363000 Y105.899000 Z0.400000 A3.758730
G3 X84.623000 Y102.409000 Z0.400000 A3.825540 I24.3327 J0.0581
G1 X84.623000 Y102.409000 Z0.400000 A3.825540
G1 X84.623000 Y102.409000 Z0.400000 A3.825540
G3 X85.763000 Y97.979000 Z0.400000 A3.912950 I21.4590 J3.1605
G1 X85.763000 Y97.979000 Z0.400000 A3.912950
G1 X85.763000 Y97.979000 Z0.400000 A3.912950
G3 X88.133000 Y93.649000 Z0.400000 A4.007790 I10.7453 J3.0678
G1 X88.133000 Y93.649000 Z0.400000 A4.007790
G1 X88.133000 Y93.649000 Z0.400000 A4.007790
G3 X91.373000 Y91.929000 Z0.400000 A4.078730 I4.4456 J4.4626
G1 X91.373000 Y91.929000 Z0.400000 A4.078730
G1 X92.783000 Y91.809000 Z0.400000 A4.105770
G1 X92.783000 Y91.809000 Z0.400000 A4.105770
G3 X94.823000 Y91.989000 Z0.400000 A4.144870 I-0.0687 J12.4287
G1 X94.823000 Y91.989000 Z0.400000 A4.144870
G1 X124.993000 Y97.289000 Z0.400000 A4.729330
G1 X124.993000 Y97.289000 Z0.400000 A4.729330
G3 X127.273000 Y97.969000 Z0.400000 A4.774840 I-1.3337 J8.6340
G1 X127.273000 Y97.969000 Z0.400000 A4.774840
G1 X127.273000 Y97.969000 Z0.400000 A4.774840
G3 X131.543000 Y102.239000 Z0.400000 A4.892450 I-3.5582 J7.8282
G1 X131.543000 Y102.239000 Z0.400000 A4.892450
G1 X131.543000 Y102.239000 Z0.400000 A4.892450
G3 X132.333000 Y105.629000 Z0.400000 A4.959280 I-7.9399 J3.6374
G1 X132.333000 Y105.629000 Z0.400000 A4.959280
G1 X132.313000 Y106.599000 Z0.400000 A4.977790
G1 X132.313000 Y106.599000 Z0.400000 A4.977790
G3 X131.923000 Y108.509000 Z0.400000 A5.015030 I-10.2076 J-1.0894
G1 X131.923000 Y108.509000 Z0.400000 A5.015030
G0 Z0.900 F1080.000 A4.01503
G0 X123.830 Y107.512 F7800.000
G0 Z0.400
G0 F3600.000 A5.01503
G1 X123.504000 Y107.512000 Z0.400000 A5.021240 F540.000000
G1 X123.504000 Y107.512000 Z0.400000 A5.021240 F540.000000
G3 X122.384000 Y106.913000 Z0.400000 A5.046080 I0.1612 J-1.6480
G1 X122.384000 Y106.913000 Z0.400000 A5.046080
G1 X122.384000 Y106.913000 Z0.400000 A5.046080
G3 X122.078000 Y106.341000 Z0.400000 A5.058500 I1.2932 J-1.0597
G1 X122.078000 Y106.341000 Z0.400000 A5.058500
G1 X122.015000 Y105.697000 Z0.400000 A5.070920
G1 X122.015000 Y105.697000 Z0.400000 A5.070920
G3 X122.614000 Y104.576000 Z0.400000 A5.095760 I1.6426 J0.1572
G1 X122.614000 Y104.576000 Z0.400000 A5.095760
G1 X122.614000 Y104.576000 Z0.400000 A5.095760
G3 X123.185000 Y104.271000 Z0.400000 A5.108180 I1.0386 J1.2574
G1 X123.185000 Y104.271000 Z0.400000 A5.108180
G1 X123.830000 Y104.207000 Z0.400000 A5.120600
G1 X123.830000 Y104.207000 Z0.400000 A5.120600
G3 X125.319000 Y105.697000 Z0.400000 A5.164060 I-0.1621 J1.6510
G1 X125.319000 Y105.697000 Z0.400000 A5.164060
G1 X125.256000 Y106.341000 Z0.400000 A5.176480
G1 X125.256000 Y106.341000 Z0.400000 A5.176480
G3 X124.950000 Y106.913000 Z0.400000 A5.188900 I-1.5992 J-0.4877
G1 X124.950000 Y106.913000 Z0.400000 A5.188900
G1 X124.950000 Y106.913000 Z0.400000 A5.188900
G3 X123.830000 Y107.512000 Z0.400000 A5.213740 I-1.2812 J-1.0490
G1 X123.830000 Y107.512000 Z0.400000 A5.213740
G0 X123.681 Y107.814 F7800.000
G0 Z0.900 F1080.000 A4.21374
G0 X108.733 Y106.051 F7800.000
G0 Z0.400
G0 F3600.000 A5.21374
G1 X108.700000 Y106.239000 Z0.400000 A5.217390 F540.000000
G1 X108.602000 Y106.569000 Z0.400000 A5.223960
G1 X108.546000 Y106.555000 Z0.400000 A5.225070
G1 X108.546000 Y106.555000 Z0.400000 A5.225070
G3 X108.278000 Y106.959000 Z0.400000 A5.234350 I-1.3459 J-0.6019
G1 X108.278000 Y106.959000 Z0.400000 A5.234350
G1 X108.278000 Y106.959000 Z0.400000 A5.234350
G3 X107.847000 Y107.292000 Z0.400000 A5.244790 I-1.1988 J-1.1062
G1 X107.847000 Y107.292000 Z0.400000 A5.244790
G1 X107.847000 Y107.292000 Z0.400000 A5.244790
G3 X107.329000 Y107.464000 Z0.400000 A5.255220 I-0.7637 J-1.4340
G1 X107.329000 Y107.464000 Z0.400000 A5.255220
G1 X106.785000 Y107.455000 Z0.400000 A5.265650
G1 X106.785000 Y107.455000 Z0.400000 A5.265650
G3 X105.694000 Y106.697000 Z0.400000 A5.291730 I0.2977 J-1.5926
G1 X105.694000 Y106.697000 Z0.400000 A5.291730
G1 X105.694000 Y106.697000 Z0.400000 A5.291730
G3 X105.495000 Y106.189000 Z0.400000 A5.302160 I1.4003 J-0.8415
G1 X105.495000 Y106.189000 Z0.400000 A5.302160
G1 X105.476000 Y105.638000 Z0.400000 A5.312740
G1 X105.476000 Y105.638000 Z0.400000 A5.312740
G3 X105.988000 Y104.662000 Z0.400000 A5.334160 I1.6033 J0.2188
G1 X105.988000 Y104.662000 Z0.400000 A5.334160
G1 X105.988000 Y104.662000 Z0.400000 A5.334160
G3 X106.485000 Y104.353000 Z0.400000 A5.345370 I1.0623 J1.1545
G1 X106.485000 Y104.353000 Z0.400000 A5.345370
G1 X107.286000 Y104.249000 Z0.400000 A5.360930
G1 X107.286000 Y104.249000 Z0.400000 A5.360930
G3 X108.059000 Y104.562000 Z0.400000 A5.376990 I-0.1973 J1.5983
G1 X108.059000 Y104.562000 Z0.400000 A5.376990
G1 X108.059000 Y104.562000 Z0.400000 A5.376990
G3 X108.546000 Y105.163000 Z0.400000 A5.391910 I-0.9355 J1.2559
G1 X108.546000 Y105.163000 Z0.400000 A5.391910
G1 X108.602000 Y105.149000 Z0.400000 A5.393020
G1 X108.602000 Y105.149000 Z0.400000 A5.393020
G3 X108.733000 Y105.668000 Z0.400000 A5.403240 I-2.1992 J0.8311
G1 X108.733000 Y105.668000 Z0.400000 A5.403240
G1 X108.733000 Y106.051000 Z0.400000 A5.410540
G0 X109.004 Y106.252 F7800.000
G0 Z0.900 F1080.000 A4.41054
G0 X103.779 Y112.302 F7800.000
G0 Z0.400
G0 F3600.000 A5.41054
G1 X103.974000 Y112.500000 Z0.400000 A5.415850 F540.000000
G1 X103.974000 Y112.500000 Z0.400000 A5.415850 F540.000000
G3 X104.611000 Y113.722000 Z0.400000 A5.442390 I-2.1092 J1.8765
G1 X104.611000 Y113.722000 Z0.400000 A5.442390
G1 X104.611000 Y113.722000 Z0.400000 A5.442390
G3 X104.687000 Y114.273000 Z0.400000 A5.453010 I-2.8837 J0.6785
G1 X104.687000 Y114.273000 Z0.400000 A5.453010
G1 X104.654000 Y114.828000 Z0.400000 A5.463630
G1 X104.654000 Y114.828000 Z0.400000 A5.463630
G3 X103.519000 Y116.677000 Z0.400000 A5.506100 I-2.8013 J-0.4467
G1 X103.519000 Y116.677000 Z0.400000 A5.506100
G1 X103.519000 Y116.677000 Z0.400000 A5.506100
G3 X102.514000 Y117.140000 Z0.400000 A5.527340 I-1.6689 J-2.3004
G1 X102.514000 Y117.140000 Z0.400000 A5.527340
G1 X102.514000 Y117.140000 Z0.400000 A5.527340
G3 X101.963000 Y117.216000 Z0.400000 A5.537960 I-0.6785 J-2.8837
G1 X101.963000 Y117.216000 Z0.400000 A5.537960
G1 X101.408000 Y117.183000 Z0.400000 A5.548570
G1 X101.408000 Y117.183000 Z0.400000 A5.548570
G3 X99.288000 Y116.056000 Z0.400000 A5.594870 I0.6732 J-3.8238
G1 X99.288000 Y116.056000 Z0.400000 A5.594870
G1 X99.288000 Y116.056000 Z0.400000 A5.594870
G3 X95.292000 Y110.930000 Z0.400000 A5.720160 I7.7766 J-10.1829
G1 X95.292000 Y110.930000 Z0.400000 A5.720160
G1 X95.292000 Y110.930000 Z0.400000 A5.720160
G3 X94.465000 Y108.144000 Z0.400000 A5.775730 I11.1253 J-4.8182
G1 X94.465000 Y108.144000 Z0.400000 A5.775730
G1 X94.498000 Y107.341000 Z0.400000 A5.791100
G1 X94.498000 Y107.341000 Z0.400000 A5.791100
G3 X95.017000 Y106.159000 Z0.400000 A5.815920 I2.8035 J0.5260
G1 X95.017000 Y106.159000 Z0.400000 A5.815920
G1 X95.017000 Y106.159000 Z0.400000 A5.815920
G3 X96.743000 Y105.077000 Z0.400000 A5.855630 I2.2664 J1.6977
G1 X96.743000 Y105.077000 Z0.400000 A5.855630
G1 X97.521000 Y105.034000 Z0.400000 A5.870520
G1 X98.034000 Y105.125000 Z0.400000 A5.880450
G1 X98.034000 Y105.125000 Z0.400000 A5.880450
G3 X98.966000 Y105.576000 Z0.400000 A5.900300 I-0.7319 J2.7009
G1 X98.966000 Y105.576000 Z0.400000 A5.900300
G1 X98.966000 Y105.576000 Z0.400000 A5.900300
G3 X99.805000 Y106.558000 Z0.400000 A5.925120 I-1.6752 J2.2807
G1 X99.805000 Y106.558000 Z0.400000 A5.925120
G1 X100.502000 Y108.690000 Z0.400000 A5.968000
G1 X100.502000 Y108.690000 Z0.400000 A5.968000
G2 X101.215000 Y109.969000 Z0.400000 A5.995970 I6.6005 J-2.8413
G1 X101.215000 Y109.969000 Z0.400000 A5.995970
G1 X101.215000 Y109.969000 Z0.400000 A5.995970
G2 X103.779000 Y112.302000 Z0.400000 A6.062550 I6.6214 J-4.7016
G1 X103.779000 Y112.302000 Z0.400000 A6.062550
G0 X103.550 Y112.549 F7800.000
G1 X103.875000 Y112.916000 Z0.400000 A6.071890 F540.000000
G1 X103.875000 Y112.916000 Z0.400000 A6.071890 F540.000000
G3 X104.283000 Y113.801000 Z0.400000 A6.090580 I-2.0258 J1.4705
G1 X104.283000 Y113.801000 Z0.400000 A6.090580
G1 X104.347000 Y114.531000 Z0.400000 A6.104600
G1 X104.270000 Y115.015000 Z0.400000 A6.113950
G1 X104.270000 Y115.015000 Z0.400000 A6.113950
G3 X103.320000 Y116.404000 Z0.400000 A6.146650 I-2.4174 J-0.6340
G1 X103.320000 Y116.404000 Z0.400000 A6.146650
G1 X103.320000 Y116.404000 Z0.400000 A6.146650
G3 X102.435000 Y116.812000 Z0.400000 A6.165340 I-1.4759 J-2.0377
G1 X102.435000 Y116.812000 Z0.400000 A6.165340
G1 X101.461000 Y116.849000 Z0.400000 A6.184020
G1 X101.461000 Y116.849000 Z0.400000 A6.184020
G3 X99.493000 Y115.787000 Z0.400000 A6.227120 I0.7040 J-3.6590
G1 X99.493000 Y115.787000 Z0.400000 A6.227120
G1 X99.493000 Y115.787000 Z0.400000 A6.227120
G3 X95.603000 Y110.797000 Z0.400000 A6.349120 I7.5688 J-9.9116
G1 X95.603000 Y110.797000 Z0.400000 A6.349120
G1 X95.603000 Y110.797000 Z0.400000 A6.349120
G3 X94.801000 Y108.110000 Z0.400000 A6.402720 I10.7889 J-4.6834
G1 X94.801000 Y108.110000 Z0.400000 A6.402720
G1 X94.883000 Y107.180000 Z0.400000 A6.420640
G1 X94.883000 Y107.180000 Z0.400000 A6.420640
G3 X95.287000 Y106.361000 Z0.400000 A6.438130 I2.3952 J0.6723
G1 X95.287000 Y106.361000 Z0.400000 A6.438130
G1 X95.287000 Y106.361000 Z0.400000 A6.438130
G3 X97.035000 Y105.374000 Z0.400000 A6.477480 I1.9991 J1.4991
G1 X97.035000 Y105.374000 Z0.400000 A6.477480
G1 X97.721000 Y105.400000 Z0.400000 A6.490600
G1 X98.163000 Y105.521000 Z0.400000 A6.499350
G1 X98.163000 Y105.521000 Z0.400000 A6.499350
G3 X98.945000 Y105.992000 Z0.400000 A6.516840 I-0.8747 J2.3370
G1 X98.945000 Y105.992000 Z0.400000 A6.516840
G1 X98.945000 Y105.992000 Z0.400000 A6.516840
G3 X99.505000 Y106.713000 Z0.400000 A6.534330 I-1.6476 J1.8576
G1 X99.505000 Y106.713000 Z0.400000 A6.534330
G1 X100.192000 Y108.823000 Z0.400000 A6.576750
G1 X100.192000 Y108.823000 Z0.400000 A6.576750
G2 X100.939000 Y110.162000 Z0.400000 A6.606040 I6.8321 J-2.9336
G1 X100.939000 Y110.162000 Z0.400000 A6.606040
G1 X100.939000 Y110.162000 Z0.400000 A6.606040
G2 X103.550000 Y112.549000 Z0.400000 A6.673990 I6.7447 J-4.7561
G1 X103.550000 Y112.549000 Z0.400000 A6.673990
