; generated by Slic3r 0.9.8 on 2013-04-01 at 11:13:19

; layer_height = 0.3
; perimeters = 3
; top_solid_layers = 3
; bottom_solid_layers = 3
; fill_density = 0.4
; perimeter_speed = 30
; infill_speed = 40
; travel_speed = 130
; scale = 1
; nozzle_diameter = 0.4
; filament_diameter = 3
; extrusion_multiplier = 1
; perimeters extrusion width = 0.42mm
; infill extrusion width = 0.42mm
; support material extrusion width = 0.24mm
; first layer extrusion width = 0.42mm

M190 P115 ; wait for bed temperature to be reached
M104 P235 ; set temperature
G92 A0                  ; Reset A to 0
G40                        ; Cancel cutter compensation
G64 P0.1                ; Path Blend within .1mm
G0 X108.5 Y108.5  ; Move to center
M109 P235 ; wait for temperature to be reached
G90 ; use absolute coordinates
G21 ; set units to millimeters
G0 Z0.400 F3600.000 A-1.00000
G0 X131.240 Y113.296 F7800.000
G0 F3600.000 A0.10000
G1 X130.670 Y114.136 F540.000 A0.12388
G1 X130.300 Y114.566 A0.13723
G1 X129.780 Y115.096 A0.15469
G1 X129.160 Y115.646 A0.17419
G1 X128.700 Y115.976 A0.18751
G1 X128.110 Y116.356 A0.20402
G1 X127.660 Y116.616 A0.21624
G1 X127.420 Y116.726 A0.22245
G1 X126.530 Y117.096 A0.24513
G1 X126.040 Y117.256 A0.25725
G1 X125.090 Y117.466 A0.28014
G1 X124.020 Y117.596 A0.30549
G1 X123.490 Y117.616 A0.31797
G1 X93.500 Y117.616 A1.02346
G1 X92.750 Y117.576 A1.04113
G1 X91.800 Y117.456 A1.06366
G1 X91.310 Y117.346 A1.07547
G1 X90.640 Y117.146 A1.09192
G1 X89.910 Y116.876 A1.11023
G1 X89.040 Y116.446 A1.13306
G1 X88.560 Y116.166 A1.14613
G1 X88.100 Y115.846 A1.15931
G1 X87.150 Y115.046 A1.18853
G1 X86.790 Y114.676 A1.20067
G1 X86.330 Y114.126 A1.21754
G1 X86.160 Y113.916 A1.22390
G1 X85.850 Y113.466 A1.23675
G1 X85.240 Y112.376 A1.26614
G1 X85.020 Y111.866 A1.27920
G1 X84.840 Y111.356 A1.29192
G1 X84.570 Y110.376 A1.31584
G1 X84.450 Y109.546 A1.33557
G1 X84.380 Y108.496 A1.36032
G1 X84.410 Y107.816 A1.37633
G1 X84.450 Y107.396 A1.38626
G1 X84.570 Y106.596 A1.40529
G1 X84.840 Y105.636 A1.42875
G1 X85.020 Y105.126 A1.44147
G1 X85.240 Y104.616 A1.45454
G1 X85.710 Y103.756 A1.47759
G1 X86.000 Y103.296 A1.49038
G1 X86.620 Y102.516 A1.51382
G1 X87.150 Y101.946 A1.53213
G1 X87.880 Y101.326 A1.55466
G1 X88.280 Y101.016 A1.56657
G1 X88.710 Y100.736 A1.57864
G1 X89.330 Y100.386 A1.59539
G1 X90.100 Y100.026 A1.61538
G1 X91.070 Y99.706 A1.63941
G1 X91.620 Y99.566 A1.65276
G1 X92.170 Y99.476 A1.66587
G1 X92.900 Y99.406 A1.68312
G1 X93.500 Y99.376 A1.69726
G1 X123.490 Y99.376 A2.40275
G1 X124.560 Y99.426 A2.42795
G1 X124.880 Y99.466 A2.43553
G1 X125.520 Y99.596 A2.45090
G1 X126.100 Y99.756 A2.46505
G1 X126.530 Y99.896 A2.47569
G1 X127.430 Y100.266 A2.49858
G1 X128.280 Y100.736 A2.52143
G1 X128.950 Y101.186 A2.54041
G1 X129.620 Y101.746 A2.56096
G1 X130.380 Y102.526 A2.58657
G1 X130.920 Y103.226 A2.60737
G1 X131.300 Y103.796 A2.62349
G1 X131.550 Y104.226 A2.63519
G1 X131.770 Y104.666 A2.64676
G1 X132.070 Y105.376 A2.66489
G1 X132.170 Y105.676 A2.67233
G1 X132.270 Y105.986 A2.67999
G1 X132.410 Y106.606 A2.69495
G1 X132.530 Y107.286 A2.71119
G1 X132.600 Y108.016 A2.72844
G1 X132.600 Y108.966 A2.75079
G1 X132.560 Y109.456 A2.76235
G1 X132.490 Y109.936 A2.77377
G1 X132.350 Y110.676 A2.79148
G1 X132.190 Y111.276 A2.80609
G1 X131.790 Y112.266 A2.83121
G1 X131.269 Y113.241 A2.85721
G1 X131.240 Y113.296 A2.85868
G0 X130.890 Y113.066 F7800.000
G1 X130.340 Y113.876 F540.000 A2.88171
G1 X129.810 Y114.486 A2.90072
G1 X129.490 Y114.806 A2.91136
G1 X128.900 Y115.326 A2.92986
G1 X128.480 Y115.626 A2.94201
G1 X127.890 Y116.006 A2.95852
G1 X127.470 Y116.236 A2.96978
G1 X127.030 Y116.446 A2.98125
G1 X126.160 Y116.786 A3.00322
G1 X125.450 Y116.976 A3.02051
G1 X125.010 Y117.066 A3.03108
G1 X124.000 Y117.186 A3.05500
G1 X123.490 Y117.206 A3.06701
G1 X93.500 Y117.206 A3.77250
G1 X92.790 Y117.166 A3.78923
G1 X91.880 Y117.046 A3.81082
G1 X91.190 Y116.876 A3.82754
G1 X90.530 Y116.676 A3.84376
G1 X90.080 Y116.496 A3.85517
G1 X89.640 Y116.286 A3.86663
G1 X88.780 Y115.816 A3.88969
G1 X88.350 Y115.516 A3.90202
G1 X87.800 Y115.066 A3.91874
G1 X87.260 Y114.576 A3.93589
G1 X86.650 Y113.856 A3.95809
G1 X86.200 Y113.246 A3.97593
G1 X85.940 Y112.806 A3.98795
G1 X85.610 Y112.186 A4.00447
G1 X85.320 Y111.476 A4.02251
G1 X85.110 Y110.806 A4.03903
G1 X84.980 Y110.296 A4.05141
G1 X84.860 Y109.516 A4.06998
G1 X84.790 Y108.466 A4.09473
G1 X84.820 Y107.856 A4.10910
G1 X84.890 Y107.186 A4.12494
G1 X85.040 Y106.436 A4.14294
G1 X85.240 Y105.756 A4.15961
G1 X85.410 Y105.276 A4.17159
G1 X85.610 Y104.806 A4.18361
G1 X85.940 Y104.186 A4.20013
G1 X86.340 Y103.536 A4.21808
G1 X86.650 Y103.136 A4.22999
G1 X87.260 Y102.416 A4.25219
G1 X87.800 Y101.926 A4.26934
G1 X88.140 Y101.646 A4.27970
G1 X88.720 Y101.216 A4.29669
G1 X89.770 Y100.626 A4.32502
G1 X90.510 Y100.316 A4.34389
G1 X91.190 Y100.106 A4.36063
G1 X91.700 Y99.976 A4.37302
G1 X92.480 Y99.856 A4.39158
G1 X93.500 Y99.786 A4.41563
G1 X123.490 Y99.786 A5.12112
G1 X124.520 Y99.836 A5.14538
G1 X125.120 Y99.926 A5.15965
G1 X125.710 Y100.076 A5.17398
G1 X126.400 Y100.286 A5.19094
G1 X127.240 Y100.636 A5.21235
G1 X128.070 Y101.096 A5.23467
G1 X128.710 Y101.526 A5.25281
G1 X129.500 Y102.196 A5.27718
G1 X130.070 Y102.806 A5.29682
G1 X130.580 Y103.456 A5.31625
G1 X130.830 Y103.826 A5.32676
G1 X131.070 Y104.216 A5.33753
G1 X131.290 Y104.626 A5.34848
G1 X131.680 Y105.526 A5.37155
G1 X131.780 Y105.806 A5.37855
G1 X131.870 Y106.096 A5.38569
G1 X132.000 Y106.676 A5.39967
G1 X132.120 Y107.346 A5.41568
G1 X132.170 Y107.806 A5.42657
G1 X132.190 Y108.266 A5.43740
G1 X132.170 Y109.176 A5.45881
G1 X132.120 Y109.636 A5.46970
G1 X132.000 Y110.306 A5.48571
G1 X131.790 Y111.146 A5.50608
G1 X131.590 Y111.686 A5.51962
G1 X131.410 Y112.106 A5.53037
G1 X130.920 Y113.011 A5.55459
G1 X130.890 Y113.066 A5.55606
G0 Z0.900 F1080.000 A4.55606
G0 X94.306 Y110.008 F7800.000
G0 Z0.400
G0 F3600.000 A5.65606
G1 X93.996 Y110.137 F540.000 A5.66394
G1 X93.668 Y110.202 A5.67183
G1 X93.332 Y110.202 A5.67972
G1 X93.004 Y110.137 A5.68760
G1 X92.694 Y110.008 A5.69549
G1 X92.431 Y109.834 A5.70290
G1 X92.291 Y109.709 A5.70732
G1 X92.078 Y109.450 A5.71521
G1 X91.920 Y109.155 A5.72310
G1 X91.823 Y108.834 A5.73099
G1 X91.790 Y108.500 A5.73887
G1 X91.823 Y108.166 A5.74676
G1 X91.920 Y107.846 A5.75465
G1 X92.078 Y107.550 A5.76253
G1 X92.291 Y107.291 A5.77042
G1 X92.550 Y107.078 A5.77831
G1 X92.846 Y106.920 A5.78619
G1 X93.166 Y106.823 A5.79408
G1 X93.500 Y106.790 A5.80197
G1 X93.834 Y106.823 A5.80985
G1 X94.155 Y106.920 A5.81774
G1 X94.450 Y107.078 A5.82563
G1 X94.709 Y107.291 A5.83352
G1 X94.922 Y107.550 A5.84140
G1 X95.080 Y107.846 A5.84929
G1 X95.177 Y108.166 A5.85718
G1 X95.210 Y108.500 A5.86506
G1 X95.177 Y108.834 A5.87295
G1 X95.080 Y109.154 A5.88084
G1 X94.922 Y109.450 A5.88872
G1 X94.709 Y109.709 A5.89661
G1 X94.585 Y109.822 A5.90056
G1 X94.360 Y109.976 A5.90698
G1 X94.306 Y110.008 A5.90845
G0 X94.279 Y110.423 F7800.000
G0 Z0.900 F1080.000 A4.90845
G0 X107.796 Y108.619 F7800.000
G0 Z0.400
G0 F3600.000 A6.00845
G1 X107.796 Y108.381 F540.000 A6.01403
G1 X107.842 Y108.149 A6.01961
G1 X107.933 Y107.929 A6.02519
G1 X108.064 Y107.732 A6.03077
G1 X108.232 Y107.564 A6.03635
G1 X108.429 Y107.433 A6.04193
G1 X108.649 Y107.342 A6.04752
G1 X108.881 Y107.296 A6.05310
G1 X109.119 Y107.296 A6.05868
G1 X109.351 Y107.342 A6.06426
G1 X109.570 Y107.433 A6.06984
G1 X109.768 Y107.564 A6.07542
G1 X109.936 Y107.732 A6.08100
G1 X110.067 Y107.929 A6.08658
G1 X110.158 Y108.149 A6.09217
G1 X110.204 Y108.381 A6.09775
G1 X110.204 Y108.619 A6.10333
G1 X110.158 Y108.851 A6.10891
G1 X110.067 Y109.071 A6.11449
G1 X109.936 Y109.268 A6.12007
G1 X109.768 Y109.436 A6.12565
G1 X109.571 Y109.567 A6.13123
G1 X109.351 Y109.658 A6.13681
G1 X109.119 Y109.704 A6.14240
G1 X108.881 Y109.704 A6.14798
G1 X108.649 Y109.658 A6.15356
G1 X108.429 Y109.567 A6.15914
G1 X108.232 Y109.436 A6.16472
G1 X108.064 Y109.268 A6.17030
G1 X107.933 Y109.071 A6.17588
G1 X107.842 Y108.851 A6.18146
G1 X107.805 Y108.680 A6.18558
G1 X107.796 Y108.619 A6.18705
G0 X107.423 Y108.435 F7800.000
G0 Z0.900 F1080.000 A5.18705
G0 X121.790 Y108.500 F7800.000
G0 Z0.400
G0 F3600.000 A6.28705
G1 X121.823 Y108.166 F540.000 A6.29493
G1 X121.920 Y107.846 A6.30282
G1 X122.078 Y107.550 A6.31071
G1 X122.291 Y107.291 A6.31860
G1 X122.550 Y107.078 A6.32648
G1 X122.846 Y106.920 A6.33437
G1 X123.166 Y106.823 A6.34226
G1 X123.352 Y106.797 A6.34668
G1 X123.668 Y106.798 A6.35409
G1 X123.996 Y106.863 A6.36198
G1 X124.306 Y106.992 A6.36986
G1 X124.585 Y107.178 A6.37775
G1 X124.822 Y107.415 A6.38564
G1 X125.008 Y107.694 A6.39352
G1 X125.137 Y108.004 A6.40141
G1 X125.202 Y108.332 A6.40930
G1 X125.202 Y108.668 A6.41719
G1 X125.137 Y108.996 A6.42507
G1 X125.008 Y109.306 A6.43296
G1 X124.822 Y109.585 A6.44085
G1 X124.585 Y109.822 A6.44873
G1 X124.306 Y110.008 A6.45662
G1 X123.996 Y110.137 A6.46451
G1 X123.668 Y110.202 A6.47239
G1 X123.332 Y110.202 A6.48028
G1 X123.004 Y110.137 A6.48817
G1 X122.694 Y110.008 A6.49605
G1 X122.415 Y109.822 A6.50394
G1 X122.178 Y109.585 A6.51183
G1 X121.992 Y109.306 A6.51972
G1 X121.863 Y108.996 A6.52760
G1 X121.823 Y108.834 A6.53155
G1 X121.793 Y108.562 A6.53797
G1 X121.790 Y108.500 A6.53944
G0 X121.437 Y108.280 F7800.000
G0 X121.380 Y107.041
G1 X121.151 Y107.527 F540.000 A6.55207
G1 X121.067 Y107.762 A6.55794
G1 X120.979 Y108.191 A6.56824
G1 X120.957 Y108.500 A6.57554
G1 X120.970 Y108.749 A6.58141
G1 X121.067 Y109.238 A6.59313
G1 X121.151 Y109.473 A6.59900
G1 X121.381 Y109.959 A6.61164
G1 X110.459 Y109.959 A6.86857
G1 X110.699 Y109.635 A6.87806
G1 X110.887 Y109.282 A6.88747
G1 X111.003 Y108.898 A6.89689
G1 X111.043 Y108.500 A6.90631
G1 X111.003 Y108.102 A6.91572
G1 X110.887 Y107.718 A6.92515
G1 X110.698 Y107.365 A6.93457
G1 X110.458 Y107.041 A6.94405
G1 X121.318 Y107.041 A7.19952
G1 X121.380 Y107.041 A7.20099
G0 Z0.900 F1080.000 A6.20099
G0 X95.619 Y109.959 F7800.000
G0 Z0.400
G0 F3600.000 A7.30099
G1 X95.849 Y109.473 F540.000 A7.31362
G1 X95.933 Y109.238 A7.31949
G1 X95.994 Y108.996 A7.32536
G1 X96.043 Y108.500 A7.33709
G1 X96.030 Y108.251 A7.34295
G1 X95.933 Y107.762 A7.35468
G1 X95.849 Y107.527 A7.36055
G1 X95.619 Y107.041 A7.37319
G1 X107.496 Y107.041 A7.65256
G1 X107.199 Y107.537 A7.66616
G1 X107.113 Y107.718 A7.67087
G1 X106.997 Y108.102 A7.68030
G1 X106.957 Y108.500 A7.68971
G1 X106.997 Y108.899 A7.69914
G1 X107.113 Y109.282 A7.70856
G1 X107.301 Y109.635 A7.71797
G1 X107.542 Y109.959 A7.72746
G1 X95.682 Y109.959 A8.00645
G1 X95.619 Y109.959 A8.00792
G0 Z0.900 F1080.000 A7.00792
G0 X109.222 Y110.192 F7800.000
G0 Z0.400
G0 F3600.000 A8.10792
G1 X109.904 Y109.852 F540.000 A8.12583
G1 X110.150 Y109.650 A8.13332
G1 X110.257 Y109.532 A8.13708
G1 X110.434 Y109.267 A8.14458
G1 X110.503 Y109.122 A8.14833
G1 X110.595 Y108.817 A8.15584
G1 X110.626 Y108.500 A8.16334
G1 X110.601 Y108.220 A8.16996
G1 X110.556 Y108.028 A8.17459
G1 X110.450 Y107.767 A8.18122
G1 X110.352 Y107.596 A8.18585
G1 X110.150 Y107.350 A8.19334
G1 X109.904 Y107.148 A8.20084
G1 X109.222 Y106.808 A8.21875
G1 X109.263 Y106.626 A8.22315
G1 X122.405 Y106.626 A8.53231
G1 X121.996 Y106.996 A8.54529
G1 X121.856 Y107.151 A8.55020
G1 X121.625 Y107.498 A8.56001
G1 X121.535 Y107.686 A8.56492
G1 X121.424 Y108.046 A8.57377
G1 X121.384 Y108.292 A8.57963
G1 X121.374 Y108.500 A8.58454
G1 X121.384 Y108.708 A8.58945
G1 X121.465 Y109.117 A8.59925
G1 X121.625 Y109.502 A8.60906
G1 X121.856 Y109.849 A8.61887
G1 X121.996 Y110.004 A8.62378
G1 X122.405 Y110.374 A8.63676
G1 X109.263 Y110.374 A8.94592
G1 X109.236 Y110.253 A8.94885
G1 X109.222 Y110.192 A8.95032
G0 X108.778 Y110.192 F7800.000
G1 X108.737 Y110.374 F540.000 A8.95471
G1 X94.595 Y110.374 A9.28740
G1 X95.004 Y110.004 A9.30038
G1 X95.144 Y109.849 A9.30529
G1 X95.375 Y109.502 A9.31510
G1 X95.465 Y109.314 A9.32001
G1 X95.545 Y109.078 A9.32587
G1 X95.616 Y108.708 A9.33472
G1 X95.626 Y108.500 A9.33963
G1 X95.616 Y108.292 A9.34454
G1 X95.576 Y108.046 A9.35040
G1 X95.465 Y107.686 A9.35925
G1 X95.375 Y107.498 A9.36416
G1 X95.144 Y107.151 A9.37397
G1 X95.004 Y106.996 A9.37888
G1 X94.595 Y106.626 A9.39186
G1 X108.737 Y106.626 A9.72454
G1 X108.778 Y106.808 A9.72894
G1 X108.096 Y107.148 A9.74685
G1 X107.850 Y107.350 A9.75435
G1 X107.648 Y107.596 A9.76185
G1 X107.550 Y107.767 A9.76648
G1 X107.444 Y108.028 A9.77310
G1 X107.405 Y108.183 A9.77686
G1 X107.374 Y108.500 A9.78436
G1 X107.399 Y108.780 A9.79098
G1 X107.444 Y108.972 A9.79561
G1 X107.566 Y109.267 A9.80311
G1 X107.743 Y109.532 A9.81061
G1 X107.968 Y109.757 A9.81811
G1 X108.096 Y109.852 A9.82187
G1 X108.721 Y110.165 A9.83831
G1 X108.778 Y110.192 A9.83978
G0 Z0.900 F1080.000 A8.83978
G0 X123.495 Y110.790 F7800.000
G0 Z0.400
G0 F3600.000 A9.93978
G1 X93.505 Y110.790 F378.000 A10.64526
G1 X93.053 Y110.746 A10.65594
G1 X92.624 Y110.615 A10.66650
G1 X92.228 Y110.404 A10.67706
G1 X91.881 Y110.119 A10.68762
G1 X91.730 Y109.953 A10.69291
G1 X91.481 Y109.579 A10.70347
G1 X91.309 Y109.165 A10.71403
G1 X91.221 Y108.724 A10.72459
G1 X91.210 Y108.500 A10.72987
G1 X91.254 Y108.053 A10.74043
G1 X91.385 Y107.624 A10.75099
G1 X91.596 Y107.228 A10.76155
G1 X91.730 Y107.047 A10.76684
G1 X92.047 Y106.730 A10.77739
G1 X92.421 Y106.481 A10.78795
G1 X92.835 Y106.309 A10.79851
G1 X93.276 Y106.221 A10.80907
G1 X123.495 Y106.210 A11.51996
G1 X123.947 Y106.254 A11.53064
G1 X124.376 Y106.385 A11.54120
G1 X124.772 Y106.596 A11.55176
G1 X125.119 Y106.881 A11.56232
G1 X125.270 Y107.047 A11.56760
G1 X125.519 Y107.421 A11.57816
G1 X125.691 Y107.835 A11.58872
G1 X125.779 Y108.276 A11.59928
G1 X125.779 Y108.724 A11.60984
G1 X125.691 Y109.165 A11.62040
G1 X125.615 Y109.376 A11.62569
G1 X125.404 Y109.772 A11.63625
G1 X125.119 Y110.119 A11.64680
G1 X124.772 Y110.404 A11.65736
G1 X124.376 Y110.615 A11.66792
G1 X123.947 Y110.746 A11.67848
G1 X123.557 Y110.787 A11.68770
G1 X123.495 Y110.790 A11.68916
G0 X123.275 Y110.437 F7800.000
G0 X120.715 Y109.730
G1 X120.715 Y109.356 F720.000 A11.69829
G0 X120.715 Y107.645 F7800.000
G1 X120.715 Y107.270 F720.000 A11.70742
G1 X120.284 Y107.270 A11.71793
G1 X120.284 Y109.730 A11.77791
G1 X119.853 Y109.730 A11.78841
G1 X119.853 Y107.270 A11.84839
G1 X119.422 Y107.270 A11.85890
G1 X119.422 Y109.730 A11.91888
G1 X118.991 Y109.730 A11.92939
G1 X118.991 Y107.270 A11.98937
G1 X118.560 Y107.270 A11.99987
G1 X118.560 Y109.730 A12.05985
G1 X118.129 Y109.730 A12.07036
G1 X118.129 Y107.270 A12.13034
G1 X117.699 Y107.270 A12.14084
G1 X117.699 Y109.730 A12.20082
G1 X117.268 Y109.730 A12.21133
G1 X117.268 Y107.270 A12.27131
G1 X116.837 Y107.270 A12.28182
G1 X116.837 Y109.730 A12.34180
G1 X116.406 Y109.730 A12.35230
G1 X116.406 Y107.270 A12.41229
G1 X115.975 Y107.270 A12.42279
G1 X115.975 Y109.730 A12.48277
G1 X115.544 Y109.730 A12.49328
G1 X115.544 Y107.270 A12.55326
G1 X115.113 Y107.270 A12.56376
G1 X115.113 Y109.730 A12.62374
G1 X114.682 Y109.730 A12.63425
G1 X114.682 Y107.270 A12.69423
G1 X114.251 Y107.270 A12.70474
G1 X114.251 Y109.730 A12.76472
G1 X113.821 Y109.730 A12.77522
G1 X113.821 Y107.270 A12.83520
G1 X113.390 Y107.270 A12.84571
G1 X113.390 Y109.730 A12.90569
G1 X112.959 Y109.730 A12.91619
G1 X112.959 Y107.270 A12.97617
G1 X112.528 Y107.270 A12.98668
G1 X112.528 Y109.730 A13.04666
G1 X112.097 Y109.730 A13.05717
G1 X112.097 Y107.270 A13.11715
G0 X111.235 Y107.644 F7800.000
G1 X111.235 Y107.270 F720.000 A13.12628
G1 X111.666 Y107.270 A13.13678
G1 X111.666 Y109.730 A13.19676
G1 X111.235 Y109.356 A13.21068
G1 X111.235 Y109.730 A13.21981
G0 Z0.900 F1080.000 A12.21981
G0 X122.950 Y110.559 F7800.000
G0 Z0.400
G0 F3600.000 A13.31981
G1 X122.950 Y110.333 F360.000 A13.32302
