; generated by Slic3r 0.9.8 on 2013-04-01 at 11:13:19

; layer_height = 0.3
; perimeters = 3
; top_solid_layers = 3
; bottom_solid_layers = 3
; fill_density = 0.4
; perimeter_speed = 30
; infill_speed = 40
; travel_speed = 130
; scale = 1
; nozzle_diameter = 0.4
; filament_diameter = 3
; extrusion_multiplier = 1
; perimeters extrusion width = 0.42mm
; infill extrusion width = 0.42mm
; support material extrusion width = 0.24mm
; first layer extrusion width = 0.42mm

M190 P115 ; wait for bed temperature to be reached
M104 P235 ; set temperature
G92 A0                  ; Reset A to 0
G40                        ; Cancel cutter compensation
G64 P0.1                ; Path Blend within .1mm
G0 X108.5 Y108.5  ; Move to center
M109 P235 ; wait for temperature to be reached
G90 ; use absolute coordinates
G21 ; set units to millimeters
G0 Z0.400 F3600.000 A-1.00000
G0 X131.240 Y113.296 F7800.000
G0 F3600.000 A0.10000
G1 X130.670000 Y114.136000 Z0.400000 A0.123880 F540.000000
G3 X123.490000 Y117.616000 Z0.400000 A0.317970 I-7.1575 J-5.6204
G1 X93.500000 Y117.616000 Z0.400000 A1.023460
G3 X93.500000 Y99.376000 Z0.400000 A1.697260 I-0.0000 J-9.1200
G1 X123.490000 Y99.376000 Z0.400000 A2.402750
G3 X130.920000 Y103.226000 Z0.400000 A2.607370 I0.1246 J8.8539
G1 X131.300000 Y103.796000 Z0.400000 A2.623490
G3 X131.269000 Y113.241000 Z0.400000 A2.857210 I-7.5852 J4.6977
G1 X131.240000 Y113.296000 Z0.400000 A2.858680
G0 X130.890 Y113.066 F7800.000
G1 X130.340000 Y113.876000 Z0.400000 A2.881710 F540.000000
G3 X123.490000 Y117.206000 Z0.400000 A3.067010 I-6.8334 J-5.3462
G1 X93.500000 Y117.206000 Z0.400000 A3.772500
G3 X93.500000 Y99.786000 Z0.400000 A4.415630 I-0.0001 J-8.7100
G1 X123.490000 Y99.786000 Z0.400000 A5.121120
G3 X130.580000 Y103.456000 Z0.400000 A5.316250 I0.1045 J8.4817
G1 X130.830000 Y103.826000 Z0.400000 A5.326760
G3 X130.890000 Y113.066000 Z0.400000 A5.556060 I-7.1463 J4.6666
G0 Z0.900 F1080.000 A4.55606
G0 X94.306 Y110.008 F7800.000
G0 Z0.400
G0 F3600.000 A5.65606
G1 X93.996000 Y110.137000 Z0.400000 A5.663940 F540.000000
G3 X94.585000 Y109.822000 Z0.400000 A5.900560 I-0.4937 J-1.6314
G1 X94.360000 Y109.976000 Z0.400000 A5.906980
G1 X94.306000 Y110.008000 Z0.400000 A5.908450
G0 X94.279 Y110.423 F7800.000
G0 Z0.900 F1080.000 A4.90845
G0 X107.796 Y108.619 F7800.000
G0 Z0.400
G0 F3600.000 A6.00845
G1 X107.796000 Y108.381000 Z0.400000 A6.014030 F540.000000
G3 X107.842000 Y108.851000 Z0.400000 A6.181460 I1.2040 J0.1194
G1 X107.805000 Y108.680000 Z0.400000 A6.185580
G1 X107.796000 Y108.619000 Z0.400000 A6.187050
G0 X107.423 Y108.435 F7800.000
G0 Z0.900 F1080.000 A5.18705
G0 X121.790 Y108.500 F7800.000
G0 Z0.400
G0 F3600.000 A6.28705
G1 X121.823000 Y108.166000 Z0.400000 A6.294930 F540.000000
G3 X121.823000 Y108.834000 Z0.400000 A6.531550 I1.6764 J0.3340
G1 X121.793000 Y108.562000 Z0.400000 A6.537970
G1 X121.790000 Y108.500000 Z0.400000 A6.539440
G0 X121.437 Y108.280 F7800.000
G0 X121.380 Y107.041
G1 X121.151000 Y107.527000 Z0.400000 A6.552070 F540.000000
G2 X121.381000 Y109.959000 Z0.400000 A6.611640 I2.4211 J0.9979
G1 X110.459000 Y109.959000 Z0.400000 A6.868570
G2 X110.887000 Y107.718000 Z0.400000 A6.925150 I-1.5274 J-1.4531
G1 X110.698000 Y107.365000 Z0.400000 A6.934570
G1 X110.458000 Y107.041000 Z0.400000 A6.944050
G1 X121.318000 Y107.041000 Z0.400000 A7.199520
G1 X121.380000 Y107.041000 Z0.400000 A7.200990
G0 Z0.900 F1080.000 A6.20099
G0 X95.619 Y109.959 F7800.000
G0 Z0.400
G0 F3600.000 A7.30099
G1 X95.849000 Y109.473000 Z0.400000 A7.313620 F540.000000
G2 X96.030000 Y108.251000 Z0.400000 A7.342950 I-2.3345 J-0.9702
G1 X95.933000 Y107.762000 Z0.400000 A7.354680
G2 X95.619000 Y107.041000 Z0.400000 A7.373190 I-3.7966 J1.2246
G1 X107.496000 Y107.041000 Z0.400000 A7.652560
G2 X107.542000 Y109.959000 Z0.400000 A7.727460 I1.6363 J1.4336
G1 X95.682000 Y109.959000 Z0.400000 A8.006450
G1 X95.619000 Y109.959000 Z0.400000 A8.007920
G0 Z0.900 F1080.000 A7.00792
G0 X109.222 Y110.192 F7800.000
G0 Z0.400
G0 F3600.000 A8.10792
G1 X109.904000 Y109.852000 Z0.400000 A8.125830 F540.000000
G2 X109.904000 Y107.148000 Z0.400000 A8.200840 I-0.9034 J-1.3520
G1 X109.222000 Y106.808000 Z0.400000 A8.218750
G1 X109.263000 Y106.626000 Z0.400000 A8.223150
G1 X122.405000 Y106.626000 Z0.400000 A8.532310
G2 X122.405000 Y110.374000 Z0.400000 A8.636760 I1.1876 J1.8740
G1 X109.263000 Y110.374000 Z0.400000 A8.945920
G2 X109.222000 Y110.192000 Z0.400000 A8.950320 I-15.0432 J3.2932
G0 X108.778 Y110.192 F7800.000
G1 X108.737000 Y110.374000 Z0.400000 A8.954710 F540.000000
G1 X94.595000 Y110.374000 Z0.400000 A9.287400
G1 X95.004000 Y110.004000 Z0.400000 A9.300380
G2 X95.004000 Y106.996000 Z0.400000 A9.378880 I-1.5042 J-1.5040
G1 X94.595000 Y106.626000 Z0.400000 A9.391860
G1 X108.737000 Y106.626000 Z0.400000 A9.724540
G1 X108.778000 Y106.808000 Z0.400000 A9.728940
G2 X107.444000 Y108.972000 Z0.400000 A9.795610 I0.3534 J1.7111
G1 X107.566000 Y109.267000 Z0.400000 A9.803110
G2 X108.778000 Y110.192000 Z0.400000 A9.839780 I1.6578 J-0.9157
G0 Z0.900 F1080.000 A8.83978
G0 X123.495 Y110.790 F7800.000
G0 Z0.400
G0 F3600.000 A9.93978
G1 X93.505000 Y110.790000 Z0.400000 A10.645260 F378.000000
G3 X93.276000 Y106.221000 Z0.400000 A10.809070 I-0.0052 J-2.2900
G1 X123.495000 Y106.210000 Z0.400000 A11.519960
G3 X123.495000 Y110.790000 Z0.400000 A11.689160 I0.0030 J2.2900
G0 X123.275 Y110.437 F7800.000
G0 X120.715 Y109.730
G1 X120.715000 Y109.356000 Z0.400000 A11.698290 F720.000000
G0 X120.715 Y107.645 F7800.000
G1 X120.715000 Y107.270000 Z0.400000 A11.707420 F720.000000
G1 X120.284000 Y107.270000 Z0.400000 A11.717930
G1 X120.284000 Y109.730000 Z0.400000 A11.777910
G1 X119.853000 Y109.730000 Z0.400000 A11.788410
G1 X119.853000 Y107.270000 Z0.400000 A11.848390
G1 X119.422000 Y107.270000 Z0.400000 A11.858900
G1 X119.422000 Y109.730000 Z0.400000 A11.918880
G1 X118.991000 Y109.730000 Z0.400000 A11.929390
G1 X118.991000 Y107.270000 Z0.400000 A11.989370
G1 X118.560000 Y107.270000 Z0.400000 A11.999870
G1 X118.560000 Y109.730000 Z0.400000 A12.059850
G1 X118.129000 Y109.730000 Z0.400000 A12.070360
G1 X118.129000 Y107.270000 Z0.400000 A12.130340
G1 X117.699000 Y107.270000 Z0.400000 A12.140840
G1 X117.699000 Y109.730000 Z0.400000 A12.200820
G1 X117.268000 Y109.730000 Z0.400000 A12.211330
G1 X117.268000 Y107.270000 Z0.400000 A12.271310
G1 X116.837000 Y107.270000 Z0.400000 A12.281820
G1 X116.837000 Y109.730000 Z0.400000 A12.341800
G1 X116.406000 Y109.730000 Z0.400000 A12.352300
G1 X116.406000 Y107.270000 Z0.400000 A12.412290
G1 X115.975000 Y107.270000 Z0.400000 A12.422790
G1 X115.975000 Y109.730000 Z0.400000 A12.482770
G1 X115.544000 Y109.730000 Z0.400000 A12.493280
G1 X115.544000 Y107.270000 Z0.400000 A12.553260
G1 X115.113000 Y107.270000 Z0.400000 A12.563760
G1 X115.113000 Y109.730000 Z0.400000 A12.623740
G1 X114.682000 Y109.730000 Z0.400000 A12.634250
G1 X114.682000 Y107.270000 Z0.400000 A12.694230
G1 X114.251000 Y107.270000 Z0.400000 A12.704740
G1 X114.251000 Y109.730000 Z0.400000 A12.764720
G1 X113.821000 Y109.730000 Z0.400000 A12.775220
G1 X113.821000 Y107.270000 Z0.400000 A12.835200
G1 X113.390000 Y107.270000 Z0.400000 A12.845710
G1 X113.390000 Y109.730000 Z0.400000 A12.905690
G1 X112.959000 Y109.730000 Z0.400000 A12.916190
G1 X112.959000 Y107.270000 Z0.400000 A12.976170
G1 X112.528000 Y107.270000 Z0.400000 A12.986680
G1 X112.528000 Y109.730000 Z0.400000 A13.046660
G1 X112.097000 Y109.730000 Z0.400000 A13.057170
G1 X112.097000 Y107.270000 Z0.400000 A13.117150
G0 X111.235 Y107.644 F7800.000
G1 X111.235000 Y107.270000 Z0.400000 A13.126280 F720.000000
G1 X111.666000 Y107.270000 Z0.400000 A13.136780
G1 X111.666000 Y109.730000 Z0.400000 A13.196760
G1 X111.235000 Y109.356000 Z0.400000 A13.210680
G1 X111.235000 Y109.730000 Z0.400000 A13.219810
G0 Z0.900 F1080.000 A12.21981
G0 X122.950 Y110.559 F7800.000
G0 Z0.400
G0 F3600.000 A13.31981
G1 X122.950000 Y110.333000 Z0.400000 A13.323020 F360.000000
G0 Z0.900 F1080.000 A12.32302
G0 X122.950 Y106.667 F7800.000
G0 Z0.400
G0 F3600.000 A13.42302
G1 X122.950000 Y106.441000 Z0.400000 A13.426220 F360.000000
G0 Z0.900 F1080.000 A12.42622
G0 X106.765 Y107.270 F7800.000
G0 Z0.400
G0 F3600.000 A13.52622
G1 X106.765000 Y107.644000 Z0.400000 A13.535100 F720.000000
G0 X106.765 Y109.356 F7800.000
G1 X106.765000 Y109.730000 Z0.400000 A13.543980 F720.000000
G1 X106.346000 Y109.730000 Z0.400000 A13.553930
G1 X106.346000 Y107.270000 Z0.400000 A13.612280
G1 X105.926000 Y107.270000 Z0.400000 A13.622220
G1 X105.926000 Y109.730000 Z0.400000 A13.680570
G1 X105.507000 Y109.730000 Z0.400000 A13.690510
G1 X105.507000 Y107.270000 Z0.400000 A13.748860
G1 X105.088000 Y107.270000 Z0.400000 A13.758810
G1 X105.088000 Y109.730000 Z0.400000 A13.817160
G1 X104.669000 Y109.730000 Z0.400000 A13.827100
G1 X104.669000 Y107.270000 Z0.400000 A13.885450
G1 X104.250000 Y107.270000 Z0.400000 A13.895400
G1 X104.250000 Y109.730000 Z0.400000 A13.953750
G1 X103.831000 Y109.730000 Z0.400000 A13.963690
G1 X103.831000 Y107.270000 Z0.400000 A14.022040
G1 X103.411000 Y107.270000 Z0.400000 A14.031980
G1 X103.411000 Y109.730000 Z0.400000 A14.090330
G1 X102.992000 Y109.730000 Z0.400000 A14.100280
G1 X102.992000 Y107.270000 Z0.400000 A14.158630
G1 X102.573000 Y107.270000 Z0.400000 A14.168570
G1 X102.573000 Y109.730000 Z0.400000 A14.226920
G1 X102.154000 Y109.730000 Z0.400000 A14.236870
G1 X102.154000 Y107.270000 Z0.400000 A14.295220
G1 X101.735000 Y107.270000 Z0.400000 A14.305160
G1 X101.735000 Y109.730000 Z0.400000 A14.363510
G1 X101.316000 Y109.730000 Z0.400000 A14.373450
G1 X101.316000 Y107.270000 Z0.400000 A14.431800
G1 X100.896000 Y107.270000 Z0.400000 A14.441750
G1 X100.896000 Y109.730000 Z0.400000 A14.500100
G1 X100.477000 Y109.730000 Z0.400000 A14.510040
G1 X100.477000 Y107.270000 Z0.400000 A14.568390
G1 X100.058000 Y107.270000 Z0.400000 A14.578340
G1 X100.058000 Y109.730000 Z0.400000 A14.636690
G1 X99.639000 Y109.730000 Z0.400000 A14.646630
G1 X99.639000 Y107.270000 Z0.400000 A14.704980
G1 X99.220000 Y107.270000 Z0.400000 A14.714920
G1 X99.220000 Y109.730000 Z0.400000 A14.773270
G1 X98.800000 Y109.730000 Z0.400000 A14.783220
G1 X98.800000 Y107.270000 Z0.400000 A14.841570
G1 X98.381000 Y107.270000 Z0.400000 A14.851510
G1 X98.381000 Y109.730000 Z0.400000 A14.909860
G1 X97.962000 Y109.730000 Z0.400000 A14.919810
G1 X97.962000 Y107.270000 Z0.400000 A14.978160
G1 X97.543000 Y107.270000 Z0.400000 A14.988100
G1 X97.543000 Y109.730000 Z0.400000 A15.046450
G1 X97.124000 Y109.730000 Z0.400000 A15.056390
G1 X97.124000 Y107.270000 Z0.400000 A15.114740
G0 X96.285 Y107.644 F7800.000
G1 X96.285000 Y107.270000 Z0.400000 A15.123620 F720.000000
G1 X96.705000 Y107.270000 Z0.400000 A15.133570
G1 X96.705000 Y109.730000 Z0.400000 A15.191920
G1 X96.285000 Y109.355000 Z0.400000 A15.205250
G1 X96.285000 Y109.730000 Z0.400000 A15.214140
G0 X93.925 Y110.590 F7800.000
G1 X93.925000 Y110.364000 Z0.400000 A15.217340 F360.000000
G0 Z0.900 F1080.000 A14.21734
G0 X93.925 Y106.636 F7800.000
G0 Z0.400
G0 F3600.000 A15.31734
G1 X93.925000 Y106.410000 Z0.400000 A15.320550 F360.000000
M104 P230 ; set temperature
M140 P110 ; set bed temperature
G0 Z0.700 F3600.000 A14.32055
G0 X93.500 Y99.376 F7800.000
G0 F3600.000 A15.42055
G1 X123.830000 Y99.386000 Z0.700000 A15.955660 F1800.000000
G3 X128.080000 Y100.616000 Z0.700000 A16.034560 I-0.0863 J8.2555
G1 X128.950000 Y101.186000 Z0.700000 A16.052910
G3 X125.090000 Y117.466000 Z0.700000 A16.426700 I-5.4423 J7.3072
G1 X124.020000 Y117.596000 Z0.700000 A16.445720
G3 X92.050000 Y117.496000 Z0.700000 A17.009880 I-15.3856 J-191.6743
G1 X91.560000 Y117.406000 Z0.700000 A17.018670
G3 X93.500000 Y99.376000 Z0.700000 A17.489540 I1.9274 J-8.9120
G0 X93.500 Y99.786 F7800.000
G1 X123.810000 Y99.796000 Z0.700000 A18.024300 F1800.000000
G3 X128.710000 Y101.526000 Z0.700000 A18.117420 I-0.0994 J8.0859
G1 X129.340000 Y102.046000 Z0.700000 A18.131840
G3 X123.490000 Y117.206000 Z0.700000 A18.501100 I-5.8318 J6.4583
G1 X93.500000 Y117.206000 Z0.700000 A19.030220
G3 X93.500000 Y99.786000 Z0.700000 A19.512570 I-0.0001 J-8.7100
G0 Z1.200 F3600.000 A18.51257
G0 X93.500 Y110.212 F7800.000
G0 Z0.700
G0 F3600.000 A19.61257
G1 X93.166000 Y110.179000 Z0.700000 A19.618540 F1800.000000
G3 X93.834000 Y110.179000 Z0.700000 A19.797560 I0.3340 J-1.6774
G1 X93.563000 Y110.209000 Z0.700000 A19.802410
G1 X93.500000 Y110.212000 Z0.700000 A19.803530
G0 X93.279 Y110.568 F7800.000
G0 Z1.200 F3600.000 A18.80353
G0 X107.794 Y108.619 F7800.000
G0 Z0.700
G0 F3600.000 A19.90353
G1 X107.794000 Y108.381000 Z0.700000 A19.907760 F1800.000000
G3 X107.880000 Y108.964000 Z0.700000 A20.032390 I1.2059 J0.1200
G1 X107.803000 Y108.681000 Z0.700000 A20.037600
G1 X107.794000 Y108.619000 Z0.700000 A20.038720
G0 X107.415 Y108.440 F7800.000
G0 Z1.200 F3600.000 A19.03872
G0 X121.788 Y108.500 F7800.000
G0 Z0.700
G0 F3600.000 A20.13872
G1 X121.821000 Y108.166000 Z0.700000 A20.144690 F1800.000000
G3 X121.821000 Y108.834000 Z0.700000 A20.323720 I1.6791 J0.3340
G1 X121.791000 Y108.563000 Z0.700000 A20.328570
G1 X121.788000 Y108.500000 Z0.700000 A20.329690
G0 X121.432 Y108.279 F7800.000
G0 X121.367 Y107.050
G1 X121.143000 Y107.524000 Z0.700000 A20.339010 F1800.000000
G2 X121.367000 Y109.950000 Z0.700000 A20.383910 I2.4252 J0.9994
G1 X110.519000 Y109.950000 Z0.700000 A20.576770
G2 X110.519000 Y107.050000 Z0.700000 A20.632560 I-1.7100 J-1.4500
G1 X121.305000 Y107.050000 Z0.700000 A20.824300
G1 X121.367000 Y107.050000 Z0.700000 A20.825410
G0 Z1.200 F3600.000 A19.82541
G0 X95.633 Y107.050 F7800.000
G0 Z0.700
G0 F3600.000 A20.92541
G1 X107.481000 Y107.050000 Z0.700000 A21.136050 F1800.000000
G2 X107.481000 Y109.950000 Z0.700000 A21.191830 I1.7100 J1.4500
G1 X95.633000 Y109.950000 Z0.700000 A21.402470
G2 X95.857000 Y107.524000 Z0.700000 A21.447370 I-2.2547 J-1.4315
G1 X95.660000 Y107.107000 Z0.700000 A21.455580
G1 X95.633000 Y107.050000 Z0.700000 A21.456690
G0 Z1.200 F3600.000 A20.45669
G0 X109.248 Y106.815 F7800.000
G0 Z0.700
G0 F3600.000 A21.55669
G1 X109.290000 Y106.631000 Z0.700000 A21.560040 F1800.000000
G1 X122.392000 Y106.631000 Z0.700000 A21.792970
G1 X121.993000 Y106.993000 Z0.700000 A21.802550
G2 X121.993000 Y110.007000 Z0.700000 A21.862000 I1.5009 J1.5070
G1 X122.392000 Y110.369000 Z0.700000 A21.871580
G1 X109.290000 Y110.369000 Z0.700000 A22.104500
G1 X109.248000 Y110.185000 Z0.700000 A22.107850
G2 X110.600000 Y108.182000 Z0.700000 A22.155060 I-0.3709 J-1.7082
G1 X110.507000 Y107.876000 Z0.700000 A22.160740
G2 X109.248000 Y106.815000 Z0.700000 A22.190890 I-1.6836 J0.7203
G0 X108.752 Y106.815 F7800.000
G1 X108.094000 Y107.143000 Z0.700000 A22.203960 F1800.000000
G2 X108.093000 Y109.857000 Z0.700000 A22.260840 I0.9040 J1.3573
G1 X108.752000 Y110.185000 Z0.700000 A22.273920
G1 X108.710000 Y110.369000 Z0.700000 A22.277270
G1 X94.608000 Y110.369000 Z0.700000 A22.527980
G2 X94.608000 Y106.631000 Z0.700000 A22.606590 I-1.1936 J-1.8690
G1 X108.710000 Y106.631000 Z0.700000 A22.857290
G3 X108.752000 Y106.815000 Z0.700000 A22.860640 I-26.1201 J6.0590
G0 Z1.200 F3600.000 A21.86064
G0 X123.495 Y106.212 F7800.000
G0 Z0.700
G0 F3600.000 A22.96064
G1 X123.891000 Y106.231000 Z0.700000 A22.967700 F1260.000000
G1 X124.375000 Y106.386000 Z0.700000 A22.976960
G1 X124.771000 Y106.598000 Z0.700000 A22.984930
G3 X123.495000 Y110.788000 Z0.700000 A23.088670 I-1.2679 J1.9032
G1 X93.276000 Y110.777000 Z0.700000 A23.625900
G3 X93.276000 Y106.223000 Z0.700000 A23.745510 I0.2226 J-2.2770
G1 X123.432000 Y106.212000 Z0.700000 A24.281620
G1 X123.495000 Y106.212000 Z0.700000 A24.282740
G0 X123.692 Y106.581 F7800.000
G0 Z1.200 F3600.000 A23.28274
G0 X106.937 Y109.531 F7800.000
G0 Z0.700
G0 F3600.000 A24.38274
G1 X96.112000 Y109.531000 Z0.700000 A24.619660 F2400.000000
G1 X96.234000 Y109.016000 Z0.700000 A24.631260
G1 X106.774000 Y109.016000 Z0.700000 A24.861940
G1 X106.718000 Y108.500000 Z0.700000 A24.873290
G1 X96.282000 Y108.500000 Z0.700000 A25.101700
G1 X96.234000 Y107.984000 Z0.700000 A25.113040
G1 X106.774000 Y107.984000 Z0.700000 A25.343710
G1 X106.937000 Y107.469000 Z0.700000 A25.355550
G1 X96.112000 Y107.469000 Z0.700000 A25.592470
