; generated by Slic3r 0.9.8 on 2013-03-30 at 12:46:36

; layer_height = 0.3
; perimeters = 3
; top_solid_layers = 3
; bottom_solid_layers = 3
; fill_density = 0.4
; perimeter_speed = 30
; infill_speed = 40
; travel_speed = 130
; scale = 1
; nozzle_diameter = 0.4
; filament_diameter = 3
; extrusion_multiplier = 1
; perimeters extrusion width = 0.42mm
; infill extrusion width = 0.42mm
; first layer extrusion width = 0.42mm

M190 P115 ; wait for bed temperature to be reached
M104 P235 ; set temperature
G92 A0                  ; Reset A to 0
G40                        ; Cancel cutter compensation
G64 P0.1                ; Path Blend within .1mm
G0 X108.5 Y108.5  ; Move to center
M109 P235 ; wait for temperature to be reached
G90 ; use absolute coordinates
G21 ; set units to millimeters
G0 Z0.400 F1800.000 A-2.00000
G0 X139.870 Y120.615 F7800.000
G0 F1800.000 A0.00000
G1 X139.610000 Y120.665000 Z0.400000 A0.006230 F540.000000
G1 X138.810000 Y120.745000 Z0.400000 A0.025140
G1 X78.180000 Y120.745000 Z0.400000 A1.451420
G1 X78.180000 Y120.745000 Z0.400000 A1.451420
G3 X76.340000 Y120.415000 Z0.400000 A1.495500 I0.2836 J-6.8760
G1 X76.340000 Y120.415000 Z0.400000 A1.495500
G1 X76.340000 Y120.415000 Z0.400000 A1.495500
G3 X71.810000 Y115.505000 Z0.400000 A1.659710 I2.0825 J-6.4660
G1 X71.810000 Y115.505000 Z0.400000 A1.659710
G1 X71.810000 Y115.505000 Z0.400000 A1.659710
G3 X71.620000 Y114.185000 Z0.400000 A1.691130 I5.9474 J-1.5297
G1 X71.620000 Y114.185000 Z0.400000 A1.691130
G1 X71.620000 Y102.805000 Z0.400000 A1.958830
G1 X71.620000 Y102.805000 Z0.400000 A1.958830
G3 X71.950000 Y100.965000 Z0.400000 A2.002920 I6.8760 J0.2836
G1 X71.950000 Y100.965000 Z0.400000 A2.002920
G1 X71.950000 Y100.965000 Z0.400000 A2.002920
G3 X78.180000 Y96.245000 Z0.400000 A2.198550 I6.4899 J2.0946
G1 X78.180000 Y96.245000 Z0.400000 A2.198550
G1 X138.810000 Y96.245000 Z0.400000 A3.624820
G1 X138.810000 Y96.245000 Z0.400000 A3.624820
G3 X140.650000 Y96.575000 Z0.400000 A3.668910 I-0.2836 J6.8760
G1 X140.650000 Y96.575000 Z0.400000 A3.668910
G1 X140.650000 Y96.575000 Z0.400000 A3.668910
G3 X145.180000 Y101.485000 Z0.400000 A3.833110 I-2.0825 J6.4660
G1 X145.180000 Y101.485000 Z0.400000 A3.833110
G1 X145.180000 Y101.485000 Z0.400000 A3.833110
G3 X145.370000 Y102.805000 Z0.400000 A3.864530 I-5.9474 J1.5297
G1 X145.370000 Y102.805000 Z0.400000 A3.864530
G1 X145.370000 Y114.185000 Z0.400000 A4.132240
G1 X145.370000 Y114.185000 Z0.400000 A4.132240
G3 X139.870000 Y120.615000 Z0.400000 A4.346810 I-6.8153 J-0.2623
G1 X139.870000 Y120.615000 Z0.400000 A4.346810
G0 X139.860 Y120.195 F7800.000
G1 X139.330000 Y120.285000 Z0.400000 A4.359450 F540.000000
G1 X78.450000 Y120.335000 Z0.400000 A5.791650
G1 X78.450000 Y120.335000 Z0.400000 A5.791650
G3 X76.620000 Y120.065000 Z0.400000 A5.835290 I0.0078 J-6.3898
G1 X76.620000 Y120.065000 Z0.400000 A5.835290
G1 X76.620000 Y120.065000 Z0.400000 A5.835290
G3 X72.230000 Y115.485000 Z0.400000 A5.991360 I1.7684 J-6.0890
G1 X72.230000 Y115.485000 Z0.400000 A5.991360
G1 X72.080000 Y114.705000 Z0.400000 A6.010040
G1 X72.030000 Y113.915000 Z0.400000 A6.028660
G1 X72.030000 Y103.075000 Z0.400000 A6.283670
G1 X72.030000 Y103.075000 Z0.400000 A6.283670
G3 X72.300000 Y101.245000 Z0.400000 A6.327310 I6.3898 J0.0078
G1 X72.300000 Y101.245000 Z0.400000 A6.327310
G1 X72.300000 Y101.245000 Z0.400000 A6.327310
G3 X77.660000 Y96.705000 Z0.400000 A6.502100 I6.1057 J1.7745
G1 X77.660000 Y96.705000 Z0.400000 A6.502100
G1 X138.540000 Y96.655000 Z0.400000 A7.934290
G1 X138.540000 Y96.655000 Z0.400000 A7.934290
G3 X140.370000 Y96.925000 Z0.400000 A7.977930 I-0.0078 J6.3898
G1 X140.370000 Y96.925000 Z0.400000 A7.977930
G1 X140.370000 Y96.925000 Z0.400000 A7.977930
G3 X144.690000 Y101.245000 Z0.400000 A8.127680 I-1.7681 J6.0881
G1 X144.690000 Y101.245000 Z0.400000 A8.127680
G1 X144.690000 Y101.245000 Z0.400000 A8.127680
G3 X144.960000 Y103.075000 Z0.400000 A8.171330 I-6.1198 J1.8378
G1 X144.960000 Y103.075000 Z0.400000 A8.171330
G1 X144.950000 Y114.185000 Z0.400000 A8.432690
G1 X144.950000 Y114.185000 Z0.400000 A8.432690
G3 X139.860000 Y120.195000 Z0.400000 A8.632130 I-6.3622 J-0.2279
G1 X139.860000 Y120.195000 Z0.400000 A8.632130
G0 Z0.900 F540.000 A6.63213
G0 X135.277 Y111.029 F7800.000
G0 Z0.400
G0 F1800.000 A8.63213
G1 X135.022000 Y111.149000 Z0.400000 A8.638750 F540.000000
G1 X135.022000 Y111.149000 Z0.400000 A8.638750 F540.000000
G3 X134.206000 Y111.354000 Z0.400000 A8.658610 I-1.0887 J-2.6070
G1 X134.206000 Y111.354000 Z0.400000 A8.658610
G1 X130.694000 Y111.354000 Z0.400000 A8.741240
G1 X130.694000 Y111.354000 Z0.400000 A8.741240
G3 X129.382000 Y110.884000 Z0.400000 A8.774320 I0.2857 J-2.8637
G1 X129.382000 Y110.884000 Z0.400000 A8.774320
G1 X129.382000 Y110.884000 Z0.400000 A8.774320
G3 X128.162000 Y109.059000 Z0.400000 A8.827280 I1.5827 J-2.3783
G1 X128.162000 Y109.059000 Z0.400000 A8.827280
G1 X128.162000 Y109.059000 Z0.400000 A8.827280
G3 X128.107000 Y108.500000 Z0.400000 A8.840530 I2.8555 J-0.5632
G1 X128.107000 Y108.500000 Z0.400000 A8.840530
G1 X128.107000 Y108.500000 Z0.400000 A8.840530
G3 X128.162000 Y107.941000 Z0.400000 A8.853760 I2.9105 J0.0042
G1 X128.162000 Y107.941000 Z0.400000 A8.853760
G1 X128.162000 Y107.941000 Z0.400000 A8.853760
G3 X128.591000 Y106.907000 Z0.400000 A8.880250 I2.8228 J0.5652
G1 X128.591000 Y106.907000 Z0.400000 A8.880250
G1 X128.591000 Y106.907000 Z0.400000 A8.880250
G3 X130.694000 Y105.646000 Z0.400000 A8.939810 I2.3788 J1.5831
G1 X130.694000 Y105.646000 Z0.400000 A8.939810
G1 X134.206000 Y105.646000 Z0.400000 A9.022440
G1 X134.206000 Y105.646000 Z0.400000 A9.022440
G3 X135.518000 Y106.116000 Z0.400000 A9.055540 I-0.2766 J2.8383
G1 X135.518000 Y106.116000 Z0.400000 A9.055540
G1 X135.518000 Y106.116000 Z0.400000 A9.055540
G3 X136.454000 Y107.148000 Z0.400000 A9.088620 I-1.5772 J2.3709
G1 X136.454000 Y107.148000 Z0.400000 A9.088620
G1 X136.454000 Y107.148000 Z0.400000 A9.088620
G3 X136.793000 Y108.500000 Z0.400000 A9.121700 I-2.5445 J1.3565
G1 X136.793000 Y108.500000 Z0.400000 A9.121700
G1 X136.793000 Y108.500000 Z0.400000 A9.121700
G3 X136.738000 Y109.059000 Z0.400000 A9.134940 I-2.9105 J-0.0042
G1 X136.738000 Y109.059000 Z0.400000 A9.134940
G1 X136.738000 Y109.059000 Z0.400000 A9.134940
G3 X136.454000 Y109.852000 Z0.400000 A9.154800 I-2.8376 J-0.5689
G1 X136.454000 Y109.852000 Z0.400000 A9.154800
G1 X136.454000 Y109.852000 Z0.400000 A9.154800
G3 X135.277000 Y111.029000 Z0.400000 A9.194510 I-2.5238 J-1.3468
G1 X135.277000 Y111.029000 Z0.400000 A9.194510
G0 X135.081 Y110.662 F7800.000
G1 X134.637000 Y110.846000 Z0.400000 A9.205810 F540.000000
G1 X134.165000 Y110.940000 Z0.400000 A9.217120
G1 X130.960000 Y110.951000 Z0.400000 A9.292530
G1 X130.960000 Y110.951000 Z0.400000 A9.292530
G3 X129.613000 Y110.538000 Z0.400000 A9.326080 I0.0118 J-2.4415
G1 X129.613000 Y110.538000 Z0.400000 A9.326080
G1 X129.613000 Y110.538000 Z0.400000 A9.326080
G3 X128.535000 Y108.740000 Z0.400000 A9.376980 I1.3604 J-2.0378
G1 X128.535000 Y108.740000 Z0.400000 A9.376980
G1 X128.629000 Y107.788000 Z0.400000 A9.399590
G1 X128.629000 Y107.788000 Z0.400000 A9.399590
G3 X128.937000 Y107.138000 Z0.400000 A9.416550 I2.3194 J0.7011
G1 X128.937000 Y107.138000 Z0.400000 A9.416550
G1 X128.937000 Y107.138000 Z0.400000 A9.416550
G3 X130.735000 Y106.060000 Z0.400000 A9.467440 I2.0390 J1.3623
G1 X130.735000 Y106.060000 Z0.400000 A9.467440
G1 X133.940000 Y106.049000 Z0.400000 A9.542850
G1 X133.940000 Y106.049000 Z0.400000 A9.542850
G3 X135.081000 Y106.338000 Z0.400000 A9.570760 I-0.0157 J2.4590
G1 X135.081000 Y106.338000 Z0.400000 A9.570760
G1 X135.081000 Y106.338000 Z0.400000 A9.570760
G3 X136.365000 Y108.260000 Z0.400000 A9.627310 I-1.1597 J2.1646
G1 X136.365000 Y108.260000 Z0.400000 A9.627310
G1 X136.365000 Y108.740000 Z0.400000 A9.638620
G1 X136.365000 Y108.740000 Z0.400000 A9.638620
G3 X136.087000 Y109.656000 Z0.400000 A9.661230 I-2.4422 J-0.2410
G1 X136.087000 Y109.656000 Z0.400000 A9.661230
G1 X136.087000 Y109.656000 Z0.400000 A9.661230
G3 X135.081000 Y110.662000 Z0.400000 A9.695160 I-2.1748 J-1.1688
G1 X135.081000 Y110.662000 Z0.400000 A9.695160
G0 X134.884 Y110.295 F7800.000
G1 X134.516000 Y110.448000 Z0.400000 A9.704540 F540.000000
G1 X134.124000 Y110.525000 Z0.400000 A9.713930
G1 X130.970000 Y110.535000 Z0.400000 A9.788140
G1 X130.970000 Y110.535000 Z0.400000 A9.788140
G3 X129.844000 Y110.192000 Z0.400000 A9.816190 I0.0008 J-2.0223
G1 X129.844000 Y110.192000 Z0.400000 A9.816190
G1 X129.844000 Y110.192000 Z0.400000 A9.816190
G3 X129.027000 Y109.091000 Z0.400000 A9.849040 I1.1345 J-1.6955
G1 X129.027000 Y109.091000 Z0.400000 A9.849040
G1 X128.953000 Y108.279000 Z0.400000 A9.868340
G1 X128.953000 Y108.279000 Z0.400000 A9.868340
G3 X129.180000 Y107.541000 Z0.400000 A9.886590 I1.9659 J0.2008
G1 X129.180000 Y107.541000 Z0.400000 A9.886590
G1 X129.180000 Y107.541000 Z0.400000 A9.886590
G3 X130.776000 Y106.475000 Z0.400000 A9.933530 I1.7932 J0.9570
G1 X130.776000 Y106.475000 Z0.400000 A9.933530
G1 X133.930000 Y106.465000 Z0.400000 A10.007740
G1 X133.930000 Y106.465000 Z0.400000 A10.007740
G3 X134.704000 Y106.620000 Z0.400000 A10.026400 I-0.0040 J2.0302
G1 X134.704000 Y106.620000 Z0.400000 A10.026400
G1 X134.704000 Y106.620000 Z0.400000 A10.026400
G3 X135.617000 Y107.369000 Z0.400000 A10.054560 I-0.7766 J1.8776
G1 X135.617000 Y107.369000 Z0.400000 A10.054560
G1 X135.617000 Y107.369000 Z0.400000 A10.054560
G3 X135.873000 Y107.909000 Z0.400000 A10.068640 I-1.7140 J1.1432
G1 X135.873000 Y107.909000 Z0.400000 A10.068640
G1 X135.873000 Y107.909000 Z0.400000 A10.068640
G3 X135.960000 Y108.500000 Z0.400000 A10.082730 I-1.9875 J0.5945
G1 X135.960000 Y108.500000 Z0.400000 A10.082730
G1 X135.960000 Y108.500000 Z0.400000 A10.082730
G3 X135.873000 Y109.091000 Z0.400000 A10.096810 I-2.0850 J-0.0050
G1 X135.873000 Y109.091000 Z0.400000 A10.096810
G1 X135.873000 Y109.091000 Z0.400000 A10.096810
G3 X135.617000 Y109.631000 Z0.400000 A10.110900 I-1.9700 J-0.6032
G1 X135.617000 Y109.631000 Z0.400000 A10.110900
G1 X135.617000 Y109.631000 Z0.400000 A10.110900
G3 X134.884000 Y110.295000 Z0.400000 A10.134370 I-1.6945 J-1.1340
G1 X134.884000 Y110.295000 Z0.400000 A10.134370
G0 X134.857 Y110.710 F7800.000
G0 Z0.900 F540.000 A8.13437
G0 X88.893 Y108.500 F7800.000
G0 Z0.400
G0 F1800.000 A10.13437
G1 X88.879000 Y108.781000 Z0.400000 A10.140990 F540.000000
G1 X88.879000 Y108.781000 Z0.400000 A10.140990 F540.000000
G3 X87.122000 Y111.149000 Z0.400000 A10.213810 I-2.8491 J-0.2782
G1 X87.122000 Y111.149000 Z0.400000 A10.213810
G1 X87.122000 Y111.149000 Z0.400000 A10.213810
G3 X86.306000 Y111.354000 Z0.400000 A10.233670 I-1.0887 J-2.6070
G1 X86.306000 Y111.354000 Z0.400000 A10.233670
G1 X82.794000 Y111.354000 Z0.400000 A10.316300
G1 X82.794000 Y111.354000 Z0.400000 A10.316300
G3 X81.047000 Y110.528000 Z0.400000 A10.362640 I0.2752 J-2.8425
G1 X81.047000 Y110.528000 Z0.400000 A10.362640
G1 X81.047000 Y110.528000 Z0.400000 A10.362640
G3 X80.207000 Y108.500000 Z0.400000 A10.415600 I2.0320 J-2.0296
G1 X80.207000 Y108.500000 Z0.400000 A10.415600
G1 X80.207000 Y108.500000 Z0.400000 A10.415600
G3 X80.262000 Y107.941000 Z0.400000 A10.428840 I2.9105 J0.0042
G1 X80.262000 Y107.941000 Z0.400000 A10.428840
G1 X80.262000 Y107.941000 Z0.400000 A10.428840
G3 X80.426000 Y107.403000 Z0.400000 A10.442080 I2.8564 J0.5767
G1 X80.426000 Y107.403000 Z0.400000 A10.442080
G1 X80.426000 Y107.403000 Z0.400000 A10.442080
G3 X81.047000 Y106.472000 Z0.400000 A10.468560 I2.6313 J1.0825
G1 X81.047000 Y106.472000 Z0.400000 A10.468560
G1 X81.047000 Y106.472000 Z0.400000 A10.468560
G3 X83.049000 Y105.634000 Z0.400000 A10.520920 I2.0235 J2.0237
G1 X83.049000 Y105.634000 Z0.400000 A10.520920
G1 X86.306000 Y105.646000 Z0.400000 A10.597530
G1 X86.306000 Y105.646000 Z0.400000 A10.597530
G3 X87.377000 Y105.971000 Z0.400000 A10.624010 I-0.2767 J2.8389
G1 X87.377000 Y105.971000 Z0.400000 A10.624010
G1 X87.377000 Y105.971000 Z0.400000 A10.624010
G3 X88.554000 Y107.148000 Z0.400000 A10.663740 I-1.3468 J2.5238
G1 X88.554000 Y107.148000 Z0.400000 A10.663740
G1 X88.554000 Y107.148000 Z0.400000 A10.663740
G3 X88.838000 Y107.941000 Z0.400000 A10.683600 I-2.5829 J1.3724
G1 X88.838000 Y107.941000 Z0.400000 A10.683600
G1 X88.838000 Y107.941000 Z0.400000 A10.683600
G3 X88.893000 Y108.500000 Z0.400000 A10.696820 I-4.9674 J0.7709
G1 X88.893000 Y108.500000 Z0.400000 A10.696820
G0 X88.476 Y108.500 F7800.000
G1 X88.429000 Y108.978000 Z0.400000 A10.708130 F540.000000
G1 X88.429000 Y108.978000 Z0.400000 A10.708130 F540.000000
G3 X86.963000 Y110.765000 Z0.400000 A10.764650 I-2.4003 J-0.4743
G1 X86.963000 Y110.765000 Z0.400000 A10.764650
G1 X86.963000 Y110.765000 Z0.400000 A10.764650
G3 X86.040000 Y110.951000 Z0.400000 A10.786900 I-0.9392 J-2.2774
G1 X86.040000 Y110.951000 Z0.400000 A10.786900
G1 X83.060000 Y110.951000 Z0.400000 A10.857020
G1 X83.060000 Y110.951000 Z0.400000 A10.857020
G3 X81.180000 Y110.055000 Z0.400000 A10.907540 I0.0130 J-2.4476
G1 X81.180000 Y110.055000 Z0.400000 A10.907540
G1 X81.180000 Y110.055000 Z0.400000 A10.907540
G3 X80.729000 Y109.212000 Z0.400000 A10.930160 I1.8878 J-1.5521
G1 X80.729000 Y109.212000 Z0.400000 A10.930160
G1 X80.635000 Y108.260000 Z0.400000 A10.952770
G1 X80.635000 Y108.260000 Z0.400000 A10.952770
G3 X82.363000 Y106.154000 Z0.400000 A11.020600 I2.4404 J0.2405
G1 X82.363000 Y106.154000 Z0.400000 A11.020600
G1 X82.363000 Y106.154000 Z0.400000 A11.020600
G3 X83.060000 Y106.049000 Z0.400000 A11.037210 I0.7163 J2.3887
G1 X83.060000 Y106.049000 Z0.400000 A11.037210
G1 X86.040000 Y106.049000 Z0.400000 A11.107330
G1 X86.040000 Y106.049000 Z0.400000 A11.107330
G3 X87.758000 Y106.767000 Z0.400000 A11.152200 I-0.0122 J2.4435
G1 X87.758000 Y106.767000 Z0.400000 A11.152200
G1 X87.758000 Y106.767000 Z0.400000 A11.152200
G3 X88.371000 Y107.788000 Z0.400000 A11.180470 I-1.7227 J1.7288
G1 X88.371000 Y107.788000 Z0.400000 A11.180470
G1 X88.371000 Y107.788000 Z0.400000 A11.180470
G3 X88.476000 Y108.500000 Z0.400000 A11.197430 I-2.3862 J0.7156
G1 X88.476000 Y108.500000 Z0.400000 A11.197430
G0 X88.060 Y108.500 F7800.000
G1 X88.021000 Y108.897000 Z0.400000 A11.206820 F540.000000
G1 X88.021000 Y108.897000 Z0.400000 A11.206820 F540.000000
G3 X86.804000 Y110.380000 Z0.400000 A11.253750 I-1.9950 J-0.3963
G1 X86.804000 Y110.380000 Z0.400000 A11.253750
G1 X86.804000 Y110.380000 Z0.400000 A11.253750
G3 X86.030000 Y110.535000 Z0.400000 A11.272400 I-0.7780 J-1.8752
G1 X86.030000 Y110.535000 Z0.400000 A11.272400
G1 X83.070000 Y110.535000 Z0.400000 A11.342040
G1 X83.070000 Y110.535000 Z0.400000 A11.342040
G3 X81.636000 Y109.939000 Z0.400000 A11.379470 I0.0044 J-2.0337
G1 X81.636000 Y109.939000 Z0.400000 A11.379470
G1 X81.636000 Y109.939000 Z0.400000 A11.379470
G3 X81.127000 Y109.091000 Z0.400000 A11.402940 I1.4415 J-1.4420
G1 X81.127000 Y109.091000 Z0.400000 A11.402940
G1 X81.050000 Y108.301000 Z0.400000 A11.421710
G1 X81.050000 Y108.301000 Z0.400000 A11.421710
G3 X82.484000 Y106.552000 Z0.400000 A11.478020 I2.0190 J0.1930
G1 X82.484000 Y106.552000 Z0.400000 A11.478020
G1 X82.484000 Y106.552000 Z0.400000 A11.478020
G3 X83.070000 Y106.465000 Z0.400000 A11.491990 I0.5943 J1.9859
G1 X83.070000 Y106.465000 Z0.400000 A11.491990
G1 X86.030000 Y106.465000 Z0.400000 A11.561630
G1 X86.030000 Y106.465000 Z0.400000 A11.561630
G3 X87.464000 Y107.061000 Z0.400000 A11.599060 I-0.0044 J2.0337
G1 X87.464000 Y107.061000 Z0.400000 A11.599060
G1 X87.464000 Y107.061000 Z0.400000 A11.599060
G3 X87.973000 Y107.909000 Z0.400000 A11.622530 I-1.4415 J1.4420
G1 X87.973000 Y107.909000 Z0.400000 A11.622530
G1 X87.973000 Y107.909000 Z0.400000 A11.622530
G3 X88.060000 Y108.500000 Z0.400000 A11.636620 I-1.9854 J0.5942
G1 X88.060000 Y108.500000 Z0.400000 A11.636620
G0 X88.413 Y108.720 F7800.000
G0 Z0.900 F540.000 A9.63662
G0 X79.291 Y113.084 F7800.000
G0 Z0.400
G0 F1800.000 A11.63662
G1 X79.291000 Y103.916000 Z0.400000 A11.852270 F540.000000
G1 X137.709000 Y103.916000 Z0.400000 A13.226490
G1 X137.709000 Y113.084000 Z0.400000 A13.442140
G1 X79.291000 Y113.084000 Z0.400000 A14.816360
G0 X78.876 Y113.499 F7800.000
