; generated by Slic3r 0.9.8 on 2013-03-30 at 12:46:36

; layer_height = 0.3
; perimeters = 3
; top_solid_layers = 3
; bottom_solid_layers = 3
; fill_density = 0.4
; perimeter_speed = 30
; infill_speed = 40
; travel_speed = 130
; scale = 1
; nozzle_diameter = 0.4
; filament_diameter = 3
; extrusion_multiplier = 1
; perimeters extrusion width = 0.42mm
; infill extrusion width = 0.42mm
; first layer extrusion width = 0.42mm

M190 P115 ; wait for bed temperature to be reached
M104 P235 ; set temperature
G92 A0                  ; Reset A to 0
G40                        ; Cancel cutter compensation
G64 P0.1                ; Path Blend within .1mm
G0 X108.5 Y108.5  ; Move to center
M109 P235 ; wait for temperature to be reached
G90 ; use absolute coordinates
G21 ; set units to millimeters
G0 Z0.400 F1800.000 A-2.00000
G0 X139.870 Y120.615 F7800.000
G0 F1800.000 A0.00000
G1 X139.610 Y120.665 F540.000 A0.00623
G1 X138.810 Y120.745 A0.02514
G1 X78.180 Y120.745 A1.45142
G1 X77.380 Y120.665 A1.47033
G1 X77.120 Y120.615 A1.47656
G1 X76.340 Y120.415 A1.49550
G1 X76.090 Y120.325 A1.50175
G1 X75.350 Y120.005 A1.52072
G1 X74.650 Y119.595 A1.53980
G1 X74.430 Y119.445 A1.54607
G1 X73.810 Y118.935 A1.56495
G1 X73.430 Y118.555 A1.57759
G1 X72.920 Y117.935 A1.59648
G1 X72.770 Y117.715 A1.60274
G1 X72.360 Y117.015 A1.62183
G1 X72.040 Y116.275 A1.64079
G1 X71.950 Y116.025 A1.64704
G1 X71.810 Y115.505 A1.65971
G1 X71.700 Y114.985 A1.67221
G1 X71.620 Y114.185 A1.69113
G1 X71.620 Y102.805 A1.95883
G1 X71.700 Y102.005 A1.97775
G1 X71.750 Y101.745 A1.98397
G1 X71.950 Y100.965 A2.00292
G1 X72.040 Y100.715 A2.00917
G1 X72.360 Y99.975 A2.02813
G1 X72.490 Y99.735 A2.03455
G1 X72.920 Y99.055 A2.05348
G1 X73.260 Y98.635 A2.06619
G1 X73.430 Y98.435 A2.07237
G1 X73.810 Y98.055 A2.08501
G1 X74.430 Y97.545 A2.10390
G1 X74.650 Y97.395 A2.11016
G1 X75.350 Y96.985 A2.12924
G1 X75.840 Y96.765 A2.14188
G1 X76.340 Y96.575 A2.15446
G1 X76.860 Y96.435 A2.16713
G1 X77.380 Y96.325 A2.17963
G1 X78.180 Y96.245 A2.19855
G1 X138.810 Y96.245 A3.62482
G1 X139.610 Y96.325 A3.64373
G1 X139.870 Y96.375 A3.64996
G1 X140.650 Y96.575 A3.66891
G1 X140.900 Y96.665 A3.67516
G1 X141.640 Y96.985 A3.69412
G1 X142.340 Y97.395 A3.71321
G1 X142.560 Y97.545 A3.71947
G1 X143.180 Y98.055 A3.73835
G1 X143.560 Y98.435 A3.75100
G1 X144.070 Y99.055 A3.76988
G1 X144.220 Y99.275 A3.77615
G1 X144.630 Y99.975 A3.79523
G1 X144.950 Y100.715 A3.81420
G1 X145.040 Y100.965 A3.82045
G1 X145.180 Y101.485 A3.83311
G1 X145.290 Y102.005 A3.84562
G1 X145.370 Y102.805 A3.86453
G1 X145.370 Y114.185 A4.13224
G1 X145.290 Y114.985 A4.15115
G1 X145.240 Y115.245 A4.15738
G1 X145.040 Y116.025 A4.17632
G1 X144.950 Y116.275 A4.18257
G1 X144.630 Y117.015 A4.20154
G1 X144.500 Y117.255 A4.20796
G1 X144.070 Y117.935 A4.22688
G1 X143.730 Y118.355 A4.23960
G1 X143.560 Y118.555 A4.24577
G1 X143.180 Y118.935 A4.25841
G1 X142.980 Y119.105 A4.26459
G1 X142.560 Y119.445 A4.27730
G1 X141.880 Y119.875 A4.29623
G1 X141.640 Y120.005 A4.30265
G1 X140.900 Y120.325 A4.32161
G1 X140.650 Y120.415 A4.32786
G1 X139.931 Y120.601 A4.34534
G1 X139.870 Y120.615 A4.34681
G0 X139.860 Y120.195 F7800.000
G1 X139.330 Y120.285 F540.000 A4.35945
G1 X138.540 Y120.335 A4.37807
G1 X78.450 Y120.335 A5.79165
G1 X77.660 Y120.285 A5.81027
G1 X77.390 Y120.245 A5.81669
G1 X76.620 Y120.065 A5.83529
G1 X76.120 Y119.895 A5.84771
G1 X75.870 Y119.795 A5.85405
G1 X75.400 Y119.555 A5.86646
G1 X74.720 Y119.135 A5.88527
G1 X74.300 Y118.815 A5.89769
G1 X74.100 Y118.635 A5.90402
G1 X73.550 Y118.065 A5.92265
G1 X73.080 Y117.425 A5.94133
G1 X72.690 Y116.735 A5.95997
G1 X72.470 Y116.245 A5.97261
G1 X72.230 Y115.485 A5.99136
G1 X72.080 Y114.705 A6.01004
G1 X72.030 Y113.915 A6.02866
G1 X72.030 Y103.075 A6.28367
G1 X72.080 Y102.285 A6.30229
G1 X72.120 Y102.015 A6.30871
G1 X72.300 Y101.245 A6.32731
G1 X72.470 Y100.745 A6.33973
G1 X72.570 Y100.495 A6.34607
G1 X72.940 Y99.795 A6.36469
G1 X73.230 Y99.345 A6.37729
G1 X73.550 Y98.925 A6.38971
G1 X73.910 Y98.535 A6.40220
G1 X74.300 Y98.175 A6.41468
G1 X74.940 Y97.705 A6.43336
G1 X75.400 Y97.435 A6.44591
G1 X75.870 Y97.195 A6.45832
G1 X76.370 Y97.005 A6.47090
G1 X76.880 Y96.855 A6.48341
G1 X77.660 Y96.705 A6.50210
G1 X78.450 Y96.655 A6.52072
G1 X138.540 Y96.655 A7.93429
G1 X139.330 Y96.705 A7.95291
G1 X139.600 Y96.745 A7.95933
G1 X140.370 Y96.925 A7.97793
G1 X140.870 Y97.095 A7.99036
G1 X141.120 Y97.195 A7.99669
G1 X141.590 Y97.435 A8.00911
G1 X142.270 Y97.855 A8.02791
G1 X142.690 Y98.175 A8.04033
G1 X142.890 Y98.355 A8.04666
G1 X143.440 Y98.925 A8.06529
G1 X143.910 Y99.565 A8.08397
G1 X144.180 Y100.025 A8.09652
G1 X144.420 Y100.495 A8.10893
G1 X144.690 Y101.245 A8.12768
G1 X144.820 Y101.755 A8.14007
G1 X144.910 Y102.285 A8.15271
G1 X144.960 Y103.075 A8.17133
G1 X144.950 Y114.185 A8.43269
G1 X144.910 Y114.705 A8.44496
G1 X144.820 Y115.235 A8.45760
G1 X144.690 Y115.745 A8.46998
G1 X144.520 Y116.245 A8.48241
G1 X144.420 Y116.495 A8.48874
G1 X144.050 Y117.195 A8.50737
G1 X143.760 Y117.645 A8.51996
G1 X143.440 Y118.065 A8.53238
G1 X143.080 Y118.455 A8.54487
G1 X142.690 Y118.815 A8.55735
G1 X142.270 Y119.135 A8.56977
G1 X141.820 Y119.425 A8.58237
G1 X141.120 Y119.795 A8.60099
G1 X140.870 Y119.895 A8.60733
G1 X140.370 Y120.065 A8.61975
G1 X139.921 Y120.180 A8.63067
G1 X139.860 Y120.195 A8.63213
G0 Z0.900 F540.000 A6.63213
G0 X135.277 Y111.029 F7800.000
G0 Z0.400
G0 F1800.000 A8.63213
G1 X135.022 Y111.149 F540.000 A8.63875
G1 X134.757 Y111.244 A8.64537
G1 X134.484 Y111.313 A8.65199
G1 X134.206 Y111.354 A8.65861
G1 X133.951 Y111.366 A8.66463
G1 X130.694 Y111.354 A8.74124
G1 X130.354 Y111.297 A8.74934
G1 X129.878 Y111.149 A8.76108
G1 X129.623 Y111.029 A8.76770
G1 X129.382 Y110.884 A8.77432
G1 X129.156 Y110.717 A8.78094
G1 X128.947 Y110.528 A8.78757
G1 X128.758 Y110.319 A8.79418
G1 X128.591 Y110.093 A8.80081
G1 X128.446 Y109.852 A8.80742
G1 X128.326 Y109.597 A8.81404
G1 X128.231 Y109.332 A8.82067
G1 X128.162 Y109.059 A8.82728
G1 X128.121 Y108.781 A8.83391
G1 X128.107 Y108.500 A8.84053
G1 X128.121 Y108.219 A8.84715
G1 X128.162 Y107.941 A8.85376
G1 X128.231 Y107.667 A8.86039
G1 X128.326 Y107.403 A8.86701
G1 X128.446 Y107.148 A8.87363
G1 X128.591 Y106.907 A8.88025
G1 X128.758 Y106.681 A8.88687
G1 X128.947 Y106.472 A8.89349
G1 X129.156 Y106.283 A8.90011
G1 X129.436 Y106.083 A8.90821
G1 X129.878 Y105.851 A8.91995
G1 X130.143 Y105.756 A8.92657
G1 X130.416 Y105.687 A8.93319
G1 X130.694 Y105.646 A8.93981
G1 X133.951 Y105.634 A9.01642
G1 X134.206 Y105.646 A9.02244
G1 X134.484 Y105.687 A9.02906
G1 X134.757 Y105.756 A9.03568
G1 X135.022 Y105.851 A9.04230
G1 X135.277 Y105.971 A9.04892
G1 X135.518 Y106.116 A9.05554
G1 X135.744 Y106.283 A9.06216
G1 X135.953 Y106.472 A9.06878
G1 X136.179 Y106.731 A9.07688
G1 X136.454 Y107.148 A9.08862
G1 X136.574 Y107.403 A9.09524
G1 X136.669 Y107.668 A9.10186
G1 X136.747 Y108.003 A9.10996
G1 X136.793 Y108.500 A9.12170
G1 X136.779 Y108.781 A9.12832
G1 X136.738 Y109.059 A9.13494
G1 X136.669 Y109.333 A9.14156
G1 X136.574 Y109.597 A9.14818
G1 X136.454 Y109.852 A9.15480
G1 X136.309 Y110.093 A9.16142
G1 X136.142 Y110.319 A9.16804
G1 X135.953 Y110.528 A9.17466
G1 X135.744 Y110.717 A9.18128
G1 X135.330 Y110.997 A9.19304
G1 X135.277 Y111.029 A9.19451
G0 X135.081 Y110.662 F7800.000
G1 X134.637 Y110.846 F540.000 A9.20581
G1 X134.165 Y110.940 A9.21712
G1 X130.960 Y110.951 A9.29253
G1 X130.497 Y110.904 A9.30347
G1 X130.037 Y110.765 A9.31478
G1 X129.613 Y110.538 A9.32608
G1 X129.420 Y110.395 A9.33174
G1 X129.242 Y110.233 A9.33740
G1 X128.937 Y109.862 A9.34871
G1 X128.710 Y109.438 A9.36001
G1 X128.629 Y109.212 A9.36567
G1 X128.535 Y108.740 A9.37698
G1 X128.535 Y108.260 A9.38828
G1 X128.629 Y107.788 A9.39959
G1 X128.813 Y107.344 A9.41089
G1 X128.937 Y107.138 A9.41655
G1 X129.242 Y106.767 A9.42786
G1 X129.420 Y106.605 A9.43352
G1 X129.650 Y106.440 A9.44018
G1 X130.037 Y106.235 A9.45048
G1 X130.263 Y106.154 A9.45614
G1 X130.735 Y106.060 A9.46744
G1 X133.940 Y106.049 A9.54285
G1 X134.403 Y106.096 A9.55380
G1 X134.863 Y106.235 A9.56510
G1 X135.081 Y106.338 A9.57076
G1 X135.480 Y106.605 A9.58207
G1 X135.658 Y106.767 A9.58773
G1 X135.845 Y106.979 A9.59438
G1 X136.087 Y107.344 A9.60469
G1 X136.190 Y107.562 A9.61035
G1 X136.271 Y107.788 A9.61601
G1 X136.365 Y108.260 A9.62731
G1 X136.365 Y108.740 A9.63862
G1 X136.271 Y109.212 A9.64992
G1 X136.087 Y109.656 A9.66123
G1 X135.963 Y109.862 A9.66689
G1 X135.658 Y110.233 A9.67819
G1 X135.480 Y110.395 A9.68385
G1 X135.134 Y110.630 A9.69369
G1 X135.081 Y110.662 A9.69516
G0 X134.884 Y110.295 F7800.000
G1 X134.516 Y110.448 F540.000 A9.70454
G1 X134.124 Y110.525 A9.71393
G1 X130.970 Y110.535 A9.78814
G1 X130.578 Y110.496 A9.79740
G1 X130.384 Y110.448 A9.80210
G1 X130.176 Y110.371 A9.80732
G1 X129.844 Y110.192 A9.81619
G1 X129.536 Y109.939 A9.82557
G1 X129.283 Y109.631 A9.83496
G1 X129.180 Y109.459 A9.83966
G1 X129.027 Y109.091 A9.84904
G1 X128.950 Y108.699 A9.85843
G1 X128.940 Y108.500 A9.86313
G1 X128.953 Y108.279 A9.86834
G1 X129.027 Y107.909 A9.87721
G1 X129.180 Y107.541 A9.88659
G1 X129.283 Y107.369 A9.89129
G1 X129.536 Y107.061 A9.90068
G1 X129.863 Y106.796 A9.91058
G1 X130.196 Y106.620 A9.91944
G1 X130.384 Y106.552 A9.92414
G1 X130.776 Y106.475 A9.93353
G1 X133.930 Y106.465 A10.00774
G1 X134.322 Y106.504 A10.01700
G1 X134.516 Y106.552 A10.02170
G1 X134.704 Y106.620 A10.02640
G1 X135.056 Y106.808 A10.03579
G1 X135.364 Y107.061 A10.04517
G1 X135.617 Y107.369 A10.05456
G1 X135.720 Y107.541 A10.05926
G1 X135.873 Y107.909 A10.06864
G1 X135.950 Y108.300 A10.07803
G1 X135.960 Y108.500 A10.08273
G1 X135.950 Y108.699 A10.08743
G1 X135.873 Y109.091 A10.09681
G1 X135.720 Y109.459 A10.10620
G1 X135.617 Y109.631 A10.11090
G1 X135.364 Y109.939 A10.12028
G1 X135.216 Y110.073 A10.12498
G1 X134.938 Y110.263 A10.13290
G1 X134.884 Y110.295 A10.13437
G0 X134.857 Y110.710 F7800.000
G0 Z0.900 F540.000 A8.13437
G0 X88.893 Y108.500 F7800.000
G0 Z0.400
G0 F1800.000 A10.13437
G1 X88.879 Y108.781 F540.000 A10.14099
G1 X88.838 Y109.059 A10.14761
G1 X88.769 Y109.332 A10.15423
G1 X88.674 Y109.597 A10.16085
G1 X88.554 Y109.852 A10.16747
G1 X88.409 Y110.093 A10.17409
G1 X88.242 Y110.319 A10.18071
G1 X88.053 Y110.528 A10.18733
G1 X87.844 Y110.717 A10.19395
G1 X87.618 Y110.884 A10.20057
G1 X87.377 Y111.029 A10.20719
G1 X87.122 Y111.149 A10.21381
G1 X86.857 Y111.244 A10.22043
G1 X86.584 Y111.313 A10.22705
G1 X86.306 Y111.354 A10.23367
G1 X86.051 Y111.366 A10.23969
G1 X82.794 Y111.354 A10.31630
G1 X82.515 Y111.313 A10.32292
G1 X82.243 Y111.244 A10.32954
G1 X81.978 Y111.149 A10.33616
G1 X81.723 Y111.029 A10.34278
G1 X81.482 Y110.884 A10.34940
G1 X81.256 Y110.717 A10.35602
G1 X81.047 Y110.528 A10.36264
G1 X80.858 Y110.319 A10.36926
G1 X80.691 Y110.093 A10.37588
G1 X80.546 Y109.852 A10.38250
G1 X80.426 Y109.597 A10.38912
G1 X80.331 Y109.332 A10.39574
G1 X80.262 Y109.059 A10.40236
G1 X80.221 Y108.781 A10.40898
G1 X80.207 Y108.500 A10.41560
G1 X80.221 Y108.219 A10.42222
G1 X80.262 Y107.941 A10.42884
G1 X80.331 Y107.668 A10.43546
G1 X80.426 Y107.403 A10.44208
G1 X80.546 Y107.148 A10.44870
G1 X80.691 Y106.907 A10.45533
G1 X80.858 Y106.681 A10.46194
G1 X81.047 Y106.472 A10.46856
G1 X81.256 Y106.283 A10.47518
G1 X81.482 Y106.116 A10.48180
G1 X81.723 Y105.971 A10.48842
G1 X81.978 Y105.851 A10.49504
G1 X82.243 Y105.756 A10.50167
G1 X82.516 Y105.687 A10.50829
G1 X82.794 Y105.646 A10.51490
G1 X83.049 Y105.634 A10.52092
G1 X86.306 Y105.646 A10.59753
G1 X86.584 Y105.687 A10.60415
G1 X86.857 Y105.756 A10.61077
G1 X87.122 Y105.851 A10.61739
G1 X87.377 Y105.971 A10.62401
G1 X87.618 Y106.116 A10.63063
G1 X87.844 Y106.283 A10.63726
G1 X88.053 Y106.472 A10.64388
G1 X88.242 Y106.681 A10.65050
G1 X88.409 Y106.907 A10.65711
G1 X88.554 Y107.148 A10.66374
G1 X88.674 Y107.403 A10.67035
G1 X88.769 Y107.668 A10.67698
G1 X88.838 Y107.941 A10.68360
G1 X88.890 Y108.438 A10.69536
G1 X88.893 Y108.500 A10.69682
G0 X88.476 Y108.500 F7800.000
G1 X88.429 Y108.978 F540.000 A10.70813
G1 X88.290 Y109.438 A10.71943
G1 X88.063 Y109.862 A10.73074
G1 X87.758 Y110.233 A10.74204
G1 X87.387 Y110.538 A10.75335
G1 X86.963 Y110.765 A10.76465
G1 X86.503 Y110.904 A10.77596
G1 X86.040 Y110.951 A10.78690
G1 X83.060 Y110.951 A10.85702
G1 X82.597 Y110.904 A10.86797
G1 X82.137 Y110.765 A10.87927
G1 X81.713 Y110.538 A10.89057
G1 X81.520 Y110.395 A10.89624
G1 X81.180 Y110.055 A10.90754
G1 X80.913 Y109.656 A10.91884
G1 X80.810 Y109.438 A10.92450
G1 X80.729 Y109.212 A10.93016
G1 X80.635 Y108.740 A10.94147
G1 X80.635 Y108.260 A10.95277
G1 X80.729 Y107.788 A10.96408
G1 X80.913 Y107.344 A10.97538
G1 X81.180 Y106.945 A10.98669
G1 X81.520 Y106.605 A10.99799
G1 X81.919 Y106.338 A11.00930
G1 X82.363 Y106.154 A11.02060
G1 X82.597 Y106.096 A11.02626
G1 X83.060 Y106.049 A11.03721
G1 X86.040 Y106.049 A11.10733
G1 X86.503 Y106.096 A11.11827
G1 X86.963 Y106.235 A11.12957
G1 X87.387 Y106.462 A11.14088
G1 X87.580 Y106.605 A11.14654
G1 X87.758 Y106.767 A11.15220
G1 X88.063 Y107.138 A11.16350
G1 X88.187 Y107.344 A11.16916
G1 X88.371 Y107.788 A11.18047
G1 X88.429 Y108.022 A11.18613
G1 X88.473 Y108.438 A11.19597
G1 X88.476 Y108.500 A11.19743
G0 X88.060 Y108.500 F7800.000
G1 X88.021 Y108.897 F540.000 A11.20682
G1 X87.905 Y109.279 A11.21621
G1 X87.717 Y109.631 A11.22559
G1 X87.464 Y109.939 A11.23498
G1 X87.156 Y110.192 A11.24436
G1 X86.804 Y110.380 A11.25375
G1 X86.422 Y110.496 A11.26313
G1 X86.030 Y110.535 A11.27240
G1 X83.070 Y110.535 A11.34204
G1 X82.678 Y110.496 A11.35130
G1 X82.296 Y110.380 A11.36069
G1 X81.944 Y110.192 A11.37007
G1 X81.784 Y110.073 A11.37477
G1 X81.636 Y109.939 A11.37947
G1 X81.383 Y109.631 A11.38886
G1 X81.271 Y109.439 A11.39408
G1 X81.127 Y109.091 A11.40294
G1 X81.050 Y108.699 A11.41232
G1 X81.050 Y108.301 A11.42171
G1 X81.127 Y107.909 A11.43110
G1 X81.280 Y107.541 A11.44048
G1 X81.502 Y107.209 A11.44987
G1 X81.784 Y106.927 A11.45925
G1 X82.116 Y106.705 A11.46864
G1 X82.484 Y106.552 A11.47802
G1 X82.678 Y106.504 A11.48272
G1 X83.070 Y106.465 A11.49199
G1 X86.030 Y106.465 A11.56163
G1 X86.422 Y106.504 A11.57089
G1 X86.804 Y106.620 A11.58028
G1 X87.156 Y106.808 A11.58966
G1 X87.316 Y106.927 A11.59436
G1 X87.464 Y107.061 A11.59906
G1 X87.717 Y107.369 A11.60844
G1 X87.820 Y107.541 A11.61314
G1 X87.973 Y107.909 A11.62253
G1 X88.021 Y108.103 A11.62723
G1 X88.057 Y108.438 A11.63515
G1 X88.060 Y108.500 A11.63662
G0 X88.413 Y108.720 F7800.000
G0 Z0.900 F540.000 A9.63662
G0 X79.291 Y113.084 F7800.000
G0 Z0.400
G0 F1800.000 A11.63662
G1 X79.291 Y103.916 F540.000 A11.85227
G1 X137.709 Y103.916 A13.22649
G1 X137.709 Y113.084 A13.44214
G1 X79.354 Y113.084 A14.81489
G1 X79.291 Y113.084 A14.81636
G0 X78.876 Y113.499 F7800.000
G1 X78.876 Y103.501 F540.000 A15.05157
G1 X138.124 Y103.501 A16.44535
G1 X138.124 Y113.499 A16.68056
G1 X78.938 Y113.499 A18.07287
G1 X78.876 Y113.499 A18.07434
G0 X78.460 Y113.915 F7800.000
G1 X78.460 Y103.085 F540.000 A18.32910
G1 X138.540 Y103.085 A19.74244
G1 X138.540 Y113.915 A19.99721
G1 X78.522 Y113.915 A21.40908
G1 X78.460 Y113.915 A21.41055
G0 X78.668 Y113.555 F7800.000
G0 X79.707 Y112.855
G1 X79.707 Y109.290 F720.000 A21.49473
G1 X80.124 Y109.745 A21.50932
G1 X80.124 Y112.855 A21.58274
G1 X80.542 Y112.855 A21.59260
G1 X80.542 Y110.402 A21.65053
G1 X80.959 Y110.822 A21.66451
G1 X80.959 Y112.855 A21.71252
G1 X81.376 Y112.855 A21.72238
G1 X81.376 Y111.119 A21.76338
G1 X81.794 Y111.335 A21.77448
G1 X81.794 Y112.855 A21.81037
G1 X82.211 Y112.855 A21.82022
G1 X82.211 Y111.478 A21.85275
G1 X82.628 Y111.562 A21.86280
G1 X82.628 Y112.855 A21.89333
G1 X83.045 Y112.855 A21.90318
G1 X83.045 Y111.595 A21.93293
G1 X83.463 Y111.595 A21.94279
