; generated by Slic3r 1.0.0RC2 on 2014-01-01 at 12:31:02

; layer_height = 0.2
; perimeters = 3
; top_solid_layers = 3
; bottom_solid_layers = 3
; fill_density = 0.25
; perimeter_speed = 20
; infill_speed = 40
; travel_speed = 130
; nozzle_diameter = 0.4
; filament_diameter = 2.95
; extrusion_multiplier = 1.105263
; perimeters extrusion width = 0.56mm
; infill extrusion width = 0.56mm
; solid infill extrusion width = 0.56mm
; top infill extrusion width = 0.56mm

G21 ; set units to millimeters
M190 P115 ; wait for bed temperature to be reached
M104 P210 ; set temperature
G92 A0                  ; Reset A to 0
G40                        ; Cancel cutter compensation
G64 P0.1                ; Path Blend within .1mm
G0 X108.5 Y200    ; Move to plate
M109 P210 ; wait for temperature to be reached
G90 ; use absolute coordinates
G1 X108.500000 Y200.000000 Z0.000000 A-2.000000 F5400.000000
G0 Z0.200 F7800.000
;o<wipe_nozzle> call
G0 X85.380 Y84.880 F7800.000
G1 X85.380000 Y84.880000 Z0.200000 A0.000000 F5400.000000
G1 X87.270000 Y83.170000 Z0.200000 A0.043330 F360.000000
G3 X129.720000 Y133.820000 Z0.200000 A1.807910 F360.000000 I21.2250 J25.3250
G1 X129.190000 Y134.250000 Z0.200000 A1.819510 F360.000000
G3 X85.324000 Y84.936000 Z0.200000 A3.527820 F360.000000 I-20.7217 J-25.7344
G0 X85.730 Y85.270 F7800.000
G1 X87.620000 Y83.560000 Z0.200000 A3.571150 F360.000000
G3 X129.370000 Y133.430000 Z0.200000 A5.307670 F360.000000 I20.8750 J24.9350
G1 X128.880000 Y133.830000 Z0.200000 A5.318430 F360.000000
G3 X85.674000 Y85.326000 Z0.200000 A6.999530 F360.000000 I-20.4063 J-25.3180
G1 X87.386000 Y83.773000 Z0.200000 A5.099530 F6240.000000
G1 X87.386000 Y83.773000 Z0.200000 A4.999530 F5400.000000
G0 X86.849 Y97.483 F7800.000
G1 X86.849000 Y97.483000 Z0.200000 A6.999530 F5400.000000
G1 X86.849000 Y119.517000 Z0.200000 A7.374990 F720.000000
G1 X87.376000 Y120.489000 Z0.200000 A7.393840 F720.000000
G1 X87.376000 Y96.511000 Z0.200000 A7.802440 F720.000000
G1 X87.903000 Y95.632000 Z0.200000 A7.819900 F720.000000
G1 X87.903000 Y121.368000 Z0.200000 A8.258460 F720.000000
G1 X88.430000 Y122.201000 Z0.200000 A8.275260 F720.000000
G1 X88.430000 Y94.799000 Z0.200000 A8.742210 F720.000000
G1 X88.956000 Y94.088000 Z0.200000 A8.757280 F720.000000
G1 X88.956000 Y122.912000 Z0.200000 A9.248440 F720.000000
G1 X89.483000 Y123.622000 Z0.200000 A9.263510 F720.000000
G1 X89.483000 Y93.378000 Z0.200000 A9.778880 F720.000000
G1 X90.010000 Y92.742000 Z0.200000 A9.792950 F720.000000
G1 X90.010000 Y124.258000 Z0.200000 A10.330000 F720.000000
G1 X90.537000 Y124.840000 Z0.200000 A10.343370 F720.000000
G1 X90.537000 Y92.160000 Z0.200000 A10.900230 F720.000000
G1 X91.064000 Y91.579000 Z0.200000 A10.913600 F720.000000
G1 X91.064000 Y125.421000 Z0.200000 A11.490270 F720.000000
G1 X91.591000 Y125.947000 Z0.200000 A11.502950 F720.000000
G1 X91.591000 Y91.053000 Z0.200000 A12.097540 F720.000000
G1 X92.118000 Y90.576000 Z0.200000 A12.109660 F720.000000
G1 X92.118000 Y126.424000 Z0.200000 A12.720530 F720.000000
G1 X92.645000 Y126.902000 Z0.200000 A12.732640 F720.000000
G1 X92.645000 Y90.098000 Z0.200000 A13.359780 F720.000000
G1 X93.171000 Y89.636000 Z0.200000 A13.371720 F720.000000
G1 X93.171000 Y127.364000 Z0.200000 A14.014600 F720.000000
G1 X93.698000 Y127.754000 Z0.200000 A14.025780 F720.000000
G1 X93.698000 Y89.246000 Z0.200000 A14.681980 F720.000000
G1 X94.225000 Y88.855000 Z0.200000 A14.693160 F720.000000
G1 X94.225000 Y128.145000 Z0.200000 A15.362680 F720.000000
G1 X94.752000 Y128.536000 Z0.200000 A15.373850 F720.000000
G1 X94.752000 Y88.464000 Z0.200000 A16.056690 F720.000000
G1 X95.279000 Y88.114000 Z0.200000 A16.067470 F720.000000
G1 X95.279000 Y128.886000 Z0.200000 A16.762230 F720.000000
G1 X95.806000 Y129.202000 Z0.200000 A16.772700 F720.000000
G1 X95.806000 Y87.798000 Z0.200000 A17.478230 F720.000000
G1 X96.333000 Y87.482000 Z0.200000 A17.488700 F720.000000
G1 X96.333000 Y129.518000 Z0.200000 A18.204990 F720.000000
G1 X96.860000 Y129.833000 Z0.200000 A18.215450 F720.000000
G1 X96.860000 Y87.167000 Z0.200000 A18.942510 F720.000000
G1 X97.387000 Y86.895000 Z0.200000 A18.952610 F720.000000
G1 X97.387000 Y130.105000 Z0.200000 A19.688930 F720.000000
G1 X97.913000 Y130.355000 Z0.200000 A19.698860 F720.000000
G1 X97.913000 Y86.645000 Z0.200000 A20.443680 F720.000000
G1 X98.440000 Y86.396000 Z0.200000 A20.453610 F720.000000
G1 X98.440000 Y130.604000 Z0.200000 A21.206910 F720.000000
G1 X98.967000 Y130.853000 Z0.200000 A21.216850 F720.000000
G1 X98.967000 Y86.147000 Z0.200000 A21.978640 F720.000000
G1 X99.494000 Y85.932000 Z0.200000 A21.988340 F720.000000
G1 X99.494000 Y131.068000 Z0.200000 A22.757460 F720.000000
G1 X100.021000 Y131.256000 Z0.200000 A22.767000 F720.000000
G1 X100.021000 Y85.744000 Z0.200000 A23.542550 F720.000000
G1 X100.548000 Y85.555000 Z0.200000 A23.552080 F720.000000
G1 X100.548000 Y131.445000 Z0.200000 A24.334050 F720.000000
G1 X101.075000 Y131.633000 Z0.200000 A24.343590 F720.000000
G1 X101.075000 Y110.459000 Z0.200000 A24.704400 F720.000000
G0 X101.602 Y111.874 F7800.000
G1 X101.602000 Y131.805000 Z0.200000 A25.044020 F720.000000
G1 X102.128000 Y131.937000 Z0.200000 A25.053270 F720.000000
G1 X102.128000 Y112.799000 Z0.200000 A25.379380 F720.000000
G1 X102.655000 Y113.486000 Z0.200000 A25.394120 F720.000000
G1 X102.655000 Y132.069000 Z0.200000 A25.710780 F720.000000
G1 X103.182000 Y132.201000 Z0.200000 A25.720040 F720.000000
G1 X103.182000 Y114.044000 Z0.200000 A26.029440 F720.000000
G1 X103.709000 Y114.507000 Z0.200000 A26.041390 F720.000000
G1 X103.709000 Y132.333000 Z0.200000 A26.345150 F720.000000
G1 X104.236000 Y132.416000 Z0.200000 A26.354240 F720.000000
G1 X104.236000 Y114.897000 Z0.200000 A26.652760 F720.000000
G1 X104.763000 Y115.213000 Z0.200000 A26.663230 F720.000000
G1 X104.763000 Y132.494000 Z0.200000 A26.957710 F720.000000
G1 X105.290000 Y132.572000 Z0.200000 A26.966790 F720.000000
G1 X105.290000 Y115.476000 Z0.200000 A27.258110 F720.000000
G1 X105.817000 Y115.695000 Z0.200000 A27.267830 F720.000000
G1 X105.817000 Y132.650000 Z0.200000 A27.556750 F720.000000
G1 X106.344000 Y132.706000 Z0.200000 A27.565770 F720.000000
G1 X106.344000 Y115.876000 Z0.200000 A27.852560 F720.000000
G1 X106.870000 Y116.008000 Z0.200000 A27.861820 F720.000000
G1 X106.870000 Y132.732000 Z0.200000 A28.146800 F720.000000
G1 X107.397000 Y132.758000 Z0.200000 A28.155790 F720.000000
G1 X107.397000 Y116.099000 Z0.200000 A28.439650 F720.000000
G1 X107.924000 Y116.160000 Z0.200000 A28.448690 F720.000000
G1 X107.924000 Y132.784000 Z0.200000 A28.731960 F720.000000
G1 X108.451000 Y132.786000 Z0.200000 A28.740940 F720.000000
G1 X108.451000 Y116.186000 Z0.200000 A29.023800 F720.000000
G1 X108.978000 Y116.165000 Z0.200000 A29.032790 F720.000000
G1 X108.978000 Y132.786000 Z0.200000 A29.316010 F720.000000
G1 X109.505000 Y132.763000 Z0.200000 A29.325000 F720.000000
G1 X109.505000 Y116.114000 Z0.200000 A29.608700 F720.000000
G1 X110.032000 Y116.032000 Z0.200000 A29.617780 F720.000000
G1 X110.032000 Y132.737000 Z0.200000 A29.902430 F720.000000
G1 X110.559000 Y132.711000 Z0.200000 A29.911420 F720.000000
G1 X110.559000 Y115.900000 Z0.200000 A30.197870 F720.000000
G1 X111.085000 Y115.730000 Z0.200000 A30.207300 F720.000000
G1 X111.085000 Y132.665000 Z0.200000 A30.495870 F720.000000
G1 X111.612000 Y132.587000 Z0.200000 A30.504940 F720.000000
G1 X111.612000 Y115.522000 Z0.200000 A30.795720 F720.000000
G1 X112.139000 Y115.271000 Z0.200000 A30.805670 F720.000000
G1 X112.139000 Y132.508000 Z0.200000 A31.099400 F720.000000
G1 X112.666000 Y132.430000 Z0.200000 A31.108470 F720.000000
G1 X112.666000 Y114.955000 Z0.200000 A31.406250 F720.000000
G1 X113.193000 Y114.580000 Z0.200000 A31.417280 F720.000000
G1 X113.193000 Y132.352000 Z0.200000 A31.720120 F720.000000
G1 X113.720000 Y132.225000 Z0.200000 A31.729360 F720.000000
G1 X113.720000 Y114.132000 Z0.200000 A32.037660 F720.000000
G1 X114.247000 Y113.594000 Z0.200000 A32.050500 F720.000000
G1 X114.247000 Y132.093000 Z0.200000 A32.365740 F720.000000
G1 X114.774000 Y131.961000 Z0.200000 A32.375000 F720.000000
G1 X114.774000 Y112.931000 Z0.200000 A32.699270 F720.000000
G1 X115.301000 Y112.081000 Z0.200000 A32.716310 F720.000000
G1 X115.301000 Y131.829000 Z0.200000 A33.052830 F720.000000
G1 X115.827000 Y131.668000 Z0.200000 A33.062210 F720.000000
G1 X115.827000 Y110.815000 Z0.200000 A33.417570 F720.000000
G0 X115.827 Y106.185 F7800.000
G1 X115.827000 Y85.332000 Z0.200000 A33.772920 F720.000000
G1 X115.301000 Y85.171000 Z0.200000 A33.782310 F720.000000
G1 X115.301000 Y104.919000 Z0.200000 A34.118820 F720.000000
G1 X114.774000 Y104.069000 Z0.200000 A34.135860 F720.000000
G1 X114.774000 Y85.039000 Z0.200000 A34.460140 F720.000000
G1 X114.247000 Y84.907000 Z0.200000 A34.469400 F720.000000
G1 X114.247000 Y103.406000 Z0.200000 A34.784630 F720.000000
G1 X113.720000 Y102.868000 Z0.200000 A34.797470 F720.000000
G1 X113.720000 Y84.775000 Z0.200000 A35.105780 F720.000000
G1 X113.193000 Y84.648000 Z0.200000 A35.115010 F720.000000
G1 X113.193000 Y102.420000 Z0.200000 A35.417860 F720.000000
G1 X112.666000 Y102.045000 Z0.200000 A35.428890 F720.000000
G1 X112.666000 Y84.570000 Z0.200000 A35.726670 F720.000000
G1 X112.139000 Y84.492000 Z0.200000 A35.735740 F720.000000
G1 X112.139000 Y101.729000 Z0.200000 A36.029470 F720.000000
G1 X111.612000 Y101.478000 Z0.200000 A36.039410 F720.000000
G1 X111.612000 Y84.413000 Z0.200000 A36.330190 F720.000000
G1 X111.085000 Y84.335000 Z0.200000 A36.339270 F720.000000
G1 X111.085000 Y101.270000 Z0.200000 A36.627840 F720.000000
G1 X110.559000 Y101.100000 Z0.200000 A36.637270 F720.000000
G1 X110.559000 Y84.289000 Z0.200000 A36.923720 F720.000000
G1 X110.032000 Y84.263000 Z0.200000 A36.932710 F720.000000
G1 X110.032000 Y100.968000 Z0.200000 A37.217350 F720.000000
G1 X109.505000 Y100.891000 Z0.200000 A37.226430 F720.000000
G1 X109.505000 Y84.237000 Z0.200000 A37.510200 F720.000000
G1 X108.978000 Y84.214000 Z0.200000 A37.519190 F720.000000
G1 X108.978000 Y100.835000 Z0.200000 A37.802410 F720.000000
G1 X108.451000 Y100.814000 Z0.200000 A37.811400 F720.000000
G1 X108.451000 Y84.214000 Z0.200000 A38.094260 F720.000000
G1 X107.924000 Y84.216000 Z0.200000 A38.103240 F720.000000
G1 X107.924000 Y100.840000 Z0.200000 A38.386510 F720.000000
G1 X107.397000 Y100.901000 Z0.200000 A38.395550 F720.000000
G1 X107.397000 Y84.242000 Z0.200000 A38.679410 F720.000000
G1 X106.870000 Y84.268000 Z0.200000 A38.688400 F720.000000
G1 X106.870000 Y100.992000 Z0.200000 A38.973380 F720.000000
G1 X106.344000 Y101.124000 Z0.200000 A38.982640 F720.000000
G1 X106.344000 Y84.294000 Z0.200000 A39.269430 F720.000000
G1 X105.817000 Y84.352000 Z0.200000 A39.278460 F720.000000
G1 X105.817000 Y101.305000 Z0.200000 A39.567330 F720.000000
G1 X105.290000 Y101.524000 Z0.200000 A39.577060 F720.000000
G1 X105.290000 Y84.430000 Z0.200000 A39.868340 F720.000000
G1 X104.763000 Y84.507000 Z0.200000 A39.877420 F720.000000
G1 X104.763000 Y101.787000 Z0.200000 A40.171870 F720.000000
G1 X104.236000 Y102.103000 Z0.200000 A40.182340 F720.000000
G1 X104.236000 Y84.585000 Z0.200000 A40.480860 F720.000000
G1 X103.709000 Y84.667000 Z0.200000 A40.489950 F720.000000
G1 X103.709000 Y102.493000 Z0.200000 A40.793700 F720.000000
G1 X103.182000 Y102.956000 Z0.200000 A40.805660 F720.000000
G1 X103.182000 Y84.799000 Z0.200000 A41.115060 F720.000000
G1 X102.655000 Y84.931000 Z0.200000 A41.124310 F720.000000
G1 X102.655000 Y103.514000 Z0.200000 A41.440970 F720.000000
G1 X102.128000 Y104.201000 Z0.200000 A41.455720 F720.000000
G1 X102.128000 Y85.063000 Z0.200000 A41.781820 F720.000000
G1 X101.602000 Y85.195000 Z0.200000 A41.791080 F720.000000
G1 X101.602000 Y105.126000 Z0.200000 A42.130690 F720.000000
G0 X101.075 Y106.541 F7800.000
G1 X101.075000 Y85.367000 Z0.200000 A42.491500 F720.000000
G0 X116.354 Y85.520 F7800.000
G1 X116.354000 Y131.480000 Z0.200000 A43.274670 F720.000000
G1 X116.881000 Y131.291000 Z0.200000 A43.284210 F720.000000
G1 X116.881000 Y85.709000 Z0.200000 A44.060950 F720.000000
G1 X117.408000 Y85.897000 Z0.200000 A44.070480 F720.000000
G1 X117.408000 Y131.103000 Z0.200000 A44.840800 F720.000000
G1 X117.935000 Y130.899000 Z0.200000 A44.850420 F720.000000
G1 X117.935000 Y86.101000 Z0.200000 A45.613800 F720.000000
G1 X118.462000 Y86.350000 Z0.200000 A45.623730 F720.000000
G1 X118.462000 Y130.650000 Z0.200000 A46.378610 F720.000000
G1 X118.989000 Y130.401000 Z0.200000 A46.388550 F720.000000
G1 X118.989000 Y86.599000 Z0.200000 A47.134940 F720.000000
G1 X119.516000 Y86.848000 Z0.200000 A47.144870 F720.000000
G1 X119.516000 Y130.152000 Z0.200000 A47.882760 F720.000000
G1 X120.042000 Y129.892000 Z0.200000 A47.892770 F720.000000
G1 X120.042000 Y87.108000 Z0.200000 A48.621820 F720.000000
G1 X120.569000 Y87.424000 Z0.200000 A48.632290 F720.000000
G1 X120.569000 Y129.576000 Z0.200000 A49.350580 F720.000000
G1 X121.096000 Y129.260000 Z0.200000 A49.361050 F720.000000
G1 X121.096000 Y110.104000 Z0.200000 A49.687490 F720.000000
G1 X121.623000 Y110.659000 Z0.200000 A49.700530 F720.000000
G1 X121.623000 Y128.945000 Z0.200000 A50.012120 F720.000000
G1 X122.150000 Y128.608000 Z0.200000 A50.022770 F720.000000
G1 X122.150000 Y111.027000 Z0.200000 A50.322360 F720.000000
G1 X122.677000 Y111.264000 Z0.200000 A50.332200 F720.000000
G1 X122.677000 Y128.218000 Z0.200000 A50.621090 F720.000000
G1 X123.204000 Y127.827000 Z0.200000 A50.632270 F720.000000
G1 X123.204000 Y111.408000 Z0.200000 A50.912060 F720.000000
G1 X123.731000 Y111.474000 Z0.200000 A50.921110 F720.000000
G1 X123.731000 Y127.436000 Z0.200000 A51.193110 F720.000000
G1 X124.258000 Y126.990000 Z0.200000 A51.204870 F720.000000
G1 X124.258000 Y111.468000 Z0.200000 A51.469370 F720.000000
G1 X124.784000 Y111.391000 Z0.200000 A51.478450 F720.000000
G1 X124.784000 Y126.513000 Z0.200000 A51.736130 F720.000000
G1 X125.311000 Y126.035000 Z0.200000 A51.748250 F720.000000
G1 X125.311000 Y111.235000 Z0.200000 A52.000450 F720.000000
G1 X125.838000 Y110.988000 Z0.200000 A52.010370 F720.000000
G1 X125.838000 Y125.529000 Z0.200000 A52.258150 F720.000000
G1 X126.365000 Y124.947000 Z0.200000 A52.271520 F720.000000
G1 X126.365000 Y110.606000 Z0.200000 A52.515900 F720.000000
G1 X126.892000 Y110.434000 Z0.200000 A52.525340 F720.000000
G1 X126.892000 Y124.366000 Z0.200000 A52.762760 F720.000000
G1 X127.419000 Y123.754000 Z0.200000 A52.776520 F720.000000
G1 X127.419000 Y110.873000 Z0.200000 A52.996010 F720.000000
G1 X127.946000 Y111.162000 Z0.200000 A53.006250 F720.000000
G1 X127.946000 Y123.044000 Z0.200000 A53.208720 F720.000000
G1 X128.473000 Y122.333000 Z0.200000 A53.223790 F720.000000
G1 X128.473000 Y111.346000 Z0.200000 A53.411020 F720.000000
G1 X129.000000 Y111.453000 Z0.200000 A53.420180 F720.000000
G1 X129.000000 Y121.532000 Z0.200000 A53.591920 F720.000000
G1 X129.526000 Y120.653000 Z0.200000 A53.609380 F720.000000
G1 X129.526000 Y111.482000 Z0.200000 A53.765650 F720.000000
G1 X130.053000 Y111.444000 Z0.200000 A53.774660 F720.000000
G1 X130.053000 Y119.724000 Z0.200000 A53.915740 F720.000000
G0 X130.580 Y118.610 F7800.000
G1 X130.580000 Y111.320000 Z0.200000 A54.039960 F720.000000
G1 X131.107000 Y111.295000 Z0.200000 A54.048950 F720.000000
G1 X131.107000 Y117.396000 Z0.200000 A54.152910 F720.000000
G0 X131.634 Y115.924 F7800.000
G1 X131.634000 Y111.253000 Z0.200000 A54.232510 F720.000000
G1 X132.161000 Y110.708000 Z0.200000 A54.245420 F720.000000
G1 X132.161000 Y113.977000 Z0.200000 A54.301120 F720.000000
G0 X132.688 Y110.931 F7800.000
G1 X132.688000 Y110.463000 Z0.200000 A54.309090 F720.000000
G0 X132.688 Y106.537 F7800.000
G1 X132.688000 Y106.069000 Z0.200000 A54.317060 F720.000000
G1 X132.161000 Y106.292000 Z0.200000 A54.326810 F720.000000
G1 X132.161000 Y103.023000 Z0.200000 A54.382510 F720.000000
G0 X131.634 Y101.076 F7800.000
