; generated by Slic3r 0.9.9 on 2013-08-01 at 09:25:58

; layer_height = 0.2
; perimeters = 3
; top_solid_layers = 3
; bottom_solid_layers = 3
; fill_density = 1
; perimeter_speed = 20
; infill_speed = 40
; travel_speed = 130
; nozzle_diameter = 0.4
; filament_diameter = 2.95
; extrusion_multiplier = 1.105263
; perimeters extrusion width = 0.56mm
; infill extrusion width = 0.56mm
; solid infill extrusion width = 0.56mm
; top infill extrusion width = 0.56mm

G21 ; set units to millimeters
M190 P115 ; wait for bed temperature to be reached
M104 P210 ; set temperature
G92 A0                  ; Reset A to 0
G40                        ; Cancel cutter compensation
G64 P0.1                ; Path Blend within .1mm
G0 X108.5 Y200    ; Move to plate
M109 P210 ; wait for temperature to be reached
G90 ; use absolute coordinates
G0 Z0.200 F5400.000 A-2.00000
o<wipe_nozzle> call
G0 X78.060 Y91.430 F7800.000
G0 F5400.000 A0.00000
G1 X78.680000 Y90.920000 Z0.200000 A0.013650 F360.000000
G3 X85.700000 Y88.450000 Z0.200000 A0.142220 I7.3510 J9.6815
G1 X131.280000 Y88.450000 Z0.200000 A0.917120
G3 X142.960000 Y101.470000 Z0.200000 A1.250600 I-0.2430 J11.9670
G1 X142.850000 Y102.060000 Z0.200000 A1.260800
G3 X141.770000 Y104.470000 Z0.200000 A1.305940 I-7.0123 J-1.6954
G1 X138.420000 Y109.260000 Z0.200000 A1.405320
G3 X124.730000 Y124.790000 Z0.200000 A1.757300 I-151.1979 J-119.4850
G1 X123.930000 Y125.560000 Z0.200000 A1.776170
G3 X116.410000 Y128.540000 Z0.200000 A1.916350 I-7.9113 J-8.9858
G1 X85.990000 Y128.550000 Z0.200000 A2.433520
G3 X73.950000 Y116.790000 Z0.200000 A2.750060 I0.0156 J-12.0593
G1 X73.950000 Y100.200000 Z0.200000 A3.032110
G3 X78.002000 Y91.483000 Z0.200000 A3.200160 I11.9212 J0.2412
G0 X78.410 Y91.820 F7800.000
G1 X78.990000 Y91.350000 Z0.200000 A3.212850 F360.000000
G3 X85.990000 Y88.970000 Z0.200000 A3.340780 I6.9970 J9.0953
G1 X130.990000 Y88.970000 Z0.200000 A4.105820
G3 X142.400000 Y101.670000 Z0.200000 A4.433630 I0.0383 J11.4411
G1 X142.270000 Y102.200000 Z0.200000 A4.442900
G3 X141.490000 Y103.940000 Z0.200000 A4.475420 I-6.2738 J-1.7676
G1 X137.990000 Y108.960000 Z0.200000 A4.579460
G3 X124.340000 Y124.440000 Z0.200000 A4.930350 I-149.8177 J-118.3485
G1 X123.580000 Y125.170000 Z0.200000 A4.948270
G3 X115.990000 Y128.030000 Z0.200000 A5.089050 I-7.6348 J-8.7602
G1 X85.990000 Y128.030000 Z0.200000 A5.599080
G3 X74.470000 Y116.500000 Z0.200000 A5.906540 I0.0274 J-11.5473
G1 X74.470000 Y100.490000 Z0.200000 A6.178720
G3 X78.352000 Y91.873000 Z0.200000 A6.344220 I11.5103 J0.0025
G0 Z0.700 F1620.000 A4.34422
G0 X89.390 Y97.195 F7800.000
G0 Z0.200
G0 F5400.000 A6.34422
G1 X89.920000 Y97.195000 Z0.200000 A6.353300 F720.000000
G1 X89.920000 Y97.915000 Z0.200000 A6.365620
G1 X90.450000 Y99.011000 Z0.200000 A6.386490
G1 X90.450000 Y97.195000 Z0.200000 A6.417610
G1 X90.980000 Y97.195000 Z0.200000 A6.426690
G1 X90.980000 Y103.805000 Z0.200000 A6.539960
G1 X90.450000 Y101.989000 Z0.200000 A6.572370
G1 X90.450000 Y103.805000 Z0.200000 A6.603490
G1 X89.920000 Y103.085000 Z0.200000 A6.618800
G1 X89.920000 Y103.805000 Z0.200000 A6.631130
G1 X89.390000 Y103.805000 Z0.200000 A6.640210
G0 Z0.700 F1620.000 A4.64021
G0 X91.510 Y97.195 F7800.000
G0 Z0.200
G0 F5400.000 A6.64021
G1 X91.510000 Y103.805000 Z0.200000 A6.753480 F720.000000
G1 X92.040000 Y103.805000 Z0.200000 A6.762560
G1 X92.040000 Y97.195000 Z0.200000 A6.875830
G1 X92.570000 Y97.195000 Z0.200000 A6.884920
G1 X92.570000 Y103.805000 Z0.200000 A6.998190
G1 X93.100000 Y103.805000 Z0.200000 A7.007270
G1 X93.100000 Y97.195000 Z0.200000 A7.120540
G1 X93.630000 Y97.195000 Z0.200000 A7.129620
G1 X93.630000 Y103.805000 Z0.200000 A7.242900
G1 X94.159000 Y103.805000 Z0.200000 A7.251980
G1 X94.159000 Y97.195000 Z0.200000 A7.365250
G1 X94.689000 Y97.195000 Z0.200000 A7.374330
G1 X94.689000 Y103.805000 Z0.200000 A7.487610
G1 X95.219000 Y103.805000 Z0.200000 A7.496690
G1 X95.219000 Y97.195000 Z0.200000 A7.609960
G1 X95.749000 Y97.195000 Z0.200000 A7.619040
G1 X95.749000 Y103.805000 Z0.200000 A7.732320
G1 X96.279000 Y103.805000 Z0.200000 A7.741400
G1 X96.279000 Y97.195000 Z0.200000 A7.854670
G1 X96.809000 Y97.195000 Z0.200000 A7.863750
G1 X96.809000 Y103.805000 Z0.200000 A7.977020
G1 X97.339000 Y103.805000 Z0.200000 A7.986110
G1 X97.339000 Y97.195000 Z0.200000 A8.099380
G1 X97.869000 Y97.195000 Z0.200000 A8.108460
G1 X97.869000 Y103.805000 Z0.200000 A8.221730
G1 X98.399000 Y103.805000 Z0.200000 A8.230810
G1 X98.399000 Y97.195000 Z0.200000 A8.344090
G1 X98.929000 Y97.195000 Z0.200000 A8.353170
G1 X98.929000 Y103.805000 Z0.200000 A8.466440
G1 X99.458000 Y103.805000 Z0.200000 A8.475520
G1 X99.458000 Y97.195000 Z0.200000 A8.588800
G1 X99.988000 Y97.195000 Z0.200000 A8.597880
G1 X99.988000 Y103.805000 Z0.200000 A8.711150
G1 X100.518000 Y103.805000 Z0.200000 A8.720230
G1 X100.518000 Y97.195000 Z0.200000 A8.833510
G1 X101.048000 Y97.195000 Z0.200000 A8.842590
G1 X101.048000 Y103.805000 Z0.200000 A8.955860
G1 X101.578000 Y103.805000 Z0.200000 A8.964940
G1 X101.578000 Y97.195000 Z0.200000 A9.078210
G1 X102.108000 Y97.195000 Z0.200000 A9.087300
G1 X102.108000 Y103.805000 Z0.200000 A9.200570
G1 X102.638000 Y103.805000 Z0.200000 A9.209650
G1 X102.638000 Y97.195000 Z0.200000 A9.322920
G1 X103.168000 Y97.195000 Z0.200000 A9.332010
G1 X103.168000 Y103.805000 Z0.200000 A9.445280
G1 X103.698000 Y103.805000 Z0.200000 A9.454360
G1 X103.698000 Y97.195000 Z0.200000 A9.567630
G1 X104.228000 Y97.195000 Z0.200000 A9.576710
G1 X104.228000 Y103.805000 Z0.200000 A9.689990
G1 X104.758000 Y103.805000 Z0.200000 A9.699070
G1 X104.758000 Y97.195000 Z0.200000 A9.812340
G1 X105.287000 Y97.195000 Z0.200000 A9.821420
G1 X105.287000 Y103.805000 Z0.200000 A9.934700
G1 X105.817000 Y103.805000 Z0.200000 A9.943780
G1 X105.817000 Y97.195000 Z0.200000 A10.057050
G1 X106.347000 Y97.195000 Z0.200000 A10.066130
G1 X106.347000 Y103.805000 Z0.200000 A10.179410
G1 X106.877000 Y103.805000 Z0.200000 A10.188490
G1 X106.877000 Y97.195000 Z0.200000 A10.301760
G1 X107.407000 Y97.195000 Z0.200000 A10.310840
G1 X107.407000 Y103.805000 Z0.200000 A10.424110
G1 X107.937000 Y103.805000 Z0.200000 A10.433200
G1 X107.937000 Y97.195000 Z0.200000 A10.546470
G1 X108.467000 Y97.195000 Z0.200000 A10.555550
G1 X108.467000 Y103.805000 Z0.200000 A10.668820
G1 X108.997000 Y103.805000 Z0.200000 A10.677900
G1 X108.997000 Y97.195000 Z0.200000 A10.791180
G1 X109.527000 Y97.195000 Z0.200000 A10.800260
G1 X109.527000 Y103.805000 Z0.200000 A10.913530
G1 X110.057000 Y103.805000 Z0.200000 A10.922610
G1 X110.057000 Y97.195000 Z0.200000 A11.035890
G1 X110.586000 Y97.195000 Z0.200000 A11.044970
G1 X110.586000 Y103.805000 Z0.200000 A11.158240
G1 X111.116000 Y103.805000 Z0.200000 A11.167320
G1 X111.116000 Y97.195000 Z0.200000 A11.280600
G1 X111.646000 Y97.195000 Z0.200000 A11.289680
G1 X111.646000 Y103.805000 Z0.200000 A11.402950
G1 X112.176000 Y103.805000 Z0.200000 A11.412030
G1 X112.176000 Y97.195000 Z0.200000 A11.525300
G1 X112.706000 Y97.195000 Z0.200000 A11.534390
G1 X112.706000 Y103.805000 Z0.200000 A11.647660
G1 X113.236000 Y103.805000 Z0.200000 A11.656740
G1 X113.236000 Y97.195000 Z0.200000 A11.770010
G1 X113.766000 Y97.195000 Z0.200000 A11.779100
G1 X113.766000 Y103.805000 Z0.200000 A11.892370
G1 X114.296000 Y103.805000 Z0.200000 A11.901450
G1 X114.296000 Y97.195000 Z0.200000 A12.014720
G1 X114.826000 Y97.195000 Z0.200000 A12.023800
G1 X114.826000 Y103.805000 Z0.200000 A12.137080
G1 X115.356000 Y103.805000 Z0.200000 A12.146160
G1 X115.356000 Y97.195000 Z0.200000 A12.259430
G1 X115.885000 Y97.195000 Z0.200000 A12.268510
G1 X115.885000 Y103.805000 Z0.200000 A12.381790
G1 X116.415000 Y103.805000 Z0.200000 A12.390870
G1 X116.415000 Y97.195000 Z0.200000 A12.504140
G1 X116.945000 Y97.195000 Z0.200000 A12.513220
G1 X116.945000 Y103.805000 Z0.200000 A12.626500
G1 X117.475000 Y103.805000 Z0.200000 A12.635580
G1 X117.475000 Y97.195000 Z0.200000 A12.748850
G1 X118.005000 Y97.195000 Z0.200000 A12.757930
G1 X118.005000 Y103.805000 Z0.200000 A12.871200
G1 X118.535000 Y103.805000 Z0.200000 A12.880290
G1 X118.535000 Y97.195000 Z0.200000 A12.993560
G1 X119.065000 Y97.195000 Z0.200000 A13.002640
G1 X119.065000 Y103.805000 Z0.200000 A13.115910
G1 X119.595000 Y103.805000 Z0.200000 A13.124990
G1 X119.595000 Y97.195000 Z0.200000 A13.238270
G1 X120.125000 Y97.195000 Z0.200000 A13.247350
G1 X120.125000 Y103.805000 Z0.200000 A13.360620
G1 X120.655000 Y103.805000 Z0.200000 A13.369700
G1 X120.655000 Y97.195000 Z0.200000 A13.482980
G1 X121.184000 Y97.195000 Z0.200000 A13.492060
G1 X121.184000 Y103.805000 Z0.200000 A13.605330
G1 X121.714000 Y103.805000 Z0.200000 A13.614410
G1 X121.714000 Y97.195000 Z0.200000 A13.727690
G1 X122.244000 Y97.195000 Z0.200000 A13.736770
G1 X122.244000 Y103.805000 Z0.200000 A13.850040
G1 X122.774000 Y103.805000 Z0.200000 A13.859120
G1 X122.774000 Y97.195000 Z0.200000 A13.972390
G1 X123.304000 Y97.195000 Z0.200000 A13.981480
G1 X123.304000 Y103.805000 Z0.200000 A14.094750
G1 X123.834000 Y103.805000 Z0.200000 A14.103830
G1 X123.834000 Y97.195000 Z0.200000 A14.217100
G1 X124.364000 Y97.195000 Z0.200000 A14.226190
G1 X124.364000 Y103.805000 Z0.200000 A14.339460
G1 X124.894000 Y103.805000 Z0.200000 A14.348540
G1 X124.894000 Y97.195000 Z0.200000 A14.461810
G1 X125.424000 Y97.195000 Z0.200000 A14.470890
G1 X125.424000 Y103.805000 Z0.200000 A14.584170
G1 X125.954000 Y103.805000 Z0.200000 A14.593250
G1 X125.954000 Y97.195000 Z0.200000 A14.706520
G1 X126.484000 Y97.195000 Z0.200000 A14.715600
G1 X126.484000 Y103.805000 Z0.200000 A14.828880
G1 X127.013000 Y103.805000 Z0.200000 A14.837960
G1 X127.013000 Y97.195000 Z0.200000 A14.951230
G1 X127.543000 Y97.195000 Z0.200000 A14.960310
G1 X127.543000 Y99.194000 Z0.200000 A14.994570
G1 X128.073000 Y98.243000 Z0.200000 A15.013230
G1 X128.073000 Y97.195000 Z0.200000 A15.031180
G1 X128.603000 Y97.195000 Z0.200000 A15.040270
G1 X128.603000 Y97.677000 Z0.200000 A15.048510
G0 Z0.700 F1620.000 A13.04851
G0 X127.543 Y101.800 F7800.000
G0 Z0.200
G0 F5400.000 A15.04851
G1 X127.543000 Y103.805000 Z0.200000 A15.082870 F720.000000
G1 X128.073000 Y103.805000 Z0.200000 A15.091950
G1 X128.073000 Y102.759000 Z0.200000 A15.109870
G1 X128.603000 Y103.313000 Z0.200000 A15.123000
G1 X128.603000 Y103.805000 Z0.200000 A15.131440
G1 X129.133000 Y103.805000 Z0.200000 A15.140520
G0 Z0.700 F1620.000 A13.14052
G0 X82.832 Y102.845 F7800.000
G0 Z0.200
G0 F5400.000 A15.14052
G1 X82.832000 Y103.024000 Z0.200000 A15.145630 F360.000000
G1 X83.716000 Y103.714000 Z0.200000 A15.177730
G1 X83.716000 Y103.846000 Z0.200000 A15.181520
G1 X84.601000 Y104.186000 Z0.200000 A15.208630
G1 X84.601000 Y104.299000 Z0.200000 A15.211870
G1 X85.486000 Y104.516000 Z0.200000 A15.237930
G0 Z0.700 F1620.000 A13.23793
G0 X81.947 Y100.502 F7800.000
G0 Z0.200
G0 F5400.000 A15.23793
G1 X82.832000 Y98.155000 Z0.200000 A15.309690 F360.000000
G1 X82.832000 Y97.976000 Z0.200000 A15.314810
G1 X83.716000 Y97.286000 Z0.200000 A15.346910
G1 X83.716000 Y97.154000 Z0.200000 A15.350700
G1 X84.601000 Y96.814000 Z0.200000 A15.377810
G1 X84.601000 Y96.701000 Z0.200000 A15.381040
G1 X85.486000 Y96.484000 Z0.200000 A15.407110
G0 Z0.700 F1620.000 A13.40711
G0 X131.359 Y96.993 F7800.000
G0 Z0.200
G0 F5400.000 A15.40711
G1 X132.268000 Y97.212000 Z0.200000 A15.434550 F360.000000
G1 X133.176000 Y97.727000 Z0.200000 A15.466110
G1 X133.176000 Y97.796000 Z0.200000 A15.468130
G1 X134.084000 Y98.791000 Z0.200000 A15.507710
G0 Z0.700 F1620.000 A13.50771
G0 X89.263 Y100.500 F7800.000
G0 Z0.200
G0 F5400.000 A15.50771
G1 X89.248000 Y100.820000 Z0.200000 A15.513160 F360.000000
G3 X89.248000 Y100.180000 Z0.200000 A15.850690 I-3.2401 J-0.3200
G1 X89.259000 Y100.421000 Z0.200000 A15.854800
G0 X89.538 Y100.665 F7800.000
G0 X90.312 Y100.574
G1 X90.295000 Y100.077000 Z0.200000 A15.863260 F360.000000
G2 X88.352000 Y96.814000 Z0.200000 A15.929710 I-4.4602 J0.4459
G1 X130.640000 Y96.814000 Z0.200000 A16.648630
G1 X130.688000 Y97.118000 Z0.200000 A16.653860
G1 X129.827000 Y97.399000 Z0.200000 A16.669260
G2 X129.818000 Y103.598000 Z0.200000 A16.805350 I1.1691 J3.1012
G1 X130.693000 Y103.878000 Z0.200000 A16.820980
G1 X130.645000 Y104.186000 Z0.200000 A16.826270
G1 X88.352000 Y104.186000 Z0.200000 A17.545290
G2 X90.308000 Y100.653000 Z0.200000 A17.616340 I-2.5791 J-3.7358
G0 X89.787 Y100.549 F7800.000
G1 X89.771000 Y100.129000 Z0.200000 A17.623480 F360.000000
G2 X87.100000 Y96.874000 Z0.200000 A17.699350 I-3.7626 J0.3642
G1 X86.155000 Y96.637000 Z0.200000 A17.715920
G1 X86.198000 Y96.288000 Z0.200000 A17.721890
G1 X130.981000 Y96.288000 Z0.200000 A18.483240
G3 X135.139000 Y99.569000 Z0.200000 A18.580180 I0.0065 J4.2670
G1 X133.589000 Y99.433000 Z0.200000 A18.606630
G2 X128.360000 Y101.401000 Z0.200000 A18.752540 I-2.5816 J1.0713
G1 X128.475000 Y101.685000 Z0.200000 A18.757750
G2 X130.878000 Y103.286000 Z0.200000 A18.809330 I2.5174 J-1.1745
G1 X131.521000 Y104.665000 Z0.200000 A18.835200
G1 X86.198000 Y104.712000 Z0.200000 A19.605760
G1 X86.155000 Y104.363000 Z0.200000 A19.611730
G2 X89.783000 Y100.627000 Z0.200000 A19.708320 I-0.2952 J-3.9162
G0 Z0.700 F1620.000 A17.70832
G0 X86.007 Y105.237 F7800.000
G0 Z0.200
G0 F5400.000 A19.70832
G1 X85.536000 Y105.214000 Z0.200000 A19.716330 F252.000000
G3 X86.007000 Y95.763000 Z0.200000 A19.961430 I0.4619 J-4.7142
G1 X130.994000 Y95.763000 Z0.200000 A20.726250
G3 X135.719000 Y100.147000 Z0.200000 A20.846800 I0.0106 J4.7268
G1 X133.189000 Y99.926000 Z0.200000 A20.889960
G2 X131.211000 Y102.756000 Z0.200000 A21.064820 I-2.1895 J0.5759
G1 X132.278000 Y105.045000 Z0.200000 A21.107740
G3 X130.989000 Y105.237000 Z0.200000 A21.129960 I-1.2177 J-3.7524
G1 X86.086000 Y105.237000 Z0.200000 A21.893360
G0 X85.784 Y104.822 F7800.000
G0 Z0.200 F5400.000 A19.89336
o<wipe_nozzle> call
G0 X73.950 Y100.200 F7800.000
G0 F5400.000 A21.89336
G1 X73.970000 Y99.710000 Z0.200000 A21.901700 F360.000000
G3 X85.700000 Y88.450000 Z0.200000 A22.204980 I12.0154 J0.7771
G1 X131.280000 Y88.450000 Z0.200000 A22.979880
G3 X142.960000 Y101.470000 Z0.200000 A23.313360 I-0.2430 J11.9670
G1 X142.780000 Y102.340000 Z0.200000 A23.328460
G3 X141.770000 Y104.470000 Z0.200000 A23.368700 I-7.0995 J-2.0619
G1 X138.420000 Y109.260000 Z0.200000 A23.468070
G3 X124.730000 Y124.790000 Z0.200000 A23.820050 I-151.1979 J-119.4850
G1 X123.930000 Y125.560000 Z0.200000 A23.838930
G3 X116.410000 Y128.540000 Z0.200000 A23.979110 I-7.9113 J-8.9858
G1 X85.990000 Y128.550000 Z0.200000 A24.496270
G3 X73.950000 Y116.790000 Z0.200000 A24.812810 I0.0156 J-12.0593
G1 X73.950000 Y100.279000 Z0.200000 A25.093520
G0 X74.480 Y100.220 F7800.000
G1 X74.500000 Y99.730000 Z0.200000 A25.101860 F360.000000
G3 X85.990000 Y88.970000 Z0.200000 A25.396380 I11.4251 J0.6855
G1 X130.990000 Y88.970000 Z0.200000 A26.161410
G3 X142.400000 Y101.670000 Z0.200000 A26.489230 I0.0360 J11.4431
G1 X142.270000 Y102.200000 Z0.200000 A26.498500
G3 X141.340000 Y104.170000 Z0.200000 A26.535690 I-6.2667 J-1.7538
G1 X137.990000 Y108.960000 Z0.200000 A26.635070
G3 X124.340000 Y124.440000 Z0.200000 A26.985960 I-149.8177 J-118.3485
G1 X123.580000 Y125.170000 Z0.200000 A27.003880
G3 X115.990000 Y128.030000 Z0.200000 A27.144660 I-7.6348 J-8.7602
G1 X85.990000 Y128.030000 Z0.200000 A27.654690
G3 X74.480000 Y116.770000 Z0.200000 A27.957560 I0.0233 J-11.5366
G1 X74.477000 Y100.299000 Z0.200000 A28.237580
G0 Z0.700 F1620.000 A26.23758
G0 X85.816 Y113.572 F7800.000
G0 Z0.200
G0 F5400.000 A28.23758
G1 X86.346000 Y113.762000 Z0.200000 A28.247220 F720.000000
G1 X86.346000 Y113.195000 Z0.200000 A28.256940
G1 X86.875000 Y113.195000 Z0.200000 A28.266020
G1 X86.875000 Y113.952000 Z0.200000 A28.278980
G1 X87.405000 Y114.210000 Z0.200000 A28.289070
G1 X87.405000 Y113.195000 Z0.200000 A28.306460
