; generated by Slic3r 0.9.8 on 2013-04-01 at 22:28:30

; layer_height = 0.3
; perimeters = 3
; top_solid_layers = 3
; bottom_solid_layers = 3
; fill_density = 0.4
; perimeter_speed = 30
; infill_speed = 40
; travel_speed = 130
; scale = 1
; nozzle_diameter = 0.4
; filament_diameter = 3
; extrusion_multiplier = 1
; perimeters extrusion width = 0.42mm
; infill extrusion width = 0.42mm
; first layer extrusion width = 0.42mm

M190 P115 ; wait for bed temperature to be reached
M104 P235 ; set temperature
G92 A0                  ; Reset A to 0
G40                        ; Cancel cutter compensation
G64 P0.1                ; Path Blend within .1mm
G0 X108.5 Y108.5  ; Move to center
M109 P235 ; wait for temperature to be reached
G90 ; use absolute coordinates
G21 ; set units to millimeters
G0 Z0.400 F3600.000 A-1.00000
G0 X125.310 Y124.930 F7800.000
G0 F3600.000 A0.10000
G1 X124.930 Y125.310 F540.000 A0.11264
G1 X124.310 Y125.820 A0.13153
G1 X124.090 Y125.970 A0.13779
G1 X123.390 Y126.380 A0.15687
G1 X122.650 Y126.700 A0.17584
G1 X122.400 Y126.790 A0.18209
G1 X121.880 Y126.930 A0.19476
G1 X121.360 Y127.040 A0.20726
G1 X120.560 Y127.120 A0.22618
G1 X96.430 Y127.120 A0.79382
G1 X95.630 Y127.040 A0.81273
G1 X95.370 Y126.990 A0.81896
G1 X94.590 Y126.790 A0.83790
G1 X94.090 Y126.600 A0.85048
G1 X93.600 Y126.380 A0.86312
G1 X92.900 Y125.970 A0.88220
G1 X92.680 Y125.820 A0.88847
G1 X92.060 Y125.310 A0.90735
G1 X91.680 Y124.930 A0.91999
G1 X91.170 Y124.310 A0.93888
G1 X91.020 Y124.090 A0.94514
G1 X90.610 Y123.390 A0.96423
G1 X90.290 Y122.650 A0.98319
G1 X90.200 Y122.400 A0.98944
G1 X90.060 Y121.880 A1.00211
G1 X89.950 Y121.360 A1.01461
G1 X89.870 Y120.560 A1.03353
G1 X89.870 Y96.440 A1.60093
G1 X89.950 Y95.640 A1.61985
G1 X90.000 Y95.380 A1.62607
G1 X90.200 Y94.600 A1.64502
G1 X90.290 Y94.350 A1.65127
G1 X90.610 Y93.610 A1.67023
G1 X90.740 Y93.370 A1.67665
G1 X91.170 Y92.690 A1.69558
G1 X91.510 Y92.270 A1.70829
G1 X91.680 Y92.070 A1.71447
G1 X92.060 Y91.690 A1.72711
G1 X92.680 Y91.180 A1.74599
G1 X92.900 Y91.030 A1.75226
G1 X93.600 Y90.620 A1.77134
G1 X94.340 Y90.300 A1.79031
G1 X94.590 Y90.210 A1.79656
G1 X95.110 Y90.070 A1.80923
G1 X95.630 Y89.960 A1.82173
G1 X96.430 Y89.880 A1.84064
G1 X120.560 Y89.880 A2.40828
G1 X121.360 Y89.960 A2.42720
G1 X121.620 Y90.010 A2.43343
G1 X122.400 Y90.210 A2.45237
G1 X122.900 Y90.400 A2.46495
G1 X123.390 Y90.620 A2.47759
G1 X124.090 Y91.030 A2.49667
G1 X124.310 Y91.180 A2.50293
G1 X124.930 Y91.690 A2.52182
G1 X125.310 Y92.070 A2.53446
G1 X125.820 Y92.690 A2.55335
G1 X125.970 Y92.910 A2.55961
G1 X126.380 Y93.610 A2.57869
G1 X126.700 Y94.350 A2.59766
G1 X126.790 Y94.600 A2.60391
G1 X126.930 Y95.120 A2.61658
G1 X127.040 Y95.640 A2.62908
G1 X127.120 Y96.440 A2.64800
G1 X127.120 Y120.560 A3.21540
G1 X127.040 Y121.360 A3.23431
G1 X126.990 Y121.620 A3.24054
G1 X126.790 Y122.400 A3.25948
G1 X126.600 Y122.900 A3.27207
G1 X126.380 Y123.390 A3.28470
G1 X125.970 Y124.090 A3.30379
G1 X125.820 Y124.310 A3.31005
G1 X125.350 Y124.882 A3.32747
G1 X125.310 Y124.930 A3.32894
G0 X125.010 Y124.640 F7800.000
G1 X124.440 Y125.190 F540.000 A3.34757
G1 X124.020 Y125.510 A3.35999
G1 X123.570 Y125.800 A3.37258
G1 X122.870 Y126.170 A3.39121
G1 X122.120 Y126.440 A3.40996
G1 X121.610 Y126.570 A3.42234
G1 X121.080 Y126.660 A3.43499
G1 X120.290 Y126.710 A3.45361
G1 X96.430 Y126.700 A4.01490
G1 X95.910 Y126.660 A4.02717
G1 X95.380 Y126.570 A4.03981
G1 X94.870 Y126.440 A4.05220
G1 X94.120 Y126.170 A4.07095
G1 X93.420 Y125.800 A4.08957
G1 X92.970 Y125.510 A4.10217
G1 X92.550 Y125.190 A4.11459
G1 X92.160 Y124.830 A4.12707
G1 X91.800 Y124.440 A4.13956
G1 X91.480 Y124.020 A4.15198
G1 X91.190 Y123.570 A4.16457
G1 X90.820 Y122.870 A4.18320
G1 X90.550 Y122.120 A4.20195
G1 X90.420 Y121.610 A4.21433
G1 X90.330 Y121.080 A4.22698
G1 X90.280 Y120.290 A4.24560
G1 X90.290 Y96.440 A4.80665
G1 X90.330 Y95.920 A4.81892
G1 X90.420 Y95.390 A4.83157
G1 X90.550 Y94.880 A4.84395
G1 X90.820 Y94.130 A4.86270
G1 X91.060 Y93.660 A4.87512
G1 X91.330 Y93.200 A4.88766
G1 X91.800 Y92.560 A4.90634
G1 X91.980 Y92.360 A4.91267
G1 X92.550 Y91.810 A4.93131
G1 X92.970 Y91.490 A4.94373
G1 X93.420 Y91.200 A4.95632
G1 X94.120 Y90.830 A4.97495
G1 X94.870 Y90.560 A4.99370
G1 X95.380 Y90.430 A5.00608
G1 X95.910 Y90.340 A5.01872
G1 X96.700 Y90.290 A5.03735
G1 X120.560 Y90.300 A5.59864
G1 X121.080 Y90.340 A5.61090
G1 X121.610 Y90.430 A5.62355
G1 X122.120 Y90.560 A5.63593
G1 X122.870 Y90.830 A5.65468
G1 X123.570 Y91.200 A5.67331
G1 X124.020 Y91.490 A5.68590
G1 X124.440 Y91.810 A5.69832
G1 X124.830 Y92.170 A5.71081
G1 X125.190 Y92.560 A5.72329
G1 X125.510 Y92.980 A5.73572
G1 X125.800 Y93.430 A5.74831
G1 X126.170 Y94.130 A5.76694
G1 X126.440 Y94.880 A5.78569
G1 X126.570 Y95.390 A5.79807
G1 X126.660 Y95.920 A5.81071
G1 X126.710 Y96.710 A5.82934
G1 X126.700 Y120.560 A6.39039
G1 X126.660 Y121.080 A6.40266
G1 X126.570 Y121.610 A6.41530
G1 X126.440 Y122.120 A6.42769
G1 X126.170 Y122.870 A6.44644
G1 X125.930 Y123.340 A6.45885
G1 X125.660 Y123.800 A6.47140
G1 X125.190 Y124.440 A6.49008
G1 X125.052 Y124.594 A6.49494
G1 X125.010 Y124.640 A6.49641
G0 Z0.900 F1080.000 A5.49641
G0 X111.359 Y111.359 F7800.000
G0 Z0.400
G0 F3600.000 A6.59641
G1 X111.065 Y111.625 F540.000 A6.60574
G1 X110.746 Y111.861 A6.61507
G1 X110.406 Y112.065 A6.62441
G1 X110.047 Y112.235 A6.63374
G1 X109.674 Y112.369 A6.64307
G1 X109.289 Y112.465 A6.65240
G1 X108.896 Y112.523 A6.66174
G1 X108.500 Y112.543 A6.67107
G1 X108.104 Y112.523 A6.68040
G1 X107.711 Y112.465 A6.68974
G1 X107.326 Y112.369 A6.69907
G1 X106.953 Y112.235 A6.70840
G1 X106.594 Y112.065 A6.71773
G1 X106.254 Y111.861 A6.72707
G1 X105.935 Y111.625 A6.73640
G1 X105.641 Y111.359 A6.74573
G1 X105.375 Y111.065 A6.75506
G1 X105.139 Y110.746 A6.76440
G1 X104.935 Y110.406 A6.77373
G1 X104.765 Y110.047 A6.78306
G1 X104.631 Y109.674 A6.79240
G1 X104.535 Y109.289 A6.80173
G1 X104.477 Y108.896 A6.81106
G1 X104.457 Y108.500 A6.82039
G1 X104.477 Y108.104 A6.82973
G1 X104.535 Y107.711 A6.83906
G1 X104.631 Y107.326 A6.84839
G1 X104.765 Y106.953 A6.85773
G1 X104.935 Y106.594 A6.86706
G1 X105.139 Y106.254 A6.87639
G1 X105.375 Y105.935 A6.88572
G1 X105.641 Y105.641 A6.89506
G1 X105.935 Y105.375 A6.90439
G1 X106.254 Y105.139 A6.91372
G1 X106.594 Y104.935 A6.92306
G1 X106.953 Y104.765 A6.93239
G1 X107.326 Y104.631 A6.94172
G1 X107.711 Y104.535 A6.95105
G1 X108.104 Y104.477 A6.96039
G1 X108.500 Y104.457 A6.96972
G1 X108.896 Y104.477 A6.97905
G1 X109.289 Y104.535 A6.98838
G1 X109.674 Y104.631 A6.99772
G1 X110.047 Y104.765 A7.00705
G1 X110.406 Y104.935 A7.01638
G1 X110.746 Y105.139 A7.02571
G1 X111.065 Y105.375 A7.03505
G1 X111.359 Y105.641 A7.04438
G1 X111.625 Y105.935 A7.05371
G1 X111.861 Y106.254 A7.06305
G1 X112.065 Y106.594 A7.07238
G1 X112.235 Y106.953 A7.08171
G1 X112.369 Y107.326 A7.09104
G1 X112.465 Y107.711 A7.10038
G1 X112.523 Y108.104 A7.10971
G1 X112.543 Y108.500 A7.11904
G1 X112.523 Y108.896 A7.12838
G1 X112.465 Y109.289 A7.13771
G1 X112.369 Y109.674 A7.14704
G1 X112.235 Y110.047 A7.15637
G1 X112.065 Y110.406 A7.16571
G1 X111.861 Y110.746 A7.17504
G1 X111.625 Y111.065 A7.18437
G1 X111.400 Y111.312 A7.19224
G1 X111.359 Y111.359 A7.19370
G0 X111.064 Y111.064 F7800.000
G1 X110.801 Y111.303 F540.000 A7.20208
G1 X110.515 Y111.515 A7.21045
G1 X110.209 Y111.698 A7.21882
G1 X109.888 Y111.850 A7.22719
G1 X109.553 Y111.970 A7.23556
G1 X109.207 Y112.057 A7.24394
G1 X108.855 Y112.109 A7.25231
G1 X108.500 Y112.126 A7.26068
G1 X108.145 Y112.109 A7.26905
G1 X107.793 Y112.057 A7.27742
G1 X107.447 Y111.970 A7.28580
G1 X107.112 Y111.850 A7.29417
G1 X106.790 Y111.698 A7.30254
G1 X106.485 Y111.515 A7.31091
G1 X106.199 Y111.303 A7.31928
G1 X105.936 Y111.064 A7.32765
G1 X105.697 Y110.801 A7.33603
G1 X105.485 Y110.515 A7.34440
G1 X105.302 Y110.209 A7.35277
G1 X105.150 Y109.888 A7.36114
G1 X105.030 Y109.553 A7.36951
G1 X104.943 Y109.207 A7.37789
G1 X104.891 Y108.855 A7.38626
G1 X104.874 Y108.500 A7.39463
G1 X104.891 Y108.145 A7.40300
G1 X104.943 Y107.793 A7.41137
G1 X105.030 Y107.447 A7.41975
G1 X105.150 Y107.112 A7.42812
G1 X105.302 Y106.790 A7.43649
G1 X105.485 Y106.485 A7.44486
G1 X105.697 Y106.199 A7.45323
G1 X105.936 Y105.936 A7.46161
G1 X106.199 Y105.697 A7.46998
G1 X106.485 Y105.485 A7.47835
G1 X106.791 Y105.302 A7.48672
G1 X107.112 Y105.150 A7.49509
G1 X107.447 Y105.030 A7.50347
G1 X107.793 Y104.943 A7.51184
G1 X108.145 Y104.891 A7.52021
G1 X108.500 Y104.874 A7.52858
G1 X108.855 Y104.891 A7.53695
G1 X109.207 Y104.943 A7.54532
G1 X109.553 Y105.030 A7.55370
G1 X109.888 Y105.150 A7.56207
G1 X110.209 Y105.302 A7.57044
G1 X110.515 Y105.485 A7.57881
G1 X110.801 Y105.697 A7.58718
G1 X111.064 Y105.936 A7.59556
G1 X111.303 Y106.199 A7.60393
G1 X111.515 Y106.485 A7.61230
G1 X111.698 Y106.790 A7.62067
G1 X111.850 Y107.112 A7.62904
G1 X111.970 Y107.447 A7.63742
G1 X112.057 Y107.793 A7.64579
G1 X112.109 Y108.145 A7.65416
G1 X112.126 Y108.500 A7.66253
G1 X112.109 Y108.855 A7.67090
G1 X112.057 Y109.207 A7.67928
G1 X111.970 Y109.553 A7.68765
G1 X111.850 Y109.888 A7.69602
G1 X111.698 Y110.209 A7.70439
G1 X111.515 Y110.515 A7.71276
G1 X111.303 Y110.801 A7.72113
G1 X111.106 Y111.018 A7.72804
G1 X111.064 Y111.064 A7.72951
G0 X110.770 Y110.770 F7800.000
G1 X110.537 Y110.982 F540.000 A7.73692
G1 X110.284 Y111.169 A7.74433
G1 X110.013 Y111.331 A7.75174
G1 X109.729 Y111.466 A7.75915
G1 X109.432 Y111.572 A7.76656
G1 X109.126 Y111.649 A7.77397
G1 X108.815 Y111.695 A7.78138
G1 X108.500 Y111.710 A7.78880
G1 X108.185 Y111.695 A7.79621
G1 X107.874 Y111.649 A7.80362
G1 X107.568 Y111.572 A7.81103
G1 X107.271 Y111.466 A7.81844
G1 X106.987 Y111.331 A7.82585
G1 X106.716 Y111.169 A7.83326
G1 X106.463 Y110.982 A7.84067
G1 X106.230 Y110.770 A7.84808
G1 X106.018 Y110.537 A7.85549
G1 X105.831 Y110.284 A7.86291
G1 X105.669 Y110.013 A7.87032
G1 X105.534 Y109.729 A7.87773
G1 X105.428 Y109.432 A7.88514
G1 X105.351 Y109.126 A7.89255
G1 X105.305 Y108.815 A7.89996
G1 X105.290 Y108.500 A7.90737
G1 X105.305 Y108.185 A7.91478
G1 X105.351 Y107.874 A7.92219
G1 X105.428 Y107.568 A7.92961
G1 X105.534 Y107.271 A7.93702
G1 X105.669 Y106.987 A7.94443
G1 X105.831 Y106.716 A7.95184
G1 X106.018 Y106.463 A7.95925
G1 X106.230 Y106.230 A7.96666
G1 X106.463 Y106.018 A7.97407
G1 X106.716 Y105.831 A7.98148
G1 X106.987 Y105.669 A7.98889
G1 X107.271 Y105.534 A7.99631
G1 X107.568 Y105.428 A8.00372
G1 X107.874 Y105.351 A8.01113
G1 X108.185 Y105.305 A8.01854
G1 X108.500 Y105.290 A8.02595
G1 X108.815 Y105.305 A8.03336
G1 X109.126 Y105.351 A8.04077
G1 X109.432 Y105.428 A8.04818
G1 X109.729 Y105.534 A8.05559
G1 X110.013 Y105.669 A8.06300
G1 X110.284 Y105.831 A8.07042
G1 X110.537 Y106.018 A8.07783
G1 X110.770 Y106.230 A8.08524
G1 X110.982 Y106.463 A8.09265
G1 X111.169 Y106.716 A8.10006
G1 X111.331 Y106.987 A8.10747
G1 X111.466 Y107.271 A8.11488
G1 X111.572 Y107.568 A8.12229
G1 X111.649 Y107.874 A8.12970
G1 X111.695 Y108.185 A8.13712
G1 X111.710 Y108.500 A8.14453
G1 X111.695 Y108.815 A8.15194
G1 X111.649 Y109.126 A8.15935
G1 X111.572 Y109.432 A8.16676
G1 X111.466 Y109.729 A8.17417
G1 X111.331 Y110.013 A8.18158
G1 X111.169 Y110.284 A8.18899
G1 X110.982 Y110.537 A8.19640
G1 X110.812 Y110.724 A8.20235
G1 X110.770 Y110.770 A8.20382
G0 X110.871 Y111.173 F7800.000
G0 Z0.900 F1080.000 A7.20382
G0 X119.459 Y97.541 F7800.000
G0 Z0.400
G0 F3600.000 A8.30382
G1 X119.459 Y119.459 F540.000 A8.81940
G1 X97.541 Y119.459 A9.33499
G1 X97.541 Y97.541 A9.85057
G1 X119.396 Y97.541 A10.36469
G1 X119.459 Y97.541 A10.36616
G0 X119.874 Y97.126 F7800.000
G1 X119.874 Y119.874 F540.000 A10.90130
G1 X97.126 Y119.874 A11.43644
G1 X97.126 Y97.126 A11.97159
G1 X119.812 Y97.126 A12.50526
G1 X119.874 Y97.126 A12.50673
G0 X120.290 Y96.710 F7800.000
G1 X120.290 Y120.290 F378.000 A13.06143
G1 X96.710 Y120.290 A13.61613
G1 X96.710 Y96.710 A14.17084
G1 X120.228 Y96.710 A14.72407
G1 X120.290 Y96.710 A14.72554
G0 X120.082 Y97.070 F7800.000
G0 X119.043 Y97.770
G1 X119.043 Y119.230 F720.000 A15.23766
G1 X118.621 Y119.230 A15.24773
G1 X118.621 Y97.770 A15.75985
G1 X118.200 Y97.770 A15.76992
G1 X118.200 Y119.230 A16.28204
G1 X117.778 Y119.230 A16.29211
G1 X117.778 Y97.770 A16.80423
G1 X117.356 Y97.770 A16.81429
G1 X117.356 Y119.230 A17.32642
G1 X116.934 Y119.230 A17.33648
G1 X116.934 Y97.770 A17.84861
G1 X116.513 Y97.770 A17.85868
G1 X116.513 Y119.230 A18.37080
G1 X116.091 Y119.230 A18.38086
G1 X116.091 Y97.770 A18.89299
G1 X115.669 Y97.770 A18.90305
G1 X115.669 Y119.230 A19.41518
G1 X115.248 Y119.230 A19.42524
G1 X115.248 Y97.770 A19.93737
G1 X114.826 Y97.770 A19.94743
G1 X114.826 Y119.230 A20.45956
G1 X114.404 Y119.230 A20.46962
G1 X114.404 Y97.770 A20.98175
G1 X113.982 Y97.770 A20.99181
G1 X113.982 Y119.230 A21.50394
G1 X113.561 Y119.230 A21.51400
G1 X113.561 Y97.770 A22.02613
G1 X113.139 Y97.770 A22.03619
G1 X113.139 Y119.230 A22.54832
G0 Z0.900 F1080.000 A21.54832
G0 X104.283 Y119.230 F7800.000
G0 Z0.400
G0 F3600.000 A22.64832
G1 X104.283 Y109.746 F720.000 A22.87465
G1 X104.705 Y110.643 A22.89830
G1 X104.705 Y119.230 A23.10322
G1 X105.126 Y119.230 A23.11329
G1 X105.126 Y111.222 A23.30439
G1 X105.548 Y111.648 A23.31869
G1 X105.548 Y119.230 A23.49963
G1 X105.970 Y119.230 A23.50970
G1 X105.970 Y111.981 A23.68269
G1 X106.391 Y112.241 A23.69452
G1 X106.391 Y119.230 A23.86130
G1 X106.813 Y119.230 A23.87137
G1 X106.813 Y112.439 A24.03342
G1 X107.235 Y112.587 A24.04409
G1 X107.235 Y119.230 A24.20262
G1 X107.657 Y119.230 A24.21268
G1 X107.657 Y112.690 A24.36875
G1 X108.078 Y112.751 A24.37892
G1 X108.078 Y119.230 A24.53354
G1 X108.500 Y119.230 A24.54360
G1 X108.500 Y112.772 A24.69772
G1 X108.922 Y112.751 A24.70780
G1 X108.922 Y119.230 A24.86241
G1 X109.344 Y119.230 A24.87248
G1 X109.344 Y112.690 A25.02855
G1 X109.765 Y112.587 A25.03891
G1 X109.765 Y119.230 A25.19744
G1 X110.187 Y119.230 A25.20751
G1 X110.187 Y112.439 A25.36956
G1 X110.609 Y112.241 A25.38068
G1 X110.609 Y119.230 A25.54746
G1 X111.030 Y119.230 A25.55753
G1 X111.030 Y111.981 A25.73052
G1 X111.452 Y111.648 A25.74335
G1 X111.452 Y119.230 A25.92429
G1 X111.874 Y119.230 A25.93436
G1 X111.874 Y111.222 A26.12546
G1 X112.296 Y110.643 A26.14255
G1 X112.296 Y119.230 A26.34748
G1 X112.717 Y119.230 A26.35754
G1 X112.717 Y109.746 A26.58387
G0 X112.717 Y107.254 F7800.000
G1 X112.717 Y97.770 F720.000 A26.81020
G1 X112.296 Y97.770 A26.82027
G1 X112.296 Y106.357 A27.02519
G1 X111.874 Y105.778 A27.04228
G1 X111.874 Y97.770 A27.23338
G1 X111.452 Y97.770 A27.24345
G1 X111.452 Y105.352 A27.42439
G1 X111.030 Y105.019 A27.43722
G1 X111.030 Y97.770 A27.61021
G1 X110.609 Y97.770 A27.62028
G1 X110.609 Y104.759 A27.78706
G1 X110.187 Y104.561 A27.79818
G1 X110.187 Y97.770 A27.96023
G1 X109.765 Y97.770 A27.97030
G1 X109.765 Y104.413 A28.12883
G1 X109.344 Y104.310 A28.13918
G1 X109.344 Y97.770 A28.29526
G1 X108.922 Y97.770 A28.30532
G1 X108.922 Y104.249 A28.45994
G1 X108.500 Y104.228 A28.47001
G1 X108.500 Y97.770 A28.62414
G1 X108.078 Y97.770 A28.63420
G1 X108.078 Y104.249 A28.78882
G1 X107.657 Y104.310 A28.79898
G1 X107.657 Y97.770 A28.95506
G1 X107.235 Y97.770 A28.96512
G1 X107.235 Y104.413 A29.12365
G1 X106.813 Y104.561 A29.13431
G1 X106.813 Y97.770 A29.29637
G1 X106.391 Y97.770 A29.30643
G1 X106.391 Y104.759 A29.47321
G1 X105.970 Y105.019 A29.48504
G1 X105.970 Y97.770 A29.65804
G1 X105.548 Y97.770 A29.66810
G1 X105.548 Y105.352 A29.84904
G1 X105.126 Y105.778 A29.86334
G1 X105.126 Y97.770 A30.05444
G1 X104.705 Y97.770 A30.06451
G1 X104.705 Y106.357 A30.26943
G1 X104.283 Y107.254 A30.29309
G1 X104.283 Y97.770 A30.51942
G1 X103.861 Y97.770 A30.52948
G1 X103.861 Y119.230 A31.04160
G1 X103.439 Y119.230 A31.05167
