; generated by Slic3r 1.0.0RC2 on 2013-12-31 at 14:52:59

; layer_height = 0.2
; perimeters = 3
; top_solid_layers = 3
; bottom_solid_layers = 3
; fill_density = 0.25
; perimeter_speed = 20
; infill_speed = 40
; travel_speed = 130
; nozzle_diameter = 0.4
; filament_diameter = 2.95
; extrusion_multiplier = 1.105263
; perimeters extrusion width = 0.56mm
; infill extrusion width = 0.56mm
; solid infill extrusion width = 0.56mm
; top infill extrusion width = 0.56mm

G21 ; set units to millimeters
M190 P115 ; wait for bed temperature to be reached
M104 P210 ; set temperature
G92 A-4                  ; Reset A to 0
G40                        ; Cancel cutter compensation
G64 P0.1                ; Path Blend within .1mm
G0 X108.5 Y200    ; Move to plate
M109 P210 ; wait for temperature to be reached
G90 ; use absolute coordinates
G1 X108.500000 Y200.000000 Z0.000000 A-2.000000 F5400.000000
G0 Z0.200 F7800.000
;o<wipe_nozzle> call
G0 X54.960 Y76.680 F7800.000
G1 X54.960000 Y76.680000 Z0.200000 A0.000000 F5400.000000
G3 X57.730000 Y75.770000 Z0.200000 A0.049840 F360.000000 I3.5461 J6.1233
G1 X87.730000 Y72.490000 Z0.200000 A0.562900 F360.000000
G1 X129.270000 Y72.490000 Z0.200000 A1.269150 F360.000000
G1 X159.270000 Y75.770000 Z0.200000 A1.782210 F360.000000
G3 X165.550000 Y82.780000 Z0.200000 A1.957100 F360.000000 I-0.7668 J7.0049
G1 X165.550000 Y92.200000 Z0.200000 A2.117250 F360.000000
G3 X163.490000 Y97.190000 Z0.200000 A2.211260 F360.000000 I-6.9803 J0.0386
G1 X118.190000 Y142.490000 Z0.200000 A3.300390 F360.000000
G3 X113.200000 Y144.550000 Z0.200000 A3.394400 F360.000000 I-5.0108 J-5.0642
G1 X103.780000 Y144.550000 Z0.200000 A3.554550 F360.000000
G3 X98.790000 Y142.480000 Z0.200000 A3.648670 F360.000000 I-0.0415 J-6.9496
G1 X53.510000 Y97.180000 Z0.200000 A4.737570 F360.000000
G3 X51.450000 Y92.200000 Z0.200000 A4.831440 F360.000000 I4.9841 J-4.9778
G1 X51.450000 Y82.780000 Z0.200000 A4.991590 F360.000000
G3 X54.896000 Y76.727000 Z0.200000 A5.115300 F360.000000 I6.9941 J-0.0256
G0 X55.220 Y77.140 F7800.000
G1 X56.460000 Y76.580000 Z0.200000 A5.138430 F360.000000
G1 X57.790000 Y76.290000 Z0.200000 A5.161570 F360.000000
G1 X87.790000 Y73.010000 Z0.200000 A5.674640 F360.000000
G1 X129.210000 Y73.010000 Z0.200000 A6.378850 F360.000000
G1 X159.210000 Y76.290000 Z0.200000 A6.891910 F360.000000
G3 X165.030000 Y82.780000 Z0.200000 A7.053810 F360.000000 I-0.7050 J6.4868
G1 X165.030000 Y92.200000 Z0.200000 A7.213960 F360.000000
G3 X163.110000 Y96.810000 Z0.200000 A7.300970 F360.000000 I-6.4892 J0.0022
G1 X117.810000 Y142.110000 Z0.200000 A8.390110 F360.000000
G3 X113.200000 Y144.030000 Z0.200000 A8.477130 F360.000000 I-4.5598 J-4.4539
G1 X103.780000 Y144.030000 Z0.200000 A8.637270 F360.000000
G3 X99.160000 Y142.110000 Z0.200000 A8.724420 F360.000000 I0.0071 J-6.5355
G1 X53.880000 Y96.810000 Z0.200000 A9.813320 F360.000000
G3 X51.970000 Y92.200000 Z0.200000 A9.900200 F360.000000 I4.6255 J-4.6171
G1 X51.970000 Y82.780000 Z0.200000 A10.060350 F360.000000
G3 X57.313000 Y76.394000 Z0.200000 A8.174640 F5400.000000 I6.4581 J-0.0249
G0 X60.212 Y90.365 F7800.000
G1 X60.212000 Y90.365000 Z0.200000 A10.174640 F5400.000000
G1 X60.212000 Y84.632000 Z0.200000 A10.272480 F720.000000
G1 X60.740000 Y84.632000 Z0.200000 A10.281490 F720.000000
G1 X60.740000 Y90.365000 Z0.200000 A10.379340 F720.000000
G1 X61.268000 Y90.365000 Z0.200000 A10.388340 F720.000000
G1 X61.268000 Y84.632000 Z0.200000 A10.486190 F720.000000
G1 X61.796000 Y84.632000 Z0.200000 A10.495200 F720.000000
G1 X61.796000 Y90.365000 Z0.200000 A10.593050 F720.000000
G1 X62.323000 Y90.365000 Z0.200000 A10.602050 F720.000000
G1 X62.323000 Y84.632000 Z0.200000 A10.699900 F720.000000
G1 X62.851000 Y84.632000 Z0.200000 A10.708910 F720.000000
G1 X62.851000 Y90.365000 Z0.200000 A10.806760 F720.000000
G1 X63.379000 Y90.365000 Z0.200000 A10.815760 F720.000000
G1 X63.379000 Y84.632000 Z0.200000 A10.913610 F720.000000
G1 X63.907000 Y84.632000 Z0.200000 A10.922620 F720.000000
G1 X63.907000 Y90.365000 Z0.200000 A11.020460 F720.000000
G1 X64.434000 Y90.365000 Z0.200000 A11.029470 F720.000000
G1 X64.434000 Y84.632000 Z0.200000 A11.127320 F720.000000
G1 X64.962000 Y84.632000 Z0.200000 A11.136330 F720.000000
G1 X64.962000 Y90.365000 Z0.200000 A11.234170 F720.000000
G1 X65.490000 Y90.365000 Z0.200000 A11.243180 F720.000000
G1 X65.490000 Y84.632000 Z0.200000 A11.341030 F720.000000
G1 X66.017000 Y84.632000 Z0.200000 A11.350030 F720.000000
G1 X66.017000 Y90.365000 Z0.200000 A11.447880 F720.000000
G1 X66.545000 Y90.365000 Z0.200000 A11.456890 F720.000000
G1 X66.545000 Y84.632000 Z0.200000 A11.554740 F720.000000
G1 X67.073000 Y84.632000 Z0.200000 A11.563740 F720.000000
G1 X67.073000 Y90.365000 Z0.200000 A11.661590 F720.000000
G1 X67.601000 Y90.365000 Z0.200000 A11.670600 F720.000000
G1 X67.601000 Y84.632000 Z0.200000 A11.768450 F720.000000
G1 X68.128000 Y84.632000 Z0.200000 A11.777450 F720.000000
G1 X68.128000 Y90.365000 Z0.200000 A11.875300 F720.000000
G1 X68.656000 Y90.365000 Z0.200000 A11.884310 F720.000000
G1 X68.656000 Y84.632000 Z0.200000 A11.982150 F720.000000
G1 X69.184000 Y84.632000 Z0.200000 A11.991160 F720.000000
G1 X69.184000 Y90.365000 Z0.200000 A12.089010 F720.000000
G1 X69.712000 Y90.365000 Z0.200000 A12.098020 F720.000000
G1 X69.712000 Y84.632000 Z0.200000 A12.195860 F720.000000
G1 X70.239000 Y84.632000 Z0.200000 A12.204870 F720.000000
G1 X70.239000 Y90.365000 Z0.200000 A12.302720 F720.000000
G1 X70.767000 Y90.365000 Z0.200000 A12.311730 F720.000000
G1 X70.767000 Y84.632000 Z0.200000 A12.409570 F720.000000
G1 X71.295000 Y84.632000 Z0.200000 A12.418580 F720.000000
G1 X71.295000 Y90.365000 Z0.200000 A12.516430 F720.000000
G1 X71.823000 Y90.365000 Z0.200000 A12.525430 F720.000000
G1 X71.823000 Y84.632000 Z0.200000 A12.623280 F720.000000
G1 X72.350000 Y84.632000 Z0.200000 A12.632290 F720.000000
G1 X72.350000 Y90.365000 Z0.200000 A12.730140 F720.000000
G1 X72.878000 Y90.365000 Z0.200000 A12.739140 F720.000000
G1 X72.878000 Y84.632000 Z0.200000 A12.836990 F720.000000
G1 X73.406000 Y84.632000 Z0.200000 A12.846000 F720.000000
G1 X73.406000 Y90.365000 Z0.200000 A12.943850 F720.000000
G1 X73.933000 Y90.365000 Z0.200000 A12.952850 F720.000000
G1 X73.933000 Y84.632000 Z0.200000 A13.050700 F720.000000
G1 X74.461000 Y84.632000 Z0.200000 A13.059710 F720.000000
G1 X74.461000 Y90.365000 Z0.200000 A13.157550 F720.000000
G1 X74.989000 Y90.365000 Z0.200000 A13.166560 F720.000000
G1 X74.989000 Y84.632000 Z0.200000 A13.264410 F720.000000
G1 X75.517000 Y84.632000 Z0.200000 A13.273420 F720.000000
G1 X75.517000 Y90.365000 Z0.200000 A13.371260 F720.000000
G1 X76.044000 Y90.365000 Z0.200000 A13.380270 F720.000000
G1 X76.044000 Y84.632000 Z0.200000 A13.478120 F720.000000
G1 X76.572000 Y84.632000 Z0.200000 A13.487130 F720.000000
G1 X76.572000 Y90.365000 Z0.200000 A13.584970 F720.000000
G1 X77.100000 Y90.365000 Z0.200000 A13.593980 F720.000000
G1 X77.100000 Y84.632000 Z0.200000 A13.691830 F720.000000
G1 X77.628000 Y84.632000 Z0.200000 A13.700830 F720.000000
G1 X77.628000 Y90.365000 Z0.200000 A13.798680 F720.000000
G1 X78.155000 Y90.365000 Z0.200000 A13.807690 F720.000000
G1 X78.155000 Y84.632000 Z0.200000 A13.905540 F720.000000
G1 X78.683000 Y84.632000 Z0.200000 A13.914540 F720.000000
G1 X78.683000 Y90.365000 Z0.200000 A14.012390 F720.000000
G1 X79.211000 Y90.365000 Z0.200000 A14.021400 F720.000000
G1 X79.211000 Y84.632000 Z0.200000 A14.119240 F720.000000
G1 X79.739000 Y84.632000 Z0.200000 A14.128250 F720.000000
G1 X79.739000 Y90.365000 Z0.200000 A14.226100 F720.000000
G1 X80.266000 Y90.365000 Z0.200000 A14.235110 F720.000000
G1 X80.266000 Y84.632000 Z0.200000 A14.332950 F720.000000
G1 X80.794000 Y84.632000 Z0.200000 A14.341960 F720.000000
G1 X80.794000 Y90.365000 Z0.200000 A14.439810 F720.000000
G1 X81.322000 Y90.365000 Z0.200000 A14.448820 F720.000000
G1 X81.322000 Y84.632000 Z0.200000 A14.546660 F720.000000
G1 X81.850000 Y84.632000 Z0.200000 A14.555670 F720.000000
G1 X81.850000 Y90.365000 Z0.200000 A14.653520 F720.000000
G1 X82.377000 Y90.365000 Z0.200000 A14.662520 F720.000000
G1 X82.377000 Y84.632000 Z0.200000 A14.760370 F720.000000
G1 X82.905000 Y84.632000 Z0.200000 A14.769380 F720.000000
G1 X82.905000 Y90.365000 Z0.200000 A14.867230 F720.000000
G1 X83.433000 Y90.365000 Z0.200000 A14.876230 F720.000000
G1 X83.433000 Y84.632000 Z0.200000 A14.974080 F720.000000
G1 X83.960000 Y84.632000 Z0.200000 A14.983090 F720.000000
G1 X83.960000 Y90.365000 Z0.200000 A15.080940 F720.000000
G1 X84.488000 Y90.365000 Z0.200000 A15.089940 F720.000000
G1 X84.488000 Y84.632000 Z0.200000 A15.187790 F720.000000
G1 X85.016000 Y84.632000 Z0.200000 A15.196800 F720.000000
G1 X85.016000 Y90.365000 Z0.200000 A15.294640 F720.000000
G1 X85.544000 Y90.365000 Z0.200000 A15.303650 F720.000000
G1 X85.544000 Y84.632000 Z0.200000 A15.401500 F720.000000
G1 X86.071000 Y84.632000 Z0.200000 A15.410510 F720.000000
G1 X86.071000 Y90.365000 Z0.200000 A15.508350 F720.000000
G1 X86.599000 Y90.365000 Z0.200000 A15.517360 F720.000000
G1 X86.599000 Y84.632000 Z0.200000 A15.615210 F720.000000
G1 X87.127000 Y84.632000 Z0.200000 A15.624220 F720.000000
G1 X87.127000 Y90.365000 Z0.200000 A15.722060 F720.000000
G1 X87.655000 Y90.365000 Z0.200000 A15.731070 F720.000000
G1 X87.655000 Y84.632000 Z0.200000 A15.828920 F720.000000
G1 X88.182000 Y84.632000 Z0.200000 A15.837920 F720.000000
G1 X88.182000 Y90.365000 Z0.200000 A15.935770 F720.000000
G1 X88.710000 Y90.365000 Z0.200000 A15.944780 F720.000000
G1 X88.710000 Y84.632000 Z0.200000 A16.042630 F720.000000
G1 X89.238000 Y84.632000 Z0.200000 A16.051630 F720.000000
G1 X89.238000 Y90.365000 Z0.200000 A16.149480 F720.000000
G1 X89.766000 Y90.365000 Z0.200000 A16.158490 F720.000000
G1 X89.766000 Y84.632000 Z0.200000 A16.256340 F720.000000
G0 X90.293 Y81.212 F7800.000
G1 X90.293000 Y93.814000 Z0.200000 A16.471420 F720.000000
G1 X90.821000 Y93.814000 Z0.200000 A16.480420 F720.000000
G1 X90.821000 Y81.212000 Z0.200000 A16.695500 F720.000000
G1 X91.349000 Y81.212000 Z0.200000 A16.704510 F720.000000
G1 X91.349000 Y93.814000 Z0.200000 A16.919590 F720.000000
G1 X91.876000 Y93.814000 Z0.200000 A16.928600 F720.000000
G1 X91.876000 Y81.212000 Z0.200000 A17.143680 F720.000000
G1 X92.404000 Y81.212000 Z0.200000 A17.152690 F720.000000
G1 X92.404000 Y93.814000 Z0.200000 A17.367770 F720.000000
G1 X92.932000 Y93.814000 Z0.200000 A17.376770 F720.000000
G1 X92.932000 Y81.212000 Z0.200000 A17.591850 F720.000000
G1 X93.460000 Y81.212000 Z0.200000 A17.600860 F720.000000
G1 X93.460000 Y93.814000 Z0.200000 A17.815940 F720.000000
G1 X93.987000 Y93.814000 Z0.200000 A17.824950 F720.000000
G1 X93.987000 Y81.212000 Z0.200000 A18.040030 F720.000000
G1 X94.515000 Y81.212000 Z0.200000 A18.049040 F720.000000
G1 X94.515000 Y93.814000 Z0.200000 A18.264120 F720.000000
G1 X95.043000 Y93.814000 Z0.200000 A18.273120 F720.000000
G1 X95.043000 Y81.212000 Z0.200000 A18.488200 F720.000000
G1 X95.571000 Y81.212000 Z0.200000 A18.497210 F720.000000
G1 X95.571000 Y93.814000 Z0.200000 A18.712290 F720.000000
G1 X96.098000 Y93.814000 Z0.200000 A18.721300 F720.000000
G1 X96.098000 Y81.212000 Z0.200000 A18.936380 F720.000000
G1 X96.626000 Y81.212000 Z0.200000 A18.945390 F720.000000
G1 X96.626000 Y93.814000 Z0.200000 A19.160470 F720.000000
G1 X97.154000 Y93.814000 Z0.200000 A19.169480 F720.000000
G1 X97.154000 Y81.212000 Z0.200000 A19.384560 F720.000000
G1 X97.682000 Y81.212000 Z0.200000 A19.393560 F720.000000
G1 X97.682000 Y93.814000 Z0.200000 A19.608640 F720.000000
G1 X98.209000 Y93.814000 Z0.200000 A19.617650 F720.000000
G1 X98.209000 Y81.212000 Z0.200000 A19.832730 F720.000000
G1 X98.737000 Y81.212000 Z0.200000 A19.841740 F720.000000
G1 X98.737000 Y93.814000 Z0.200000 A20.056820 F720.000000
G1 X99.265000 Y93.814000 Z0.200000 A20.065830 F720.000000
G1 X99.265000 Y81.212000 Z0.200000 A20.280910 F720.000000
G1 X99.792000 Y81.212000 Z0.200000 A20.289910 F720.000000
G1 X99.792000 Y93.814000 Z0.200000 A20.504990 F720.000000
G1 X100.320000 Y93.814000 Z0.200000 A20.514000 F720.000000
G1 X100.320000 Y81.212000 Z0.200000 A20.729080 F720.000000
G1 X100.848000 Y81.212000 Z0.200000 A20.738090 F720.000000
G1 X100.848000 Y93.814000 Z0.200000 A20.953170 F720.000000
G1 X101.376000 Y93.814000 Z0.200000 A20.962180 F720.000000
G1 X101.376000 Y81.212000 Z0.200000 A21.177260 F720.000000
G1 X101.903000 Y81.212000 Z0.200000 A21.186260 F720.000000
G1 X101.903000 Y93.814000 Z0.200000 A21.401350 F720.000000
G0 X102.431 Y105.814 F7800.000
G1 X102.431000 Y81.212000 Z0.200000 A21.821240 F720.000000
G1 X102.959000 Y81.212000 Z0.200000 A21.830250 F720.000000
G1 X102.959000 Y105.814000 Z0.200000 A22.250140 F720.000000
G1 X103.487000 Y105.814000 Z0.200000 A22.259150 F720.000000
G1 X103.487000 Y81.212000 Z0.200000 A22.679040 F720.000000
G1 X104.014000 Y81.212000 Z0.200000 A22.688050 F720.000000
G1 X104.014000 Y105.814000 Z0.200000 A23.107940 F720.000000
G1 X104.542000 Y105.814000 Z0.200000 A23.116950 F720.000000
G1 X104.542000 Y81.212000 Z0.200000 A23.536840 F720.000000
G1 X105.070000 Y81.212000 Z0.200000 A23.545850 F720.000000
G1 X105.070000 Y105.814000 Z0.200000 A23.965740 F720.000000
G1 X105.598000 Y105.814000 Z0.200000 A23.974750 F720.000000
G1 X105.598000 Y81.212000 Z0.200000 A24.394640 F720.000000
G1 X106.125000 Y81.212000 Z0.200000 A24.403650 F720.000000
G1 X106.125000 Y135.788000 Z0.200000 A25.335130 F720.000000
G1 X106.653000 Y135.788000 Z0.200000 A25.344140 F720.000000
G1 X106.653000 Y81.212000 Z0.200000 A26.275610 F720.000000
G1 X107.181000 Y81.212000 Z0.200000 A26.284620 F720.000000
G1 X107.181000 Y135.788000 Z0.200000 A27.216100 F720.000000
G1 X107.708000 Y135.788000 Z0.200000 A27.225100 F720.000000
G1 X107.708000 Y81.212000 Z0.200000 A28.156580 F720.000000
G1 X108.236000 Y81.212000 Z0.200000 A28.165590 F720.000000
G1 X108.236000 Y135.788000 Z0.200000 A29.097060 F720.000000
G1 X108.764000 Y135.788000 Z0.200000 A29.106070 F720.000000
G1 X108.764000 Y81.212000 Z0.200000 A30.037550 F720.000000
G1 X109.292000 Y81.212000 Z0.200000 A30.046550 F720.000000
G1 X109.292000 Y135.788000 Z0.200000 A30.978030 F720.000000
G1 X109.819000 Y135.788000 Z0.200000 A30.987040 F720.000000
G1 X109.819000 Y81.212000 Z0.200000 A31.918510 F720.000000
G1 X110.347000 Y81.212000 Z0.200000 A31.927520 F720.000000
G1 X110.347000 Y135.788000 Z0.200000 A32.859000 F720.000000
G1 X110.875000 Y135.788000 Z0.200000 A32.868000 F720.000000
G1 X110.875000 Y81.212000 Z0.200000 A33.799480 F720.000000
G1 X111.403000 Y81.212000 Z0.200000 A33.808490 F720.000000
G1 X111.403000 Y105.814000 Z0.200000 A34.228380 F720.000000
G1 X111.930000 Y105.814000 Z0.200000 A34.237390 F720.000000
G1 X111.930000 Y81.212000 Z0.200000 A34.657280 F720.000000
G1 X112.458000 Y81.212000 Z0.200000 A34.666290 F720.000000
G1 X112.458000 Y105.814000 Z0.200000 A35.086180 F720.000000
G1 X112.986000 Y105.814000 Z0.200000 A35.095190 F720.000000
G1 X112.986000 Y81.212000 Z0.200000 A35.515080 F720.000000
G1 X113.514000 Y81.212000 Z0.200000 A35.524090 F720.000000
G1 X113.514000 Y105.814000 Z0.200000 A35.943980 F720.000000
G1 X114.041000 Y105.814000 Z0.200000 A35.952990 F720.000000
G1 X114.041000 Y81.212000 Z0.200000 A36.372890 F720.000000
G1 X114.569000 Y81.212000 Z0.200000 A36.381890 F720.000000
G1 X114.569000 Y105.814000 Z0.200000 A36.801790 F720.000000
G0 X115.097 Y93.814 F7800.000
G1 X115.097000 Y81.212000 Z0.200000 A37.016870 F720.000000
G1 X115.624000 Y81.212000 Z0.200000 A37.025870 F720.000000
G1 X115.624000 Y93.814000 Z0.200000 A37.240950 F720.000000
G1 X116.152000 Y93.814000 Z0.200000 A37.249960 F720.000000
G1 X116.152000 Y81.212000 Z0.200000 A37.465040 F720.000000
G1 X116.680000 Y81.212000 Z0.200000 A37.474050 F720.000000
G1 X116.680000 Y93.814000 Z0.200000 A37.689130 F720.000000
G1 X117.208000 Y93.814000 Z0.200000 A37.698140 F720.000000
