; generated by Slic3r 0.9.8 on 2013-04-05 at 20:37:05

; layer_height = 0.3
; perimeters = 3
; top_solid_layers = 3
; bottom_solid_layers = 3
; fill_density = 0.25
; perimeter_speed = 30
; infill_speed = 40
; travel_speed = 130
; scale = 1
; nozzle_diameter = 0.4
; filament_diameter = 2.95
; extrusion_multiplier = 1.105263
; perimeters extrusion width = 0.42mm
; infill extrusion width = 0.42mm
; first layer extrusion width = 0.42mm

M190 P115 ; wait for bed temperature to be reached
M104 P235 ; set temperature
G92 A0                  ; Reset A to 0
G40                        ; Cancel cutter compensation
G64 P0.1                ; Path Blend within .1mm
G0 X108.5 Y108.5  ; Move to center
M109 P235 ; wait for temperature to be reached
G90 ; use absolute coordinates
G21 ; set units to millimeters
G0 Z0.400 F5400.000 A-1.00000
G0 X100.080 Y133.570 F7800.000
G0 F5400.000 A0.00000
G1 X99.520000 Y133.480000 Z0.400000 A0.015250 F540.000000
G3 X96.290000 Y131.820000 Z0.400000 A0.114020 I1.4224 J-6.7400
G1 X85.170000 Y120.700000 Z0.400000 A0.536890
G3 X83.370000 Y116.350000 Z0.400000 A0.666000 I5.0693 J-4.6451
G1 X83.370000 Y100.640000 Z0.400000 A1.088430
G3 X85.170000 Y96.290000 Z0.400000 A1.217560 I6.8515 J0.2877
G1 X96.290000 Y85.170000 Z0.400000 A1.640420
G3 X100.640000 Y83.370000 Z0.400000 A1.769530 I4.6451 J5.0693
G1 X116.350000 Y83.370000 Z0.400000 A2.191960
G3 X120.700000 Y85.170000 Z0.400000 A2.321100 I-0.2964 J6.8725
G1 X131.820000 Y96.290000 Z0.400000 A2.743960
G3 X133.620000 Y100.640000 Z0.400000 A2.873070 I-5.0693 J4.6451
G1 X133.620000 Y116.350000 Z0.400000 A3.295500
G3 X131.820000 Y120.700000 Z0.400000 A3.424630 I-6.8515 J-0.2877
G1 X120.700000 Y131.820000 Z0.400000 A3.847490
G3 X116.350000 Y133.620000 Z0.400000 A3.976610 I-4.6451 J-5.0693
G1 X100.640000 Y133.620000 Z0.400000 A4.399040
G3 X100.080000 Y133.570000 Z0.400000 A4.414150 I0.6705 J-10.6708
G0 X100.080 Y133.150 F7800.000
G1 X99.530000 Y133.050000 Z0.400000 A4.429190 F540.000000
G3 X96.380000 Y131.330000 Z0.400000 A4.526990 I1.2998 J-6.1249
G1 X85.660000 Y120.610000 Z0.400000 A4.934640
G3 X83.780000 Y116.070000 Z0.400000 A5.070130 I4.5434 J-4.5407
G1 X83.780000 Y100.920000 Z0.400000 A5.477500
G3 X85.660000 Y96.380000 Z0.400000 A5.613000 I6.4234 J0.0007
G1 X96.380000 Y85.660000 Z0.400000 A6.020650
G3 X100.920000 Y83.780000 Z0.400000 A6.156140 I4.5407 J4.5434
G1 X116.070000 Y83.780000 Z0.400000 A6.563510
G3 X120.610000 Y85.660000 Z0.400000 A6.699000 I-0.0007 J6.4234
G1 X131.330000 Y96.380000 Z0.400000 A7.106650
G3 X133.210000 Y100.920000 Z0.400000 A7.242140 I-4.5434 J4.5407
G1 X133.210000 Y116.070000 Z0.400000 A7.649510
G3 X131.330000 Y120.610000 Z0.400000 A7.785010 I-6.4234 J-0.0007
G1 X120.610000 Y131.330000 Z0.400000 A8.192660
G3 X116.070000 Y133.210000 Z0.400000 A8.328140 I-4.5407 J-4.5434
G1 X100.920000 Y133.210000 Z0.400000 A8.735520
G3 X100.080000 Y133.150000 Z0.400000 A8.758160 I0.2551 J-9.4814
G0 Z0.900 F1620.000 A7.75816
G0 X125.959 Y115.732 F7800.000
G0 Z0.400
G0 F5400.000 A8.75816
G1 X115.732000 Y125.959000 Z0.400000 A9.147070 F540.000000
G1 X101.268000 Y125.959000 Z0.400000 A9.535970
G1 X91.041000 Y115.732000 Z0.400000 A9.924880
G1 X91.041000 Y101.268000 Z0.400000 A10.313780
G1 X101.268000 Y91.041000 Z0.400000 A10.702690
G1 X115.732000 Y91.041000 Z0.400000 A11.091590
G1 X125.959000 Y101.268000 Z0.400000 A11.480500
G1 X125.959000 Y115.732000 Z0.400000 A11.869400
G0 X126.374 Y115.904 F7800.000
G1 X115.904000 Y126.374000 Z0.400000 A12.267570 F540.000000
G1 X101.096000 Y126.374000 Z0.400000 A12.665730
G1 X90.626000 Y115.904000 Z0.400000 A13.063900
G1 X90.626000 Y101.096000 Z0.400000 A13.462060
G1 X101.096000 Y90.626000 Z0.400000 A13.860230
G1 X115.904000 Y90.626000 Z0.400000 A14.258390
G1 X126.374000 Y101.096000 Z0.400000 A14.656560
G1 X126.374000 Y115.904000 Z0.400000 A15.054720
G0 X126.790 Y116.076 F7800.000
G1 X116.076000 Y126.790000 Z0.400000 A15.462150 F378.000000
G1 X100.924000 Y126.790000 Z0.400000 A15.869580
G1 X90.210000 Y116.076000 Z0.400000 A16.277000
G1 X90.210000 Y100.924000 Z0.400000 A16.684430
G1 X100.924000 Y90.210000 Z0.400000 A17.091850
G1 X116.076000 Y90.210000 Z0.400000 A17.499280
G1 X126.790000 Y100.924000 Z0.400000 A17.906700
G1 X126.790000 Y116.076000 Z0.400000 A18.314130
G0 X126.374 Y116.076 F7800.000
G0 X125.543 Y115.747
G1 X125.543000 Y101.253000 Z0.400000 A18.708620 F720.000000
G1 X125.122000 Y100.833000 Z0.400000 A18.724820
G1 X125.122000 Y116.167000 Z0.400000 A19.142230
G1 X124.701000 Y116.588000 Z0.400000 A19.158430
G1 X124.701000 Y100.412000 Z0.400000 A19.598740
G1 X124.280000 Y99.991000 Z0.400000 A19.614940
G1 X124.280000 Y117.009000 Z0.400000 A20.078160
G1 X123.860000 Y117.430000 Z0.400000 A20.094360
G1 X123.860000 Y99.570000 Z0.400000 A20.580490
G1 X123.439000 Y99.149000 Z0.400000 A20.596690
G1 X123.439000 Y117.851000 Z0.400000 A21.105720
G1 X123.018000 Y118.271000 Z0.400000 A21.121920
G1 X123.018000 Y98.729000 Z0.400000 A21.653870
G1 X122.597000 Y98.308000 Z0.400000 A21.670060
G1 X122.597000 Y118.692000 Z0.400000 A22.224920
G1 X122.177000 Y119.113000 Z0.400000 A22.241120
G1 X122.177000 Y97.887000 Z0.400000 A22.818880
G1 X121.756000 Y97.466000 Z0.400000 A22.835080
G1 X121.756000 Y119.534000 Z0.400000 A23.435760
G1 X121.335000 Y119.955000 Z0.400000 A23.451960
G1 X121.335000 Y97.045000 Z0.400000 A24.075540
G1 X120.914000 Y96.625000 Z0.400000 A24.091740
G1 X120.914000 Y120.375000 Z0.400000 A24.738230
G1 X120.493000 Y120.796000 Z0.400000 A24.754420
G1 X120.493000 Y96.204000 Z0.400000 A25.423820
G1 X120.072000 Y95.783000 Z0.400000 A25.440020
G1 X120.072000 Y121.217000 Z0.400000 A26.132330
G1 X119.652000 Y121.638000 Z0.400000 A26.148530
G1 X119.652000 Y95.362000 Z0.400000 A26.863740
G1 X119.231000 Y94.941000 Z0.400000 A26.879940
G1 X119.231000 Y122.059000 Z0.400000 A27.618070
G1 X118.810000 Y122.480000 Z0.400000 A27.634260
G1 X118.810000 Y94.520000 Z0.400000 A28.395300
G1 X118.389000 Y94.100000 Z0.400000 A28.411500
G1 X118.389000 Y122.900000 Z0.400000 A29.195440
G1 X117.968000 Y123.321000 Z0.400000 A29.211640
G1 X117.968000 Y93.679000 Z0.400000 A30.018490
G1 X117.548000 Y93.258000 Z0.400000 A30.034690
G1 X117.548000 Y123.742000 Z0.400000 A30.864450
G1 X117.127000 Y124.163000 Z0.400000 A30.880650
G1 X117.127000 Y92.837000 Z0.400000 A31.733310
G1 X116.706000 Y92.416000 Z0.400000 A31.749510
G1 X116.706000 Y124.584000 Z0.400000 A32.625090
G1 X116.285000 Y125.004000 Z0.400000 A32.641290
G1 X116.285000 Y91.996000 Z0.400000 A33.539770
G1 X115.864000 Y91.575000 Z0.400000 A33.555970
G1 X115.864000 Y125.425000 Z0.400000 A34.477370
G1 X115.444000 Y125.730000 Z0.400000 A34.491510
G1 X115.444000 Y91.270000 Z0.400000 A35.429490
G1 X115.023000 Y91.270000 Z0.400000 A35.440950
G1 X115.023000 Y125.730000 Z0.400000 A36.378930
G1 X114.602000 Y125.730000 Z0.400000 A36.390380
G1 X114.602000 Y91.270000 Z0.400000 A37.328370
G1 X114.181000 Y91.270000 Z0.400000 A37.339820
G1 X114.181000 Y125.730000 Z0.400000 A38.277810
G1 X113.760000 Y125.730000 Z0.400000 A38.289260
G1 X113.760000 Y91.270000 Z0.400000 A39.227240
G1 X113.339000 Y91.270000 Z0.400000 A39.238700
G1 X113.339000 Y125.730000 Z0.400000 A40.176680
G1 X112.919000 Y125.730000 Z0.400000 A40.188130
G1 X112.919000 Y91.270000 Z0.400000 A41.126120
G1 X112.498000 Y91.270000 Z0.400000 A41.137570
G1 X112.498000 Y125.730000 Z0.400000 A42.075560
G1 X112.077000 Y125.730000 Z0.400000 A42.087010
G1 X112.077000 Y91.270000 Z0.400000 A43.025000
G1 X111.656000 Y91.270000 Z0.400000 A43.036450
G1 X111.656000 Y125.730000 Z0.400000 A43.974430
G1 X111.235000 Y125.730000 Z0.400000 A43.985890
G1 X111.235000 Y91.270000 Z0.400000 A44.923870
G1 X110.815000 Y91.270000 Z0.400000 A44.935330
G1 X110.815000 Y125.730000 Z0.400000 A45.873310
G1 X110.394000 Y125.730000 Z0.400000 A45.884760
G1 X110.394000 Y91.270000 Z0.400000 A46.822750
G1 X109.973000 Y91.270000 Z0.400000 A46.834200
G1 X109.973000 Y125.730000 Z0.400000 A47.772180
G1 X109.552000 Y125.730000 Z0.400000 A47.783640
G1 X109.552000 Y91.270000 Z0.400000 A48.721620
G1 X109.131000 Y91.270000 Z0.400000 A48.733080
G1 X109.131000 Y125.730000 Z0.400000 A49.671060
G1 X108.710000 Y125.730000 Z0.400000 A49.682520
G1 X108.710000 Y91.270000 Z0.400000 A50.620500
G1 X108.290000 Y91.270000 Z0.400000 A50.631950
G1 X108.290000 Y125.730000 Z0.400000 A51.569940
G1 X107.869000 Y125.730000 Z0.400000 A51.581390
G1 X107.869000 Y91.270000 Z0.400000 A52.519370
G1 X107.448000 Y91.270000 Z0.400000 A52.530830
G1 X107.448000 Y125.730000 Z0.400000 A53.468810
G1 X107.027000 Y125.730000 Z0.400000 A53.480270
G1 X107.027000 Y91.270000 Z0.400000 A54.418250
G1 X106.606000 Y91.270000 Z0.400000 A54.429700
G1 X106.606000 Y125.730000 Z0.400000 A55.367690
G1 X106.186000 Y125.730000 Z0.400000 A55.379140
G1 X106.186000 Y91.270000 Z0.400000 A56.317130
G1 X105.765000 Y91.270000 Z0.400000 A56.328580
G1 X105.765000 Y125.730000 Z0.400000 A57.266560
G1 X105.344000 Y125.730000 Z0.400000 A57.278020
G1 X105.344000 Y91.270000 Z0.400000 A58.216000
G1 X104.923000 Y91.270000 Z0.400000 A58.227460
G1 X104.923000 Y125.730000 Z0.400000 A59.165440
G1 X104.502000 Y125.730000 Z0.400000 A59.176890
G1 X104.502000 Y91.270000 Z0.400000 A60.114880
G1 X104.082000 Y91.270000 Z0.400000 A60.126330
G1 X104.082000 Y125.730000 Z0.400000 A61.064320
G1 X103.661000 Y125.730000 Z0.400000 A61.075770
G1 X103.661000 Y91.270000 Z0.400000 A62.013750
G1 X103.240000 Y91.270000 Z0.400000 A62.025210
G1 X103.240000 Y125.730000 Z0.400000 A62.963190
G1 X102.819000 Y125.730000 Z0.400000 A62.974640
G1 X102.819000 Y91.270000 Z0.400000 A63.912630
G1 X102.398000 Y91.270000 Z0.400000 A63.924090
G1 X102.398000 Y125.730000 Z0.400000 A64.862070
G1 X101.977000 Y125.730000 Z0.400000 A64.873520
G1 X101.977000 Y91.270000 Z0.400000 A65.811510
G1 X101.557000 Y91.270000 Z0.400000 A65.822960
G1 X101.557000 Y125.730000 Z0.400000 A66.760940
G1 X101.136000 Y125.425000 Z0.400000 A66.775090
G1 X101.136000 Y91.575000 Z0.400000 A67.696480
G1 X100.715000 Y91.996000 Z0.400000 A67.712680
G1 X100.715000 Y125.004000 Z0.400000 A68.611170
G1 X100.294000 Y124.584000 Z0.400000 A68.627370
G1 X100.294000 Y92.416000 Z0.400000 A69.502950
G1 X99.873000 Y92.837000 Z0.400000 A69.519150
G1 X99.873000 Y124.163000 Z0.400000 A70.371820
G1 X99.453000 Y123.742000 Z0.400000 A70.388020
G1 X99.453000 Y93.258000 Z0.400000 A71.217780
G1 X99.032000 Y93.679000 Z0.400000 A71.233980
G1 X99.032000 Y123.321000 Z0.400000 A72.040840
G1 X98.611000 Y122.900000 Z0.400000 A72.057040
G1 X98.611000 Y94.100000 Z0.400000 A72.840980
G1 X98.190000 Y94.520000 Z0.400000 A72.857180
G1 X98.190000 Y122.480000 Z0.400000 A73.618220
G1 X97.769000 Y122.059000 Z0.400000 A73.634420
G1 X97.769000 Y94.941000 Z0.400000 A74.372550
G1 X97.348000 Y95.362000 Z0.400000 A74.388750
G1 X97.348000 Y121.638000 Z0.400000 A75.103970
G1 X96.928000 Y121.217000 Z0.400000 A75.120160
G1 X96.928000 Y95.783000 Z0.400000 A75.812480
G1 X96.507000 Y96.204000 Z0.400000 A75.828670
G1 X96.507000 Y120.796000 Z0.400000 A76.498080
G1 X96.086000 Y120.376000 Z0.400000 A76.514280
G1 X96.086000 Y96.624000 Z0.400000 A77.160770
G1 X95.665000 Y97.045000 Z0.400000 A77.176970
G1 X95.665000 Y119.955000 Z0.400000 A77.800560
G1 X95.244000 Y119.534000 Z0.400000 A77.816760
G1 X95.244000 Y97.466000 Z0.400000 A78.417430
G1 X94.824000 Y97.887000 Z0.400000 A78.433630
G1 X94.824000 Y119.113000 Z0.400000 A79.011400
G1 X94.403000 Y118.692000 Z0.400000 A79.027600
G1 X94.403000 Y98.308000 Z0.400000 A79.582460
G1 X93.982000 Y98.729000 Z0.400000 A79.598660
G1 X93.982000 Y118.271000 Z0.400000 A80.130610
G1 X93.561000 Y117.851000 Z0.400000 A80.146800
G1 X93.561000 Y99.149000 Z0.400000 A80.655850
G1 X93.140000 Y99.570000 Z0.400000 A80.672050
G1 X93.140000 Y117.430000 Z0.400000 A81.158180
G1 X92.720000 Y117.009000 Z0.400000 A81.174380
G1 X92.720000 Y99.991000 Z0.400000 A81.637600
G1 X92.299000 Y100.412000 Z0.400000 A81.653800
G1 X92.299000 Y116.588000 Z0.400000 A82.094120
G1 X91.878000 Y116.167000 Z0.400000 A82.110320
G1 X91.878000 Y100.833000 Z0.400000 A82.527730
G1 X91.457000 Y101.253000 Z0.400000 A82.543930
G1 X91.457000 Y115.747000 Z0.400000 A82.938430
M104 P230 ; set temperature
M140 P110 ; set bed temperature
G0 Z0.700 F5400.000 A81.93843
G0 X83.370 Y116.350 F7800.000
G0 F5400.000 A82.93843
G1 X83.370000 Y100.640000 Z0.700000 A83.255250 F1800.000000
G3 X85.170000 Y96.290000 Z0.700000 A83.352080 I6.8693 J0.2951
G1 X96.290000 Y85.170000 Z0.700000 A83.669230
G3 X100.640000 Y83.370000 Z0.700000 A83.766080 I4.6444 J5.0678
G1 X116.350000 Y83.370000 Z0.700000 A84.082900
G3 X120.700000 Y85.170000 Z0.700000 A84.179730 I-0.2951 J6.8693
G1 X131.820000 Y96.290000 Z0.700000 A84.496880
G3 X133.620000 Y100.640000 Z0.700000 A84.593730 I-5.0725 J4.6464
G1 X133.620000 Y116.350000 Z0.700000 A84.910550
G3 X131.820000 Y120.700000 Z0.700000 A85.007390 I-6.8693 J-0.2951
G1 X120.700000 Y131.820000 Z0.700000 A85.324540
G3 X116.350000 Y133.620000 Z0.700000 A85.421380 I-4.6444 J-5.0678
G1 X100.640000 Y133.620000 Z0.700000 A85.738200
G3 X96.290000 Y131.820000 Z0.700000 A85.835040 I0.2951 J-6.8693
G1 X85.170000 Y120.700000 Z0.700000 A86.152190
G3 X83.370000 Y116.350000 Z0.700000 A86.249040 I5.0725 J-4.6464
G0 X83.790 Y116.350 F7800.000
G1 X83.780000 Y100.920000 Z0.700000 A86.560220 F1800.000000
G3 X85.660000 Y96.380000 Z0.700000 A86.661840 I6.4234 J0.0007
G1 X96.380000 Y85.660000 Z0.700000 A86.967580
G3 X100.920000 Y83.780000 Z0.700000 A87.069200 I4.5407 J4.5434
G1 X116.070000 Y83.780000 Z0.700000 A87.374730
G3 X120.610000 Y85.660000 Z0.700000 A87.476330 I-0.0007 J6.4234
G1 X131.330000 Y96.380000 Z0.700000 A87.782070
G3 X133.200000 Y100.640000 Z0.700000 A87.878030 I-4.5180 J4.5237
G1 X133.210000 Y116.070000 Z0.700000 A88.189210
G3 X131.330000 Y120.610000 Z0.700000 A88.290820 I-6.4234 J-0.0007
G1 X120.610000 Y131.330000 Z0.700000 A88.596560
G3 X116.070000 Y133.210000 Z0.700000 A88.698180 I-4.5407 J-4.5434
G1 X100.920000 Y133.210000 Z0.700000 A89.003710
G3 X96.380000 Y131.330000 Z0.700000 A89.105320 I0.0007 J-6.4234
G1 X85.660000 Y120.610000 Z0.700000 A89.411060
G3 X83.790000 Y116.350000 Z0.700000 A89.507020 I4.5180 J-4.5237
G0 Z1.200 F5400.000 A88.50702
G0 X125.950 Y115.728 F7800.000
G0 Z0.700
G0 F5400.000 A89.50702
G1 X115.728000 Y125.950000 Z0.700000 A89.800780 F1800.000000
G1 X101.272000 Y125.950000 Z0.700000 A90.094540
G1 X91.050000 Y115.728000 Z0.700000 A90.388310
G1 X91.050000 Y101.272000 Z0.700000 A90.682070
G1 X101.272000 Y91.050000 Z0.700000 A90.975830
G1 X115.728000 Y91.050000 Z0.700000 A91.269600
G1 X125.950000 Y101.272000 Z0.700000 A91.563360
G1 X125.950000 Y115.728000 Z0.700000 A91.857120
G0 X126.369 Y115.902 F7800.000
G1 X115.902000 Y126.369000 Z0.700000 A92.157940 F1800.000000
G1 X101.098000 Y126.369000 Z0.700000 A92.458750
G1 X90.631000 Y115.902000 Z0.700000 A92.759560
G1 X90.631000 Y101.098000 Z0.700000 A93.060380
G1 X101.098000 Y90.631000 Z0.700000 A93.361190
G1 X115.902000 Y90.631000 Z0.700000 A93.662010
G1 X126.369000 Y101.098000 Z0.700000 A93.962820
G1 X126.369000 Y115.902000 Z0.700000 A94.263640
G0 X126.788 Y116.075 F7800.000
G1 X116.075000 Y126.788000 Z0.700000 A94.571500 F1260.000000
G1 X100.925000 Y126.788000 Z0.700000 A94.879370
G1 X90.212000 Y116.075000 Z0.700000 A95.187230
G1 X90.212000 Y100.925000 Z0.700000 A95.495100
G1 X100.925000 Y90.212000 Z0.700000 A95.802970
G1 X116.075000 Y90.212000 Z0.700000 A96.110830
G1 X126.788000 Y100.925000 Z0.700000 A96.418700
G1 X126.788000 Y116.075000 Z0.700000 A96.726560
G0 X126.369 Y116.075 F7800.000
G0 Z1.200 F5400.000 A95.72656
G0 X115.743 Y125.531 F7800.000
G0 Z0.700
G0 F5400.000 A96.72656
G1 X101.257000 Y125.531000 Z0.700000 A97.022100 F2400.000000
G1 X100.836000 Y125.111000 Z0.700000 A97.034240
G1 X116.164000 Y125.111000 Z0.700000 A97.346930
G1 X116.584000 Y124.690000 Z0.700000 A97.359060
