; generated by Slic3r 0.9.9 on 2013-08-03 at 19:26:28

; layer_height = 0.4
; perimeters = 4
; top_solid_layers = 3
; bottom_solid_layers = 3
; fill_density = 0.25
; perimeter_speed = 20
; infill_speed = 40
; travel_speed = 130
; nozzle_diameter = 0.4
; filament_diameter = 2.95
; extrusion_multiplier = 1.105263
; perimeters extrusion width = 0.42mm
; infill extrusion width = 0.42mm
; solid infill extrusion width = 0.42mm
; top infill extrusion width = 0.42mm

G21 ; set units to millimeters
M190 P115 ; wait for bed temperature to be reached
M104 P210 ; set temperature
G92 A0                  ; Reset A to 0
G40                        ; Cancel cutter compensation
G64 P0.1                ; Path Blend within .1mm
G0 X108.5 Y200    ; Move to plate
M109 P210 ; wait for temperature to be reached
G90 ; use absolute coordinates
G0 Z0.200 F5400.000 A-2.00000
o<wipe_nozzle> call
G0 X84.970 Y96.200 F7800.000
G0 F5400.000 A0.00000
G1 X96.200000 Y84.970000 Z0.200000 A0.213520 F360.000000
G3 X100.550000 Y83.170000 Z0.200000 A0.278090 I4.6444 J5.0678
G1 X116.440000 Y83.170000 Z0.200000 A0.491730
G3 X120.990000 Y85.170000 Z0.200000 A0.560080 I-0.2816 J6.8163
G1 X131.830000 Y96.000000 Z0.200000 A0.766090
G3 X133.830000 Y100.550000 Z0.200000 A0.834460 I-4.7713 J4.8118
G1 X133.830000 Y116.440000 Z0.200000 A1.048100
G3 X132.030000 Y120.790000 Z0.200000 A1.112650 I-6.8693 J-0.2951
G1 X120.790000 Y132.030000 Z0.200000 A1.326370
G3 X116.440000 Y133.830000 Z0.200000 A1.390940 I-4.6464 J-5.0725
G1 X100.550000 Y133.830000 Z0.200000 A1.604570
G3 X96.000000 Y131.830000 Z0.200000 A1.672940 I0.2618 J-6.7713
G1 X85.170000 Y120.990000 Z0.200000 A1.878960
G3 X83.170000 Y116.440000 Z0.200000 A1.947320 I4.7984 J-4.8237
G1 X83.170000 Y100.550000 Z0.200000 A2.160950
G3 X84.929000 Y96.247000 Z0.200000 A2.224680 I6.8442 J0.2868
G0 X85.270 Y96.500 F7800.000
G1 X85.460000 Y96.290000 Z0.200000 A2.228490 F360.000000
G1 X96.290000 Y85.460000 Z0.200000 A2.434410
G1 X96.920000 Y84.910000 Z0.200000 A2.445650
G3 X100.830000 Y83.580000 Z0.200000 A2.502150 I3.9063 J5.0715
G1 X116.160000 Y83.580000 Z0.200000 A2.708260
G3 X120.690000 Y85.460000 Z0.200000 A2.775890 I0.0106 J6.3721
G1 X131.730000 Y96.490000 Z0.200000 A2.985710
G3 X133.420000 Y100.830000 Z0.200000 A3.049750 I-4.7208 J4.3373
G1 X133.420000 Y116.160000 Z0.200000 A3.255850
G3 X131.540000 Y120.700000 Z0.200000 A3.323600 I-6.4234 J-0.0007
G1 X120.700000 Y131.540000 Z0.200000 A3.529710
G3 X116.160000 Y133.420000 Z0.200000 A3.597450 I-4.5407 J-4.5434
G1 X100.830000 Y133.420000 Z0.200000 A3.803560
G3 X96.490000 Y131.730000 Z0.200000 A3.867590 I-0.0010 J-6.4151
G1 X85.460000 Y120.690000 Z0.200000 A4.077410
G3 X83.580000 Y116.160000 Z0.200000 A4.145060 I4.4430 J-4.4990
G1 X83.590000 Y100.550000 Z0.200000 A4.354930
G3 X85.229000 Y96.547000 Z0.200000 A4.414260 I6.3098 J0.2465
G0 Z0.700 F1620.000 A2.41426
G0 X91.756 Y115.436 F7800.000
G0 Z0.200
G0 F5400.000 A4.41426
G1 X91.756000 Y101.564000 Z0.200000 A4.602040 F720.000000
G1 X92.175000 Y101.146000 Z0.200000 A4.610060
G1 X92.175000 Y115.854000 Z0.200000 A4.809180
G1 X92.594000 Y116.273000 Z0.200000 A4.817190
G1 X92.594000 Y100.727000 Z0.200000 A5.027650
G1 X93.012000 Y100.309000 Z0.200000 A5.035660
G1 X93.012000 Y116.691000 Z0.200000 A5.257450
G1 X93.431000 Y117.110000 Z0.200000 A5.265470
G1 X93.431000 Y99.890000 Z0.200000 A5.498590
G1 X93.849000 Y99.471000 Z0.200000 A5.506600
G1 X93.849000 Y117.529000 Z0.200000 A5.751060
G1 X94.268000 Y117.947000 Z0.200000 A5.759070
G1 X94.268000 Y99.053000 Z0.200000 A6.014860
G1 X94.686000 Y98.634000 Z0.200000 A6.022880
G1 X94.686000 Y118.366000 Z0.200000 A6.290000
G1 X95.105000 Y118.784000 Z0.200000 A6.298020
G1 X95.105000 Y98.216000 Z0.200000 A6.576470
G1 X95.524000 Y97.797000 Z0.200000 A6.584490
G1 X95.524000 Y119.203000 Z0.200000 A6.874280
G1 X95.942000 Y119.622000 Z0.200000 A6.882290
G1 X95.942000 Y97.378000 Z0.200000 A7.183420
G1 X96.361000 Y96.960000 Z0.200000 A7.191430
G1 X96.361000 Y120.040000 Z0.200000 A7.503890
G1 X96.779000 Y120.459000 Z0.200000 A7.511910
G1 X96.779000 Y96.541000 Z0.200000 A7.835700
G1 X97.198000 Y96.123000 Z0.200000 A7.843710
G1 X97.198000 Y120.877000 Z0.200000 A8.178840
G1 X97.617000 Y121.296000 Z0.200000 A8.186850
G1 X97.617000 Y95.704000 Z0.200000 A8.533310
G1 X98.035000 Y95.286000 Z0.200000 A8.541330
G1 X98.035000 Y121.714000 Z0.200000 A8.899120
G1 X98.454000 Y122.133000 Z0.200000 A8.907140
G1 X98.454000 Y94.867000 Z0.200000 A9.276260
G1 X98.872000 Y94.448000 Z0.200000 A9.284280
G1 X98.872000 Y122.552000 Z0.200000 A9.664740
G1 X99.291000 Y122.970000 Z0.200000 A9.672750
G1 X99.291000 Y94.030000 Z0.200000 A10.064550
G1 X99.710000 Y93.611000 Z0.200000 A10.072560
G1 X99.710000 Y123.389000 Z0.200000 A10.475690
G1 X100.128000 Y123.807000 Z0.200000 A10.483710
G1 X100.128000 Y93.193000 Z0.200000 A10.898170
G1 X100.547000 Y92.774000 Z0.200000 A10.906180
G1 X100.547000 Y124.226000 Z0.200000 A11.331980
G1 X100.965000 Y124.645000 Z0.200000 A11.339990
G1 X100.965000 Y92.355000 Z0.200000 A11.777120
G1 X101.384000 Y91.937000 Z0.200000 A11.785140
G1 X101.384000 Y125.063000 Z0.200000 A12.233600
G1 X101.803000 Y125.244000 Z0.200000 A12.239770
G1 X101.803000 Y91.756000 Z0.200000 A12.693120
G1 X102.221000 Y91.756000 Z0.200000 A12.698790
G1 X102.221000 Y125.244000 Z0.200000 A13.152140
G1 X102.640000 Y125.244000 Z0.200000 A13.157810
G1 X102.640000 Y91.756000 Z0.200000 A13.611160
G1 X103.058000 Y91.756000 Z0.200000 A13.616820
G1 X103.058000 Y125.244000 Z0.200000 A14.070170
G1 X103.477000 Y125.244000 Z0.200000 A14.075840
G1 X103.477000 Y91.756000 Z0.200000 A14.529190
G1 X103.896000 Y91.756000 Z0.200000 A14.534860
G1 X103.896000 Y125.244000 Z0.200000 A14.988210
G1 X104.314000 Y125.244000 Z0.200000 A14.993870
G1 X104.314000 Y91.756000 Z0.200000 A15.447220
G1 X104.733000 Y91.756000 Z0.200000 A15.452890
G1 X104.733000 Y125.244000 Z0.200000 A15.906240
G1 X105.151000 Y125.244000 Z0.200000 A15.911910
G1 X105.151000 Y91.756000 Z0.200000 A16.365260
G1 X105.570000 Y91.756000 Z0.200000 A16.370920
G1 X105.570000 Y125.244000 Z0.200000 A16.824270
G1 X105.988000 Y125.244000 Z0.200000 A16.829940
G1 X105.988000 Y91.756000 Z0.200000 A17.283290
G1 X106.407000 Y91.756000 Z0.200000 A17.288960
G1 X106.407000 Y125.244000 Z0.200000 A17.742310
G1 X106.826000 Y125.244000 Z0.200000 A17.747970
G1 X106.826000 Y91.756000 Z0.200000 A18.201320
G1 X107.244000 Y91.756000 Z0.200000 A18.206990
G1 X107.244000 Y125.244000 Z0.200000 A18.660340
G1 X107.663000 Y125.244000 Z0.200000 A18.666010
G1 X107.663000 Y91.756000 Z0.200000 A19.119350
G1 X108.081000 Y91.756000 Z0.200000 A19.125020
G1 X108.081000 Y125.244000 Z0.200000 A19.578370
G1 X108.500000 Y125.244000 Z0.200000 A19.584040
G1 X108.500000 Y91.756000 Z0.200000 A20.037390
G1 X108.919000 Y91.756000 Z0.200000 A20.043050
G1 X108.919000 Y125.244000 Z0.200000 A20.496400
G1 X109.337000 Y125.244000 Z0.200000 A20.502070
G1 X109.337000 Y91.756000 Z0.200000 A20.955420
G1 X109.756000 Y91.756000 Z0.200000 A20.961090
G1 X109.756000 Y125.244000 Z0.200000 A21.414440
G1 X110.174000 Y125.244000 Z0.200000 A21.420100
G1 X110.174000 Y91.756000 Z0.200000 A21.873450
G1 X110.593000 Y91.756000 Z0.200000 A21.879120
G1 X110.593000 Y125.244000 Z0.200000 A22.332470
G1 X111.012000 Y125.244000 Z0.200000 A22.338140
G1 X111.012000 Y91.756000 Z0.200000 A22.791490
G1 X111.430000 Y91.756000 Z0.200000 A22.797150
G1 X111.430000 Y125.244000 Z0.200000 A23.250500
G1 X111.849000 Y125.244000 Z0.200000 A23.256170
G1 X111.849000 Y91.756000 Z0.200000 A23.709520
G1 X112.267000 Y91.756000 Z0.200000 A23.715190
G1 X112.267000 Y125.244000 Z0.200000 A24.168540
G1 X112.686000 Y125.244000 Z0.200000 A24.174200
G1 X112.686000 Y91.756000 Z0.200000 A24.627550
G1 X113.105000 Y91.756000 Z0.200000 A24.633220
G1 X113.105000 Y125.244000 Z0.200000 A25.086570
G1 X113.523000 Y125.244000 Z0.200000 A25.092240
G1 X113.523000 Y91.756000 Z0.200000 A25.545590
G1 X113.942000 Y91.756000 Z0.200000 A25.551250
G1 X113.942000 Y125.244000 Z0.200000 A26.004600
G1 X114.360000 Y125.244000 Z0.200000 A26.010270
G1 X114.360000 Y91.756000 Z0.200000 A26.463620
G1 X114.779000 Y91.756000 Z0.200000 A26.469290
G1 X114.779000 Y125.244000 Z0.200000 A26.922640
G1 X115.198000 Y125.244000 Z0.200000 A26.928300
G1 X115.198000 Y91.756000 Z0.200000 A27.381650
G1 X115.616000 Y91.937000 Z0.200000 A27.387820
G1 X115.616000 Y125.063000 Z0.200000 A27.836290
G1 X116.035000 Y124.645000 Z0.200000 A27.844300
G1 X116.035000 Y92.355000 Z0.200000 A28.281430
G1 X116.453000 Y92.774000 Z0.200000 A28.289440
G1 X116.453000 Y124.226000 Z0.200000 A28.715240
G1 X116.872000 Y123.807000 Z0.200000 A28.723250
G1 X116.872000 Y93.193000 Z0.200000 A29.137710
G1 X117.290000 Y93.611000 Z0.200000 A29.145730
G1 X117.290000 Y123.389000 Z0.200000 A29.548850
G1 X117.709000 Y122.970000 Z0.200000 A29.556870
G1 X117.709000 Y94.030000 Z0.200000 A29.948660
G1 X118.128000 Y94.448000 Z0.200000 A29.956670
G1 X118.128000 Y122.552000 Z0.200000 A30.337130
G1 X118.546000 Y122.133000 Z0.200000 A30.345150
G1 X118.546000 Y94.867000 Z0.200000 A30.714270
G1 X118.965000 Y95.286000 Z0.200000 A30.722290
G1 X118.965000 Y121.714000 Z0.200000 A31.080080
G1 X119.383000 Y121.296000 Z0.200000 A31.088090
G1 X119.383000 Y95.704000 Z0.200000 A31.434550
G1 X119.802000 Y96.123000 Z0.200000 A31.442570
G1 X119.802000 Y120.877000 Z0.200000 A31.777690
G1 X120.221000 Y120.459000 Z0.200000 A31.785710
G1 X120.221000 Y96.541000 Z0.200000 A32.109500
G1 X120.639000 Y96.960000 Z0.200000 A32.117510
G1 X120.639000 Y120.040000 Z0.200000 A32.429970
G1 X121.058000 Y119.621000 Z0.200000 A32.437980
G1 X121.058000 Y97.379000 Z0.200000 A32.739100
G1 X121.476000 Y97.797000 Z0.200000 A32.747120
G1 X121.476000 Y119.203000 Z0.200000 A33.036910
G1 X121.895000 Y118.784000 Z0.200000 A33.044920
G1 X121.895000 Y98.216000 Z0.200000 A33.323380
G1 X122.314000 Y98.634000 Z0.200000 A33.331390
G1 X122.314000 Y118.366000 Z0.200000 A33.598510
G1 X122.732000 Y117.947000 Z0.200000 A33.606530
G1 X122.732000 Y99.053000 Z0.200000 A33.862320
G1 X123.151000 Y99.472000 Z0.200000 A33.870330
G1 X123.151000 Y117.528000 Z0.200000 A34.114780
G1 X123.569000 Y117.110000 Z0.200000 A34.122800
G1 X123.569000 Y99.890000 Z0.200000 A34.355920
G1 X123.988000 Y100.309000 Z0.200000 A34.363930
G1 X123.988000 Y116.691000 Z0.200000 A34.585720
G1 X124.407000 Y116.273000 Z0.200000 A34.593730
G1 X124.407000 Y100.727000 Z0.200000 A34.804190
G1 X124.825000 Y101.146000 Z0.200000 A34.812200
G1 X124.825000 Y115.854000 Z0.200000 A35.011320
G1 X125.244000 Y115.436000 Z0.200000 A35.019330
G1 X125.244000 Y101.564000 Z0.200000 A35.207120
G0 X125.545 Y101.440 F7800.000
G1 X125.545000 Y115.560000 Z0.200000 A35.396970 F360.000000
G1 X115.560000 Y125.545000 Z0.200000 A35.586810
G1 X101.440000 Y125.545000 Z0.200000 A35.776660
G1 X91.455000 Y115.560000 Z0.200000 A35.966500
G1 X91.455000 Y101.440000 Z0.200000 A36.156350
G1 X101.440000 Y91.455000 Z0.200000 A36.346200
G1 X115.560000 Y91.455000 Z0.200000 A36.536040
G1 X125.501000 Y101.396000 Z0.200000 A36.725050
G0 X125.961 Y101.268 F7800.000
G1 X125.961000 Y115.732000 Z0.200000 A36.919530 F360.000000
G1 X115.732000 Y125.961000 Z0.200000 A37.114000
G1 X101.268000 Y125.961000 Z0.200000 A37.308480
G1 X91.039000 Y115.732000 Z0.200000 A37.502960
G1 X91.039000 Y101.268000 Z0.200000 A37.697430
G1 X101.268000 Y91.039000 Z0.200000 A37.891910
G1 X115.732000 Y91.039000 Z0.200000 A38.086390
G1 X125.917000 Y101.223000 Z0.200000 A38.280020
G0 X126.376 Y101.095 F7800.000
G1 X126.376000 Y115.905000 Z0.200000 A38.479130 F360.000000
G1 X115.905000 Y126.376000 Z0.200000 A38.678240
G1 X101.095000 Y126.376000 Z0.200000 A38.877340
G1 X90.624000 Y115.905000 Z0.200000 A39.076450
G1 X90.624000 Y101.095000 Z0.200000 A39.275560
G1 X101.095000 Y90.624000 Z0.200000 A39.474660
G1 X115.905000 Y90.624000 Z0.200000 A39.673770
G1 X126.332000 Y101.051000 Z0.200000 A39.872040
G0 X126.792 Y100.923 F7800.000
G1 X126.792000 Y116.077000 Z0.200000 A40.075770 F252.000000
G1 X116.077000 Y126.792000 Z0.200000 A40.279510
G1 X100.923000 Y126.792000 Z0.200000 A40.483250
G1 X90.208000 Y116.077000 Z0.200000 A40.686980
G1 X90.208000 Y100.923000 Z0.200000 A40.890720
G1 X100.923000 Y90.208000 Z0.200000 A41.094460
G1 X116.077000 Y90.208000 Z0.200000 A41.298190
G1 X126.748000 Y100.879000 Z0.200000 A41.501090
G0 X126.498 Y101.217 F7800.000
M140 P110 ; set bed temperature
G0 Z0.600 F5400.000 A39.50109
o<wipe_nozzle> call
G0 X133.830 Y100.550 F7800.000
G0 F5400.000 A41.50109
G1 X133.830000 Y116.440000 Z0.600000 A41.928360 F1200.000000
G3 X132.030000 Y120.790000 Z0.600000 A42.057480 I-6.8693 J-0.2951
G1 X120.790000 Y132.030000 Z0.600000 A42.484900
G3 X116.440000 Y133.830000 Z0.600000 A42.614040 I-4.6444 J-5.0678
G1 X100.550000 Y133.830000 Z0.600000 A43.041310
G3 X96.000000 Y131.830000 Z0.600000 A43.178050 I0.2618 J-6.7713
G1 X85.170000 Y120.990000 Z0.600000 A43.590080
G3 X83.170000 Y116.440000 Z0.600000 A43.726790 I4.7984 J-4.8237
G1 X83.170000 Y100.550000 Z0.600000 A44.154070
G3 X84.970000 Y96.200000 Z0.600000 A44.283210 I6.8515 J0.2877
G1 X96.200000 Y84.970000 Z0.600000 A44.710260
G3 X100.550000 Y83.170000 Z0.600000 A44.839390 I4.6444 J5.0678
G1 X116.440000 Y83.170000 Z0.600000 A45.266660
G3 X120.990000 Y85.170000 Z0.600000 A45.403360 I-0.2816 J6.8163
G1 X131.830000 Y96.000000 Z0.600000 A45.815390
G3 X133.826000 Y100.488000 Z0.600000 A45.950450 I-4.7631 J4.8062
G0 X133.410 Y100.550 F7800.000
G1 X133.420000 Y116.160000 Z0.600000 A46.370190 F1200.000000
G3 X131.540000 Y120.700000 Z0.600000 A46.505680 I-6.4234 J-0.0007
G1 X120.700000 Y131.540000 Z0.600000 A46.917900
G3 X116.160000 Y133.420000 Z0.600000 A47.053380 I-4.5407 J-4.5434
G1 X100.830000 Y133.420000 Z0.600000 A47.465590
G3 X96.490000 Y131.730000 Z0.600000 A47.593660 I-0.0010 J-6.4151
G1 X85.460000 Y120.690000 Z0.600000 A48.013290
G3 X83.580000 Y116.160000 Z0.600000 A48.148600 I4.4430 J-4.4990
G1 X83.580000 Y100.830000 Z0.600000 A48.560810
G3 X85.460000 Y96.290000 Z0.600000 A48.696300 I6.4234 J0.0007
G1 X96.290000 Y85.460000 Z0.600000 A49.108130
G3 X100.830000 Y83.580000 Z0.600000 A49.243610 I4.5407 J4.5434
G1 X116.160000 Y83.580000 Z0.600000 A49.655820
G3 X120.690000 Y85.460000 Z0.600000 A49.791100 I0.0106 J6.3721
G1 X131.730000 Y96.490000 Z0.600000 A50.210730
G3 X133.406000 Y100.488000 Z0.600000 A50.329590 I-4.6891 J4.3160
G0 Z1.100 F5400.000 A48.32959
G0 X115.436 Y125.244 F7800.000
G0 Z0.600
G0 F5400.000 A50.32959
G1 X101.564000 Y125.244000 Z0.600000 A50.705170 F2400.000000
G1 X101.146000 Y124.825000 Z0.600000 A50.721190
G1 X115.854000 Y124.825000 Z0.600000 A51.119440
G1 X116.273000 Y124.406000 Z0.600000 A51.135470
G1 X100.727000 Y124.406000 Z0.600000 A51.556370
G1 X100.309000 Y123.988000 Z0.600000 A51.572400
G1 X116.691000 Y123.988000 Z0.600000 A52.015980
G1 X117.110000 Y123.569000 Z0.600000 A52.032010
G1 X99.890000 Y123.569000 Z0.600000 A52.498250
G1 X99.471000 Y123.151000 Z0.600000 A52.514280
G1 X117.529000 Y123.151000 Z0.600000 A53.003190
G1 X117.947000 Y122.732000 Z0.600000 A53.019220
G1 X99.053000 Y122.732000 Z0.600000 A53.530800
G1 X98.634000 Y122.314000 Z0.600000 A53.546830
G1 X118.366000 Y122.314000 Z0.600000 A54.081080
G1 X118.784000 Y121.895000 Z0.600000 A54.097110
G1 X98.216000 Y121.895000 Z0.600000 A54.654020
G1 X97.797000 Y121.476000 Z0.600000 A54.670050
G1 X119.203000 Y121.476000 Z0.600000 A55.249630
G1 X119.622000 Y121.058000 Z0.600000 A55.265660
G1 X97.378000 Y121.058000 Z0.600000 A55.867910
G1 X96.960000 Y120.639000 Z0.600000 A55.883940
G1 X120.040000 Y120.639000 Z0.600000 A56.508860
G1 X120.459000 Y120.221000 Z0.600000 A56.524890
G1 X96.541000 Y120.221000 Z0.600000 A57.172470
G1 X96.123000 Y119.802000 Z0.600000 A57.188500
G1 X120.877000 Y119.802000 Z0.600000 A57.858750
G1 X121.296000 Y119.383000 Z0.600000 A57.874780
