; generated by Slic3r 0.9.8 on 2013-06-11 at 08:43:41

; layer_height = 0.2
; perimeters = 3
; top_solid_layers = 3
; bottom_solid_layers = 3
; fill_density = 0.25
; perimeter_speed = 20
; infill_speed = 40
; travel_speed = 130
; scale = 1
; nozzle_diameter = 0.4
; filament_diameter = 2.95
; extrusion_multiplier = 1.105263
; perimeters extrusion width = 0.60mm
; infill extrusion width = 0.60mm
; first layer extrusion width = 0.64mm

M190 P60 ; wait for bed temperature to be reached
M104 P175 ; set temperature
G92 A0                  ; Reset A to 0
G40                        ; Cancel cutter compensation
G64 P0.1                ; Path Blend within .1mm
G0 X108.5 Y200    ; Move to plate
M109 P175 ; wait for temperature to be reached
G90 ; use absolute coordinates
G21 ; set units to millimeters
G0 Z0.200 F5400.000 A-1.50000
G0 X48.520 Y148.380 F7800.000
G0 F5400.000 A0.00000
G1 X47.970000 Y148.340000 Z0.200000 A0.010650 F360.000000
G3 X41.610000 Y141.470000 Z0.200000 A0.207360 I0.8292 J-7.1466
G1 X41.610000 Y75.520000 Z0.200000 A1.480890
G3 X48.520000 Y68.610000 Z0.200000 A1.688240 I7.1538 J0.2438
G1 X168.470000 Y68.610000 Z0.200000 A4.004540
G3 X175.380000 Y75.520000 Z0.200000 A4.211900 I-0.2438 J7.1538
G1 X175.380000 Y141.470000 Z0.200000 A5.485430
G3 X168.470000 Y148.380000 Z0.200000 A5.692780 I-7.1538 J-0.2438
G1 X48.610000 Y148.380000 Z0.200000 A8.007350
G1 X48.520000 Y148.380000 Z0.200000 A8.009080
G0 X48.530 Y147.780 F7800.000
G1 X48.000000 Y147.740000 Z0.200000 A8.019340 F360.000000
G3 X42.200000 Y141.190000 Z0.200000 A8.203970 I0.7683 J-6.5232
G1 X42.200000 Y75.800000 Z0.200000 A9.466680
G3 X48.800000 Y69.200000 Z0.200000 A9.666780 I6.5830 J-0.0170
G1 X168.190000 Y69.200000 Z0.200000 A11.972260
G3 X174.790000 Y75.800000 Z0.200000 A12.172370 I0.0170 J6.5830
G1 X174.790000 Y141.190000 Z0.200000 A13.435090
G3 X168.190000 Y147.790000 Z0.200000 A13.635180 I-6.5830 J0.0170
G1 X48.620000 Y147.783000 Z0.200000 A15.944150
G1 X48.530000 Y147.780000 Z0.200000 A15.945880
G0 Z0.700 F1620.000 A14.44588
G0 X54.912 Y111.458 F7800.000
G0 Z0.200
G0 F5400.000 A15.94588
G1 X54.624000 Y111.386000 Z0.200000 A15.951600 F360.000000
G3 X55.500000 Y111.516000 Z0.200000 A16.300230 I0.8723 J-2.8613
G1 X55.000000 Y111.471000 Z0.200000 A16.309920
G1 X54.912000 Y111.458000 Z0.200000 A16.311650
G0 X55.028 Y110.872 F7800.000
G1 X54.575000 Y110.734000 Z0.200000 A16.320810 F360.000000
G3 X55.500000 Y110.918000 Z0.200000 A16.595440 I0.9252 J-2.2341
G1 X55.117000 Y110.885000 Z0.200000 A16.602870
G1 X55.028000 Y110.872000 Z0.200000 A16.604600
G0 X55.145 Y110.285 F7800.000
G1 X54.803000 Y110.182000 Z0.200000 A16.611490 F360.000000
G3 X55.500000 Y110.320000 Z0.200000 A16.818230 I0.6935 J-1.6737
G1 X55.233000 Y110.299000 Z0.200000 A16.823400
G1 X55.145000 Y110.285000 Z0.200000 A16.825130
G0 X54.737 Y110.721 F7800.000
G0 Z0.700 F1620.000 A15.32513
G0 X161.186 Y81.202 F7800.000
G0 Z0.200
G0 F5400.000 A16.82513
G1 X161.093000 Y80.737000 Z0.200000 A16.834280 F360.000000
G3 X161.367000 Y81.640000 Z0.200000 A17.108900 I2.4031 J-0.2361
G1 X161.216000 Y81.286000 Z0.200000 A17.116330
G1 X161.186000 Y81.202000 Z0.200000 A17.118060
G0 X161.758 Y81.028 F7800.000
G1 X161.688000 Y80.678000 Z0.200000 A17.124950 F360.000000
G3 X161.895000 Y81.358000 Z0.200000 A17.331680 I1.8039 J-0.1776
G1 X161.788000 Y81.113000 Z0.200000 A17.336850
G1 X161.758000 Y81.028000 Z0.200000 A17.338580
G0 X161.181 Y80.874 F7800.000
G0 Z0.700 F1620.000 A15.83858
G0 X163.500 Y134.082 F7800.000
G0 Z0.200
G0 F5400.000 A17.33858
G1 X163.972000 Y134.128000 Z0.200000 A17.347730 F360.000000
G3 X163.028000 Y134.128000 Z0.200000 A17.622370 I-0.4720 J2.3619
G1 X163.411000 Y134.086000 Z0.200000 A17.629790
G1 X163.500000 Y134.082000 Z0.200000 A17.631520
G0 X163.500 Y134.680 F7800.000
G1 X163.855000 Y134.715000 Z0.200000 A17.638410 F360.000000
G3 X163.145000 Y134.715000 Z0.200000 A17.845160 I-0.3550 J1.7848
G1 X163.411000 Y134.684000 Z0.200000 A17.850320
G1 X163.500000 Y134.680000 Z0.200000 A17.852050
G0 X163.815 Y134.173 F7800.000
G0 Z0.700 F1620.000 A16.35205
G0 X166.590 Y136.561 F7800.000
G0 Z0.200
G0 F5400.000 A17.85205
G1 X166.986000 Y136.610000 Z0.200000 A17.859750 F360.000000
G1 X166.986000 Y139.986000 Z0.200000 A17.924940
G1 X163.610000 Y139.986000 Z0.200000 A17.990130
G1 X163.561000 Y139.590000 Z0.200000 A17.997830
G1 X164.376000 Y139.386000 Z0.200000 A18.014050
G2 X166.590000 Y136.561000 Z0.200000 A18.087410 I-0.9235 J-3.0039
G0 X166.590 Y136.439 F7800.000
G1 X166.386000 Y135.624000 Z0.200000 A18.103630 F360.000000
G2 X162.625000 Y139.386000 Z0.200000 A18.343680 I-2.8820 J0.8797
G1 X163.439000 Y139.590000 Z0.200000 A18.359890
G1 X163.390000 Y139.986000 Z0.200000 A18.367590
G1 X50.014000 Y139.986000 Z0.200000 A20.556940
G1 X50.014000 Y77.014000 Z0.200000 A21.772960
G1 X163.390000 Y77.014000 Z0.200000 A23.962310
G1 X163.439000 Y77.410000 Z0.200000 A23.970000
G1 X162.624000 Y77.614000 Z0.200000 A23.986220
G2 X166.386000 Y81.376000 Z0.200000 A24.226260 I0.8798 J2.8822
G1 X166.590000 Y80.561000 Z0.200000 A24.242480
G1 X166.986000 Y80.610000 Z0.200000 A24.250180
G1 X166.986000 Y136.390000 Z0.200000 A25.327330
G1 X166.590000 Y136.439000 Z0.200000 A25.335030
G0 Z0.700 F1620.000 A23.83503
G0 X166.590 Y80.439 F7800.000
G0 Z0.200
G0 F5400.000 A25.33503
G1 X166.386000 Y79.624000 Z0.200000 A25.351240 F360.000000
G2 X163.561000 Y77.410000 Z0.200000 A25.424610 I-3.0039 J0.9235
G1 X163.610000 Y77.014000 Z0.200000 A25.432310
G1 X166.986000 Y77.014000 Z0.200000 A25.497500
G1 X166.986000 Y80.390000 Z0.200000 A25.562690
G1 X166.590000 Y80.439000 Z0.200000 A25.570390
G0 Z0.700 F1620.000 A24.07039
G0 X167.583 Y76.417 F7800.000
G0 Z0.200
G0 F5400.000 A25.57039
G1 X167.583000 Y140.583000 Z0.200000 A26.809470 F360.000000
G1 X49.417000 Y140.583000 Z0.200000 A29.091310
G1 X49.417000 Y76.417000 Z0.200000 A30.330390
G1 X167.583000 Y76.417000 Z0.200000 A32.612230
G0 X168.180 Y75.820 F7800.000
G1 X168.180000 Y141.180000 Z0.200000 A33.874370 F252.000000
G1 X48.820000 Y141.180000 Z0.200000 A36.179270
G1 X48.820000 Y75.820000 Z0.200000 A37.441410
G1 X168.180000 Y75.820000 Z0.200000 A39.746310
G0 X167.881 Y76.337 F7800.000
G0 Z0.700 F1620.000 A38.24631
G0 X160.990 Y77.343 F7800.000
G0 Z0.200
G0 F5400.000 A39.74631
G1 X160.990000 Y78.164000 Z0.200000 A39.762240 F720.000000
G1 X160.390000 Y78.937000 Z0.200000 A39.781220
G1 X160.390000 Y77.343000 Z0.200000 A39.812150
G1 X159.790000 Y77.343000 Z0.200000 A39.823790
G1 X159.790000 Y139.657000 Z0.200000 A41.032780
G1 X159.190000 Y139.657000 Z0.200000 A41.044420
G1 X159.190000 Y77.343000 Z0.200000 A42.253410
G1 X158.590000 Y77.343000 Z0.200000 A42.265050
G1 X158.590000 Y139.657000 Z0.200000 A43.474030
G1 X157.991000 Y139.657000 Z0.200000 A43.485660
G1 X157.991000 Y77.343000 Z0.200000 A44.694640
G1 X157.391000 Y77.343000 Z0.200000 A44.706280
G1 X157.391000 Y139.657000 Z0.200000 A45.915270
G1 X156.791000 Y139.657000 Z0.200000 A45.926910
G1 X156.791000 Y77.343000 Z0.200000 A47.135900
G1 X156.191000 Y77.343000 Z0.200000 A47.147540
G1 X156.191000 Y139.657000 Z0.200000 A48.356520
G1 X155.591000 Y139.657000 Z0.200000 A48.368160
G1 X155.591000 Y77.343000 Z0.200000 A49.577150
G1 X154.991000 Y77.343000 Z0.200000 A49.588790
G1 X154.991000 Y139.657000 Z0.200000 A50.797780
G1 X154.391000 Y139.657000 Z0.200000 A50.809420
G1 X154.391000 Y77.343000 Z0.200000 A52.018400
G1 X153.791000 Y77.343000 Z0.200000 A52.030040
G1 X153.791000 Y139.657000 Z0.200000 A53.239030
G1 X153.191000 Y139.657000 Z0.200000 A53.250670
G1 X153.191000 Y77.343000 Z0.200000 A54.459660
G1 X152.592000 Y77.343000 Z0.200000 A54.471280
G1 X152.592000 Y139.657000 Z0.200000 A55.680270
G1 X151.992000 Y139.657000 Z0.200000 A55.691910
G1 X151.992000 Y77.343000 Z0.200000 A56.900890
G1 X151.392000 Y77.343000 Z0.200000 A56.912530
G1 X151.392000 Y139.657000 Z0.200000 A58.121520
G1 X150.792000 Y139.657000 Z0.200000 A58.133160
G1 X150.792000 Y77.343000 Z0.200000 A59.342150
G1 X150.192000 Y77.343000 Z0.200000 A59.353790
G1 X150.192000 Y139.657000 Z0.200000 A60.562770
G1 X149.592000 Y139.657000 Z0.200000 A60.574410
G1 X149.592000 Y77.343000 Z0.200000 A61.783400
G1 X148.992000 Y77.343000 Z0.200000 A61.795040
G1 X148.992000 Y139.657000 Z0.200000 A63.004030
G1 X148.392000 Y139.657000 Z0.200000 A63.015660
G1 X148.392000 Y77.343000 Z0.200000 A64.224650
G1 X147.792000 Y77.343000 Z0.200000 A64.236290
G1 X147.792000 Y139.657000 Z0.200000 A65.445270
G1 X147.193000 Y139.657000 Z0.200000 A65.456910
G1 X147.193000 Y77.343000 Z0.200000 A66.665900
G1 X146.593000 Y77.343000 Z0.200000 A66.677540
G1 X146.593000 Y139.657000 Z0.200000 A67.886520
G1 X145.993000 Y139.657000 Z0.200000 A67.898160
G1 X145.993000 Y77.343000 Z0.200000 A69.107150
G1 X145.393000 Y77.343000 Z0.200000 A69.118790
G1 X145.393000 Y139.657000 Z0.200000 A70.327770
G1 X144.793000 Y139.657000 Z0.200000 A70.339410
G1 X144.793000 Y77.343000 Z0.200000 A71.548400
G1 X144.193000 Y77.343000 Z0.200000 A71.560030
G1 X144.193000 Y139.657000 Z0.200000 A72.769020
G1 X143.593000 Y139.657000 Z0.200000 A72.780660
G1 X143.593000 Y77.343000 Z0.200000 A73.989650
G1 X142.993000 Y77.343000 Z0.200000 A74.001290
G1 X142.993000 Y139.657000 Z0.200000 A75.210270
G1 X142.393000 Y139.657000 Z0.200000 A75.221910
G1 X142.393000 Y77.343000 Z0.200000 A76.430900
G1 X141.794000 Y77.343000 Z0.200000 A76.442540
G1 X141.794000 Y139.657000 Z0.200000 A77.651520
G1 X141.194000 Y139.657000 Z0.200000 A77.663160
G1 X141.194000 Y77.343000 Z0.200000 A78.872140
G1 X140.594000 Y77.343000 Z0.200000 A78.883780
G1 X140.594000 Y139.657000 Z0.200000 A80.092770
G1 X139.994000 Y139.657000 Z0.200000 A80.104410
G1 X139.994000 Y77.343000 Z0.200000 A81.313400
G1 X139.394000 Y77.343000 Z0.200000 A81.325030
G1 X139.394000 Y139.657000 Z0.200000 A82.534020
G1 X138.794000 Y139.657000 Z0.200000 A82.545660
G1 X138.794000 Y77.343000 Z0.200000 A83.754650
G1 X138.194000 Y77.343000 Z0.200000 A83.766280
G1 X138.194000 Y139.657000 Z0.200000 A84.975270
G1 X137.594000 Y139.657000 Z0.200000 A84.986910
G1 X137.594000 Y77.343000 Z0.200000 A86.195900
G1 X136.995000 Y77.343000 Z0.200000 A86.207530
G1 X136.995000 Y139.657000 Z0.200000 A87.416520
G1 X136.395000 Y139.657000 Z0.200000 A87.428160
G1 X136.395000 Y77.343000 Z0.200000 A88.637140
G1 X135.795000 Y77.343000 Z0.200000 A88.648780
G1 X135.795000 Y139.657000 Z0.200000 A89.857770
G1 X135.195000 Y139.657000 Z0.200000 A89.869410
G1 X135.195000 Y77.343000 Z0.200000 A91.078390
G1 X134.595000 Y77.343000 Z0.200000 A91.090030
G1 X134.595000 Y139.657000 Z0.200000 A92.299020
G1 X133.995000 Y139.657000 Z0.200000 A92.310660
G1 X133.995000 Y77.343000 Z0.200000 A93.519640
G1 X133.395000 Y77.343000 Z0.200000 A93.531280
G1 X133.395000 Y139.657000 Z0.200000 A94.740270
G1 X132.795000 Y139.657000 Z0.200000 A94.751910
G1 X132.795000 Y77.343000 Z0.200000 A95.960890
G1 X132.195000 Y77.343000 Z0.200000 A95.972530
G1 X132.195000 Y139.657000 Z0.200000 A97.181520
G1 X131.596000 Y139.657000 Z0.200000 A97.193160
G1 X131.596000 Y77.343000 Z0.200000 A98.402140
G1 X130.996000 Y77.343000 Z0.200000 A98.413780
G1 X130.996000 Y139.657000 Z0.200000 A99.622770
G1 X130.396000 Y139.657000 Z0.200000 A99.634410
G1 X130.396000 Y77.343000 Z0.200000 A100.843390
G1 X129.796000 Y77.343000 Z0.200000 A100.855030
G1 X129.796000 Y139.657000 Z0.200000 A102.064020
G1 X129.196000 Y139.657000 Z0.200000 A102.075650
G1 X129.196000 Y77.343000 Z0.200000 A103.284640
G1 X128.596000 Y77.343000 Z0.200000 A103.296280
G1 X128.596000 Y139.657000 Z0.200000 A104.505270
G1 X127.996000 Y139.657000 Z0.200000 A104.516910
G1 X127.996000 Y77.343000 Z0.200000 A105.725890
G1 X127.396000 Y77.343000 Z0.200000 A105.737530
G1 X127.396000 Y139.657000 Z0.200000 A106.946520
G1 X126.796000 Y139.657000 Z0.200000 A106.958160
G1 X126.796000 Y77.343000 Z0.200000 A108.167140
G1 X126.197000 Y77.343000 Z0.200000 A108.178780
G1 X126.197000 Y139.657000 Z0.200000 A109.387770
G1 X125.597000 Y139.657000 Z0.200000 A109.399400
G1 X125.597000 Y77.343000 Z0.200000 A110.608390
G1 X124.997000 Y77.343000 Z0.200000 A110.620030
G1 X124.997000 Y139.657000 Z0.200000 A111.829010
G1 X124.397000 Y139.657000 Z0.200000 A111.840650
G1 X124.397000 Y77.343000 Z0.200000 A113.049640
G1 X123.797000 Y77.343000 Z0.200000 A113.061280
G1 X123.797000 Y139.657000 Z0.200000 A114.270270
G1 X123.197000 Y139.657000 Z0.200000 A114.281900
G1 X123.197000 Y77.343000 Z0.200000 A115.490890
G1 X122.597000 Y77.343000 Z0.200000 A115.502530
G1 X122.597000 Y139.657000 Z0.200000 A116.711520
G1 X121.998000 Y139.657000 Z0.200000 A116.723150
G1 X121.998000 Y77.343000 Z0.200000 A117.932140
G1 X121.398000 Y77.343000 Z0.200000 A117.943780
G1 X121.398000 Y139.657000 Z0.200000 A119.152760
G1 X120.798000 Y139.657000 Z0.200000 A119.164400
G1 X120.798000 Y77.343000 Z0.200000 A120.373390
G1 X120.198000 Y77.343000 Z0.200000 A120.385030
G1 X120.198000 Y139.657000 Z0.200000 A121.594010
G1 X119.598000 Y139.657000 Z0.200000 A121.605650
G1 X119.598000 Y77.343000 Z0.200000 A122.814640
G1 X118.998000 Y77.343000 Z0.200000 A122.826280
G1 X118.998000 Y139.657000 Z0.200000 A124.035260
G1 X118.398000 Y139.657000 Z0.200000 A124.046900
G1 X118.398000 Y77.343000 Z0.200000 A125.255890
G1 X117.798000 Y77.343000 Z0.200000 A125.267530
G1 X117.798000 Y139.657000 Z0.200000 A126.476510
G1 X117.198000 Y139.657000 Z0.200000 A126.488150
G1 X117.198000 Y77.343000 Z0.200000 A127.697140
G1 X116.599000 Y77.343000 Z0.200000 A127.708780
G1 X116.599000 Y139.657000 Z0.200000 A128.917760
G1 X115.999000 Y139.657000 Z0.200000 A128.929400
G1 X115.999000 Y77.343000 Z0.200000 A130.138390
G1 X115.399000 Y77.343000 Z0.200000 A130.150030
G1 X115.399000 Y139.657000 Z0.200000 A131.359010
G1 X114.799000 Y139.657000 Z0.200000 A131.370650
G1 X114.799000 Y77.343000 Z0.200000 A132.579640
G1 X114.199000 Y77.343000 Z0.200000 A132.591270
G1 X114.199000 Y139.657000 Z0.200000 A133.800260
G1 X113.599000 Y139.657000 Z0.200000 A133.811900
G1 X113.599000 Y77.343000 Z0.200000 A135.020890
G1 X112.999000 Y77.343000 Z0.200000 A135.032530
G1 X112.999000 Y139.657000 Z0.200000 A136.241510
G1 X112.399000 Y139.657000 Z0.200000 A136.253150
G1 X112.399000 Y77.343000 Z0.200000 A137.462140
G1 X111.799000 Y77.343000 Z0.200000 A137.473780
G1 X111.799000 Y139.657000 Z0.200000 A138.682760
G1 X111.200000 Y139.657000 Z0.200000 A138.694400
G1 X111.200000 Y77.343000 Z0.200000 A139.903390
G1 X110.600000 Y77.343000 Z0.200000 A139.915020
G1 X110.600000 Y139.657000 Z0.200000 A141.124010
G1 X110.000000 Y139.657000 Z0.200000 A141.135650
G1 X110.000000 Y77.343000 Z0.200000 A142.344630
G1 X109.400000 Y77.343000 Z0.200000 A142.356270
G1 X109.400000 Y139.657000 Z0.200000 A143.565260
G1 X108.800000 Y139.657000 Z0.200000 A143.576900
G1 X108.800000 Y77.343000 Z0.200000 A144.785890
G1 X108.200000 Y77.343000 Z0.200000 A144.797520
G1 X108.200000 Y139.657000 Z0.200000 A146.006510
G1 X107.600000 Y139.657000 Z0.200000 A146.018150
G1 X107.600000 Y77.343000 Z0.200000 A147.227140
G1 X107.000000 Y77.343000 Z0.200000 A147.238770
G1 X107.000000 Y139.657000 Z0.200000 A148.447760
G1 X106.400000 Y139.657000 Z0.200000 A148.459400
G1 X106.400000 Y77.343000 Z0.200000 A149.668380
G1 X105.801000 Y77.343000 Z0.200000 A149.680020
G1 X105.801000 Y139.657000 Z0.200000 A150.889010
G1 X105.201000 Y139.657000 Z0.200000 A150.900650
G1 X105.201000 Y77.343000 Z0.200000 A152.109630
G1 X104.601000 Y77.343000 Z0.200000 A152.121270
G1 X104.601000 Y139.657000 Z0.200000 A153.330260
G1 X104.001000 Y139.657000 Z0.200000 A153.341900
G1 X104.001000 Y77.343000 Z0.200000 A154.550880
G1 X103.401000 Y77.343000 Z0.200000 A154.562520
G1 X103.401000 Y139.657000 Z0.200000 A155.771510
G1 X102.801000 Y139.657000 Z0.200000 A155.783150
G1 X102.801000 Y77.343000 Z0.200000 A156.992130
G1 X102.201000 Y77.343000 Z0.200000 A157.003770
