; generated by Slic3r 0.9.8 on 2013-06-12 at 12:52:55

; layer_height = 0.2
; perimeters = 3
; top_solid_layers = 3
; bottom_solid_layers = 3
; fill_density = 0.25
; perimeter_speed = 20
; infill_speed = 40
; travel_speed = 130
; scale = 1
; nozzle_diameter = 0.4
; filament_diameter = 2.95
; extrusion_multiplier = 1.105263
; perimeters extrusion width = 0.60mm
; infill extrusion width = 0.60mm
; first layer extrusion width = 0.64mm

M190 P60 ; wait for bed temperature to be reached
M104 P175 ; set temperature
G92 A0                  ; Reset A to 0
G40                        ; Cancel cutter compensation
G64 P0.1                ; Path Blend within .1mm
G0 X108.5 Y200    ; Move to plate
M109 P175 ; wait for temperature to be reached
G90 ; use absolute coordinates
G21 ; set units to millimeters
G0 Z0.200 F5400.000 A-1.50000
G0 X48.520 Y148.380 F7800.000
G0 F5400.000 A0.00000
G1 X47.970000 Y148.340000 Z0.200000 A0.010650 F360.000000
G3 X41.610000 Y141.470000 Z0.200000 A0.207360 I0.8292 J-7.1466
G1 X41.610000 Y75.520000 Z0.200000 A1.480890
G3 X48.520000 Y68.610000 Z0.200000 A1.688240 I7.1538 J0.2438
G1 X168.470000 Y68.610000 Z0.200000 A4.004540
G3 X175.380000 Y75.520000 Z0.200000 A4.211900 I-0.2438 J7.1538
G1 X175.380000 Y141.470000 Z0.200000 A5.485430
G3 X168.470000 Y148.380000 Z0.200000 A5.692780 I-7.1538 J-0.2438
G1 X48.610000 Y148.380000 Z0.200000 A8.007350
G1 X48.520000 Y148.380000 Z0.200000 A8.009080
G0 X48.530 Y147.780 F7800.000
G1 X48.000000 Y147.740000 Z0.200000 A8.019340 F360.000000
G3 X42.200000 Y141.190000 Z0.200000 A8.203970 I0.7683 J-6.5232
G1 X42.200000 Y75.800000 Z0.200000 A9.466680
G3 X48.800000 Y69.200000 Z0.200000 A9.666780 I6.5830 J-0.0170
G1 X168.190000 Y69.200000 Z0.200000 A11.972260
G3 X174.790000 Y75.800000 Z0.200000 A12.172370 I0.0170 J6.5830
G1 X174.790000 Y141.190000 Z0.200000 A13.435090
G3 X168.190000 Y147.790000 Z0.200000 A13.635180 I-6.5830 J0.0170
G1 X48.620000 Y147.783000 Z0.200000 A15.944150
G1 X48.530000 Y147.780000 Z0.200000 A15.945880
G0 Z0.700 F1620.000 A14.44588
G0 X50.014 Y139.986 F7800.000
G0 Z0.200
G0 F5400.000 A15.94588
G1 X50.014000 Y77.014000 Z0.200000 A17.161900 F360.000000
G1 X166.986000 Y77.014000 Z0.200000 A19.420680
G1 X166.986000 Y139.986000 Z0.200000 A20.636700
G1 X50.014000 Y139.986000 Z0.200000 A22.895480
G0 X49.417 Y140.583 F7800.000
G1 X49.417000 Y76.417000 Z0.200000 A24.134560 F360.000000
G1 X167.583000 Y76.417000 Z0.200000 A26.416400
G1 X167.583000 Y140.583000 Z0.200000 A27.655480
G1 X49.417000 Y140.583000 Z0.200000 A29.937320
G0 X48.820 Y141.180 F7800.000
G1 X48.820000 Y75.820000 Z0.200000 A31.199450 F252.000000
G1 X168.180000 Y75.820000 Z0.200000 A33.504360
G1 X168.180000 Y141.180000 Z0.200000 A34.766490
G1 X48.820000 Y141.180000 Z0.200000 A37.071400
G0 X49.119 Y140.663 F7800.000
G0 X50.611 Y139.657
G1 X50.611000 Y77.343000 Z0.200000 A38.280380 F720.000000
G1 X51.211000 Y77.343000 Z0.200000 A38.292020
G1 X51.211000 Y139.657000 Z0.200000 A39.501010
G1 X51.811000 Y139.657000 Z0.200000 A39.512650
G1 X51.811000 Y77.343000 Z0.200000 A40.721630
G1 X52.411000 Y77.343000 Z0.200000 A40.733270
G1 X52.411000 Y139.657000 Z0.200000 A41.942260
G1 X53.011000 Y139.657000 Z0.200000 A41.953900
G1 X53.011000 Y77.343000 Z0.200000 A43.162880
G1 X53.611000 Y77.343000 Z0.200000 A43.174520
G1 X53.611000 Y139.657000 Z0.200000 A44.383510
G1 X54.211000 Y139.657000 Z0.200000 A44.395150
G1 X54.211000 Y77.343000 Z0.200000 A45.604130
G1 X54.810000 Y77.343000 Z0.200000 A45.615770
G1 X54.810000 Y139.657000 Z0.200000 A46.824760
G1 X55.410000 Y139.657000 Z0.200000 A46.836400
G1 X55.410000 Y77.343000 Z0.200000 A48.045380
G1 X56.010000 Y77.343000 Z0.200000 A48.057020
G1 X56.010000 Y139.657000 Z0.200000 A49.266010
G1 X56.610000 Y139.657000 Z0.200000 A49.277650
G1 X56.610000 Y77.343000 Z0.200000 A50.486630
G1 X57.210000 Y77.343000 Z0.200000 A50.498270
G1 X57.210000 Y139.657000 Z0.200000 A51.707260
G1 X57.810000 Y139.657000 Z0.200000 A51.718900
G1 X57.810000 Y77.343000 Z0.200000 A52.927880
G1 X58.410000 Y77.343000 Z0.200000 A52.939520
G1 X58.410000 Y139.657000 Z0.200000 A54.148510
G1 X59.010000 Y139.657000 Z0.200000 A54.160140
G1 X59.010000 Y77.343000 Z0.200000 A55.369130
G1 X59.609000 Y77.343000 Z0.200000 A55.380770
G1 X59.609000 Y139.657000 Z0.200000 A56.589760
G1 X60.209000 Y139.657000 Z0.200000 A56.601390
G1 X60.209000 Y77.343000 Z0.200000 A57.810380
G1 X60.809000 Y77.343000 Z0.200000 A57.822020
G1 X60.809000 Y139.657000 Z0.200000 A59.031010
G1 X61.409000 Y139.657000 Z0.200000 A59.042640
G1 X61.409000 Y77.343000 Z0.200000 A60.251630
G1 X62.009000 Y77.343000 Z0.200000 A60.263270
G1 X62.009000 Y139.657000 Z0.200000 A61.472250
G1 X62.609000 Y139.657000 Z0.200000 A61.483890
G1 X62.609000 Y77.343000 Z0.200000 A62.692880
G1 X63.209000 Y77.343000 Z0.200000 A62.704520
G1 X63.209000 Y139.657000 Z0.200000 A63.913500
G1 X63.809000 Y139.657000 Z0.200000 A63.925140
G1 X63.809000 Y77.343000 Z0.200000 A65.134130
G1 X64.409000 Y77.343000 Z0.200000 A65.145770
G1 X64.409000 Y139.657000 Z0.200000 A66.354760
G1 X65.008000 Y139.657000 Z0.200000 A66.366390
G1 X65.008000 Y77.343000 Z0.200000 A67.575380
G1 X65.608000 Y77.343000 Z0.200000 A67.587020
G1 X65.608000 Y139.657000 Z0.200000 A68.796000
G1 X66.208000 Y139.657000 Z0.200000 A68.807640
G1 X66.208000 Y77.343000 Z0.200000 A70.016630
G1 X66.808000 Y77.343000 Z0.200000 A70.028270
G1 X66.808000 Y139.657000 Z0.200000 A71.237250
G1 X67.408000 Y139.657000 Z0.200000 A71.248890
G1 X67.408000 Y77.343000 Z0.200000 A72.457880
G1 X68.008000 Y77.343000 Z0.200000 A72.469520
G1 X68.008000 Y139.657000 Z0.200000 A73.678500
G1 X68.608000 Y139.657000 Z0.200000 A73.690140
G1 X68.608000 Y77.343000 Z0.200000 A74.899130
G1 X69.208000 Y77.343000 Z0.200000 A74.910770
G1 X69.208000 Y139.657000 Z0.200000 A76.119750
G1 X69.808000 Y139.657000 Z0.200000 A76.131390
G1 X69.808000 Y77.343000 Z0.200000 A77.340380
G1 X70.407000 Y77.343000 Z0.200000 A77.352020
G1 X70.407000 Y139.657000 Z0.200000 A78.561000
G1 X71.007000 Y139.657000 Z0.200000 A78.572640
G1 X71.007000 Y77.343000 Z0.200000 A79.781630
G1 X71.607000 Y77.343000 Z0.200000 A79.793270
G1 X71.607000 Y139.657000 Z0.200000 A81.002250
G1 X72.207000 Y139.657000 Z0.200000 A81.013890
G1 X72.207000 Y77.343000 Z0.200000 A82.222880
G1 X72.807000 Y77.343000 Z0.200000 A82.234510
G1 X72.807000 Y139.657000 Z0.200000 A83.443500
G1 X73.407000 Y139.657000 Z0.200000 A83.455140
G1 X73.407000 Y77.343000 Z0.200000 A84.664130
G1 X74.007000 Y77.343000 Z0.200000 A84.675760
G1 X74.007000 Y139.657000 Z0.200000 A85.884750
G1 X74.607000 Y139.657000 Z0.200000 A85.896390
G1 X74.607000 Y77.343000 Z0.200000 A87.105380
G1 X75.207000 Y77.343000 Z0.200000 A87.117010
G1 X75.207000 Y139.657000 Z0.200000 A88.326000
G1 X75.806000 Y139.657000 Z0.200000 A88.337640
G1 X75.806000 Y77.343000 Z0.200000 A89.546630
G1 X76.406000 Y77.343000 Z0.200000 A89.558270
G1 X76.406000 Y139.657000 Z0.200000 A90.767250
G1 X77.006000 Y139.657000 Z0.200000 A90.778890
G1 X77.006000 Y77.343000 Z0.200000 A91.987870
G1 X77.606000 Y77.343000 Z0.200000 A91.999510
G1 X77.606000 Y139.657000 Z0.200000 A93.208500
G1 X78.206000 Y139.657000 Z0.200000 A93.220140
G1 X78.206000 Y77.343000 Z0.200000 A94.429120
G1 X78.806000 Y77.343000 Z0.200000 A94.440760
G1 X78.806000 Y139.657000 Z0.200000 A95.649750
G1 X79.406000 Y139.657000 Z0.200000 A95.661390
G1 X79.406000 Y77.343000 Z0.200000 A96.870380
G1 X80.006000 Y77.343000 Z0.200000 A96.882010
G1 X80.006000 Y139.657000 Z0.200000 A98.091000
G1 X80.605000 Y139.657000 Z0.200000 A98.102640
G1 X80.605000 Y77.343000 Z0.200000 A99.311620
G1 X81.205000 Y77.343000 Z0.200000 A99.323260
G1 X81.205000 Y139.657000 Z0.200000 A100.532250
G1 X81.805000 Y139.657000 Z0.200000 A100.543890
G1 X81.805000 Y77.343000 Z0.200000 A101.752870
G1 X82.405000 Y77.343000 Z0.200000 A101.764510
G1 X82.405000 Y139.657000 Z0.200000 A102.973500
G1 X83.005000 Y139.657000 Z0.200000 A102.985140
G1 X83.005000 Y77.343000 Z0.200000 A104.194120
G1 X83.605000 Y77.343000 Z0.200000 A104.205760
G1 X83.605000 Y139.657000 Z0.200000 A105.414750
G1 X84.205000 Y139.657000 Z0.200000 A105.426390
G1 X84.205000 Y77.343000 Z0.200000 A106.635370
G1 X84.805000 Y77.343000 Z0.200000 A106.647010
G1 X84.805000 Y139.657000 Z0.200000 A107.856000
G1 X85.404000 Y139.657000 Z0.200000 A107.867640
G1 X85.404000 Y77.343000 Z0.200000 A109.076620
G1 X86.004000 Y77.343000 Z0.200000 A109.088260
G1 X86.004000 Y139.657000 Z0.200000 A110.297250
G1 X86.604000 Y139.657000 Z0.200000 A110.308890
G1 X86.604000 Y77.343000 Z0.200000 A111.517870
G1 X87.204000 Y77.343000 Z0.200000 A111.529510
G1 X87.204000 Y139.657000 Z0.200000 A112.738500
G1 X87.804000 Y139.657000 Z0.200000 A112.750140
G1 X87.804000 Y77.343000 Z0.200000 A113.959120
G1 X88.404000 Y77.343000 Z0.200000 A113.970760
G1 X88.404000 Y139.657000 Z0.200000 A115.179750
G1 X89.004000 Y139.657000 Z0.200000 A115.191380
G1 X89.004000 Y77.343000 Z0.200000 A116.400370
G1 X89.604000 Y77.343000 Z0.200000 A116.412010
G1 X89.604000 Y139.657000 Z0.200000 A117.621000
G1 X90.204000 Y139.657000 Z0.200000 A117.632630
G1 X90.204000 Y77.343000 Z0.200000 A118.841620
G1 X90.804000 Y77.343000 Z0.200000 A118.853260
G1 X90.804000 Y139.657000 Z0.200000 A120.062250
G1 X91.403000 Y139.657000 Z0.200000 A120.073890
G1 X91.403000 Y77.343000 Z0.200000 A121.282870
G1 X92.003000 Y77.343000 Z0.200000 A121.294510
G1 X92.003000 Y139.657000 Z0.200000 A122.503490
G1 X92.603000 Y139.657000 Z0.200000 A122.515130
G1 X92.603000 Y77.343000 Z0.200000 A123.724120
G1 X93.203000 Y77.343000 Z0.200000 A123.735760
G1 X93.203000 Y139.657000 Z0.200000 A124.944740
G1 X93.803000 Y139.657000 Z0.200000 A124.956380
G1 X93.803000 Y77.343000 Z0.200000 A126.165370
G1 X94.403000 Y77.343000 Z0.200000 A126.177010
G1 X94.403000 Y139.657000 Z0.200000 A127.385990
G1 X95.003000 Y139.657000 Z0.200000 A127.397630
G1 X95.003000 Y77.343000 Z0.200000 A128.606620
G1 X95.602000 Y77.343000 Z0.200000 A128.618260
G1 X95.602000 Y139.657000 Z0.200000 A129.827240
G1 X96.202000 Y139.657000 Z0.200000 A129.838880
G1 X96.202000 Y77.343000 Z0.200000 A131.047870
G1 X96.802000 Y77.343000 Z0.200000 A131.059510
G1 X96.802000 Y139.657000 Z0.200000 A132.268490
G1 X97.402000 Y139.657000 Z0.200000 A132.280130
G1 X97.402000 Y77.343000 Z0.200000 A133.489120
G1 X98.002000 Y77.343000 Z0.200000 A133.500760
G1 X98.002000 Y139.657000 Z0.200000 A134.709740
G1 X98.602000 Y139.657000 Z0.200000 A134.721380
G1 X98.602000 Y77.343000 Z0.200000 A135.930370
G1 X99.202000 Y77.343000 Z0.200000 A135.942010
G1 X99.202000 Y139.657000 Z0.200000 A137.150990
G1 X99.802000 Y139.657000 Z0.200000 A137.162630
G1 X99.802000 Y77.343000 Z0.200000 A138.371620
G1 X100.402000 Y77.343000 Z0.200000 A138.383260
G1 X100.402000 Y139.657000 Z0.200000 A139.592240
G1 X101.001000 Y139.657000 Z0.200000 A139.603880
G1 X101.001000 Y77.343000 Z0.200000 A140.812870
G1 X101.601000 Y77.343000 Z0.200000 A140.824510
G1 X101.601000 Y139.657000 Z0.200000 A142.033490
G1 X102.201000 Y139.657000 Z0.200000 A142.045130
G1 X102.201000 Y77.343000 Z0.200000 A143.254120
G1 X102.801000 Y77.343000 Z0.200000 A143.265760
G1 X102.801000 Y139.657000 Z0.200000 A144.474740
G1 X103.401000 Y139.657000 Z0.200000 A144.486380
G1 X103.401000 Y77.343000 Z0.200000 A145.695370
G1 X104.001000 Y77.343000 Z0.200000 A145.707000
G1 X104.001000 Y139.657000 Z0.200000 A146.915990
G1 X104.601000 Y139.657000 Z0.200000 A146.927630
G1 X104.601000 Y77.343000 Z0.200000 A148.136620
G1 X105.201000 Y77.343000 Z0.200000 A148.148250
G1 X105.201000 Y139.657000 Z0.200000 A149.357240
G1 X105.801000 Y139.657000 Z0.200000 A149.368880
G1 X105.801000 Y77.343000 Z0.200000 A150.577870
G1 X106.400000 Y77.343000 Z0.200000 A150.589510
G1 X106.400000 Y139.657000 Z0.200000 A151.798490
G1 X107.000000 Y139.657000 Z0.200000 A151.810130
G1 X107.000000 Y77.343000 Z0.200000 A153.019110
G1 X107.600000 Y77.343000 Z0.200000 A153.030750
G1 X107.600000 Y139.657000 Z0.200000 A154.239740
G1 X108.200000 Y139.657000 Z0.200000 A154.251380
G1 X108.200000 Y77.343000 Z0.200000 A155.460360
G1 X108.800000 Y77.343000 Z0.200000 A155.472000
G1 X108.800000 Y139.657000 Z0.200000 A156.680990
G1 X109.400000 Y139.657000 Z0.200000 A156.692630
G1 X109.400000 Y77.343000 Z0.200000 A157.901610
G1 X110.000000 Y77.343000 Z0.200000 A157.913250
G1 X110.000000 Y139.657000 Z0.200000 A159.122240
G1 X110.600000 Y139.657000 Z0.200000 A159.133880
G1 X110.600000 Y77.343000 Z0.200000 A160.342870
G1 X111.200000 Y77.343000 Z0.200000 A160.354500
G1 X111.200000 Y139.657000 Z0.200000 A161.563490
G1 X111.799000 Y139.657000 Z0.200000 A161.575130
G1 X111.799000 Y77.343000 Z0.200000 A162.784110
G1 X112.399000 Y77.343000 Z0.200000 A162.795750
G1 X112.399000 Y139.657000 Z0.200000 A164.004740
G1 X112.999000 Y139.657000 Z0.200000 A164.016380
G1 X112.999000 Y77.343000 Z0.200000 A165.225360
G1 X113.599000 Y77.343000 Z0.200000 A165.237000
G1 X113.599000 Y139.657000 Z0.200000 A166.445990
G1 X114.199000 Y139.657000 Z0.200000 A166.457630
G1 X114.199000 Y77.343000 Z0.200000 A167.666610
G1 X114.799000 Y77.343000 Z0.200000 A167.678250
G1 X114.799000 Y139.657000 Z0.200000 A168.887240
G1 X115.399000 Y139.657000 Z0.200000 A168.898880
G1 X115.399000 Y77.343000 Z0.200000 A170.107860
G1 X115.999000 Y77.343000 Z0.200000 A170.119500
G1 X115.999000 Y139.657000 Z0.200000 A171.328490
G1 X116.599000 Y139.657000 Z0.200000 A171.340130
G1 X116.599000 Y77.343000 Z0.200000 A172.549110
G1 X117.198000 Y77.343000 Z0.200000 A172.560750
G1 X117.198000 Y139.657000 Z0.200000 A173.769740
G1 X117.798000 Y139.657000 Z0.200000 A173.781380
G1 X117.798000 Y77.343000 Z0.200000 A174.990360
G1 X118.398000 Y77.343000 Z0.200000 A175.002000
G1 X118.398000 Y139.657000 Z0.200000 A176.210990
G1 X118.998000 Y139.657000 Z0.200000 A176.222620
G1 X118.998000 Y77.343000 Z0.200000 A177.431610
G1 X119.598000 Y77.343000 Z0.200000 A177.443250
G1 X119.598000 Y139.657000 Z0.200000 A178.652240
G1 X120.198000 Y139.657000 Z0.200000 A178.663870
G1 X120.198000 Y77.343000 Z0.200000 A179.872860
G1 X120.798000 Y77.343000 Z0.200000 A179.884500
G1 X120.798000 Y139.657000 Z0.200000 A181.093490
G1 X121.398000 Y139.657000 Z0.200000 A181.105120
G1 X121.398000 Y77.343000 Z0.200000 A182.314110
G1 X121.998000 Y77.343000 Z0.200000 A182.325750
G1 X121.998000 Y139.657000 Z0.200000 A183.534740
G1 X122.597000 Y139.657000 Z0.200000 A183.546370
G1 X122.597000 Y77.343000 Z0.200000 A184.755360
G1 X123.197000 Y77.343000 Z0.200000 A184.767000
G1 X123.197000 Y139.657000 Z0.200000 A185.975980
G1 X123.797000 Y139.657000 Z0.200000 A185.987620
G1 X123.797000 Y77.343000 Z0.200000 A187.196610
G1 X124.397000 Y77.343000 Z0.200000 A187.208250
G1 X124.397000 Y139.657000 Z0.200000 A188.417230
G1 X124.997000 Y139.657000 Z0.200000 A188.428870
G1 X124.997000 Y77.343000 Z0.200000 A189.637860
G1 X125.597000 Y77.343000 Z0.200000 A189.649500
G1 X125.597000 Y139.657000 Z0.200000 A190.858490
G1 X126.197000 Y139.657000 Z0.200000 A190.870120
G1 X126.197000 Y77.343000 Z0.200000 A192.079110
G1 X126.796000 Y77.343000 Z0.200000 A192.090750
G1 X126.796000 Y139.657000 Z0.200000 A193.299730
G1 X127.396000 Y139.657000 Z0.200000 A193.311370
G1 X127.396000 Y77.343000 Z0.200000 A194.520360
G1 X127.996000 Y77.343000 Z0.200000 A194.532000
G1 X127.996000 Y139.657000 Z0.200000 A195.740980
G1 X128.596000 Y139.657000 Z0.200000 A195.752620
G1 X128.596000 Y77.343000 Z0.200000 A196.961610
G1 X129.196000 Y77.343000 Z0.200000 A196.973250
G1 X129.196000 Y139.657000 Z0.200000 A198.182230
G1 X129.796000 Y139.657000 Z0.200000 A198.193870
G1 X129.796000 Y77.343000 Z0.200000 A199.402860
G1 X130.396000 Y77.343000 Z0.200000 A199.414500
G1 X130.396000 Y139.657000 Z0.200000 A200.623480
G1 X130.996000 Y139.657000 Z0.200000 A200.635120
G1 X130.996000 Y77.343000 Z0.200000 A201.844110
G1 X131.596000 Y77.343000 Z0.200000 A201.855750
