; generated by Slic3r 0.9.9 on 2013-07-19 at 13:16:35

; layer_height = 0.2
; perimeters = 3
; top_solid_layers = 3
; bottom_solid_layers = 3
; fill_density = 0.25
; perimeter_speed = 20
; infill_speed = 40
; travel_speed = 130
; nozzle_diameter = 0.4
; filament_diameter = 2.95
; extrusion_multiplier = 1.105263
; perimeters extrusion width = 0.60mm
; infill extrusion width = 0.60mm
; solid infill extrusion width = 0.60mm
; top infill extrusion width = 0.60mm

G21 ; set units to millimeters
M190 P60 ; wait for bed temperature to be reached
M104 P175 ; set temperature
G92 A0                  ; Reset A to 0
G40                        ; Cancel cutter compensation
G64 P0.1                ; Path Blend within .1mm
G0 X108.5 Y200    ; Move to plate
M109 P175 ; wait for temperature to be reached
G90 ; use absolute coordinates
G0 Z0.200 F5400.000 A-1.50000
o<wipe_nozzle> call
G0 X84.041 Y89.744 F7800.000
G0 F5400.000 A0.00000
G1 X84.521000 Y89.344000 Z0.200000 A0.011260 F360.000000
G3 X89.201000 Y86.804000 Z0.200000 A0.107830 I8.0935 J9.3309
G1 X91.971000 Y86.304000 Z0.200000 A0.158540
G1 X112.521000 Y83.374000 Z0.200000 A0.532530
G1 X113.471000 Y83.344000 Z0.200000 A0.549650
G3 X121.301000 Y86.364000 Z0.200000 A0.703500 I-0.3347 J12.5283
G1 X122.021000 Y86.934000 Z0.200000 A0.720040
G3 X136.951000 Y100.464000 Z0.200000 A1.083080 I-125.0324 J152.9724
G1 X137.421000 Y101.044000 Z0.200000 A1.096530
G3 X139.671000 Y105.524000 Z0.200000 A1.187640 I-8.1218 J6.8840
G1 X139.991000 Y107.334000 Z0.200000 A1.220760
G3 X139.931000 Y110.084000 Z0.200000 A1.270630 I-6.9650 J1.2237
G1 X139.471000 Y112.184000 Z0.200000 A1.309360
G3 X137.411000 Y115.924000 Z0.200000 A1.386780 I-8.8140 J-2.4175
G1 X137.171000 Y116.244000 Z0.200000 A1.393990
G3 X126.461000 Y129.954000 Z0.200000 A1.707470 I-113.8373 J-77.8894
G1 X126.021000 Y130.354000 Z0.200000 A1.718180
G3 X120.821000 Y133.134000 Z0.200000 A1.825370 I-8.4569 J-9.5653
G1 X118.361000 Y133.574000 Z0.200000 A1.870400
G3 X117.591000 Y133.644000 Z0.200000 A1.884340 I-0.8290 J-4.8490
G1 X89.581000 Y133.644000 Z0.200000 A2.388990
G3 X83.651000 Y131.904000 Z0.200000 A2.501400 I0.3611 J-12.2055
G1 X81.551000 Y130.444000 Z0.200000 A2.547480
G3 X80.031000 Y128.874000 Z0.200000 A2.586990 I4.2159 J-5.6025
G1 X78.481000 Y126.454000 Z0.200000 A2.638770
G3 X77.691000 Y124.404000 Z0.200000 A2.678500 I6.0847 J-3.5221
G1 X74.511000 Y109.864000 Z0.200000 A2.946660
G3 X74.921000 Y105.544000 Z0.200000 A3.026110 I6.7204 J-1.5416
G1 X75.391000 Y104.444000 Z0.200000 A3.047660
G3 X83.611000 Y90.184000 Z0.200000 A3.344640 I65.7725 J28.4146
G1 X83.982000 Y89.804000 Z0.200000 A3.354220
G0 X84.421 Y90.154 F7800.000
G1 X84.861000 Y89.784000 Z0.200000 A3.364580 F360.000000
G3 X89.041000 Y87.414000 Z0.200000 A3.451550 I9.3492 J11.6181
G1 X89.601000 Y87.294000 Z0.200000 A3.461870
G3 X113.161000 Y83.894000 Z0.200000 A3.890810 I56.0430 J305.0167
G1 X113.741000 Y83.914000 Z0.200000 A3.901270
G3 X118.591000 Y85.204000 Z0.200000 A3.992110 I-1.4181 J15.0940
G1 X119.131000 Y85.544000 Z0.200000 A4.003610
G3 X121.641000 Y87.344000 Z0.200000 A4.059280 I-13.2325 J21.1021
G1 X136.051000 Y100.354000 Z0.200000 A4.409060
G3 X138.461000 Y103.694000 Z0.200000 A4.483530 I-7.3605 J7.8505
G1 X138.711000 Y104.224000 Z0.200000 A4.494090
G3 X139.001000 Y111.764000 Z0.200000 A4.632570 I-10.2632 J4.1703
G1 X138.831000 Y112.384000 Z0.200000 A4.644150
G3 X137.991000 Y114.094000 Z0.200000 A4.678590 I-5.7842 J-1.7800
G1 X136.731000 Y115.904000 Z0.200000 A4.718330
G3 X126.211000 Y129.414000 Z0.200000 A5.026840 I-120.9775 J-83.3522
G1 X125.751000 Y129.854000 Z0.200000 A5.038310
G3 X120.721000 Y132.584000 Z0.200000 A5.142380 I-8.1527 J-9.0223
G1 X118.511000 Y132.984000 Z0.200000 A5.182840
G3 X117.341000 Y133.094000 Z0.200000 A5.204030 I-1.1893 J-6.3723
G1 X89.891000 Y133.094000 Z0.200000 A5.698600
G3 X83.971000 Y131.444000 Z0.200000 A5.810480 I0.1989 J-12.1586
G1 X82.121000 Y130.164000 Z0.200000 A5.851010
G3 X80.331000 Y128.314000 Z0.200000 A5.897690 I3.5111 J-5.1882
G1 X78.971000 Y126.174000 Z0.200000 A5.943370
G3 X78.231000 Y124.284000 Z0.200000 A5.980070 I5.5535 J-3.2643
G1 X75.051000 Y109.744000 Z0.200000 A6.248230
G3 X75.431000 Y105.764000 Z0.200000 A6.321380 I6.4131 J-1.3958
G1 X75.901000 Y104.664000 Z0.200000 A6.342940
G3 X83.831000 Y90.774000 Z0.200000 A6.631400 I70.5614 J31.0758
G1 X84.362000 Y90.214000 Z0.200000 A6.645320
G0 Z0.700 F1620.000 A5.14532
G0 X114.432 Y117.659 F7800.000
G0 Z0.200
G0 F5400.000 A6.64532
G1 X115.857000 Y116.741000 Z0.200000 A6.675850 F360.000000
G1 X117.520000 Y116.439000 Z0.200000 A6.706320
G1 X119.176000 Y116.800000 Z0.200000 A6.736830
G1 X120.565000 Y117.764000 Z0.200000 A6.767310
G1 X121.482000 Y119.187000 Z0.200000 A6.797820
G1 X121.782000 Y120.854000 Z0.200000 A6.828320
G1 X121.423000 Y122.508000 Z0.200000 A6.858810
G1 X120.459000 Y123.900000 Z0.200000 A6.889320
G1 X119.037000 Y124.814000 Z0.200000 A6.919780
G1 X117.369000 Y125.116000 Z0.200000 A6.950330
G1 X115.716000 Y124.758000 Z0.200000 A6.980790
G1 X114.324000 Y123.791000 Z0.200000 A7.011330
G1 X113.407000 Y122.368000 Z0.200000 A7.041830
G1 X113.108000 Y120.704000 Z0.200000 A7.072290
G1 X113.466000 Y119.048000 Z0.200000 A7.102820
G1 X114.384000 Y117.727000 Z0.200000 A7.131800
G0 X114.037 Y117.250 F7800.000
G1 X115.648000 Y116.213000 Z0.200000 A7.166320 F360.000000
G1 X117.530000 Y115.871000 Z0.200000 A7.200780
G1 X119.402000 Y116.279000 Z0.200000 A7.235300
G1 X120.974000 Y117.369000 Z0.200000 A7.269760
G1 X122.011000 Y118.979000 Z0.200000 A7.304260
G1 X122.349000 Y120.864000 Z0.200000 A7.338760
G1 X121.944000 Y122.734000 Z0.200000 A7.373240
G1 X120.854000 Y124.308000 Z0.200000 A7.407740
G1 X119.245000 Y125.342000 Z0.200000 A7.442200
G1 X117.359000 Y125.684000 Z0.200000 A7.476730
G1 X115.490000 Y125.279000 Z0.200000 A7.511190
G1 X113.915000 Y124.186000 Z0.200000 A7.545720
G1 X112.878000 Y122.576000 Z0.200000 A7.580220
G1 X112.540000 Y120.694000 Z0.200000 A7.614670
G1 X112.945000 Y118.821000 Z0.200000 A7.649200
G1 X113.990000 Y117.319000 Z0.200000 A7.682170
G0 X113.676 Y116.820 F7800.000
G1 X115.440000 Y115.684000 Z0.200000 A7.719970 F360.000000
G1 X117.540000 Y115.303000 Z0.200000 A7.758430
G1 X119.629000 Y115.758000 Z0.200000 A7.796940
G1 X121.382000 Y116.975000 Z0.200000 A7.835390
G1 X122.539000 Y118.771000 Z0.200000 A7.873890
G1 X122.917000 Y120.874000 Z0.200000 A7.912390
G1 X122.465000 Y122.960000 Z0.200000 A7.950850
G1 X121.249000 Y124.717000 Z0.200000 A7.989340
G1 X119.453000 Y125.871000 Z0.200000 A8.027800
G1 X117.349000 Y126.252000 Z0.200000 A8.066320
G1 X115.263000 Y125.800000 Z0.200000 A8.104780
G1 X113.507000 Y124.580000 Z0.200000 A8.143300
G1 X112.350000 Y122.784000 Z0.200000 A8.181800
G1 X111.972000 Y120.684000 Z0.200000 A8.220240
G1 X112.424000 Y118.595000 Z0.200000 A8.258760
G1 X113.618000 Y116.878000 Z0.200000 A8.296420
G0 X114.200 Y117.010 F7800.000
G0 Z0.700 F1620.000 A6.79642
G0 X125.573 Y109.710 F7800.000
G0 Z0.200
G0 F5400.000 A8.29642
G1 X125.500000 Y109.595000 Z0.200000 A8.298890 F360.000000
G1 X125.292000 Y108.450000 Z0.200000 A8.319870
G1 X125.539000 Y107.308000 Z0.200000 A8.340910
G1 X126.204000 Y106.349000 Z0.200000 A8.361940
G1 X127.184000 Y105.719000 Z0.200000 A8.382920
G1 X128.333000 Y105.511000 Z0.200000 A8.403960
G1 X129.474000 Y105.758000 Z0.200000 A8.425010
G1 X130.432000 Y106.424000 Z0.200000 A8.446030
G1 X131.063000 Y107.403000 Z0.200000 A8.467000
G1 X131.271000 Y108.553000 Z0.200000 A8.488070
G1 X131.022000 Y109.695000 Z0.200000 A8.509120
G1 X130.360000 Y110.650000 Z0.200000 A8.530060
G1 X129.380000 Y111.280000 Z0.200000 A8.551050
G1 X128.230000 Y111.489000 Z0.200000 A8.572110
G1 X127.090000 Y111.242000 Z0.200000 A8.593130
G1 X126.129000 Y110.574000 Z0.200000 A8.614220
G1 X125.619000 Y109.781000 Z0.200000 A8.631210
G0 X125.105 Y110.012 F7800.000
G1 X124.971000 Y109.804000 Z0.200000 A8.635660 F360.000000
G1 X124.724000 Y108.440000 Z0.200000 A8.660640
G1 X125.018000 Y107.081000 Z0.200000 A8.685680
G1 X125.809000 Y105.941000 Z0.200000 A8.710690
G1 X126.976000 Y105.191000 Z0.200000 A8.735670
G1 X128.343000 Y104.943000 Z0.200000 A8.760710
G1 X129.700000 Y105.237000 Z0.200000 A8.785720
G1 X130.840000 Y106.029000 Z0.200000 A8.810740
G1 X131.592000 Y107.195000 Z0.200000 A8.835730
G1 X131.839000 Y108.562000 Z0.200000 A8.860770
G1 X131.544000 Y109.920000 Z0.200000 A8.885810
G1 X130.753000 Y111.059000 Z0.200000 A8.910770
G1 X129.587000 Y111.809000 Z0.200000 A8.935760
G1 X128.220000 Y112.057000 Z0.200000 A8.960790
G1 X126.864000 Y111.763000 Z0.200000 A8.985790
G1 X125.721000 Y110.970000 Z0.200000 A9.010860
G1 X125.150000 Y110.082000 Z0.200000 A9.029880
G0 X124.636 Y110.313 F7800.000
G1 X124.443000 Y110.012000 Z0.200000 A9.036320 F360.000000
G1 X124.156000 Y108.429000 Z0.200000 A9.065300
G1 X124.498000 Y106.855000 Z0.200000 A9.094330
G1 X125.414000 Y105.532000 Z0.200000 A9.123320
G1 X126.768000 Y104.663000 Z0.200000 A9.152310
G1 X128.354000 Y104.375000 Z0.200000 A9.181340
G1 X129.926000 Y104.715000 Z0.200000 A9.210330
G1 X131.248000 Y105.634000 Z0.200000 A9.239330
G1 X132.121000 Y106.987000 Z0.200000 A9.268350
G1 X132.407000 Y108.571000 Z0.200000 A9.297350
G1 X132.065000 Y110.146000 Z0.200000 A9.326380
G1 X131.147000 Y111.467000 Z0.200000 A9.355370
G1 X129.794000 Y112.337000 Z0.200000 A9.384360
G1 X128.210000 Y112.625000 Z0.200000 A9.413360
G1 X126.638000 Y112.285000 Z0.200000 A9.442340
G1 X125.313000 Y111.365000 Z0.200000 A9.471400
G1 X124.681000 Y110.383000 Z0.200000 A9.492440
G0 X124.800 Y109.995 F7800.000
G0 Z0.700 F1620.000 A7.99244
G0 X120.793 Y108.321 F7800.000
G0 Z0.200
G0 F5400.000 A9.49244
G1 X105.236000 Y120.473000 Z0.200000 A9.848100 F360.000000
G1 X93.830000 Y118.046000 Z0.200000 A10.058210
G1 X94.337000 Y120.854000 Z0.200000 A10.109610
G1 X93.977000 Y122.507000 Z0.200000 A10.140090
G1 X93.012000 Y123.900000 Z0.200000 A10.170620
G1 X91.590000 Y124.814000 Z0.200000 A10.201080
G1 X89.922000 Y125.116000 Z0.200000 A10.231630
G1 X88.269000 Y124.758000 Z0.200000 A10.262090
G1 X86.877000 Y123.792000 Z0.200000 A10.292620
G1 X85.963000 Y122.368000 Z0.200000 A10.323100
G1 X85.661000 Y120.703000 Z0.200000 A10.353600
G1 X86.019000 Y119.048000 Z0.200000 A10.384100
G1 X86.985000 Y117.659000 Z0.200000 A10.414580
G1 X88.407000 Y116.743000 Z0.200000 A10.445070
G1 X89.472000 Y116.551000 Z0.200000 A10.464550
G1 X90.082000 Y109.585000 Z0.200000 A10.590540
G1 X87.163000 Y109.844000 Z0.200000 A10.643340
G3 X83.846000 Y109.134000 Z0.200000 A10.704840 I-0.1106 J-7.5864
G1 X83.138000 Y108.585000 Z0.200000 A10.720990
G1 X83.067000 Y108.391000 Z0.200000 A10.724710
G1 X83.158000 Y108.178000 Z0.200000 A10.728870
G1 X83.920000 Y107.629000 Z0.200000 A10.745790
G1 X85.409000 Y107.152000 Z0.200000 A10.773960
G3 X90.285000 Y107.320000 Z0.200000 A10.862270 I2.0200 J12.2166
G1 X90.686000 Y102.757000 Z0.200000 A10.944810
G1 X89.764000 Y102.123000 Z0.200000 A10.964960
G1 X88.852000 Y100.701000 Z0.200000 A10.995390
G1 X88.550000 Y99.034000 Z0.200000 A11.025920
G1 X88.908000 Y97.382000 Z0.200000 A11.056390
G1 X89.874000 Y95.990000 Z0.200000 A11.086920
G1 X91.297000 Y95.075000 Z0.200000 A11.117400
G1 X92.963000 Y94.773000 Z0.200000 A11.147890
G1 X94.618000 Y95.131000 Z0.200000 A11.178400
G1 X96.007000 Y96.097000 Z0.200000 A11.208890
G1 X96.925000 Y97.522000 Z0.200000 A11.239430
G1 X97.318000 Y99.682000 Z0.200000 A11.278970
G1 X109.263000 Y98.848000 Z0.200000 A11.494710
G1 X108.775000 Y96.146000 Z0.200000 A11.544180
G1 X109.134000 Y94.492000 Z0.200000 A11.574670
G1 X110.098000 Y93.100000 Z0.200000 A11.605180
G1 X111.521000 Y92.184000 Z0.200000 A11.635670
G1 X113.187000 Y91.884000 Z0.200000 A11.666180
G1 X114.841000 Y92.242000 Z0.200000 A11.696670
G1 X116.233000 Y93.206000 Z0.200000 A11.727170
G1 X117.147000 Y94.631000 Z0.200000 A11.757680
G1 X117.449000 Y96.297000 Z0.200000 A11.788180
G1 X117.091000 Y97.953000 Z0.200000 A11.818700
G1 X116.125000 Y99.342000 Z0.200000 A11.849180
G1 X113.967000 Y100.737000 Z0.200000 A11.895480
G1 X120.737000 Y108.259000 Z0.200000 A12.077800
G0 X121.143 Y108.754 F7800.000
G1 X105.374000 Y121.072000 Z0.200000 A12.438320 F360.000000
G1 X94.526000 Y118.764000 Z0.200000 A12.638150
G1 X94.905000 Y120.864000 Z0.200000 A12.676600
G1 X94.498000 Y122.733000 Z0.200000 A12.711070
G1 X93.407000 Y124.308000 Z0.200000 A12.745590
G1 X91.798000 Y125.342000 Z0.200000 A12.780050
G1 X89.912000 Y125.684000 Z0.200000 A12.814580
G1 X88.043000 Y125.279000 Z0.200000 A12.849040
G1 X86.468000 Y124.186000 Z0.200000 A12.883570
G1 X85.434000 Y122.576000 Z0.200000 A12.918040
G1 X85.093000 Y120.693000 Z0.200000 A12.952520
G1 X85.498000 Y118.821000 Z0.200000 A12.987020
G1 X86.590000 Y117.250000 Z0.200000 A13.021510
G1 X88.199000 Y116.215000 Z0.200000 A13.055980
G1 X88.955000 Y116.078000 Z0.200000 A13.069810
G1 X89.470000 Y110.199000 Z0.200000 A13.176150
G1 X87.155000 Y110.404000 Z0.200000 A13.218020
G3 X83.575000 Y109.630000 Z0.200000 A13.284420 I-0.0989 J-8.2087
G1 X82.670000 Y108.927000 Z0.200000 A13.305070
G1 X82.468000 Y108.375000 Z0.200000 A13.315660
G1 X82.707000 Y107.817000 Z0.200000 A13.326600
G1 X83.664000 Y107.128000 Z0.200000 A13.347850
G1 X85.298000 Y106.603000 Z0.200000 A13.378770
G3 X89.780000 Y106.704000 Z0.200000 A13.459930 I1.9905 J11.1677
G1 X90.102000 Y103.031000 Z0.200000 A13.526360
G1 X89.356000 Y102.518000 Z0.200000 A13.542670
G1 X88.323000 Y100.910000 Z0.200000 A13.577110
G1 X87.982000 Y99.025000 Z0.200000 A13.611620
G1 X88.387000 Y97.155000 Z0.200000 A13.646080
G1 X89.480000 Y95.581000 Z0.200000 A13.680610
G1 X91.089000 Y94.547000 Z0.200000 A13.715080
G1 X92.972000 Y94.205000 Z0.200000 A13.749560
G1 X94.844000 Y94.610000 Z0.200000 A13.784070
G1 X96.416000 Y95.703000 Z0.200000 A13.818560
G1 X97.453000 Y97.314000 Z0.200000 A13.853080
G1 X97.776000 Y99.091000 Z0.200000 A13.885630
G1 X108.604000 Y98.335000 Z0.200000 A14.081190
G1 X108.208000 Y96.136000 Z0.200000 A14.121450
G1 X108.613000 Y94.266000 Z0.200000 A14.155930
G1 X109.703000 Y92.691000 Z0.200000 A14.190430
G1 X111.312000 Y91.655000 Z0.200000 A14.224920
G1 X113.198000 Y91.316000 Z0.200000 A14.259430
G1 X115.068000 Y91.721000 Z0.200000 A14.293900
G1 X116.642000 Y92.812000 Z0.200000 A14.328400
G1 X117.676000 Y94.423000 Z0.200000 A14.362910
G1 X118.017000 Y96.307000 Z0.200000 A14.397390
G1 X117.612000 Y98.179000 Z0.200000 A14.431900
G1 X116.520000 Y99.750000 Z0.200000 A14.466370
G1 X114.818000 Y100.850000 Z0.200000 A14.502890
G1 X121.606000 Y108.392000 Z0.200000 A14.685710
G1 X121.209000 Y108.702000 Z0.200000 A14.694790
G0 X121.486 Y109.193 F7800.000
G1 X105.512000 Y121.671000 Z0.200000 A15.060000 F252.000000
G1 X95.221000 Y119.482000 Z0.200000 A15.249550
G1 X95.473000 Y120.874000 Z0.200000 A15.275050
G1 X95.019000 Y122.960000 Z0.200000 A15.313520
G1 X93.802000 Y124.717000 Z0.200000 A15.352020
G1 X92.006000 Y125.871000 Z0.200000 A15.390480
G1 X89.902000 Y126.252000 Z0.200000 A15.429000
G1 X87.816000 Y125.800000 Z0.200000 A15.467450
G1 X86.060000 Y124.580000 Z0.200000 A15.505980
G1 X84.906000 Y122.784000 Z0.200000 A15.544440
G1 X84.525000 Y120.684000 Z0.200000 A15.582900
G1 X84.977000 Y118.594000 Z0.200000 A15.621420
G1 X86.196000 Y116.841000 Z0.200000 A15.659890
G1 X87.992000 Y115.686000 Z0.200000 A15.698360
G1 X88.438000 Y115.605000 Z0.200000 A15.706540
G1 X88.858000 Y110.813000 Z0.200000 A15.793220
G1 X87.146000 Y110.964000 Z0.200000 A15.824170
G3 X83.304000 Y110.125000 Z0.200000 A15.895480 I-0.0903 J-8.8026
G1 X82.203000 Y109.269000 Z0.200000 A15.920610
G1 X81.869000 Y108.359000 Z0.200000 A15.938080
G1 X82.256000 Y107.456000 Z0.200000 A15.955770
G1 X83.408000 Y106.625000 Z0.200000 A15.981370
G1 X85.188000 Y106.053000 Z0.200000 A16.015050
G3 X89.275000 Y106.088000 Z0.200000 A16.089050 I1.9568 J10.1375
