; generated by Slic3r 0.9.9 on 2013-07-17 at 19:17:11

; layer_height = 0.2
; perimeters = 3
; top_solid_layers = 3
; bottom_solid_layers = 3
; fill_density = 1
; perimeter_speed = 20
; infill_speed = 40
; travel_speed = 130
; nozzle_diameter = 0.4
; filament_diameter = 2.95
; extrusion_multiplier = 1.105263
; perimeters extrusion width = 0.56mm
; infill extrusion width = 0.56mm
; solid infill extrusion width = 0.56mm
; top infill extrusion width = 0.56mm

G21 ; set units to millimeters
M190 P115 ; wait for bed temperature to be reached
M104 P210 ; set temperature
G92 A0                  ; Reset A to 0
G40                        ; Cancel cutter compensation
G64 P0.1                ; Path Blend within .1mm
G0 X108.5 Y200    ; Move to plate
M109 P210 ; wait for temperature to be reached
G90 ; use absolute coordinates
G0 Z0.200 F5400.000 A-2.00000
G0 X76.002 Y79.117 F7800.000
G0 F5400.000 A0.00000
G1 X76.622000 Y78.567000 Z0.200000 A0.014090 F360.000000
G3 X80.712000 Y77.057000 Z0.200000 A0.089390 I4.3731 J5.5510
G1 X135.552000 Y77.057000 Z0.200000 A1.021710
G3 X142.332000 Y83.977000 Z0.200000 A1.203210 I-0.2623 J7.0384
G1 X143.062000 Y123.667000 Z0.200000 A1.878080
G1 X143.012000 Y133.727000 Z0.200000 A2.049150
G1 X142.932000 Y134.277000 Z0.200000 A2.058600
G3 X136.292000 Y139.947000 Z0.200000 A2.218530 I-6.9189 J-1.3796
G1 X81.442000 Y139.947000 Z0.200000 A3.151030
G3 X74.662000 Y133.027000 Z0.200000 A3.332510 I0.2623 J-7.0384
G1 X73.942000 Y93.337000 Z0.200000 A4.007390
G1 X73.992000 Y83.277000 Z0.200000 A4.178450
G1 X74.072000 Y82.727000 Z0.200000 A4.187900
G3 X75.947000 Y79.174000 Z0.200000 A4.257110 I6.9514 J1.3972
G0 X76.282 Y79.587 F7800.000
G1 X76.662000 Y79.227000 Z0.200000 A4.266010 F360.000000
G3 X80.992000 Y77.577000 Z0.200000 A4.346530 I4.2932 J4.7599
G1 X135.282000 Y77.577000 Z0.200000 A5.269500
G3 X141.802000 Y83.987000 Z0.200000 A5.441710 I0.0059 J6.5149
G1 X142.542000 Y123.797000 Z0.200000 A6.118630
G3 X142.452000 Y133.947000 Z0.200000 A6.291260 I-59.2533 J4.5500
G1 X142.282000 Y134.717000 Z0.200000 A6.304670
G3 X136.012000 Y139.427000 Z0.200000 A6.447590 I-6.2585 J-1.8031
G1 X81.712000 Y139.427000 Z0.200000 A7.370740
G3 X75.192000 Y133.017000 Z0.200000 A7.542950 I-0.0059 J-6.5149
G1 X74.462000 Y93.207000 Z0.200000 A8.219860
G3 X74.552000 Y83.057000 Z0.200000 A8.392500 I59.2533 J-4.5500
G1 X74.722000 Y82.287000 Z0.200000 A8.405910
G3 X76.229000 Y79.645000 Z0.200000 A8.458070 I6.1615 J1.7637
G0 Z0.700 F1620.000 A6.45807
G0 X82.152 Y92.040 F7800.000
G0 Z0.200
G0 F5400.000 A8.45807
G1 X82.152000 Y85.267000 Z0.200000 A8.515420 F360.000000
G0 Z0.700 F1620.000 A6.51542
G0 X133.997 Y91.967 F7800.000
G0 Z0.200
G0 F5400.000 A8.51542
G1 X133.997000 Y91.967000 Z0.200000 A8.515420 F360.000000
G0 X133.915 Y92.415 F7800.000
G1 X133.092000 Y91.592000 Z0.200000 A8.535210 F360.000000
G1 X133.677000 Y91.592000 Z0.200000 A8.545150
G1 X133.677000 Y84.892000 Z0.200000 A8.659060
G1 X134.500000 Y84.892000 Z0.200000 A8.673050
G1 X134.500000 Y92.415000 Z0.200000 A8.800950
G1 X133.994000 Y92.415000 Z0.200000 A8.809550
G0 Z0.700 F1620.000 A6.80955
G0 X83.185 Y91.592 F7800.000
G0 Z0.200
G0 F5400.000 A8.80955
G1 X82.362000 Y92.415000 Z0.200000 A8.829340 F360.000000
G1 X81.777000 Y92.415000 Z0.200000 A8.839280
G1 X81.777000 Y84.892000 Z0.200000 A8.967180
G1 X82.600000 Y84.892000 Z0.200000 A8.981170
G1 X82.600000 Y91.592000 Z0.200000 A9.095070
G1 X83.106000 Y91.592000 Z0.200000 A9.103680
G0 X83.126 Y91.066 F7800.000
G1 X84.454000 Y91.066000 Z0.200000 A9.126260 F252.000000
G1 X82.579000 Y92.941000 Z0.200000 A9.171320
G1 X81.251000 Y92.941000 Z0.200000 A9.193910
G1 X81.251000 Y84.366000 Z0.200000 A9.339680
G1 X135.026000 Y84.366000 Z0.200000 A10.253880
G1 X135.026000 Y92.941000 Z0.200000 A10.399660
G1 X133.697000 Y92.941000 Z0.200000 A10.422240
G1 X131.823000 Y91.066000 Z0.200000 A10.467300
G1 X133.151000 Y91.066000 Z0.200000 A10.489880
G1 X133.151000 Y88.741000 Z0.200000 A10.529420
G1 X131.851000 Y88.741000 Z0.200000 A10.551520
G1 X131.851000 Y88.066000 Z0.200000 A10.562990
G1 X133.151000 Y88.066000 Z0.200000 A10.585090
G1 X133.151000 Y85.041000 Z0.200000 A10.636530
G1 X83.126000 Y85.041000 Z0.200000 A11.487000
G1 X83.126000 Y88.066000 Z0.200000 A11.538440
G1 X86.526000 Y88.066000 Z0.200000 A11.596250
G1 X86.526000 Y88.741000 Z0.200000 A11.607710
G1 X83.126000 Y88.741000 Z0.200000 A11.665510
G1 X83.126000 Y90.987000 Z0.200000 A11.703710
G0 X83.126 Y91.592 F7800.000
G0 Z0.200 F5400.000 A9.70371
G0 X82.875 Y131.733 F7800.000
G0 F5400.000 A11.70371
G1 X82.875000 Y124.960000 Z0.200000 A11.761050 F360.000000
G0 Z0.700 F1620.000 A9.76105
G0 X134.720 Y131.660 F7800.000
G0 Z0.200
G0 F5400.000 A11.76105
G1 X134.720000 Y131.660000 Z0.200000 A11.761060 F360.000000
G0 X134.638 Y132.108 F7800.000
G1 X133.815000 Y131.285000 Z0.200000 A11.780840 F360.000000
G1 X134.400000 Y131.285000 Z0.200000 A11.790790
G1 X134.400000 Y124.585000 Z0.200000 A11.904690
G1 X135.223000 Y124.585000 Z0.200000 A11.918680
G1 X135.223000 Y132.108000 Z0.200000 A12.046580
G1 X134.717000 Y132.108000 Z0.200000 A12.055190
G0 Z0.700 F1620.000 A10.05519
G0 X83.908 Y131.285 F7800.000
G0 Z0.200
G0 F5400.000 A12.05519
G1 X83.085000 Y132.108000 Z0.200000 A12.074970 F360.000000
G1 X82.500000 Y132.108000 Z0.200000 A12.084920
G1 X82.500000 Y124.585000 Z0.200000 A12.212810
G1 X83.323000 Y124.585000 Z0.200000 A12.226810
G1 X83.323000 Y131.285000 Z0.200000 A12.340710
G1 X83.829000 Y131.285000 Z0.200000 A12.349310
G0 X83.849 Y130.759 F7800.000
G1 X85.177000 Y130.759000 Z0.200000 A12.371900 F252.000000
G1 X83.303000 Y132.634000 Z0.200000 A12.416960
G1 X81.974000 Y132.634000 Z0.200000 A12.439540
G1 X81.974000 Y124.059000 Z0.200000 A12.585310
G1 X135.749000 Y124.059000 Z0.200000 A13.499520
G1 X135.749000 Y132.634000 Z0.200000 A13.645290
G1 X134.421000 Y132.634000 Z0.200000 A13.667870
G1 X132.546000 Y130.759000 Z0.200000 A13.712940
G1 X133.874000 Y130.759000 Z0.200000 A13.735520
G1 X133.874000 Y128.434000 Z0.200000 A13.775060
G1 X132.574000 Y128.434000 Z0.200000 A13.797160
G1 X132.574000 Y127.759000 Z0.200000 A13.808620
G1 X133.874000 Y127.759000 Z0.200000 A13.830720
G1 X133.874000 Y124.734000 Z0.200000 A13.882160
G1 X83.849000 Y124.734000 Z0.200000 A14.732640
G1 X83.849000 Y127.759000 Z0.200000 A14.784080
G1 X87.249000 Y127.759000 Z0.200000 A14.841880
G1 X87.249000 Y128.434000 Z0.200000 A14.853350
G1 X83.849000 Y128.434000 Z0.200000 A14.911150
G1 X83.849000 Y130.681000 Z0.200000 A14.949350
G0 X83.849 Y131.285 F7800.000
M140 P110 ; set bed temperature
G0 Z0.400 F5400.000 A12.94935
G0 X81.442 Y139.947 F7800.000
G0 F5400.000 A14.94935
G1 X80.622000 Y139.867000 Z0.400000 A14.963350 F1200.000000
G3 X74.662000 Y133.027000 Z0.400000 A15.130830 I1.0780 J-6.9560
G1 X73.942000 Y93.337000 Z0.400000 A15.805710
G1 X73.992000 Y83.277000 Z0.400000 A15.976770
G1 X74.072000 Y82.727000 Z0.400000 A15.986220
G3 X80.712000 Y77.057000 Z0.400000 A16.146160 I6.9166 J1.3769
G1 X135.552000 Y77.057000 Z0.400000 A17.078480
G3 X142.322000 Y83.707000 Z0.400000 A17.255380 I-0.2622 J7.0380
G1 X143.062000 Y123.667000 Z0.400000 A17.934850
G1 X143.012000 Y133.727000 Z0.400000 A18.105910
G1 X142.932000 Y134.277000 Z0.400000 A18.115360
G3 X136.292000 Y139.947000 Z0.400000 A18.275300 I-6.9166 J-1.3769
G1 X81.521000 Y139.947000 Z0.400000 A19.206450
G0 X81.442 Y139.417 F7800.000
G1 X80.912000 Y139.377000 Z0.400000 A19.215490 F1200.000000
G3 X75.192000 Y133.017000 Z0.400000 A19.374080 I0.7895 J-6.4622
G1 X74.462000 Y93.207000 Z0.400000 A20.051000
G3 X74.652000 Y82.547000 Z0.400000 A20.232470 I43.8571 J-4.5500
G1 X74.802000 Y82.037000 Z0.400000 A20.241500
G3 X80.992000 Y77.577000 Z0.400000 A20.379970 I6.1606 J2.0248
G1 X135.282000 Y77.577000 Z0.400000 A21.302940
G3 X141.792000 Y83.717000 Z0.400000 A21.470540 I-0.0014 J6.5226
G1 X142.542000 Y123.797000 Z0.400000 A22.152050
G3 X142.352000 Y134.457000 Z0.400000 A22.333520 I-43.8571 J4.5500
G1 X142.282000 Y134.717000 Z0.400000 A22.338100
G3 X136.012000 Y139.427000 Z0.400000 A22.481020 I-6.2585 J-1.8031
G1 X81.520000 Y139.420000 Z0.400000 A23.407410
G0 Z0.900 F5400.000 A21.40741
G0 X82.207 Y92.040 F7800.000
G0 Z0.400
G0 F5400.000 A23.40741
G1 X82.152000 Y92.040000 Z0.400000 A23.407890 F1200.000000
G1 X82.152000 Y91.769000 Z0.400000 A23.410270
G1 X82.225000 Y91.769000 Z0.400000 A23.410910
G1 X82.225000 Y91.498000 Z0.400000 A23.413290
G1 X82.152000 Y91.498000 Z0.400000 A23.413930
G1 X82.152000 Y91.227000 Z0.400000 A23.416300
G1 X82.225000 Y91.227000 Z0.400000 A23.416950
G1 X82.225000 Y90.956000 Z0.400000 A23.419320
G1 X82.152000 Y90.956000 Z0.400000 A23.419960
G1 X82.152000 Y90.685000 Z0.400000 A23.422340
G1 X82.225000 Y90.685000 Z0.400000 A23.422980
G1 X82.225000 Y90.414000 Z0.400000 A23.425360
G1 X82.152000 Y90.414000 Z0.400000 A23.426000
G1 X82.152000 Y90.143000 Z0.400000 A23.428370
G1 X82.225000 Y90.143000 Z0.400000 A23.429020
G1 X82.225000 Y89.873000 Z0.400000 A23.431390
G1 X82.152000 Y89.873000 Z0.400000 A23.432030
G1 X82.152000 Y89.602000 Z0.400000 A23.434410
G1 X82.225000 Y89.602000 Z0.400000 A23.435050
G1 X82.225000 Y89.331000 Z0.400000 A23.437430
G1 X82.152000 Y89.331000 Z0.400000 A23.438070
G1 X82.152000 Y89.060000 Z0.400000 A23.440440
G1 X82.225000 Y89.060000 Z0.400000 A23.441090
G1 X82.225000 Y88.789000 Z0.400000 A23.443460
G1 X82.152000 Y88.789000 Z0.400000 A23.444110
G1 X82.152000 Y88.518000 Z0.400000 A23.446480
G1 X82.225000 Y88.518000 Z0.400000 A23.447120
G1 X82.225000 Y88.247000 Z0.400000 A23.449500
G1 X82.152000 Y88.247000 Z0.400000 A23.450140
G1 X82.152000 Y87.976000 Z0.400000 A23.452510
G1 X82.225000 Y87.976000 Z0.400000 A23.453160
G1 X82.225000 Y87.705000 Z0.400000 A23.455530
G1 X82.152000 Y87.705000 Z0.400000 A23.456180
G1 X82.152000 Y87.434000 Z0.400000 A23.458550
G1 X82.225000 Y87.434000 Z0.400000 A23.459190
G1 X82.225000 Y87.163000 Z0.400000 A23.461570
G1 X82.152000 Y87.163000 Z0.400000 A23.462210
G1 X82.152000 Y86.892000 Z0.400000 A23.464590
G1 X82.225000 Y86.892000 Z0.400000 A23.465230
G1 X82.225000 Y86.621000 Z0.400000 A23.467600
G1 X82.152000 Y86.621000 Z0.400000 A23.468250
G1 X82.152000 Y86.350000 Z0.400000 A23.470620
G1 X82.225000 Y86.350000 Z0.400000 A23.471260
G1 X82.225000 Y86.079000 Z0.400000 A23.473640
G1 X82.152000 Y86.079000 Z0.400000 A23.474280
G1 X82.152000 Y85.809000 Z0.400000 A23.476660
G1 X82.225000 Y85.809000 Z0.400000 A23.477300
G1 X82.225000 Y85.538000 Z0.400000 A23.479670
G1 X82.152000 Y85.538000 Z0.400000 A23.480320
G1 X82.152000 Y85.267000 Z0.400000 A23.482690
G1 X82.225000 Y85.267000 Z0.400000 A23.483340
G0 Z0.900 F5400.000 A21.48334
G0 X134.125 Y92.040 F7800.000
G0 Z0.400
G0 F5400.000 A23.48334
G1 X134.070000 Y92.040000 Z0.400000 A23.483820 F1200.000000
G1 X134.052000 Y91.769000 Z0.400000 A23.486200
G1 X134.125000 Y91.769000 Z0.400000 A23.486840
G1 X134.125000 Y91.498000 Z0.400000 A23.489210
G1 X134.052000 Y91.498000 Z0.400000 A23.489860
G1 X134.052000 Y91.227000 Z0.400000 A23.492230
G1 X134.125000 Y91.227000 Z0.400000 A23.492880
G1 X134.125000 Y90.956000 Z0.400000 A23.495250
G1 X134.052000 Y90.956000 Z0.400000 A23.495890
G1 X134.052000 Y90.685000 Z0.400000 A23.498270
G1 X134.125000 Y90.685000 Z0.400000 A23.498910
G1 X134.125000 Y90.414000 Z0.400000 A23.501280
G1 X134.052000 Y90.414000 Z0.400000 A23.501930
G1 X134.052000 Y90.143000 Z0.400000 A23.504300
G1 X134.125000 Y90.143000 Z0.400000 A23.504950
G1 X134.125000 Y89.873000 Z0.400000 A23.507320
G1 X134.052000 Y89.873000 Z0.400000 A23.507960
G1 X134.052000 Y89.602000 Z0.400000 A23.510340
G1 X134.125000 Y89.602000 Z0.400000 A23.510980
G1 X134.125000 Y89.331000 Z0.400000 A23.513360
G1 X134.052000 Y89.331000 Z0.400000 A23.514000
G1 X134.052000 Y89.060000 Z0.400000 A23.516370
G1 X134.125000 Y89.060000 Z0.400000 A23.517020
G1 X134.125000 Y88.789000 Z0.400000 A23.519390
G1 X134.052000 Y88.789000 Z0.400000 A23.520030
G1 X134.052000 Y88.518000 Z0.400000 A23.522410
G1 X134.125000 Y88.518000 Z0.400000 A23.523050
G1 X134.125000 Y88.247000 Z0.400000 A23.525430
G1 X134.052000 Y88.247000 Z0.400000 A23.526070
G1 X134.052000 Y87.976000 Z0.400000 A23.528440
G1 X134.125000 Y87.976000 Z0.400000 A23.529090
G1 X134.125000 Y87.705000 Z0.400000 A23.531460
G1 X134.052000 Y87.705000 Z0.400000 A23.532100
G1 X134.052000 Y87.434000 Z0.400000 A23.534480
G1 X134.125000 Y87.434000 Z0.400000 A23.535120
G1 X134.125000 Y87.163000 Z0.400000 A23.537500
G1 X134.052000 Y87.163000 Z0.400000 A23.538140
G1 X134.052000 Y86.892000 Z0.400000 A23.540510
G1 X134.125000 Y86.892000 Z0.400000 A23.541160
G1 X134.125000 Y86.621000 Z0.400000 A23.543530
G1 X134.052000 Y86.621000 Z0.400000 A23.544180
G1 X134.052000 Y86.350000 Z0.400000 A23.546550
G1 X134.125000 Y86.350000 Z0.400000 A23.547190
G1 X134.125000 Y86.079000 Z0.400000 A23.549570
G1 X134.052000 Y86.079000 Z0.400000 A23.550210
G1 X134.052000 Y85.809000 Z0.400000 A23.552580
G1 X134.125000 Y85.809000 Z0.400000 A23.553230
G1 X134.125000 Y85.538000 Z0.400000 A23.555600
G1 X134.052000 Y85.538000 Z0.400000 A23.556250
G1 X134.052000 Y85.267000 Z0.400000 A23.558620
G1 X134.125000 Y85.267000 Z0.400000 A23.559260
G0 X134.500 Y84.892 F7800.000
G1 X134.500000 Y92.415000 Z0.400000 A23.687160 F1200.000000
G1 X133.915000 Y92.415000 Z0.400000 A23.697100
G1 X133.092000 Y91.592000 Z0.400000 A23.716890
G1 X133.677000 Y91.592000 Z0.400000 A23.726840
G1 X133.677000 Y84.892000 Z0.400000 A23.840740
G1 X134.421000 Y84.892000 Z0.400000 A23.853390
G0 Z0.900 F5400.000 A21.85339
G0 X83.185 Y91.592 F7800.000
G0 Z0.400
G0 F5400.000 A23.85339
G1 X82.362000 Y92.415000 Z0.400000 A23.873180 F1200.000000
G1 X81.777000 Y92.415000 Z0.400000 A23.883120
G1 X81.777000 Y84.892000 Z0.400000 A24.011020
G1 X82.600000 Y84.892000 Z0.400000 A24.025010
G1 X82.600000 Y91.592000 Z0.400000 A24.138920
G1 X83.106000 Y91.592000 Z0.400000 A24.147520
G0 X83.126 Y91.066 F7800.000
G1 X84.454000 Y91.066000 Z0.400000 A24.170100 F840.000000
G1 X82.579000 Y92.941000 Z0.400000 A24.215170
G1 X81.251000 Y92.941000 Z0.400000 A24.237750
G1 X81.251000 Y84.366000 Z0.400000 A24.383520
G1 X135.026000 Y84.366000 Z0.400000 A25.297730
G1 X135.026000 Y92.941000 Z0.400000 A25.443500
G1 X133.697000 Y92.941000 Z0.400000 A25.466080
G1 X131.823000 Y91.066000 Z0.400000 A25.511150
G1 X133.151000 Y91.066000 Z0.400000 A25.533730
G1 X133.151000 Y88.741000 Z0.400000 A25.573270
G1 X131.851000 Y88.741000 Z0.400000 A25.595370
G1 X131.851000 Y88.066000 Z0.400000 A25.606830
G1 X133.151000 Y88.066000 Z0.400000 A25.628930
G1 X133.151000 Y85.041000 Z0.400000 A25.680370
G1 X83.126000 Y85.041000 Z0.400000 A26.530850
G1 X83.126000 Y88.066000 Z0.400000 A26.582290
G1 X86.526000 Y88.066000 Z0.400000 A26.640090
G1 X86.526000 Y88.741000 Z0.400000 A26.651550
G1 X83.126000 Y88.741000 Z0.400000 A26.709360
G1 X83.126000 Y90.987000 Z0.400000 A26.747550
G0 X83.126 Y91.592 F7800.000
G0 Z0.900 F5400.000 A24.74755
G0 X82.930 Y131.733 F7800.000
G0 Z0.400
G0 F5400.000 A26.74755
G1 X82.875000 Y131.733000 Z0.400000 A26.748040 F1200.000000
G1 X82.875000 Y131.462000 Z0.400000 A26.750410
G1 X82.948000 Y131.462000 Z0.400000 A26.751050
G1 X82.948000 Y131.191000 Z0.400000 A26.753430
G1 X82.875000 Y131.191000 Z0.400000 A26.754070
G1 X82.875000 Y130.921000 Z0.400000 A26.756450
G1 X82.948000 Y130.921000 Z0.400000 A26.757090
G1 X82.948000 Y130.650000 Z0.400000 A26.759460
G1 X82.875000 Y130.650000 Z0.400000 A26.760110
G1 X82.875000 Y130.379000 Z0.400000 A26.762480
G1 X82.948000 Y130.379000 Z0.400000 A26.763120
G1 X82.948000 Y130.108000 Z0.400000 A26.765500
G1 X82.875000 Y130.108000 Z0.400000 A26.766140
G1 X82.875000 Y129.837000 Z0.400000 A26.768520
G1 X82.948000 Y129.837000 Z0.400000 A26.769160
G1 X82.948000 Y129.566000 Z0.400000 A26.771530
G1 X82.875000 Y129.566000 Z0.400000 A26.772180
G1 X82.875000 Y129.295000 Z0.400000 A26.774550
