; generated by Slic3r 0.9.9 on 2013-07-30 at 09:45:07

; layer_height = 0.2
; perimeters = 3
; top_solid_layers = 3
; bottom_solid_layers = 3
; fill_density = 0
; perimeter_speed = 20
; infill_speed = 40
; travel_speed = 130
; nozzle_diameter = 0.4
; filament_diameter = 2.95
; extrusion_multiplier = 1.105263
; perimeters extrusion width = 0.56mm
; infill extrusion width = 0.56mm
; solid infill extrusion width = 0.56mm
; top infill extrusion width = 0.56mm

G21 ; set units to millimeters
M190 P115 ; wait for bed temperature to be reached
M104 P220 ; set temperature
G92 A0                  ; Reset A to 0
G40                        ; Cancel cutter compensation
G64 P0.1                ; Path Blend within .1mm
G0 X108.5 Y200    ; Move to plate
M109 P220 ; wait for temperature to be reached
G90 ; use absolute coordinates
G0 Z0.200 F5400.000 A-2.00000
o<wipe_nozzle> call
G0 X86.540 Y84.220 F7800.000
G0 F5400.000 A0.00000
G1 X87.160000 Y83.680000 Z0.200000 A0.013980 F360.000000
G3 X91.220000 Y82.200000 Z0.200000 A0.088590 I4.3326 J5.5766
G1 X125.760000 Y82.200000 Z0.200000 A0.675800
G3 X132.510000 Y88.580000 Z0.200000 A0.848080 I-0.2684 J7.0447
G1 X132.660000 Y91.180000 Z0.200000 A0.892350
G1 X131.010000 Y128.380000 Z0.200000 A1.525420
G1 X130.940000 Y128.920000 Z0.200000 A1.534680
G3 X124.260000 Y134.800000 Z0.200000 A1.698360 I-6.9044 J-1.1093
G1 X92.720000 Y134.800000 Z0.200000 A2.234570
G3 X85.970000 Y128.380000 Z0.200000 A2.407510 I0.2588 J-7.0306
G1 X85.860000 Y126.300000 Z0.200000 A2.442920
G1 X84.330000 Y91.040000 Z0.200000 A3.042940
G1 X84.470000 Y88.590000 Z0.200000 A3.084660
G3 X86.486000 Y84.277000 Z0.200000 A3.167190 I6.9337 J0.6133
G0 X86.910 Y84.600 F7800.000
G1 X87.300000 Y84.240000 Z0.200000 A3.176210 F360.000000
G3 X91.220000 Y82.730000 Z0.200000 A3.248880 I4.1736 J4.9917
G1 X125.490000 Y82.720000 Z0.200000 A3.831490
G3 X131.990000 Y88.620000 Z0.200000 A3.995020 I-0.0003 J6.5309
G1 X132.140000 Y91.200000 Z0.200000 A4.038960
G3 X130.370000 Y129.140000 Z0.200000 A4.684760 I-400.4339 J0.3300
G1 X130.230000 Y129.660000 Z0.200000 A4.693920
G3 X124.260000 Y134.270000 Z0.200000 A4.830620 I-6.2236 J-1.8891
G1 X92.990000 Y134.280000 Z0.200000 A5.362240
G3 X86.490000 Y128.340000 Z0.200000 A5.526430 I-0.0020 J-6.5242
G1 X86.380000 Y126.280000 Z0.200000 A5.561500
G1 X84.850000 Y91.070000 Z0.200000 A6.160670
G1 X84.990000 Y88.620000 Z0.200000 A6.202390
G3 X86.855000 Y84.656000 Z0.200000 A6.278300 I6.4882 J0.6319
G0 Z0.700 F1620.000 A4.27830
G0 X96.842 Y102.031 F7800.000
G0 Z0.200
G0 F5400.000 A6.27830
G1 X97.373000 Y101.760000 Z0.200000 A6.288500 F720.000000
G1 X97.373000 Y102.631000 Z0.200000 A6.303430
G1 X97.903000 Y102.153000 Z0.200000 A6.315670
G1 X97.903000 Y103.232000 Z0.200000 A6.334160
G1 X98.433000 Y103.714000 Z0.200000 A6.346440
G1 X98.433000 Y102.547000 Z0.200000 A6.366460
G1 X98.963000 Y102.940000 Z0.200000 A6.377770
G1 X98.963000 Y104.194000 Z0.200000 A6.399270
G1 X99.493000 Y104.674000 Z0.200000 A6.411530
G1 X99.493000 Y103.295000 Z0.200000 A6.435180
G1 X100.023000 Y103.612000 Z0.200000 A6.445780
G1 X100.023000 Y105.195000 Z0.200000 A6.472920
G1 X100.553000 Y105.856000 Z0.200000 A6.487450
G1 X100.553000 Y103.930000 Z0.200000 A6.520470
G1 X101.083000 Y104.190000 Z0.200000 A6.530600
G1 X101.083000 Y106.730000 Z0.200000 A6.574140
G1 X101.613000 Y108.255000 Z0.200000 A6.601820
G1 X101.613000 Y104.441000 Z0.200000 A6.667210
G1 X102.144000 Y104.688000 Z0.200000 A6.677240
G1 X102.144000 Y113.965000 Z0.200000 A6.836300
G1 X101.613000 Y114.216000 Z0.200000 A6.846350
G1 X101.613000 Y111.145000 Z0.200000 A6.899000
G1 X101.083000 Y112.653000 Z0.200000 A6.926400
G1 X101.083000 Y114.499000 Z0.200000 A6.958050
G1 X100.553000 Y114.817000 Z0.200000 A6.968650
G1 X100.553000 Y113.563000 Z0.200000 A6.990130
G1 X100.023000 Y114.216000 Z0.200000 A7.004550
G1 X100.023000 Y115.134000 Z0.200000 A7.020300
G1 X99.493000 Y115.452000 Z0.200000 A7.030890
G1 X99.493000 Y114.754000 Z0.200000 A7.042860
G0 Z0.700 F1620.000 A5.04286
G0 X102.674 Y113.715 F7800.000
G0 Z0.200
G0 F5400.000 A7.04286
G1 X102.674000 Y104.878000 Z0.200000 A7.194370 F720.000000
G1 X103.204000 Y105.067000 Z0.200000 A7.204030
G1 X103.204000 Y113.524000 Z0.200000 A7.349010
G1 X103.734000 Y113.334000 Z0.200000 A7.358660
G1 X103.734000 Y105.248000 Z0.200000 A7.497290
G1 X104.264000 Y105.381000 Z0.200000 A7.506660
G1 X104.264000 Y113.163000 Z0.200000 A7.640080
G1 X104.794000 Y113.031000 Z0.200000 A7.649450
G1 X104.794000 Y105.514000 Z0.200000 A7.778320
G1 X105.324000 Y105.638000 Z0.200000 A7.787650
G1 X105.324000 Y112.898000 Z0.200000 A7.912110
G1 X105.854000 Y112.798000 Z0.200000 A7.921360
G1 X105.854000 Y105.717000 Z0.200000 A8.042750
G1 X106.384000 Y105.796000 Z0.200000 A8.051940
G1 X106.384000 Y112.719000 Z0.200000 A8.170630
G1 X106.915000 Y112.640000 Z0.200000 A8.179820
G1 X106.915000 Y105.869000 Z0.200000 A8.295910
G1 X107.445000 Y105.895000 Z0.200000 A8.305010
G1 X107.445000 Y112.605000 Z0.200000 A8.420030
G1 X107.975000 Y112.579000 Z0.200000 A8.429130
G1 X107.975000 Y105.921000 Z0.200000 A8.543270
G1 X108.505000 Y105.947000 Z0.200000 A8.552370
G1 X108.505000 Y112.553000 Z0.200000 A8.665630
G1 X109.035000 Y112.579000 Z0.200000 A8.674730
G1 X109.035000 Y105.921000 Z0.200000 A8.788880
G1 X109.565000 Y105.895000 Z0.200000 A8.797980
G1 X109.565000 Y112.605000 Z0.200000 A8.913020
G1 X110.095000 Y112.642000 Z0.200000 A8.922130
G1 X110.095000 Y105.869000 Z0.200000 A9.038250
G1 X110.625000 Y105.794000 Z0.200000 A9.047430
G1 X110.625000 Y112.720000 Z0.200000 A9.166170
G1 X111.155000 Y112.799000 Z0.200000 A9.175360
G1 X111.155000 Y105.716000 Z0.200000 A9.296800
G1 X111.686000 Y105.637000 Z0.200000 A9.305990
G1 X111.686000 Y112.900000 Z0.200000 A9.430510
G1 X112.216000 Y113.033000 Z0.200000 A9.439880
G1 X112.216000 Y105.512000 Z0.200000 A9.568820
G1 X112.746000 Y105.379000 Z0.200000 A9.578190
G1 X112.746000 Y113.166000 Z0.200000 A9.711690
G1 X113.276000 Y113.337000 Z0.200000 A9.721250
G1 X113.276000 Y105.246000 Z0.200000 A9.859970
G1 X113.806000 Y105.064000 Z0.200000 A9.869580
G1 X113.806000 Y113.527000 Z0.200000 A10.014680
G1 X114.336000 Y113.719000 Z0.200000 A10.024340
G1 X114.336000 Y104.874000 Z0.200000 A10.175980
G1 X114.866000 Y104.685000 Z0.200000 A10.185640
G1 X114.866000 Y113.970000 Z0.200000 A10.344830
G1 X115.396000 Y114.221000 Z0.200000 A10.354880
G1 X115.396000 Y111.183000 Z0.200000 A10.406960
G1 X115.926000 Y112.672000 Z0.200000 A10.434040
G1 X115.926000 Y114.504000 Z0.200000 A10.465470
G1 X116.457000 Y114.822000 Z0.200000 A10.476060
G1 X116.457000 Y113.577000 Z0.200000 A10.497410
G1 X116.987000 Y114.225000 Z0.200000 A10.511760
G1 X116.987000 Y115.140000 Z0.200000 A10.527450
G1 X117.517000 Y115.458000 Z0.200000 A10.538040
G1 X117.517000 Y114.763000 Z0.200000 A10.549950
G0 Z0.700 F1620.000 A8.54995
G0 X115.396 Y108.207 F7800.000
G0 Z0.200
G0 F5400.000 A10.54995
G1 X115.396000 Y104.437000 Z0.200000 A10.614590 F720.000000
G1 X115.926000 Y104.186000 Z0.200000 A10.624640
G1 X115.926000 Y106.713000 Z0.200000 A10.667980
G1 X116.457000 Y105.843000 Z0.200000 A10.685440
G1 X116.457000 Y103.924000 Z0.200000 A10.718340
G1 X116.987000 Y103.607000 Z0.200000 A10.728940
G1 X116.987000 Y105.185000 Z0.200000 A10.755990
G1 X117.517000 Y104.662000 Z0.200000 A10.768760
G1 X117.517000 Y103.289000 Z0.200000 A10.792300
G1 X118.047000 Y102.933000 Z0.200000 A10.803250
G1 X118.047000 Y104.176000 Z0.200000 A10.824560
G1 X118.577000 Y103.690000 Z0.200000 A10.836890
G1 X118.577000 Y102.540000 Z0.200000 A10.856620
G1 X119.107000 Y102.147000 Z0.200000 A10.867930
G1 X119.107000 Y103.205000 Z0.200000 A10.886080
G1 X119.637000 Y102.618000 Z0.200000 A10.899630
G1 X119.637000 Y101.753000 Z0.200000 A10.914460
G1 X120.167000 Y101.990000 Z0.200000 A10.924410
G0 X120.934 Y101.673 F7800.000
G1 X119.537000 Y103.327000 Z0.200000 A10.961220 F360.000000
G2 X116.029000 Y107.434000 Z0.200000 A11.054110 I5.1201 J7.9251
G1 X115.791000 Y108.173000 Z0.200000 A11.067320
G2 X117.187000 Y113.885000 Z0.200000 A11.171240 I6.1229 J1.5302
G1 X118.945000 Y115.684000 Z0.200000 A11.214000
G3 X121.504000 Y119.825000 Z0.200000 A11.297110 I-11.2729 J9.8274
G1 X121.185000 Y120.012000 Z0.200000 A11.303390
G2 X95.793000 Y120.043000 Z0.200000 A11.819280 I-12.6865 J7.8305
G1 X95.452000 Y119.832000 Z0.200000 A11.826090
G3 X99.814000 Y113.885000 Z0.200000 A11.952400 I15.4675 J6.7719
G1 X100.236000 Y113.353000 Z0.200000 A11.963950
G2 X99.560000 Y105.249000 Z0.200000 A12.114080 I-5.1534 J-3.6503
G1 X97.640000 Y103.510000 Z0.200000 A12.158110
G3 X93.480000 Y96.692000 Z0.200000 A12.295000 I12.4912 J-12.2996
G1 X93.850000 Y96.506000 Z0.200000 A12.302040
G2 X123.107000 Y96.578000 Z0.200000 A12.916720 I14.6466 J-7.3090
G1 X123.443000 Y96.732000 Z0.200000 A12.923000
G3 X120.977000 Y101.606000 Z0.200000 A13.016300 I-14.0241 J-4.0347
G0 X121.357 Y101.986 F7800.000
G1 X119.918000 Y103.692000 Z0.200000 A13.054240 F360.000000
G2 X116.512000 Y107.642000 Z0.200000 A13.143930 I4.8386 J7.6157
G1 X116.302000 Y108.300000 Z0.200000 A13.155690
G2 X117.581000 Y113.536000 Z0.200000 A13.250950 I5.6134 J1.4030
G1 X119.343000 Y115.339000 Z0.200000 A13.293800
G3 X123.226000 Y127.421000 Z0.200000 A13.515440 I-12.1888 J10.5823
G1 X122.774000 Y127.421000 Z0.200000 A13.523140
G2 X112.648000 Y114.076000 Z0.200000 A13.827460 I-14.0650 J0.1581
G1 X111.288000 Y113.735000 Z0.200000 A13.851300
G2 X94.250000 Y126.962000 Z0.200000 A14.267010 I-2.7948 J13.9869
G1 X93.748000 Y126.962000 Z0.200000 A14.275530
G3 X95.835000 Y117.908000 Z0.200000 A14.435760 I15.0519 J-1.2980
G1 X96.798000 Y116.411000 Z0.200000 A14.466030
G3 X99.419000 Y113.536000 Z0.200000 A14.532240 I16.1244 J12.0676
G1 X99.806000 Y113.048000 Z0.200000 A14.542830
G2 X99.187000 Y105.620000 Z0.200000 A14.680430 I-4.7193 J-3.3465
G1 X97.266000 Y103.880000 Z0.200000 A14.724500
G3 X92.243000 Y90.038000 Z0.200000 A14.982740 I12.4707 J-12.3578
G1 X92.750000 Y90.038000 Z0.200000 A14.991350
G2 X95.372000 Y98.022000 Z0.200000 A15.135980 I14.4487 J-0.3225
G1 X96.295000 Y99.267000 Z0.200000 A15.162330
G2 X124.251000 Y90.038000 Z0.200000 A15.807480 I12.2003 J-9.9993
G1 X124.754000 Y90.038000 Z0.200000 A15.816030
G3 X121.400000 Y101.920000 Z0.200000 A16.030490 I-16.6844 J1.7048
G0 X121.780 Y102.300 F7800.000
G1 X120.298000 Y104.056000 Z0.200000 A16.069560 F252.000000
G2 X116.995000 Y107.849000 Z0.200000 A16.156050 I4.5740 J7.3178
G1 X116.812000 Y108.428000 Z0.200000 A16.166360
G2 X117.976000 Y113.188000 Z0.200000 A16.252970 I5.1075 J1.2734
G1 X119.741000 Y114.994000 Z0.200000 A16.295900
G3 X123.750000 Y127.487000 Z0.200000 A16.525060 I-12.5857 J10.9285
G1 X122.250000 Y127.487000 Z0.200000 A16.550550
G2 X109.849000 Y114.053000 Z0.200000 A16.890500 I-13.6068 J0.1198
G1 X108.500000 Y113.987000 Z0.200000 A16.913470
G2 X94.750000 Y127.487000 Z0.200000 A17.276390 I-0.0080 J13.7442
G1 X93.250000 Y127.487000 Z0.200000 A17.301900
G3 X99.025000 Y113.188000 Z0.200000 A17.574020 I16.5241 J-1.6420
G1 X99.377000 Y112.744000 Z0.200000 A17.583650
G2 X98.814000 Y105.991000 Z0.200000 A17.708740 I-4.2948 J-3.0419
G1 X96.891000 Y104.250000 Z0.200000 A17.752840
G3 X91.748000 Y89.513000 Z0.200000 A18.027000 I12.9225 J-12.7757
G1 X93.250000 Y89.513000 Z0.200000 A18.052540
G2 X109.996000 Y104.440000 Z0.200000 A18.480970 I15.1427 J-0.1311
G1 X111.478000 Y104.220000 Z0.200000 A18.506430
G2 X123.750000 Y89.513000 Z0.200000 A18.858460 I-2.9634 J-14.9463
G1 X125.252000 Y89.513000 Z0.200000 A18.883980
G3 X121.823000 Y102.234000 Z0.200000 A19.113100 I-17.8195 J2.0193
G0 X121.259 Y102.229 F7800.000
M140 P110 ; set bed temperature
G0 Z0.400 F5400.000 A17.11310
o<wipe_nozzle> call
G0 X132.660 Y91.890 F7800.000
G0 F5400.000 A19.11310
G1 X131.130000 Y126.110000 Z0.400000 A19.695450 F1200.000000
G3 X129.980000 Y131.480000 Z0.400000 A19.790120 I-9.5315 J0.7669
G1 X129.670000 Y131.930000 Z0.400000 A19.799410
G3 X124.260000 Y134.800000 Z0.400000 A19.907040 I-5.6718 J-4.1575
G1 X92.720000 Y134.800000 Z0.400000 A20.443250
G3 X85.970000 Y128.380000 Z0.400000 A20.616190 I0.2588 J-7.0306
G1 X85.860000 Y126.300000 Z0.400000 A20.651600
G1 X84.330000 Y91.040000 Z0.400000 A21.251620
G1 X84.470000 Y88.590000 Z0.400000 A21.293340
G3 X91.220000 Y82.200000 Z0.400000 A21.465800 I6.9878 J0.6213
G1 X125.760000 Y82.200000 Z0.400000 A22.053010
G3 X132.530000 Y88.860000 Z0.400000 A22.230030 I-0.2678 J7.0431
G1 X132.660000 Y91.180000 Z0.400000 A22.269530
G1 X132.660000 Y91.811000 Z0.400000 A22.280260
G0 X132.140 Y91.860 F7800.000
G1 X130.610000 Y126.090000 Z0.400000 A22.862780 F1200.000000
G3 X129.580000 Y131.120000 Z0.400000 A22.951220 I-8.6135 J0.8567
G1 X129.280000 Y131.570000 Z0.400000 A22.960420
G3 X124.260000 Y134.270000 Z0.400000 A23.060700 I-5.2614 J-3.7657
G1 X92.990000 Y134.280000 Z0.400000 A23.592320
G3 X86.490000 Y128.340000 Z0.400000 A23.756500 I-0.0020 J-6.5242
G1 X86.380000 Y126.280000 Z0.400000 A23.791570
G1 X84.850000 Y91.070000 Z0.400000 A24.390740
G1 X84.990000 Y88.620000 Z0.400000 A24.432460
G3 X91.220000 Y82.730000 Z0.400000 A24.591400 I6.4907 J0.6256
G1 X125.490000 Y82.720000 Z0.400000 A25.174020
G3 X132.010000 Y88.880000 Z0.400000 A25.341970 I0.0003 J6.5302
G1 X132.140000 Y91.200000 Z0.400000 A25.381480
G1 X132.140000 Y91.781000 Z0.400000 A25.391360
G0 Z0.900 F5400.000 A23.39136
G0 X119.819 Y101.619 F7800.000
G0 Z0.400
G0 F5400.000 A25.39136
G1 X119.100000 Y102.152000 Z0.400000 A25.406770 F2400.000000
G1 X120.031000 Y102.152000 Z0.400000 A25.422810
G1 X119.581000 Y102.684000 Z0.400000 A25.434830
G1 X118.382000 Y102.684000 Z0.400000 A25.455500
G1 X117.636000 Y103.217000 Z0.400000 A25.471280
G1 X119.093000 Y103.217000 Z0.400000 A25.496390
G1 X118.512000 Y103.750000 Z0.400000 A25.509980
G1 X116.748000 Y103.750000 Z0.400000 A25.540380
G1 X115.722000 Y104.283000 Z0.400000 A25.560310
G1 X117.930000 Y104.283000 Z0.400000 A25.598370
G1 X117.349000 Y104.816000 Z0.400000 A25.611960
G1 X114.500000 Y104.816000 Z0.400000 A25.661050
G1 X112.856000 Y105.348000 Z0.400000 A25.690820
G1 X116.841000 Y105.348000 Z0.400000 A25.759480
G1 X116.429000 Y105.881000 Z0.400000 A25.771080
G1 X109.842000 Y105.881000 Z0.400000 A25.884600
G0 X107.159 Y105.881 F7800.000
G1 X100.571000 Y105.881000 Z0.400000 A25.998120 F2400.000000
G1 X100.905000 Y106.414000 Z0.400000 A26.008950
G1 X116.095000 Y106.414000 Z0.400000 A26.270710
G1 X115.824000 Y106.947000 Z0.400000 A26.281010
G1 X101.177000 Y106.947000 Z0.400000 A26.533410
G1 X101.395000 Y107.480000 Z0.400000 A26.543330
G1 X115.606000 Y107.480000 Z0.400000 A26.788210
G1 X115.442000 Y108.013000 Z0.400000 A26.797810
G1 X101.559000 Y108.013000 Z0.400000 A27.037040
G1 X101.669000 Y108.545000 Z0.400000 A27.046420
G1 X115.331000 Y108.545000 Z0.400000 A27.281830
G1 X115.260000 Y109.078000 Z0.400000 A27.291100
G1 X101.741000 Y109.078000 Z0.400000 A27.524060
G1 X101.774000 Y109.611000 Z0.400000 A27.533260
G1 X115.227000 Y109.611000 Z0.400000 A27.765090
G1 X115.240000 Y110.144000 Z0.400000 A27.774270
G1 X101.761000 Y110.144000 Z0.400000 A28.006550
G1 X101.699000 Y110.677000 Z0.400000 A28.015790
G1 X115.302000 Y110.677000 Z0.400000 A28.250200
G1 X115.403000 Y111.209000 Z0.400000 A28.259540
G1 X101.598000 Y111.209000 Z0.400000 A28.497430
G1 X101.456000 Y111.742000 Z0.400000 A28.506930
G1 X115.545000 Y111.742000 Z0.400000 A28.749720
G0 X115.738 Y112.275 F7800.000
G1 X101.263000 Y112.275000 Z0.400000 A28.999150 F2400.000000
G1 X101.007000 Y112.808000 Z0.400000 A29.009330
G1 X105.785000 Y112.808000 Z0.400000 A29.091660
G1 X103.716000 Y113.341000 Z0.400000 A29.128470
G1 X100.694000 Y113.341000 Z0.400000 A29.180550
G1 X100.309000 Y113.873000 Z0.400000 A29.191880
G1 X102.338000 Y113.873000 Z0.400000 A29.226840
G1 X101.238000 Y114.406000 Z0.400000 A29.247910
G1 X99.835000 Y114.406000 Z0.400000 A29.272070
