; generated by Slic3r 0.9.9 on 2013-06-14 at 12:00:21

; layer_height = 0.2
; perimeters = 3
; top_solid_layers = 1
; bottom_solid_layers = 0
; fill_density = 0
; perimeter_speed = 20
; infill_speed = 40
; travel_speed = 130
; nozzle_diameter = 0.4
; filament_diameter = 2.95
; extrusion_multiplier = 1.105263
; perimeters extrusion width = 0.60mm
; infill extrusion width = 0.60mm
; solid infill extrusion width = 0.60mm
; top infill extrusion width = 0.60mm

G21 ; set units to millimeters
M190 P60 ; wait for bed temperature to be reached
M104 P175 ; set temperature
G92 A0                  ; Reset A to 0
G40                        ; Cancel cutter compensation
G64 P0.1                ; Path Blend within .1mm
G0 X108.5 Y200    ; Move to plate
M109 P175 ; wait for temperature to be reached
G90 ; use absolute coordinates
G0 Z0.200 F5400.000 A-1.50000
G0 X86.740 Y96.920 F7800.000
G0 F5400.000 A0.00000
G1 X87.560000 Y96.190000 Z0.200000 A0.019780 F360.000000
G3 X91.250000 Y93.870000 Z0.200000 A0.098730 I10.0803 J11.9383
G1 X101.370000 Y89.310000 Z0.200000 A0.298710
G3 X102.960000 Y88.810000 Z0.200000 A0.328800 I3.1127 J7.1204
G1 X120.300000 Y86.360000 Z0.200000 A0.644310
G3 X129.480000 Y86.420000 Z0.200000 A0.809900 I4.3518 J36.4820
G1 X130.290000 Y86.630000 Z0.200000 A0.824980
G3 X135.200000 Y93.120000 Z0.200000 A0.980960 I-2.1924 J6.7610
G1 X135.200000 Y123.880000 Z0.200000 A1.535150
G3 X128.370000 Y130.710000 Z0.200000 A1.726370 I-7.0950 J-0.2650
G1 X121.290000 Y130.710000 Z0.200000 A1.853930
G1 X120.300000 Y130.640000 Z0.200000 A1.871810
G1 X103.300000 Y128.240000 Z0.200000 A2.181140
G3 X101.350000 Y127.680000 Z0.200000 A2.217810 I0.7517 J-6.2927
G1 X90.610000 Y122.800000 Z0.200000 A2.430350
G3 X84.660000 Y117.650000 Z0.200000 A2.573590 I6.2595 J-13.2440
G1 X84.180000 Y116.920000 Z0.200000 A2.589330
G3 X86.681000 Y96.979000 Z0.200000 A2.980760 I13.5796 J-8.4242
G0 X87.110 Y97.330 F7800.000
G1 X87.930000 Y96.600000 Z0.200000 A3.000540 F360.000000
G3 X91.480000 Y94.380000 Z0.200000 A3.076360 I10.3065 J12.5327
G1 X101.600000 Y89.820000 Z0.200000 A3.276350
G3 X103.370000 Y89.310000 Z0.200000 A3.309650 I2.5245 J5.4352
G1 X120.370000 Y86.910000 Z0.200000 A3.618970
G3 X129.660000 Y87.030000 Z0.200000 A3.786660 I4.1843 J35.7278
G1 X130.170000 Y87.180000 Z0.200000 A3.796230
G3 X134.650000 Y93.400000 Z0.200000 A3.943660 I-2.0485 J6.1988
G1 X134.650000 Y123.600000 Z0.200000 A4.487770
G3 X128.090000 Y130.160000 Z0.200000 A4.673330 I-6.5415 J0.0185
G1 X121.290000 Y130.160000 Z0.200000 A4.795840
G1 X120.370000 Y130.090000 Z0.200000 A4.812460
G1 X103.370000 Y127.690000 Z0.200000 A5.121790
G3 X101.580000 Y127.170000 Z0.200000 A5.155480 I0.7582 J-5.9507
G1 X90.840000 Y122.300000 Z0.200000 A5.367950
G3 X82.610000 Y105.620000 Z0.200000 A5.727430 I6.7655 J-13.7085
G1 X82.850000 Y104.550000 Z0.200000 A5.747190
G3 X87.051000 Y97.390000 Z0.200000 A5.898590 I14.9349 J3.9503
G0 Z0.700 F1620.000 A4.39859
G0 X92.609 Y103.312 F7800.000
G0 Z0.200
G0 F5400.000 A5.89859
G1 X93.142000 Y102.829000 Z0.200000 A5.911560 F360.000000
G3 X91.326000 Y105.042000 Z0.200000 A6.689870 I4.6439 J5.6624
G1 X91.697000 Y104.424000 Z0.200000 A6.702840
G3 X92.553000 Y103.374000 Z0.200000 A6.727280 I5.7048 J3.7769
G0 X93.003 Y103.707 F7800.000
G1 X93.496000 Y103.260000 Z0.200000 A6.739260 F252.000000
G3 X91.818000 Y105.304000 Z0.200000 A7.458400 I4.2828 J5.2267
G1 X92.160000 Y104.734000 Z0.200000 A7.470390
G3 X92.947000 Y103.769000 Z0.200000 A7.492850 I5.3932 J3.5950
G0 X92.868 Y103.166 F7800.000
G0 Z0.700 F1620.000 A5.99285
G0 X127.261 Y122.764 F7800.000
G0 Z0.200
G0 F5400.000 A7.49285
G1 X122.132000 Y122.764000 Z0.200000 A7.585260 F360.000000
G1 X122.132000 Y120.364000 Z0.200000 A7.628500
G1 X105.132000 Y120.364000 Z0.200000 A7.934790
G1 X105.132000 Y112.612000 Z0.200000 A8.074460
G1 X103.092000 Y114.581000 Z0.200000 A8.125550
G3 X102.960000 Y102.308000 Z0.200000 A8.786570 I-5.2915 J-6.0803
G1 X105.132000 Y104.359000 Z0.200000 A8.840400
G1 X105.132000 Y96.636000 Z0.200000 A8.979560
G1 X122.132000 Y96.636000 Z0.200000 A9.285840
G1 X122.132000 Y94.236000 Z0.200000 A9.329080
G1 X127.261000 Y94.236000 Z0.200000 A9.421490
G1 X127.261000 Y97.364000 Z0.200000 A9.477860
G1 X126.532000 Y97.364000 Z0.200000 A9.490990
G1 X126.532000 Y94.964000 Z0.200000 A9.534230
G1 X122.861000 Y94.964000 Z0.200000 A9.600370
G1 X122.861000 Y97.364000 Z0.200000 A9.643610
G1 X105.861000 Y97.364000 Z0.200000 A9.949900
G1 X105.861000 Y119.636000 Z0.200000 A10.351160
G1 X122.861000 Y119.636000 Z0.200000 A10.657440
G1 X122.861000 Y122.036000 Z0.200000 A10.700690
G1 X126.532000 Y122.036000 Z0.200000 A10.766830
G1 X126.532000 Y119.636000 Z0.200000 A10.810070
G1 X127.261000 Y119.636000 Z0.200000 A10.823200
G1 X127.261000 Y122.681000 Z0.200000 A10.878060
G0 X127.818 Y123.321 F7800.000
G1 X121.575000 Y123.321000 Z0.200000 A10.990540 F252.000000
G1 X121.575000 Y120.921000 Z0.200000 A11.033780
G1 X104.575000 Y120.921000 Z0.200000 A11.340070
G1 X104.575000 Y113.924000 Z0.200000 A11.466150
G1 X103.458000 Y115.001000 Z0.200000 A11.494120
G3 X103.318000 Y101.879000 Z0.200000 A12.200890 I-5.6613 J-6.5013
G1 X104.575000 Y103.067000 Z0.200000 A12.232050
G1 X104.575000 Y96.079000 Z0.200000 A12.357960
G1 X121.575000 Y96.079000 Z0.200000 A12.664250
G1 X121.575000 Y93.679000 Z0.200000 A12.707490
G1 X127.818000 Y93.679000 Z0.200000 A12.819960
G1 X127.818000 Y97.921000 Z0.200000 A12.896410
G1 X125.975000 Y97.921000 Z0.200000 A12.929610
G1 X125.975000 Y95.521000 Z0.200000 A12.972850
G1 X123.418000 Y95.521000 Z0.200000 A13.018920
G1 X123.418000 Y97.921000 Z0.200000 A13.062160
G1 X106.418000 Y97.921000 Z0.200000 A13.368450
G1 X106.418000 Y119.079000 Z0.200000 A13.749630
G1 X123.418000 Y119.079000 Z0.200000 A14.055920
G1 X123.418000 Y121.479000 Z0.200000 A14.099160
G1 X125.975000 Y121.479000 Z0.200000 A14.145230
G1 X125.975000 Y119.079000 Z0.200000 A14.188470
G1 X127.818000 Y119.079000 Z0.200000 A14.221680
G1 X127.818000 Y123.238000 Z0.200000 A14.296610
G0 X127.336 Y123.043 F7800.000
M106 P145
M140 P50 ; set bed temperature
G0 Z0.400 F5400.000 A12.79661
G0 X128.370 Y130.710 F7800.000
G0 F5400.000 A14.29661
G1 X121.290000 Y130.710000 Z0.400000 A14.424170 F1200.000000
G1 X120.300000 Y130.640000 Z0.400000 A14.442050
G1 X103.300000 Y128.240000 Z0.400000 A14.751380
G3 X101.350000 Y127.680000 Z0.400000 A14.788050 I0.8303 J-6.5664
G1 X91.620000 Y123.270000 Z0.400000 A14.980520
G3 X85.400000 Y98.360000 Z0.400000 A15.517050 I6.0700 J-14.7472
G1 X86.130000 Y97.530000 Z0.400000 A15.536960
G3 X91.250000 Y93.870000 Z0.400000 A15.651230 I11.8219 J11.1266
G1 X101.370000 Y89.310000 Z0.400000 A15.851220
G3 X103.300000 Y88.760000 Z0.400000 A15.887480 I2.8272 J6.2597
G1 X120.300000 Y86.360000 Z0.400000 A16.196810
G3 X129.200000 Y86.370000 Z0.400000 A16.357270 I4.4024 J42.3265
G1 X130.020000 Y86.550000 Z0.400000 A16.372400
G3 X135.200000 Y93.120000 Z0.400000 A16.533460 I-1.8679 J6.7997
G1 X135.200000 Y123.880000 Z0.400000 A17.087650
G3 X128.453000 Y130.704000 Z0.400000 A17.277380 I-7.0922 J-0.2647
G0 X128.350 Y130.150 F7800.000
G1 X121.290000 Y130.160000 Z0.400000 A17.404580 F1200.000000
G1 X120.370000 Y130.090000 Z0.400000 A17.421200
G1 X103.370000 Y127.690000 Z0.400000 A17.730520
G3 X101.580000 Y127.170000 Z0.400000 A17.764220 I0.7582 J-5.9507
G1 X90.840000 Y122.300000 Z0.400000 A17.976680
G3 X82.610000 Y105.620000 Z0.400000 A18.336170 I6.7655 J-13.7085
G1 X82.850000 Y104.550000 Z0.400000 A18.355920
G3 X91.480000 Y94.380000 Z0.400000 A18.604430 I14.9718 J3.9581
G1 X101.600000 Y89.820000 Z0.400000 A18.804410
G3 X103.370000 Y89.310000 Z0.400000 A18.837710 I2.5245 J5.4352
G1 X120.370000 Y86.910000 Z0.400000 A19.147040
G3 X129.660000 Y87.030000 Z0.400000 A19.314720 I4.1843 J35.7278
G1 X130.170000 Y87.180000 Z0.400000 A19.324300
G3 X134.650000 Y93.400000 Z0.400000 A19.471730 I-2.0485 J6.1988
G1 X134.650000 Y123.600000 Z0.400000 A20.015840
G3 X128.433000 Y130.147000 Z0.400000 A20.195200 I-6.5360 J0.0187
G0 Z0.900 F5400.000 A18.69520
G0 X103.897 Y112.576 F7800.000
G0 Z0.400
G0 F5400.000 A20.19520
G1 X103.468000 Y113.154000 Z0.400000 A20.208170 F1200.000000
G3 X104.267000 Y111.958000 Z0.400000 A21.012420 I-5.6694 J-4.6524
G1 X103.940000 Y112.504000 Z0.400000 A21.023890
G0 X103.433 Y112.266 F7800.000
G1 X103.037000 Y112.800000 Z0.400000 A21.035870 F840.000000
G3 X103.775000 Y111.696000 Z0.400000 A21.778980 I-5.2382 J-4.3003
G1 X103.476000 Y112.194000 Z0.400000 A21.789470
G0 X103.671 Y112.770 F7800.000
G0 Z0.900 F5400.000 A20.28947
G0 X89.740 Y108.193 F7800.000
G0 Z0.400
G0 F5400.000 A21.78947
G1 X89.839000 Y107.200000 Z0.400000 A21.807430 F1200.000000
G3 X102.960000 Y102.308000 Z0.400000 A22.112870 I7.9571 J1.2997
G1 X105.132000 Y104.359000 Z0.400000 A22.166700
G1 X105.132000 Y96.636000 Z0.400000 A22.305860
G1 X122.132000 Y96.636000 Z0.400000 A22.612150
G1 X122.132000 Y94.236000 Z0.400000 A22.655390
G1 X127.261000 Y94.236000 Z0.400000 A22.747790
G1 X127.261000 Y97.364000 Z0.400000 A22.804160
G1 X126.532000 Y97.364000 Z0.400000 A22.817290
G1 X126.532000 Y94.964000 Z0.400000 A22.860530
G1 X122.861000 Y94.964000 Z0.400000 A22.926680
G1 X122.861000 Y97.364000 Z0.400000 A22.969920
G1 X105.861000 Y97.364000 Z0.400000 A23.276200
G1 X105.861000 Y119.636000 Z0.400000 A23.677460
G1 X122.861000 Y119.636000 Z0.400000 A23.983750
G1 X122.861000 Y122.036000 Z0.400000 A24.026990
G1 X126.532000 Y122.036000 Z0.400000 A24.093130
G1 X126.532000 Y119.636000 Z0.400000 A24.136370
G1 X127.261000 Y119.636000 Z0.400000 A24.149500
G1 X127.261000 Y122.764000 Z0.400000 A24.205870
G1 X122.132000 Y122.764000 Z0.400000 A24.298280
G1 X122.132000 Y120.364000 Z0.400000 A24.341520
G1 X105.132000 Y120.364000 Z0.400000 A24.647810
G1 X105.132000 Y112.612000 Z0.400000 A24.787480
G1 X103.092000 Y114.581000 Z0.400000 A24.838570
G3 X89.742000 Y108.276000 Z0.400000 A25.174680 I-5.2944 J-6.0757
G0 X89.183 Y108.198 F7800.000
G1 X89.289000 Y107.111000 Z0.400000 A25.194360 F840.000000
G3 X103.318000 Y101.879000 Z0.400000 A25.520940 I8.5061 J1.3834
G1 X104.575000 Y103.067000 Z0.400000 A25.552110
G1 X104.575000 Y96.079000 Z0.400000 A25.678010
G1 X121.575000 Y96.079000 Z0.400000 A25.984300
G1 X121.575000 Y93.679000 Z0.400000 A26.027540
G1 X127.818000 Y93.679000 Z0.400000 A26.140020
G1 X127.818000 Y97.921000 Z0.400000 A26.216460
G1 X125.975000 Y97.921000 Z0.400000 A26.249670
G1 X125.975000 Y95.521000 Z0.400000 A26.292910
G1 X123.418000 Y95.521000 Z0.400000 A26.338980
G1 X123.418000 Y97.921000 Z0.400000 A26.382220
G1 X106.418000 Y97.921000 Z0.400000 A26.688500
G1 X106.418000 Y119.079000 Z0.400000 A27.069690
G1 X123.418000 Y119.079000 Z0.400000 A27.375970
G1 X123.418000 Y121.479000 Z0.400000 A27.419220
G1 X125.975000 Y121.479000 Z0.400000 A27.465290
G1 X125.975000 Y119.079000 Z0.400000 A27.508530
G1 X127.818000 Y119.079000 Z0.400000 A27.541730
G1 X127.818000 Y123.321000 Z0.400000 A27.618170
G1 X121.575000 Y123.321000 Z0.400000 A27.730650
G1 X121.575000 Y120.921000 Z0.400000 A27.773890
G1 X104.575000 Y120.921000 Z0.400000 A28.080180
G1 X104.575000 Y113.924000 Z0.400000 A28.206260
G1 X103.458000 Y115.001000 Z0.400000 A28.234220
G3 X89.185000 Y108.282000 Z0.400000 A28.593540 I-5.6636 J-6.4884
G0 X89.680 Y107.947 F7800.000
M106 P206
G0 Z0.600 F5400.000 A27.09354
G0 X90.495 Y107.781 F7800.000
G0 F5400.000 A28.59354
G1 X90.601000 Y107.069000 Z0.600000 A28.606510 F1200.000000
G3 X90.460000 Y108.500000 Z0.600000 A29.410760 I7.1912 J1.4310
G1 X90.491000 Y107.864000 Z0.600000 A29.422230
G0 X91.051 Y107.836 F7800.000
G1 X91.148000 Y107.178000 Z0.600000 A29.434210 F840.000000
G3 X91.018000 Y108.500000 Z0.600000 A30.177320 I6.6303 J1.3194
G1 X91.046000 Y107.919000 Z0.600000 A30.187800
G0 X90.603 Y107.504 F7800.000
G0 Z1.100 F5400.000 A28.68780
G0 X127.261 Y122.764 F7800.000
G0 Z0.600
G0 F5400.000 A30.18780
G1 X122.132000 Y122.764000 Z0.600000 A30.280210 F1200.000000
G1 X122.132000 Y120.364000 Z0.600000 A30.323450
G1 X105.132000 Y120.364000 Z0.600000 A30.629740
G1 X105.132000 Y112.612000 Z0.600000 A30.769410
G1 X103.092000 Y114.581000 Z0.600000 A30.820500
G3 X102.960000 Y102.308000 Z0.600000 A31.481510 I-5.2915 J-6.0803
G1 X105.132000 Y104.359000 Z0.600000 A31.535340
G1 X105.132000 Y96.636000 Z0.600000 A31.674500
G1 X122.132000 Y96.636000 Z0.600000 A31.980790
G1 X122.132000 Y94.236000 Z0.600000 A32.024030
G1 X127.261000 Y94.236000 Z0.600000 A32.116430
G1 X127.261000 Y97.364000 Z0.600000 A32.172800
G1 X126.532000 Y97.364000 Z0.600000 A32.185930
G1 X126.532000 Y94.964000 Z0.600000 A32.229170
G1 X122.861000 Y94.964000 Z0.600000 A32.295320
G1 X122.861000 Y97.364000 Z0.600000 A32.338560
G1 X105.861000 Y97.364000 Z0.600000 A32.644840
G1 X105.861000 Y119.636000 Z0.600000 A33.046100
G1 X122.861000 Y119.636000 Z0.600000 A33.352390
G1 X122.861000 Y122.036000 Z0.600000 A33.395630
G1 X126.532000 Y122.036000 Z0.600000 A33.461770
G1 X126.532000 Y119.636000 Z0.600000 A33.505010
G1 X127.261000 Y119.636000 Z0.600000 A33.518140
G1 X127.261000 Y122.681000 Z0.600000 A33.573010
G0 X127.818 Y123.321 F7800.000
G1 X121.575000 Y123.321000 Z0.600000 A33.685490 F840.000000
G1 X121.575000 Y120.921000 Z0.600000 A33.728730
G1 X104.575000 Y120.921000 Z0.600000 A34.035010
G1 X104.575000 Y113.924000 Z0.600000 A34.161090
G1 X103.458000 Y115.001000 Z0.600000 A34.189060
G3 X103.318000 Y101.879000 Z0.600000 A34.896310 I-5.6613 J-6.5013
G1 X104.575000 Y103.067000 Z0.600000 A34.927470
G1 X104.575000 Y96.079000 Z0.600000 A35.053380
G1 X121.575000 Y96.079000 Z0.600000 A35.359660
G1 X121.575000 Y93.679000 Z0.600000 A35.402910
G1 X127.818000 Y93.679000 Z0.600000 A35.515380
G1 X127.818000 Y97.921000 Z0.600000 A35.591830
G1 X125.975000 Y97.921000 Z0.600000 A35.625030
G1 X125.975000 Y95.521000 Z0.600000 A35.668270
G1 X123.418000 Y95.521000 Z0.600000 A35.714340
G1 X123.418000 Y97.921000 Z0.600000 A35.757580
G1 X106.418000 Y97.921000 Z0.600000 A36.063870
G1 X106.418000 Y119.079000 Z0.600000 A36.445050
G1 X123.418000 Y119.079000 Z0.600000 A36.751340
G1 X123.418000 Y121.479000 Z0.600000 A36.794580
G1 X125.975000 Y121.479000 Z0.600000 A36.840650
G1 X125.975000 Y119.079000 Z0.600000 A36.883890
G1 X127.818000 Y119.079000 Z0.600000 A36.917090
G1 X127.818000 Y123.238000 Z0.600000 A36.992030
G0 X127.336 Y123.043 F7800.000
M106 P206
G0 Z0.800 F5400.000 A35.49203
G0 X104.267 Y111.958 F7800.000
G0 F5400.000 A36.99203
G1 X103.897000 Y112.576000 Z0.800000 A37.005000 F1200.000000
G3 X104.575000 Y111.308000 Z0.800000 A37.809260 I-6.0886 J-4.0708
G1 X104.303000 Y111.883000 Z0.800000 A37.820720
G0 X103.775 Y111.696 F7800.000
G1 X103.433000 Y112.266000 Z0.800000 A37.832710 F840.000000
G3 X104.060000 Y111.094000 Z0.800000 A38.575820 I-5.6350 J-3.7684
G1 X103.811000 Y111.620000 Z0.800000 A38.586300
G0 X104.062 Y112.173 F7800.000
G0 Z1.300 F5400.000 A37.08630
G0 X127.261 Y94.236 F7800.000
G0 Z0.800
G0 F5400.000 A38.58630
G1 X127.261000 Y97.364000 Z0.800000 A38.642670 F1200.000000
G1 X126.532000 Y97.364000 Z0.800000 A38.655800
G1 X126.532000 Y94.964000 Z0.800000 A38.699040
G1 X122.861000 Y94.964000 Z0.800000 A38.765190
G1 X122.861000 Y97.364000 Z0.800000 A38.808430
G1 X105.861000 Y97.364000 Z0.800000 A39.114710
G1 X105.861000 Y119.636000 Z0.800000 A39.515970
G1 X122.861000 Y119.636000 Z0.800000 A39.822260
G1 X122.861000 Y122.036000 Z0.800000 A39.865500
G1 X126.532000 Y122.036000 Z0.800000 A39.931640
G1 X126.532000 Y119.636000 Z0.800000 A39.974880
G1 X127.261000 Y119.636000 Z0.800000 A39.988010
G1 X127.261000 Y122.764000 Z0.800000 A40.044380
G1 X122.132000 Y122.764000 Z0.800000 A40.136790
G1 X122.132000 Y120.364000 Z0.800000 A40.180030
G1 X105.132000 Y120.364000 Z0.800000 A40.486310
G1 X105.132000 Y112.612000 Z0.800000 A40.625990
G3 X99.436000 Y116.395000 Z0.800000 A40.751390 I-8.2792 J-6.2862
