; generated by Slic3r 0.9.8 on 2013-06-14 at 08:50:37

; layer_height = 0.2
; perimeters = 3
; top_solid_layers = 3
; bottom_solid_layers = 3
; fill_density = 0
; perimeter_speed = 20
; infill_speed = 40
; travel_speed = 130
; scale = 1
; nozzle_diameter = 0.4
; filament_diameter = 2.95
; extrusion_multiplier = 1.105263
; perimeters extrusion width = 0.60mm
; infill extrusion width = 0.60mm
; first layer extrusion width = 0.64mm

M190 P60 ; wait for bed temperature to be reached
M104 P175 ; set temperature
G92 A0                  ; Reset A to 0
G40                        ; Cancel cutter compensation
G64 P0.1                ; Path Blend within .1mm
G0 X108.5 Y200    ; Move to plate
M109 P175 ; wait for temperature to be reached
G90 ; use absolute coordinates
G21 ; set units to millimeters
G0 Z0.200 F5400.000 A-1.50000
G0 X142.673 Y143.113 F7800.000
G0 F5400.000 A0.00000
G1 X125.143000 Y143.113000 Z0.200000 A0.338510 F360.000000
G3 X90.543000 Y142.363000 Z0.200000 A1.006820 I-5.3721 J-550.6510
G1 X89.973000 Y142.283000 Z0.200000 A1.017930
G3 X86.443000 Y140.543000 Z0.200000 A1.094880 I1.2391 J-6.9645
G1 X63.123000 Y117.723000 Z0.200000 A1.724940
G3 X61.163000 Y113.073000 Z0.200000 A1.824480 I5.0954 J-4.8858
G1 X61.163000 Y106.333000 Z0.200000 A1.954640
G3 X61.273000 Y105.333000 Z0.200000 A1.974080 I5.4407 J0.0924
G1 X63.073000 Y95.133000 Z0.200000 A2.174090
G3 X67.963000 Y78.283000 Z0.200000 A2.512960 I137.5535 J30.7845
G1 X68.203000 Y77.773000 Z0.200000 A2.523840
G3 X74.313000 Y73.893000 Z0.200000 A2.670230 I6.3731 J3.2852
G1 X91.853000 Y73.893000 Z0.200000 A3.008940
G3 X126.453000 Y74.683000 Z0.200000 A3.677260 I4.2477 J572.0545
G1 X127.013000 Y74.763000 Z0.200000 A3.688190
G3 X130.753000 Y76.693000 Z0.200000 A3.770610 I-1.2588 J7.0281
G1 X153.673000 Y99.073000 Z0.200000 A4.389210
G3 X155.833000 Y103.933000 Z0.200000 A4.494320 I-5.0400 J5.1500
G1 X155.823000 Y110.923000 Z0.200000 A4.629300
G3 X148.783000 Y139.233000 Z0.200000 A5.193730 I-124.9411 J-16.0394
G1 X148.503000 Y139.723000 Z0.200000 A5.204620
G3 X142.673000 Y143.113000 Z0.200000 A5.340150 I-6.0925 J-3.7696
G0 X142.663 Y142.513 F7800.000
G1 X125.153000 Y142.523000 Z0.200000 A5.678280 F360.000000
G1 X91.123000 Y141.803000 Z0.200000 A6.335560
G1 X90.303000 Y141.733000 Z0.200000 A6.351460
G3 X86.853000 Y140.103000 Z0.200000 A6.426200 I0.9092 J-6.3904
G1 X63.543000 Y117.303000 Z0.200000 A7.055850
G3 X61.753000 Y112.783000 Z0.200000 A7.151930 I4.8020 J-4.5161
G1 X61.753000 Y106.583000 Z0.200000 A7.271660
G3 X61.853000 Y105.433000 Z0.200000 A7.293960 I8.0250 J0.1185
G1 X63.653000 Y95.233000 Z0.200000 A7.493980
G3 X68.523000 Y78.493000 Z0.200000 A7.830690 I130.1564 J28.7867
G1 X68.753000 Y78.013000 Z0.200000 A7.840960
G3 X74.593000 Y74.483000 Z0.200000 A7.979390 I5.8216 J3.0354
G1 X91.843000 Y74.483000 Z0.200000 A8.312500
G1 X125.873000 Y75.243000 Z0.200000 A8.969800
G1 X126.693000 Y75.313000 Z0.200000 A8.985690
G3 X130.133000 Y76.933000 Z0.200000 A9.060090 I-0.9976 J6.5807
G1 X153.253000 Y99.503000 Z0.200000 A9.684020
G3 X155.243000 Y104.223000 Z0.200000 A9.785520 I-4.5402 J4.6937
G1 X155.243000 Y110.423000 Z0.200000 A9.905250
G3 X155.143000 Y111.573000 Z0.200000 A9.927550 I-8.0450 J-0.1202
G1 X153.343000 Y121.773000 Z0.200000 A10.127560
G1 X148.463000 Y138.513000 Z0.200000 A10.464330
G1 X148.233000 Y138.993000 Z0.200000 A10.474600
G3 X142.663000 Y142.513000 Z0.200000 A10.607820 I-5.8092 J-3.0254
G0 Z0.700 F1620.000 A9.10782
G0 X106.590 Y119.880 F7800.000
G0 Z0.200
G0 F5400.000 A10.60782
G1 X106.590000 Y133.420000 Z0.200000 A10.869280 F252.000000
G1 X93.050000 Y133.420000 Z0.200000 A11.130740
G1 X93.050000 Y119.880000 Z0.200000 A11.392210
G1 X106.590000 Y119.880000 Z0.200000 A11.653670
G0 X107.187 Y119.880 F7800.000
G0 X108.350 Y119.880
G1 X108.350000 Y135.180000 Z0.200000 A11.949120 F360.000000
G1 X91.290000 Y135.180000 Z0.200000 A12.278560
G1 X91.290000 Y119.880000 Z0.200000 A12.574010
G1 X86.840000 Y119.880000 Z0.200000 A12.659950
G1 X86.840000 Y109.680000 Z0.200000 A12.856910
G1 X85.040000 Y109.680000 Z0.200000 A12.891670
G1 X85.040000 Y103.520000 Z0.200000 A13.010620
G1 X88.600000 Y103.520000 Z0.200000 A13.079370
G1 X88.600000 Y105.280000 Z0.200000 A13.113360
G1 X86.800000 Y105.280000 Z0.200000 A13.148120
G1 X86.800000 Y107.920000 Z0.200000 A13.199090
G1 X88.600000 Y107.920000 Z0.200000 A13.233850
G1 X88.600000 Y118.120000 Z0.200000 A13.430820
G1 X111.040000 Y118.120000 Z0.200000 A13.864150
G1 X111.040000 Y107.920000 Z0.200000 A14.061120
G1 X112.840000 Y107.920000 Z0.200000 A14.095880
G1 X112.840000 Y105.280000 Z0.200000 A14.146860
G1 X111.040000 Y105.280000 Z0.200000 A14.181610
G1 X111.040000 Y103.520000 Z0.200000 A14.215600
G1 X114.600000 Y103.520000 Z0.200000 A14.284350
G1 X114.600000 Y109.680000 Z0.200000 A14.403300
G1 X112.800000 Y109.680000 Z0.200000 A14.438060
G1 X112.800000 Y119.880000 Z0.200000 A14.635030
G1 X108.350000 Y119.880000 Z0.200000 A14.720960
G0 Z0.200 F5400.000 A13.22096
G0 X140.620 Y120.603 F7800.000
G0 F5400.000 A14.72096
G1 X140.620000 Y134.143000 Z0.200000 A14.982420 F252.000000
G1 X127.080000 Y134.143000 Z0.200000 A15.243890
G1 X127.080000 Y120.603000 Z0.200000 A15.505350
G1 X140.620000 Y120.603000 Z0.200000 A15.766810
G0 X141.217 Y120.603 F7800.000
G0 X142.380 Y120.603
G1 X142.380000 Y135.903000 Z0.200000 A16.062270 F360.000000
G1 X125.320000 Y135.903000 Z0.200000 A16.391700
G1 X125.320000 Y120.603000 Z0.200000 A16.687150
G1 X120.870000 Y120.603000 Z0.200000 A16.773090
G1 X120.870000 Y110.403000 Z0.200000 A16.970050
G1 X119.070000 Y110.403000 Z0.200000 A17.004810
G1 X119.070000 Y104.243000 Z0.200000 A17.123760
G1 X122.630000 Y104.243000 Z0.200000 A17.192510
G1 X122.630000 Y106.003000 Z0.200000 A17.226500
G1 X120.830000 Y106.003000 Z0.200000 A17.261260
G1 X120.830000 Y108.643000 Z0.200000 A17.312240
G1 X122.630000 Y108.643000 Z0.200000 A17.346990
G1 X122.630000 Y118.843000 Z0.200000 A17.543960
G1 X145.070000 Y118.843000 Z0.200000 A17.977290
G1 X145.070000 Y108.643000 Z0.200000 A18.174260
G1 X146.870000 Y108.643000 Z0.200000 A18.209020
G1 X146.870000 Y106.003000 Z0.200000 A18.260000
G1 X145.070000 Y106.003000 Z0.200000 A18.294750
G1 X145.070000 Y104.243000 Z0.200000 A18.328740
G1 X148.630000 Y104.243000 Z0.200000 A18.397490
G1 X148.630000 Y110.403000 Z0.200000 A18.516440
G1 X146.830000 Y110.403000 Z0.200000 A18.551200
G1 X146.830000 Y120.603000 Z0.200000 A18.748170
G1 X142.380000 Y120.603000 Z0.200000 A18.834100
G0 Z0.700 F1620.000 A17.33410
G0 X76.380 Y82.857 F7800.000
G0 Z0.200
G0 F5400.000 A18.83410
G1 X89.920000 Y82.857000 Z0.200000 A19.095560 F252.000000
G1 X89.920000 Y96.397000 Z0.200000 A19.357030
G1 X76.380000 Y96.397000 Z0.200000 A19.618490
G1 X76.380000 Y82.857000 Z0.200000 A19.879960
G0 X76.380 Y82.260 F7800.000
G0 X74.620 Y81.097
G1 X91.680000 Y81.097000 Z0.200000 A20.209390 F360.000000
G1 X91.680000 Y96.397000 Z0.200000 A20.504840
G1 X96.130000 Y96.397000 Z0.200000 A20.590780
G1 X96.130000 Y106.597000 Z0.200000 A20.787740
G1 X97.930000 Y106.597000 Z0.200000 A20.822500
G1 X97.930000 Y112.757000 Z0.200000 A20.941450
G1 X94.370000 Y112.757000 Z0.200000 A21.010200
G1 X94.370000 Y110.997000 Z0.200000 A21.044190
G1 X96.170000 Y110.997000 Z0.200000 A21.078950
G1 X96.170000 Y108.357000 Z0.200000 A21.129930
G1 X94.370000 Y108.357000 Z0.200000 A21.164680
G1 X94.370000 Y98.157000 Z0.200000 A21.361650
G1 X71.930000 Y98.157000 Z0.200000 A21.794980
G1 X71.930000 Y108.357000 Z0.200000 A21.991950
G1 X70.130000 Y108.357000 Z0.200000 A22.026710
G1 X70.130000 Y110.997000 Z0.200000 A22.077690
G1 X71.930000 Y110.997000 Z0.200000 A22.112440
G1 X71.930000 Y112.757000 Z0.200000 A22.146430
G1 X68.370000 Y112.757000 Z0.200000 A22.215180
G1 X68.370000 Y106.597000 Z0.200000 A22.334130
G1 X70.170000 Y106.597000 Z0.200000 A22.368890
G1 X70.170000 Y96.397000 Z0.200000 A22.565860
G1 X74.620000 Y96.397000 Z0.200000 A22.651790
G1 X74.620000 Y81.097000 Z0.200000 A22.947240
G0 Z0.200 F5400.000 A21.44724
G0 X123.950 Y83.617 F7800.000
G0 F5400.000 A22.94724
G1 X123.950000 Y97.157000 Z0.200000 A23.208700 F252.000000
G1 X110.410000 Y97.157000 Z0.200000 A23.470170
G1 X110.410000 Y83.617000 Z0.200000 A23.731630
G1 X123.950000 Y83.617000 Z0.200000 A23.993100
G0 X124.547 Y83.617 F7800.000
G0 X125.710 Y81.857
G1 X125.710000 Y97.157000 Z0.200000 A24.288550 F360.000000
G1 X130.160000 Y97.157000 Z0.200000 A24.374480
G1 X130.160000 Y107.357000 Z0.200000 A24.571450
G1 X131.960000 Y107.357000 Z0.200000 A24.606210
G1 X131.960000 Y113.517000 Z0.200000 A24.725160
G1 X128.400000 Y113.517000 Z0.200000 A24.793900
G1 X128.400000 Y111.757000 Z0.200000 A24.827890
G1 X130.200000 Y111.757000 Z0.200000 A24.862650
G1 X130.200000 Y109.117000 Z0.200000 A24.913630
G1 X128.400000 Y109.117000 Z0.200000 A24.948390
G1 X128.400000 Y98.917000 Z0.200000 A25.145350
G1 X105.960000 Y98.917000 Z0.200000 A25.578680
G1 X105.960000 Y109.117000 Z0.200000 A25.775650
G1 X104.160000 Y109.117000 Z0.200000 A25.810410
G1 X104.160000 Y111.757000 Z0.200000 A25.861390
G1 X105.960000 Y111.757000 Z0.200000 A25.896150
G1 X105.960000 Y113.517000 Z0.200000 A25.930130
G1 X102.400000 Y113.517000 Z0.200000 A25.998880
G1 X102.400000 Y107.357000 Z0.200000 A26.117830
G1 X104.200000 Y107.357000 Z0.200000 A26.152590
G1 X104.200000 Y97.157000 Z0.200000 A26.349560
G1 X108.650000 Y97.157000 Z0.200000 A26.435490
G1 X108.650000 Y81.857000 Z0.200000 A26.730940
G1 X125.710000 Y81.857000 Z0.200000 A27.060380
M140 P50 ; set bed temperature
G0 Z0.400 F5400.000 A25.56038
G0 X88.603 Y141.893 F7800.000
G0 F5400.000 A27.06038
G1 X88.343000 Y141.783000 Z0.400000 A27.065830 F1200.000000
G3 X86.443000 Y140.543000 Z0.400000 A27.109800 I2.9774 J-6.6378
G1 X63.323000 Y117.923000 Z0.400000 A27.734390
G3 X61.163000 Y113.073000 Z0.400000 A27.839380 I4.8898 J-5.0837
G1 X61.173000 Y106.083000 Z0.400000 A27.974370
G3 X67.963000 Y78.283000 Z0.400000 A28.527850 I128.5105 J16.6588
G1 X68.333000 Y77.533000 Z0.400000 A28.544000
G3 X74.313000 Y73.893000 Z0.400000 A28.685130 I6.2456 J3.5284
G1 X91.853000 Y73.893000 Z0.400000 A29.023840
G3 X126.453000 Y74.683000 Z0.400000 A29.692160 I4.2477 J572.0545
G1 X127.013000 Y74.763000 Z0.400000 A29.703080
G3 X130.753000 Y76.693000 Z0.400000 A29.785520 I-1.2588 J7.0281
G1 X153.673000 Y99.073000 Z0.400000 A30.404110
G3 X155.833000 Y103.933000 Z0.400000 A30.509240 I-5.0400 J5.1500
G1 X155.823000 Y110.923000 Z0.400000 A30.644220
G3 X148.783000 Y139.233000 Z0.400000 A31.208650 I-124.9411 J-16.0394
G1 X148.503000 Y139.723000 Z0.400000 A31.219540
G3 X142.673000 Y143.113000 Z0.400000 A31.355060 I-6.0925 J-3.7696
G1 X125.143000 Y143.113000 Z0.400000 A31.693570
G3 X90.543000 Y142.363000 Z0.400000 A32.361880 I-5.3721 J-550.6510
G1 X89.973000 Y142.283000 Z0.400000 A32.372990
G3 X88.603000 Y141.893000 Z0.400000 A32.400540 I1.2226 J-6.8961
G0 X88.703 Y141.283 F7800.000
G1 X88.203000 Y141.053000 Z0.400000 A32.411160 F1200.000000
G3 X86.653000 Y139.913000 Z0.400000 A32.448440 I2.7502 J-5.3631
G1 X63.543000 Y117.303000 Z0.400000 A33.072770
G3 X61.753000 Y112.783000 Z0.400000 A33.168850 I4.8020 J-4.5161
G1 X61.753000 Y106.583000 Z0.400000 A33.288580
G3 X61.853000 Y105.433000 Z0.400000 A33.310880 I8.0250 J0.1185
G1 X63.653000 Y95.233000 Z0.400000 A33.510890
G3 X68.523000 Y78.493000 Z0.400000 A33.847600 I130.1564 J28.7867
G1 X68.883000 Y77.783000 Z0.400000 A33.862980
G3 X74.593000 Y74.483000 Z0.400000 A33.996310 I5.6656 J3.2131
G1 X91.843000 Y74.483000 Z0.400000 A34.329420
G1 X126.423000 Y75.283000 Z0.400000 A34.997370
G1 X126.963000 Y75.363000 Z0.400000 A35.007910
G3 X130.133000 Y76.933000 Z0.400000 A35.077010 I-1.2401 J6.4893
G1 X153.253000 Y99.503000 Z0.400000 A35.700940
G3 X155.233000 Y103.943000 Z0.400000 A35.797050 I-4.5253 J4.6795
G1 X155.243000 Y110.423000 Z0.400000 A35.922180
G3 X155.143000 Y111.573000 Z0.400000 A35.944480 I-8.0250 J-0.1185
G1 X153.343000 Y121.773000 Z0.400000 A36.144500
G1 X148.463000 Y138.513000 Z0.400000 A36.481260
G1 X148.103000 Y139.223000 Z0.400000 A36.496630
G3 X142.393000 Y142.523000 Z0.400000 A36.629960 I-5.6656 J-3.2131
G1 X125.153000 Y142.523000 Z0.400000 A36.962880
G1 X90.573000 Y141.763000 Z0.400000 A37.630810
G1 X90.023000 Y141.683000 Z0.400000 A37.641540
G3 X88.703000 Y141.283000 Z0.400000 A37.668200 I1.4704 J-7.2302
G0 Z0.900 F5400.000 A36.16820
G0 X107.127 Y119.343 F7800.000
G0 Z0.400
G0 F5400.000 A37.66820
G1 X107.127000 Y133.957000 Z0.400000 A37.931510 F1200.000000
G1 X92.513000 Y133.957000 Z0.400000 A38.194810
G1 X92.513000 Y119.343000 Z0.400000 A38.458110
G1 X107.127000 Y119.343000 Z0.400000 A38.721410
G0 X106.570 Y119.900 F7800.000
G1 X106.570000 Y133.400000 Z0.400000 A38.964640 F840.000000
G1 X93.070000 Y133.400000 Z0.400000 A39.207860
G1 X93.070000 Y119.900000 Z0.400000 A39.451090
G1 X106.570000 Y119.900000 Z0.400000 A39.694320
G0 X107.127 Y119.900 F7800.000
G0 X107.813 Y119.343
G1 X107.813000 Y134.643000 Z0.400000 A39.969980 F1200.000000
G1 X91.827000 Y134.643000 Z0.400000 A40.257990
G1 X91.827000 Y119.343000 Z0.400000 A40.533650
G1 X87.377000 Y119.343000 Z0.400000 A40.613830
G1 X87.377000 Y109.143000 Z0.400000 A40.797600
G1 X85.577000 Y109.143000 Z0.400000 A40.830030
G1 X85.577000 Y104.057000 Z0.400000 A40.921660
G1 X88.063000 Y104.057000 Z0.400000 A40.966450
G1 X88.063000 Y104.743000 Z0.400000 A40.978800
G1 X86.263000 Y104.743000 Z0.400000 A41.011230
G1 X86.263000 Y108.457000 Z0.400000 A41.078150
G1 X88.063000 Y108.457000 Z0.400000 A41.110580
G1 X88.063000 Y118.657000 Z0.400000 A41.294350
G1 X111.577000 Y118.657000 Z0.400000 A41.718000
G1 X111.577000 Y108.457000 Z0.400000 A41.901780
G1 X113.377000 Y108.457000 Z0.400000 A41.934210
G1 X113.377000 Y104.743000 Z0.400000 A42.001120
G1 X111.577000 Y104.743000 Z0.400000 A42.033550
G1 X111.577000 Y104.057000 Z0.400000 A42.045910
G1 X114.063000 Y104.057000 Z0.400000 A42.090700
G1 X114.063000 Y109.143000 Z0.400000 A42.182330
G1 X112.263000 Y109.143000 Z0.400000 A42.214760
G1 X112.263000 Y119.343000 Z0.400000 A42.398530
G1 X107.813000 Y119.343000 Z0.400000 A42.478710
G0 X108.370 Y119.900 F7800.000
G1 X108.370000 Y135.200000 Z0.400000 A42.754360 F840.000000
G1 X91.270000 Y135.200000 Z0.400000 A43.062450
G1 X91.270000 Y119.900000 Z0.400000 A43.338110
G1 X86.820000 Y119.900000 Z0.400000 A43.418280
G1 X86.820000 Y109.700000 Z0.400000 A43.602060
G1 X85.020000 Y109.700000 Z0.400000 A43.634490
G1 X85.020000 Y103.500000 Z0.400000 A43.746190
G1 X88.620000 Y103.500000 Z0.400000 A43.811050
G1 X88.620000 Y105.300000 Z0.400000 A43.843480
G1 X86.820000 Y105.300000 Z0.400000 A43.875910
G1 X86.820000 Y107.900000 Z0.400000 A43.922760
G1 X88.620000 Y107.900000 Z0.400000 A43.955190
G1 X88.620000 Y118.100000 Z0.400000 A44.138960
G1 X111.020000 Y118.100000 Z0.400000 A44.542540
G1 X111.020000 Y107.900000 Z0.400000 A44.726310
G1 X112.820000 Y107.900000 Z0.400000 A44.758740
G1 X112.820000 Y105.300000 Z0.400000 A44.805580
G1 X111.020000 Y105.300000 Z0.400000 A44.838010
G1 X111.020000 Y103.500000 Z0.400000 A44.870440
G1 X114.620000 Y103.500000 Z0.400000 A44.935300
G1 X114.620000 Y109.700000 Z0.400000 A45.047010
G1 X112.820000 Y109.700000 Z0.400000 A45.079440
G1 X112.820000 Y119.900000 Z0.400000 A45.263210
G1 X108.370000 Y119.900000 Z0.400000 A45.343380
G0 X107.813 Y119.900 F7800.000
G0 Z0.900 F5400.000 A43.84338
G0 X141.157 Y120.066 F7800.000
G0 Z0.400
G0 F5400.000 A45.34338
G1 X141.157000 Y134.680000 Z0.400000 A45.606690 F1200.000000
G1 X126.543000 Y134.680000 Z0.400000 A45.869990
G1 X126.543000 Y120.066000 Z0.400000 A46.133290
G1 X141.157000 Y120.066000 Z0.400000 A46.396590
G0 X140.600 Y120.623 F7800.000
G1 X140.600000 Y134.123000 Z0.400000 A46.639820 F840.000000
G1 X127.100000 Y134.123000 Z0.400000 A46.883040
G1 X127.100000 Y120.623000 Z0.400000 A47.126270
G1 X140.600000 Y120.623000 Z0.400000 A47.369500
