; generated by Slic3r 1.0.0RC2 on 2014-01-01 at 16:38:29

; layer_height = 0.2
; perimeters = 3
; top_solid_layers = 3
; bottom_solid_layers = 3
; fill_density = 0.25
; perimeter_speed = 20
; infill_speed = 40
; travel_speed = 130
; nozzle_diameter = 0.4
; filament_diameter = 2.95
; extrusion_multiplier = 1.105263
; perimeters extrusion width = 0.56mm
; infill extrusion width = 0.56mm
; solid infill extrusion width = 0.56mm
; top infill extrusion width = 0.56mm

G21 ; set units to millimeters
M190 P115 ; wait for bed temperature to be reached
M104 P210 ; set temperature
G92 A-4                  ; Reset A to 0
G40                        ; Cancel cutter compensation
G64 P0.1                ; Path Blend within .1mm
G0 X108.5 Y200    ; Move to plate
M109 P210 ; wait for temperature to be reached
G90 ; use absolute coordinates
G1 X108.500000 Y200.000000 Z0.000000 A-2.000000 F5400.000000
G0 Z0.200 F7800.000
;o<wipe_nozzle> call
G0 X81.130 Y80.650 F7800.000
G1 X81.130000 Y80.650000 Z0.200000 A0.000000 F5400.000000
G1 X83.450000 Y78.540000 Z0.200000 A0.053310 F360.000000
G3 X133.540000 Y138.450000 Z0.200000 A2.138250 F360.000000 I25.0450 J29.9550
G1 X132.990000 Y138.900000 Z0.200000 A2.150330 F360.000000
G3 X81.074000 Y80.706000 Z0.200000 A4.168530 F360.000000 I-24.5168 J-30.3827
G0 X81.480 Y81.040 F7800.000
G1 X83.800000 Y78.930000 Z0.200000 A4.221840 F360.000000
G3 X145.260000 Y119.980000 Z0.200000 A5.904120 F360.000000 I24.7295 J29.5090
G1 X144.200000 Y122.940000 Z0.200000 A5.957570 F360.000000
G3 X69.980000 Y108.180000 Z0.200000 A7.768080 F360.000000 I-35.7172 J-14.3839
G1 X70.130000 Y105.050000 Z0.200000 A7.821360 F360.000000
G3 X81.424000 Y81.096000 Z0.200000 A8.280880 F360.000000 I37.9012 J3.2304
G1 X83.132000 Y79.539000 Z0.200000 A6.380880 F6240.000000
G1 X83.132000 Y79.539000 Z0.200000 A6.280880 F5400.000000
G0 X81.901 Y93.987 F7800.000
G1 X81.901000 Y93.987000 Z0.200000 A8.280880 F5400.000000
G1 X81.901000 Y123.013000 Z0.200000 A8.775320 F720.000000
G1 X82.428000 Y123.891000 Z0.200000 A8.792770 F720.000000
G1 X82.428000 Y93.109000 Z0.200000 A9.317140 F720.000000
G1 X82.955000 Y92.230000 Z0.200000 A9.334590 F720.000000
G1 X82.955000 Y124.770000 Z0.200000 A9.888900 F720.000000
G1 X83.482000 Y125.590000 Z0.200000 A9.905500 F720.000000
G1 X83.482000 Y91.410000 Z0.200000 A10.487730 F720.000000
G1 X84.008000 Y90.700000 Z0.200000 A10.502790 F720.000000
G1 X84.008000 Y126.300000 Z0.200000 A11.109210 F720.000000
G1 X84.535000 Y127.010000 Z0.200000 A11.124280 F720.000000
G1 X84.535000 Y89.990000 Z0.200000 A11.754900 F720.000000
G1 X85.062000 Y89.280000 Z0.200000 A11.769960 F720.000000
G1 X85.062000 Y127.720000 Z0.200000 A12.424780 F720.000000
G1 X85.588000 Y128.303000 Z0.200000 A12.438160 F720.000000
G1 X85.588000 Y88.697000 Z0.200000 A13.112830 F720.000000
G1 X86.115000 Y88.116000 Z0.200000 A13.126190 F720.000000
G1 X86.115000 Y128.884000 Z0.200000 A13.820660 F720.000000
G1 X86.642000 Y129.465000 Z0.200000 A13.834020 F720.000000
G1 X86.642000 Y87.535000 Z0.200000 A14.548290 F720.000000
G1 X87.168000 Y86.974000 Z0.200000 A14.561400 F720.000000
G1 X87.168000 Y130.026000 Z0.200000 A15.294780 F720.000000
G1 X87.695000 Y130.504000 Z0.200000 A15.306890 F720.000000
G1 X87.695000 Y86.496000 Z0.200000 A16.056540 F720.000000
G1 X88.222000 Y86.019000 Z0.200000 A16.068650 F720.000000
G1 X88.222000 Y130.981000 Z0.200000 A16.834560 F720.000000
G1 X88.749000 Y131.459000 Z0.200000 A16.846670 F720.000000
G1 X88.749000 Y85.541000 Z0.200000 A17.628840 F720.000000
G1 X89.275000 Y85.065000 Z0.200000 A17.640940 F720.000000
G1 X89.275000 Y131.935000 Z0.200000 A18.439350 F720.000000
G1 X89.802000 Y132.326000 Z0.200000 A18.450520 F720.000000
G1 X89.802000 Y84.674000 Z0.200000 A19.262240 F720.000000
G1 X90.329000 Y84.284000 Z0.200000 A19.273410 F720.000000
G1 X90.329000 Y132.716000 Z0.200000 A20.098440 F720.000000
G1 X90.855000 Y133.107000 Z0.200000 A20.109610 F720.000000
G1 X90.855000 Y83.893000 Z0.200000 A20.947940 F720.000000
G1 X91.382000 Y83.502000 Z0.200000 A20.959110 F720.000000
G1 X91.382000 Y133.498000 Z0.200000 A21.810760 F720.000000
G1 X91.909000 Y133.853000 Z0.200000 A21.821580 F720.000000
G1 X91.909000 Y83.147000 Z0.200000 A22.685320 F720.000000
G1 X92.436000 Y82.832000 Z0.200000 A22.695780 F720.000000
G1 X92.436000 Y134.168000 Z0.200000 A23.570280 F720.000000
G1 X92.962000 Y134.484000 Z0.200000 A23.580740 F720.000000
G1 X92.962000 Y82.516000 Z0.200000 A24.466000 F720.000000
G1 X93.489000 Y82.200000 Z0.200000 A24.476460 F720.000000
G1 X93.489000 Y134.800000 Z0.200000 A25.372470 F720.000000
G1 X94.016000 Y135.116000 Z0.200000 A25.382930 F720.000000
G1 X94.016000 Y81.884000 Z0.200000 A26.289700 F720.000000
G1 X94.542000 Y81.611000 Z0.200000 A26.299810 F720.000000
G1 X94.542000 Y135.389000 Z0.200000 A27.215900 F720.000000
G1 X95.069000 Y135.638000 Z0.200000 A27.225830 F720.000000
G1 X95.069000 Y81.362000 Z0.200000 A28.150410 F720.000000
G1 X95.596000 Y81.112000 Z0.200000 A28.160330 F720.000000
G1 X95.596000 Y135.888000 Z0.200000 A29.093400 F720.000000
G1 X96.122000 Y136.137000 Z0.200000 A29.103330 F720.000000
G1 X96.122000 Y80.863000 Z0.200000 A30.044880 F720.000000
G1 X96.649000 Y80.614000 Z0.200000 A30.054810 F720.000000
G1 X96.649000 Y136.386000 Z0.200000 A31.004850 F720.000000
G1 X97.176000 Y136.603000 Z0.200000 A31.014560 F720.000000
G1 X97.176000 Y80.397000 Z0.200000 A31.972010 F720.000000
G1 X97.703000 Y80.208000 Z0.200000 A31.981530 F720.000000
G1 X97.703000 Y136.792000 Z0.200000 A32.945400 F720.000000
G1 X98.229000 Y136.980000 Z0.200000 A32.954930 F720.000000
G1 X98.229000 Y80.020000 Z0.200000 A33.925220 F720.000000
G1 X98.756000 Y79.831000 Z0.200000 A33.934750 F720.000000
G1 X98.756000 Y137.169000 Z0.200000 A34.911460 F720.000000
G1 X99.283000 Y137.357000 Z0.200000 A34.920990 F720.000000
G1 X99.283000 Y79.643000 Z0.200000 A35.904120 F720.000000
G1 X99.809000 Y79.466000 Z0.200000 A35.913580 F720.000000
G1 X99.809000 Y137.534000 Z0.200000 A36.902740 F720.000000
G1 X100.336000 Y137.666000 Z0.200000 A36.911990 F720.000000
G1 X100.336000 Y79.334000 Z0.200000 A37.905640 F720.000000
G1 X100.863000 Y79.202000 Z0.200000 A37.914890 F720.000000
G1 X100.863000 Y107.653000 Z0.200000 A38.399520 F720.000000
G0 X100.863 Y109.347 F7800.000
G1 X100.863000 Y137.798000 Z0.200000 A38.884160 F720.000000
G1 X101.390000 Y137.793000 Z0.200000 A38.893140 F720.000000
G1 X101.390000 Y111.421000 Z0.200000 A39.342370 F720.000000
G1 X101.916000 Y112.452000 Z0.200000 A39.362090 F720.000000
G1 X101.916000 Y137.868000 Z0.200000 A39.795050 F720.000000
G1 X102.443000 Y137.943000 Z0.200000 A39.804110 F720.000000
G1 X102.443000 Y113.223000 Z0.200000 A40.225200 F720.000000
G1 X102.970000 Y113.833000 Z0.200000 A40.238920 F720.000000
G1 X102.970000 Y138.021000 Z0.200000 A40.650950 F720.000000
G1 X103.496000 Y138.099000 Z0.200000 A40.660020 F720.000000
G1 X103.496000 Y114.328000 Z0.200000 A41.064930 F720.000000
G1 X104.023000 Y114.740000 Z0.200000 A41.076320 F720.000000
G1 X104.023000 Y138.177000 Z0.200000 A41.475560 F720.000000
G1 X104.550000 Y138.255000 Z0.200000 A41.484630 F720.000000
G1 X104.550000 Y115.085000 Z0.200000 A41.879320 F720.000000
G1 X105.076000 Y115.375000 Z0.200000 A41.889560 F720.000000
G1 X105.076000 Y138.333000 Z0.200000 A42.280640 F720.000000
G1 X105.603000 Y138.406000 Z0.200000 A42.289700 F720.000000
G1 X105.603000 Y137.494000 Z0.200000 A42.305240 F720.000000
G1 X106.130000 Y138.008000 Z0.200000 A42.317780 F720.000000
G1 X106.130000 Y138.425000 Z0.200000 A42.324880 F720.000000
G0 X105.603 Y134.690 F7800.000
G1 X105.603000 Y130.760000 Z0.200000 A42.391830 F720.000000
G0 X106.130 Y132.015 F7800.000
G1 X106.130000 Y133.410000 Z0.200000 A42.415600 F720.000000
G1 X106.657000 Y132.803000 Z0.200000 A42.429300 F720.000000
G1 X106.657000 Y132.628000 Z0.200000 A42.432270 F720.000000
G0 X105.603 Y129.157 F7800.000
G1 X105.603000 Y115.619000 Z0.200000 A42.662890 F720.000000
G1 X106.130000 Y115.808000 Z0.200000 A42.672420 F720.000000
G1 X106.130000 Y127.894000 Z0.200000 A42.878310 F720.000000
G1 X106.657000 Y127.286000 Z0.200000 A42.892010 F720.000000
G1 X106.657000 Y115.954000 Z0.200000 A43.085040 F720.000000
G1 X107.183000 Y116.068000 Z0.200000 A43.094220 F720.000000
G1 X107.183000 Y126.915000 Z0.200000 A43.279000 F720.000000
G1 X107.710000 Y126.696000 Z0.200000 A43.288720 F720.000000
G1 X107.710000 Y116.146000 Z0.200000 A43.468430 F720.000000
G1 X108.237000 Y116.175000 Z0.200000 A43.477410 F720.000000
G1 X108.237000 Y126.589000 Z0.200000 A43.654810 F720.000000
G1 X108.763000 Y126.589000 Z0.200000 A43.663780 F720.000000
G1 X108.763000 Y116.175000 Z0.200000 A43.841170 F720.000000
G1 X109.290000 Y116.146000 Z0.200000 A43.850160 F720.000000
G1 X109.290000 Y126.696000 Z0.200000 A44.029870 F720.000000
G1 X109.817000 Y126.915000 Z0.200000 A44.039590 F720.000000
G1 X109.817000 Y116.068000 Z0.200000 A44.224370 F720.000000
G1 X110.344000 Y115.954000 Z0.200000 A44.233550 F720.000000
G1 X110.344000 Y127.286000 Z0.200000 A44.426580 F720.000000
G1 X110.870000 Y127.898000 Z0.200000 A44.440340 F720.000000
G1 X110.870000 Y115.808000 Z0.200000 A44.646300 F720.000000
G1 X111.397000 Y115.619000 Z0.200000 A44.655830 F720.000000
G1 X111.397000 Y129.158000 Z0.200000 A44.886450 F720.000000
G0 X111.397 Y130.760 F7800.000
G1 X111.397000 Y134.682000 Z0.200000 A44.953280 F720.000000
G0 X110.870 Y133.423 F7800.000
G1 X110.870000 Y132.025000 Z0.200000 A44.977080 F720.000000
G1 X110.344000 Y132.636000 Z0.200000 A44.990820 F720.000000
G1 X110.344000 Y132.809000 Z0.200000 A44.993760 F720.000000
G0 X111.397 Y136.265 F7800.000
G1 X111.397000 Y138.406000 Z0.200000 A45.030240 F720.000000
G1 X110.870000 Y138.425000 Z0.200000 A45.039220 F720.000000
G1 X110.870000 Y138.004000 Z0.200000 A45.046400 F720.000000
G0 X111.924 Y138.333 F7800.000
G1 X111.924000 Y115.375000 Z0.200000 A45.437470 F720.000000
G1 X112.450000 Y115.085000 Z0.200000 A45.447720 F720.000000
G1 X112.450000 Y138.255000 Z0.200000 A45.842410 F720.000000
G1 X112.977000 Y138.177000 Z0.200000 A45.851480 F720.000000
G1 X112.977000 Y114.740000 Z0.200000 A46.250720 F720.000000
G1 X113.504000 Y114.328000 Z0.200000 A46.262100 F720.000000
G1 X113.504000 Y138.099000 Z0.200000 A46.667020 F720.000000
G1 X114.030000 Y138.021000 Z0.200000 A46.676090 F720.000000
G1 X114.030000 Y113.832000 Z0.200000 A47.088120 F720.000000
G1 X114.557000 Y113.223000 Z0.200000 A47.101840 F720.000000
G1 X114.557000 Y137.923000 Z0.200000 A47.522580 F720.000000
G1 X115.084000 Y137.791000 Z0.200000 A47.531830 F720.000000
G1 X115.084000 Y112.452000 Z0.200000 A47.963460 F720.000000
G1 X115.611000 Y111.421000 Z0.200000 A47.983180 F720.000000
G1 X115.611000 Y137.659000 Z0.200000 A48.430130 F720.000000
G1 X116.137000 Y137.527000 Z0.200000 A48.439380 F720.000000
G1 X116.137000 Y109.347000 Z0.200000 A48.919410 F720.000000
G0 X116.137 Y107.653 F7800.000
G1 X116.137000 Y79.202000 Z0.200000 A49.404060 F720.000000
G1 X116.664000 Y79.334000 Z0.200000 A49.413310 F720.000000
G1 X116.664000 Y137.395000 Z0.200000 A50.402350 F720.000000
G1 X117.191000 Y137.263000 Z0.200000 A50.411590 F720.000000
G1 X117.191000 Y79.466000 Z0.200000 A51.396130 F720.000000
G1 X117.717000 Y79.643000 Z0.200000 A51.405600 F720.000000
G1 X117.717000 Y137.077000 Z0.200000 A52.383960 F720.000000
G1 X118.244000 Y136.888000 Z0.200000 A52.393490 F720.000000
G1 X118.244000 Y79.831000 Z0.200000 A53.365420 F720.000000
G1 X118.771000 Y80.020000 Z0.200000 A53.374950 F720.000000
G1 X118.771000 Y136.699000 Z0.200000 A54.340440 F720.000000
G1 X119.297000 Y136.509000 Z0.200000 A54.349980 F720.000000
G1 X119.297000 Y80.208000 Z0.200000 A55.309040 F720.000000
G1 X119.824000 Y80.397000 Z0.200000 A55.318570 F720.000000
G1 X119.824000 Y136.320000 Z0.200000 A56.271190 F720.000000
G1 X120.351000 Y136.095000 Z0.200000 A56.280950 F720.000000
G1 X120.351000 Y80.614000 Z0.200000 A57.226040 F720.000000
G1 X120.878000 Y80.863000 Z0.200000 A57.235960 F720.000000
G1 X120.878000 Y135.846000 Z0.200000 A58.172570 F720.000000
G1 X121.404000 Y135.597000 Z0.200000 A58.182490 F720.000000
G1 X121.404000 Y81.112000 Z0.200000 A59.110610 F720.000000
G1 X121.931000 Y81.362000 Z0.200000 A59.120530 F720.000000
G1 X121.931000 Y135.348000 Z0.200000 A60.040160 F720.000000
G1 X122.458000 Y135.099000 Z0.200000 A60.050080 F720.000000
G1 X122.458000 Y81.611000 Z0.200000 A60.961220 F720.000000
G1 X122.984000 Y81.884000 Z0.200000 A60.971340 F720.000000
G1 X122.984000 Y134.809000 Z0.200000 A61.872880 F720.000000
G1 X123.511000 Y134.493000 Z0.200000 A61.883340 F720.000000
G1 X123.511000 Y82.200000 Z0.200000 A62.774130 F720.000000
G1 X124.038000 Y82.516000 Z0.200000 A62.784590 F720.000000
G1 X124.038000 Y134.178000 Z0.200000 A63.664620 F720.000000
G1 X124.565000 Y133.862000 Z0.200000 A63.675080 F720.000000
G1 X124.565000 Y82.832000 Z0.200000 A64.544360 F720.000000
G1 X125.091000 Y83.147000 Z0.200000 A64.554820 F720.000000
G1 X125.091000 Y133.546000 Z0.200000 A65.413350 F720.000000
G1 X125.618000 Y133.170000 Z0.200000 A65.424370 F720.000000
G1 X125.618000 Y83.502000 Z0.200000 A66.270440 F720.000000
G1 X126.145000 Y83.893000 Z0.200000 A66.281610 F720.000000
G1 X126.145000 Y132.780000 Z0.200000 A67.114370 F720.000000
G1 X126.671000 Y132.389000 Z0.200000 A67.125540 F720.000000
G1 X126.671000 Y84.284000 Z0.200000 A67.944990 F720.000000
G1 X127.198000 Y84.674000 Z0.200000 A67.956160 F720.000000
G1 X127.198000 Y131.998000 Z0.200000 A68.762300 F720.000000
G1 X127.725000 Y131.581000 Z0.200000 A68.773750 F720.000000
G1 X127.725000 Y85.065000 Z0.200000 A69.566130 F720.000000
G1 X128.251000 Y85.542000 Z0.200000 A69.578230 F720.000000
G1 X128.251000 Y131.104000 Z0.200000 A70.354360 F720.000000
G1 X128.778000 Y130.817000 Z0.200000 A70.364570 F720.000000
G1 X128.778000 Y86.019000 Z0.200000 A71.127690 F720.000000
G1 X129.305000 Y86.496000 Z0.200000 A71.139800 F720.000000
G1 X129.305000 Y130.236000 Z0.200000 A71.884880 F720.000000
G1 X129.832000 Y129.655000 Z0.200000 A71.898240 F720.000000
G1 X129.832000 Y86.974000 Z0.200000 A72.625300 F720.000000
G1 X130.358000 Y87.535000 Z0.200000 A72.638410 F720.000000
G1 X130.358000 Y129.074000 Z0.200000 A73.346010 F720.000000
G1 X130.885000 Y128.493000 Z0.200000 A73.359370 F720.000000
G1 X130.885000 Y88.116000 Z0.200000 A74.047170 F720.000000
G1 X131.412000 Y88.697000 Z0.200000 A74.060530 F720.000000
G1 X131.412000 Y127.912000 Z0.200000 A74.728530 F720.000000
G1 X131.938000 Y127.720000 Z0.200000 A74.738080 F720.000000
G1 X131.938000 Y89.280000 Z0.200000 A75.392890 F720.000000
G1 X132.465000 Y89.990000 Z0.200000 A75.407950 F720.000000
G1 X132.465000 Y127.010000 Z0.200000 A76.038570 F720.000000
G1 X132.992000 Y126.300000 Z0.200000 A76.053630 F720.000000
G1 X132.992000 Y90.700000 Z0.200000 A76.660050 F720.000000
G1 X133.519000 Y91.410000 Z0.200000 A76.675120 F720.000000
G1 X133.519000 Y125.590000 Z0.200000 A77.257340 F720.000000
G1 X134.045000 Y124.770000 Z0.200000 A77.273940 F720.000000
G1 X134.045000 Y92.230000 Z0.200000 A77.828240 F720.000000
G1 X134.572000 Y93.109000 Z0.200000 A77.845700 F720.000000
G1 X134.572000 Y123.891000 Z0.200000 A78.370060 F720.000000
G1 X135.099000 Y123.013000 Z0.200000 A78.387520 F720.000000
G1 X135.099000 Y93.987000 Z0.200000 A78.881940 F720.000000
G0 X135.625 Y95.041 F7800.000
G1 X135.625000 Y121.959000 Z0.200000 A79.340470 F720.000000
G0 X136.152 Y120.845 F7800.000
G1 X136.152000 Y96.155000 Z0.200000 A79.761050 F720.000000
G0 X136.679 Y97.387 F7800.000
G1 X136.679000 Y119.613000 Z0.200000 A80.139660 F720.000000
G0 X137.205 Y118.141 F7800.000
G1 X137.205000 Y98.859000 Z0.200000 A80.468110 F720.000000
G0 X137.732 Y100.601 F7800.000
G1 X137.732000 Y116.399000 Z0.200000 A80.737210 F720.000000
G0 X138.259 Y114.215 F7800.000
G1 X138.259000 Y102.785000 Z0.200000 A80.931920 F720.000000
G0 X138.786 Y107.965 F7800.000
