; generated by Slic3r 0.9.9 on 2013-08-10 at 08:26:47

; layer_height = 0.2
; perimeters = 3
; top_solid_layers = 3
; bottom_solid_layers = 3
; fill_density = 0.25
; perimeter_speed = 20
; infill_speed = 40
; travel_speed = 130
; nozzle_diameter = 0.4
; filament_diameter = 2.95
; extrusion_multiplier = 1.105263
; perimeters extrusion width = 0.56mm
; infill extrusion width = 0.56mm
; solid infill extrusion width = 0.56mm
; top infill extrusion width = 0.56mm

G21 ; set units to millimeters
M190 P115 ; wait for bed temperature to be reached
M104 P210 ; set temperature
G92 A0                  ; Reset A to 0
G40                        ; Cancel cutter compensation
G64 P0.1                ; Path Blend within .1mm
G0 X108.5 Y200    ; Move to plate
M109 P210 ; wait for temperature to be reached
G90 ; use absolute coordinates
G0 Z0.200 F5400.000 A-2.00000
o<wipe_nozzle> call
G0 X57.560 Y79.150 F7800.000
G0 F5400.000 A0.00000
G1 X58.040000 Y78.860000 Z0.200000 A0.009530 F360.000000
G3 X61.220000 Y77.950000 Z0.200000 A0.066260 I3.3664 J5.7526
G1 X155.770000 Y77.950000 Z0.200000 A1.673690
G3 X162.530000 Y85.340000 Z0.200000 A1.862960 I-0.2778 J7.0410
G1 X162.310000 Y89.940000 Z0.200000 A1.941250
G3 X54.490000 Y84.230000 Z0.200000 A4.755820 I-53.8009 J-4.9159
G1 X54.570000 Y83.670000 Z0.200000 A4.765440
G3 X57.496000 Y79.196000 Z0.200000 A4.858580 I6.8816 J1.3068
G0 X58.000 Y79.490 F7800.000
G1 X58.450000 Y79.230000 Z0.200000 A4.867420 F360.000000
G3 X61.500000 Y78.470000 Z0.200000 A4.921360 I3.0347 J5.6785
G1 X155.490000 Y78.470000 Z0.200000 A6.519270
G3 X162.010000 Y85.310000 Z0.200000 A6.698800 I0.0062 J6.5215
G1 X161.790000 Y89.910000 Z0.200000 A6.777090
G3 X54.990000 Y84.520000 Z0.200000 A9.559090 I-53.2885 J-4.9034
G1 X55.050000 Y84.000000 Z0.200000 A9.567990
G3 X57.935000 Y79.534000 Z0.200000 A9.661070 I6.3816 J0.9576
G0 Z0.700 F1620.000 A7.66107
G0 X63.281 Y86.697 F7800.000
G0 Z0.200
G0 F5400.000 A9.66107
G1 X63.806000 Y86.695000 Z0.200000 A9.670010 F720.000000
G1 X63.806000 Y92.077000 Z0.200000 A9.761520
G0 X64.332 Y94.894 F7800.000
G1 X64.332000 Y86.695000 Z0.200000 A9.900950 F720.000000
G1 X64.858000 Y86.695000 Z0.200000 A9.909890
G1 X64.858000 Y96.993000 Z0.200000 A10.085020
G1 X65.384000 Y98.810000 Z0.200000 A10.117180
G1 X65.384000 Y86.695000 Z0.200000 A10.323200
G1 X65.910000 Y86.695000 Z0.200000 A10.332140
G1 X65.910000 Y100.280000 Z0.200000 A10.563140
G1 X66.435000 Y101.749000 Z0.200000 A10.589690
G1 X66.435000 Y86.695000 Z0.200000 A10.845680
G1 X66.961000 Y86.695000 Z0.200000 A10.854620
G1 X66.961000 Y103.004000 Z0.200000 A11.131960
G1 X67.487000 Y104.116000 Z0.200000 A11.152870
G1 X67.487000 Y86.695000 Z0.200000 A11.449110
G1 X68.013000 Y86.695000 Z0.200000 A11.458060
G1 X68.013000 Y105.227000 Z0.200000 A11.773200
G1 X68.539000 Y106.339000 Z0.200000 A11.794120
G1 X68.539000 Y86.695000 Z0.200000 A12.128170
G1 X69.064000 Y86.695000 Z0.200000 A12.137110
G1 X69.064000 Y107.220000 Z0.200000 A12.486140
G1 X69.590000 Y108.097000 Z0.200000 A12.503530
G1 X69.590000 Y86.695000 Z0.200000 A12.867480
G1 X70.116000 Y86.695000 Z0.200000 A12.876420
G1 X70.116000 Y108.974000 Z0.200000 A13.255290
G1 X70.642000 Y109.852000 Z0.200000 A13.272680
G1 X70.642000 Y86.695000 Z0.200000 A13.666460
G1 X71.168000 Y86.695000 Z0.200000 A13.675410
G1 X71.168000 Y102.549000 Z0.200000 A13.945010
G1 X71.693000 Y101.717000 Z0.200000 A13.961750
G1 X71.693000 Y86.695000 Z0.200000 A14.217200
G1 X72.219000 Y86.695000 Z0.200000 A14.226140
G1 X72.219000 Y101.184000 Z0.200000 A14.472540
G1 X72.745000 Y100.804000 Z0.200000 A14.483580
G1 X72.745000 Y86.695000 Z0.200000 A14.723500
G1 X73.271000 Y86.695000 Z0.200000 A14.732450
G1 X73.271000 Y100.528000 Z0.200000 A14.967670
G1 X73.797000 Y100.340000 Z0.200000 A14.977170
G1 X73.797000 Y86.695000 Z0.200000 A15.209200
G1 X74.323000 Y86.695000 Z0.200000 A15.218150
G1 X74.323000 Y100.229000 Z0.200000 A15.448290
G1 X74.848000 Y100.182000 Z0.200000 A15.457270
G1 X74.848000 Y86.695000 Z0.200000 A15.686620
G0 X75.374 Y91.061 F7800.000
G1 X75.374000 Y100.201000 Z0.200000 A15.842060 F720.000000
G1 X75.900000 Y100.293000 Z0.200000 A15.851140
G1 X75.900000 Y93.369000 Z0.200000 A15.968890
G1 X76.426000 Y95.262000 Z0.200000 A16.002300
G1 X76.426000 Y100.454000 Z0.200000 A16.090580
G1 X76.952000 Y100.692000 Z0.200000 A16.100400
G1 X76.952000 Y96.732000 Z0.200000 A16.167750
G1 X77.477000 Y98.127000 Z0.200000 A16.193100
G1 X77.477000 Y101.036000 Z0.200000 A16.242580
G1 X78.003000 Y101.511000 Z0.200000 A16.254620
G1 X78.003000 Y99.239000 Z0.200000 A16.293260
G1 X78.529000 Y100.350000 Z0.200000 A16.314170
G1 X78.529000 Y102.206000 Z0.200000 A16.345730
G1 X79.055000 Y101.340000 Z0.200000 A16.362950
G1 X79.055000 Y103.543000 Z0.200000 A16.400410
G0 X80.106 Y103.095 F7800.000
G1 X80.106000 Y120.276000 Z0.200000 A16.692590 F720.000000
G1 X80.632000 Y120.666000 Z0.200000 A16.703720
G1 X80.632000 Y103.924000 Z0.200000 A16.988430
G1 X81.158000 Y104.633000 Z0.200000 A17.003440
G1 X81.158000 Y121.056000 Z0.200000 A17.282730
G1 X81.684000 Y121.446000 Z0.200000 A17.293860
G1 X81.684000 Y105.342000 Z0.200000 A17.567720
G1 X82.210000 Y106.051000 Z0.200000 A17.582730
G1 X82.210000 Y121.836000 Z0.200000 A17.851170
G1 X82.735000 Y122.226000 Z0.200000 A17.862300
G1 X82.735000 Y106.690000 Z0.200000 A18.126500
G1 X83.261000 Y107.270000 Z0.200000 A18.139810
G1 X83.261000 Y122.616000 Z0.200000 A18.400770
G1 X83.787000 Y122.941000 Z0.200000 A18.411280
G1 X83.787000 Y107.851000 Z0.200000 A18.667910
G1 X84.313000 Y108.431000 Z0.200000 A18.681220
G1 X84.313000 Y123.256000 Z0.200000 A18.933340
G1 X84.839000 Y123.572000 Z0.200000 A18.943760
G1 X84.839000 Y108.978000 Z0.200000 A19.191930
G1 X85.365000 Y109.455000 Z0.200000 A19.204000
G1 X85.365000 Y123.887000 Z0.200000 A19.449420
G1 X85.890000 Y124.202000 Z0.200000 A19.459850
G1 X85.890000 Y109.931000 Z0.200000 A19.702520
G1 X86.416000 Y110.408000 Z0.200000 A19.714590
G1 X86.416000 Y124.517000 Z0.200000 A19.954520
G1 X86.942000 Y124.832000 Z0.200000 A19.964950
G1 X86.942000 Y110.884000 Z0.200000 A20.202140
G1 X87.468000 Y111.304000 Z0.200000 A20.213580
G1 X87.468000 Y125.106000 Z0.200000 A20.448290
G1 X87.994000 Y125.355000 Z0.200000 A20.458180
G1 X87.994000 Y111.694000 Z0.200000 A20.690500
G1 X88.519000 Y112.084000 Z0.200000 A20.701630
G1 X88.519000 Y125.604000 Z0.200000 A20.931540
G1 X89.045000 Y125.853000 Z0.200000 A20.941430
G1 X89.045000 Y112.474000 Z0.200000 A21.168940
G1 X89.571000 Y112.864000 Z0.200000 A21.180070
G1 X89.571000 Y126.101000 Z0.200000 A21.405170
G1 X90.097000 Y126.350000 Z0.200000 A21.415060
G1 X90.097000 Y113.209000 Z0.200000 A21.638530
G1 X90.623000 Y113.524000 Z0.200000 A21.648960
G1 X90.623000 Y126.599000 Z0.200000 A21.871300
G1 X91.148000 Y126.847000 Z0.200000 A21.881190
G1 X91.148000 Y113.839000 Z0.200000 A22.102400
G1 X91.674000 Y114.154000 Z0.200000 A22.112830
G1 X91.674000 Y127.037000 Z0.200000 A22.331910
G1 X92.200000 Y127.225000 Z0.200000 A22.341400
G1 X92.200000 Y114.469000 Z0.200000 A22.558320
G1 X92.726000 Y114.771000 Z0.200000 A22.568630
G1 X92.726000 Y127.413000 Z0.200000 A22.783630
G1 X93.252000 Y127.602000 Z0.200000 A22.793120
G1 X93.252000 Y115.019000 Z0.200000 A23.007090
G1 X93.777000 Y115.268000 Z0.200000 A23.016980
G1 X93.777000 Y127.790000 Z0.200000 A23.229920
G1 X94.303000 Y127.978000 Z0.200000 A23.239420
G1 X94.303000 Y115.517000 Z0.200000 A23.451320
G1 X94.829000 Y115.765000 Z0.200000 A23.461220
G1 X94.829000 Y128.166000 Z0.200000 A23.672090
G1 X95.355000 Y128.353000 Z0.200000 A23.681590
G1 X95.355000 Y116.014000 Z0.200000 A23.891430
G1 X95.881000 Y116.231000 Z0.200000 A23.901100
G1 X95.881000 Y128.485000 Z0.200000 A24.109490
G1 X96.406000 Y128.617000 Z0.200000 A24.118710
G1 X96.406000 Y116.419000 Z0.200000 A24.326140
G1 X96.932000 Y116.607000 Z0.200000 A24.335630
G1 X96.932000 Y128.749000 Z0.200000 A24.542100
G1 X97.458000 Y128.880000 Z0.200000 A24.551320
G1 X97.458000 Y116.795000 Z0.200000 A24.756830
G1 X97.984000 Y116.983000 Z0.200000 A24.766330
G1 X97.984000 Y129.012000 Z0.200000 A24.970880
G1 X98.510000 Y129.144000 Z0.200000 A24.980100
G1 X98.510000 Y117.172000 Z0.200000 A25.183690
G1 X99.036000 Y117.326000 Z0.200000 A25.193010
G1 X99.036000 Y129.275000 Z0.200000 A25.396220
G1 X99.561000 Y129.407000 Z0.200000 A25.405440
G1 X99.561000 Y117.457000 Z0.200000 A25.608650
G1 X100.087000 Y117.589000 Z0.200000 A25.617870
G1 X100.087000 Y129.495000 Z0.200000 A25.820340
G1 X100.613000 Y129.573000 Z0.200000 A25.829380
G1 X100.613000 Y117.721000 Z0.200000 A26.030940
G1 X101.139000 Y117.853000 Z0.200000 A26.040160
G1 X101.139000 Y129.651000 Z0.200000 A26.240800
G1 X101.665000 Y129.729000 Z0.200000 A26.249840
G1 X101.665000 Y117.984000 Z0.200000 A26.449580
G1 X102.190000 Y118.089000 Z0.200000 A26.458690
G1 X102.190000 Y129.807000 Z0.200000 A26.657970
G1 X102.716000 Y129.885000 Z0.200000 A26.667010
G1 X102.716000 Y118.167000 Z0.200000 A26.866290
G1 X103.242000 Y118.245000 Z0.200000 A26.875330
G1 X103.242000 Y129.963000 Z0.200000 A27.074610
G1 X103.768000 Y130.041000 Z0.200000 A27.083650
G1 X103.768000 Y118.323000 Z0.200000 A27.282920
G1 X104.294000 Y118.401000 Z0.200000 A27.291960
G1 X104.294000 Y130.096000 Z0.200000 A27.490850
G1 X104.819000 Y130.122000 Z0.200000 A27.499800
G1 X104.819000 Y118.479000 Z0.200000 A27.697800
G1 X105.345000 Y118.542000 Z0.200000 A27.706800
G1 X105.345000 Y130.148000 Z0.200000 A27.904160
G1 X105.871000 Y130.174000 Z0.200000 A27.913110
G1 X105.871000 Y118.568000 Z0.200000 A28.110470
G1 X106.397000 Y118.594000 Z0.200000 A28.119420
G1 X106.397000 Y130.199000 Z0.200000 A28.316780
G1 X106.923000 Y130.225000 Z0.200000 A28.325740
G1 X106.923000 Y118.620000 Z0.200000 A28.523100
G1 X107.448000 Y118.646000 Z0.200000 A28.532050
G1 X107.448000 Y130.251000 Z0.200000 A28.729410
G1 X107.974000 Y130.277000 Z0.200000 A28.738360
G1 X107.974000 Y118.671000 Z0.200000 A28.935720
G1 X108.500000 Y118.697000 Z0.200000 A28.944670
G1 X108.500000 Y130.303000 Z0.200000 A29.142030
G1 X109.026000 Y130.277000 Z0.200000 A29.150980
G1 X109.026000 Y118.671000 Z0.200000 A29.348340
G1 X109.552000 Y118.646000 Z0.200000 A29.357290
G1 X109.552000 Y130.251000 Z0.200000 A29.554650
G1 X110.077000 Y130.225000 Z0.200000 A29.563600
G1 X110.077000 Y118.620000 Z0.200000 A29.760960
G1 X110.603000 Y118.594000 Z0.200000 A29.769920
G1 X110.603000 Y130.199000 Z0.200000 A29.967270
G1 X111.129000 Y130.174000 Z0.200000 A29.976230
G1 X111.129000 Y118.568000 Z0.200000 A30.173590
G1 X111.655000 Y118.542000 Z0.200000 A30.182540
G1 X111.655000 Y130.148000 Z0.200000 A30.379900
G1 X112.181000 Y130.122000 Z0.200000 A30.388850
G1 X112.181000 Y118.479000 Z0.200000 A30.586850
G1 X112.707000 Y118.401000 Z0.200000 A30.595890
G1 X112.707000 Y130.096000 Z0.200000 A30.794770
G1 X113.232000 Y130.041000 Z0.200000 A30.803760
G1 X113.232000 Y118.323000 Z0.200000 A31.003040
G1 X113.758000 Y118.245000 Z0.200000 A31.012080
G1 X113.758000 Y129.963000 Z0.200000 A31.211360
G1 X114.284000 Y129.885000 Z0.200000 A31.220400
G1 X114.284000 Y118.167000 Z0.200000 A31.419670
G1 X114.810000 Y118.089000 Z0.200000 A31.428710
G1 X114.810000 Y129.807000 Z0.200000 A31.627990
G1 X115.336000 Y129.729000 Z0.200000 A31.637030
G1 X115.336000 Y117.984000 Z0.200000 A31.836760
G1 X115.861000 Y117.852000 Z0.200000 A31.845980
G1 X115.861000 Y129.651000 Z0.200000 A32.046630
G1 X116.387000 Y129.573000 Z0.200000 A32.055670
G1 X116.387000 Y117.721000 Z0.200000 A32.257230
G1 X116.913000 Y117.589000 Z0.200000 A32.266440
G1 X116.913000 Y129.495000 Z0.200000 A32.468920
G1 X117.439000 Y129.407000 Z0.200000 A32.477980
G1 X117.439000 Y117.457000 Z0.200000 A32.681200
G1 X117.965000 Y117.326000 Z0.200000 A32.690410
G1 X117.965000 Y129.275000 Z0.200000 A32.893620
G1 X118.490000 Y129.144000 Z0.200000 A32.902840
G1 X118.490000 Y117.172000 Z0.200000 A33.106430
G1 X119.016000 Y116.983000 Z0.200000 A33.115930
G1 X119.016000 Y129.012000 Z0.200000 A33.320480
G1 X119.542000 Y128.880000 Z0.200000 A33.329700
G1 X119.542000 Y116.795000 Z0.200000 A33.535210
G1 X120.068000 Y116.607000 Z0.200000 A33.544710
G1 X120.068000 Y128.749000 Z0.200000 A33.751180
G1 X120.594000 Y128.617000 Z0.200000 A33.760400
G1 X120.594000 Y116.419000 Z0.200000 A33.967830
G1 X121.119000 Y116.231000 Z0.200000 A33.977330
G1 X121.119000 Y128.485000 Z0.200000 A34.185720
G1 X121.645000 Y128.353000 Z0.200000 A34.194930
G1 X121.645000 Y116.014000 Z0.200000 A34.404770
G1 X122.171000 Y115.765000 Z0.200000 A34.414660
G1 X122.171000 Y128.166000 Z0.200000 A34.625540
G1 X122.697000 Y127.978000 Z0.200000 A34.635040
G1 X122.697000 Y115.517000 Z0.200000 A34.846950
G1 X123.223000 Y115.268000 Z0.200000 A34.856840
G1 X123.223000 Y127.790000 Z0.200000 A35.069780
G1 X123.748000 Y127.601000 Z0.200000 A35.079270
G1 X123.748000 Y115.019000 Z0.200000 A35.293240
G1 X124.274000 Y114.771000 Z0.200000 A35.303130
G1 X124.274000 Y127.413000 Z0.200000 A35.518130
G1 X124.800000 Y127.225000 Z0.200000 A35.527630
G1 X124.800000 Y114.469000 Z0.200000 A35.744550
G1 X125.326000 Y114.154000 Z0.200000 A35.754970
G1 X125.326000 Y127.037000 Z0.200000 A35.974050
G1 X125.852000 Y126.847000 Z0.200000 A35.983560
G1 X125.852000 Y113.839000 Z0.200000 A36.204770
G1 X126.378000 Y113.524000 Z0.200000 A36.215200
G1 X126.378000 Y126.599000 Z0.200000 A36.437540
G1 X126.903000 Y126.350000 Z0.200000 A36.447430
G1 X126.903000 Y113.209000 Z0.200000 A36.670900
G1 X127.429000 Y112.864000 Z0.200000 A36.681590
G1 X127.429000 Y126.101000 Z0.200000 A36.906700
G1 X127.955000 Y125.852000 Z0.200000 A36.916590
G1 X127.955000 Y112.474000 Z0.200000 A37.144100
G1 X128.481000 Y112.084000 Z0.200000 A37.155230
G1 X128.481000 Y125.604000 Z0.200000 A37.385140
G1 X129.007000 Y125.355000 Z0.200000 A37.395030
G1 X129.007000 Y111.694000 Z0.200000 A37.627340
G1 X129.532000 Y111.304000 Z0.200000 A37.638470
G1 X129.532000 Y125.106000 Z0.200000 A37.873190
G1 X130.058000 Y124.832000 Z0.200000 A37.883280
G1 X130.058000 Y110.884000 Z0.200000 A38.120460
G1 X130.584000 Y110.408000 Z0.200000 A38.132530
G1 X130.584000 Y124.517000 Z0.200000 A38.372460
G1 X131.110000 Y124.202000 Z0.200000 A38.382890
G1 X131.110000 Y109.931000 Z0.200000 A38.625570
G1 X131.636000 Y109.455000 Z0.200000 A38.637640
G1 X131.636000 Y123.887000 Z0.200000 A38.883060
G1 X132.161000 Y123.571000 Z0.200000 A38.893480
G1 X132.161000 Y108.978000 Z0.200000 A39.141650
G1 X132.687000 Y108.431000 Z0.200000 A39.154560
G1 X132.687000 Y123.256000 Z0.200000 A39.406680
G1 X133.213000 Y122.941000 Z0.200000 A39.417100
G1 X133.213000 Y107.850000 Z0.200000 A39.673730
G1 X133.739000 Y107.270000 Z0.200000 A39.687040
G1 X133.739000 Y122.616000 Z0.200000 A39.948000
G1 X134.265000 Y122.226000 Z0.200000 A39.959130
G1 X134.265000 Y106.690000 Z0.200000 A40.223330
G1 X134.790000 Y106.051000 Z0.200000 A40.237410
G1 X134.790000 Y121.836000 Z0.200000 A40.505840
G1 X135.316000 Y121.446000 Z0.200000 A40.516980
G1 X135.316000 Y105.342000 Z0.200000 A40.790840
G1 X135.842000 Y104.633000 Z0.200000 A40.805850
G1 X135.842000 Y121.056000 Z0.200000 A41.085140
G1 X136.368000 Y120.666000 Z0.200000 A41.096270
G1 X136.368000 Y103.924000 Z0.200000 A41.380980
G1 X136.894000 Y103.095000 Z0.200000 A41.397680
G1 X136.894000 Y120.276000 Z0.200000 A41.689860
G1 X137.419000 Y119.857000 Z0.200000 A41.701300
G1 X137.419000 Y102.217000 Z0.200000 A42.001260
G1 X137.945000 Y101.340000 Z0.200000 A42.018650
G1 X137.945000 Y103.542000 Z0.200000 A42.056100
G1 X138.471000 Y102.206000 Z0.200000 A42.080530
G1 X138.471000 Y100.350000 Z0.200000 A42.112090
G1 X138.997000 Y99.238000 Z0.200000 A42.133000
G1 X138.997000 Y101.511000 Z0.200000 A42.171640
G1 X139.523000 Y101.036000 Z0.200000 A42.183680
G1 X139.523000 Y98.127000 Z0.200000 A42.233160
G1 X140.049000 Y96.732000 Z0.200000 A42.258510
