; generated by Slic3r 0.9.9 on 2013-08-03 at 20:29:27

; layer_height = 0.4
; perimeters = 4
; top_solid_layers = 3
; bottom_solid_layers = 3
; fill_density = 0.25
; perimeter_speed = 20
; infill_speed = 40
; travel_speed = 130
; nozzle_diameter = 0.4
; filament_diameter = 2.95
; extrusion_multiplier = 1.105263
; perimeters extrusion width = 0.45mm
; infill extrusion width = 0.45mm
; solid infill extrusion width = 0.45mm
; top infill extrusion width = 0.45mm

G21 ; set units to millimeters
M190 P115 ; wait for bed temperature to be reached
M104 P210 ; set temperature
G92 A0                  ; Reset A to 0
G40                        ; Cancel cutter compensation
G64 P0.1                ; Path Blend within .1mm
G0 X108.5 Y200    ; Move to plate
M109 P210 ; wait for temperature to be reached
G90 ; use absolute coordinates
G0 Z0.200 F5400.000 A-2.00000
o<wipe_nozzle> call
G0 X84.995 Y99.560 F7800.000
G0 F5400.000 A0.00000
G1 X85.605000 Y99.060000 Z0.200000 A0.011210 F360.000000
G3 X92.045000 Y96.650000 Z0.200000 A0.110290 I7.2204 J9.4849
G1 X121.845000 Y95.310000 Z0.200000 A0.534070
G3 X132.625000 Y117.360000 Z0.200000 A0.981080 I1.0366 J13.1534
G1 X131.825000 Y118.190000 Z0.200000 A0.997460
G3 X121.835000 Y121.680000 Z0.200000 A1.152060 I-8.9623 J-9.6114
G1 X92.395000 Y120.370000 Z0.200000 A1.570720
G3 X84.946000 Y99.605000 Z0.200000 A1.972290 I0.4307 J-11.8731
G0 X85.295 Y99.880 F7800.000
G1 X85.865000 Y99.420000 Z0.200000 A1.982700 F360.000000
G3 X92.065000 Y97.090000 Z0.200000 A2.078150 I6.9410 J9.0556
G1 X122.805000 Y95.710000 Z0.200000 A2.515310
G3 X121.925000 Y121.250000 Z0.200000 A3.098720 I-0.0045 J12.7850
G1 X92.425000 Y119.930000 Z0.200000 A3.518230
G3 X85.246000 Y99.925000 Z0.200000 A3.905290 I0.3987 J-11.4337
G0 Z0.700 F1620.000 A1.90529
G0 X93.392 Y105.512 F7800.000
G0 Z0.200
G0 F5400.000 A3.90529
G1 X93.832000 Y105.356000 Z0.200000 A3.911950 F720.000000
G1 X93.832000 Y105.776000 Z0.200000 A3.917930
G1 X94.273000 Y106.040000 Z0.200000 A3.925250
G1 X94.273000 Y105.356000 Z0.200000 A3.935000
G1 X94.713000 Y105.356000 Z0.200000 A3.941280
G1 X94.713000 Y106.359000 Z0.200000 A3.955570
G1 X95.154000 Y106.848000 Z0.200000 A3.964950
G1 X95.154000 Y105.356000 Z0.200000 A3.986220
G1 X95.595000 Y105.356000 Z0.200000 A3.992500
G1 X95.595000 Y107.809000 Z0.200000 A4.027450
G0 X95.595 Y109.191 F7800.000
G1 X95.595000 Y111.644000 Z0.200000 A4.062400 F720.000000
G1 X95.154000 Y111.644000 Z0.200000 A4.068670
G1 X95.154000 Y110.152000 Z0.200000 A4.089940
G1 X94.713000 Y110.641000 Z0.200000 A4.099320
G1 X94.713000 Y111.644000 Z0.200000 A4.113620
G1 X94.273000 Y111.644000 Z0.200000 A4.119890
G1 X94.273000 Y110.960000 Z0.200000 A4.129640
G1 X93.832000 Y111.224000 Z0.200000 A4.136960
G1 X93.832000 Y111.644000 Z0.200000 A4.142940
G1 X93.392000 Y111.489000 Z0.200000 A4.149600
G0 X96.035 Y105.356 F7800.000
G1 X96.035000 Y111.644000 Z0.200000 A4.239200 F720.000000
G1 X96.476000 Y111.644000 Z0.200000 A4.245470
G1 X96.476000 Y105.356000 Z0.200000 A4.335070
G1 X96.916000 Y105.356000 Z0.200000 A4.341350
G1 X96.916000 Y111.644000 Z0.200000 A4.430950
G1 X97.357000 Y111.644000 Z0.200000 A4.437230
G1 X97.357000 Y105.356000 Z0.200000 A4.526830
G1 X97.797000 Y105.356000 Z0.200000 A4.533100
G1 X97.797000 Y111.644000 Z0.200000 A4.622700
G1 X98.238000 Y111.644000 Z0.200000 A4.628980
G1 X98.238000 Y105.356000 Z0.200000 A4.718580
G1 X98.679000 Y105.356000 Z0.200000 A4.724860
G1 X98.679000 Y111.644000 Z0.200000 A4.814460
G1 X99.119000 Y111.644000 Z0.200000 A4.820730
G1 X99.119000 Y105.356000 Z0.200000 A4.910330
G1 X99.560000 Y105.356000 Z0.200000 A4.916610
G1 X99.560000 Y111.644000 Z0.200000 A5.006210
G1 X100.000000 Y111.644000 Z0.200000 A5.012490
G1 X100.000000 Y105.356000 Z0.200000 A5.102090
G1 X100.441000 Y105.356000 Z0.200000 A5.108360
G1 X100.441000 Y111.644000 Z0.200000 A5.197960
G1 X100.881000 Y111.644000 Z0.200000 A5.204240
G1 X100.881000 Y105.356000 Z0.200000 A5.293840
G1 X101.322000 Y105.356000 Z0.200000 A5.300120
G1 X101.322000 Y111.644000 Z0.200000 A5.389720
G1 X101.762000 Y111.644000 Z0.200000 A5.395990
G1 X101.762000 Y105.356000 Z0.200000 A5.485590
G1 X102.203000 Y105.356000 Z0.200000 A5.491870
G1 X102.203000 Y111.644000 Z0.200000 A5.581470
G1 X102.644000 Y111.644000 Z0.200000 A5.587750
G1 X102.644000 Y105.356000 Z0.200000 A5.677350
G1 X103.084000 Y105.356000 Z0.200000 A5.683620
G1 X103.084000 Y111.644000 Z0.200000 A5.773220
G1 X103.525000 Y111.644000 Z0.200000 A5.779500
G1 X103.525000 Y105.356000 Z0.200000 A5.869100
G1 X103.965000 Y105.356000 Z0.200000 A5.875380
G1 X103.965000 Y111.644000 Z0.200000 A5.964980
G1 X104.406000 Y111.644000 Z0.200000 A5.971250
G1 X104.406000 Y105.356000 Z0.200000 A6.060850
G1 X104.846000 Y105.356000 Z0.200000 A6.067130
G1 X104.846000 Y111.644000 Z0.200000 A6.156730
G1 X105.287000 Y111.644000 Z0.200000 A6.163010
G1 X105.287000 Y105.356000 Z0.200000 A6.252610
G1 X105.727000 Y105.356000 Z0.200000 A6.258890
G1 X105.727000 Y111.644000 Z0.200000 A6.348480
G1 X106.168000 Y111.644000 Z0.200000 A6.354760
G1 X106.168000 Y105.356000 Z0.200000 A6.444360
G1 X106.609000 Y105.356000 Z0.200000 A6.450640
G1 X106.609000 Y111.644000 Z0.200000 A6.540240
G1 X107.049000 Y111.644000 Z0.200000 A6.546520
G1 X107.049000 Y105.356000 Z0.200000 A6.636110
G1 X107.490000 Y105.356000 Z0.200000 A6.642390
G1 X107.490000 Y111.644000 Z0.200000 A6.731990
G1 X107.930000 Y111.644000 Z0.200000 A6.738270
G1 X107.930000 Y105.356000 Z0.200000 A6.827870
G1 X108.371000 Y105.356000 Z0.200000 A6.834150
G1 X108.371000 Y111.644000 Z0.200000 A6.923740
G1 X108.811000 Y111.644000 Z0.200000 A6.930020
G1 X108.811000 Y105.356000 Z0.200000 A7.019620
G1 X109.252000 Y105.356000 Z0.200000 A7.025900
G1 X109.252000 Y111.644000 Z0.200000 A7.115500
G1 X109.692000 Y111.644000 Z0.200000 A7.121780
G1 X109.692000 Y105.356000 Z0.200000 A7.211380
G1 X110.133000 Y105.356000 Z0.200000 A7.217650
G1 X110.133000 Y111.644000 Z0.200000 A7.307250
G1 X110.574000 Y111.644000 Z0.200000 A7.313530
G1 X110.574000 Y105.356000 Z0.200000 A7.403130
G1 X111.014000 Y105.356000 Z0.200000 A7.409410
G1 X111.014000 Y111.644000 Z0.200000 A7.499010
G1 X111.455000 Y111.644000 Z0.200000 A7.505280
G1 X111.455000 Y105.356000 Z0.200000 A7.594880
G1 X111.895000 Y105.356000 Z0.200000 A7.601160
G1 X111.895000 Y111.644000 Z0.200000 A7.690760
G1 X112.336000 Y111.644000 Z0.200000 A7.697040
G1 X112.336000 Y105.356000 Z0.200000 A7.786640
G1 X112.776000 Y105.356000 Z0.200000 A7.792910
G1 X112.776000 Y111.644000 Z0.200000 A7.882510
G1 X113.217000 Y111.644000 Z0.200000 A7.888790
G1 X113.217000 Y105.356000 Z0.200000 A7.978390
G1 X113.657000 Y105.356000 Z0.200000 A7.984670
G1 X113.657000 Y111.644000 Z0.200000 A8.074270
G1 X114.098000 Y111.644000 Z0.200000 A8.080540
G1 X114.098000 Y105.356000 Z0.200000 A8.170140
G1 X114.539000 Y105.356000 Z0.200000 A8.176420
G1 X114.539000 Y111.644000 Z0.200000 A8.266020
G1 X114.979000 Y111.644000 Z0.200000 A8.272300
G1 X114.979000 Y105.356000 Z0.200000 A8.361900
G1 X115.420000 Y105.356000 Z0.200000 A8.368170
G1 X115.420000 Y111.644000 Z0.200000 A8.457770
G1 X115.860000 Y111.644000 Z0.200000 A8.464050
G1 X115.860000 Y105.356000 Z0.200000 A8.553650
G1 X116.301000 Y105.356000 Z0.200000 A8.559930
G1 X116.301000 Y111.644000 Z0.200000 A8.649530
G1 X116.741000 Y111.644000 Z0.200000 A8.655800
G1 X116.741000 Y105.356000 Z0.200000 A8.745400
G1 X117.182000 Y105.356000 Z0.200000 A8.751680
G1 X117.182000 Y111.644000 Z0.200000 A8.841280
G1 X117.622000 Y111.644000 Z0.200000 A8.847560
G1 X117.622000 Y105.356000 Z0.200000 A8.937160
G1 X118.063000 Y105.356000 Z0.200000 A8.943430
G1 X118.063000 Y111.644000 Z0.200000 A9.033030
G1 X118.504000 Y111.644000 Z0.200000 A9.039310
G1 X118.504000 Y105.356000 Z0.200000 A9.128910
G1 X118.944000 Y105.356000 Z0.200000 A9.135190
G1 X118.944000 Y111.644000 Z0.200000 A9.224790
G1 X119.385000 Y111.644000 Z0.200000 A9.231060
G1 X119.385000 Y105.356000 Z0.200000 A9.320660
G1 X119.825000 Y105.122000 Z0.200000 A9.327770
G1 X119.825000 Y106.998000 Z0.200000 A9.354500
G1 X120.266000 Y106.329000 Z0.200000 A9.365910
G1 X120.266000 Y104.824000 Z0.200000 A9.387360
G1 X120.706000 Y104.550000 Z0.200000 A9.394750
G1 X120.706000 Y105.896000 Z0.200000 A9.413920
G1 X121.147000 Y105.595000 Z0.200000 A9.421510
G1 X121.147000 Y104.336000 Z0.200000 A9.439450
G1 X121.588000 Y104.193000 Z0.200000 A9.446060
G1 X121.588000 Y105.381000 Z0.200000 A9.462980
G1 X122.028000 Y105.242000 Z0.200000 A9.469560
G1 X122.028000 Y104.093000 Z0.200000 A9.485940
G1 X122.469000 Y104.031000 Z0.200000 A9.492280
G1 X122.469000 Y105.162000 Z0.200000 A9.508400
G1 X122.909000 Y105.146000 Z0.200000 A9.514680
G1 X122.909000 Y104.015000 Z0.200000 A9.530790
G1 X123.350000 Y104.052000 Z0.200000 A9.537090
G1 X123.350000 Y105.187000 Z0.200000 A9.553270
G1 X123.790000 Y105.284000 Z0.200000 A9.559700
G1 X123.790000 Y104.125000 Z0.200000 A9.576210
G1 X124.231000 Y104.238000 Z0.200000 A9.582690
G1 X124.231000 Y105.455000 Z0.200000 A9.600040
G1 X124.671000 Y105.696000 Z0.200000 A9.607200
G1 X124.671000 Y104.415000 Z0.200000 A9.625450
G1 X125.112000 Y104.649000 Z0.200000 A9.632550
G1 X125.112000 Y106.046000 Z0.200000 A9.652470
G1 X125.553000 Y106.547000 Z0.200000 A9.661970
G1 X125.553000 Y104.947000 Z0.200000 A9.684770
G1 X125.993000 Y105.333000 Z0.200000 A9.693120
G1 X125.993000 Y107.399000 Z0.200000 A9.722540
G0 X126.874 Y106.575 F7800.000
G1 X126.874000 Y110.425000 Z0.200000 A9.777400 F720.000000
G1 X126.434000 Y111.153000 Z0.200000 A9.789520
G1 X126.434000 Y105.847000 Z0.200000 A9.865120
G0 X127.315 Y108.500 F7800.000
G1 X127.315000 Y108.500000 Z0.200000 A9.865130 F720.000000
G0 X125.993 Y109.601 F7800.000
G1 X125.993000 Y111.667000 Z0.200000 A9.894560 F720.000000
G1 X125.553000 Y112.053000 Z0.200000 A9.902910
G1 X125.553000 Y110.453000 Z0.200000 A9.925710
G1 X125.112000 Y110.954000 Z0.200000 A9.935210
G1 X125.112000 Y112.351000 Z0.200000 A9.955130
G1 X124.671000 Y112.585000 Z0.200000 A9.962230
G1 X124.671000 Y111.304000 Z0.200000 A9.980480
G1 X124.231000 Y111.545000 Z0.200000 A9.987640
G1 X124.231000 Y112.762000 Z0.200000 A10.004990
G1 X123.790000 Y112.875000 Z0.200000 A10.011470
G1 X123.790000 Y111.716000 Z0.200000 A10.027980
G1 X123.350000 Y111.813000 Z0.200000 A10.034410
G1 X123.350000 Y112.948000 Z0.200000 A10.050590
G1 X122.909000 Y112.985000 Z0.200000 A10.056890
G1 X122.909000 Y111.854000 Z0.200000 A10.073000
G1 X122.469000 Y111.838000 Z0.200000 A10.079280
G1 X122.469000 Y112.969000 Z0.200000 A10.095400
G1 X122.028000 Y112.907000 Z0.200000 A10.101740
G1 X122.028000 Y111.758000 Z0.200000 A10.118120
G1 X121.588000 Y111.619000 Z0.200000 A10.124700
G1 X121.588000 Y112.807000 Z0.200000 A10.141620
G1 X121.147000 Y112.664000 Z0.200000 A10.148230
G1 X121.147000 Y111.405000 Z0.200000 A10.166170
G1 X120.706000 Y111.105000 Z0.200000 A10.173760
G1 X120.706000 Y112.450000 Z0.200000 A10.192930
G1 X120.266000 Y112.176000 Z0.200000 A10.200320
G1 X120.266000 Y110.671000 Z0.200000 A10.221770
G1 X119.825000 Y110.002000 Z0.200000 A10.233170
G1 X119.825000 Y111.878000 Z0.200000 A10.259910
G0 X90.258 Y110.015 F7800.000
G1 X90.258000 Y110.076000 Z0.200000 A10.260790 F360.000000
G2 X91.155000 Y110.973000 Z0.200000 A10.279500 I2.0643 J-1.1673
G1 X91.155000 Y111.011000 Z0.200000 A10.280060
G1 X91.604000 Y111.254000 Z0.200000 A10.287740
G1 X92.052000 Y111.379000 Z0.200000 A10.294490
G1 X92.501000 Y111.497000 Z0.200000 A10.301970
G1 X92.950000 Y111.478000 Z0.200000 A10.308490
G1 X93.398000 Y111.518000 Z0.200000 A10.315570
G0 X89.809 Y108.502 F7800.000
G1 X90.258000 Y106.985000 Z0.200000 A10.338530 F360.000000
G1 X90.707000 Y106.355000 Z0.200000 A10.350070
G1 X91.155000 Y106.027000 Z0.200000 A10.358120
G1 X91.604000 Y105.746000 Z0.200000 A10.366360
G1 X92.052000 Y105.621000 Z0.200000 A10.373110
G1 X92.501000 Y105.503000 Z0.200000 A10.380590
G1 X92.950000 Y105.522000 Z0.200000 A10.387110
G1 X93.398000 Y105.482000 Z0.200000 A10.394190
G0 X93.320 Y106.009 F7800.000
G1 X93.797000 Y106.154000 Z0.200000 A10.401260 F360.000000
G3 X92.825000 Y105.961000 Z0.200000 A10.613420 I-0.9695 J2.3387
G1 X93.255000 Y106.000000 Z0.200000 A10.619560
G0 X93.235 Y106.441 F7800.000
G1 X93.628000 Y106.560000 Z0.200000 A10.625410 F360.000000
G3 X92.825000 Y106.400000 Z0.200000 A10.800820 I-0.8039 J1.9395
G1 X93.169000 Y106.431000 Z0.200000 A10.805730
G0 X93.149 Y106.872 F7800.000
G1 X93.460000 Y106.967000 Z0.200000 A10.810350 F360.000000
G3 X92.825000 Y106.840000 Z0.200000 A10.949020 I-0.6368 J1.5328
G1 X93.084000 Y106.863000 Z0.200000 A10.952710
G0 X93.063 Y107.304 F7800.000
G1 X93.292000 Y107.373000 Z0.200000 A10.956110 F360.000000
G3 X92.825000 Y107.280000 Z0.200000 A11.058030 I-0.4668 J1.1252
G1 X92.998000 Y107.294000 Z0.200000 A11.060490
G0 X93.226 Y107.129 F7800.000
G0 X119.786 Y108.500
G1 X119.800000 Y108.202000 Z0.200000 A11.064730 F360.000000
G3 X119.800000 Y108.798000 Z0.200000 A11.327440 I3.0035 J0.2980
G1 X119.789000 Y108.565000 Z0.200000 A11.330750
G0 X120.228 Y108.561 F7800.000
G1 X120.238000 Y108.245000 Z0.200000 A11.335230 F360.000000
G3 X120.275000 Y109.007000 Z0.200000 A11.556290 I2.5870 J0.2563
G1 X120.232000 Y108.627000 Z0.200000 A11.561730
G0 X120.667 Y108.540 F7800.000
G1 X120.676000 Y108.288000 Z0.200000 A11.565300 F360.000000
G3 X120.707000 Y108.921000 Z0.200000 A11.748750 I2.1468 J0.2121
G1 X120.670000 Y108.605000 Z0.200000 A11.753270
G0 X121.106 Y108.518 F7800.000
G1 X121.138000 Y108.164000 Z0.200000 A11.758320 F360.000000
G3 X121.138000 Y108.836000 Z0.200000 A11.902020 I1.6820 J0.3360
G1 X121.109000 Y108.584000 Z0.200000 A11.905610
G0 X120.803 Y108.332 F7800.000
G0 X119.381 Y105.037
G1 X120.417000 Y104.337000 Z0.200000 A11.923380 F360.000000
G3 X120.417000 Y112.663000 Z0.200000 A12.209420 I2.4029 J4.1630
G1 X119.381000 Y111.963000 Z0.200000 A12.227190
G1 X92.486000 Y111.944000 Z0.200000 A12.609290
G1 X92.150000 Y111.894000 Z0.200000 A12.614120
G3 X92.863000 Y105.037000 Z0.200000 A12.759400 I0.6687 J-3.3960
G1 X119.316000 Y105.037000 Z0.200000 A13.135210
G0 X119.247 Y104.598 F7800.000
G1 X120.197000 Y103.956000 Z0.200000 A13.151500 F360.000000
G3 X119.247000 Y112.402000 Z0.200000 A13.480030 I2.6104 J4.5700
G1 X92.852000 Y112.402000 Z0.200000 A13.855010
G3 X92.852000 Y104.598000 Z0.200000 A14.029790 I-0.0142 J-3.9020
G1 X119.181000 Y104.598000 Z0.200000 A14.403840
G0 X119.112 Y104.159 F7800.000
G1 X119.976000 Y103.575000 Z0.200000 A14.418660 F360.000000
G3 X119.112000 Y112.841000 Z0.200000 A14.771910 I2.8400 J4.9381
G1 X92.841000 Y112.841000 Z0.200000 A15.145130
G3 X92.841000 Y104.159000 Z0.200000 A15.339230 I-0.0045 J-4.3410
G1 X119.047000 Y104.159000 Z0.200000 A15.711520
G0 X118.978 Y103.720 F7800.000
G1 X119.756000 Y103.194000 Z0.200000 A15.724860 F252.000000
G3 X118.978000 Y113.280000 Z0.200000 A16.102830 I3.0667 J5.3096
G1 X92.830000 Y113.280000 Z0.200000 A16.474300
G3 X92.830000 Y103.720000 Z0.200000 A16.687710 I-0.0044 J-4.7800
G1 X118.912000 Y103.720000 Z0.200000 A17.058240
G0 X119.327 Y103.986 F7800.000
M140 P110 ; set bed temperature
G0 Z0.600 F5400.000 A15.05824
o<wipe_nozzle> call
G0 X121.845 Y95.310 F7800.000
G0 F5400.000 A17.05824
G1 X123.035000 Y95.270000 Z0.600000 A17.092080 F1200.000000
G3 X123.025000 Y121.720000 Z0.600000 A18.260390 I-0.1996 J13.2249
G1 X92.395000 Y120.370000 Z0.600000 A19.131530
G3 X92.045000 Y96.650000 Z0.600000 A20.157140 I0.4237 J-11.8688
G1 X121.779000 Y95.313000 Z0.600000 A21.002840
G0 X121.865 Y95.750 F7800.000
G1 X123.035000 Y95.710000 Z0.600000 A21.036100 F1200.000000
G3 X122.805000 Y121.280000 Z0.600000 A22.171380 I-0.2075 J12.7842
G1 X92.425000 Y119.930000 Z0.600000 A23.035430
G3 X92.065000 Y97.090000 Z0.600000 A24.023160 I0.3926 J-11.4290
G1 X121.799000 Y95.753000 Z0.600000 A24.868860
G0 Z1.100 F5400.000 A22.86886
