; generated by Slic3r 1.0.0RC2 on 2013-12-30 at 12:07:00

; layer_height = 0.2
; perimeters = 3
; top_solid_layers = 3
; bottom_solid_layers = 3
; fill_density = 0.25
; perimeter_speed = 20
; infill_speed = 40
; travel_speed = 130
; nozzle_diameter = 0.4
; filament_diameter = 2.95
; extrusion_multiplier = 1.105263
; perimeters extrusion width = 0.56mm
; infill extrusion width = 0.56mm
; solid infill extrusion width = 0.56mm
; top infill extrusion width = 0.56mm

G21 ; set units to millimeters
M190 P115 ; wait for bed temperature to be reached
M104 P210 ; set temperature
G92 A0                  ; Reset A to 0
G40                        ; Cancel cutter compensation
G64 P0.1                ; Path Blend within .1mm
G0 X108.5 Y200    ; Move to plate
M109 P210 ; wait for temperature to be reached
G90 ; use absolute coordinates
G1 X108.500000 Y200.000000 Z0.000000 A-2.000000 F5400.000000
G0 Z0.400 F7800.000
o<wipe_nozzle> call
G0 X62.800 Y82.740 F7800.000
G0 Z0.200 F7800.000
G1 X62.800000 Y82.740000 Z0.200000 A0.000000 F5400.000000
G3 X83.210000 Y75.450000 Z0.200000 A0.375360 I20.6605 J25.6274
G1 X137.730000 Y75.450000 Z0.200000 A1.302240
G3 X165.960000 Y110.240000 Z0.200000 A2.172310 I-0.1655 J28.9828
G1 X165.270000 Y113.010000 Z0.200000 A2.220840
G3 X142.960000 Y133.010000 Z0.200000 A2.756340 I-27.7001 J-8.4561
G1 X87.060000 Y141.350000 Z0.200000 A3.717200
G3 X62.739000 Y82.790000 Z0.200000 A5.160950 I-3.5791 J-32.8440
G0 X63.110 Y83.160 F7800.000
G1 X65.160000 Y81.640000 Z0.200000 A5.204340 F360.000000
G3 X83.490000 Y75.970000 Z0.200000 A5.535380 I18.3281 J26.7876
G1 X137.490000 Y75.970000 Z0.200000 A6.453420
G3 X143.170000 Y132.450000 Z0.200000 A7.879350 I0.0177 J28.5238
G1 X86.980000 Y140.830000 Z0.200000 A8.845190
G3 X64.903000 Y81.831000 Z0.400000 A8.265220 F7800.000000 I-3.5295 J-32.3093
G0 X76.109 Y85.354 F7800.000
G0 Z0.200 F7800.000
G1 X76.109000 Y85.354000 Z0.200000 A10.265220 F5400.000000
G1 X76.109000 Y106.405000 Z0.200000 A10.624650 F720.000000
G0 X76.637 Y105.051 F7800.000
G1 X76.637000 Y85.186000 Z0.200000 A10.963840 F720.000000
G1 X77.165000 Y85.054000 Z0.200000 A10.973130
G1 X77.165000 Y104.152000 Z0.200000 A11.299220
G1 X77.693000 Y103.473000 Z0.200000 A11.313900
G1 X77.693000 Y84.922000 Z0.200000 A11.630660
G1 X78.221000 Y84.790000 Z0.200000 A11.639950
G1 X78.221000 Y102.922000 Z0.200000 A11.949550
G1 X78.749000 Y102.464000 Z0.200000 A11.961480
G1 X78.749000 Y84.657000 Z0.200000 A12.265520
G1 X79.276000 Y84.578000 Z0.200000 A12.274630
G1 X79.276000 Y102.079000 Z0.200000 A12.573460
G1 X79.804000 Y101.763000 Z0.200000 A12.583960
G1 X79.804000 Y84.500000 Z0.200000 A12.878720
G1 X80.332000 Y84.422000 Z0.200000 A12.887830
G1 X80.332000 Y101.504000 Z0.200000 A13.179510
G1 X80.860000 Y101.289000 Z0.200000 A13.189240
G1 X80.860000 Y84.343000 Z0.200000 A13.478580
G1 X81.388000 Y84.292000 Z0.200000 A13.487640
G1 X81.388000 Y101.113000 Z0.200000 A13.774860
G1 X81.916000 Y100.981000 Z0.200000 A13.784150
G1 X81.916000 Y84.266000 Z0.200000 A14.069550
G1 X82.444000 Y84.240000 Z0.200000 A14.078580
G1 X82.444000 Y100.894000 Z0.200000 A14.362940
G1 X82.972000 Y100.838000 Z0.200000 A14.372000
G1 X82.972000 Y84.214000 Z0.200000 A14.655840
G1 X83.500000 Y84.214000 Z0.200000 A14.664850
G1 X83.500000 Y100.812000 Z0.200000 A14.948250
G1 X84.028000 Y100.838000 Z0.200000 A14.957280
G1 X84.028000 Y84.214000 Z0.200000 A15.241110
G1 X84.556000 Y84.240000 Z0.200000 A15.250140
G1 X84.556000 Y100.898000 Z0.200000 A15.534570
G1 X85.084000 Y100.981000 Z0.200000 A15.543690
G1 X85.084000 Y84.266000 Z0.200000 A15.829090
G1 X85.612000 Y84.292000 Z0.200000 A15.838120
G1 X85.612000 Y101.113000 Z0.200000 A16.125330
G1 X86.140000 Y101.289000 Z0.200000 A16.134830
G1 X86.140000 Y84.343000 Z0.200000 A16.424180
G1 X86.668000 Y84.422000 Z0.200000 A16.433290
G1 X86.668000 Y101.504000 Z0.200000 A16.724970
G1 X87.196000 Y101.763000 Z0.200000 A16.735010
G1 X87.196000 Y84.500000 Z0.200000 A17.029760
G1 X87.724000 Y84.578000 Z0.200000 A17.038870
G1 X87.724000 Y102.079000 Z0.200000 A17.337700
G1 X88.252000 Y102.464000 Z0.200000 A17.348850
G1 X88.252000 Y84.657000 Z0.200000 A17.652890
G1 X88.779000 Y84.790000 Z0.200000 A17.662180
G1 X88.779000 Y102.922000 Z0.200000 A17.971780
G1 X89.307000 Y103.473000 Z0.200000 A17.984820
G1 X89.307000 Y84.922000 Z0.200000 A18.301580
G1 X89.835000 Y85.054000 Z0.200000 A18.310870
G1 X89.835000 Y104.152000 Z0.200000 A18.636960
G1 X90.363000 Y105.052000 Z0.200000 A18.654770
G1 X90.363000 Y85.186000 Z0.200000 A18.993960
G1 X90.891000 Y85.354000 Z0.200000 A19.003420
G1 X90.891000 Y106.405000 Z0.200000 A19.362860
G1 X90.891000 Y104.094000 Z0.200000 A17.362860 F5400.000000
G1 X90.891000 Y104.094000 Z0.400000 A17.362860 F7800.000000
G0 X90.891 Y110.595 F7800.000
G0 Z0.200 F7800.000
G1 X90.891000 Y110.595000 Z0.200000 A19.362860 F5400.000000
G1 X90.891000 Y131.646000 Z0.200000 A19.722290 F720.000000
G1 X90.363000 Y131.814000 Z0.200000 A19.731750
G1 X90.363000 Y111.948000 Z0.200000 A20.070950
G1 X89.835000 Y112.848000 Z0.200000 A20.088760
G1 X89.835000 Y131.946000 Z0.200000 A20.414850
G1 X89.307000 Y132.078000 Z0.200000 A20.424140
G1 X89.307000 Y113.527000 Z0.200000 A20.740900
G1 X88.779000 Y114.078000 Z0.200000 A20.753940
G1 X88.779000 Y132.210000 Z0.200000 A21.063530
G1 X88.252000 Y132.343000 Z0.200000 A21.072830
G1 X88.252000 Y114.536000 Z0.200000 A21.376870
G1 X87.724000 Y114.921000 Z0.200000 A21.388020
G1 X87.724000 Y132.422000 Z0.200000 A21.686840
G1 X87.196000 Y132.500000 Z0.200000 A21.695960
G1 X87.196000 Y115.237000 Z0.200000 A21.990710
G1 X86.668000 Y115.496000 Z0.200000 A22.000750
G1 X86.668000 Y132.578000 Z0.200000 A22.292430
G1 X86.140000 Y132.657000 Z0.200000 A22.301540
G1 X86.140000 Y115.711000 Z0.200000 A22.590880
G1 X85.612000 Y115.887000 Z0.200000 A22.600390
G1 X85.612000 Y132.708000 Z0.200000 A22.887600
G1 X85.084000 Y132.734000 Z0.200000 A22.896630
G1 X85.084000 Y116.019000 Z0.200000 A23.182030
G1 X84.556000 Y116.106000 Z0.200000 A23.191160
G1 X84.556000 Y132.760000 Z0.200000 A23.475520
G1 X84.028000 Y132.786000 Z0.200000 A23.484550
G1 X84.028000 Y116.162000 Z0.200000 A23.768390
G1 X83.500000 Y116.188000 Z0.200000 A23.777410
G1 X83.500000 Y132.786000 Z0.200000 A24.060810
G1 X82.972000 Y132.786000 Z0.200000 A24.069820
G1 X82.972000 Y116.162000 Z0.200000 A24.353660
G1 X82.444000 Y116.106000 Z0.200000 A24.362730
G1 X82.444000 Y132.760000 Z0.200000 A24.647090
G1 X81.916000 Y132.734000 Z0.200000 A24.656110
G1 X81.916000 Y116.019000 Z0.200000 A24.941510
G1 X81.388000 Y115.887000 Z0.200000 A24.950800
G1 X81.388000 Y132.708000 Z0.200000 A25.238020
G1 X80.860000 Y132.657000 Z0.200000 A25.247080
G1 X80.860000 Y115.711000 Z0.200000 A25.536420
G1 X80.332000 Y115.496000 Z0.200000 A25.546150
G1 X80.332000 Y132.578000 Z0.200000 A25.837830
G1 X79.804000 Y132.500000 Z0.200000 A25.846940
G1 X79.804000 Y115.237000 Z0.200000 A26.141700
G1 X79.276000 Y114.921000 Z0.200000 A26.152210
G1 X79.276000 Y132.422000 Z0.200000 A26.451030
G1 X78.749000 Y132.343000 Z0.200000 A26.460140
G1 X78.749000 Y114.536000 Z0.200000 A26.764180
G1 X78.221000 Y114.078000 Z0.200000 A26.776110
G1 X78.221000 Y132.210000 Z0.200000 A27.085710
G1 X77.693000 Y132.078000 Z0.200000 A27.095000
G1 X77.693000 Y113.527000 Z0.200000 A27.411760
G1 X77.165000 Y112.848000 Z0.200000 A27.426440
G1 X77.165000 Y131.946000 Z0.200000 A27.752530
G1 X76.637000 Y131.814000 Z0.200000 A27.761820
G1 X76.637000 Y111.949000 Z0.200000 A28.101010
G0 X76.109 Y110.595 F7800.000
G1 X76.109000 Y131.646000 Z0.200000 A28.460450 F720.000000
G1 X75.581000 Y131.457000 Z0.200000 A28.470020
G1 X75.581000 Y85.543000 Z0.200000 A29.253980
G1 X75.053000 Y85.732000 Z0.200000 A29.263550
G1 X75.053000 Y131.268000 Z0.200000 A30.041060
G1 X74.525000 Y131.079000 Z0.200000 A30.050630
G1 X74.525000 Y85.921000 Z0.200000 A30.821690
G1 X73.997000 Y86.133000 Z0.200000 A30.831400
G1 X73.997000 Y130.867000 Z0.200000 A31.595220
G1 X73.469000 Y130.617000 Z0.200000 A31.605190
G1 X73.469000 Y86.383000 Z0.200000 A32.360490
G1 X72.941000 Y86.632000 Z0.200000 A32.370460
G1 X72.941000 Y130.368000 Z0.200000 A33.117220
G1 X72.413000 Y130.118000 Z0.200000 A33.127200
G1 X72.413000 Y86.882000 Z0.200000 A33.865430
G1 X71.885000 Y87.151000 Z0.200000 A33.875550
G1 X71.885000 Y129.849000 Z0.200000 A34.604600
G1 X71.357000 Y129.532000 Z0.200000 A34.615110
G1 X71.357000 Y87.468000 Z0.200000 A35.333350
G1 X70.829000 Y87.784000 Z0.200000 A35.343860
G1 X70.829000 Y129.216000 Z0.200000 A36.051290
G1 X70.301000 Y128.899000 Z0.200000 A36.061800
G1 X70.301000 Y88.101000 Z0.200000 A36.758430
G1 X69.773000 Y88.448000 Z0.200000 A36.769220
G1 X69.773000 Y128.552000 Z0.200000 A37.453980
G1 X69.245000 Y128.160000 Z0.200000 A37.465200
G1 X69.245000 Y88.840000 Z0.200000 A38.136590
G1 X68.718000 Y89.231000 Z0.200000 A38.147810
G1 X68.718000 Y127.769000 Z0.200000 A38.805820
G1 X68.190000 Y127.377000 Z0.200000 A38.817040
G1 X68.190000 Y89.623000 Z0.200000 A39.461690
G1 X67.662000 Y90.083000 Z0.200000 A39.473640
G1 X67.662000 Y126.917000 Z0.200000 A40.102580
G1 X67.134000 Y126.439000 Z0.200000 A40.114740
G1 X67.134000 Y90.561000 Z0.200000 A40.727340
G1 X66.606000 Y91.040000 Z0.200000 A40.739500
G1 X66.606000 Y125.960000 Z0.200000 A41.335760
G1 X66.078000 Y125.436000 Z0.200000 A41.348460
G1 X66.078000 Y91.564000 Z0.200000 A41.926820
G1 X65.550000 Y92.146000 Z0.200000 A41.940240
G1 X65.550000 Y124.854000 Z0.200000 A42.498710
G1 X65.022000 Y124.271000 Z0.200000 A42.512130
G1 X65.022000 Y92.729000 Z0.200000 A43.050710
G1 X64.494000 Y93.363000 Z0.200000 A43.064810
G1 X64.494000 Y123.637000 Z0.200000 A43.581710
G1 X63.966000 Y122.925000 Z0.200000 A43.596840
G1 X63.966000 Y94.075000 Z0.200000 A44.089440
G1 X63.438000 Y94.787000 Z0.200000 A44.104570
G1 X63.438000 Y122.213000 Z0.200000 A44.572860
G1 X62.910000 Y121.381000 Z0.200000 A44.589680
G1 X62.910000 Y95.619000 Z0.200000 A45.029560
G1 X62.382000 Y96.500000 Z0.200000 A45.047090
G1 X62.382000 Y120.500000 Z0.200000 A45.456890
G1 X61.854000 Y119.528000 Z0.200000 A45.475770
G1 X61.854000 Y97.472000 Z0.200000 A45.852370
G0 X61.326 Y98.588 F7800.000
G1 X61.326000 Y118.412000 Z0.200000 A46.190860 F720.000000
G0 X60.798 Y117.132 F7800.000
G1 X60.798000 Y99.868000 Z0.200000 A46.485630 F720.000000
G0 X60.270 Y101.344 F7800.000
G1 X60.270000 Y115.656000 Z0.200000 A46.730020 F720.000000
G0 X59.742 Y113.591 F7800.000
G1 X59.742000 Y103.409000 Z0.200000 A46.903890 F720.000000
G1 X59.742000 Y105.720000 Z0.200000 A44.903890 F5400.000000
G1 X59.742000 Y105.720000 Z0.400000 A44.903890 F7800.000000
G0 X59.214 Y107.962 F7800.000
G0 Z0.200 F7800.000
G1 X59.214000 Y107.962000 Z0.200000 A46.903890 F5400.000000
G1 X59.214000 Y107.962000 Z0.200000 A44.922260 F5400.000000
G1 X59.214000 Y107.962000 Z0.400000 A44.922260 F7800.000000
G0 X91.419 Y85.543 F7800.000
G0 Z0.200 F7800.000
G1 X91.419000 Y85.543000 Z0.200000 A46.922260 F5400.000000
G1 X91.419000 Y131.457000 Z0.200000 A47.706210 F720.000000
G1 X91.947000 Y131.268000 Z0.200000 A47.715790
G1 X91.947000 Y85.732000 Z0.200000 A48.493290
G1 X92.475000 Y85.921000 Z0.200000 A48.502870
G1 X92.475000 Y131.079000 Z0.200000 A49.273920
G1 X93.003000 Y130.867000 Z0.200000 A49.283630
G1 X93.003000 Y86.133000 Z0.200000 A50.047450
G1 X93.531000 Y86.383000 Z0.200000 A50.057420
G1 X93.531000 Y130.617000 Z0.200000 A50.812720
G1 X94.059000 Y130.368000 Z0.200000 A50.822690
G1 X94.059000 Y86.632000 Z0.200000 A51.569450
G1 X94.587000 Y86.882000 Z0.200000 A51.579430
G1 X94.587000 Y130.118000 Z0.200000 A52.317660
G1 X95.115000 Y129.849000 Z0.200000 A52.327780
G1 X95.115000 Y87.151000 Z0.200000 A53.056830
G1 X95.643000 Y87.468000 Z0.200000 A53.067340
G1 X95.643000 Y129.532000 Z0.200000 A53.785580
G1 X96.171000 Y129.216000 Z0.200000 A53.796090
G1 X96.171000 Y87.784000 Z0.200000 A54.503520
G1 X96.699000 Y88.101000 Z0.200000 A54.514030
G1 X96.699000 Y128.899000 Z0.200000 A55.210660
G1 X97.227000 Y128.552000 Z0.200000 A55.221450
G1 X97.227000 Y88.448000 Z0.200000 A55.906200
G1 X97.755000 Y88.840000 Z0.200000 A55.917430
G1 X97.755000 Y128.160000 Z0.200000 A56.588810
G1 X98.283000 Y127.769000 Z0.200000 A56.600030
G1 X98.283000 Y89.231000 Z0.200000 A57.258040
G1 X98.810000 Y89.623000 Z0.200000 A57.269260
G1 X98.810000 Y127.377000 Z0.200000 A57.913900
G1 X99.338000 Y126.917000 Z0.200000 A57.925860
G1 X99.338000 Y90.083000 Z0.200000 A58.554790
G1 X99.866000 Y90.561000 Z0.200000 A58.566960
G1 X99.866000 Y126.439000 Z0.200000 A59.179550
G1 X100.394000 Y125.960000 Z0.200000 A59.191720
G1 X100.394000 Y91.040000 Z0.200000 A59.787970
G1 X100.922000 Y91.564000 Z0.200000 A59.800670
G1 X100.922000 Y125.436000 Z0.200000 A60.379030
G1 X101.450000 Y124.854000 Z0.200000 A60.392450
G1 X101.450000 Y92.146000 Z0.200000 A60.950920
G1 X101.978000 Y92.729000 Z0.200000 A60.964340
G1 X101.978000 Y124.271000 Z0.200000 A61.502920
G1 X102.506000 Y123.637000 Z0.200000 A61.517010
G1 X102.506000 Y93.363000 Z0.200000 A62.033910
G1 X103.034000 Y94.075000 Z0.200000 A62.049040
G1 X103.034000 Y122.925000 Z0.200000 A62.541640
G1 X103.562000 Y122.213000 Z0.200000 A62.556770
G1 X103.562000 Y94.787000 Z0.200000 A63.025050
G1 X104.090000 Y95.619000 Z0.200000 A63.041880
G1 X104.090000 Y121.381000 Z0.200000 A63.481750
G1 X104.618000 Y120.500000 Z0.200000 A63.499280
G1 X104.618000 Y96.500000 Z0.200000 A63.909070
G1 X105.146000 Y97.472000 Z0.200000 A63.927960
G1 X105.146000 Y119.528000 Z0.200000 A64.304560
G0 X105.674 Y118.412 F7800.000
G1 X105.674000 Y98.588000 Z0.200000 A64.643040 F720.000000
G0 X106.202 Y99.868 F7800.000
G1 X106.202000 Y117.132000 Z0.200000 A64.937810 F720.000000
G0 X106.730 Y115.656 F7800.000
G1 X106.730000 Y101.344000 Z0.200000 A65.182190 F720.000000
G0 X107.258 Y103.409 F7800.000
G1 X107.258000 Y113.591000 Z0.200000 A65.356040 F720.000000
G1 X107.258000 Y111.280000 Z0.200000 A63.356040 F5400.000000
G1 X107.258000 Y111.280000 Z0.400000 A63.356040 F7800.000000
G0 X107.786 Y109.037 F7800.000
G0 Z0.200 F7800.000
G1 X107.786000 Y109.037000 Z0.200000 A65.356040 F5400.000000
G1 X107.786000 Y109.037000 Z0.200000 A63.374370 F5400.000000
G1 X107.786000 Y109.037000 Z0.400000 A63.374370 F7800.000000
G0 X90.833 Y108.500 F7800.000
G0 Z0.200 F7800.000
G1 X90.833000 Y108.500000 Z0.200000 A65.374370 F5400.000000
G3 X90.798000 Y107.781000 Z0.200000 A66.145120 I-7.3333 J-0.0034
G1 X90.829000 Y108.421000 Z0.200000 A66.156010
G0 X90.307 Y108.500 F7800.000
G1 X90.274000 Y109.167000 Z0.200000 A66.167370 F360.000000
G3 X90.274000 Y107.833000 Z0.200000 A66.871440 I-6.7721 J-0.6670
G1 X90.303000 Y108.421000 Z0.200000 A66.881460
G0 X89.780 Y108.500 F7800.000
G1 X89.750000 Y109.116000 Z0.200000 A66.891940 F360.000000
G3 X89.750000 Y107.884000 Z0.200000 A67.541570 I-6.2452 J-0.6160
G1 X89.776000 Y108.421000 Z0.200000 A67.550710
G0 X90.231 Y108.770 F7800.000
G1 X89.750000 Y109.116000 Z0.200000 A67.063850 F6240.000000
G3 X89.346000 Y110.781000 Z0.400000 A65.550710 F7800.000000 I-5.8022 J-0.5264
G0 X108.079 Y110.302 F7800.000
G0 Z0.200 F7800.000
G1 X108.079000 Y110.302000 Z0.200000 A67.550710 F5400.000000
G3 X107.105000 Y115.660000 Z0.200000 A67.643500 I-18.7035 J-0.6325
G1 X106.289000 Y117.940000 Z0.200000 A67.684650
G3 X108.167000 Y108.500000 Z0.200000 A70.153900 I-22.7863 J-9.4399
G1 X108.082000 Y110.223000 Z0.200000 A70.183230
G0 X108.604 Y110.328 F7800.000
G1 X108.572000 Y110.969000 Z0.200000 A70.194150 F360.000000
G3 X108.572000 Y106.031000 Z0.200000 A72.800140 I-25.0593 J-2.4690
G1 X108.693000 Y108.500000 Z0.200000 A72.842170
G1 X108.607000 Y110.249000 Z0.200000 A72.871940
G0 X109.129 Y110.354 F7800.000
G1 X109.096000 Y111.021000 Z0.200000 A72.883300 F252.000000
G3 X107.262000 Y98.658000 Z0.200000 A75.415000 I-25.5742 J-2.5237
G1 X108.112000 Y101.034000 Z0.200000 A75.457910
