; generated by Slic3r 0.9.10b on 2013-08-10 at 14:36:22

; layer_height = 0.4
; perimeters = 4
; top_solid_layers = 3
; bottom_solid_layers = 3
; fill_density = 0.25
; perimeter_speed = 20
; infill_speed = 40
; travel_speed = 130
; nozzle_diameter = 0.4
; filament_diameter = 2.95
; extrusion_multiplier = 1.105263
; perimeters extrusion width = 0.45mm
; infill extrusion width = 0.45mm
; solid infill extrusion width = 0.45mm
; top infill extrusion width = 0.45mm

G21 ; set units to millimeters
M190 P115 ; wait for bed temperature to be reached
M104 P210 ; set temperature
G92 A0                  ; Reset A to 0
G40                        ; Cancel cutter compensation
G64 P0.1                ; Path Blend within .1mm
G0 X108.5 Y200    ; Move to plate
M109 P210 ; wait for temperature to be reached
G90 ; use absolute coordinates
G0 Z0.200 F7800.000 A-2.00000
o<wipe_nozzle> call
G0 X94.240 Y93.730
G1 X94.240000 Y93.730000 Z0.200000 A0.000000 F5400.000000
G3 X122.750000 Y123.260000 Z0.200000 A0.915810 I14.2550 J14.7650
G1 X121.750000 Y124.160000 Z0.200000 A0.934930
G3 X90.560000 Y98.520000 Z0.200000 A1.745510 I-13.2924 J-15.6211
G1 X91.250000 Y97.370000 Z0.200000 A1.764560
G3 X94.193000 Y93.777000 Z0.200000 A1.830690 I17.2402 J11.1195
G0 X94.530 Y94.050 F7800.000
G1 X95.530000 Y93.150000 Z0.200000 A1.849800 F360.000000
G3 X121.460000 Y123.840000 Z0.200000 A2.746040 I12.9650 J15.3450
G1 X120.970000 Y124.230000 Z0.200000 A2.754940
G3 X94.483000 Y94.097000 Z0.200000 A3.622230 I-12.5030 J-15.7174
G0 Z0.400 F2340.000 A1.62223
G0 X101.063 Y117.648
G0 Z0.200
G1 X101.063000 Y117.648000 Z0.200000 A3.622230 F5400.000000
G1 X101.063000 Y117.423000 Z0.200000 A3.625450 F720.000000
G1 X101.507000 Y117.270000 Z0.200000 A3.632190
G1 X101.507000 Y117.977000 Z0.200000 A3.642330
G1 X101.950000 Y118.306000 Z0.200000 A3.650260
G1 X101.950000 Y117.117000 Z0.200000 A3.667320
G1 X102.394000 Y116.892000 Z0.200000 A3.674460
G1 X102.394000 Y118.572000 Z0.200000 A3.698560
G1 X102.838000 Y118.838000 Z0.200000 A3.705990
G1 X102.838000 Y116.600000 Z0.200000 A3.738110
G1 X103.282000 Y116.217000 Z0.200000 A3.746520
G1 X103.282000 Y119.061000 Z0.200000 A3.787340
G1 X103.725000 Y119.270000 Z0.200000 A3.794390
G1 X103.725000 Y115.701000 Z0.200000 A3.845610
G1 X104.169000 Y115.834000 Z0.200000 A3.852260
G1 X104.169000 Y119.459000 Z0.200000 A3.904290
G1 X104.613000 Y119.618000 Z0.200000 A3.911050
G1 X104.613000 Y116.086000 Z0.200000 A3.961750
G1 X105.057000 Y116.289000 Z0.200000 A3.968760
G1 X105.057000 Y119.777000 Z0.200000 A4.018820
G1 X105.501000 Y119.890000 Z0.200000 A4.025390
G1 X105.501000 Y116.475000 Z0.200000 A4.074420
G1 X105.944000 Y116.626000 Z0.200000 A4.081140
G1 X105.944000 Y120.001000 Z0.200000 A4.129590
G1 X106.388000 Y120.093000 Z0.200000 A4.136090
G1 X106.388000 Y116.751000 Z0.200000 A4.184060
G1 X106.832000 Y116.857000 Z0.200000 A4.190610
G1 X106.832000 Y120.159000 Z0.200000 A4.238010
G1 X107.276000 Y120.225000 Z0.200000 A4.244440
G1 X107.276000 Y116.928000 Z0.200000 A4.291770
G1 X107.719000 Y116.989000 Z0.200000 A4.298200
G1 X107.719000 Y120.254000 Z0.200000 A4.345060
G1 X108.163000 Y120.275000 Z0.200000 A4.351440
G1 X108.163000 Y117.010000 Z0.200000 A4.398310
G1 X108.607000 Y117.020000 Z0.200000 A4.404680
G1 X108.607000 Y120.287000 Z0.200000 A4.451560
G1 X109.051000 Y120.265000 Z0.200000 A4.457940
G1 X109.051000 Y116.999000 Z0.200000 A4.504800
G1 X109.494000 Y116.960000 Z0.200000 A4.511200
G1 X109.494000 Y120.243000 Z0.200000 A4.558320
G1 X109.938000 Y120.193000 Z0.200000 A4.564720
G1 X109.938000 Y116.897000 Z0.200000 A4.612030
G1 X110.382000 Y116.806000 Z0.200000 A4.618530
G1 X110.382000 Y120.127000 Z0.200000 A4.666200
G1 X110.826000 Y120.059000 Z0.200000 A4.672650
G1 X110.826000 Y116.700000 Z0.200000 A4.720860
G1 X111.270000 Y116.553000 Z0.200000 A4.727570
G1 X111.270000 Y119.948000 Z0.200000 A4.776290
G1 X111.713000 Y119.837000 Z0.200000 A4.782860
G1 X111.713000 Y116.392000 Z0.200000 A4.832290
G1 X112.157000 Y116.193000 Z0.200000 A4.839270
G1 X112.157000 Y119.700000 Z0.200000 A4.889610
G1 X112.601000 Y119.542000 Z0.200000 A4.896380
G1 X112.601000 Y115.964000 Z0.200000 A4.947720
G1 X113.045000 Y115.713000 Z0.200000 A4.955040
G1 X113.045000 Y119.379000 Z0.200000 A5.007660
G1 X113.488000 Y119.169000 Z0.200000 A5.014710
G1 X113.488000 Y115.979000 Z0.200000 A5.060500
G1 X113.932000 Y116.423000 Z0.200000 A5.069520
G1 X113.932000 Y118.959000 Z0.200000 A5.105920
G1 X114.376000 Y118.709000 Z0.200000 A5.113230
G1 X114.376000 Y116.753000 Z0.200000 A5.141300
G1 X114.820000 Y117.003000 Z0.200000 A5.148610
G1 X114.820000 Y118.443000 Z0.200000 A5.169280
G1 X115.263000 Y118.147000 Z0.200000 A5.176940
G1 X115.263000 Y117.191000 Z0.200000 A5.190670
G1 X115.707000 Y117.344000 Z0.200000 A5.197410
G1 X115.707000 Y117.818000 Z0.200000 A5.204220
G0 X98.734 Y116.223 F7800.000
G1 X98.734000 Y116.153000 Z0.200000 A5.204730 F360.000000
G0 X98.505 Y116.016 F7800.000
G1 X98.505000 Y116.285000 Z0.200000 A5.206710 F360.000000
G0 X98.277 Y115.852 F7800.000
G1 X98.277000 Y115.976000 Z0.200000 A5.207620 F360.000000
G0 X98.048 Y115.668 F7800.000
G1 X98.048000 Y115.666000 Z0.200000 A5.207640 F360.000000
G0 X96.906 Y113.609 F7800.000
G1 X96.906000 Y113.100000 Z0.200000 A5.211380 F360.000000
G0 X97.069 Y110.466 F7800.000
G1 X97.069000 Y105.664000 Z0.200000 A5.279610 F720.000000
G0 X97.513 Y104.247 F7800.000
G1 X97.513000 Y110.081000 Z0.200000 A5.362480 F720.000000
G0 X97.956 Y109.734 F7800.000
G1 X97.956000 Y103.246000 Z0.200000 A5.454660 F720.000000
G0 X98.400 Y102.441 F7800.000
G1 X98.400000 Y109.468000 Z0.200000 A5.554500 F720.000000
G0 X98.844 Y109.268 F7800.000
G1 X98.844000 Y101.748000 Z0.200000 A5.661330 F720.000000
G0 X99.288 Y101.150 F7800.000
G1 X99.288000 Y109.138000 Z0.200000 A5.774810 F720.000000
G0 X99.731 Y109.054 F7800.000
G1 X99.731000 Y100.637000 Z0.200000 A5.894390 F720.000000
G0 X100.175 Y100.150 F7800.000
G1 X100.175000 Y106.751000 Z0.200000 A5.988180 F720.000000
G0 X100.619 Y105.308 F7800.000
G1 X100.619000 Y99.747000 Z0.200000 A6.067170 F720.000000
G0 X101.063 Y99.352 F7800.000
G1 X101.063000 Y104.359000 Z0.200000 A6.138300 F720.000000
G0 X101.507 Y103.646 F7800.000
G1 X101.507000 Y99.023000 Z0.200000 A6.203980 F720.000000
G0 X101.950 Y98.694 F7800.000
G1 X101.950000 Y103.075000 Z0.200000 A6.266210 F720.000000
G0 X102.394 Y102.565 F7800.000
G1 X102.394000 Y98.428000 Z0.200000 A6.324980 F720.000000
G0 X102.838 Y98.162 F7800.000
G1 X102.838000 Y102.151000 Z0.200000 A6.381650 F720.000000
G0 X103.282 Y101.781 F7800.000
G1 X103.282000 Y97.939000 Z0.200000 A6.436220 F720.000000
G0 X103.725 Y97.730 F7800.000
G1 X103.725000 Y101.447000 Z0.200000 A6.489040 F720.000000
G0 X104.169 Y101.183 F7800.000
G1 X104.169000 Y97.520000 Z0.200000 A6.541090 F720.000000
G0 X104.613 Y100.673 F7800.000
G1 X104.613000 Y100.920000 Z0.200000 A6.544600 F720.000000
G0 X106.729 Y96.199 F7800.000
G1 X106.729000 Y95.959000 Z0.200000 A6.546360 F360.000000
G0 X106.958 Y95.925 F7800.000
G1 X106.958000 Y96.103000 Z0.200000 A6.547670 F360.000000
G0 X107.186 Y95.993 F7800.000
G1 X107.186000 Y95.891000 Z0.200000 A6.548420 F360.000000
G0 X107.415 Y95.906 F7800.000
G1 X107.415000 Y95.873000 Z0.200000 A6.548660 F360.000000
G0 X109.699 Y95.949 F7800.000
G1 X109.699000 Y95.879000 Z0.200000 A6.549180 F360.000000
G0 X109.928 Y95.908 F7800.000
G1 X109.928000 Y96.040000 Z0.200000 A6.550140 F360.000000
G0 X110.156 Y95.942 F7800.000
G1 X110.156000 Y96.167000 Z0.200000 A6.551790 F360.000000
G0 X110.385 Y96.001 F7800.000
G1 X110.385000 Y95.976000 Z0.200000 A6.551980 F360.000000
G0 X112.601 Y97.411 F7800.000
G1 X112.601000 Y98.071000 Z0.200000 A6.561360 F720.000000
G0 X113.045 Y97.621 F7800.000
G1 X113.045000 Y101.293000 Z0.200000 A6.613530 F720.000000
G0 X112.601 Y101.032 F7800.000
G1 X112.601000 Y100.013000 Z0.200000 A6.628010 F720.000000
G0 X113.488 Y101.598 F7800.000
G1 X113.488000 Y97.831000 Z0.200000 A6.681530 F720.000000
G0 X113.932 Y98.041 F7800.000
G1 X113.932000 Y101.937000 Z0.200000 A6.736890 F720.000000
G0 X114.376 Y102.326 F7800.000
G1 X114.376000 Y98.291000 Z0.200000 A6.794210 F720.000000
G0 X114.820 Y98.557 F7800.000
G1 X114.820000 Y102.788000 Z0.200000 A6.854340 F720.000000
G0 X115.263 Y103.324 F7800.000
G1 X115.263000 Y98.853000 Z0.200000 A6.917860 F720.000000
G0 X115.707 Y99.182 F7800.000
G1 X115.707000 Y103.963000 Z0.200000 A6.985790 F720.000000
G0 X116.151 Y104.756 F7800.000
G1 X116.151000 Y99.539000 Z0.200000 A7.059910 F720.000000
G0 X116.595 Y99.941 F7800.000
G1 X116.595000 Y105.865000 Z0.200000 A7.144060 F720.000000
G0 X117.039 Y109.023 F7800.000
G1 X117.039000 Y100.383000 Z0.200000 A7.266800 F720.000000
G0 X117.482 Y100.873 F7800.000
G1 X117.482000 Y109.082000 Z0.200000 A7.383440 F720.000000
G0 X117.926 Y109.199 F7800.000
G1 X117.926000 Y101.438000 Z0.200000 A7.493700 F720.000000
G0 X118.370 Y102.058 F7800.000
G1 X118.370000 Y109.365000 Z0.200000 A7.597510 F720.000000
G0 X118.814 Y109.587 F7800.000
G1 X118.814000 Y102.798000 Z0.200000 A7.693960 F720.000000
G0 X119.257 Y103.698 F7800.000
G1 X119.257000 Y109.881000 Z0.200000 A7.781810 F720.000000
G0 X119.701 Y110.266 F7800.000
G1 X119.701000 Y104.845000 Z0.200000 A7.858830 F720.000000
G0 X120.145 Y106.736 F7800.000
G1 X120.145000 Y110.264000 Z0.200000 A7.908950 F720.000000
G0 X120.208 Y113.368 F7800.000
G1 X120.208000 Y113.103000 Z0.200000 A7.910890 F360.000000
G0 X119.980 Y113.851 F7800.000
G1 X119.980000 Y113.672000 Z0.200000 A7.912200 F360.000000
G0 X118.380 Y116.413 F7800.000
G1 X118.380000 Y116.084000 Z0.200000 A7.914630 F360.000000
G1 X118.609000 Y116.131000 Z0.200000 A7.916350
G1 X118.609000 Y115.945000 Z0.200000 A7.917720
G1 X118.837000 Y115.759000 Z0.200000 A7.920100
G0 X118.759 Y115.423 F7800.000
G1 X118.419000 Y115.700000 Z0.200000 A7.926340 F360.000000
G3 X113.810000 Y114.153000 Z0.200000 A8.006580 I-1.7370 J-2.4642
G1 X113.418000 Y113.926000 Z0.200000 A8.013020
G3 X103.582000 Y113.926000 Z0.200000 A8.166250 I-4.9180 J-5.3473
G1 X103.190000 Y114.153000 Z0.200000 A8.172690
G3 X100.950000 Y110.273000 Z0.200000 A8.370570 I-2.8752 J-0.9267
G1 X101.343000 Y110.046000 Z0.200000 A8.377010
G3 X106.260000 Y101.530000 Z0.200000 A8.530160 I7.0762 J-1.5918
G1 X106.260000 Y101.075000 Z0.200000 A8.536630
G3 X110.740000 Y101.075000 Z0.200000 A8.734510 I2.2400 J-2.0269
G1 X110.740000 Y101.528000 Z0.200000 A8.740950
G3 X115.658000 Y110.046000 Z0.200000 A8.894180 I-2.1761 J6.9351
G1 X116.050000 Y110.273000 Z0.200000 A8.900620
G3 X118.804000 Y115.375000 Z0.200000 A9.011090 I0.6594 J2.9383
G0 X118.457 Y115.103 F7800.000
G1 X118.167000 Y115.340000 Z0.200000 A9.016410 F252.000000
G3 X114.140000 Y113.850000 Z0.200000 A9.087670 I-1.4963 J-2.1428
G1 X113.563000 Y113.503000 Z0.200000 A9.097250
G2 X113.233000 Y113.510000 Z0.200000 A9.102160 I-0.1596 J0.2584
G1 X112.702000 Y113.957000 Z0.200000 A9.112020
G3 X103.767000 Y113.510000 Z0.200000 A9.250250 I-4.2055 J-5.4605
G1 X103.632000 Y113.460000 Z0.200000 A9.252300
G1 X102.860000 Y113.850000 Z0.200000 A9.264740
G1 X102.797000 Y113.946000 Z0.200000 A9.266370
G3 X101.046000 Y110.710000 Z0.200000 A9.439210 I-2.4838 J-0.7478
G1 X101.636000 Y110.383000 Z0.200000 A9.448780
G2 X101.795000 Y110.094000 Z0.200000 A9.453700 I-0.1485 J-0.2699
G1 X101.657000 Y109.278000 Z0.200000 A9.465460
G3 X106.607000 Y101.841000 Z0.200000 A9.603080 I6.8777 J-0.7881
G1 X106.664000 Y101.763000 Z0.200000 A9.604460
G1 X106.635000 Y100.838000 Z0.200000 A9.617830
G1 X106.380000 Y100.525000 Z0.200000 A9.623560
G3 X110.313000 Y100.940000 Z0.200000 A9.790660 I2.1426 J-1.4614
G1 X110.301000 Y101.614000 Z0.200000 A9.800240
G2 X110.472000 Y101.896000 Z0.200000 A9.805160 I0.3075 J0.0064
G1 X111.125000 Y102.132000 Z0.200000 A9.815010
G3 X115.205000 Y110.094000 Z0.200000 A9.953250 I-2.6302 J6.3742
G1 X115.230000 Y110.236000 Z0.200000 A9.955300
G1 X115.954000 Y110.710000 Z0.200000 A9.967740
G1 X116.068000 Y110.716000 Z0.200000 A9.969360
G3 X118.502000 Y115.054000 Z0.200000 A10.064690 I0.6169 J2.5057
G0 X118.101 Y114.987 F7800.000
G0 X116.985 Y117.135
G1 X116.183000 Y117.862000 Z0.200000 A10.080060 F360.000000
G3 X100.015000 Y117.135000 Z0.200000 A10.331820 I-7.6798 J-9.3529
G1 X100.763000 Y117.103000 Z0.200000 A10.342460
G2 X103.702000 Y115.148000 Z0.200000 A10.394520 I-0.4304 J-3.8337
G1 X104.123000 Y115.442000 Z0.200000 A10.401820
G2 X113.298000 Y115.148000 Z0.200000 A10.540240 I4.3705 J-6.9176
G1 X113.428000 Y115.379000 Z0.200000 A10.544000
G2 X116.919000 Y117.132000 Z0.200000 A10.602000 I3.2766 J-2.1725
G0 X116.789 Y116.687 F7800.000
G1 X117.289000 Y116.635000 Z0.200000 A10.609140 F360.000000
G1 X118.039000 Y116.445000 Z0.200000 A10.620130
G1 X118.110000 Y116.563000 Z0.200000 A10.622090
G3 X98.890000 Y116.563000 Z0.200000 A10.933160 I-9.6100 J-7.9601
G1 X98.961000 Y116.445000 Z0.200000 A10.935120
G2 X103.556000 Y114.511000 Z0.200000 A11.013420 I1.3159 J-3.2992
G1 X104.358000 Y115.070000 Z0.200000 A11.027310
G2 X113.444000 Y114.511000 Z0.200000 A11.165290 I4.1549 J-6.5884
G1 X113.795000 Y115.136000 Z0.200000 A11.175480
G2 X116.723000 Y116.684000 Z0.200000 A11.224530 I2.8773 J-1.8991
G0 Z0.400 F2340.000 A9.22453
G0 X100.340 Y109.331
G0 Z0.200
G1 X100.340000 Y109.331000 Z0.200000 A11.224530 F5400.000000
G2 X96.787000 Y111.520000 Z0.200000 A11.286990 I-0.1730 J3.6971
G1 X96.622000 Y110.863000 Z0.200000 A11.296610
G3 X105.280000 Y96.805000 Z0.200000 A11.554330 I11.8998 J-2.3663
G1 X104.918000 Y97.498000 Z0.200000 A11.565440
G2 X105.145000 Y101.026000 Z0.200000 A11.617590 I3.5329 J1.5440
G1 X104.882000 Y101.131000 Z0.200000 A11.621620
G2 X100.336000 Y109.266000 Z0.200000 A11.762350 I3.5946 J7.3464
G0 X100.782 Y109.377 F7800.000
G1 X100.851000 Y109.777000 Z0.200000 A11.768100 F360.000000
G2 X96.849000 Y112.792000 Z0.200000 A11.846860 I-0.4796 J3.5269
G1 X96.724000 Y112.796000 Z0.200000 A11.848640
G3 X96.905000 Y103.697000 Z0.200000 A11.980970 I11.0588 J-4.3313
G1 X97.431000 Y102.584000 Z0.200000 A11.998470
G3 X106.328000 Y96.121000 Z0.200000 A12.160000 I11.1164 J5.9476
G1 X106.403000 Y96.252000 Z0.200000 A12.162130
G2 X105.786000 Y101.245000 Z0.200000 A12.241260 I2.1982 J2.8063
G1 X105.076000 Y101.526000 Z0.200000 A12.252100
G2 X100.779000 Y109.312000 Z0.200000 A12.386520 I3.4116 J6.9615
G0 Z0.400 F2340.000 A10.38652
G0 X111.858 Y101.021
G0 Z0.200
G1 X111.858000 Y101.021000 Z0.200000 A12.386520 F5400.000000
G2 X111.720000 Y96.805000 Z0.200000 A12.449690 I-3.1309 J-2.0078
G1 X113.135000 Y97.311000 Z0.200000 A12.471030
G3 X120.213000 Y111.520000 Z0.200000 A12.717030 I-4.6140 J11.1658
G1 X119.819000 Y110.898000 Z0.200000 A12.727490
G2 X116.656000 Y109.331000 Z0.200000 A12.779540 I-3.1084 J2.2985
G1 X116.700000 Y108.819000 Z0.200000 A12.786850
G2 X111.918000 Y101.049000 Z0.200000 A12.924330 I-8.1745 J-0.3256
G0 X111.512 Y101.344 F7800.000
G1 X111.233000 Y101.213000 Z0.200000 A12.928710 F360.000000
G2 X110.597000 Y96.252000 Z0.200000 A13.007300 I-2.8267 J-2.1589
G1 X110.672000 Y96.121000 Z0.200000 A13.009440
G3 X120.276000 Y112.796000 Z0.200000 A13.320800 I-2.1831 J12.3606
G1 X120.151000 Y112.792000 Z0.200000 A13.322580
G2 X116.177000 Y109.776000 Z0.200000 A13.400930 I-3.5180 J0.5093
G1 X116.261000 Y108.802000 Z0.200000 A13.414830
G2 X111.572000 Y101.372000 Z0.200000 A13.547490 I-7.7495 J-0.3039
G0 X113.471 Y96.499 F7800.000
G1 X114.624000 Y97.044000 Z0.200000 A13.565610 F360.000000
G3 X112.271000 Y96.069000 Z0.200000 A14.688480 I-6.1252 J11.4553
G1 X113.409000 Y96.476000 Z0.200000 A14.705650
G0 X113.639 Y96.092 F7800.000
G1 X114.831000 Y96.656000 Z0.200000 A14.724370 F252.000000
G3 X112.399000 Y95.648000 Z0.200000 A15.885260 I-6.3335 J11.8429
G1 X113.577000 Y96.070000 Z0.200000 A15.903050
G0 X113.690 Y96.529 F7800.000
M140 P110 ; set bed temperature
G0 Z0.600 A13.90305
o<wipe_nozzle> call
