; generated by Slic3r 0.9.8 on 2013-03-23 at 13:18:45

; layer_height = 0.3
; perimeters = 3
; top_solid_layers = 3
; bottom_solid_layers = 3
; fill_density = 0.4
; perimeter_speed = 30
; infill_speed = 60
; travel_speed = 130
; scale = 1
; nozzle_diameter = 0.4
; filament_diameter = 3
; extrusion_multiplier = 1.01
; perimeters extrusion width = 0.42mm
; infill extrusion width = 0.42mm
; support material extrusion width = 0.42mm
; first layer extrusion width = 0.80mm

M190 P115 ; wait for bed temperature to be reached
M104 P235 ; set temperature
G40                        ; Cancel cutter compensation
G64 P0.1                ; Path Blend within .1mm
G0 X108.5 Y108.5  ; Move to center
M109 P235 ; wait for temperature to be reached
G90 ; use absolute coordinates
G21 ; set units to millimeters
G0 Z0.400 F1800.000 A-1.00000
G0 X132.064 Y131.864 F7800.000
G0 F1800.000 A0.00000
G1 X129.564 Y134.484 F540.000 A0.14781
G1 X128.864 Y135.114 A0.18625
G1 X126.364 Y137.084 A0.31617
G1 X125.434 Y137.704 A0.36179
G1 X122.934 Y139.074 A0.47816
G1 X122.084 Y139.464 A0.51633
G1 X119.584 Y140.414 A0.62549
G1 X118.704 Y140.674 A0.66294
G1 X113.704 Y141.824 A0.87236
G1 X113.184 Y141.924 A0.89397
G1 X110.684 Y142.294 A0.99713
G1 X109.734 Y142.364 A1.03601
G1 X107.234 Y142.374 A1.13805
G1 X106.454 Y142.334 A1.16993
G1 X103.514 Y141.994 A1.29074
G1 X101.014 Y141.544 A1.39442
G1 X100.224 Y141.354 A1.42758
G1 X97.724 Y140.584 A1.53436
G1 X96.724 Y140.174 A1.57847
G1 X93.814 Y138.724 A1.71118
G1 X89.454 Y136.174 A1.91735
G1 X88.924 Y135.824 A1.94327
G1 X88.284 Y135.364 A1.97544
G1 X87.804 Y134.984 A2.00043
G1 X87.154 Y134.344 A2.03766
G1 X84.654 Y131.494 A2.19241
G1 X83.154 Y129.704 A2.28773
G1 X81.684 Y127.764 A2.38708
G1 X81.364 Y127.264 A2.41131
G1 X81.104 Y126.744 A2.43504
G1 X75.984 Y115.594 A2.93584
G1 X75.794 Y115.044 A2.95959
G1 X75.644 Y114.484 A2.98326
G1 X75.544 Y113.914 A3.00688
G1 X75.494 Y113.344 A3.03023
G1 X75.494 Y112.334 A3.07146
G1 X75.564 Y111.664 A3.09896
G1 X75.704 Y111.014 A3.12610
G1 X78.484 Y102.004 A3.51097
G1 X78.644 Y101.544 A3.53085
G1 X80.954 Y95.654 A3.78909
G1 X81.254 Y95.004 A3.81831
G1 X83.904 Y89.924 A4.05218
G1 X84.254 Y89.384 A4.07844
G1 X84.654 Y88.874 A4.10490
G1 X87.154 Y86.024 A4.25964
G1 X87.614 Y85.554 A4.28649
G1 X87.864 Y85.334 A4.30008
G1 X88.394 Y84.924 A4.32743
G1 X101.304 Y76.924 A4.94735
G1 X103.804 Y75.454 A5.06573
G1 X104.314 Y75.184 A5.08928
G1 X105.134 Y74.854 A5.12536
G1 X105.984 Y74.644 A5.16110
G1 X106.554 Y74.564 A5.18459
G1 X107.144 Y74.534 A5.20871
G1 X109.294 Y74.514 A5.29647
G1 X109.884 Y74.534 A5.32056
G1 X110.464 Y74.604 A5.34441
G1 X111.044 Y74.724 A5.36858
G1 X111.614 Y74.904 A5.39298
G1 X112.154 Y75.124 A5.41678
G1 X112.824 Y75.454 A5.44727
G1 X115.324 Y76.764 A5.56247
G1 X118.104 Y78.394 A5.69401
G1 X128.484 Y84.724 A6.19026
G1 X128.764 Y84.924 A6.20431
G1 X129.294 Y85.374 A6.23268
G1 X132.034 Y88.204 A6.39347
G1 X132.264 Y88.454 A6.40733
G1 X132.684 Y88.974 A6.43462
G1 X133.044 Y89.544 A6.46214
G1 X133.204 Y89.844 A6.47601
G1 X135.704 Y94.804 A6.70273
G1 X135.954 Y95.364 A6.72776
G1 X138.304 Y101.334 A6.98964
G1 X138.514 Y101.964 A7.01675
G1 X141.164 Y111.304 A7.41303
G1 X141.244 Y111.604 A7.42570
G1 X141.354 Y112.204 A7.45060
G1 X141.414 Y112.824 A7.47602
G1 X141.414 Y114.284 A7.53562
G1 X141.324 Y115.134 A7.57051
G1 X141.204 Y115.684 A7.59348
G1 X141.044 Y116.224 A7.61647
G1 X140.944 Y116.494 A7.62822
G1 X140.714 Y117.004 A7.65106
G1 X135.714 Y127.004 A8.10741
G1 X135.484 Y127.424 A8.12696
G1 X135.224 Y127.824 A8.14643
G1 X133.864 Y129.654 A8.23949
G1 X132.444 Y131.424 A8.33212
G1 X132.134 Y131.783 A8.35147
G1 X132.064 Y131.864 A8.35585
G0 X119.704 Y94.683 F1800.000 A7.35585
G0 A8.35585
G1 X119.704 Y94.091 F1080.000 A8.38002
G0 X119.704 Y94.028 F7800.000
G1 X119.704 Y89.439 F1080.000 A8.56734
G0 X117.204 Y89.274 F7800.000
G1 X117.204 Y91.214 F1080.000 A8.64651
G0 X114.704 Y92.290 F7800.000
G1 X114.704 Y92.734 F1080.000 A8.66462
G0 X117.204 Y94.144 F7800.000
G1 X117.204 Y95.172 F1080.000 A8.70659
G0 X102.204 Y93.136 F7800.000
G1 X102.204 Y91.677 F1080.000 A8.76613
G0 X99.704 Y90.533 F1800.000 A7.76613
G0 A8.76613
G1 X99.704 Y89.116 F1080.000 A8.82398
G0 X97.204 Y89.321 F7800.000
G1 X97.204 Y92.955 F1080.000 A8.97230
G0 X97.204 Y94.244 F7800.000
G1 X97.204 Y94.728 F1080.000 A8.99207
G0 X99.704 Y94.530 F1800.000 A7.99207
G0 A8.99207
G1 X99.704 Y95.427 F1080.000 A9.02868
G1 X99.704 Y134.167 A10.60996
G0 X97.204 Y132.926 F1800.000 A9.60996
G0 A10.60996
G1 X97.204 Y94.728 F1080.000 A12.16909
G0 X97.204 Y89.515 F1800.000 A11.16909
G0 A12.16909
G1 X97.204 Y87.856 F1080.000 A12.23683
G0 X94.704 Y89.146 F1800.000 A11.23683
G0 A12.23683
G1 X94.704 Y131.466 F1080.000 A13.96418
G0 X92.848 Y130.381 F7800.000
G1 X92.204 Y129.917 F1080.000 A13.99659
G1 X92.204 Y90.462 A15.60700
G1 X89.704 Y93.305 A15.76151
G1 X89.704 Y127.067 A17.13960
G0 X88.297 Y125.389 F7800.000
G1 X87.204 Y123.952 F1080.000 A17.21327
G1 X87.204 Y98.107 A18.26818
G1 X84.899 Y104.003 A18.52659
G0 X84.704 Y105.168 F7800.000
G1 X84.704 Y116.753 F1080.000 A18.99945
G1 X82.204 Y112.675 A19.19470
G1 X82.204 Y113.054 A19.21018
G0 X102.204 Y92.897 F1800.000 A18.21018
G0 A19.21018
G1 X102.204 Y134.936 F1080.000 A20.92611
G1 X104.704 Y135.393 A21.02984
G1 X104.704 Y82.722 A23.17970
G1 X107.204 Y84.009 A23.29446
G1 X107.204 Y81.250 A23.40707
G1 X109.357 Y81.232 A23.49493
G0 X109.704 Y81.413 F7800.000
G1 X109.704 Y135.664 F1080.000 A25.70929
G1 X107.204 Y135.666 A25.81133
G1 X107.204 Y84.128 A27.91495
G0 X112.204 Y82.716 F7800.000
G1 X112.204 Y135.292 F1080.000 A30.06096
G1 X114.704 Y134.716 A30.16568
G1 X114.704 Y92.734 A31.87926
G0 X114.704 Y92.366 F7800.000
G1 X114.704 Y84.185 F1080.000 A32.21319
G1 X117.204 Y85.956 A32.33825
G1 X117.204 Y89.407 A32.47909
G0 X119.704 Y89.529 F7800.000
G1 X119.704 Y87.728 F1080.000 A32.55261
G0 X122.204 Y89.049 F1800.000 A31.55261
G0 A32.55261
G1 X122.204 Y89.849 F1080.000 A32.58523
G0 X122.204 Y90.208 F7800.000
G1 X122.204 Y131.816 F1080.000 A34.28355
G1 X124.704 Y129.848 A34.41341
G1 X124.704 Y90.280 A36.02850
G1 X127.204 Y92.872 A36.17551
G1 X127.204 Y127.229 A37.57788
G0 X128.625 Y125.458 F1800.000 A36.57788
G0 A37.57788
G1 X129.704 Y124.013 F1080.000 A37.65152
G1 X129.704 Y97.832 A38.72013
G1 X132.058 Y103.803 A38.98208
G0 X132.204 Y104.603 F7800.000
G1 X132.204 Y116.859 F1080.000 A39.48235
G1 X134.704 Y114.009 A39.63709
G1 X134.704 Y113.134 A39.67282
G0 X119.704 Y94.450 F1800.000 A38.67282
G0 A39.67282
G1 X119.704 Y133.186 F1080.000 A41.25393
G1 X117.204 Y134.140 A41.36314
G1 X117.204 Y95.172 A42.95368
G0 X102.204 Y91.946 F7800.000
G1 X102.204 Y84.433 F1080.000 A43.26031
G1 X99.704 Y86.145 A43.38397
G1 X99.704 Y89.205 A43.50888
G0 X97.571 Y93.648 F1800.000 A42.50888
G0 A43.50888
G1 X98.789 Y91.180 F540.000 A43.62120
G1 X99.630 Y91.170 A43.65550
G1 X100.305 Y93.050 A43.73706
G1 X99.952 Y93.440 A43.75853
G1 X99.473 Y93.879 A43.78506
G1 X97.678 Y93.661 A43.85886
G1 X97.571 Y93.648 A43.86323
G0 X117.807 Y91.419 F1800.000 A42.86323
G0 A43.86323
G1 X118.796 Y93.574 F540.000 A43.96002
G1 X117.691 Y93.727 A44.00553
G1 X117.369 Y93.437 A44.02320
G1 X117.139 Y93.188 A44.03707
G1 X117.769 Y91.520 A44.10986
G1 X117.807 Y91.419 A44.11423
G0 X99.382 Y93.216 F1800.000 A43.11423
G0 A44.11423
G1 X98.672 Y92.506 F360.000 A44.17810
M104 P230 ; set temperature
M140 P110 ; set bed temperature
G0 Z0.600 F1800.000 A43.17810
G0 X97.204 Y95.168 F7800.000
G0 F1800.000 A44.17810
G1 X97.204 Y132.826 F3600.000 A44.62888
G0 X99.704 Y134.167 F7800.000
G1 X99.704 Y95.867 F3600.000 A45.08734
G0 X102.204 Y93.768 F1800.000 A44.08734
G0 A45.08734
G1 X102.204 Y134.936 F3600.000 A45.58015
G1 X104.704 Y135.393 A45.61057
G1 X104.704 Y84.698 A46.21740
G0 X106.648 Y83.722 F1800.000 A45.21740
G0 A46.21740
G1 X107.204 Y84.009 F3600.000 A46.22489
G1 X107.204 Y83.690 A46.22871
G0 X107.204 Y84.128 F7800.000
G1 X107.204 Y135.666 F3600.000 A46.84563
G1 X109.704 Y135.664 A46.87556
G1 X109.704 Y83.772 A47.49672
G0 X112.204 Y84.813 F7800.000
G1 X112.204 Y135.292 F3600.000 A48.10096
G1 X114.704 Y134.716 A48.13167
G1 X114.704 Y93.359 A48.62673
G0 X114.704 Y91.469 F7800.000
G1 X114.704 Y84.185 F3600.000 A48.71391
G1 X117.204 Y85.956 A48.75059
G1 X117.204 Y88.849 A48.78521
G0 X119.704 Y89.008 F1800.000 A47.78521
G0 A48.78521
G1 X119.704 Y87.728 F3600.000 A48.80054
G0 X122.204 Y89.049 F1800.000 A47.80054
G0 A48.80054
G1 X122.204 Y89.849 F3600.000 A48.81011
G0 X122.204 Y90.208 F7800.000
G1 X122.204 Y130.451 F3600.000 A49.29183
G0 X119.704 Y132.776 F7800.000
G1 X119.704 Y95.124 F3600.000 A49.74254
G0 X117.204 Y95.742 F1800.000 A48.74254
G0 A49.74254
G1 X117.204 Y134.140 F3600.000 A50.20217
G1 X118.693 Y133.572 A50.22124
G0 X124.704 Y126.770 F7800.000
G1 X124.704 Y90.280 F3600.000 A50.65804
G1 X127.204 Y92.872 A50.70115
G1 X127.204 Y120.750 A51.03485
G0 X129.704 Y117.864 F1800.000 A50.03485
G0 A51.03485
G1 X129.704 Y98.041 F3600.000 A51.27214
G0 X130.020 Y98.633 F7800.000
G1 X131.151 Y101.502 F3600.000 A51.30906
G0 X102.204 Y90.889 F7800.000
G1 X102.204 Y84.433 F3600.000 A51.38633
G1 X99.704 Y86.145 A51.42260
G1 X99.704 Y88.690 A51.45307
G0 X97.204 Y88.872 F1800.000 A50.45307
G0 A51.45307
G1 X97.204 Y87.856 F3600.000 A51.46523
G0 X94.704 Y89.146 F1800.000 A50.46523
G0 A51.46523
G1 X94.704 Y130.485 F3600.000 A51.96006
G0 X92.204 Y126.954 F7800.000
G1 X92.204 Y90.462 F3600.000 A52.39687
G1 X89.704 Y93.305 A52.44218
G1 X89.704 Y120.981 A52.77348
G0 X87.204 Y117.602 F1800.000 A51.77348
G0 A52.77348
G1 X87.204 Y98.149 F3600.000 A53.00633
G0 X87.143 Y98.263 F7800.000
G1 X85.716 Y101.913 F3600.000 A53.05324
G0 Z0.700 F1800.000 A52.05324
G0 X85.972 Y101.258 F7800.000
G0 F1800.000 A53.05324
G1 X84.704 Y104.500 F3600.000 A53.11575
G1 X84.704 Y116.753 A53.33576
G1 X82.204 Y112.675 A53.42165
G1 X82.204 Y113.054 A53.42846
G0 X87.204 Y117.633 F1800.000 A52.42846
G0 A53.42846
G1 X87.204 Y123.952 F3600.000 A53.54193
G1 X89.704 Y127.240 A53.61609
G1 X89.704 Y121.148 A53.72548
G0 X92.204 Y126.783 F1800.000 A52.72548
G0 A53.72548
G1 X92.204 Y129.640 F3600.000 A53.77677
G0 X94.114 Y131.295 F1800.000 A52.77677
G0 A53.77677
G1 X94.704 Y131.721 F3600.000 A53.78983
G1 X94.704 Y130.132 A53.81835
G0 X97.204 Y132.726 F7800.000
G1 X97.204 Y132.997 F3600.000 A53.82322
G0 X118.331 Y133.710 F7800.000
G1 X119.265 Y133.353 F3600.000 A53.84116
G0 X119.704 Y133.152 F7800.000
G1 X119.704 Y132.691 F3600.000 A53.84944
G0 X122.683 Y131.440 F7800.000
G1 X122.204 Y131.816 F3600.000 A53.86037
G1 X122.204 Y130.488 A53.88422
G0 X124.704 Y129.647 F7800.000
G1 X124.704 Y126.407 F3600.000 A53.94240
G0 X128.835 Y125.177 F7800.000
G1 X127.204 Y127.361 F3600.000 A53.99134
G1 X127.204 Y120.755 A54.10996
G0 X129.704 Y123.579 F7800.000
G1 X129.704 Y117.777 F3600.000 A54.21413
G0 X134.704 Y113.134 F1800.000 A53.21413
G0 A54.21413
G1 X134.704 Y114.009 F3600.000 A54.22985
G1 X132.204 Y116.859 A54.29792
G1 X132.204 Y104.174 A54.52569
G1 X130.864 Y100.775 A54.59129
G0 X112.204 Y84.810 F1800.000 A53.59129
G0 A54.59129
G1 X112.204 Y82.716 F3600.000 A54.62890
G0 X109.704 Y83.622 F7800.000
G1 X109.704 Y81.413 F3600.000 A54.66857
G0 X109.357 Y81.232 F7800.000
G1 X107.663 Y81.246 F3600.000 A54.69898
G0 X107.204 Y81.475 F7800.000
G1 X107.204 Y83.638 F3600.000 A54.73782
G0 X106.632 Y83.714 F7800.000
G1 X104.704 Y82.722 F3600.000 A54.77675
G1 X104.704 Y84.662 A54.81159
G0 X99.766 Y90.176 F1800.000 A53.81159
G0 A54.81159
G1 X100.151 Y90.411 F1800.000 A54.81968
G1 X101.434 Y92.422 A54.86252
G1 X100.799 Y93.124 A54.87952
G1 X99.529 Y94.288 A54.91045
G1 X97.082 Y93.618 A54.95600
G1 X96.639 Y93.320 A54.96558
G1 X97.034 Y91.268 A55.00310
G1 X97.374 Y90.373 A55.02029
G1 X97.651 Y90.277 A55.02557
G1 X98.483 Y90.146 A55.04068
G1 X99.245 Y90.126 A55.05436
G1 X99.703 Y90.170 A55.06264
G1 X99.766 Y90.176 A55.06377
G0 X99.902 Y89.769 F7800.000
G1 X100.452 Y90.104 F1800.000 A55.07533
G1 X101.769 Y92.168 A55.11931
G1 X101.923 Y92.507 A55.12597
G1 X101.096 Y93.420 A55.14809
G1 X99.640 Y94.754 A55.18355
G1 X97.139 Y94.055 A55.23018
G1 X96.919 Y94.013 A55.23419
G1 X96.175 Y93.513 A55.25029
G1 X96.630 Y91.153 A55.29344
G1 X97.046 Y90.057 A55.31449
G1 X97.549 Y89.869 A55.32415
G1 X98.445 Y89.728 A55.34042
G1 X99.259 Y89.706 A55.35505
G1 X99.839 Y89.763 A55.36551
G1 X99.902 Y89.769 A55.36664
G0 X100.038 Y89.361 F7800.000
G1 X100.752 Y89.797 F1800.000 A55.38167
G1 X102.139 Y91.968 A55.42793
G1 X102.371 Y92.479 A55.43801
G1 X102.260 Y92.758 A55.44339
G1 X101.394 Y93.715 A55.46658
G1 X99.751 Y95.220 A55.50657
G1 X97.043 Y94.463 A55.55705
G1 X96.757 Y94.409 A55.56228
G1 X95.711 Y93.706 A55.58490
G1 X96.225 Y91.039 A55.63368
G1 X96.713 Y89.752 A55.65839
G1 X96.988 Y89.620 A55.66387
G1 X97.447 Y89.461 A55.67259
G1 X98.406 Y89.310 A55.69002
G1 X99.274 Y89.287 A55.70560
G1 X99.975 Y89.355 A55.71825
G1 X100.038 Y89.361 A55.71938
G0 X100.091 Y89.777 F7800.000
G0 X119.630 Y90.491 F1800.000 A54.71938
G0 A55.71938
G1 X120.165 Y93.383 F1800.000 A55.77219
G1 X119.957 Y93.526 A55.77672
G1 X117.669 Y94.178 A55.81945
G1 X116.486 Y93.117 A55.84799
G1 X115.843 Y92.420 A55.86501
G1 X117.123 Y90.464 A55.90698
G1 X117.377 Y90.314 A55.91228
G1 X117.741 Y90.284 A55.91884
G1 X118.679 Y90.326 A55.93570
G1 X119.568 Y90.481 A55.95189
G1 X119.630 Y90.491 A55.95302
G0 X120.048 Y90.451 F7800.000
G1 X120.627 Y93.575 F1800.000 A56.01006
G1 X120.123 Y93.920 A56.02102
G1 X119.964 Y93.951 A56.02394
G1 X117.562 Y94.645 A56.06883
G1 X116.192 Y93.415 A56.10189
G1 X115.314 Y92.464 A56.12513
G1 X116.826 Y90.153 A56.17472
G1 X117.247 Y89.904 A56.18350
G1 X117.734 Y89.864 A56.19227
G1 X118.724 Y89.908 A56.21008
G1 X119.924 Y90.117 A56.23195
G1 X120.026 Y90.392 A56.23722
G1 X120.048 Y90.451 A56.23835
G0 X120.454 Y90.340 F7800.000
G1 X121.088 Y93.767 F1800.000 A56.30093
G1 X120.289 Y94.314 A56.31833
G1 X120.063 Y94.359 A56.32246
G1 X117.711 Y95.038 A56.36641
G1 X117.417 Y95.079 A56.37174
G1 X115.897 Y93.714 A56.40842
G1 X114.819 Y92.546 A56.43696
G1 X114.964 Y92.234 A56.44313
G1 X116.529 Y89.842 A56.49445
G1 X117.117 Y89.494 A56.50671
G1 X117.726 Y89.445 A56.51769
G1 X118.770 Y89.491 A56.53646
G1 X119.974 Y89.701 A56.55840
G1 X120.254 Y89.802 A56.56375
G1 X120.432 Y90.281 A56.57292
G1 X120.454 Y90.340 A56.57405
G0 X120.151 Y90.629 F7800.000
G0 X99.841 Y90.611 F1800.000 A55.57405
G0 A56.57405
G1 X97.495 Y90.879 F3600.000 A56.61644
G1 X97.370 Y91.210 A56.62279
G1 X100.114 Y90.896 A56.67238
G1 X100.302 Y91.190 A56.67866
G1 X97.272 Y91.538 A56.73343
G1 X97.209 Y91.861 A56.73934
G1 X100.490 Y91.485 A56.79864
G1 X100.678 Y91.780 A56.80491
G1 X97.147 Y92.184 A56.86874
G1 X97.085 Y92.508 A56.87465
G1 X100.866 Y92.074 A56.94300
G1 X101.042 Y92.371 A56.94918
G1 X97.022 Y92.831 A57.02183
G1 X96.960 Y93.154 A57.02774
G1 X100.723 Y92.723 A57.09574
G1 X100.347 Y93.083 A57.10508
G1 X97.671 Y93.389 A57.15345
G1 X98.474 Y93.613 A57.16842
G1 X99.952 Y93.444 A57.19514
G1 X99.277 Y93.838 A57.20919
G1 X99.558 Y93.805 A57.21427
G0 X117.917 Y93.715 F1800.000 A56.21427
G0 A57.21427
G1 X117.634 Y93.708 F3600.000 A57.21936
G1 X117.274 Y93.385 A57.22805
G1 X118.918 Y93.426 A57.25758
G1 X119.834 Y93.135 A57.27483
G1 X116.914 Y93.061 A57.32728
G1 X116.569 Y92.739 A57.33576
G1 X119.775 Y92.819 A57.39336
G1 X119.717 Y92.503 A57.39912
G1 X116.272 Y92.417 A57.46100
G1 X116.406 Y92.106 A57.46707
G1 X119.659 Y92.187 A57.52550
G1 X119.600 Y91.872 A57.53127
G1 X116.608 Y91.797 A57.58501
G1 X116.810 Y91.488 A57.59164
G1 X119.542 Y91.556 A57.64070
G1 X119.483 Y91.240 A57.64647
G1 X117.013 Y91.178 A57.69084
G1 X117.215 Y90.869 A57.69748
G1 X119.425 Y90.924 A57.73717
G0 Z1.000 F1800.000 A56.73717
