; generated by Slic3r 0.9.8 on 2013-03-28 at 11:24:59

; layer_height = 0.3
; perimeters = 3
; top_solid_layers = 3
; bottom_solid_layers = 3
; fill_density = 0.4
; perimeter_speed = 30
; infill_speed = 40
; travel_speed = 130
; scale = 1
; nozzle_diameter = 0.4
; filament_diameter = 3
; extrusion_multiplier = 1
; perimeters extrusion width = 0.42mm
; infill extrusion width = 0.42mm
; first layer extrusion width = 0.80mm

M190 P115 ; wait for bed temperature to be reached
M104 P235 ; set temperature
G92 A0                  ; Reset A to 0
G40                        ; Cancel cutter compensation
G64 P0.1                ; Path Blend within .1mm
G0 X108.5 Y108.5  ; Move to center
M109 P235 ; wait for temperature to be reached
G90 ; use absolute coordinates
G21 ; set units to millimeters
G0 Z0.400 F1800.000 A-2.00000
G0 X120.970 Y120.360 F7800.000
G0 F1800.000 A0.00000
G1 X120.360 Y120.970 F540.000 A0.03486
G1 X119.640 Y121.610 A0.07379
G1 X119.120 Y122.030 A0.10081
G1 X118.350 Y122.600 A0.13952
G1 X117.800 Y122.970 A0.16631
G1 X116.980 Y123.470 A0.20513
G1 X116.280 Y123.850 A0.23732
G1 X115.410 Y124.260 A0.27618
G1 X114.730 Y124.540 A0.30590
G1 X113.830 Y124.860 A0.34451
G1 X113.110 Y125.080 A0.37493
G1 X112.170 Y125.310 A0.41404
G1 X111.560 Y125.430 A0.43916
G1 X110.610 Y125.580 A0.47803
G1 X109.800 Y125.660 A0.51093
G1 X108.590 Y125.710 A0.55987
G1 X107.230 Y125.660 A0.61487
G1 X106.380 Y125.580 A0.64937
G1 X105.430 Y125.430 A0.68824
G1 X104.820 Y125.310 A0.71336
G1 X103.880 Y125.080 A0.75247
G1 X103.160 Y124.860 A0.78290
G1 X102.260 Y124.540 A0.82150
G1 X101.580 Y124.260 A0.85122
G1 X100.710 Y123.850 A0.89009
G1 X100.010 Y123.470 A0.92228
G1 X99.190 Y122.970 A0.96109
G1 X98.640 Y122.600 A0.98788
G1 X97.870 Y122.030 A1.02659
G1 X97.350 Y121.610 A1.05361
G1 X96.630 Y120.970 A1.09254
G1 X96.020 Y120.360 A1.12740
G1 X95.380 Y119.640 A1.16633
G1 X94.960 Y119.120 A1.19335
G1 X94.390 Y118.350 A1.23206
G1 X94.020 Y117.800 A1.25885
G1 X93.520 Y116.980 A1.29767
G1 X93.140 Y116.280 A1.32985
G1 X92.730 Y115.410 A1.36872
G1 X92.450 Y114.730 A1.39844
G1 X92.130 Y113.830 A1.43704
G1 X91.910 Y113.110 A1.46747
G1 X91.680 Y112.170 A1.50658
G1 X91.560 Y111.560 A1.53170
G1 X91.410 Y110.610 A1.57057
G1 X91.330 Y109.760 A1.60507
G1 X91.290 Y108.810 A1.64350
G1 X91.290 Y108.190 A1.66856
G1 X91.330 Y107.230 A1.70739
G1 X91.410 Y106.380 A1.74189
G1 X91.560 Y105.430 A1.78076
G1 X91.680 Y104.820 A1.80588
G1 X91.910 Y103.880 A1.84499
G1 X92.130 Y103.160 A1.87542
G1 X92.450 Y102.260 A1.91402
G1 X92.730 Y101.580 A1.94374
G1 X93.140 Y100.710 A1.98261
G1 X93.520 Y100.010 A2.01480
G1 X94.020 Y99.190 A2.05361
G1 X94.390 Y98.640 A2.08040
G1 X94.960 Y97.870 A2.11912
G1 X95.380 Y97.350 A2.14613
G1 X96.020 Y96.630 A2.18506
G1 X96.630 Y96.020 A2.21992
G1 X97.350 Y95.380 A2.25885
G1 X97.870 Y94.960 A2.28587
G1 X98.640 Y94.390 A2.32458
G1 X99.190 Y94.020 A2.35137
G1 X100.010 Y93.520 A2.39019
G1 X100.710 Y93.140 A2.42237
G1 X101.580 Y92.730 A2.46124
G1 X102.260 Y92.450 A2.49096
G1 X103.160 Y92.130 A2.52957
G1 X103.880 Y91.910 A2.55999
G1 X104.820 Y91.680 A2.59910
G1 X105.430 Y91.560 A2.62422
G1 X106.380 Y91.410 A2.66309
G1 X107.230 Y91.330 A2.69760
G1 X108.190 Y91.290 A2.73643
G1 X108.810 Y91.290 A2.76148
G1 X109.760 Y91.330 A2.79991
G1 X110.610 Y91.410 A2.83441
G1 X111.560 Y91.560 A2.87328
G1 X112.170 Y91.680 A2.89840
G1 X113.110 Y91.910 A2.93751
G1 X113.830 Y92.130 A2.96794
G1 X114.730 Y92.450 A3.00654
G1 X115.410 Y92.730 A3.03626
G1 X116.280 Y93.140 A3.07513
G1 X116.980 Y93.520 A3.10732
G1 X117.800 Y94.020 A3.14613
G1 X118.350 Y94.390 A3.17292
G1 X119.120 Y94.960 A3.21164
G1 X119.640 Y95.380 A3.23865
G1 X120.360 Y96.020 A3.27758
G1 X120.970 Y96.630 A3.31244
G1 X121.610 Y97.350 A3.35137
G1 X122.030 Y97.870 A3.37839
G1 X122.600 Y98.640 A3.41710
G1 X122.970 Y99.190 A3.44389
G1 X123.470 Y100.010 A3.48271
G1 X123.850 Y100.710 A3.51490
G1 X124.260 Y101.580 A3.55376
G1 X124.540 Y102.260 A3.58348
G1 X124.860 Y103.160 A3.62209
G1 X125.080 Y103.880 A3.65251
G1 X125.310 Y104.820 A3.69162
G1 X125.430 Y105.430 A3.71674
G1 X125.580 Y106.380 A3.75561
G1 X125.660 Y107.230 A3.79012
G1 X125.700 Y108.180 A3.82854
G1 X125.700 Y108.800 A3.85360
G1 X125.660 Y109.760 A3.89243
G1 X125.580 Y110.610 A3.92693
G1 X125.430 Y111.560 A3.96580
G1 X125.310 Y112.170 A3.99092
G1 X125.080 Y113.110 A4.03003
G1 X124.860 Y113.830 A4.06046
G1 X124.540 Y114.730 A4.09906
G1 X124.260 Y115.410 A4.12878
G1 X123.850 Y116.280 A4.16765
G1 X123.470 Y116.980 A4.19984
G1 X122.970 Y117.800 A4.23865
G1 X122.600 Y118.350 A4.26544
G1 X122.030 Y119.120 A4.30416
G1 X121.610 Y119.640 A4.33117
G1 X121.041 Y120.280 A4.36577
G1 X120.970 Y120.360 A4.37010
G0 X120.440 Y119.880 F7800.000
G1 X119.880 Y120.440 F540.000 A4.40211
G1 X119.160 Y121.080 A4.44104
G1 X118.690 Y121.460 A4.46546
G1 X117.920 Y122.030 A4.50418
G1 X117.430 Y122.360 A4.52805
G1 X116.610 Y122.860 A4.56687
G1 X115.970 Y123.200 A4.59616
G1 X115.100 Y123.610 A4.63502
G1 X114.490 Y123.870 A4.66182
G1 X113.590 Y124.190 A4.70042
G1 X112.940 Y124.380 A4.72779
G1 X112.000 Y124.610 A4.76690
G1 X111.450 Y124.720 A4.78957
G1 X110.500 Y124.870 A4.82844
G1 X109.760 Y124.950 A4.85852
G1 X108.900 Y124.990 A4.89331
G1 X108.210 Y124.990 A4.92119
G1 X107.260 Y124.950 A4.95962
G1 X106.490 Y124.870 A4.99091
G1 X105.540 Y124.720 A5.02977
G1 X104.990 Y124.610 A5.05244
G1 X104.050 Y124.380 A5.09155
G1 X103.400 Y124.190 A5.11892
G1 X102.500 Y123.870 A5.15752
G1 X101.890 Y123.610 A5.18432
G1 X101.020 Y123.200 A5.22319
G1 X100.380 Y122.860 A5.25247
G1 X99.560 Y122.360 A5.29129
G1 X99.070 Y122.030 A5.31516
G1 X98.300 Y121.460 A5.35388
G1 X97.830 Y121.080 A5.37831
G1 X97.110 Y120.440 A5.41724
G1 X96.550 Y119.880 A5.44924
G1 X95.910 Y119.160 A5.48817
G1 X95.530 Y118.690 A5.51260
G1 X94.960 Y117.920 A5.55132
G1 X94.630 Y117.430 A5.57519
G1 X94.130 Y116.610 A5.61400
G1 X93.790 Y115.970 A5.64329
G1 X93.380 Y115.100 A5.68216
G1 X93.120 Y114.490 A5.70896
G1 X92.800 Y113.590 A5.74756
G1 X92.610 Y112.940 A5.77493
G1 X92.380 Y112.000 A5.81404
G1 X92.270 Y111.450 A5.83670
G1 X92.120 Y110.500 A5.87557
G1 X92.040 Y109.730 A5.90686
G1 X92.000 Y108.780 A5.94528
G1 X92.000 Y108.220 A5.96792
G1 X92.040 Y107.260 A6.00675
G1 X92.120 Y106.490 A6.03803
G1 X92.270 Y105.540 A6.07690
G1 X92.380 Y104.990 A6.09957
G1 X92.610 Y104.050 A6.13868
G1 X92.800 Y103.400 A6.16604
G1 X93.120 Y102.500 A6.20465
G1 X93.380 Y101.890 A6.23144
G1 X93.790 Y101.020 A6.27031
G1 X94.130 Y100.380 A6.29960
G1 X94.630 Y99.560 A6.33841
G1 X94.960 Y99.070 A6.36229
G1 X95.530 Y98.300 A6.40100
G1 X95.910 Y97.830 A6.42543
G1 X96.550 Y97.110 A6.46436
G1 X97.110 Y96.550 A6.49637
G1 X97.830 Y95.910 A6.53530
G1 X98.300 Y95.530 A6.55972
G1 X99.070 Y94.960 A6.59844
G1 X99.560 Y94.630 A6.62231
G1 X100.380 Y94.130 A6.66113
G1 X101.020 Y93.790 A6.69042
G1 X101.890 Y93.380 A6.72928
G1 X102.500 Y93.120 A6.75608
G1 X103.400 Y92.800 A6.79468
G1 X104.050 Y92.610 A6.82205
G1 X104.990 Y92.380 A6.86116
G1 X105.540 Y92.270 A6.88383
G1 X106.490 Y92.120 A6.92270
G1 X107.260 Y92.040 A6.95398
G1 X108.220 Y92.000 A6.99281
G1 X108.780 Y92.000 A7.01544
G1 X109.730 Y92.040 A7.05387
G1 X110.500 Y92.120 A7.08516
G1 X111.450 Y92.270 A7.12402
G1 X112.000 Y92.380 A7.14669
G1 X112.940 Y92.610 A7.18580
G1 X113.590 Y92.800 A7.21317
G1 X114.490 Y93.120 A7.25177
G1 X115.100 Y93.380 A7.27857
G1 X115.970 Y93.790 A7.31744
G1 X116.610 Y94.130 A7.34672
G1 X117.430 Y94.630 A7.38554
G1 X117.920 Y94.960 A7.40941
G1 X118.690 Y95.530 A7.44813
G1 X119.160 Y95.910 A7.47255
G1 X119.880 Y96.550 A7.51149
G1 X120.440 Y97.110 A7.54349
G1 X121.080 Y97.830 A7.58242
G1 X121.460 Y98.300 A7.60685
G1 X122.030 Y99.070 A7.64556
G1 X122.360 Y99.560 A7.66944
G1 X122.860 Y100.380 A7.70825
G1 X123.200 Y101.020 A7.73754
G1 X123.610 Y101.890 A7.77641
G1 X123.870 Y102.500 A7.80321
G1 X124.190 Y103.400 A7.84181
G1 X124.380 Y104.050 A7.86918
G1 X124.610 Y104.990 A7.90829
G1 X124.720 Y105.540 A7.93095
G1 X124.870 Y106.490 A7.96982
G1 X124.950 Y107.260 A8.00111
G1 X124.990 Y108.210 A8.03953
G1 X124.990 Y108.770 A8.06216
G1 X124.950 Y109.730 A8.10100
G1 X124.870 Y110.500 A8.13228
G1 X124.720 Y111.450 A8.17115
G1 X124.610 Y112.000 A8.19382
G1 X124.380 Y112.940 A8.23293
G1 X124.190 Y113.590 A8.26029
G1 X123.870 Y114.490 A8.29890
G1 X123.610 Y115.100 A8.32569
G1 X123.200 Y115.970 A8.36456
G1 X122.860 Y116.610 A8.39385
G1 X122.360 Y117.430 A8.43266
G1 X122.030 Y117.920 A8.45654
G1 X121.460 Y118.690 A8.49525
G1 X121.080 Y119.160 A8.51968
G1 X120.511 Y119.800 A8.55428
G1 X120.440 Y119.880 A8.55861
G0 Z0.900 F540.000 A6.55861
G0 X111.562 Y111.562 F7800.000
G0 Z0.400
G0 F1800.000 A8.55861
G1 X111.247 Y111.848 F540.000 A8.57578
G1 X110.906 Y112.101 A8.59295
G1 X110.541 Y112.319 A8.61014
G1 X110.157 Y112.501 A8.62731
G1 X109.757 Y112.644 A8.64448
G1 X109.345 Y112.747 A8.66166
G1 X108.925 Y112.810 A8.67883
G1 X108.500 Y112.831 A8.69601
G1 X108.076 Y112.810 A8.71318
G1 X107.655 Y112.747 A8.73036
G1 X107.243 Y112.644 A8.74753
G1 X106.843 Y112.501 A8.76472
G1 X106.459 Y112.319 A8.78188
G1 X106.094 Y112.101 A8.79906
G1 X105.753 Y111.848 A8.81623
G1 X105.438 Y111.562 A8.83340
G1 X105.152 Y111.247 A8.85058
G1 X104.899 Y110.906 A8.86775
G1 X104.681 Y110.541 A8.88493
G1 X104.499 Y110.157 A8.90210
G1 X104.356 Y109.757 A8.91928
G1 X104.253 Y109.345 A8.93646
G1 X104.190 Y108.924 A8.95363
G1 X104.169 Y108.500 A8.97080
G1 X104.190 Y108.076 A8.98797
G1 X104.253 Y107.655 A9.00515
G1 X104.356 Y107.243 A9.02232
G1 X104.499 Y106.843 A9.03950
G1 X104.681 Y106.459 A9.05667
G1 X104.899 Y106.094 A9.07384
G1 X105.152 Y105.753 A9.09103
G1 X105.438 Y105.438 A9.10820
G1 X105.753 Y105.152 A9.12537
G1 X106.094 Y104.899 A9.14255
G1 X106.459 Y104.681 A9.15973
G1 X106.843 Y104.499 A9.17690
G1 X107.243 Y104.356 A9.19407
G1 X107.655 Y104.253 A9.21125
G1 X108.076 Y104.190 A9.22843
G1 X108.500 Y104.169 A9.24560
G1 X108.924 Y104.190 A9.26277
G1 X109.345 Y104.253 A9.27995
G1 X109.757 Y104.356 A9.29712
G1 X110.157 Y104.499 A9.31430
G1 X110.541 Y104.681 A9.33147
G1 X110.906 Y104.899 A9.34864
G1 X111.247 Y105.152 A9.36582
G1 X111.562 Y105.438 A9.38299
G1 X111.848 Y105.753 A9.40017
G1 X112.101 Y106.094 A9.41734
G1 X112.319 Y106.459 A9.43452
G1 X112.501 Y106.843 A9.45170
G1 X112.644 Y107.243 A9.46887
G1 X112.747 Y107.655 A9.48604
G1 X112.810 Y108.075 A9.50321
G1 X112.831 Y108.500 A9.52039
G1 X112.810 Y108.924 A9.53757
G1 X112.747 Y109.345 A9.55474
G1 X112.644 Y109.757 A9.57192
G1 X112.501 Y110.157 A9.58910
G1 X112.319 Y110.541 A9.60627
G1 X112.101 Y110.906 A9.62343
G1 X111.848 Y111.247 A9.64062
G1 X111.634 Y111.483 A9.65346
G1 X111.562 Y111.562 A9.65779
G0 X111.057 Y111.057 F7800.000
G1 X110.794 Y111.295 F540.000 A9.67213
G1 X110.509 Y111.506 A9.68646
G1 X110.204 Y111.689 A9.70081
G1 X109.884 Y111.840 A9.71515
G1 X109.550 Y111.960 A9.72948
G1 X109.205 Y112.046 A9.74383
G1 X108.854 Y112.098 A9.75816
G1 X108.500 Y112.116 A9.77250
G1 X108.146 Y112.098 A9.78684
G1 X107.795 Y112.046 A9.80118
G1 X107.450 Y111.960 A9.81552
G1 X107.116 Y111.840 A9.82986
G1 X106.796 Y111.689 A9.84420
G1 X106.491 Y111.506 A9.85853
G1 X106.159 Y111.251 A9.87547
G1 X105.944 Y111.057 A9.88720
G1 X105.705 Y110.794 A9.90154
G1 X105.494 Y110.509 A9.91587
G1 X105.311 Y110.204 A9.93022
G1 X105.160 Y109.884 A9.94456
G1 X105.040 Y109.550 A9.95890
G1 X104.954 Y109.205 A9.97324
G1 X104.902 Y108.854 A9.98757
G1 X104.884 Y108.500 A10.00191
G1 X104.902 Y108.146 A10.01625
G1 X104.954 Y107.795 A10.03059
G1 X105.040 Y107.451 A10.04493
G1 X105.160 Y107.116 A10.05927
G1 X105.311 Y106.796 A10.07361
G1 X105.494 Y106.491 A10.08794
G1 X105.705 Y106.206 A10.10229
G1 X105.943 Y105.943 A10.11662
G1 X106.206 Y105.705 A10.13096
G1 X106.491 Y105.494 A10.14531
G1 X106.796 Y105.311 A10.15964
G1 X107.116 Y105.160 A10.17398
G1 X107.450 Y105.040 A10.18832
G1 X107.795 Y104.954 A10.20266
G1 X108.146 Y104.902 A10.21700
G1 X108.500 Y104.884 A10.23134
G1 X108.854 Y104.902 A10.24568
G1 X109.205 Y104.954 A10.26002
G1 X109.550 Y105.040 A10.27435
G1 X109.884 Y105.160 A10.28869
G1 X110.204 Y105.311 A10.30303
G1 X110.509 Y105.494 A10.31737
G1 X110.794 Y105.705 A10.33171
G1 X111.057 Y105.943 A10.34605
G1 X111.295 Y106.206 A10.36039
G1 X111.506 Y106.491 A10.37472
G1 X111.689 Y106.796 A10.38907
G1 X111.840 Y107.116 A10.40340
G1 X111.960 Y107.450 A10.41774
G1 X112.046 Y107.795 A10.43208
G1 X112.098 Y108.146 A10.44642
G1 X112.116 Y108.500 A10.46076
G1 X112.098 Y108.854 A10.47510
G1 X112.046 Y109.205 A10.48944
G1 X111.960 Y109.550 A10.50378
G1 X111.840 Y109.884 A10.51812
G1 X111.689 Y110.204 A10.53246
G1 X111.506 Y110.509 A10.54679
G1 X111.295 Y110.794 A10.56113
G1 X111.128 Y110.977 A10.57114
G1 X111.057 Y111.057 A10.57547
G0 X110.551 Y110.551 F7800.000
G1 X110.340 Y110.742 F540.000 A10.58697
G1 X110.111 Y110.912 A10.59848
G1 X109.867 Y111.058 A10.60998
G1 X109.610 Y111.180 A10.62148
G1 X109.342 Y111.276 A10.63299
G1 X109.066 Y111.345 A10.64449
G1 X108.784 Y111.387 A10.65599
G1 X108.500 Y111.400 A10.66750
G1 X108.216 Y111.387 A10.67900
G1 X107.934 Y111.345 A10.69050
G1 X107.658 Y111.276 A10.70201
G1 X107.390 Y111.180 A10.71351
G1 X107.133 Y111.058 A10.72501
G1 X106.889 Y110.912 A10.73652
G1 X106.638 Y110.722 A10.74920
G1 X106.449 Y110.551 A10.75952
G1 X106.258 Y110.340 A10.77102
G1 X106.088 Y110.111 A10.78252
G1 X105.942 Y109.867 A10.79403
G1 X105.820 Y109.610 A10.80553
G1 X105.724 Y109.342 A10.81703
G1 X105.655 Y109.066 A10.82854
G1 X105.613 Y108.784 A10.84004
G1 X105.600 Y108.500 A10.85154
G1 X105.613 Y108.216 A10.86304
G1 X105.655 Y107.934 A10.87455
G1 X105.724 Y107.658 A10.88605
G1 X105.820 Y107.390 A10.89756
G1 X105.942 Y107.133 A10.90906
G1 X106.088 Y106.889 A10.92056
G1 X106.258 Y106.660 A10.93206
G1 X106.449 Y106.449 A10.94357
G1 X106.660 Y106.258 A10.95507
G1 X106.889 Y106.088 A10.96658
G1 X107.133 Y105.942 A10.97808
G1 X107.390 Y105.820 A10.98958
G1 X107.658 Y105.724 A11.00108
G1 X107.934 Y105.655 A11.01259
G1 X108.216 Y105.613 A11.02409
G1 X108.500 Y105.600 A11.03559
G1 X108.784 Y105.613 A11.04710
G1 X109.066 Y105.655 A11.05860
G1 X109.342 Y105.724 A11.07010
G1 X109.610 Y105.820 A11.08161
G1 X109.867 Y105.942 A11.09311
G1 X110.111 Y106.088 A11.10461
G1 X110.340 Y106.258 A11.11612
G1 X110.551 Y106.449 A11.12762
G1 X110.742 Y106.660 A11.13912
G1 X110.912 Y106.889 A11.15062
G1 X111.058 Y107.133 A11.16213
G1 X111.180 Y107.390 A11.17363
G1 X111.276 Y107.658 A11.18514
G1 X111.345 Y107.934 A11.19664
G1 X111.387 Y108.216 A11.20814
G1 X111.400 Y108.500 A11.21965
G1 X111.387 Y108.784 A11.23115
G1 X111.345 Y109.066 A11.24265
G1 X111.276 Y109.342 A11.25415
G1 X111.180 Y109.610 A11.26566
G1 X111.058 Y109.867 A11.27716
G1 X110.912 Y110.111 A11.28866
G1 X110.623 Y110.472 A11.30732
G1 X110.551 Y110.551 A11.31165
G0 X110.736 Y111.241 F7800.000
G0 Z0.900 F540.000 A9.31165
G0 X100.370 Y107.699 F7800.000
G0 Z0.400
G0 F1800.000 A11.31165
G1 X100.487 Y106.906 F540.000 A11.34405
G1 X100.682 Y106.129 A11.37645
G1 X100.952 Y105.374 A11.40885
G1 X101.295 Y104.649 A11.44125
G1 X101.707 Y103.961 A11.47365
G1 X102.185 Y103.317 A11.50605
G1 X102.723 Y102.723 A11.53845
G1 X103.317 Y102.185 A11.57085
G1 X103.961 Y101.707 A11.60325
G1 X104.649 Y101.295 A11.63565
G1 X105.374 Y100.952 A11.66805
G1 X106.129 Y100.682 A11.70045
G1 X106.906 Y100.487 A11.73285
G1 X107.699 Y100.370 A11.76525
G1 X108.500 Y100.331 A11.79765
G1 X109.301 Y100.370 A11.83005
G1 X110.094 Y100.487 A11.86245
G1 X110.871 Y100.682 A11.89485
G1 X111.626 Y100.952 A11.92725
G1 X112.351 Y101.295 A11.95964
G1 X113.039 Y101.707 A11.99204
G1 X113.683 Y102.185 A12.02444
G1 X114.277 Y102.723 A12.05684
G1 X114.815 Y103.317 A12.08924
G1 X115.293 Y103.961 A12.12164
