; generated by Slic3r 0.9.8 on 2013-03-28 at 11:24:59

; layer_height = 0.3
; perimeters = 3
; top_solid_layers = 3
; bottom_solid_layers = 3
; fill_density = 0.4
; perimeter_speed = 30
; infill_speed = 40
; travel_speed = 130
; scale = 1
; nozzle_diameter = 0.4
; filament_diameter = 3
; extrusion_multiplier = 1
; perimeters extrusion width = 0.42mm
; infill extrusion width = 0.42mm
; first layer extrusion width = 0.80mm

M190 P115 ; wait for bed temperature to be reached
M104 P235 ; set temperature
G92 A0                  ; Reset A to 0
G40                        ; Cancel cutter compensation
G64 P0.1                ; Path Blend within .1mm
G0 X108.5 Y108.5  ; Move to center
M109 P235 ; wait for temperature to be reached
G90 ; use absolute coordinates
G21 ; set units to millimeters
G0 Z0.400 F1800.000 A-2.00000
G0 X120.970 Y120.360 F7800.000
G0 F1800.000 A0.00000
G1 X120.360000 Y120.970000 Z0.400000 A0.034860 F540.000000
G1 X120.360000 Y120.970000 Z0.400000 A0.034860 F540.000000
G3 X108.590000 Y125.710000 Z0.400000 A0.559870 I-11.8647 J-12.4783
G1 X108.590000 Y125.710000 Z0.400000 A0.559870
G1 X105.430000 Y125.430000 Z0.400000 A0.688240
G1 X105.430000 Y125.430000 Z0.400000 A0.688240
G3 X102.260000 Y124.540000 Z0.400000 A0.821500 I2.8650 J-16.2950
G1 X102.260000 Y124.540000 Z0.400000 A0.821500
G1 X102.260000 Y124.540000 Z0.400000 A0.821500
G3 X96.630000 Y120.970000 Z0.400000 A1.092540 I6.1754 J-15.9632
G1 X96.630000 Y120.970000 Z0.400000 A1.092540
G1 X96.630000 Y120.970000 Z0.400000 A1.092540
G3 X91.290000 Y108.810000 Z0.400000 A1.643500 I11.8331 J-12.4490
G1 X91.290000 Y108.810000 Z0.400000 A1.643500
G1 X91.560000 Y105.430000 Z0.400000 A1.780760
G1 X91.560000 Y105.430000 Z0.400000 A1.780760
G3 X92.450000 Y102.260000 Z0.400000 A1.914020 I16.2950 J2.8650
G1 X92.450000 Y102.260000 Z0.400000 A1.914020
G1 X92.450000 Y102.260000 Z0.400000 A1.914020
G3 X96.020000 Y96.630000 Z0.400000 A2.185060 I15.9632 J6.1754
G1 X96.020000 Y96.630000 Z0.400000 A2.185060
G1 X96.020000 Y96.630000 Z0.400000 A2.185060
G3 X108.190000 Y91.290000 Z0.400000 A2.736430 I12.4484 J11.8323
G1 X108.190000 Y91.290000 Z0.400000 A2.736430
G1 X111.560000 Y91.560000 Z0.400000 A2.873280
G1 X111.560000 Y91.560000 Z0.400000 A2.873280
G3 X114.730000 Y92.450000 Z0.400000 A3.006540 I-2.8650 J16.2950
G1 X114.730000 Y92.450000 Z0.400000 A3.006540
G1 X114.730000 Y92.450000 Z0.400000 A3.006540
G3 X120.360000 Y96.020000 Z0.400000 A3.277580 I-6.1754 J15.9632
G1 X120.360000 Y96.020000 Z0.400000 A3.277580
G1 X120.360000 Y96.020000 Z0.400000 A3.277580
G3 X125.700000 Y108.180000 Z0.400000 A3.828540 I-11.8331 J12.4490
G1 X125.700000 Y108.180000 Z0.400000 A3.828540
G1 X125.430000 Y111.560000 Z0.400000 A3.965800
G1 X125.430000 Y111.560000 Z0.400000 A3.965800
G3 X124.540000 Y114.730000 Z0.400000 A4.099060 I-16.2950 J-2.8650
G1 X124.540000 Y114.730000 Z0.400000 A4.099060
G1 X124.540000 Y114.730000 Z0.400000 A4.099060
G3 X120.970000 Y120.360000 Z0.400000 A4.370100 I-15.9632 J-6.1754
G1 X120.970000 Y120.360000 Z0.400000 A4.370100
G0 X120.440 Y119.880 F7800.000
G1 X119.880000 Y120.440000 Z0.400000 A4.402110 F540.000000
G1 X119.880000 Y120.440000 Z0.400000 A4.402110 F540.000000
G3 X108.900000 Y124.990000 Z0.400000 A4.893310 I-11.3731 J-11.9220
G1 X108.900000 Y124.990000 Z0.400000 A4.893310
G1 X105.540000 Y124.720000 Z0.400000 A5.029770
G1 X105.540000 Y124.720000 Z0.400000 A5.029770
G3 X102.500000 Y123.870000 Z0.400000 A5.157520 I3.0108 J-16.6294
G1 X102.500000 Y123.870000 Z0.400000 A5.157520
G1 X102.500000 Y123.870000 Z0.400000 A5.157520
G3 X97.110000 Y120.440000 Z0.400000 A5.417240 I6.1034 J-15.5411
G1 X97.110000 Y120.440000 Z0.400000 A5.417240
G1 X97.110000 Y120.440000 Z0.400000 A5.417240
G3 X92.000000 Y108.780000 Z0.400000 A5.945280 I11.3747 J-11.9347
G1 X92.000000 Y108.780000 Z0.400000 A5.945280
G1 X92.270000 Y105.540000 Z0.400000 A6.076900
G1 X92.270000 Y105.540000 Z0.400000 A6.076900
G3 X93.120000 Y102.500000 Z0.400000 A6.204650 I16.6294 J3.0108
G1 X93.120000 Y102.500000 Z0.400000 A6.204650
G1 X93.120000 Y102.500000 Z0.400000 A6.204650
G3 X96.550000 Y97.110000 Z0.400000 A6.464360 I15.5411 J6.1034
G1 X96.550000 Y97.110000 Z0.400000 A6.464360
G1 X96.550000 Y97.110000 Z0.400000 A6.464360
G3 X108.220000 Y92.000000 Z0.400000 A6.992810 I11.9343 J11.3743
G1 X108.220000 Y92.000000 Z0.400000 A6.992810
G1 X111.450000 Y92.270000 Z0.400000 A7.124020
G1 X111.450000 Y92.270000 Z0.400000 A7.124020
G3 X114.490000 Y93.120000 Z0.400000 A7.251770 I-3.0108 J16.6294
G1 X114.490000 Y93.120000 Z0.400000 A7.251770
G1 X114.490000 Y93.120000 Z0.400000 A7.251770
G3 X119.880000 Y96.550000 Z0.400000 A7.511490 I-6.1034 J15.5411
G1 X119.880000 Y96.550000 Z0.400000 A7.511490
G1 X119.880000 Y96.550000 Z0.400000 A7.511490
G3 X124.990000 Y108.210000 Z0.400000 A8.039530 I-11.3747 J11.9347
G1 X124.990000 Y108.210000 Z0.400000 A8.039530
G1 X124.720000 Y111.450000 Z0.400000 A8.171150
G1 X124.720000 Y111.450000 Z0.400000 A8.171150
G3 X123.870000 Y114.490000 Z0.400000 A8.298900 I-16.6294 J-3.0108
G1 X123.870000 Y114.490000 Z0.400000 A8.298900
G1 X123.870000 Y114.490000 Z0.400000 A8.298900
G3 X120.440000 Y119.880000 Z0.400000 A8.558610 I-15.5411 J-6.1034
G1 X120.440000 Y119.880000 Z0.400000 A8.558610
G0 Z0.900 F540.000 A6.55861
G0 X111.562 Y111.562 F7800.000
G0 Z0.400
G0 F1800.000 A8.55861
G1 X111.247000 Y111.848000 Z0.400000 A8.575780 F540.000000
G2 X111.562000 Y111.562000 Z0.400000 A9.657790 I-2.7195 J-3.3117
G0 X111.057 Y111.057 F7800.000
G1 X110.794000 Y111.295000 Z0.400000 A9.672130 F540.000000
G2 X111.057000 Y111.057000 Z0.400000 A10.575470 I-2.2888 J-2.7935
G0 X110.551 Y110.551 F7800.000
G1 X110.340000 Y110.742000 Z0.400000 A10.586970 F540.000000
G1 X110.340000 Y110.742000 Z0.400000 A10.586970 F540.000000
G3 X109.342000 Y111.276000 Z0.400000 A10.632990 I-1.8403 J-2.2397
G1 X109.342000 Y111.276000 Z0.400000 A10.632990
G1 X108.216000 Y111.387000 Z0.400000 A10.679000
G1 X108.216000 Y111.387000 Z0.400000 A10.679000
G3 X106.449000 Y110.551000 Z0.400000 A10.759520 I0.2840 J-2.8856
G1 X106.449000 Y110.551000 Z0.400000 A10.759520
G1 X106.449000 Y110.551000 Z0.400000 A10.759520
G3 X105.820000 Y109.610000 Z0.400000 A10.805530 I2.0566 J-2.0554
G1 X105.820000 Y109.610000 Z0.400000 A10.805530
G1 X105.600000 Y108.500000 Z0.400000 A10.851540
G1 X105.820000 Y107.390000 Z0.400000 A10.897560
G1 X105.820000 Y107.390000 Z0.400000 A10.897560
G3 X106.449000 Y106.449000 Z0.400000 A10.943570 I2.6856 J1.1144
G1 X106.449000 Y106.449000 Z0.400000 A10.943570
G1 X106.449000 Y106.449000 Z0.400000 A10.943570
G3 X107.390000 Y105.820000 Z0.400000 A10.989580 I2.0554 J2.0566
G1 X107.390000 Y105.820000 Z0.400000 A10.989580
G1 X108.500000 Y105.600000 Z0.400000 A11.035590
G1 X109.610000 Y105.820000 Z0.400000 A11.081610
G1 X109.610000 Y105.820000 Z0.400000 A11.081610
G3 X110.551000 Y106.449000 Z0.400000 A11.127620 I-1.1144 J2.6856
G1 X110.551000 Y106.449000 Z0.400000 A11.127620
G1 X110.551000 Y106.449000 Z0.400000 A11.127620
G3 X111.180000 Y107.390000 Z0.400000 A11.173630 I-2.0566 J2.0554
G1 X111.180000 Y107.390000 Z0.400000 A11.173630
G1 X111.400000 Y108.500000 Z0.400000 A11.219650
G1 X111.180000 Y109.610000 Z0.400000 A11.265660
G1 X111.180000 Y109.610000 Z0.400000 A11.265660
G3 X110.551000 Y110.551000 Z0.400000 A11.311650 I-2.6856 J-1.1144
G1 X110.551000 Y110.551000 Z0.400000 A11.311650
G0 X110.736 Y111.241 F7800.000
G0 Z0.900 F540.000 A9.31165
G0 X100.370 Y107.699 F7800.000
G0 Z0.400
G0 F1800.000 A11.31165
G1 X100.487000 Y106.906000 Z0.400000 A11.344050 F540.000000
G1 X100.487000 Y106.906000 Z0.400000 A11.344050 F540.000000
G3 X103.961000 Y101.707000 Z0.400000 A11.603250 I8.0135 J1.5945
G1 X103.961000 Y101.707000 Z0.400000 A11.603250
G1 X103.961000 Y101.707000 Z0.400000 A11.603250
G3 X106.906000 Y100.487000 Z0.400000 A11.732850 I4.5441 J6.8047
G1 X106.906000 Y100.487000 Z0.400000 A11.732850
G1 X108.500000 Y100.331000 Z0.400000 A11.797650
G1 X110.094000 Y100.487000 Z0.400000 A11.862450
G1 X110.094000 Y100.487000 Z0.400000 A11.862450
G3 X115.293000 Y103.961000 Z0.400000 A12.121640 I-1.5945 J8.0135
G1 X115.293000 Y103.961000 Z0.400000 A12.121640
G1 X115.293000 Y103.961000 Z0.400000 A12.121640
G3 X116.318000 Y106.129000 Z0.400000 A12.218840 I-6.7941 J4.5385
G1 X116.318000 Y106.129000 Z0.400000 A12.218840
G1 X116.318000 Y106.129000 Z0.400000 A12.218840
G3 X116.630000 Y107.699000 Z0.400000 A12.283640 I-7.9149 J2.3889
G1 X116.630000 Y107.699000 Z0.400000 A12.283640
G1 X116.630000 Y109.301000 Z0.400000 A12.348440
G1 X116.630000 Y109.301000 Z0.400000 A12.348440
G3 X113.683000 Y114.815000 Z0.400000 A12.607640 I-8.1270 J-0.7990
G1 X113.683000 Y114.815000 Z0.400000 A12.607640
G1 X113.683000 Y114.815000 Z0.400000 A12.607640
G3 X110.871000 Y116.318000 Z0.400000 A12.737240 I-5.1737 J-6.2976
G1 X110.871000 Y116.318000 Z0.400000 A12.737240
G1 X110.871000 Y116.318000 Z0.400000 A12.737240
G3 X109.301000 Y116.630000 Z0.400000 A12.802040 I-2.3889 J-7.9149
G1 X109.301000 Y116.630000 Z0.400000 A12.802040
G1 X107.699000 Y116.630000 Z0.400000 A12.866840
G1 X107.699000 Y116.630000 Z0.400000 A12.866840
G3 X102.185000 Y113.683000 Z0.400000 A13.126040 I0.7990 J-8.1270
G1 X102.185000 Y113.683000 Z0.400000 A13.126040
G1 X102.185000 Y113.683000 Z0.400000 A13.126040
G3 X100.682000 Y110.871000 Z0.400000 A13.255640 I6.2976 J-5.1737
G1 X100.682000 Y110.871000 Z0.400000 A13.255640
G1 X100.682000 Y110.871000 Z0.400000 A13.255640
G3 X100.370000 Y109.301000 Z0.400000 A13.320440 I7.7151 J-2.3492
G1 X100.370000 Y109.301000 Z0.400000 A13.320440
G1 X100.370000 Y107.699000 Z0.400000 A13.385240
G0 X99.658 Y107.629 F7800.000
G1 X99.786000 Y106.767000 Z0.400000 A13.420470 F540.000000
G3 X99.658000 Y107.629000 Z0.400000 A15.640310 I8.7108 J1.7340
G0 X98.947 Y107.559 F7800.000
G1 X99.085000 Y106.627000 Z0.400000 A15.678380 F540.000000
G3 X98.947000 Y107.559000 Z0.400000 A18.076870 I9.3864 J1.8661
G0 X99.602 Y107.275 F7800.000
G0 Z0.900 F540.000 A16.07687
G0 X108.365 Y113.539 F7800.000
G0 Z0.400
G0 F1800.000 A18.07687
G1 X108.005000 Y113.521000 Z0.400000 A18.092080 F720.000000
G1 X108.005000 Y113.521000 Z0.400000 A18.092080 F720.000000
G3 X104.932000 Y112.068000 Z0.400000 A18.238270 I0.4874 J-5.0070
G1 X104.932000 Y112.068000 Z0.400000 A18.238270
G1 X104.932000 Y112.068000 Z0.400000 A18.238270
G3 X103.454000 Y108.500000 Z0.400000 A18.405380 I3.5733 J-3.5703
G1 X103.454000 Y108.500000 Z0.400000 A18.405380
G1 X103.454000 Y108.500000 Z0.400000 A18.405380
G3 X108.500000 Y103.454000 Z0.400000 A18.739580 I5.0462 J0.0002
G1 X108.500000 Y103.454000 Z0.400000 A18.739580
G1 X108.500000 Y103.454000 Z0.400000 A18.739580
G3 X113.546000 Y108.500000 Z0.400000 A19.073750 I0.0000 J5.0460
G1 X113.546000 Y108.500000 Z0.400000 A19.073750
G1 X113.546000 Y108.500000 Z0.400000 A19.073750
G3 X112.068000 Y112.068000 Z0.400000 A19.240840 I-5.0476 J-0.0008
G1 X112.068000 Y112.068000 Z0.400000 A19.240840
G1 X112.068000 Y112.068000 Z0.400000 A19.240840
G3 X110.431000 Y113.161000 Z0.400000 A19.324390 I-3.5740 J-3.5804
G1 X110.431000 Y113.161000 Z0.400000 A19.324390
G1 X110.431000 Y113.161000 Z0.400000 A19.324390
G3 X109.484000 Y113.449000 Z0.400000 A19.366170 I-1.9432 J-4.6888
G1 X109.484000 Y113.449000 Z0.400000 A19.366170
G1 X108.477000 Y113.544000 Z0.400000 A19.408900
G0 X108.500 Y114.292 F7800.000
G1 X107.932000 Y114.264000 Z0.400000 A19.432880 F720.000000
G1 X107.932000 Y114.264000 Z0.400000 A19.432880 F720.000000
G3 X104.405000 Y112.596000 Z0.400000 A19.600700 I0.5624 J-5.7521
G1 X104.405000 Y112.596000 Z0.400000 A19.600700
G1 X104.405000 Y112.596000 Z0.400000 A19.600700
G3 X103.149000 Y110.716000 Z0.400000 A19.696620 I4.0792 J-4.0848
G1 X103.149000 Y110.716000 Z0.400000 A19.696620
G1 X103.149000 Y110.716000 Z0.400000 A19.696620
G3 X102.819000 Y109.630000 Z0.400000 A19.744580 I5.4861 J-2.2602
G1 X102.819000 Y109.630000 Z0.400000 A19.744580
G1 X102.819000 Y109.630000 Z0.400000 A19.744580
G3 X102.708000 Y108.500000 Z0.400000 A19.792520 I5.7287 J-1.1332
G1 X102.708000 Y108.500000 Z0.400000 A19.792520
G1 X102.708000 Y108.500000 Z0.400000 A19.792520
G3 X102.819000 Y107.370000 Z0.400000 A19.840480 I5.8397 J0.0032
G1 X102.819000 Y107.370000 Z0.400000 A19.840480
G1 X102.819000 Y107.370000 Z0.400000 A19.840480
G3 X103.149000 Y106.284000 Z0.400000 A19.888430 I5.6232 J1.1156
G1 X103.149000 Y106.284000 Z0.400000 A19.888430
G1 X103.149000 Y106.284000 Z0.400000 A19.888430
G3 X104.405000 Y104.405000 Z0.400000 A19.984340 I5.3190 J2.1962
G1 X104.405000 Y104.405000 Z0.400000 A19.984340
G1 X104.405000 Y104.405000 Z0.400000 A19.984340
G3 X106.284000 Y103.149000 Z0.400000 A20.080250 I4.0752 J4.0630
G1 X106.284000 Y103.149000 Z0.400000 A20.080250
G1 X106.284000 Y103.149000 Z0.400000 A20.080250
G3 X107.370000 Y102.819000 Z0.400000 A20.128200 I2.2602 J5.4861
G1 X107.370000 Y102.819000 Z0.400000 A20.128200
G1 X107.370000 Y102.819000 Z0.400000 A20.128200
G3 X108.500000 Y102.708000 Z0.400000 A20.176160 I1.1332 J5.7287
G1 X108.500000 Y102.708000 Z0.400000 A20.176160
G1 X108.500000 Y102.708000 Z0.400000 A20.176160
G3 X109.630000 Y102.819000 Z0.400000 A20.224110 I-0.0032 J5.8397
G1 X109.630000 Y102.819000 Z0.400000 A20.224110
G1 X109.630000 Y102.819000 Z0.400000 A20.224110
G3 X110.716000 Y103.149000 Z0.400000 A20.272060 I-1.1742 J5.8161
G1 X110.716000 Y103.149000 Z0.400000 A20.272060
G1 X110.716000 Y103.149000 Z0.400000 A20.272060
G3 X112.595000 Y104.405000 Z0.400000 A20.367970 I-2.1962 J5.3190
G1 X112.595000 Y104.405000 Z0.400000 A20.367970
G1 X112.595000 Y104.405000 Z0.400000 A20.367970
G3 X113.851000 Y106.284000 Z0.400000 A20.463860 I-4.0436 J4.0622
G1 X113.851000 Y106.284000 Z0.400000 A20.463860
G1 X113.851000 Y106.284000 Z0.400000 A20.463860
G3 X114.181000 Y107.370000 Z0.400000 A20.511810 I-5.4861 J2.2602
G1 X114.181000 Y107.370000 Z0.400000 A20.511810
G1 X114.181000 Y107.370000 Z0.400000 A20.511810
G3 X114.292000 Y108.500000 Z0.400000 A20.559760 I-5.7287 J1.1332
G1 X114.292000 Y108.500000 Z0.400000 A20.559760
G1 X114.292000 Y108.500000 Z0.400000 A20.559760
G3 X114.181000 Y109.630000 Z0.400000 A20.607710 I-5.8397 J-0.0032
G1 X114.181000 Y109.630000 Z0.400000 A20.607710
G1 X114.181000 Y109.630000 Z0.400000 A20.607710
G3 X113.851000 Y110.717000 Z0.400000 A20.655680 I-5.6613 J-1.1251
G1 X113.851000 Y110.717000 Z0.400000 A20.655680
G1 X113.851000 Y110.717000 Z0.400000 A20.655680
G3 X112.595000 Y112.595000 Z0.400000 A20.751570 I-5.3267 J-2.2034
G1 X112.595000 Y112.595000 Z0.400000 A20.751570
G1 X112.595000 Y112.595000 Z0.400000 A20.751570
G3 X108.612000 Y114.286000 Z0.400000 A20.938670 I-4.0757 J-4.0637
G1 X108.612000 Y114.286000 Z0.400000 A20.938670
G0 X108.612 Y115.203 F7800.000
G1 X109.158000 Y115.176000 Z0.400000 A20.961730 F720.000000
G1 X109.158000 Y115.176000 Z0.400000 A20.961730 F720.000000
G2 X113.685000 Y112.756000 Z0.400000 A21.183880 I-0.6595 J-6.6780
G1 X113.685000 Y112.756000 Z0.400000 A21.183880
G1 X113.685000 Y112.756000 Z0.400000 A21.183880
G2 X114.919000 Y110.447000 Z0.400000 A21.294960 I-5.1504 J-4.2368
G1 X114.919000 Y110.447000 Z0.400000 A21.294960
G1 X114.919000 Y110.447000 Z0.400000 A21.294960
G2 X115.176000 Y109.158000 Z0.400000 A21.350500 I-6.4403 J-1.9542
G1 X115.176000 Y109.158000 Z0.400000 A21.350500
G1 X115.176000 Y107.842000 Z0.400000 A21.406040
G1 X115.176000 Y107.842000 Z0.400000 A21.406040
G2 X112.756000 Y103.315000 Z0.400000 A21.628200 I-6.6780 J0.6595
G1 X112.756000 Y103.315000 Z0.400000 A21.628200
G1 X112.756000 Y103.315000 Z0.400000 A21.628200
G2 X110.447000 Y102.081000 Z0.400000 A21.739280 I-4.2368 J5.1504
G1 X110.447000 Y102.081000 Z0.400000 A21.739280
G1 X110.447000 Y102.081000 Z0.400000 A21.739280
G2 X109.158000 Y101.824000 Z0.400000 A21.794810 I-1.9542 J6.4403
G1 X109.158000 Y101.824000 Z0.400000 A21.794810
G1 X107.842000 Y101.824000 Z0.400000 A21.850350
G1 X107.842000 Y101.824000 Z0.400000 A21.850350
G2 X103.315000 Y104.244000 Z0.400000 A22.072510 I0.6562 J6.6718
G1 X103.315000 Y104.244000 Z0.400000 A22.072510
G1 X103.315000 Y104.244000 Z0.400000 A22.072510
G2 X102.081000 Y106.553000 Z0.400000 A22.183590 I5.1504 J4.2368
G1 X102.081000 Y106.553000 Z0.400000 A22.183590
