; generated by Slic3r 0.9.9 on 2013-06-19 at 13:59:43

; layer_height = 0.4
; perimeters = 4
; top_solid_layers = 3
; bottom_solid_layers = 3
; fill_density = 0.2
; perimeter_speed = 30
; infill_speed = 40
; travel_speed = 130
; nozzle_diameter = 0.4
; filament_diameter = 2.95
; extrusion_multiplier = 1.105263
; perimeters extrusion width = 0.69mm
; infill extrusion width = 0.69mm
; solid infill extrusion width = 0.69mm
; top infill extrusion width = 0.69mm
; support material extrusion width = 0.32mm
; first layer extrusion width = 0.60mm

G21 ; set units to millimeters
M190 P115 ; wait for bed temperature to be reached
M104 P210 ; set temperature
G92 A2079.66166                  ; Reset A to 0
G40                        ; Cancel cutter compensation
G64 P0.1                ; Path Blend within .1mm
G0 X108.5 Y200    ; Move to plate
M109 P210 ; wait for temperature to be reached
G90 ; use absolute coordinates

G0 Z19.900 F5400.000 A2079.66166
G0 X142.353 Y123.038 F7800.000
G0 Z19.400
G0 F5400.000 A2080.66166
G1 X142.291000 Y123.317000 Z19.400000 A2080.673270 F1800.000000
G1 X125.764000 Y123.317000 Z19.400000 A2081.344370
G1 X125.737000 Y122.779000 Z19.400000 A2081.366230
G2 X132.568000 Y118.925000 Z19.400000 A2081.700900 I0.3166 J-7.4196
G1 X132.678000 Y118.694000 Z19.400000 A2081.711290
G2 X133.447000 Y115.556000 Z19.400000 A2081.843480 I-6.1869 J-3.1794
G1 X133.642000 Y115.516000 Z19.400000 A2081.851570
G2 X139.507000 Y121.648000 Z19.400000 A2082.201100 I12.4164 J-6.0050
G1 X140.436000 Y122.144000 Z19.400000 A2082.243850
G1 X142.268000 Y122.998000 Z19.400000 A2082.325910
G0 X80.147 Y123.317 F7800.000
G1 X74.541000 Y123.317000 Z19.400000 A2082.553530 F1800.000000
G1 X74.541000 Y120.212000 Z19.400000 A2082.679640
G1 X80.147000 Y120.212000 Z19.400000 A2082.907260
G1 X80.147000 Y123.223000 Z19.400000 A2083.029550
G0 X80.775 Y122.084 F7800.000
G1 X126.274000 Y122.084000 Z19.400000 A2084.877080 F1800.000000
G2 X132.692000 Y114.346000 Z19.400000 A2085.341600 I-0.0399 J-6.5637
G1 X131.835000 Y110.890000 Z19.400000 A2085.486190
G3 X153.926000 Y94.652000 Z19.400000 A2086.855710 I15.2308 J-2.4251
G1 X156.465000 Y96.191000 Z19.400000 A2086.976270
G1 X156.216000 Y96.659000 Z19.400000 A2086.997800
G1 X153.004000 Y95.161000 Z19.400000 A2087.141680
G2 X140.715000 Y121.582000 Z19.400000 A2088.980270 I-5.9357 J13.3076
G1 X145.185000 Y123.666000 Z19.400000 A2089.180550
G1 X145.123000 Y123.945000 Z19.400000 A2089.192150
G1 X73.913000 Y123.945000 Z19.400000 A2092.083670
G1 X73.913000 Y121.445000 Z19.400000 A2092.185180
G1 X58.913000 Y121.445000 Z19.400000 A2092.794270
G1 X58.913000 Y119.584000 Z19.400000 A2092.869850
G1 X80.775000 Y119.584000 Z19.400000 A2093.757540
G1 X80.775000 Y121.990000 Z19.400000 A2093.855230
G0 X81.402 Y121.456 F7800.000
G1 X126.255000 Y121.456000 Z19.400000 A2095.676520 F1800.000000
G2 X132.076000 Y114.468000 Z19.400000 A2096.096730 I-0.0234 J-5.9380
G1 X131.212000 Y110.989000 Z19.400000 A2096.242320
G3 X158.619000 Y97.329000 Z19.400000 A2097.890980 I15.8503 J-2.5228
G1 X158.698000 Y97.504000 Z19.400000 A2097.898770
G3 X158.017000 Y98.178000 Z19.400000 A2097.945570 I-0.5363 J0.1392
G1 X152.757000 Y95.739000 Z19.400000 A2098.180980
G2 X140.993000 Y121.019000 Z19.400000 A2099.940870 I-5.6882 J12.7302
G1 X146.219000 Y123.464000 Z19.400000 A2100.175160
G3 X146.759000 Y124.573000 Z19.400000 A2100.227470 I-0.6037 J0.9799
G1 X73.286000 Y124.573000 Z19.400000 A2103.210910
G1 X73.286000 Y122.073000 Z19.400000 A2103.312430
G1 X58.286000 Y122.073000 Z19.400000 A2103.921520
G1 X58.286000 Y118.956000 Z19.400000 A2104.048070
G1 X81.402000 Y118.956000 Z19.400000 A2104.986750
G1 X81.402000 Y121.362000 Z19.400000 A2105.084440
G0 X82.030 Y120.828 F7800.000
G1 X126.236000 Y120.828000 Z19.400000 A2106.879480 F1260.000000
G2 X131.460000 Y114.591000 Z19.400000 A2107.255350 I-0.0094 J-5.3142
G1 X130.590000 Y111.088000 Z19.400000 A2107.401930
G3 X159.139000 Y96.974000 Z19.400000 A2109.119580 I16.4648 J-2.6266
G1 X159.240000 Y97.153000 Z19.400000 A2109.127930
G3 X157.647000 Y98.711000 Z19.400000 A2109.245390 I-1.0800 J0.4891
G1 X152.511000 Y96.316000 Z19.400000 A2109.475510
G2 X141.271000 Y120.456000 Z19.400000 A2111.156700 I-5.4411 J12.1533
G1 X146.377000 Y122.837000 Z19.400000 A2111.385470
G3 X147.144000 Y125.200000 Z19.400000 A2111.498500 I-0.7044 J1.5346
G1 X72.658000 Y125.200000 Z19.400000 A2114.523090
G1 X72.658000 Y122.700000 Z19.400000 A2114.624610
G1 X57.658000 Y122.700000 Z19.400000 A2115.233690
G1 X57.658000 Y118.328000 Z19.400000 A2115.411230
G1 X82.030000 Y118.328000 Z19.400000 A2116.400890
G1 X82.030000 Y120.734000 Z19.400000 A2116.498580
G0 X82.030 Y121.456 F7800.000
G0 Z19.800
G0 Z20.300 F5400.000 A2115.49858
G0 X147.159 Y126.156 F7800.000
G0 Z19.800
G0 F5400.000 A2116.49858
G1 X147.159000 Y126.156000 Z19.800000 A2116.498590 F3600.000000
G0 Z20.300 F5400.000 A2115.49859
G0 X79.692 Y122.862 F7800.000
G0 Z19.800
G0 F5400.000 A2116.49859
G1 X74.996000 Y122.862000 Z19.800000 A2116.720850 F2400.000000
G1 X74.996000 Y122.130000 Z19.800000 A2116.755490
G1 X79.692000 Y122.130000 Z19.800000 A2116.977750
G1 X79.692000 Y121.398000 Z19.800000 A2117.012390
G1 X74.996000 Y121.398000 Z19.800000 A2117.234650
G1 X74.996000 Y120.667000 Z19.800000 A2117.269290
G1 X79.692000 Y120.667000 Z19.800000 A2117.491550
G0 X73.710 Y120.614 F7800.000
G1 X59.745000 Y120.614000 Z19.800000 A2118.348930 F1200.000000
G0 X124.918 Y123.114 F7800.000
G1 X80.978000 Y123.114000 Z19.800000 A2121.046610 F1200.000000
G0 X129.459 Y122.865 F7800.000
G1 X128.278000 Y122.865000 Z19.800000 A2121.075270 F1200.000000
G1 X129.357000 Y122.490000 Z19.800000 A2121.102990
G0 X133.229 Y115.139 F7800.000
G1 X133.201000 Y114.804000 Z19.800000 A2121.110260 F1200.000000
G1 X133.462000 Y114.804000 Z19.800000 A2121.115910
G1 X133.301000 Y114.469000 Z19.800000 A2121.123940
G1 X133.168000 Y114.469000 Z19.800000 A2121.126820
G1 X133.168000 Y114.135000 Z19.800000 A2121.134060
G1 X133.105000 Y114.135000 Z19.800000 A2121.135420
G1 X133.053000 Y113.800000 Z19.800000 A2121.142760
G1 X132.937000 Y113.466000 Z19.800000 A2121.150890
G0 X133.845 Y116.859 F7800.000
G1 X133.616000 Y117.526000 Z19.800000 A2121.181330 F2400.000000
G1 X134.312000 Y117.526000 Z19.800000 A2121.211380
G1 X134.815000 Y118.193000 Z19.800000 A2121.247420
G1 X133.387000 Y118.193000 Z19.800000 A2121.309040
G1 X133.102000 Y118.860000 Z19.800000 A2121.340330
G1 X135.364000 Y118.860000 Z19.800000 A2121.437900
G1 X136.003000 Y119.527000 Z19.800000 A2121.477790
G1 X132.733000 Y119.527000 Z19.800000 A2121.618880
G1 X132.269000 Y120.194000 Z19.800000 A2121.653940
G1 X136.708000 Y120.194000 Z19.800000 A2121.845460
G1 X137.522000 Y120.861000 Z19.800000 A2121.890850
G1 X131.702000 Y120.861000 Z19.800000 A2122.141950
G1 X130.922000 Y121.528000 Z19.800000 A2122.186220
G1 X138.452000 Y121.528000 Z19.800000 A2122.511110
G1 X139.536000 Y122.195000 Z19.800000 A2122.566010
G1 X129.947000 Y122.195000 Z19.800000 A2122.979720
G1 X129.269000 Y122.862000 Z19.800000 A2123.020780
G1 X140.216000 Y122.862000 Z19.800000 A2123.493100
G0 X140.913 Y122.865 F7800.000
G1 X140.026000 Y122.865000 Z19.800000 A2123.514430 F1200.000000
G1 X140.129000 Y122.493000 Z19.800000 A2123.523710
G0 X143.745 Y123.493 F7800.000
G1 X142.715000 Y123.493000 Z19.800000 A2123.552690 F1200.000000
G1 X142.812000 Y123.058000 Z19.800000 A2123.565240
G0 X146.223 Y124.121 F7800.000
G1 X145.547000 Y124.121000 Z19.800000 A2123.584270 F1200.000000
G1 X145.643000 Y123.686000 Z19.800000 A2123.596810
G0 Z20.300 F5400.000 A2122.59681
G0 X157.532 Y97.238 F7800.000
G0 Z19.800
G0 F5400.000 A2123.59681
G1 X157.531000 Y97.238000 Z19.800000 A2123.596820 F1200.000000
G0 Z20.300 F5400.000 A2122.59682
G0 X142.353 Y123.038 F7800.000
G0 Z19.800
G0 F5400.000 A2123.59682
G1 X142.291000 Y123.317000 Z19.800000 A2123.608430 F1800.000000
G1 X125.761000 Y123.317000 Z19.800000 A2124.279660
G1 X125.734000 Y122.779000 Z19.800000 A2124.301520
G2 X132.568000 Y118.924000 Z19.800000 A2124.636360 I0.3199 J-7.4180
G1 X132.674000 Y118.702000 Z19.800000 A2124.646370
G2 X133.447000 Y115.555000 Z19.800000 A2124.778920 I-6.1616 J-3.1819
G1 X133.643000 Y115.515000 Z19.800000 A2124.787020
G2 X139.514000 Y121.652000 Z19.800000 A2125.136890 I12.3933 J-5.9794
G1 X140.436000 Y122.144000 Z19.800000 A2125.179320
G1 X142.268000 Y122.998000 Z19.800000 A2125.261380
G0 X80.147 Y123.317 F7800.000
G1 X74.541000 Y123.317000 Z19.800000 A2125.489000 F1800.000000
G1 X74.541000 Y120.212000 Z19.800000 A2125.615100
G1 X80.147000 Y120.212000 Z19.800000 A2125.842730
G1 X80.147000 Y123.223000 Z19.800000 A2125.965010
G0 X80.775 Y122.084 F7800.000
G1 X126.274000 Y122.084000 Z19.800000 A2127.812540 F1800.000000
G2 X132.693000 Y114.349000 Z19.800000 A2128.276920 I-0.0402 J-6.5643
G1 X131.835000 Y110.890000 Z19.800000 A2128.421660
G3 X153.926000 Y94.652000 Z19.800000 A2129.791180 I15.2308 J-2.4251
G1 X156.465000 Y96.191000 Z19.800000 A2129.911740
G1 X156.216000 Y96.659000 Z19.800000 A2129.933260
G1 X153.004000 Y95.161000 Z19.800000 A2130.077150
G2 X140.715000 Y121.582000 Z19.800000 A2131.915720 I-5.9356 J13.3077
G1 X145.185000 Y123.666000 Z19.800000 A2132.116000
G1 X145.123000 Y123.945000 Z19.800000 A2132.127600
G1 X73.913000 Y123.945000 Z19.800000 A2135.019120
G1 X73.913000 Y121.445000 Z19.800000 A2135.120640
G1 X58.913000 Y121.445000 Z19.800000 A2135.729720
G1 X58.913000 Y119.584000 Z19.800000 A2135.805300
G1 X80.775000 Y119.584000 Z19.800000 A2136.692990
G1 X80.775000 Y121.990000 Z19.800000 A2136.790680
G0 X81.402 Y121.456 F7800.000
G1 X126.255000 Y121.456000 Z19.800000 A2138.611970 F1800.000000
G2 X132.077000 Y114.472000 Z19.800000 A2139.032040 I-0.0249 J-5.9394
G1 X131.212000 Y110.989000 Z19.800000 A2139.177770
G3 X158.619000 Y97.329000 Z19.800000 A2140.826430 I15.8503 J-2.5228
G1 X158.698000 Y97.504000 Z19.800000 A2140.834220
G3 X158.017000 Y98.178000 Z19.800000 A2140.881020 I-0.5363 J0.1392
G1 X152.757000 Y95.739000 Z19.800000 A2141.116430
G2 X140.993000 Y121.019000 Z19.800000 A2142.876310 I-5.6888 J12.7299
G1 X146.219000 Y123.464000 Z19.800000 A2143.110600
G3 X146.759000 Y124.573000 Z19.800000 A2143.162910 I-0.6037 J0.9799
G1 X73.286000 Y124.573000 Z19.800000 A2146.146350
G1 X73.286000 Y122.073000 Z19.800000 A2146.247870
G1 X58.286000 Y122.073000 Z19.800000 A2146.856960
G1 X58.286000 Y118.956000 Z19.800000 A2146.983510
G1 X81.402000 Y118.956000 Z19.800000 A2147.922190
G1 X81.402000 Y121.362000 Z19.800000 A2148.019880
G0 X82.030 Y120.828 F7800.000
G1 X126.236000 Y120.828000 Z19.800000 A2149.814920 F1260.000000
G2 X131.460000 Y114.594000 Z19.800000 A2150.190630 I-0.0086 J-5.3130
G1 X130.590000 Y111.088000 Z19.800000 A2150.337350
G3 X159.139000 Y96.974000 Z19.800000 A2152.055000 I16.4648 J-2.6266
G1 X159.240000 Y97.153000 Z19.800000 A2152.063350
G3 X157.647000 Y98.711000 Z19.800000 A2152.180780 I-1.0797 J0.4895
G1 X152.511000 Y96.316000 Z19.800000 A2152.410900
G2 X141.271000 Y120.456000 Z19.800000 A2154.092080 I-5.4409 J12.1534
G1 X146.377000 Y122.837000 Z19.800000 A2154.320850
G3 X147.144000 Y125.200000 Z19.800000 A2154.433880 I-0.7044 J1.5346
G1 X72.658000 Y125.200000 Z19.800000 A2157.458470
G1 X72.658000 Y122.700000 Z19.800000 A2157.559980
G1 X57.658000 Y122.700000 Z19.800000 A2158.169070
G1 X57.658000 Y118.328000 Z19.800000 A2158.346610
G1 X82.030000 Y118.328000 Z19.800000 A2159.336270
G1 X82.030000 Y120.734000 Z19.800000 A2159.433960
G0 X82.030 Y121.456 F7800.000
G0 Z20.200
G0 Z20.700 F5400.000 A2158.43396
G0 X147.159 Y126.156 F7800.000
G0 Z20.200
G0 F5400.000 A2159.43396
G1 X147.159000 Y126.156000 Z20.200000 A2159.433970 F3600.000000
G0 Z20.700 F5400.000 A2158.43397
G0 X79.692 Y122.862 F7800.000
G0 Z20.200
G0 F5400.000 A2159.43397
G1 X79.692000 Y120.667000 Z20.200000 A2159.529220 F2400.000000
G1 X79.021000 Y120.667000 Z20.200000 A2159.558320
G1 X79.021000 Y122.862000 Z20.200000 A2159.653580
G1 X78.350000 Y122.862000 Z20.200000 A2159.682680
G1 X78.350000 Y120.667000 Z20.200000 A2159.777940
G1 X77.679000 Y120.667000 Z20.200000 A2159.807040
G1 X77.679000 Y122.862000 Z20.200000 A2159.902300
G1 X77.009000 Y122.862000 Z20.200000 A2159.931400
G1 X77.009000 Y120.667000 Z20.200000 A2160.026650
G1 X76.338000 Y120.667000 Z20.200000 A2160.055760
G1 X76.338000 Y122.862000 Z20.200000 A2160.151010
G1 X75.667000 Y122.862000 Z20.200000 A2160.180120
G1 X75.667000 Y120.667000 Z20.200000 A2160.275370
G1 X74.996000 Y120.667000 Z20.200000 A2160.304470
G1 X74.996000 Y122.862000 Z20.200000 A2160.399730
G0 X80.978 Y123.114 F7800.000
G1 X80.978000 Y122.915000 Z20.200000 A2160.411990 F1200.000000
G1 X81.933000 Y122.915000 Z20.200000 A2160.471000
G1 X81.933000 Y123.114000 Z20.200000 A2160.483260
G1 X82.889000 Y123.114000 Z20.200000 A2160.542270
G1 X82.889000 Y122.915000 Z20.200000 A2160.554520
G1 X83.844000 Y122.915000 Z20.200000 A2160.613540
G1 X83.844000 Y123.114000 Z20.200000 A2160.625790
G1 X84.799000 Y123.114000 Z20.200000 A2160.684800
G1 X84.799000 Y122.915000 Z20.200000 A2160.697060
G1 X85.754000 Y122.915000 Z20.200000 A2160.756070
G1 X85.754000 Y123.114000 Z20.200000 A2160.768330
G1 X86.709000 Y123.114000 Z20.200000 A2160.827340
G1 X86.709000 Y122.915000 Z20.200000 A2160.839600
G1 X87.664000 Y122.915000 Z20.200000 A2160.898610
G1 X87.664000 Y123.114000 Z20.200000 A2160.910870
G1 X88.619000 Y123.114000 Z20.200000 A2160.969880
G1 X88.619000 Y122.915000 Z20.200000 A2160.982140
G1 X89.575000 Y122.915000 Z20.200000 A2161.041150
G1 X89.575000 Y123.114000 Z20.200000 A2161.053410
G1 X90.530000 Y123.114000 Z20.200000 A2161.112420
G1 X90.530000 Y122.915000 Z20.200000 A2161.124680
G1 X91.485000 Y122.915000 Z20.200000 A2161.183690
G1 X91.485000 Y123.114000 Z20.200000 A2161.195950
G1 X92.440000 Y123.114000 Z20.200000 A2161.254960
G1 X92.440000 Y122.915000 Z20.200000 A2161.267220
G1 X93.395000 Y122.915000 Z20.200000 A2161.326230
G1 X93.395000 Y123.114000 Z20.200000 A2161.338490
G1 X94.350000 Y123.114000 Z20.200000 A2161.397500
G1 X94.350000 Y122.915000 Z20.200000 A2161.409760
G1 X95.305000 Y122.915000 Z20.200000 A2161.468770
G1 X95.305000 Y123.114000 Z20.200000 A2161.481020
G1 X96.261000 Y123.114000 Z20.200000 A2161.540040
G1 X96.261000 Y122.915000 Z20.200000 A2161.552290
G1 X97.216000 Y122.915000 Z20.200000 A2161.611300
G1 X97.216000 Y123.114000 Z20.200000 A2161.623560
G1 X98.171000 Y123.114000 Z20.200000 A2161.682570
G1 X98.171000 Y122.915000 Z20.200000 A2161.694830
G1 X99.126000 Y122.915000 Z20.200000 A2161.753840
G1 X99.126000 Y123.114000 Z20.200000 A2161.766100
G1 X100.081000 Y123.114000 Z20.200000 A2161.825110
G1 X100.081000 Y122.915000 Z20.200000 A2161.837370
G1 X101.036000 Y122.915000 Z20.200000 A2161.896380
G1 X101.036000 Y123.114000 Z20.200000 A2161.908640
G1 X101.991000 Y123.114000 Z20.200000 A2161.967650
G1 X101.991000 Y122.915000 Z20.200000 A2161.979910
G1 X102.947000 Y122.915000 Z20.200000 A2162.038920
G1 X102.947000 Y123.114000 Z20.200000 A2162.051180
G1 X103.902000 Y123.114000 Z20.200000 A2162.110190
G1 X103.902000 Y122.915000 Z20.200000 A2162.122450
G1 X104.857000 Y122.915000 Z20.200000 A2162.181460
G1 X104.857000 Y123.114000 Z20.200000 A2162.193720
G1 X105.812000 Y123.114000 Z20.200000 A2162.252730
G1 X105.812000 Y122.915000 Z20.200000 A2162.264990
G1 X106.767000 Y122.915000 Z20.200000 A2162.324000
G1 X106.767000 Y123.114000 Z20.200000 A2162.336260
G1 X107.722000 Y123.114000 Z20.200000 A2162.395270
G1 X107.722000 Y122.915000 Z20.200000 A2162.407520
G1 X108.677000 Y122.915000 Z20.200000 A2162.466540
G1 X108.677000 Y123.114000 Z20.200000 A2162.478790
G1 X109.633000 Y123.114000 Z20.200000 A2162.537800
G1 X109.633000 Y122.915000 Z20.200000 A2162.550060
G1 X110.588000 Y122.915000 Z20.200000 A2162.609070
G1 X110.588000 Y123.114000 Z20.200000 A2162.621330
G1 X111.543000 Y123.114000 Z20.200000 A2162.680340
