; generated by Slic3r 0.9.9 on 2013-06-17 at 10:29:44

; layer_height = 0.4
; perimeters = 3
; top_solid_layers = 3
; bottom_solid_layers = 3
; fill_density = 0
; perimeter_speed = 30
; infill_speed = 40
; travel_speed = 130
; nozzle_diameter = 0.4
; filament_diameter = 2.95
; extrusion_multiplier = 1.105263
; perimeters extrusion width = 0.69mm
; infill extrusion width = 0.69mm
; solid infill extrusion width = 0.69mm
; top infill extrusion width = 0.69mm
; first layer extrusion width = 0.60mm

G21 ; set units to millimeters
M190 P115 ; wait for bed temperature to be reached
M104 P210 ; set temperature
G92 A0                  ; Reset A to 0
G40                        ; Cancel cutter compensation
G64 P0.1                ; Path Blend within .1mm
G0 X108.5 Y200    ; Move to plate
M109 P210 ; wait for temperature to be reached
G90 ; use absolute coordinates
G0 Z0.200 F7800.000
G0 Z0.700 F1620.000 A-1.00000
G0 X45.334 Y52.184 F7800.000
G0 Z0.200
G0 F5400.000 A0.00000
G1 X45.764000 Y51.834000 Z0.200000 A0.009990 F540.000000
G3 X53.794000 Y51.584000 Z0.200000 A0.163670 I4.1980 J5.7519
G1 X162.014000 Y120.704000 Z0.200000 A2.477210
G3 X163.214000 Y121.674000 Z0.200000 A2.505060 I-3.4848 J5.5383
G1 X172.544000 Y131.004000 Z0.200000 A2.742780
G3 X174.504000 Y134.374000 Z0.200000 A2.813690 I-5.5311 J5.4719
G1 X175.324000 Y137.254000 Z0.200000 A2.867650
G3 X160.704000 Y164.814000 Z0.200000 A3.478860 I-23.3650 J5.2632
G1 X157.734000 Y165.804000 Z0.200000 A3.535260
G3 X140.864000 Y163.914000 Z0.200000 A3.847550 I-5.9768 J-22.8870
G1 X138.374000 Y162.454000 Z0.200000 A3.899560
G3 X134.744000 Y159.484000 Z0.200000 A3.984130 I15.4413 J-22.5760
G1 X55.544000 Y80.284000 Z0.200000 A6.002120
G1 X54.954000 Y79.624000 Z0.200000 A6.018070
G1 X42.584000 Y63.714000 Z0.200000 A6.381160
G3 X43.174000 Y54.314000 Z0.200000 A6.566510 I5.6120 J-4.3663
G1 X44.934000 Y52.554000 Z0.200000 A6.611350
G1 X45.272000 Y52.240000 Z0.200000 A6.619660
G0 X45.724 Y52.584 F7800.000
G1 X46.144000 Y52.254000 Z0.200000 A6.629280 F540.000000
G3 X53.264000 Y51.914000 Z0.200000 A6.765000 I3.8183 J5.2400
G1 X161.714000 Y121.174000 Z0.200000 A9.083400
G3 X162.824000 Y122.064000 Z0.200000 A9.109070 I-3.4698 J5.4647
G1 X172.154000 Y131.394000 Z0.200000 A9.346790
G3 X174.004000 Y134.634000 Z0.200000 A9.414650 I-5.3130 J5.1818
G1 X174.794000 Y137.404000 Z0.200000 A9.466550
G3 X135.544000 Y159.464000 Z0.200000 A10.546720 I-22.9726 J5.0738
G1 X135.134000 Y159.094000 Z0.200000 A10.556670
G1 X55.934000 Y79.894000 Z0.200000 A12.574660
G1 X55.394000 Y79.274000 Z0.200000 A12.589480
G3 X42.584000 Y62.714000 Z0.200000 A12.966720 I119.2502 J-105.4807
G1 X42.324000 Y62.254000 Z0.200000 A12.976240
G3 X43.564000 Y54.704000 Z0.200000 A13.123300 I5.8783 J-2.9114
G1 X45.324000 Y52.944000 Z0.200000 A13.168150
G1 X45.662000 Y52.640000 Z0.200000 A13.176340
G0 Z0.200 F7800.000
G0 Z0.700 F1620.000 A12.17634
G0 X49.395 Y56.191 F7800.000
G0 Z0.200
G0 F5400.000 A13.17634
G1 X50.549000 Y56.191000 Z0.200000 A13.197120 F540.000000
G1 X130.806000 Y136.417000 Z0.200000 A15.241670
G1 X131.070000 Y136.598000 Z0.200000 A15.247420
G2 X134.670000 Y135.657000 Z0.200000 A15.322050 I1.3394 J-2.2326
G1 X135.572000 Y133.771000 Z0.200000 A15.359720
G3 X159.136000 Y125.606000 Z0.200000 A15.853590 I16.1831 J8.6188
G1 X159.399000 Y127.044000 Z0.200000 A15.879930
G1 X155.409000 Y131.034000 Z0.200000 A15.981600
G1 X154.654000 Y131.220000 Z0.200000 A15.995610
G2 X151.404000 Y130.839000 Z0.200000 A16.054820 I-2.5048 J7.3145
G1 X149.958000 Y130.978000 Z0.200000 A16.080990
G2 X163.131000 Y139.956000 Z0.200000 A17.077340 I1.8414 J11.4513
G1 X163.012000 Y139.578000 Z0.200000 A17.084470
G1 X163.198000 Y138.823000 Z0.200000 A17.098480
G1 X167.188000 Y134.833000 Z0.200000 A17.200150
G1 X168.625000 Y135.096000 Z0.200000 A17.226480
G1 X169.026000 Y136.004000 Z0.200000 A17.244350
G3 X138.811000 Y155.463000 Z0.200000 A18.141940 I-17.2290 J6.4353
G1 X59.186000 Y75.838000 Z0.200000 A20.170760
G1 X59.186000 Y74.685000 Z0.200000 A20.191540
G1 X60.377000 Y73.494000 Z0.200000 A20.221890
G1 X46.812000 Y59.928000 Z0.200000 A20.567530
G1 X46.812000 Y58.775000 Z0.200000 A20.588310
G1 X49.336000 Y56.250000 Z0.200000 A20.652640
G0 X49.626 Y56.748 F7800.000
G1 X50.318000 Y56.748000 Z0.200000 A20.665110 F540.000000
G1 X130.463000 Y136.857000 Z0.200000 A22.706730
G1 X130.783000 Y137.076000 Z0.200000 A22.713710
G2 X135.156000 Y135.931000 Z0.200000 A22.804400 I1.6287 J-2.7028
G1 X136.069000 Y134.023000 Z0.200000 A22.842510
G3 X158.640000 Y125.994000 Z0.200000 A23.315820 I15.6934 J8.3769
G1 X158.799000 Y126.857000 Z0.200000 A23.331630
G1 X155.125000 Y130.531000 Z0.200000 A23.425230
G1 X154.672000 Y130.642000 Z0.200000 A23.433640
G2 X152.907000 Y130.325000 Z0.200000 A23.465990 I-1.9239 J5.6400
G1 X151.385000 Y130.281000 Z0.200000 A23.493430
G2 X163.590000 Y139.560000 Z0.200000 A24.570360 I0.4056 J12.1328
G1 X163.702000 Y139.107000 Z0.200000 A24.578770
G1 X167.375000 Y135.434000 Z0.200000 A24.672360
G1 X168.238000 Y135.591000 Z0.200000 A24.688160
G3 X169.313000 Y139.083000 Z0.200000 A24.754070 I-11.6660 J5.5028
G1 X169.626000 Y142.021000 Z0.200000 A24.807300
G3 X139.196000 Y155.061000 Z0.200000 A25.570700 I-17.8304 J0.4167
G1 X59.743000 Y75.608000 Z0.200000 A27.595150
G1 X59.743000 Y74.915000 Z0.200000 A27.607620
G1 X61.165000 Y73.494000 Z0.200000 A27.643840
G1 X47.369000 Y59.698000 Z0.200000 A27.995360
G1 X47.369000 Y59.005000 Z0.200000 A28.007830
G1 X49.567000 Y56.807000 Z0.200000 A28.063840
G0 X49.857 Y57.305 F7800.000
G1 X50.088000 Y57.305000 Z0.200000 A28.068000 F540.000000
G1 X130.120000 Y137.297000 Z0.200000 A30.106690
G1 X130.495000 Y137.555000 Z0.200000 A30.114910
G2 X135.643000 Y136.205000 Z0.200000 A30.221660 I1.9142 J-3.1909
G1 X136.566000 Y134.276000 Z0.200000 A30.260190
G3 X158.145000 Y126.382000 Z0.200000 A30.712960 I15.2103 J8.1377
G1 X158.198000 Y126.670000 Z0.200000 A30.718230
G1 X154.841000 Y130.027000 Z0.200000 A30.803760
G1 X154.690000 Y130.064000 Z0.200000 A30.806560
G2 X152.958000 Y129.769000 Z0.200000 A30.838250 I-1.8366 J5.5512
G1 X151.366000 Y129.723000 Z0.200000 A30.866950
G2 X164.168000 Y139.542000 Z0.200000 A31.991150 I0.4267 J12.6988
G1 X164.206000 Y139.391000 Z0.200000 A31.993950
G1 X167.562000 Y136.034000 Z0.200000 A32.079480
G1 X167.850000 Y136.087000 Z0.200000 A32.084740
G3 X168.762000 Y139.165000 Z0.200000 A32.142640 I-10.4011 J4.7559
G1 X169.070000 Y142.056000 Z0.200000 A32.195010
G3 X139.582000 Y154.659000 Z0.200000 A32.934370 I-17.2741 J0.3817
G1 X60.300000 Y75.377000 Z0.200000 A34.954440
G1 X60.300000 Y75.146000 Z0.200000 A34.958600
G1 X61.953000 Y73.494000 Z0.200000 A35.000700
G1 X47.926000 Y59.467000 Z0.200000 A35.358100
G1 X47.926000 Y59.236000 Z0.200000 A35.362260
G1 X49.798000 Y57.364000 Z0.200000 A35.409950
G0 Z0.200 F7800.000
G0 Z0.700 F1620.000 A34.40995
G0 X128.226 Y138.379 F7800.000
G0 Z0.200
G0 F5400.000 A35.40995
G1 X64.114000 Y74.267000 Z0.200000 A37.053630 F720.000000
G1 X63.120000 Y75.261000 Z0.200000 A37.079140
G1 X139.473000 Y151.615000 Z0.200000 A39.036660
G1 X139.913000 Y151.259000 Z0.200000 A39.046920
G1 X138.875000 Y149.656000 Z0.200000 A39.081540
G3 X137.136000 Y140.402000 Z0.200000 A39.255140 I12.9171 J-7.2178
G1 X137.759000 Y137.367000 Z0.200000 A39.311300
G1 X137.540000 Y137.261000 Z0.200000 A39.315720
G1 X136.604000 Y138.370000 Z0.200000 A39.342030
G3 X128.286000 Y138.438000 Z0.200000 A39.510140 I-4.1920 J-3.9996
G0 X134.830 Y143.721 F7800.000
G1 X134.749000 Y142.293000 Z0.200000 A39.536080 F720.000000
G1 X134.767000 Y142.048000 Z0.200000 A39.540520
G1 X133.972000 Y142.257000 Z0.200000 A39.555430
G1 X133.368000 Y142.339000 Z0.200000 A39.566480
G1 X134.834000 Y143.805000 Z0.200000 A39.604080
G0 X135.593 Y145.290 F7800.000
G1 X135.431000 Y144.427000 Z0.200000 A39.619990 F720.000000
G3 X135.390000 Y141.218000 Z0.200000 A39.678280 I12.3132 J-1.7621
G1 X134.750000 Y141.473000 Z0.200000 A39.690770
G3 X132.075000 Y141.839000 Z0.200000 A39.739950 I-2.3284 J-7.0589
G1 X135.608000 Y145.372000 Z0.200000 A39.830540
G0 X136.605 Y147.107 F7800.000
G1 X136.369000 Y146.385000 Z0.200000 A39.844320 F720.000000
G3 X136.022000 Y140.264000 Z0.200000 A39.956080 I15.3813 J-3.9423
G1 X135.362000 Y140.626000 Z0.200000 A39.969730
G3 X130.442000 Y140.999000 Z0.200000 A40.061140 I-2.9472 J-6.2397
G1 X136.631000 Y147.187000 Z0.200000 A40.219790
G0 X138.171 Y149.480 F7800.000
G1 X137.530000 Y148.135000 Z0.200000 A40.246800 F720.000000
G3 X136.876000 Y138.882000 Z0.200000 A40.417660 I14.0375 J-5.6418
G1 X136.438000 Y139.287000 Z0.200000 A40.428480
G3 X127.900000 Y138.845000 Z0.200000 A40.598400 I-4.0261 J-4.9127
G1 X64.114000 Y75.059000 Z0.200000 A42.233720
G1 X63.912000 Y75.261000 Z0.200000 A42.238900
G1 X138.207000 Y149.556000 Z0.200000 A44.143640
G0 X140.203 Y148.914 F7800.000
G1 X141.137000 Y150.356000 Z0.200000 A44.174600 F378.000000
G2 X164.769000 Y139.615000 Z0.200000 A44.824110 I10.6597 J-7.9145
G1 X167.530000 Y136.854000 Z0.200000 A44.894460
G3 X167.676000 Y147.669000 Z0.200000 A45.092790 I-15.2398 J5.6142
G1 X166.563000 Y150.278000 Z0.200000 A45.143890
G3 X139.963000 Y154.252000 Z0.200000 A45.706180 I-14.7678 J-7.8379
G1 X60.973000 Y75.262000 Z0.200000 A47.718840
G1 X62.740000 Y73.494000 Z0.200000 A47.763880
G1 X48.598000 Y59.352000 Z0.200000 A48.124220
G1 X49.972000 Y57.978000 Z0.200000 A48.159230
G1 X129.390000 Y137.395000 Z0.200000 A50.182760
G2 X136.129000 Y136.480000 Z0.200000 A50.324300 I3.0214 J-3.0213
G1 X137.060000 Y134.534000 Z0.200000 A50.363170
G3 X157.382000 Y126.698000 Z0.200000 A50.790490 I14.7056 J7.8679
G1 X154.617000 Y129.463000 Z0.200000 A50.860930
G2 X140.167000 Y148.838000 Z0.200000 A51.408000 I-2.8382 J12.9592
G0 X139.928 Y149.398 F7800.000
G0 X139.716 Y149.186
G1 X140.689000 Y150.689000 Z0.200000 A51.440260 F540.000000
G2 X165.363000 Y139.809000 Z0.200000 A52.111380 I11.1032 J-8.2380
G1 X167.253000 Y137.919000 Z0.200000 A52.159540
G3 X167.953000 Y142.091000 Z0.200000 A52.236010 I-11.8694 J4.1362
G1 X167.779000 Y144.827000 Z0.200000 A52.285400
G3 X140.341000 Y153.842000 Z0.200000 A52.928110 I-15.9848 J-2.3887
G1 X61.761000 Y75.262000 Z0.200000 A54.930310
G1 X63.528000 Y73.494000 Z0.200000 A54.975350
G1 X49.386000 Y59.352000 Z0.200000 A55.335680
G1 X49.972000 Y58.766000 Z0.200000 A55.350620
G1 X129.008000 Y137.801000 Z0.200000 A57.364420
G2 X136.614000 Y136.756000 Z0.200000 A57.524130 I3.4049 J-3.4204
G1 X137.551000 Y134.797000 Z0.200000 A57.563250
G3 X156.327000 Y126.966000 Z0.200000 A57.959980 I14.1760 J7.5645
G1 X154.423000 Y128.869000 Z0.200000 A58.008480
G2 X139.832000 Y135.484000 Z0.200000 A58.316330 I-2.7663 J13.2977
G1 X139.034000 Y137.087000 Z0.200000 A58.348590
G2 X139.680000 Y149.111000 Z0.200000 A58.572920 I12.7432 J5.3447
G0 X139.229 Y149.458 F7800.000
G1 X140.240000 Y151.022000 Z0.200000 A58.606480 F540.000000
G2 X165.956000 Y140.004000 Z0.200000 A59.299190 I11.5489 J-8.5644
G1 X166.975000 Y138.984000 Z0.200000 A59.325170
G3 X167.394000 Y142.103000 Z0.200000 A59.381980 I-8.7964 J2.7693
G1 X167.226000 Y144.745000 Z0.200000 A59.429660
G3 X140.718000 Y153.431000 Z0.200000 A60.050580 I-15.4332 J-2.3075
G1 X62.548000 Y75.261000 Z0.200000 A62.042320
G1 X64.114000 Y73.696000 Z0.200000 A62.082220
G1 X128.626000 Y138.207000 Z0.200000 A63.725960
G2 X137.099000 Y137.032000 Z0.200000 A63.903840 I3.7892 J-3.8127
G1 X138.043000 Y135.061000 Z0.200000 A63.943210
G3 X155.286000 Y127.219000 Z0.200000 A64.309540 I13.7585 J7.3743
G1 X154.229000 Y128.275000 Z0.200000 A64.336450
G2 X144.458000 Y130.052000 Z0.200000 A64.519190 I-2.6359 J13.2579
G1 X142.968000 Y131.065000 Z0.200000 A64.551660
G2 X139.193000 Y149.383000 Z0.200000 A64.918250 I8.8189 J11.3654
M140 P110 ; set bed temperature
G0 Z0.600 F7800.000
G0 Z1.100 F5400.000 A63.91825
G0 X134.744 Y159.484 F7800.000
G0 Z0.600
G0 F5400.000 A64.91825
G1 X55.544000 Y80.284000 Z0.600000 A68.954230 F1800.000000
G1 X54.954000 Y79.624000 Z0.600000 A68.986130
G1 X42.584000 Y63.714000 Z0.600000 A69.712320
G3 X43.174000 Y54.314000 Z0.600000 A70.083020 I5.6120 J-4.3663
G1 X44.934000 Y52.554000 Z0.600000 A70.172700
G3 X53.794000 Y51.584000 Z0.600000 A70.519670 I5.0256 J4.9550
G1 X162.014000 Y120.704000 Z0.600000 A75.146760
G3 X163.214000 Y121.674000 Z0.600000 A75.202460 I-3.4848 J5.5383
G1 X172.544000 Y131.004000 Z0.600000 A75.677910
G3 X174.504000 Y134.374000 Z0.600000 A75.819730 I-5.5311 J5.4719
G1 X175.324000 Y137.254000 Z0.600000 A75.927630
G3 X160.704000 Y164.814000 Z0.600000 A77.150050 I-23.3650 J5.2632
G1 X157.734000 Y165.804000 Z0.600000 A77.262860
G3 X140.864000 Y163.914000 Z0.600000 A77.887430 I-5.9768 J-22.8870
G1 X138.374000 Y162.454000 Z0.600000 A77.991440
G3 X134.806000 Y159.540000 Z0.600000 A78.157570 I15.2777 J-22.3479
G0 X135.134 Y159.094 F7800.000
G1 X55.934000 Y79.894000 Z0.600000 A82.193550 F1800.000000
G3 X42.584000 Y62.714000 Z0.600000 A82.977660 I119.4896 J-106.6283
G1 X42.324000 Y62.254000 Z0.600000 A82.996700
G3 X43.564000 Y54.704000 Z0.600000 A83.290820 I5.8783 J-2.9114
G1 X45.324000 Y52.944000 Z0.600000 A83.380510
G3 X53.494000 Y52.054000 Z0.600000 A83.700280 I4.6391 J4.6416
G1 X161.954000 Y121.334000 Z0.600000 A88.337770
G3 X162.824000 Y122.064000 Z0.600000 A88.378720 I-4.4621 J6.2013
G1 X172.154000 Y131.394000 Z0.600000 A88.854170
G3 X174.004000 Y134.634000 Z0.600000 A88.989880 I-5.3130 J5.1818
G1 X174.794000 Y137.404000 Z0.600000 A89.093680
G3 X135.544000 Y159.464000 Z0.600000 A91.254010 I-22.9731 J5.0730
G1 X135.196000 Y159.150000 Z0.600000 A91.270900
G0 Z1.100 F5400.000 A90.27090
G0 X138.377 Y150.196 F7800.000
G0 Z0.600
G0 F5400.000 A91.27090
G1 X138.569000 Y149.543000 Z0.600000 A91.299700 F2400.000000
G1 X137.723000 Y149.543000 Z0.600000 A91.335460
G1 X138.257000 Y148.889000 Z0.600000 A91.371160
G1 X137.069000 Y148.889000 Z0.600000 A91.421380
G1 X136.416000 Y148.235000 Z0.600000 A91.460460
G1 X137.946000 Y148.235000 Z0.600000 A91.525150
G1 X137.699000 Y147.582000 Z0.600000 A91.554690
G1 X135.762000 Y147.582000 Z0.600000 A91.636570
G1 X135.108000 Y146.928000 Z0.600000 A91.675640
G1 X137.486000 Y146.928000 Z0.600000 A91.776140
G1 X137.273000 Y146.275000 Z0.600000 A91.805210
G1 X134.455000 Y146.275000 Z0.600000 A91.924330
G1 X133.801000 Y145.621000 Z0.600000 A91.963400
G1 X137.134000 Y145.621000 Z0.600000 A92.104310
G1 X137.011000 Y144.967000 Z0.600000 A92.132420
G1 X133.148000 Y144.967000 Z0.600000 A92.295760
G1 X132.494000 Y144.314000 Z0.600000 A92.334840
G1 X136.889000 Y144.314000 Z0.600000 A92.520610
G1 X136.844000 Y143.660000 Z0.600000 A92.548310
G1 X131.841000 Y143.660000 Z0.600000 A92.759810
G1 X131.187000 Y143.007000 Z0.600000 A92.798890
G1 X136.807000 Y143.007000 Z0.600000 A93.036470
G1 X136.770000 Y142.353000 Z0.600000 A93.064140
G1 X130.533000 Y142.353000 Z0.600000 A93.327800
G1 X129.880000 Y141.700000 Z0.600000 A93.366870
G1 X136.812000 Y141.700000 Z0.600000 A93.659940
G1 X136.860000 Y141.046000 Z0.600000 A93.687650
G1 X129.226000 Y141.046000 Z0.600000 A94.010370
G1 X128.573000 Y140.392000 Z0.600000 A94.049450
G1 X136.908000 Y140.392000 Z0.600000 A94.401830
G1 X137.039000 Y139.739000 Z0.600000 A94.430020
G1 X135.122000 Y139.739000 Z0.600000 A94.511090
G1 X136.149000 Y139.085000 Z0.600000 A94.562570
G1 X137.174000 Y139.085000 Z0.600000 A94.605880
G1 X137.308000 Y138.432000 Z0.600000 A94.634090
G1 X136.872000 Y138.432000 Z0.600000 A94.652510
G0 X129.704 Y139.739 F7800.000
G1 X127.919000 Y139.739000 Z0.600000 A94.727960 F2400.000000
G1 X127.265000 Y139.085000 Z0.600000 A94.767030
G1 X128.665000 Y139.085000 Z0.600000 A94.826210
G1 X127.926000 Y138.432000 Z0.600000 A94.867920
G1 X126.612000 Y138.432000 Z0.600000 A94.923480
G1 X127.187000 Y137.778000 Z0.600000 A94.960290
G0 X127.258 Y137.089 F7800.000
G1 X128.505000 Y138.336000 Z0.600000 A95.031910 F1800.000000
