; generated by Slic3r 0.9.8 on 2013-06-03 at 11:34:26

; layer_height = 0.2
; perimeters = 3
; top_solid_layers = 3
; bottom_solid_layers = 3
; fill_density = 0.2
; perimeter_speed = 30
; infill_speed = 40
; travel_speed = 130
; scale = 1
; nozzle_diameter = 0.4
; filament_diameter = 2.95
; extrusion_multiplier = 1.105263
; perimeters extrusion width = 0.64mm
; infill extrusion width = 0.64mm
; first layer extrusion width = 0.64mm

M190 P115 ; wait for bed temperature to be reached
M104 P210 ; set temperature
G92 A0                  ; Reset A to 0
G40                        ; Cancel cutter compensation
G64 P0.1                ; Path Blend within .1mm
G0 X108.5 Y200    ; Move to plate
M109 P210 ; wait for temperature to be reached
G90 ; use absolute coordinates
G21 ; set units to millimeters
G0 Z0.200 F5400.000 A-1.00000
G0 X136.180 Y130.320 F7800.000
G0 F5400.000 A0.00000
G1 X112.380000 Y136.820000 Z0.200000 A0.476420 F540.000000
G3 X110.800000 Y137.070000 Z0.200000 A0.507370 I-1.9947 J-7.4885
G1 X72.440000 Y137.070000 Z0.200000 A1.248120
G3 X65.530000 Y130.160000 Z0.200000 A1.455470 I0.2438 J-7.1538
G1 X65.530000 Y86.840000 Z0.200000 A2.292010
G3 X72.440000 Y79.930000 Z0.200000 A2.499370 I7.1538 J0.2438
G1 X144.560000 Y79.930000 Z0.200000 A3.892040
G3 X151.470000 Y86.840000 Z0.200000 A4.099400 I-0.2438 J7.1538
G1 X151.470000 Y118.660000 Z0.200000 A4.713860
G3 X147.500000 Y124.810000 Z0.200000 A4.862130 I-7.1632 J-0.2677
G1 X137.240000 Y129.940000 Z0.200000 A5.083640
G3 X136.180000 Y130.320000 Z0.200000 A5.105400 I-2.9354 J-6.5198
G0 X136.020 Y129.740 F7800.000
G1 X112.220000 Y136.240000 Z0.200000 A5.581820 F540.000000
G3 X110.830000 Y136.470000 Z0.200000 A5.609080 I-1.6013 J-5.3620
G1 X72.720000 Y136.480000 Z0.200000 A6.345000
G3 X66.120000 Y129.880000 Z0.200000 A6.545100 I-0.0170 J-6.5830
G1 X66.120000 Y87.120000 Z0.200000 A7.370820
G3 X72.720000 Y80.520000 Z0.200000 A7.570930 I6.5830 J-0.0170
G1 X144.280000 Y80.520000 Z0.200000 A8.952790
G3 X150.880000 Y87.120000 Z0.200000 A9.152890 I0.0170 J6.5830
G1 X150.880000 Y118.380000 Z0.200000 A9.756540
G3 X147.230000 Y124.280000 Z0.200000 A9.897570 I-6.5708 J0.0140
G1 X137.230000 Y129.280000 Z0.200000 A10.113460
G3 X136.020000 Y129.740000 Z0.200000 A10.138500 I-2.6970 J-5.2729
G0 Z0.700 F1620.000 A9.13850
G0 X107.013 Y124.240 F7800.000
G0 Z0.200
G0 F5400.000 A10.13850
G1 X106.947000 Y124.503000 Z0.200000 A10.143740 F540.000000
G3 X107.066000 Y123.700000 Z0.200000 A10.463480 I-2.6274 J-0.7997
G1 X107.026000 Y124.151000 Z0.200000 A10.472220
G1 X107.013000 Y124.240000 Z0.200000 A10.473950
G0 X106.427 Y124.123 F7800.000
G1 X106.303000 Y124.530000 Z0.200000 A10.482160 F540.000000
G3 X106.468000 Y123.700000 Z0.200000 A10.728390 I-2.0010 J-0.8292
G1 X106.440000 Y124.034000 Z0.200000 A10.734870
G1 X106.427000 Y124.123000 Z0.200000 A10.736600
G0 X105.840 Y124.006 F7800.000
G1 X105.751000 Y124.301000 Z0.200000 A10.742550 F540.000000
G3 X105.870000 Y123.700000 Z0.200000 A10.920890 I-1.4430 J-0.5980
G1 X105.853000 Y123.918000 Z0.200000 A10.925110
G1 X105.840000 Y124.006000 Z0.200000 A10.926840
G0 X106.276 Y124.415 F7800.000
G0 Z0.700 F1620.000 A9.92684
G0 X101.564 Y104.814 F7800.000
G0 Z0.200
G0 F5400.000 A10.92684
G1 X80.136000 Y104.814000 Z0.200000 A11.340630 F540.000000
G1 X80.136000 Y100.792000 Z0.200000 A11.418300
G1 X79.703000 Y100.947000 Z0.200000 A11.427180
G3 X80.136000 Y95.808000 Z0.200000 A11.635240 I-0.7967 J-2.6549
G1 X80.136000 Y91.786000 Z0.200000 A11.712910
G1 X101.564000 Y91.786000 Z0.200000 A12.126700
G1 X101.564000 Y97.095000 Z0.200000 A12.229220
G1 X101.717000 Y97.145000 Z0.200000 A12.232330
G1 X102.162000 Y96.545000 Z0.200000 A12.246750
G3 X102.162000 Y100.055000 Z0.200000 A12.508840 I2.1368 J1.7550
G1 X101.717000 Y99.455000 Z0.200000 A12.523260
G1 X101.564000 Y99.505000 Z0.200000 A12.526370
G1 X101.564000 Y104.725000 Z0.200000 A12.627160
G1 X101.564000 Y104.814000 Z0.200000 A12.628890
G0 Z0.700 F1620.000 A11.62889
G0 X103.470 Y100.303 F7800.000
G0 Z0.200
G0 F5400.000 A12.62889
G1 X103.095000 Y100.103000 Z0.200000 A12.637090 F540.000000
G3 X103.877000 Y100.427000 Z0.200000 A12.883340 I1.2024 J-1.7963
G1 X103.555000 Y100.333000 Z0.200000 A12.889820
G1 X103.470000 Y100.303000 Z0.200000 A12.891550
G0 X103.699 Y99.751 F7800.000
G1 X103.428000 Y99.606000 Z0.200000 A12.897490 F540.000000
G3 X104.146000 Y99.863000 Z0.200000 A13.072860 I0.8721 J-1.3050
G1 X103.783000 Y99.781000 Z0.200000 A13.080040
G1 X103.699000 Y99.751000 Z0.200000 A13.081770
G0 X103.219 Y100.107 F7800.000
G0 Z0.700 F1620.000 A12.08177
G0 X100.967 Y104.217 F7800.000
G0 Z0.200
G0 F5400.000 A13.08177
G1 X80.733000 Y104.217000 Z0.200000 A13.472510 F540.000000
G1 X80.733000 Y99.637000 Z0.200000 A13.560960
G1 X80.105000 Y100.103000 Z0.200000 A13.576060
G3 X80.105000 Y96.497000 Z0.200000 A13.756690 I-1.1979 J-1.8030
G1 X80.733000 Y96.963000 Z0.200000 A13.771800
G1 X80.733000 Y92.383000 Z0.200000 A13.860250
G1 X100.967000 Y92.383000 Z0.200000 A14.250980
G1 X100.967000 Y104.217000 Z0.200000 A14.479500
G0 Z0.700 F1620.000 A13.47950
G0 X80.403 Y98.756 F7800.000
G0 Z0.200
G0 F5400.000 A14.47950
G1 X80.285000 Y99.040000 Z0.200000 A14.485450 F540.000000
G3 X80.403000 Y98.756000 Z0.200000 A14.669740 I-1.3845 J-0.7418
G0 X80.796 Y99.205 F7800.000
G0 Z0.700 F1620.000 A13.66974
G0 X81.330 Y103.620 F7800.000
G0 Z0.200
G0 F5400.000 A14.66974
G1 X81.330000 Y92.980000 Z0.200000 A14.875200 F378.000000
G1 X100.370000 Y92.980000 Z0.200000 A15.242870
G1 X100.370000 Y103.620000 Z0.200000 A15.448340
G1 X81.330000 Y103.620000 Z0.200000 A15.816010
G0 X80.733 Y103.620 F7800.000
G0 Z0.700 F1620.000 A14.81601
G0 X79.171 Y120.947 F7800.000
G0 Z0.200
G0 F5400.000 A15.81601
G1 X79.440000 Y120.987000 Z0.200000 A15.821250 F540.000000
G3 X78.629000 Y120.947000 Z0.200000 A16.140990 I-0.5399 J2.7049
G1 X79.082000 Y120.943000 Z0.200000 A16.149740
G1 X79.171000 Y120.947000 Z0.200000 A16.151470
G0 X79.113 Y121.542 F7800.000
G1 X79.529000 Y121.625000 Z0.200000 A16.159670 F540.000000
G3 X78.687000 Y121.542000 Z0.200000 A16.405910 I-0.6294 J2.0728
G1 X79.023000 Y121.538000 Z0.200000 A16.412400
G1 X79.113000 Y121.542000 Z0.200000 A16.414130
G0 X79.054 Y122.137 F7800.000
G1 X79.356000 Y122.197000 Z0.200000 A16.420070 F540.000000
G3 X78.594000 Y122.160000 Z0.200000 A16.595440 I-0.4545 J1.4946
G1 X78.964000 Y122.133000 Z0.200000 A16.602620
G1 X79.054000 Y122.137000 Z0.200000 A16.604350
G0 X79.410 Y121.658 F7800.000
G0 Z0.700 F1620.000 A15.60435
G0 X73.914 Y128.686 F7800.000
G0 Z0.200
G0 F5400.000 A16.60435
G1 X73.914000 Y88.314000 Z0.200000 A17.383950 F540.000000
G1 X143.086000 Y88.314000 Z0.200000 A18.719690
G1 X143.086000 Y108.736000 Z0.200000 A19.114050
G1 X134.140000 Y108.736000 Z0.200000 A19.286790
G1 X133.839000 Y107.924000 Z0.200000 A19.303520
G2 X134.140000 Y113.264000 Z0.200000 A20.152240 I-7.2367 J3.0864
G1 X143.086000 Y113.264000 Z0.200000 A20.324990
G1 X143.086000 Y117.186000 Z0.200000 A20.400720
G1 X133.086000 Y117.186000 Z0.200000 A20.593820
G1 X133.086000 Y122.186000 Z0.200000 A20.690380
G1 X115.414000 Y122.186000 Z0.200000 A21.031620
G1 X115.414000 Y117.186000 Z0.200000 A21.128180
G1 X109.286000 Y117.186000 Z0.200000 A21.246520
G1 X109.286000 Y128.686000 Z0.200000 A21.468590
G1 X74.004000 Y128.686000 Z0.200000 A22.149910
G1 X73.914000 Y128.686000 Z0.200000 A22.151630
G0 X73.317 Y129.283 F7800.000
G1 X73.317000 Y87.717000 Z0.200000 A22.954290 F540.000000
G1 X143.683000 Y87.717000 Z0.200000 A24.313090
G1 X143.683000 Y109.333000 Z0.200000 A24.730510
G1 X133.669000 Y109.333000 Z0.200000 A24.923880
G1 X133.528000 Y108.801000 Z0.200000 A24.934500
G2 X132.991000 Y114.461000 Z0.200000 A25.703280 I-6.9044 J2.2004
G1 X133.289000 Y113.842000 Z0.200000 A25.716530
G2 X133.669000 Y112.667000 Z0.200000 A25.740410 I-5.8609 J-2.5444
G1 X143.683000 Y112.667000 Z0.200000 A25.933790
G1 X143.683000 Y117.783000 Z0.200000 A26.032580
G1 X133.683000 Y117.783000 Z0.200000 A26.225680
G1 X133.683000 Y122.783000 Z0.200000 A26.322230
G1 X114.817000 Y122.783000 Z0.200000 A26.686540
G1 X114.817000 Y117.783000 Z0.200000 A26.783100
G1 X109.883000 Y117.783000 Z0.200000 A26.878380
G1 X109.883000 Y129.283000 Z0.200000 A27.100450
G1 X73.407000 Y129.283000 Z0.200000 A27.804820
G1 X73.317000 Y129.283000 Z0.200000 A27.806550
G0 X72.720 Y129.880 F7800.000
G1 X72.720000 Y87.120000 Z0.200000 A28.632270 F378.000000
G1 X144.280000 Y87.120000 Z0.200000 A30.014130
G1 X144.280000 Y109.930000 Z0.200000 A30.454610
G1 X133.177000 Y109.930000 Z0.200000 A30.669020
G1 X133.120000 Y109.591000 Z0.200000 A30.675660
G2 X133.120000 Y112.409000 Z0.200000 A31.429870 I-6.5181 J1.4090
G1 X133.176000 Y112.070000 Z0.200000 A31.436510
G1 X144.280000 Y112.070000 Z0.200000 A31.650920
G1 X144.280000 Y118.380000 Z0.200000 A31.772770
G1 X134.280000 Y118.380000 Z0.200000 A31.965880
G1 X134.280000 Y123.380000 Z0.200000 A32.062430
G1 X114.220000 Y123.380000 Z0.200000 A32.449800
G1 X114.220000 Y118.380000 Z0.200000 A32.546350
G1 X110.480000 Y118.380000 Z0.200000 A32.618570
G1 X110.480000 Y129.880000 Z0.200000 A32.840640
G1 X72.720000 Y129.880000 Z0.200000 A33.569810
G0 X73.019 Y129.363 F7800.000
G0 X74.511 Y128.357
G1 X74.511000 Y88.643000 Z0.200000 A34.342500 F720.000000
G1 X75.113000 Y88.643000 Z0.200000 A34.354200
G1 X75.113000 Y128.357000 Z0.200000 A35.126890
G1 X75.714000 Y128.357000 Z0.200000 A35.138590
G1 X75.714000 Y124.501000 Z0.200000 A35.213630
G1 X76.316000 Y125.583000 Z0.200000 A35.237720
G1 X76.316000 Y128.357000 Z0.200000 A35.291700
G1 X76.918000 Y128.357000 Z0.200000 A35.303400
G1 X76.918000 Y126.144000 Z0.200000 A35.346480
G1 X77.519000 Y126.495000 Z0.200000 A35.360020
G1 X77.519000 Y128.357000 Z0.200000 A35.396270
G1 X78.121000 Y128.357000 Z0.200000 A35.407970
G1 X78.121000 Y126.700000 Z0.200000 A35.440230
G1 X78.722000 Y126.786000 Z0.200000 A35.452050
G1 X78.722000 Y128.357000 Z0.200000 A35.482630
G1 X79.324000 Y128.357000 Z0.200000 A35.494330
G1 X79.324000 Y126.765000 Z0.200000 A35.525320
G1 X79.925000 Y126.633000 Z0.200000 A35.537300
G1 X79.925000 Y128.357000 Z0.200000 A35.570860
G1 X80.527000 Y128.357000 Z0.200000 A35.582560
G1 X80.527000 Y126.373000 Z0.200000 A35.621170
G1 X81.129000 Y125.946000 Z0.200000 A35.635530
G1 X81.129000 Y128.357000 Z0.200000 A35.682450
G1 X81.730000 Y128.357000 Z0.200000 A35.694150
G1 X81.730000 Y125.245000 Z0.200000 A35.754720
G0 Z0.700 F1620.000 A34.75472
G0 X81.730 Y122.155 F7800.000
G0 Z0.200
G0 F5400.000 A35.75472
G1 X81.730000 Y105.142000 Z0.200000 A36.085720 F720.000000
G1 X81.129000 Y105.142000 Z0.200000 A36.097430
G1 X81.129000 Y121.454000 Z0.200000 A36.414790
G1 X80.527000 Y121.027000 Z0.200000 A36.429140
G1 X80.527000 Y105.142000 Z0.200000 A36.738190
G1 X79.925000 Y105.142000 Z0.200000 A36.749890
G1 X79.925000 Y120.767000 Z0.200000 A37.053890
G1 X79.324000 Y120.635000 Z0.200000 A37.065870
G1 X79.324000 Y101.374000 Z0.200000 A37.440610
G1 X78.722000 Y101.386000 Z0.200000 A37.452320
G1 X78.722000 Y120.614000 Z0.200000 A37.826410
G1 X78.121000 Y120.700000 Z0.200000 A37.838230
G1 X78.121000 Y101.300000 Z0.200000 A38.215690
G1 X77.519000 Y101.095000 Z0.200000 A38.228060
G1 X77.519000 Y120.905000 Z0.200000 A38.613490
G1 X76.918000 Y121.256000 Z0.200000 A38.627040
G1 X76.918000 Y100.744000 Z0.200000 A39.026130
G1 X76.316000 Y100.183000 Z0.200000 A39.042130
G1 X76.316000 Y121.817000 Z0.200000 A39.463030
G1 X75.714000 Y122.899000 Z0.200000 A39.487130
G1 X75.714000 Y99.101000 Z0.200000 A39.950150
G0 X75.714 Y97.499 F7800.000
G1 X75.714000 Y88.643000 Z0.200000 A40.122470 F720.000000
G1 X76.316000 Y88.643000 Z0.200000 A40.134170
G1 X76.316000 Y96.417000 Z0.200000 A40.285430
G1 X76.918000 Y95.856000 Z0.200000 A40.301430
G1 X76.918000 Y88.643000 Z0.200000 A40.441780
G1 X77.519000 Y88.643000 Z0.200000 A40.453480
G1 X77.519000 Y95.505000 Z0.200000 A40.587000
G1 X78.121000 Y95.300000 Z0.200000 A40.599370
G1 X78.121000 Y88.643000 Z0.200000 A40.728900
G1 X78.722000 Y88.643000 Z0.200000 A40.740610
G1 X78.722000 Y95.214000 Z0.200000 A40.868460
G1 X79.324000 Y95.226000 Z0.200000 A40.880160
G1 X79.324000 Y88.643000 Z0.200000 A41.008250
G1 X79.925000 Y88.643000 Z0.200000 A41.019950
G1 X79.925000 Y91.458000 Z0.200000 A41.074720
G1 X80.527000 Y91.458000 Z0.200000 A41.086420
G1 X80.527000 Y88.643000 Z0.200000 A41.141190
G1 X81.129000 Y88.643000 Z0.200000 A41.152890
G1 X81.129000 Y91.458000 Z0.200000 A41.207660
G1 X81.730000 Y91.458000 Z0.200000 A41.219370
G1 X81.730000 Y88.643000 Z0.200000 A41.274140
G1 X82.332000 Y88.643000 Z0.200000 A41.285840
G1 X82.332000 Y91.458000 Z0.200000 A41.340610
G1 X82.933000 Y91.458000 Z0.200000 A41.352310
G1 X82.933000 Y88.643000 Z0.200000 A41.407080
G1 X83.535000 Y88.643000 Z0.200000 A41.418780
G1 X83.535000 Y91.458000 Z0.200000 A41.473550
G1 X84.136000 Y91.458000 Z0.200000 A41.485260
G1 X84.136000 Y88.643000 Z0.200000 A41.540030
G1 X84.738000 Y88.643000 Z0.200000 A41.551730
G1 X84.738000 Y91.458000 Z0.200000 A41.606500
G1 X85.340000 Y91.458000 Z0.200000 A41.618200
G1 X85.340000 Y88.643000 Z0.200000 A41.672970
G1 X85.941000 Y88.643000 Z0.200000 A41.684670
G1 X85.941000 Y91.458000 Z0.200000 A41.739440
G1 X86.543000 Y91.458000 Z0.200000 A41.751150
G1 X86.543000 Y88.643000 Z0.200000 A41.805910
G1 X87.144000 Y88.643000 Z0.200000 A41.817620
G1 X87.144000 Y91.458000 Z0.200000 A41.872390
G1 X87.746000 Y91.458000 Z0.200000 A41.884090
G1 X87.746000 Y88.643000 Z0.200000 A41.938860
G1 X88.347000 Y88.643000 Z0.200000 A41.950560
G1 X88.347000 Y91.458000 Z0.200000 A42.005330
G1 X88.949000 Y91.458000 Z0.200000 A42.017040
G1 X88.949000 Y88.643000 Z0.200000 A42.071800
G1 X89.551000 Y88.643000 Z0.200000 A42.083510
G1 X89.551000 Y91.458000 Z0.200000 A42.138280
G1 X90.152000 Y91.458000 Z0.200000 A42.149980
G1 X90.152000 Y88.643000 Z0.200000 A42.204750
G1 X90.754000 Y88.643000 Z0.200000 A42.216450
G1 X90.754000 Y91.458000 Z0.200000 A42.271220
G1 X91.355000 Y91.458000 Z0.200000 A42.282920
G1 X91.355000 Y88.643000 Z0.200000 A42.337690
G1 X91.957000 Y88.643000 Z0.200000 A42.349400
G1 X91.957000 Y91.458000 Z0.200000 A42.404170
G1 X92.558000 Y91.458000 Z0.200000 A42.415870
G1 X92.558000 Y88.643000 Z0.200000 A42.470640
G1 X93.160000 Y88.643000 Z0.200000 A42.482340
G1 X93.160000 Y91.458000 Z0.200000 A42.537110
G1 X93.762000 Y91.458000 Z0.200000 A42.548810
G1 X93.762000 Y88.643000 Z0.200000 A42.603580
G1 X94.363000 Y88.643000 Z0.200000 A42.615290
G1 X94.363000 Y91.458000 Z0.200000 A42.670060
G1 X94.965000 Y91.458000 Z0.200000 A42.681760
G1 X94.965000 Y88.643000 Z0.200000 A42.736530
G1 X95.566000 Y88.643000 Z0.200000 A42.748230
G1 X95.566000 Y91.458000 Z0.200000 A42.803000
G1 X96.168000 Y91.458000 Z0.200000 A42.814700
G1 X96.168000 Y88.643000 Z0.200000 A42.869470
G1 X96.769000 Y88.643000 Z0.200000 A42.881180
G1 X96.769000 Y91.458000 Z0.200000 A42.935940
G1 X97.371000 Y91.458000 Z0.200000 A42.947650
G1 X97.371000 Y88.643000 Z0.200000 A43.002420
G1 X97.972000 Y88.643000 Z0.200000 A43.014120
G1 X97.972000 Y91.458000 Z0.200000 A43.068890
G1 X98.574000 Y91.458000 Z0.200000 A43.080590
G1 X98.574000 Y88.643000 Z0.200000 A43.135360
G1 X99.176000 Y88.643000 Z0.200000 A43.147070
G1 X99.176000 Y91.458000 Z0.200000 A43.201830
G1 X99.777000 Y91.458000 Z0.200000 A43.213540
G1 X99.777000 Y88.643000 Z0.200000 A43.268310
G1 X100.379000 Y88.643000 Z0.200000 A43.280010
G1 X100.379000 Y91.458000 Z0.200000 A43.334780
G1 X100.980000 Y91.458000 Z0.200000 A43.346480
G1 X100.980000 Y88.643000 Z0.200000 A43.401250
G1 X101.582000 Y88.643000 Z0.200000 A43.412960
G1 X101.582000 Y91.458000 Z0.200000 A43.467720
G1 X102.184000 Y88.643000 Z0.200000 A43.523730
G1 X102.184000 Y95.920000 Z0.200000 A43.665320
G1 X102.785000 Y95.569000 Z0.200000 A43.678880
G1 X102.785000 Y88.643000 Z0.200000 A43.813640
