; generated by Slic3r 0.9.9 on 2013-08-09 at 15:04:03

; layer_height = 0.2
; perimeters = 3
; top_solid_layers = 3
; bottom_solid_layers = 3
; fill_density = 0.25
; perimeter_speed = 20
; infill_speed = 40
; travel_speed = 130
; nozzle_diameter = 0.4
; filament_diameter = 2.95
; extrusion_multiplier = 1.105263
; perimeters extrusion width = 0.56mm
; infill extrusion width = 0.56mm
; solid infill extrusion width = 0.56mm
; top infill extrusion width = 0.56mm

G21 ; set units to millimeters
M190 P115 ; wait for bed temperature to be reached
M104 P210 ; set temperature
G92 A0                  ; Reset A to 0
G40                        ; Cancel cutter compensation
G64 P0.1                ; Path Blend within .1mm
G0 X108.5 Y200    ; Move to plate
M109 P210 ; wait for temperature to be reached
G90 ; use absolute coordinates
G0 Z0.200 F5400.000 A-2.00000
o<wipe_nozzle> call
G0 X92.385 Y94.510 F7800.000
G0 F5400.000 A0.00000
G1 X93.005000 Y93.960000 Z0.200000 A0.014090 F360.000000
G3 X97.095000 Y92.450000 Z0.200000 A0.089390 I4.3731 J5.5510
G1 X119.905000 Y92.450000 Z0.200000 A0.477170
G3 X126.675000 Y99.220000 Z0.200000 A0.655950 I-0.2749 J7.0449
G1 X126.675000 Y117.780000 Z0.200000 A0.971490
G3 X119.905000 Y124.550000 Z0.200000 A1.150270 I-7.0449 J-0.2749
G1 X97.095000 Y124.550000 Z0.200000 A1.538060
G3 X90.325000 Y117.780000 Z0.200000 A1.716840 I0.2749 J-7.0449
G1 X90.325000 Y99.220000 Z0.200000 A2.032370
G3 X92.331000 Y94.567000 Z0.200000 A2.120420 I7.0341 J0.2736
G0 X92.665 Y94.980 F7800.000
G1 X93.045000 Y94.620000 Z0.200000 A2.129320 F360.000000
G3 X97.375000 Y92.970000 Z0.200000 A2.209840 I4.2932 J4.7599
G1 X119.885000 Y92.980000 Z0.200000 A2.592520
G3 X126.155000 Y99.500000 Z0.200000 A2.762360 I-0.2233 J6.4895
G1 X126.145000 Y117.760000 Z0.200000 A3.072800
G3 X119.625000 Y124.030000 Z0.200000 A3.242630 I-6.4895 J-0.2233
G1 X97.115000 Y124.020000 Z0.200000 A3.625320
G3 X90.845000 Y117.500000 Z0.200000 A3.795160 I0.2233 J-6.4895
G1 X90.845000 Y99.500000 Z0.200000 A4.101180
G3 X92.612000 Y95.039000 Z0.200000 A4.184680 I6.5215 J0.0027
G0 Z0.700 F1620.000 A2.18468
G0 X103.381 Y101.195 F7800.000
G0 Z0.200
G0 F5400.000 A4.18468
G1 X103.381000 Y107.374000 Z0.200000 A4.292360 F720.000000
G1 X103.920000 Y105.894000 Z0.200000 A4.319800
G1 X103.920000 Y101.195000 Z0.200000 A4.401690
G1 X104.459000 Y101.195000 Z0.200000 A4.411080
G1 X104.459000 Y104.995000 Z0.200000 A4.477300
G1 X104.998000 Y104.320000 Z0.200000 A4.492360
G1 X104.998000 Y101.195000 Z0.200000 A4.546810
G1 X105.536000 Y101.195000 Z0.200000 A4.556200
G1 X105.536000 Y103.790000 Z0.200000 A4.601420
G1 X106.075000 Y103.315000 Z0.200000 A4.613950
G1 X106.075000 Y101.195000 Z0.200000 A4.650890
G1 X106.614000 Y101.195000 Z0.200000 A4.660280
G1 X106.614000 Y103.315000 Z0.200000 A4.697220
G1 X107.153000 Y103.315000 Z0.200000 A4.706610
G1 X107.153000 Y101.195000 Z0.200000 A4.743540
G1 X107.692000 Y101.195000 Z0.200000 A4.752930
G1 X107.692000 Y103.315000 Z0.200000 A4.789870
G1 X108.231000 Y103.315000 Z0.200000 A4.799260
G1 X108.231000 Y101.195000 Z0.200000 A4.836200
G1 X108.769000 Y101.195000 Z0.200000 A4.845590
G1 X108.769000 Y103.315000 Z0.200000 A4.882530
G1 X109.308000 Y103.315000 Z0.200000 A4.891920
G1 X109.308000 Y101.195000 Z0.200000 A4.928860
G1 X109.847000 Y101.195000 Z0.200000 A4.938250
G1 X109.847000 Y103.315000 Z0.200000 A4.975190
G1 X110.386000 Y103.315000 Z0.200000 A4.984580
G1 X110.386000 Y101.195000 Z0.200000 A5.021520
G1 X110.925000 Y101.195000 Z0.200000 A5.030910
G1 X110.925000 Y103.315000 Z0.200000 A5.067850
G1 X111.464000 Y103.315000 Z0.200000 A5.077240
G1 X111.464000 Y101.195000 Z0.200000 A5.114180
G1 X112.002000 Y101.195000 Z0.200000 A5.123570
G1 X112.002000 Y103.315000 Z0.200000 A5.160510
G1 X112.541000 Y103.315000 Z0.200000 A5.169900
G1 X112.541000 Y101.195000 Z0.200000 A5.206840
G1 X113.080000 Y101.195000 Z0.200000 A5.216230
G1 X113.080000 Y103.315000 Z0.200000 A5.253160
G1 X113.619000 Y103.315000 Z0.200000 A5.262550
G1 X113.619000 Y101.195000 Z0.200000 A5.299490
G1 X114.158000 Y101.195000 Z0.200000 A5.308880
G1 X114.158000 Y103.315000 Z0.200000 A5.345820
G1 X114.697000 Y103.773000 Z0.200000 A5.358150
G1 X114.697000 Y101.195000 Z0.200000 A5.403070
G1 X115.236000 Y101.195000 Z0.200000 A5.412460
G1 X115.236000 Y104.295000 Z0.200000 A5.466490
G1 X115.774000 Y104.963000 Z0.200000 A5.481440
G1 X115.774000 Y101.195000 Z0.200000 A5.547100
G1 X116.313000 Y101.195000 Z0.200000 A5.556490
G1 X116.313000 Y105.859000 Z0.200000 A5.637770
G1 X116.852000 Y107.289000 Z0.200000 A5.664400
G1 X116.852000 Y101.195000 Z0.200000 A5.770600
G1 X117.391000 Y101.195000 Z0.200000 A5.779990
G1 X117.391000 Y115.805000 Z0.200000 A6.034590
G1 X116.852000 Y115.805000 Z0.200000 A6.043980
G1 X116.852000 Y110.693000 Z0.200000 A6.133060
G1 X116.313000 Y112.130000 Z0.200000 A6.159810
G1 X116.313000 Y115.805000 Z0.200000 A6.223840
G1 X115.774000 Y115.805000 Z0.200000 A6.233240
G1 X115.774000 Y113.025000 Z0.200000 A6.281680
G1 X115.236000 Y113.697000 Z0.200000 A6.296690
G1 X115.236000 Y115.805000 Z0.200000 A6.333420
G1 X114.697000 Y115.805000 Z0.200000 A6.342810
G1 X114.697000 Y114.216000 Z0.200000 A6.370500
G1 X114.158000 Y114.641000 Z0.200000 A6.382470
G1 X114.158000 Y115.805000 Z0.200000 A6.402740
G1 X113.619000 Y115.805000 Z0.200000 A6.412130
G1 X113.619000 Y114.995000 Z0.200000 A6.426250
G1 X113.080000 Y115.285000 Z0.200000 A6.436910
G1 X113.080000 Y115.805000 Z0.200000 A6.445970
G1 X112.541000 Y115.576000 Z0.200000 A6.456360
G0 X107.692 Y115.581 F7800.000
G1 X107.692000 Y115.644000 Z0.200000 A6.457460 F720.000000
G1 X107.153000 Y115.805000 Z0.200000 A6.467260
G1 X107.153000 Y115.282000 Z0.200000 A6.476360
G1 X106.614000 Y114.983000 Z0.200000 A6.487110
G1 X106.614000 Y115.805000 Z0.200000 A6.501430
G1 X106.075000 Y115.805000 Z0.200000 A6.510820
G1 X106.075000 Y114.629000 Z0.200000 A6.531310
G1 X105.536000 Y114.204000 Z0.200000 A6.543260
G1 X105.536000 Y115.805000 Z0.200000 A6.571150
G1 X104.998000 Y115.805000 Z0.200000 A6.580540
G1 X104.998000 Y113.683000 Z0.200000 A6.617520
G1 X104.459000 Y112.999000 Z0.200000 A6.632690
G1 X104.459000 Y115.805000 Z0.200000 A6.681590
G1 X103.920000 Y115.805000 Z0.200000 A6.690980
G1 X103.920000 Y112.102000 Z0.200000 A6.755510
G1 X103.381000 Y110.658000 Z0.200000 A6.782360
G1 X103.381000 Y115.805000 Z0.200000 A6.872050
G1 X102.842000 Y115.805000 Z0.200000 A6.881440
G1 X102.842000 Y101.195000 Z0.200000 A7.136040
G1 X102.303000 Y101.195000 Z0.200000 A7.145430
G1 X102.303000 Y115.805000 Z0.200000 A7.400030
G1 X101.764000 Y115.805000 Z0.200000 A7.409430
G1 X101.764000 Y101.195000 Z0.200000 A7.664030
G1 X101.226000 Y101.195000 Z0.200000 A7.673420
G1 X101.226000 Y115.805000 Z0.200000 A7.928020
G1 X100.687000 Y115.805000 Z0.200000 A7.937410
G1 X100.687000 Y101.195000 Z0.200000 A8.192010
G1 X100.148000 Y101.195000 Z0.200000 A8.201400
G1 X100.148000 Y115.805000 Z0.200000 A8.456000
G1 X99.609000 Y115.805000 Z0.200000 A8.465390
G1 X99.609000 Y101.195000 Z0.200000 A8.719990
G1 X99.070000 Y101.195000 Z0.200000 A8.729380
G1 X99.070000 Y115.805000 Z0.200000 A8.983980
G0 X117.930 Y115.805 F7800.000
G1 X117.930000 Y101.195000 Z0.200000 A9.238590 F720.000000
G0 Z0.700 F1620.000 A7.23859
G0 X107.479 Y115.811 F7800.000
G0 Z0.200
G0 F5400.000 A9.23859
G1 X107.743000 Y115.811000 Z0.200000 A9.240840 F360.000000
G1 X107.743000 Y115.510000 Z0.200000 A9.243400
G1 X108.007000 Y115.607000 Z0.200000 A9.245800
G1 X108.007000 Y115.811000 Z0.200000 A9.247540
G1 X108.271000 Y115.811000 Z0.200000 A9.249790
G1 X108.271000 Y115.677000 Z0.200000 A9.250930
G1 X108.534000 Y115.746000 Z0.200000 A9.253260
G1 X108.534000 Y115.811000 Z0.200000 A9.253810
G1 X108.798000 Y115.811000 Z0.200000 A9.256060
G0 X111.447 Y115.811 F7800.000
G1 X111.711000 Y115.811000 Z0.200000 A9.258320 F360.000000
G1 X111.711000 Y115.745000 Z0.200000 A9.258890
G1 X111.975000 Y115.811000 Z0.200000 A9.261210
G1 X111.975000 Y115.680000 Z0.200000 A9.262340
G1 X112.240000 Y115.609000 Z0.200000 A9.264680
G1 X112.240000 Y115.811000 Z0.200000 A9.266410
G1 X112.504000 Y115.811000 Z0.200000 A9.268670
G1 X112.504000 Y115.509000 Z0.200000 A9.271250
G1 X112.768000 Y115.811000 Z0.200000 A9.274680
G0 X112.170 Y115.236 F7800.000
G1 X111.280000 Y115.463000 Z0.200000 A9.290300 F360.000000
G3 X106.187000 Y103.696000 Z0.200000 A9.589290 I-1.1534 J-6.4864
G1 X114.070000 Y103.696000 Z0.200000 A9.723300
G3 X112.244000 Y115.208000 Z0.200000 A9.965750 I-3.9772 J5.2700
G0 X111.988 Y114.743 F7800.000
G1 X111.195000 Y114.943000 Z0.200000 A9.979660 F360.000000
G3 X106.397000 Y104.222000 Z0.200000 A10.252350 I-1.0700 J-5.9553
G1 X113.857000 Y104.222000 Z0.200000 A10.379160
G3 X112.062000 Y114.714000 Z0.200000 A10.599960 I-3.7477 J4.7584
G0 X111.806 Y114.250 F7800.000
G1 X111.111000 Y114.424000 Z0.200000 A10.612140 F360.000000
G3 X106.608000 Y104.747000 Z0.200000 A10.858540 I-0.9881 J-5.4264
G1 X113.644000 Y104.747000 Z0.200000 A10.978150
G3 X111.880000 Y114.221000 Z0.200000 A11.177300 I-3.5211 J4.2456
G0 X111.683 Y114.761 F7800.000
G0 X118.311 Y116.186
G1 X98.689000 Y116.186000 Z0.200000 A11.510890 F360.000000
G1 X98.689000 Y100.814000 Z0.200000 A11.772220
G1 X118.311000 Y100.814000 Z0.200000 A12.105800
G1 X118.311000 Y116.107000 Z0.200000 A12.365790
G0 X118.837 Y116.712 F7800.000
G1 X98.163000 Y116.712000 Z0.200000 A12.717250 F360.000000
G1 X98.163000 Y100.288000 Z0.200000 A12.996460
G1 X118.837000 Y100.288000 Z0.200000 A13.347910
G1 X118.837000 Y116.633000 Z0.200000 A13.625780
G0 X119.362 Y117.237 F7800.000
G1 X97.638000 Y117.237000 Z0.200000 A13.995110 F252.000000
G1 X97.638000 Y99.763000 Z0.200000 A14.292190
G1 X119.362000 Y99.763000 Z0.200000 A14.661520
G1 X119.362000 Y117.158000 Z0.200000 A14.957260
G0 X118.907 Y116.974 F7800.000
M140 P110 ; set bed temperature
G0 Z0.400 F5400.000 A12.95726
o<wipe_nozzle> call
G0 X119.905 Y124.550 F7800.000
G0 F5400.000 A14.95726
G1 X97.095000 Y124.550000 Z0.400000 A15.345040 F1200.000000
G3 X90.325000 Y117.780000 Z0.400000 A15.523820 I0.2749 J-7.0449
G1 X90.325000 Y99.220000 Z0.400000 A15.839360
G3 X97.095000 Y92.450000 Z0.400000 A16.018130 I7.0449 J0.2749
G1 X119.905000 Y92.450000 Z0.400000 A16.405920
G3 X126.675000 Y99.220000 Z0.400000 A16.584690 I-0.2749 J7.0449
G1 X126.675000 Y117.780000 Z0.400000 A16.900230
G3 X119.984000 Y124.544000 Z0.400000 A17.077660 I-7.0419 J-0.2745
G0 X119.885 Y124.020 F7800.000
G1 X97.115000 Y124.020000 Z0.400000 A17.464770 F1200.000000
G3 X90.845000 Y117.500000 Z0.400000 A17.634610 I0.2233 J-6.4895
G1 X90.845000 Y99.500000 Z0.400000 A17.940630
G3 X97.115000 Y92.980000 Z0.400000 A18.110470 I6.5208 J-0.0040
G1 X119.625000 Y92.970000 Z0.400000 A18.493160
G3 X126.155000 Y99.500000 Z0.400000 A18.667410 I0.0021 J6.5279
G1 X126.155000 Y117.500000 Z0.400000 A18.973430
G3 X119.964000 Y124.014000 Z0.400000 A19.141930 I-6.5170 J0.0051
G0 Z0.900 F5400.000 A17.14193
G0 X117.930 Y115.805 F7800.000
G0 Z0.400
G0 F5400.000 A19.14193
G1 X112.595000 Y115.805000 Z0.400000 A19.235280 F2400.000000
G1 X113.121000 Y115.264000 Z0.400000 A19.248480
G1 X117.930000 Y115.264000 Z0.400000 A19.332640
G1 X117.930000 Y114.723000 Z0.400000 A19.342110
G1 X114.044000 Y114.723000 Z0.400000 A19.410120
G1 X114.733000 Y114.181000 Z0.400000 A19.425460
G1 X117.930000 Y114.181000 Z0.400000 A19.481390
G1 X117.930000 Y113.640000 Z0.400000 A19.490860
G1 X115.282000 Y113.640000 Z0.400000 A19.537210
G1 X115.729000 Y113.099000 Z0.400000 A19.549490
G1 X117.930000 Y113.099000 Z0.400000 A19.588010
G1 X117.930000 Y112.558000 Z0.400000 A19.597480
G1 X116.084000 Y112.558000 Z0.400000 A19.629790
G1 X116.368000 Y112.017000 Z0.400000 A19.640480
G1 X117.930000 Y112.017000 Z0.400000 A19.667810
G1 X117.930000 Y111.476000 Z0.400000 A19.677280
G1 X116.607000 Y111.476000 Z0.400000 A19.700430
G1 X116.791000 Y110.935000 Z0.400000 A19.710440
G1 X117.930000 Y110.935000 Z0.400000 A19.730360
G1 X117.930000 Y110.394000 Z0.400000 A19.739830
G1 X116.913000 Y110.394000 Z0.400000 A19.757610
G1 X117.015000 Y109.853000 Z0.400000 A19.767250
G1 X117.930000 Y109.853000 Z0.400000 A19.783250
G1 X117.930000 Y109.312000 Z0.400000 A19.792720
G1 X117.056000 Y109.312000 Z0.400000 A19.808010
G1 X117.052000 Y108.771000 Z0.400000 A19.817480
G1 X117.930000 Y108.771000 Z0.400000 A19.832830
G1 X117.930000 Y108.229000 Z0.400000 A19.842300
G1 X117.025000 Y108.229000 Z0.400000 A19.858140
G1 X116.935000 Y107.688000 Z0.400000 A19.867740
G1 X117.930000 Y107.688000 Z0.400000 A19.885140
G1 X117.930000 Y107.147000 Z0.400000 A19.894610
G1 X116.807000 Y107.147000 Z0.400000 A19.914260
G1 X116.637000 Y106.606000 Z0.400000 A19.924180
G1 X117.930000 Y106.606000 Z0.400000 A19.946810
G1 X117.930000 Y106.065000 Z0.400000 A19.956280
G1 X116.407000 Y106.065000 Z0.400000 A19.982920
G1 X116.125000 Y105.524000 Z0.400000 A19.993600
G1 X117.930000 Y105.524000 Z0.400000 A20.025180
G1 X117.930000 Y104.983000 Z0.400000 A20.034650
G1 X115.786000 Y104.983000 Z0.400000 A20.072170
G1 X115.354000 Y104.442000 Z0.400000 A20.084280
G1 X117.930000 Y104.442000 Z0.400000 A20.129350
G1 X117.930000 Y103.901000 Z0.400000 A20.138820
G1 X114.829000 Y103.901000 Z0.400000 A20.193090
G1 X114.270000 Y103.360000 Z0.400000 A20.206700
G1 X117.930000 Y103.360000 Z0.400000 A20.270740
G1 X117.930000 Y102.819000 Z0.400000 A20.280210
G1 X99.070000 Y102.819000 Z0.400000 A20.610240
G1 X99.070000 Y103.360000 Z0.400000 A20.619710
G1 X105.988000 Y103.360000 Z0.400000 A20.740760
G1 X105.421000 Y103.901000 Z0.400000 A20.754470
G1 X99.070000 Y103.901000 Z0.400000 A20.865610
G1 X99.070000 Y104.442000 Z0.400000 A20.875080
G1 X104.895000 Y104.442000 Z0.400000 A20.977020
G1 X104.467000 Y104.983000 Z0.400000 A20.989100
G1 X99.070000 Y104.983000 Z0.400000 A21.083540
G1 X99.070000 Y105.524000 Z0.400000 A21.093010
G1 X104.115000 Y105.524000 Z0.400000 A21.181290
G1 X103.830000 Y106.065000 Z0.400000 A21.191990
G1 X99.070000 Y106.065000 Z0.400000 A21.275280
G1 X99.070000 Y106.606000 Z0.400000 A21.284750
G1 X103.611000 Y106.606000 Z0.400000 A21.364220
G1 X103.444000 Y107.147000 Z0.400000 A21.374130
G1 X99.070000 Y107.147000 Z0.400000 A21.450670
G1 X99.070000 Y107.688000 Z0.400000 A21.460140
G1 X103.310000 Y107.688000 Z0.400000 A21.534330
G1 X103.224000 Y108.229000 Z0.400000 A21.543920
G1 X99.070000 Y108.229000 Z0.400000 A21.616610
G1 X99.070000 Y108.771000 Z0.400000 A21.626080
G1 X103.190000 Y108.771000 Z0.400000 A21.698180
G1 X103.197000 Y109.312000 Z0.400000 A21.707650
G1 X99.070000 Y109.312000 Z0.400000 A21.779870
G1 X99.070000 Y109.853000 Z0.400000 A21.789340
G1 X103.234000 Y109.853000 Z0.400000 A21.862210
G1 X103.335000 Y110.394000 Z0.400000 A21.871840
G1 X99.070000 Y110.394000 Z0.400000 A21.946480
G1 X99.070000 Y110.935000 Z0.400000 A21.955950
G1 X103.462000 Y110.935000 Z0.400000 A22.032800
G1 X103.637000 Y111.476000 Z0.400000 A22.042750
G1 X99.070000 Y111.476000 Z0.400000 A22.122660
G1 X99.070000 Y112.017000 Z0.400000 A22.132130
G1 X103.882000 Y112.017000 Z0.400000 A22.216330
G1 X104.182000 Y112.558000 Z0.400000 A22.227160
G1 X99.070000 Y112.558000 Z0.400000 A22.316610
G1 X99.070000 Y113.099000 Z0.400000 A22.326080
G1 X104.525000 Y113.099000 Z0.400000 A22.421540
G1 X104.962000 Y113.640000 Z0.400000 A22.433710
G1 X99.070000 Y113.640000 Z0.400000 A22.536810
G1 X99.070000 Y114.181000 Z0.400000 A22.546280
G1 X105.512000 Y114.181000 Z0.400000 A22.659010
G1 X106.204000 Y114.723000 Z0.400000 A22.674380
G1 X99.070000 Y114.723000 Z0.400000 A22.799210
G1 X99.070000 Y115.264000 Z0.400000 A22.808680
G1 X107.119000 Y115.264000 Z0.400000 A22.949540
G1 X107.650000 Y115.805000 Z0.400000 A22.962800
G1 X99.070000 Y115.805000 Z0.400000 A23.112940
G0 X99.070 Y102.277 F7800.000
G1 X117.930000 Y102.277000 Z0.400000 A23.442980 F2400.000000
G1 X117.930000 Y101.736000 Z0.400000 A23.452450
