; generated by Slic3r 0.9.9 on 2013-08-01 at 10:24:32

; layer_height = 0.2
; perimeters = 3
; top_solid_layers = 3
; bottom_solid_layers = 3
; fill_density = 1
; perimeter_speed = 20
; infill_speed = 40
; travel_speed = 130
; nozzle_diameter = 0.4
; filament_diameter = 2.95
; extrusion_multiplier = 1.105263
; perimeters extrusion width = 0.56mm
; infill extrusion width = 0.56mm
; solid infill extrusion width = 0.56mm
; top infill extrusion width = 0.56mm

G21 ; set units to millimeters
M190 P115 ; wait for bed temperature to be reached
M104 P210 ; set temperature
G92 A0                  ; Reset A to 0
G40                        ; Cancel cutter compensation
G64 P0.1                ; Path Blend within .1mm
G0 X108.5 Y200    ; Move to plate
M109 P210 ; wait for temperature to be reached
G90 ; use absolute coordinates
G0 Z0.200 F5400.000 A-2.00000
o<wipe_nozzle> call
G0 X92.510 Y91.010 F7800.000
G0 F5400.000 A0.00000
G1 X93.130000 Y90.460000 Z0.200000 A0.014090 F360.000000
G3 X97.220000 Y88.950000 Z0.200000 A0.089390 I4.3725 J5.5494
G1 X119.780000 Y88.950000 Z0.200000 A0.472930
G3 X126.550000 Y95.720000 Z0.200000 A0.651700 I-0.2749 J7.0449
G1 X126.550000 Y121.270000 Z0.200000 A1.086070
G3 X119.780000 Y128.040000 Z0.200000 A1.264850 I-7.0449 J-0.2749
G1 X97.220000 Y128.040000 Z0.200000 A1.648380
G3 X90.450000 Y121.270000 Z0.200000 A1.827160 I0.2749 J-7.0449
G1 X90.450000 Y95.720000 Z0.200000 A2.261530
G3 X92.456000 Y91.067000 Z0.200000 A2.349580 I7.0341 J0.2736
G0 X92.790 Y91.480 F7800.000
G1 X93.170000 Y91.120000 Z0.200000 A2.358470 F360.000000
G3 X97.500000 Y89.470000 Z0.200000 A2.438990 I4.2932 J4.7599
G1 X119.500000 Y89.470000 Z0.200000 A2.813010
G3 X126.020000 Y95.740000 Z0.200000 A2.982840 I0.0040 J6.5208
G1 X126.030000 Y120.990000 Z0.200000 A3.412110
G3 X119.760000 Y127.510000 Z0.200000 A3.581950 I-6.5208 J0.0040
G1 X97.500000 Y127.520000 Z0.200000 A3.960390
G3 X90.970000 Y120.990000 Z0.200000 A4.134650 I-0.0021 J-6.5279
G1 X90.980000 Y95.740000 Z0.200000 A4.563920
G3 X92.737000 Y91.539000 Z0.200000 A4.643010 I6.4226 J0.2182
G0 Z0.700 F1620.000 A2.64301
G0 X99.195 Y97.695 F7800.000
G0 Z0.200
G0 F5400.000 A4.64301
G1 X99.195000 Y101.140000 Z0.200000 A4.702250 F720.000000
G1 X99.727000 Y100.658000 Z0.200000 A4.714590
G1 X99.727000 Y97.695000 Z0.200000 A4.765540
G1 X100.259000 Y97.695000 Z0.200000 A4.774680
G1 X100.259000 Y100.252000 Z0.200000 A4.818640
G1 X100.790000 Y100.020000 Z0.200000 A4.828620
G1 X100.790000 Y97.695000 Z0.200000 A4.868590
G1 X101.322000 Y97.695000 Z0.200000 A4.877730
G1 X101.322000 Y99.914000 Z0.200000 A4.915890
G1 X101.854000 Y99.931000 Z0.200000 A4.925040
G1 X101.854000 Y97.695000 Z0.200000 A4.963490
G1 X102.385000 Y97.695000 Z0.200000 A4.972640
G1 X102.385000 Y100.073000 Z0.200000 A5.013530
G1 X102.917000 Y100.367000 Z0.200000 A5.023980
G1 X102.917000 Y97.695000 Z0.200000 A5.069930
G1 X103.449000 Y97.695000 Z0.200000 A5.079070
G1 X103.449000 Y100.875000 Z0.200000 A5.133740
G0 X103.449 Y103.825 F7800.000
G1 X103.449000 Y119.305000 Z0.200000 A5.399920 F720.000000
G1 X102.917000 Y119.305000 Z0.200000 A5.409070
G1 X102.917000 Y104.333000 Z0.200000 A5.666530
G1 X102.385000 Y104.627000 Z0.200000 A5.676980
G1 X102.385000 Y119.305000 Z0.200000 A5.929380
G1 X101.854000 Y119.305000 Z0.200000 A5.938520
G1 X101.854000 Y104.769000 Z0.200000 A6.188490
G1 X101.322000 Y104.786000 Z0.200000 A6.197640
G1 X101.322000 Y119.305000 Z0.200000 A6.447310
G1 X100.790000 Y119.305000 Z0.200000 A6.456450
G1 X100.790000 Y104.680000 Z0.200000 A6.707940
G1 X100.259000 Y104.448000 Z0.200000 A6.717910
G1 X100.259000 Y119.305000 Z0.200000 A6.973380
G1 X99.727000 Y119.305000 Z0.200000 A6.982520
G1 X99.727000 Y104.042000 Z0.200000 A7.244990
G1 X99.195000 Y103.560000 Z0.200000 A7.257320
G1 X99.195000 Y119.305000 Z0.200000 A7.528070
G0 Z0.700 F1620.000 A5.52807
G0 X113.551 Y119.305 F7800.000
G0 Z0.200
G0 F5400.000 A7.52807
G1 X113.551000 Y103.825000 Z0.200000 A7.794260 F720.000000
G1 X114.083000 Y104.333000 Z0.200000 A7.806890
G1 X114.083000 Y119.305000 Z0.200000 A8.064350
G1 X114.615000 Y119.305000 Z0.200000 A8.073500
G1 X114.615000 Y104.620000 Z0.200000 A8.326020
G1 X115.146000 Y104.763000 Z0.200000 A8.335490
G1 X115.146000 Y119.305000 Z0.200000 A8.585550
G1 X115.678000 Y119.305000 Z0.200000 A8.594700
G1 X115.678000 Y104.788000 Z0.200000 A8.844320
G1 X116.210000 Y104.680000 Z0.200000 A8.853650
G1 X116.210000 Y119.305000 Z0.200000 A9.105140
G1 X116.741000 Y119.305000 Z0.200000 A9.114280
G1 X116.741000 Y104.448000 Z0.200000 A9.369750
G1 X117.273000 Y104.042000 Z0.200000 A9.381260
G1 X117.273000 Y119.305000 Z0.200000 A9.643730
G1 X117.805000 Y119.305000 Z0.200000 A9.652870
G1 X117.805000 Y103.560000 Z0.200000 A9.923620
G0 X117.805 Y101.140 F7800.000
G1 X117.805000 Y97.695000 Z0.200000 A9.982860 F720.000000
G1 X117.273000 Y97.695000 Z0.200000 A9.992000
G1 X117.273000 Y100.658000 Z0.200000 A10.042950
G1 X116.741000 Y100.250000 Z0.200000 A10.054480
G1 X116.741000 Y97.695000 Z0.200000 A10.098410
G1 X116.210000 Y97.695000 Z0.200000 A10.107550
G1 X116.210000 Y100.020000 Z0.200000 A10.147530
G1 X115.678000 Y99.912000 Z0.200000 A10.156860
G1 X115.678000 Y97.695000 Z0.200000 A10.194970
G1 X115.146000 Y97.695000 Z0.200000 A10.204110
G1 X115.146000 Y99.937000 Z0.200000 A10.242670
G1 X114.615000 Y100.073000 Z0.200000 A10.252100
G1 X114.615000 Y97.695000 Z0.200000 A10.293000
G1 X114.083000 Y97.695000 Z0.200000 A10.302140
G1 X114.083000 Y100.358000 Z0.200000 A10.347930
G1 X113.551000 Y100.882000 Z0.200000 A10.360770
G1 X113.551000 Y97.695000 Z0.200000 A10.415570
G1 X113.019000 Y97.695000 Z0.200000 A10.424710
G1 X113.019000 Y119.305000 Z0.200000 A10.796310
G1 X112.488000 Y119.305000 Z0.200000 A10.805460
G1 X112.488000 Y97.695000 Z0.200000 A11.177050
G1 X111.956000 Y97.695000 Z0.200000 A11.186200
G1 X111.956000 Y119.305000 Z0.200000 A11.557800
G1 X111.424000 Y119.305000 Z0.200000 A11.566940
G1 X111.424000 Y97.695000 Z0.200000 A11.938540
G1 X110.893000 Y97.695000 Z0.200000 A11.947680
G1 X110.893000 Y119.305000 Z0.200000 A12.319280
G1 X110.361000 Y119.305000 Z0.200000 A12.328420
G1 X110.361000 Y97.695000 Z0.200000 A12.700020
G1 X109.829000 Y97.695000 Z0.200000 A12.709160
G1 X109.829000 Y119.305000 Z0.200000 A13.080760
G1 X109.298000 Y119.305000 Z0.200000 A13.089910
G1 X109.298000 Y97.695000 Z0.200000 A13.461500
G1 X108.766000 Y97.695000 Z0.200000 A13.470650
G1 X108.766000 Y119.305000 Z0.200000 A13.842250
G1 X108.234000 Y119.305000 Z0.200000 A13.851390
G1 X108.234000 Y97.695000 Z0.200000 A14.222990
G1 X107.702000 Y97.695000 Z0.200000 A14.232130
G1 X107.702000 Y119.305000 Z0.200000 A14.603730
G1 X107.171000 Y119.305000 Z0.200000 A14.612870
G1 X107.171000 Y97.695000 Z0.200000 A14.984470
G1 X106.639000 Y97.695000 Z0.200000 A14.993620
G1 X106.639000 Y119.305000 Z0.200000 A15.365210
G1 X106.107000 Y119.305000 Z0.200000 A15.374360
G1 X106.107000 Y97.695000 Z0.200000 A15.745960
G1 X105.576000 Y97.695000 Z0.200000 A15.755100
G1 X105.576000 Y119.305000 Z0.200000 A16.126700
G1 X105.044000 Y119.305000 Z0.200000 A16.135840
G1 X105.044000 Y97.695000 Z0.200000 A16.507440
G1 X104.512000 Y97.695000 Z0.200000 A16.516580
G1 X104.512000 Y119.305000 Z0.200000 A16.888180
G1 X103.981000 Y119.305000 Z0.200000 A16.897320
G1 X103.981000 Y97.695000 Z0.200000 A17.268920
G0 Z0.700 F1620.000 A15.26892
G0 X99.189 Y103.244 F7800.000
G0 Z0.200
G0 F5400.000 A17.26892
G1 X99.189000 Y103.128000 Z0.200000 A17.269900 F360.000000
G0 X99.189 Y101.572 F7800.000
G1 X99.189000 Y101.456000 Z0.200000 A17.270880 F360.000000
G0 Z0.700 F1620.000 A15.27088
G0 X117.747 Y101.399 F7800.000
G0 Z0.200
G0 F5400.000 A17.27088
G1 X117.747000 Y101.398000 Z0.200000 A17.270880 F360.000000
G0 X117.747 Y103.302 F7800.000
G1 X117.747000 Y103.301000 Z0.200000 A17.270880 F360.000000
G0 X117.408 Y103.141 F7800.000
G1 X117.218000 Y103.498000 Z0.200000 A17.277770 F360.000000
G3 X117.526000 Y102.753000 Z0.200000 A17.484300 I-1.7126 J-1.1442
G1 X117.435000 Y103.066000 Z0.200000 A17.489850
G0 X116.922 Y102.939 F7800.000
G1 X116.780000 Y103.205000 Z0.200000 A17.494980 F360.000000
G3 X116.949000 Y102.865000 Z0.200000 A17.652690 I-1.2666 J-0.8416
G0 X116.470 Y102.644 F7800.000
G1 X116.394000 Y102.828000 Z0.200000 A17.656070 F360.000000
G3 X116.508000 Y102.251000 Z0.200000 A17.753990 I-0.8831 J-0.4742
G1 X116.489000 Y102.568000 Z0.200000 A17.759390
G0 X116.605 Y102.789 F7800.000
G0 Z0.700 F1620.000 A15.75939
G0 X103.566 Y102.350 F7800.000
G0 Z0.200
G0 F5400.000 A17.75939
G1 X103.526000 Y102.753000 Z0.200000 A17.766270 F360.000000
G3 X103.526000 Y101.947000 Z0.200000 A17.972810 I-2.0220 J-0.4030
G1 X103.562000 Y102.271000 Z0.200000 A17.978350
G0 X103.039 Y102.350 F7800.000
G1 X103.010000 Y102.650000 Z0.200000 A17.983490 F360.000000
G3 X103.010000 Y102.050000 Z0.200000 A18.137400 I-1.5038 J-0.3000
G1 X103.036000 Y102.271000 Z0.200000 A18.141190
G0 X102.508 Y102.251 F7800.000
G1 X102.508000 Y102.449000 Z0.200000 A18.144570 F360.000000
G3 X102.497000 Y102.173000 Z0.200000 A18.247890 I-1.0071 J-0.0981
G0 X102.689 Y102.333 F7800.000
G0 Z0.700 F1620.000 A16.24789
G0 X98.814 Y97.314 F7800.000
G0 Z0.200
G0 F5400.000 A18.24789
G1 X118.186000 Y97.314000 Z0.200000 A18.577220 F360.000000
G1 X118.186000 Y119.686000 Z0.200000 A18.957560
G1 X98.814000 Y119.686000 Z0.200000 A19.286900
G1 X98.814000 Y97.393000 Z0.200000 A19.665890
G0 X98.288 Y96.788 F7800.000
G1 X118.712000 Y96.788000 Z0.200000 A20.013100 F360.000000
G1 X118.712000 Y120.212000 Z0.200000 A20.411310
G1 X98.288000 Y120.212000 Z0.200000 A20.758520
G1 X98.288000 Y96.867000 Z0.200000 A21.155390
G0 X97.763 Y96.263 F7800.000
G1 X119.237000 Y96.263000 Z0.200000 A21.520470 F252.000000
G1 X119.237000 Y120.737000 Z0.200000 A21.936550
G1 X97.763000 Y120.737000 Z0.200000 A22.301630
G1 X97.763000 Y96.342000 Z0.200000 A22.716380
G0 X98.218 Y96.526 F7800.000
M140 P110 ; set bed temperature
G0 Z0.400 F5400.000 A20.71638
o<wipe_nozzle> call
G0 X97.220 Y88.950 F7800.000
G0 F5400.000 A22.71638
G1 X119.780000 Y88.950000 Z0.400000 A23.099910 F1200.000000
G3 X126.550000 Y95.720000 Z0.400000 A23.278680 I-0.2749 J7.0449
G1 X126.550000 Y121.270000 Z0.400000 A23.713050
G3 X119.780000 Y128.040000 Z0.400000 A23.891840 I-7.0449 J-0.2749
G1 X97.220000 Y128.040000 Z0.400000 A24.275380
G3 X90.450000 Y121.270000 Z0.400000 A24.454160 I0.2749 J-7.0449
G1 X90.450000 Y95.720000 Z0.400000 A24.888530
G3 X97.141000 Y88.956000 Z0.400000 A25.065970 I7.0419 J0.2745
G0 X97.240 Y89.480 F7800.000
G1 X119.500000 Y89.470000 Z0.400000 A25.444400 F1200.000000
G3 X126.020000 Y95.740000 Z0.400000 A25.614250 I0.0040 J6.5208
G1 X126.020000 Y121.250000 Z0.400000 A26.047940
G3 X119.760000 Y127.510000 Z0.400000 A26.213370 I-6.4828 J-0.2228
G1 X97.240000 Y127.510000 Z0.400000 A26.596220
G3 X90.970000 Y120.990000 Z0.400000 A26.766070 I0.2233 J-6.4895
G1 X90.970000 Y96.000000 Z0.400000 A27.190920
G3 X97.161000 Y89.486000 Z0.400000 A27.359420 I6.5170 J-0.0051
G0 Z0.900 F5400.000 A25.35942
G0 X99.195 Y97.695 F7800.000
G0 Z0.400
G0 F5400.000 A27.35942
G1 X117.805000 Y97.695000 Z0.400000 A27.676640 F2400.000000
G1 X117.805000 Y98.222000 Z0.400000 A27.685620
G1 X99.195000 Y98.222000 Z0.400000 A28.002840
G1 X99.195000 Y98.749000 Z0.400000 A28.011830
G1 X117.805000 Y98.749000 Z0.400000 A28.329040
G1 X117.805000 Y99.276000 Z0.400000 A28.338030
G1 X99.195000 Y99.276000 Z0.400000 A28.655250
G1 X99.195000 Y99.803000 Z0.400000 A28.664230
G1 X117.805000 Y99.803000 Z0.400000 A28.981450
G1 X116.880000 Y100.331000 Z0.400000 A28.999590
G1 X117.805000 Y100.331000 Z0.400000 A29.015350
G1 X117.493000 Y100.858000 Z0.400000 A29.025790
G1 X117.805000 Y100.858000 Z0.400000 A29.031100
G0 Z0.900 F5400.000 A27.03110
G0 X117.805 Y104.020 F7800.000
G0 Z0.400
G0 F5400.000 A29.03110
G1 X117.297000 Y104.020000 Z0.400000 A29.039750 F2400.000000
G1 X116.572000 Y104.547000 Z0.400000 A29.055040
G1 X117.805000 Y104.547000 Z0.400000 A29.076060
G1 X117.805000 Y105.074000 Z0.400000 A29.085050
G1 X99.195000 Y105.074000 Z0.400000 A29.402260
G1 X99.195000 Y105.601000 Z0.400000 A29.411250
G1 X117.805000 Y105.601000 Z0.400000 A29.728470
G1 X117.805000 Y106.128000 Z0.400000 A29.737450
G1 X99.195000 Y106.128000 Z0.400000 A30.054670
G1 X99.195000 Y106.655000 Z0.400000 A30.063650
G1 X117.805000 Y106.655000 Z0.400000 A30.380870
G1 X117.805000 Y107.182000 Z0.400000 A30.389860
G1 X99.195000 Y107.182000 Z0.400000 A30.707080
G1 X99.195000 Y107.709000 Z0.400000 A30.716060
G1 X117.805000 Y107.709000 Z0.400000 A31.033280
G1 X117.805000 Y108.236000 Z0.400000 A31.042260
G1 X99.195000 Y108.236000 Z0.400000 A31.359480
G1 X99.195000 Y108.764000 Z0.400000 A31.368460
G1 X117.805000 Y108.764000 Z0.400000 A31.685680
G1 X117.805000 Y109.291000 Z0.400000 A31.694670
G1 X99.195000 Y109.291000 Z0.400000 A32.011890
G1 X99.195000 Y109.818000 Z0.400000 A32.020870
G1 X117.805000 Y109.818000 Z0.400000 A32.338090
G1 X117.805000 Y110.345000 Z0.400000 A32.347070
G1 X99.195000 Y110.345000 Z0.400000 A32.664290
G1 X99.195000 Y110.872000 Z0.400000 A32.673280
G1 X117.805000 Y110.872000 Z0.400000 A32.990490
G1 X117.805000 Y111.399000 Z0.400000 A32.999480
G1 X99.195000 Y111.399000 Z0.400000 A33.316700
G1 X99.195000 Y111.926000 Z0.400000 A33.325680
G1 X117.805000 Y111.926000 Z0.400000 A33.642900
G1 X117.805000 Y112.453000 Z0.400000 A33.651880
G1 X99.195000 Y112.453000 Z0.400000 A33.969100
G1 X99.195000 Y112.980000 Z0.400000 A33.978090
G1 X117.805000 Y112.980000 Z0.400000 A34.295300
G1 X117.805000 Y113.507000 Z0.400000 A34.304290
G1 X99.195000 Y113.507000 Z0.400000 A34.621510
G1 X99.195000 Y114.034000 Z0.400000 A34.630490
G1 X117.805000 Y114.034000 Z0.400000 A34.947710
G1 X117.805000 Y114.561000 Z0.400000 A34.956690
G1 X99.195000 Y114.561000 Z0.400000 A35.273910
G1 X99.195000 Y115.088000 Z0.400000 A35.282900
G1 X117.805000 Y115.088000 Z0.400000 A35.600110
G1 X117.805000 Y115.615000 Z0.400000 A35.609100
G1 X99.195000 Y115.615000 Z0.400000 A35.926320
G1 X99.195000 Y116.142000 Z0.400000 A35.935300
G1 X117.805000 Y116.142000 Z0.400000 A36.252520
G1 X117.805000 Y116.669000 Z0.400000 A36.261500
G1 X99.195000 Y116.669000 Z0.400000 A36.578720
G1 X99.195000 Y117.197000 Z0.400000 A36.587710
G1 X117.805000 Y117.197000 Z0.400000 A36.904930
G1 X117.805000 Y117.724000 Z0.400000 A36.913910
G1 X99.195000 Y117.724000 Z0.400000 A37.231130
G1 X99.195000 Y118.251000 Z0.400000 A37.240110
G1 X117.805000 Y118.251000 Z0.400000 A37.557330
G1 X117.805000 Y118.778000 Z0.400000 A37.566310
G1 X99.195000 Y118.778000 Z0.400000 A37.883530
G1 X99.195000 Y119.305000 Z0.400000 A37.892520
G1 X117.805000 Y119.305000 Z0.400000 A38.209740
G0 Z0.900 F5400.000 A36.20974
G0 X114.138 Y100.331 F7800.000
G0 Z0.400
G0 F5400.000 A38.20974
G1 X102.866000 Y100.331000 Z0.400000 A38.401870 F2400.000000
G1 X103.432000 Y100.858000 Z0.400000 A38.415060
G1 X113.568000 Y100.858000 Z0.400000 A38.587820
G1 X113.261000 Y101.385000 Z0.400000 A38.598220
G1 X103.747000 Y101.385000 Z0.400000 A38.760390
G1 X103.904000 Y101.912000 Z0.400000 A38.769760
G1 X113.096000 Y101.912000 Z0.400000 A38.926440
G1 X113.061000 Y102.439000 Z0.400000 A38.935440
G1 X103.939000 Y102.439000 Z0.400000 A39.090940
G1 X103.862000 Y102.966000 Z0.400000 A39.100020
G1 X113.140000 Y102.966000 Z0.400000 A39.258170
G1 X113.337000 Y103.493000 Z0.400000 A39.267760
G1 X103.663000 Y103.493000 Z0.400000 A39.432660
G1 X103.285000 Y104.020000 Z0.400000 A39.443720
G1 X113.725000 Y104.020000 Z0.400000 A39.621670
G1 X114.443000 Y104.547000 Z0.400000 A39.636860
G1 X102.557000 Y104.547000 Z0.400000 A39.839470
G0 X100.437 Y104.547 F7800.000
G1 X99.195000 Y104.547000 Z0.400000 A39.860630 F2400.000000
G1 X99.703000 Y104.020000 Z0.400000 A39.873100
G1 X99.195000 Y104.020000 Z0.400000 A39.881760
G0 Z0.900 F5400.000 A37.88176
G0 X99.195 Y100.858 F7800.000
