; generated by Slic3r 0.9.9 on 2013-04-06 at 10:15:32

; layer_height = 0.3
; perimeters = 3
; top_solid_layers = 3
; bottom_solid_layers = 3
; fill_density = 0.25
; perimeter_speed = 30
; infill_speed = 40
; travel_speed = 130
; nozzle_diameter = 0.4
; filament_diameter = 2.95
; extrusion_multiplier = 1.105263
; perimeters extrusion width = 0.42mm
; infill extrusion width = 0.42mm
; solid infill extrusion width = 0.42mm
; top infill extrusion width = 0.42mm

G21 ; set units to millimeters
M190 P115 ; wait for bed temperature to be reached
M104 P210 ; set temperature
G92 A0                  ; Reset A to 0
G40                        ; Cancel cutter compensation
G64 P0.1                ; Path Blend within .1mm
G0 X108.5 Y200    ; Move to plate
M109 P210 ; wait for temperature to be reached
G90 ; use absolute coordinates
G0 Z0.300 F7800.000
G0 Z0.800 F1620.000 A-1.00000
G0 X92.660 Y96.260 F7800.000
G0 Z0.300
G0 F5400.000 A0.00000
G1 X93.060000 Y95.900000 Z0.300000 A0.010940 F540.000000
G3 X97.500000 Y94.260000 Z0.300000 A0.109140 I4.4014 J5.0859
G1 X119.500000 Y94.260000 Z0.300000 A0.556200
G3 X126.340000 Y101.100000 Z0.300000 A0.774470 I0.0177 J6.8223
G1 X126.340000 Y115.900000 Z0.300000 A1.075220
G3 X119.500000 Y122.740000 Z0.300000 A1.293500 I-6.8223 J0.0177
G1 X97.500000 Y122.740000 Z0.300000 A1.740560
G3 X90.660000 Y115.900000 Z0.300000 A1.958830 I-0.0177 J-6.8223
G1 X90.660000 Y101.100000 Z0.300000 A2.259580
G3 X92.618000 Y96.307000 Z0.300000 A2.367440 I6.8001 J-0.0185
G0 X92.960 Y96.560 F7800.000
G1 X93.350000 Y96.200000 Z0.300000 A2.378230 F540.000000
G3 X97.500000 Y94.680000 Z0.300000 A2.469860 I4.1179 J4.8176
G1 X119.500000 Y94.680000 Z0.300000 A2.916920
G3 X125.920000 Y101.100000 Z0.300000 A3.121750 I0.0240 J6.3960
G1 X125.920000 Y115.900000 Z0.300000 A3.422500
G3 X119.500000 Y122.320000 Z0.300000 A3.627330 I-6.3960 J0.0240
G1 X97.500000 Y122.320000 Z0.300000 A4.074390
G3 X91.080000 Y115.900000 Z0.300000 A4.279220 I-0.0240 J-6.3960
G1 X91.080000 Y101.100000 Z0.300000 A4.579970
G3 X92.917000 Y96.606000 Z0.300000 A4.681120 I6.3528 J-0.0257
G0 Z0.300 F7800.000
G0 Z0.800 F1620.000 A3.68112
G0 X103.801 Y104.643 F7800.000
G0 Z0.300
G0 F5400.000 A4.68112
G1 X104.201000 Y104.201000 Z0.300000 A4.693250 F540.000000
G3 X102.683000 Y106.735000 Z0.300000 A5.408490 I4.2809 J4.2861
G1 X102.884000 Y106.174000 Z0.300000 A5.420620
G3 X103.763000 Y104.694000 Z0.300000 A5.455710 I5.5122 J2.2728
G0 X104.125 Y104.910 F7800.000
G1 X104.498000 Y104.498000 Z0.300000 A5.467000 F540.000000
G3 X103.794000 Y105.356000 Z0.300000 A6.166760 I3.9848 J3.9874
G1 X104.088000 Y104.960000 Z0.300000 A6.176770
G0 X103.984 Y104.515 F7800.000
G0 X104.264 Y104.264
G0 X108.500 Y102.509
G0 X110.637 Y102.331
G1 X110.679000 Y102.147000 Z0.300000 A6.180600 F540.000000
G1 X118.453000 Y102.147000 Z0.300000 A6.338570
G1 X118.453000 Y114.853000 Z0.300000 A6.596760
G1 X110.679000 Y114.853000 Z0.300000 A6.754740
G1 X110.637000 Y114.669000 Z0.300000 A6.758560
G2 X110.694000 Y102.358000 Z0.300000 A7.084000 I-2.1781 J-6.1657
G0 X106.363 Y102.331 F7800.000
G1 X105.437000 Y102.769000 Z0.300000 A7.104820 F540.000000
G2 X106.363000 Y114.669000 Z0.300000 A7.410720 I3.0721 J5.7470
G1 X106.321000 Y114.853000 Z0.300000 A7.414550
G1 X98.547000 Y114.853000 Z0.300000 A7.572530
G1 X98.547000 Y102.147000 Z0.300000 A7.830720
G1 X106.321000 Y102.147000 Z0.300000 A7.988690
G1 X106.349000 Y102.270000 Z0.300000 A7.991240
G0 X98.128 Y101.728 F7800.000
G1 X118.872000 Y101.728000 Z0.300000 A8.412760 F540.000000
G1 X118.872000 Y115.272000 Z0.300000 A8.687980
G1 X98.128000 Y115.272000 Z0.300000 A9.109500
G1 X98.128000 Y101.791000 Z0.300000 A9.383430
G0 X97.709 Y101.309 F7800.000
G1 X119.291000 Y101.309000 Z0.300000 A9.821980 F378.000000
G1 X119.291000 Y115.691000 Z0.300000 A10.114220
G1 X97.709000 Y115.691000 Z0.300000 A10.552760
G1 X97.709000 Y101.372000 Z0.300000 A10.843720
G0 X98.072 Y101.519 F7800.000
G0 X111.864 Y102.536
G1 X112.283000 Y102.451000 Z0.300000 A10.852410 F720.000000
G1 X112.283000 Y102.847000 Z0.300000 A10.860460
G1 X112.702000 Y103.157000 Z0.300000 A10.871070
G1 X112.702000 Y102.451000 Z0.300000 A10.885430
G1 X113.121000 Y102.451000 Z0.300000 A10.893950
G1 X113.121000 Y103.519000 Z0.300000 A10.915650
G1 X113.540000 Y103.944000 Z0.300000 A10.927780
G1 X113.540000 Y102.451000 Z0.300000 A10.958130
G1 X113.959000 Y102.451000 Z0.300000 A10.966640
G1 X113.959000 Y104.455000 Z0.300000 A11.007380
G1 X114.378000 Y105.091000 Z0.300000 A11.022870
G1 X114.378000 Y102.451000 Z0.300000 A11.076540
G1 X114.797000 Y102.451000 Z0.300000 A11.085050
G1 X114.797000 Y105.931000 Z0.300000 A11.155810
G1 X115.216000 Y107.471000 Z0.300000 A11.188250
G1 X115.216000 Y102.451000 Z0.300000 A11.290310
G1 X115.635000 Y102.451000 Z0.300000 A11.298820
G1 X115.635000 Y114.549000 Z0.300000 A11.544760
G1 X115.216000 Y114.549000 Z0.300000 A11.553270
G1 X115.216000 Y109.529000 Z0.300000 A11.655330
G1 X114.797000 Y111.068000 Z0.300000 A11.687760
G1 X114.797000 Y114.549000 Z0.300000 A11.758530
G1 X114.378000 Y114.549000 Z0.300000 A11.767050
G1 X114.378000 Y111.909000 Z0.300000 A11.820720
G1 X113.959000 Y112.545000 Z0.300000 A11.836200
G1 X113.959000 Y114.549000 Z0.300000 A11.876940
G1 X113.540000 Y114.549000 Z0.300000 A11.885460
G1 X113.540000 Y113.056000 Z0.300000 A11.915800
G1 X113.121000 Y113.481000 Z0.300000 A11.927930
G1 X113.121000 Y114.549000 Z0.300000 A11.949640
G1 X112.702000 Y114.549000 Z0.300000 A11.958150
G1 X112.702000 Y113.843000 Z0.300000 A11.972520
G1 X112.283000 Y114.153000 Z0.300000 A11.983120
G1 X112.283000 Y114.549000 Z0.300000 A11.991170
G1 X111.864000 Y114.465000 Z0.300000 A11.999860
G0 X112.736 Y112.736 F7800.000
G0 X119.000 Y101.600
G0 X116.054 Y102.451
G1 X116.054000 Y114.549000 Z0.300000 A12.245790 F720.000000
G1 X116.473000 Y114.549000 Z0.300000 A12.254310
G1 X116.473000 Y102.451000 Z0.300000 A12.500240
G1 X116.892000 Y102.451000 Z0.300000 A12.508760
G1 X116.892000 Y114.549000 Z0.300000 A12.754690
G1 X117.311000 Y114.549000 Z0.300000 A12.763210
G1 X117.311000 Y102.451000 Z0.300000 A13.009140
G1 X117.730000 Y102.451000 Z0.300000 A13.017660
G1 X117.730000 Y114.549000 Z0.300000 A13.263590
G1 X118.149000 Y114.549000 Z0.300000 A13.272110
G1 X118.149000 Y102.451000 Z0.300000 A13.518040
G0 X111.559 Y114.559 F7800.000
G1 X111.784000 Y114.559000 Z0.300000 A13.520500 F360.000000
G1 X111.784000 Y114.442000 Z0.300000 A13.521770
G1 X112.009000 Y114.559000 Z0.300000 A13.524540
G0 X109.872 Y114.850 F7800.000
G1 X109.872000 Y114.850000 Z0.300000 A13.524540 F360.000000
G0 X107.787 Y114.977 F7800.000
G1 X108.024000 Y114.977000 Z0.300000 A13.527280 F360.000000
G1 X108.024000 Y114.850000 Z0.300000 A13.528750
G1 X108.262000 Y114.862000 Z0.300000 A13.531500
G1 X108.262000 Y114.977000 Z0.300000 A13.532830
G1 X108.500000 Y114.977000 Z0.300000 A13.535570
G1 X108.500000 Y114.874000 Z0.300000 A13.536770
G1 X108.738000 Y114.862000 Z0.300000 A13.539520
G1 X108.738000 Y114.977000 Z0.300000 A13.540850
G1 X108.976000 Y114.977000 Z0.300000 A13.543590
G1 X108.976000 Y114.850000 Z0.300000 A13.545060
G1 X109.213000 Y114.977000 Z0.300000 A13.548170
G0 X106.754 Y114.850 F7800.000
G1 X106.754000 Y114.850000 Z0.300000 A13.548180 F360.000000
G0 X104.991 Y114.559 F7800.000
G1 X105.216000 Y114.559000 Z0.300000 A13.550640 F360.000000
G1 X105.216000 Y114.442000 Z0.300000 A13.551910
G1 X105.441000 Y114.559000 Z0.300000 A13.554680
G0 X105.136 Y114.465 F7800.000
G1 X104.717000 Y114.153000 Z0.300000 A13.565290 F720.000000
G1 X104.717000 Y114.549000 Z0.300000 A13.573330
G1 X104.298000 Y114.549000 Z0.300000 A13.581850
G1 X104.298000 Y113.843000 Z0.300000 A13.596210
G1 X103.879000 Y113.481000 Z0.300000 A13.607460
G1 X103.879000 Y114.549000 Z0.300000 A13.629160
G1 X103.460000 Y114.549000 Z0.300000 A13.637680
G1 X103.460000 Y113.056000 Z0.300000 A13.668020
G1 X103.041000 Y112.545000 Z0.300000 A13.681460
G1 X103.041000 Y114.549000 Z0.300000 A13.722200
G1 X102.622000 Y114.549000 Z0.300000 A13.730720
G1 X102.622000 Y111.909000 Z0.300000 A13.784390
G1 X102.203000 Y111.069000 Z0.300000 A13.803480
G1 X102.203000 Y114.549000 Z0.300000 A13.874230
G1 X101.784000 Y114.549000 Z0.300000 A13.882750
G1 X101.784000 Y109.529000 Z0.300000 A13.984800
G0 X98.851 Y114.549 F7800.000
G1 X98.851000 Y102.451000 Z0.300000 A14.230740 F720.000000
G1 X99.270000 Y102.451000 Z0.300000 A14.239250
G1 X99.270000 Y114.549000 Z0.300000 A14.485190
G1 X99.689000 Y114.549000 Z0.300000 A14.493700
G1 X99.689000 Y102.451000 Z0.300000 A14.739640
G1 X100.108000 Y102.451000 Z0.300000 A14.748150
G1 X100.108000 Y114.549000 Z0.300000 A14.994090
G1 X100.527000 Y114.549000 Z0.300000 A15.002610
G1 X100.527000 Y102.451000 Z0.300000 A15.248540
G1 X100.946000 Y102.451000 Z0.300000 A15.257060
G1 X100.946000 Y114.549000 Z0.300000 A15.502990
G1 X101.365000 Y114.549000 Z0.300000 A15.511510
G1 X101.365000 Y102.451000 Z0.300000 A15.757440
G1 X101.784000 Y102.451000 Z0.300000 A15.765960
G1 X101.784000 Y107.495000 Z0.300000 A15.868500
G1 X102.203000 Y105.931000 Z0.300000 A15.901410
G1 X102.203000 Y102.451000 Z0.300000 A15.972160
G1 X102.622000 Y102.451000 Z0.300000 A15.980670
G1 X102.622000 Y105.091000 Z0.300000 A16.034340
G1 X103.041000 Y104.455000 Z0.300000 A16.049830
G1 X103.041000 Y102.451000 Z0.300000 A16.090570
G1 X103.460000 Y102.451000 Z0.300000 A16.099090
G1 X103.460000 Y103.944000 Z0.300000 A16.129430
G1 X103.879000 Y103.519000 Z0.300000 A16.141560
G1 X103.879000 Y102.451000 Z0.300000 A16.163270
G1 X104.298000 Y102.451000 Z0.300000 A16.171780
G1 X104.298000 Y103.157000 Z0.300000 A16.186150
G1 X104.717000 Y102.847000 Z0.300000 A16.196750
G1 X104.717000 Y102.451000 Z0.300000 A16.204800
G1 X105.136000 Y102.536000 Z0.300000 A16.213490
G0 X104.991 Y102.442 F7800.000
G1 X105.216000 Y102.441000 Z0.300000 A16.215940 F360.000000
G1 X105.216000 Y102.558000 Z0.300000 A16.217220
G1 X105.441000 Y102.441000 Z0.300000 A16.219980
G0 X106.754 Y102.150 F7800.000
G1 X106.754000 Y102.150000 Z0.300000 A16.219990 F360.000000
G0 X107.787 Y102.023 F7800.000
G1 X108.024000 Y102.023000 Z0.300000 A16.222740 F360.000000
G1 X108.024000 Y102.150000 Z0.300000 A16.224200
G1 X108.262000 Y102.138000 Z0.300000 A16.226950
G1 X108.262000 Y102.023000 Z0.300000 A16.228280
G1 X108.500000 Y102.023000 Z0.300000 A16.231030
G1 X108.500000 Y102.126000 Z0.300000 A16.232220
G1 X108.738000 Y102.138000 Z0.300000 A16.234970
G1 X108.738000 Y102.023000 Z0.300000 A16.236300
G1 X108.976000 Y102.023000 Z0.300000 A16.239050
G1 X108.976000 Y102.150000 Z0.300000 A16.240510
G1 X109.213000 Y102.023000 Z0.300000 A16.243630
G0 X109.872 Y102.150 F7800.000
G1 X109.872000 Y102.150000 Z0.300000 A16.243630 F360.000000
G0 X111.559 Y102.442 F7800.000
G1 X111.784000 Y102.441000 Z0.300000 A16.246080 F360.000000
G1 X111.784000 Y102.558000 Z0.300000 A16.247360
G1 X112.009000 Y102.441000 Z0.300000 A16.250120
M140 P110 ; set bed temperature
G0 Z0.600 F7800.000
G0 Z1.100 F5400.000 A15.25012
G0 X112.736 Y104.264 F7800.000
G0 X119.500 Y94.260
G0 Z0.600
G0 F5400.000 A16.25012
G1 X120.040000 Y94.280000 Z0.600000 A16.261100 F1800.000000
G3 X126.340000 Y101.100000 Z0.600000 A16.468400 I-0.5294 J6.8088
G1 X126.340000 Y115.900000 Z0.600000 A16.769140
G3 X119.500000 Y122.740000 Z0.600000 A16.987420 I-6.8223 J0.0177
G1 X97.500000 Y122.740000 Z0.600000 A17.434480
G3 X90.660000 Y115.900000 Z0.600000 A17.652750 I-0.0177 J-6.8223
G1 X90.660000 Y101.100000 Z0.600000 A17.953500
G3 X97.500000 Y94.260000 Z0.600000 A18.171770 I6.8223 J-0.0177
G1 X119.437000 Y94.260000 Z0.600000 A18.617550
G0 X119.500 Y94.680 F7800.000
G1 X120.030000 Y94.700000 Z0.600000 A18.628330 F1800.000000
G3 X125.920000 Y101.100000 Z0.600000 A18.822400 I-0.5169 J6.3861
G1 X125.920000 Y115.900000 Z0.600000 A19.123150
G3 X119.500000 Y122.320000 Z0.600000 A19.327970 I-6.3960 J0.0240
G1 X97.500000 Y122.320000 Z0.600000 A19.775030
G3 X91.080000 Y115.900000 Z0.600000 A19.979860 I-0.0240 J-6.3960
G1 X91.080000 Y101.100000 Z0.600000 A20.280610
G3 X97.500000 Y94.680000 Z0.600000 A20.485430 I6.3960 J-0.0240
G1 X119.437000 Y94.680000 Z0.600000 A20.931210
G0 Z0.600 F7800.000
G0 Z1.100 F5400.000 A19.93121
G0 X112.357 Y103.801 F7800.000
G0 Z0.600
G0 F5400.000 A20.93121
G1 X112.799000 Y104.201000 Z0.600000 A20.943330 F1800.000000
G3 X110.265000 Y102.683000 Z0.600000 A21.658580 I-4.2861 J4.2809
G1 X110.826000 Y102.884000 Z0.600000 A21.670700
G3 X112.306000 Y103.763000 Z0.600000 A21.705790 I-2.2728 J5.5122
G0 X112.090 Y104.125 F7800.000
G1 X112.502000 Y104.498000 Z0.600000 A21.717080 F1800.000000
G3 X111.644000 Y103.794000 Z0.600000 A22.416850 I-3.9874 J3.9848
G1 X112.040000 Y104.088000 Z0.600000 A22.426850
G0 X112.485 Y103.984 F7800.000
G0 X112.696 Y103.543
G1 X112.110000 Y103.097000 Z0.600000 A22.441830 F1800.000000
G2 X110.637000 Y102.331000 Z0.600000 A22.475600 I-4.6188 J7.0827
G1 X110.679000 Y102.147000 Z0.600000 A22.479430
G1 X118.453000 Y102.147000 Z0.600000 A22.637400
G1 X118.453000 Y114.853000 Z0.600000 A22.895590
G1 X110.679000 Y114.853000 Z0.600000 A23.053570
G1 X110.637000 Y114.669000 Z0.600000 A23.057390
G2 X112.743000 Y103.586000 Z0.600000 A23.334070 I-2.1640 J-6.1528
G0 X106.363 Y102.331 F7800.000
G1 X105.437000 Y102.769000 Z0.600000 A23.354890 F1800.000000
G2 X106.363000 Y114.669000 Z0.600000 A23.660780 I3.0721 J5.7470
G1 X106.321000 Y114.853000 Z0.600000 A23.664600
G1 X98.547000 Y114.853000 Z0.600000 A23.822580
G1 X98.547000 Y102.147000 Z0.600000 A24.080770
G1 X106.321000 Y102.147000 Z0.600000 A24.238740
G1 X106.349000 Y102.270000 Z0.600000 A24.241290
G0 X98.128 Y101.728 F7800.000
G1 X118.872000 Y101.728000 Z0.600000 A24.662820 F1800.000000
G1 X118.872000 Y115.272000 Z0.600000 A24.938030
G1 X98.128000 Y115.272000 Z0.600000 A25.359550
G1 X98.128000 Y101.791000 Z0.600000 A25.633490
G0 X97.709 Y101.309 F7800.000
G1 X119.291000 Y101.309000 Z0.600000 A26.072030 F1260.000000
G1 X119.291000 Y115.691000 Z0.600000 A26.364270
G1 X97.709000 Y115.691000 Z0.600000 A26.802820
G1 X97.709000 Y101.372000 Z0.600000 A27.093780
G0 X98.072 Y101.519 F7800.000
G0 X98.851 Y102.451
G1 X105.108000 Y102.451000 Z0.600000 A27.224940 F2400.000000
G1 X104.668000 Y102.883000 Z0.600000 A27.237870
G1 X98.851000 Y102.883000 Z0.600000 A27.359810
G1 X98.851000 Y103.315000 Z0.600000 A27.368860
G1 X104.104000 Y103.315000 Z0.600000 A27.478970
G1 X103.638000 Y103.747000 Z0.600000 A27.492280
G1 X98.851000 Y103.747000 Z0.600000 A27.592630
G1 X98.851000 Y104.179000 Z0.600000 A27.601690
G1 X103.247000 Y104.179000 Z0.600000 A27.693830
G1 X102.925000 Y104.611000 Z0.600000 A27.705110
G1 X98.851000 Y104.611000 Z0.600000 A27.790520
G1 X98.851000 Y105.043000 Z0.600000 A27.799580
G1 X102.651000 Y105.043000 Z0.600000 A27.879220
G1 X102.415000 Y105.475000 Z0.600000 A27.889540
G1 X98.851000 Y105.475000 Z0.600000 A27.964250
G1 X98.851000 Y105.908000 Z0.600000 A27.973300
G1 X102.212000 Y105.908000 Z0.600000 A28.043750
G1 X102.057000 Y106.340000 Z0.600000 A28.053370
G1 X98.851000 Y106.340000 Z0.600000 A28.120570
G1 X98.851000 Y106.772000 Z0.600000 A28.129630
G1 X101.929000 Y106.772000 Z0.600000 A28.194150
G1 X101.824000 Y107.204000 Z0.600000 A28.203470
G1 X98.851000 Y107.204000 Z0.600000 A28.265780
G1 X98.851000 Y107.636000 Z0.600000 A28.274840
G1 X101.760000 Y107.636000 Z0.600000 A28.335810
G1 X101.719000 Y108.068000 Z0.600000 A28.344910
G1 X98.851000 Y108.068000 Z0.600000 A28.405030
G1 X98.851000 Y108.500000 Z0.600000 A28.414080
G1 X101.698000 Y108.500000 Z0.600000 A28.473750
G1 X101.719000 Y108.932000 Z0.600000 A28.482820
G1 X98.851000 Y108.932000 Z0.600000 A28.542940
G1 X98.851000 Y109.364000 Z0.600000 A28.551990
G1 X101.760000 Y109.364000 Z0.600000 A28.612970
G1 X101.831000 Y109.796000 Z0.600000 A28.622140
G1 X98.851000 Y109.796000 Z0.600000 A28.684600
