; generated by Slic3r 0.9.8 on 2013-03-23 at 14:01:06

; layer_height = 0.3
; perimeters = 3
; top_solid_layers = 3
; bottom_solid_layers = 3
; fill_density = 0.4
; perimeter_speed = 30
; infill_speed = 60
; travel_speed = 130
; scale = 1
; nozzle_diameter = 0.4
; filament_diameter = 3
; extrusion_multiplier = 1.01
; perimeters extrusion width = 0.42mm
; infill extrusion width = 0.42mm
; support material extrusion width = 0.42mm
; first layer extrusion width = 0.60mm

M190 P115 ; wait for bed temperature to be reached
M104 P235 ; set temperature
G40                        ; Cancel cutter compensation
G64 P0.5                ; Path Blend within .1mm
G0 X108.5 Y108.5  ; Move to center
M109 P235 ; wait for temperature to be reached
G90 ; use absolute coordinates
G21 ; set units to millimeters
G0 Z0.300 F1800.000 A-1.00000
G0 X123.582 Y125.529 F7800.000
G0 F1800.000 A0.00000
G1 X118.892 Y129.899 F540.000 A0.15308
G1 X118.492 Y130.249 A0.16577
G1 X118.072 Y130.559 A0.17824
G1 X114.272 Y132.979 A0.28582
G1 X113.392 Y133.499 A0.31023
G1 X112.232 Y134.079 A0.34120
G1 X111.712 Y134.289 A0.35459
G1 X110.902 Y134.529 A0.37476
G1 X110.352 Y134.639 A0.38815
G1 X109.802 Y134.699 A0.40137
G1 X108.952 Y134.709 A0.42167
G1 X108.122 Y134.619 A0.44160
G1 X107.302 Y134.429 A0.46170
G1 X106.772 Y134.249 A0.47507
G1 X106.252 Y134.029 A0.48855
G1 X105.762 Y133.769 A0.50180
G1 X104.882 Y133.219 A0.52658
G1 X99.852 Y129.809 A0.67169
G1 X99.362 Y129.449 A0.68621
G1 X98.882 Y129.049 A0.70113
G1 X98.372 Y128.539 A0.71836
G1 X97.912 Y127.979 A0.73566
G1 X88.102 Y114.709 A1.12973
G1 X87.782 Y114.239 A1.14331
G1 X86.872 Y112.779 A1.18439
G1 X86.552 Y112.199 A1.20021
G1 X80.912 Y100.919 A1.50137
G1 X80.692 Y100.369 A1.51551
G1 X80.522 Y99.809 A1.52949
G1 X80.392 Y99.229 A1.54368
G1 X80.292 Y98.349 A1.56483
G1 X80.292 Y97.759 A1.57892
G1 X80.332 Y97.179 A1.59280
G1 X80.372 Y96.889 A1.59979
G1 X80.492 Y96.309 A1.61394
G1 X80.652 Y95.739 A1.62807
G1 X81.532 Y93.109 A1.69430
G1 X81.742 Y92.579 A1.70791
G1 X81.982 Y92.059 A1.72159
G1 X82.272 Y91.559 A1.73539
G1 X82.602 Y91.089 A1.74911
G1 X82.962 Y90.649 A1.76268
G1 X83.362 Y90.229 A1.77653
G1 X84.012 Y89.679 A1.79686
G1 X84.482 Y89.349 A1.81058
G1 X84.732 Y89.199 A1.81754
G1 X85.242 Y88.939 A1.83121
G1 X85.772 Y88.709 A1.84501
G1 X86.312 Y88.529 A1.85860
G1 X86.592 Y88.459 A1.86549
G1 X117.762 Y82.139 A2.62497
G1 X118.262 Y82.049 A2.63710
G1 X118.772 Y82.009 A2.64931
G1 X124.152 Y81.899 A2.77781
G1 X124.462 Y81.909 A2.78522
G1 X125.072 Y81.979 A2.79988
G1 X125.372 Y82.029 A2.80714
G1 X125.972 Y82.179 A2.82191
G1 X126.552 Y82.369 A2.83649
G1 X133.612 Y85.449 A3.02042
G1 X133.872 Y85.579 A3.02736
G1 X134.372 Y85.879 A3.04129
G1 X135.072 Y86.389 A3.06197
G1 X135.702 Y86.989 A3.08274
G1 X136.082 Y87.429 A3.09663
G1 X136.422 Y87.899 A3.11048
G1 X136.772 Y88.489 A3.12686
G1 X137.062 Y89.079 A3.14256
G1 X137.192 Y89.389 A3.15059
G1 X137.402 Y90.019 A3.16645
G1 X137.632 Y90.839 A3.18678
G1 X137.782 Y91.469 A3.20225
G1 X137.832 Y91.789 A3.20998
G1 X137.892 Y92.439 A3.22557
G1 X137.892 Y93.469 A3.25017
G1 X137.842 Y94.059 A3.26430
G1 X137.742 Y94.639 A3.27836
G1 X137.592 Y95.219 A3.29267
G1 X137.402 Y95.779 A3.30679
G1 X137.282 Y96.059 A3.31406
G1 X125.232 Y123.219 A4.02360
G1 X124.952 Y123.789 A4.03876
G1 X124.792 Y124.059 A4.04626
G1 X124.432 Y124.589 A4.06156
G1 X124.032 Y125.079 A4.07666
G1 X123.643 Y125.471 A4.08986
G1 X123.582 Y125.529 A4.09186
G0 X123.202 Y125.129 F7800.000
G1 X118.512 Y129.499 F540.000 A4.24494
G1 X117.952 Y129.959 A4.26224
G1 X117.552 Y130.239 A4.27390
G1 X113.872 Y132.579 A4.37804
G1 X113.122 Y133.009 A4.39869
G1 X111.742 Y133.689 A4.43542
G1 X110.982 Y133.939 A4.45453
G1 X110.192 Y134.099 A4.47378
G1 X109.382 Y134.159 A4.49317
G1 X108.582 Y134.119 A4.51230
G1 X108.312 Y134.079 A4.51882
G1 X108.052 Y134.039 A4.52510
G1 X107.532 Y133.909 A4.53790
G1 X107.022 Y133.749 A4.55066
G1 X106.522 Y133.539 A4.56361
G1 X106.042 Y133.289 A4.57654
G1 X105.192 Y132.759 A4.60046
G1 X100.162 Y129.349 A4.74557
G1 X99.502 Y128.849 A4.76534
G1 X99.252 Y128.629 A4.77330
G1 X98.782 Y128.159 A4.78917
G1 X98.362 Y127.649 A4.80494
G1 X88.552 Y114.379 A5.19902
G1 X88.262 Y113.949 A5.21140
G1 X87.352 Y112.489 A5.25248
G1 X87.052 Y111.949 A5.26723
G1 X81.422 Y100.689 A5.56786
G1 X81.312 Y100.439 A5.57438
G1 X81.132 Y99.929 A5.58729
G1 X80.992 Y99.399 A5.60038
G1 X80.902 Y98.869 A5.61322
G1 X80.852 Y98.329 A5.62617
G1 X80.842 Y98.049 A5.63286
G1 X80.862 Y97.509 A5.64577
G1 X80.922 Y96.969 A5.65874
G1 X81.032 Y96.439 A5.67167
G1 X81.182 Y95.919 A5.68459
G1 X82.062 Y93.289 A5.75082
G1 X82.152 Y93.029 A5.75739
G1 X82.372 Y92.529 A5.77043
G1 X82.632 Y92.039 A5.78368
G1 X82.932 Y91.579 A5.79679
G1 X83.092 Y91.359 A5.80329
G1 X83.642 Y90.739 A5.82308
G1 X84.252 Y90.189 A5.84269
G1 X84.472 Y90.029 A5.84919
G1 X85.172 Y89.589 A5.86893
G1 X85.922 Y89.249 A5.88859
G1 X86.712 Y88.999 A5.90838
G1 X117.872 Y82.679 A6.66762
G1 X118.802 Y82.559 A6.69001
G1 X124.142 Y82.449 A6.81756
G1 X124.702 Y82.489 A6.83096
G1 X124.982 Y82.529 A6.83772
G1 X125.812 Y82.709 A6.85800
G1 X126.352 Y82.889 A6.87159
G1 X126.612 Y82.999 A6.87833
G1 X133.382 Y85.959 A7.05478
G1 X134.122 Y86.379 A7.07509
G1 X134.802 Y86.899 A7.09554
G1 X135.222 Y87.289 A7.10922
G1 X135.412 Y87.499 A7.11599
G1 X135.772 Y87.949 A7.12975
G1 X136.092 Y88.419 A7.14332
G1 X136.552 Y89.299 A7.16704
G1 X136.672 Y89.589 A7.17453
G1 X136.862 Y90.169 A7.18911
G1 X137.172 Y91.279 A7.21663
G1 X137.232 Y91.569 A7.22370
G1 X137.282 Y91.869 A7.23096
G1 X137.332 Y92.459 A7.24510
G1 X137.342 Y93.169 A7.26206
G1 X137.312 Y93.779 A7.27664
G1 X137.222 Y94.379 A7.29113
G1 X137.082 Y94.969 A7.30561
G1 X136.892 Y95.549 A7.32018
G1 X136.772 Y95.829 A7.32746
G1 X124.722 Y122.989 A8.03700
G1 X124.462 Y123.509 A8.05088
G1 X124.152 Y124.009 A8.06493
G1 X123.802 Y124.489 A8.07911
G1 X123.262 Y125.069 A8.09807
G1 X123.202 Y125.129 A8.10006
G0 X120.254 Y121.973 F1800.000 A7.10006
G0 A8.10006
G1 X119.275 Y122.952 F540.000 A8.13312
G1 X117.291 Y122.952 A8.18051
G1 X116.312 Y121.973 A8.21357
G1 X116.312 Y121.793 A8.21788
G1 X116.104 Y121.627 A8.22423
G1 X116.073 Y121.352 A8.23083
G1 X115.992 Y121.306 A8.23306
G1 X115.673 Y121.490 A8.24185
G1 X115.673 Y122.342 A8.26220
G1 X116.379 Y122.750 A8.28167
G1 X116.725 Y124.121 A8.31543
G1 X115.485 Y126.128 A8.37176
G1 X115.393 Y126.158 A8.37408
G1 X115.325 Y126.227 A8.37639
G1 X113.173 Y127.578 A8.43707
G1 X113.173 Y128.080 A8.44907
G1 X112.194 Y129.059 A8.48213
G1 X111.429 Y129.059 A8.50040
G1 X110.969 Y129.800 A8.52122
G1 X109.620 Y130.114 A8.55428
G1 X108.921 Y129.680 A8.57393
G1 X108.236 Y129.523 A8.59073
G1 X107.958 Y129.080 A8.60322
G1 X107.169 Y128.590 A8.62538
G1 X107.138 Y128.508 A8.62748
G1 X107.098 Y128.481 A8.62864
G1 X106.239 Y128.623 A8.64942
G1 X105.496 Y128.091 A8.67124
G1 X105.210 Y128.091 A8.67808
G1 X104.231 Y127.112 A8.71114
G1 X104.231 Y126.414 A8.72781
G1 X103.837 Y126.455 A8.73726
G1 X102.257 Y125.172 A8.78586
G1 X102.085 Y124.981 A8.79201
G1 X101.452 Y124.016 A8.81955
G1 X101.312 Y123.548 A8.83123
G1 X101.312 Y121.490 A8.88037
G1 X101.032 Y121.479 A8.88704
G1 X100.669 Y121.657 A8.89671
G1 X100.490 Y121.595 A8.90122
G1 X100.247 Y121.735 A8.90791
G1 X98.910 Y121.377 A8.94097
G1 X97.918 Y119.658 A8.98836
G1 X98.106 Y118.959 A9.00566
G1 X97.086 Y118.479 A9.03258
G1 X96.293 Y116.277 A9.08846
G1 X96.254 Y116.130 A9.09208
G1 X95.992 Y114.553 A9.13026
G1 X96.312 Y113.877 A9.14811
G1 X96.312 Y112.973 A9.16970
G1 X96.281 Y112.971 A9.17044
G1 X96.001 Y112.650 A9.18061
G1 X95.520 Y112.373 A9.19386
G1 X94.956 Y113.000 A9.21401
G1 X92.974 Y113.105 A9.26140
G1 X91.945 Y112.179 A9.29446
G1 X91.911 Y111.540 A9.30974
G1 X91.770 Y111.531 A9.31311
G1 X90.854 Y110.493 A9.34617
G1 X90.922 Y109.403 A9.37226
G1 X90.764 Y109.073 A9.38100
G1 X90.394 Y108.974 A9.39014
G1 X89.402 Y107.255 A9.43753
G1 X89.760 Y105.918 A9.47059
G1 X90.056 Y105.747 A9.47875
G1 X90.043 Y105.575 A9.48286
G1 X90.946 Y104.526 A9.51592
G1 X91.312 Y104.498 A9.52468
G1 X91.312 Y104.169 A9.53253
G1 X90.730 Y103.833 A9.54858
G1 X90.311 Y102.700 A9.57743
G1 X91.084 Y100.517 A9.63273
G1 X90.286 Y100.450 A9.65185
G1 X89.794 Y100.716 A9.66522
G1 X89.673 Y100.680 A9.66824
G1 X89.482 Y100.894 A9.67507
G1 X88.100 Y100.972 A9.70813
G1 X87.358 Y100.310 A9.73188
G1 X87.011 Y100.510 A9.74145
G1 X85.674 Y100.152 A9.77451
G1 X84.682 Y98.433 A9.82190
G1 X85.040 Y97.096 A9.85496
G1 X85.391 Y96.893 A9.86465
G1 X85.935 Y96.006 A9.88948
G1 X86.312 Y95.916 A9.89875
G1 X86.312 Y93.784 A9.94966
G1 X87.291 Y92.805 A9.98272
G1 X89.275 Y92.805 A10.03011
G1 X89.407 Y92.936 A10.03455
G1 X89.694 Y92.936 A10.04141
G1 X90.673 Y93.915 A10.07447
G1 X90.673 Y96.526 A10.13682
G1 X90.982 Y96.552 A10.14423
G1 X91.312 Y96.362 A10.15331
G1 X91.312 Y94.066 A10.20813
G1 X92.291 Y93.087 A10.24119
G1 X94.694 Y93.076 A10.29858
G1 X95.673 Y94.055 A10.33164
G1 X95.673 Y96.362 A10.38671
G1 X95.992 Y96.546 A10.39552
G1 X96.312 Y96.362 A10.40433
G1 X96.312 Y93.939 A10.46217
G1 X97.291 Y92.960 A10.49523
G1 X97.710 Y92.950 A10.50523
G1 X99.694 Y92.950 A10.55262
G1 X100.673 Y93.929 A10.58568
G1 X100.673 Y96.362 A10.64378
G1 X100.992 Y96.546 A10.65259
G1 X101.312 Y96.362 A10.66139
G1 X101.312 Y94.818 A10.69825
G1 X101.978 Y93.928 A10.72480
G1 X103.232 Y93.559 A10.75602
G1 X104.274 Y93.946 A10.78257
G1 X105.537 Y95.906 A10.83824
G1 X105.671 Y96.360 A10.84955
G1 X105.992 Y96.546 A10.85842
G1 X107.148 Y95.879 A10.89028
G1 X107.333 Y95.657 A10.89718
G1 X108.713 Y95.535 A10.93024
G1 X109.334 Y96.056 A10.94961
G1 X110.124 Y96.130 A10.96854
G1 X110.461 Y96.239 A10.97702
G1 X110.992 Y96.546 A10.99166
G1 X112.339 Y95.768 A11.02880
G1 X113.677 Y96.127 A11.06186
G1 X113.755 Y96.263 A11.06561
G1 X114.588 Y96.046 A11.08616
G1 X115.012 Y96.295 A11.09790
G1 X115.412 Y96.162 A11.10797
G1 X115.917 Y96.414 A11.12145
G1 X116.141 Y96.404 A11.12681
G1 X115.926 Y95.902 A11.13982
G1 X116.007 Y95.702 A11.14498
G1 X115.930 Y95.321 A11.15426
G1 X116.312 Y94.746 A11.17075
G1 X116.312 Y93.774 A11.19395
G1 X117.291 Y92.795 A11.22701
G1 X117.369 Y92.795 A11.22889
G1 X117.668 Y92.497 A11.23897
G1 X117.377 Y92.316 A11.24714
G1 X116.701 Y89.393 A11.31877
G1 X116.938 Y88.574 A11.33913
G1 X118.341 Y87.158 A11.38673
G1 X119.471 Y87.007 A11.41394
G1 X120.992 Y87.886 A11.45590
G1 X121.507 Y87.589 A11.47009
G1 X121.792 Y87.487 A11.47731
G1 X121.927 Y87.465 A11.48058
G1 X122.271 Y86.868 A11.49704
G1 X123.609 Y86.509 A11.53010
G1 X125.122 Y87.383 A11.57183
G1 X125.719 Y87.286 A11.58629
G1 X126.844 Y88.094 A11.61935
G1 X127.012 Y89.124 A11.64429
G1 X127.165 Y89.693 A11.65835
G1 X127.119 Y89.773 A11.66055
G1 X127.164 Y90.052 A11.66730
G1 X126.596 Y90.842 A11.69054
G1 X127.222 Y90.466 A11.70798
G1 X127.516 Y90.357 A11.71548
G1 X128.407 Y90.206 A11.73705
G1 X128.427 Y90.184 A11.73775
G1 X130.963 Y89.782 A11.79907
G1 X131.938 Y90.286 A11.82528
G1 X132.004 Y90.421 A11.82886
G1 X132.754 Y91.171 A11.85420
G1 X132.754 Y91.939 A11.87253
G1 X133.030 Y92.497 A11.88740
G1 X132.754 Y93.313 A11.90797
G1 X132.754 Y93.791 A11.91938
G1 X132.306 Y94.566 A11.94076
G1 X130.673 Y95.509 A11.98580
G1 X130.673 Y96.546 A12.01056
G1 X129.694 Y97.525 A12.04362
G1 X129.561 Y97.525 A12.04681
G1 X129.275 Y97.810 A12.05644
G1 X127.761 Y97.810 A12.09259
G1 X128.043 Y98.860 A12.11855
G1 X127.051 Y100.579 A12.16594
G1 X125.787 Y100.917 A12.19718
G1 X126.969 Y101.600 A12.22976
G1 X127.327 Y102.937 A12.26282
G1 X126.334 Y104.656 A12.31021
G1 X124.997 Y105.014 A12.34327
G1 X121.929 Y103.242 A12.42786
G1 X121.865 Y103.481 A12.43377
G1 X120.673 Y104.169 A12.46664
G1 X120.673 Y105.022 A12.48700
G1 X122.306 Y105.965 A12.53204
G1 X122.754 Y106.741 A12.55342
G1 X122.754 Y111.111 A12.65779
G1 X122.306 Y111.887 A12.67918
G1 X120.673 Y112.830 A12.72422
G1 X120.673 Y113.682 A12.74457
G1 X122.096 Y114.504 A12.78381
G1 X122.513 Y115.642 A12.81277
G1 X120.365 Y121.621 A12.96447
G1 X120.254 Y121.708 A12.96783
G1 X120.254 Y121.890 A12.97216
G1 X120.254 Y121.973 A12.97415
G0 X106.312 Y122.342 F1800.000 A11.97415
G0 A12.97415
G1 X105.992 Y122.527 F540.000 A12.98296
G1 X105.673 Y122.342 A12.99177
G1 X105.673 Y121.490 A13.01212
G1 X105.992 Y121.306 A13.02093
G1 X106.312 Y121.490 A13.02973
G1 X106.312 Y122.259 A13.04809
G1 X106.312 Y122.342 A13.05009
G0 X110.673 Y122.342 F1800.000 A12.05009
G0 A13.05009
G1 X110.673 Y121.490 F540.000 A13.07044
G1 X110.992 Y121.306 A13.07925
G1 X111.312 Y121.490 A13.08805
G1 X111.312 Y122.342 A13.10841
G1 X110.992 Y122.527 A13.11721
G1 X110.745 Y122.384 A13.12402
G1 X110.673 Y122.342 A13.12602
G0 X103.812 Y118.012 F1800.000 A12.12602
G0 A13.12602
G1 X103.492 Y118.197 F540.000 A13.13483
G1 X103.173 Y118.012 A13.14363
G1 X103.173 Y117.160 A13.16398
G1 X103.492 Y116.975 A13.17279
G1 X103.812 Y117.160 A13.18160
G1 X103.812 Y117.929 A13.19995
G1 X103.812 Y118.012 A13.20195
G0 X108.173 Y118.012 F1800.000 A12.20195
G0 A13.20195
G1 X108.173 Y117.160 F540.000 A13.22230
G1 X108.492 Y116.975 A13.23111
G1 X108.812 Y117.160 A13.23992
G1 X108.812 Y118.012 A13.26027
G1 X108.492 Y118.197 A13.26908
G1 X108.245 Y118.054 A13.27589
G1 X108.173 Y118.012 A13.27788
G0 X113.173 Y118.012 F1800.000 A12.27788
G0 A13.27788
G1 X113.173 Y117.160 F540.000 A13.29823
G1 X113.492 Y116.975 A13.30704
G1 X113.812 Y117.160 A13.31585
G1 X113.812 Y118.012 A13.33620
G1 X113.492 Y118.197 A13.34501
G1 X113.245 Y118.054 A13.35182
G1 X113.173 Y118.012 A13.35381
G0 X101.312 Y113.682 F1800.000 A12.35381
G0 A13.35381
G1 X100.992 Y113.866 F540.000 A13.36262
G1 X100.673 Y113.682 A13.37142
G1 X100.673 Y112.830 A13.39178
G1 X100.992 Y112.645 A13.40058
G1 X101.312 Y112.830 A13.40939
G1 X101.312 Y113.599 A13.42775
G1 X101.312 Y113.682 A13.42974
G0 X105.673 Y113.682 F1800.000 A12.42974
G0 A13.42974
G1 X105.673 Y112.830 F540.000 A13.45010
G1 X105.992 Y112.645 A13.45890
G1 X106.312 Y112.830 A13.46771
G1 X106.312 Y113.682 A13.48806
G1 X105.992 Y113.866 A13.49687
G1 X105.745 Y113.724 A13.50368
G1 X105.673 Y113.682 A13.50567
G0 X115.673 Y113.682 F1800.000 A12.50567
G0 A13.50567
G1 X115.673 Y112.830 F540.000 A13.52602
G1 X115.992 Y112.645 A13.53483
G1 X116.312 Y112.830 A13.54364
G1 X116.312 Y113.682 A13.56399
G1 X115.992 Y113.866 A13.57280
G1 X115.745 Y113.724 A13.57961
G1 X115.673 Y113.682 A13.58160
G0 X111.312 Y113.682 F1800.000 A12.58160
G0 A13.58160
G1 X110.992 Y113.866 F540.000 A13.59041
G1 X110.254 Y113.440 A13.61076
G1 X110.254 Y113.212 A13.61621
G1 X110.376 Y113.001 A13.62203
G1 X110.992 Y112.645 A13.63902
G1 X111.312 Y112.830 A13.64783
G1 X111.312 Y113.599 A13.66619
G1 X111.312 Y113.682 A13.66818
G0 X103.812 Y109.352 F1800.000 A12.66818
G0 A13.66818
G1 X103.492 Y109.536 F540.000 A13.67699
G1 X103.173 Y109.352 A13.68579
G1 X103.173 Y108.500 A13.70615
G1 X103.492 Y108.315 A13.71495
G1 X103.812 Y108.500 A13.72376
G1 X103.812 Y109.268 A13.74212
G1 X103.812 Y109.352 A13.74411
G0 X113.173 Y109.352 F1800.000 A12.74411
G0 A13.74411
G1 X113.173 Y108.500 F540.000 A13.76447
G1 X113.492 Y108.315 A13.77327
G1 X113.812 Y108.500 A13.78208
G1 X113.812 Y109.352 A13.80243
G1 X113.492 Y109.536 A13.81124
G1 X113.245 Y109.394 A13.81805
G1 X113.173 Y109.352 A13.82005
G0 X118.173 Y109.352 F1800.000 A12.82005
G0 A13.82005
G1 X118.173 Y108.500 F540.000 A13.84040
G1 X118.492 Y108.315 A13.84921
G1 X118.812 Y108.500 A13.85801
G1 X118.812 Y109.352 A13.87837
G1 X118.492 Y109.536 A13.88717
G1 X118.245 Y109.394 A13.89398
G1 X118.173 Y109.352 A13.89598
G0 X108.812 Y109.352 F1800.000 A12.89598
G0 A13.89598
G1 X108.492 Y109.536 F540.000 A13.90479
G1 X108.173 Y109.352 A13.91359
G1 X108.173 Y108.500 A13.93395
G1 X108.492 Y108.315 A13.94275
