; generated by Slic3r 0.9.8 on 2013-03-23 at 18:07:39

; layer_height = 0.3
; perimeters = 5
; top_solid_layers = 3
; bottom_solid_layers = 3
; fill_density = 1
; perimeter_speed = 30
; infill_speed = 60
; travel_speed = 130
; scale = 1
; nozzle_diameter = 0.4
; filament_diameter = 3
; extrusion_multiplier = 1.01
; perimeters extrusion width = 0.42mm
; infill extrusion width = 0.42mm
; first layer extrusion width = 0.60mm

M190 P115 ; wait for bed temperature to be reached
M104 P235 ; set temperature
G40                        ; Cancel cutter compensation
G64 P0.5                ; Path Blend within .1mm
G0 X108.5 Y108.5  ; Move to center
M109 P235 ; wait for temperature to be reached
G90 ; use absolute coordinates
G21 ; set units to millimeters
G0 Z0.300 F1800.000 A-1.00000
G0 X136.027 Y127.051 F7800.000
G0 F1800.000 A0.00000
G1 X135.517 Y127.281 F540.000 A0.01336
G1 X134.997 Y127.481 A0.02666
G1 X134.727 Y127.561 A0.03339
G1 X133.907 Y127.741 A0.05344
G1 X133.077 Y127.821 A0.07335
G1 X102.817 Y127.821 A0.79595
G1 X101.607 Y127.771 A0.82486
G1 X100.937 Y127.711 A0.84093
G1 X99.767 Y127.551 A0.86913
G1 X99.057 Y127.421 A0.88636
G1 X97.937 Y127.151 A0.91387
G1 X97.357 Y126.981 A0.92831
G1 X96.277 Y126.621 A0.95549
G1 X95.627 Y126.371 A0.97212
G1 X94.597 Y125.911 A0.99906
G1 X93.987 Y125.601 A1.01540
G1 X93.017 Y125.051 A1.04203
G1 X92.417 Y124.671 A1.05899
G1 X91.497 Y124.021 A1.08589
G1 X90.967 Y123.611 A1.10189
G1 X90.117 Y122.881 A1.12864
G1 X89.637 Y122.421 A1.14452
G1 X88.847 Y121.601 A1.17171
G1 X88.377 Y121.071 A1.18863
G1 X87.667 Y120.171 A1.21600
G1 X87.287 Y119.631 A1.23177
G1 X86.657 Y118.661 A1.25939
G1 X86.397 Y118.221 A1.27159
G1 X85.697 Y116.911 A1.30706
G1 X85.327 Y116.081 A1.32876
G1 X85.137 Y115.611 A1.34087
G1 X84.727 Y114.481 A1.36957
G1 X84.537 Y113.861 A1.38506
G1 X84.237 Y112.721 A1.41321
G1 X84.087 Y112.021 A1.43030
G1 X83.907 Y110.881 A1.45786
G1 X83.837 Y110.271 A1.47252
G1 X83.757 Y109.141 A1.49957
G1 X83.747 Y108.451 A1.51605
G1 X83.777 Y107.321 A1.54305
G1 X83.827 Y106.621 A1.55981
G1 X83.967 Y105.511 A1.58652
G1 X84.077 Y104.871 A1.60203
G1 X84.317 Y103.781 A1.62868
G1 X84.507 Y103.101 A1.64554
G1 X84.857 Y102.031 A1.67242
G1 X85.107 Y101.361 A1.68950
G1 X85.567 Y100.321 A1.71666
G1 X85.867 Y99.721 A1.73268
G1 X86.427 Y98.721 A1.76005
G1 X86.777 Y98.171 A1.77561
G1 X87.437 Y97.211 A1.80343
G1 X88.337 Y96.071 A1.83812
G1 X89.247 Y95.061 A1.87058
G1 X89.677 Y94.631 A1.88510
G1 X90.567 Y93.821 A1.91384
G1 X91.067 Y93.401 A1.92943
G1 X92.007 Y92.691 A1.95756
G1 X92.537 Y92.331 A1.97286
G1 X93.517 Y91.721 A2.00043
G1 X94.097 Y91.401 A2.01625
G1 X95.117 Y90.891 A2.04348
G1 X95.767 Y90.601 A2.06047
G1 X96.817 Y90.201 A2.08731
G1 X97.457 Y89.991 A2.10339
G1 X98.547 Y89.691 A2.13039
G1 X99.227 Y89.541 A2.14702
G1 X100.327 Y89.351 A2.17367
G1 X101.027 Y89.261 A2.19053
G1 X102.147 Y89.181 A2.21734
G1 X102.787 Y89.171 A2.23262
G1 X103.917 Y89.191 A2.25961
G1 X104.597 Y89.231 A2.27588
G1 X105.737 Y89.361 A2.30328
G1 X106.397 Y89.471 A2.31926
G1 X108.077 Y89.841 A2.36033
G1 X108.927 Y90.091 A2.38149
G1 X110.277 Y90.581 A2.41579
G1 X110.837 Y90.821 A2.43034
G1 X111.987 Y91.371 A2.46078
G1 X112.527 Y91.661 A2.47541
G1 X113.597 Y92.291 A2.50506
G1 X114.097 Y92.621 A2.51937
G1 X137.137 Y108.951 A3.19374
G1 X137.357 Y109.131 A3.20052
G1 X137.777 Y109.511 A3.21405
G1 X138.167 Y109.921 A3.22756
G1 X138.687 Y110.591 A3.24781
G1 X138.987 Y111.071 A3.26133
G1 X139.357 Y111.841 A3.28173
G1 X139.557 Y112.371 A3.29526
G1 X139.707 Y112.911 A3.30864
G1 X139.817 Y113.461 A3.32204
G1 X139.907 Y114.311 A3.34245
G1 X139.907 Y120.991 A3.50196
G1 X139.827 Y121.821 A3.52188
G1 X139.717 Y122.371 A3.53527
G1 X139.567 Y122.911 A3.54865
G1 X139.257 Y123.691 A3.56870
G1 X138.867 Y124.431 A3.58867
G1 X138.557 Y124.891 A3.60192
G1 X138.207 Y125.331 A3.61534
G1 X137.627 Y125.931 A3.63527
G1 X136.977 Y126.471 A3.65545
G1 X136.517 Y126.781 A3.66870
G1 X136.101 Y127.012 A3.68006
G1 X136.027 Y127.051 A3.68206
G0 X135.847 Y126.521 F7800.000
G1 X135.127 Y126.841 F540.000 A3.70087
G1 X134.367 Y127.081 A3.71990
G1 X133.587 Y127.221 A3.73883
G1 X133.327 Y127.251 A3.74508
G1 X132.797 Y127.271 A3.75774
G1 X103.107 Y127.271 A4.46673
G1 X101.627 Y127.211 A4.50210
G1 X101.007 Y127.161 A4.51695
G1 X99.837 Y127.001 A4.54515
G1 X99.187 Y126.871 A4.56098
G1 X98.067 Y126.601 A4.58849
G1 X97.537 Y126.451 A4.60165
G1 X96.457 Y126.091 A4.62883
G1 X95.857 Y125.861 A4.64417
G1 X94.827 Y125.401 A4.67111
G1 X94.267 Y125.111 A4.68617
G1 X93.297 Y124.561 A4.71280
G1 X92.747 Y124.221 A4.72824
G1 X91.827 Y123.571 A4.75514
G1 X91.337 Y123.181 A4.77009
G1 X90.487 Y122.451 A4.79685
G1 X90.037 Y122.031 A4.81155
G1 X89.247 Y121.211 A4.83874
G1 X88.817 Y120.721 A4.85431
G1 X88.107 Y119.821 A4.88168
G1 X87.757 Y119.331 A4.89606
G1 X86.887 Y117.961 A4.93481
G1 X86.457 Y117.181 A4.95608
G1 X86.207 Y116.681 A4.96943
G1 X85.837 Y115.851 A4.99113
G1 X85.257 Y114.291 A5.03088
G1 X85.077 Y113.721 A5.04515
G1 X84.777 Y112.581 A5.07330
G1 X84.637 Y111.931 A5.08918
G1 X84.457 Y110.791 A5.11674
G1 X84.397 Y110.231 A5.13019
G1 X84.317 Y109.101 A5.15724
G1 X84.307 Y108.471 A5.17228
G1 X84.337 Y107.341 A5.19928
G1 X84.377 Y106.691 A5.21483
G1 X84.517 Y105.581 A5.24155
G1 X84.627 Y104.991 A5.25588
G1 X84.867 Y103.901 A5.28253
G1 X85.037 Y103.271 A5.29811
G1 X85.387 Y102.201 A5.32500
G1 X85.617 Y101.591 A5.34056
G1 X86.077 Y100.551 A5.36772
G1 X86.357 Y100.001 A5.38246
G1 X86.917 Y99.001 A5.40983
G1 X87.237 Y98.491 A5.42420
G1 X88.207 Y97.111 A5.46448
G1 X88.767 Y96.421 A5.48570
G1 X89.037 Y96.101 A5.49570
G1 X89.647 Y95.441 A5.51716
G1 X90.057 Y95.041 A5.53084
G1 X90.947 Y94.231 A5.55958
G1 X91.407 Y93.851 A5.57383
G1 X92.827 Y92.801 A5.61600
G1 X93.807 Y92.191 A5.64356
G1 X95.367 Y91.391 A5.68543
G1 X95.967 Y91.121 A5.70114
G1 X97.017 Y90.721 A5.72797
G1 X97.607 Y90.531 A5.74277
G1 X98.697 Y90.231 A5.76977
G1 X99.317 Y90.091 A5.78495
G1 X100.417 Y89.901 A5.81160
G1 X101.067 Y89.821 A5.82724
G1 X102.187 Y89.741 A5.85406
G1 X102.777 Y89.721 A5.86815
G1 X103.907 Y89.741 A5.89514
G1 X104.527 Y89.791 A5.91000
G1 X105.667 Y89.921 A5.93739
G1 X106.277 Y90.011 A5.95212
G1 X107.417 Y90.251 A5.97994
G1 X107.917 Y90.381 A5.99228
G1 X109.227 Y90.781 A6.02498
G1 X110.077 Y91.101 A6.04667
G1 X110.597 Y91.321 A6.06015
G1 X111.747 Y91.871 A6.09060
G1 X112.247 Y92.141 A6.10416
G1 X113.317 Y92.771 A6.13382
G1 X113.777 Y93.071 A6.14693
G1 X136.587 Y109.241 A6.81461
G1 X137.017 Y109.571 A6.82755
G1 X137.227 Y109.751 A6.83415
G1 X137.787 Y110.341 A6.85358
G1 X138.127 Y110.771 A6.86667
G1 X138.427 Y111.221 A6.87958
G1 X138.687 Y111.701 A6.89262
G1 X138.907 Y112.201 A6.90566
G1 X139.157 Y112.971 A6.92500
G1 X139.217 Y113.241 A6.93160
G1 X139.307 Y113.781 A6.94467
G1 X139.357 Y114.591 A6.96405
G1 X139.357 Y120.711 A7.11020
G1 X139.337 Y121.241 A7.12286
G1 X139.267 Y121.761 A7.13539
G1 X139.167 Y122.281 A7.14804
G1 X139.017 Y122.791 A7.16073
G1 X138.827 Y123.281 A7.17328
G1 X138.607 Y123.761 A7.18589
G1 X138.197 Y124.431 A7.20465
G1 X137.707 Y125.061 A7.22371
G1 X137.147 Y125.621 A7.24262
G1 X136.517 Y126.111 A7.26168
G1 X135.920 Y126.480 A7.27844
G1 X135.847 Y126.521 A7.28044
G0 X94.080 Y104.196 F1800.000 A6.28044
G0 A7.28044
G1 X94.535 Y103.379 F540.000 A7.30277
G1 X95.084 Y102.578 A7.32596
G1 X95.539 Y102.019 A7.34316
G1 X96.043 Y101.480 A7.36079
G1 X96.791 Y100.796 A7.38499
G1 X97.564 Y100.211 A7.40814
G1 X98.367 Y99.713 A7.43071
G1 X99.198 Y99.302 A7.45283
G1 X100.051 Y98.976 A7.47466
G1 X100.926 Y98.735 A7.49631
G1 X101.818 Y98.580 A7.51794
G1 X102.725 Y98.511 A7.53966
G1 X103.644 Y98.529 A7.56162
G1 X104.573 Y98.636 A7.58395
G1 X105.523 Y98.838 A7.60714
G1 X106.213 Y99.044 A7.62434
G1 X106.901 Y99.302 A7.64189
G1 X107.874 Y99.761 A7.66758
G1 X108.754 Y100.286 A7.69205
G1 X109.557 Y100.880 A7.71589
G1 X110.281 Y101.539 A7.73927
G1 X110.926 Y102.258 A7.76234
G1 X111.492 Y103.034 A7.78526
G1 X111.975 Y103.864 A7.80820
G1 X112.375 Y104.746 A7.83132
G1 X112.688 Y105.677 A7.85478
G1 X112.907 Y106.638 A7.87831
G1 X113.244 Y109.573 A7.94887
G1 X113.569 Y110.973 A7.98319
G1 X113.952 Y112.120 A8.01206
G1 X114.349 Y113.011 A8.03537
G1 X114.840 Y113.859 A8.05876
G1 X115.268 Y114.445 A8.07610
G1 X115.753 Y114.988 A8.09348
G1 X116.315 Y115.493 A8.11152
G1 X116.957 Y115.942 A8.13022
G1 X117.676 Y116.314 A8.14955
G1 X118.459 Y116.593 A8.16942
G1 X119.293 Y116.767 A8.18975
G1 X120.097 Y116.827 A8.20901
G1 X130.574 Y116.827 A8.45920
G1 X130.574 Y118.491 A8.49894
G1 X103.160 Y118.491 A9.15359
G1 X102.105 Y118.443 A9.17882
G1 X101.144 Y118.311 A9.20197
G1 X100.224 Y118.095 A9.22453
G1 X99.346 Y117.799 A9.24666
G1 X98.512 Y117.425 A9.26849
G1 X97.724 Y116.977 A9.29014
G1 X96.983 Y116.456 A9.31176
G1 X96.293 Y115.864 A9.33349
G1 X95.656 Y115.201 A9.35544
G1 X95.074 Y114.468 A9.37778
G1 X94.545 Y113.654 A9.40097
G1 X94.203 Y113.020 A9.41817
G1 X93.897 Y112.348 A9.43580
G1 X93.552 Y111.395 A9.46000
G1 X93.307 Y110.457 A9.48315
G1 X93.155 Y109.524 A9.50572
G1 X93.092 Y108.600 A9.52784
G1 X93.118 Y107.686 A9.54967
G1 X93.230 Y106.786 A9.57132
G1 X93.428 Y105.903 A9.59295
G1 X93.711 Y105.038 A9.61467
G1 X94.047 Y104.272 A9.63463
G1 X94.080 Y104.196 A9.63663
G0 X93.580 Y103.948 F7800.000
G1 X94.061 Y103.085 F540.000 A9.66022
G1 X94.638 Y102.244 A9.68457
G1 X95.119 Y101.653 A9.70277
G1 X95.651 Y101.083 A9.72139
G1 X96.434 Y100.368 A9.74673
G1 X97.248 Y99.751 A9.77111
G1 X98.096 Y99.226 A9.79493
G1 X98.974 Y98.791 A9.81832
G1 X99.878 Y98.446 A9.84142
G1 X100.804 Y98.191 A9.86436
G1 X101.749 Y98.027 A9.88726
G1 X102.709 Y97.953 A9.91026
G1 X103.682 Y97.973 A9.93349
G1 X104.663 Y98.086 A9.95708
G1 X105.661 Y98.297 A9.98144
G1 X106.391 Y98.515 A9.99964
G1 X107.118 Y98.788 A10.01819
G1 X108.137 Y99.268 A10.04507
G1 X109.064 Y99.822 A10.07085
G1 X109.911 Y100.449 A10.09603
G1 X110.677 Y101.146 A10.12074
G1 X111.360 Y101.907 A10.14517
G1 X111.959 Y102.729 A10.16945
G1 X112.471 Y103.608 A10.19375
G1 X112.894 Y104.541 A10.21822
G1 X113.225 Y105.526 A10.24302
G1 X113.457 Y106.545 A10.26797
G1 X113.793 Y109.478 A10.33848
G1 X114.105 Y110.822 A10.37142
G1 X114.471 Y111.917 A10.39900
G1 X114.846 Y112.758 A10.42098
G1 X115.307 Y113.554 A10.44296
G1 X115.702 Y114.095 A10.45894
G1 X116.148 Y114.594 A10.47493
G1 X116.662 Y115.056 A10.49142
G1 X117.246 Y115.464 A10.50844
G1 X117.898 Y115.802 A10.52599
G1 X118.610 Y116.056 A10.54404
G1 X119.370 Y116.214 A10.56258
G1 X120.118 Y116.270 A10.58048
G1 X131.131 Y116.270 A10.84348
G1 X131.131 Y119.048 A10.90982
G1 X103.147 Y119.048 A11.57808
G1 X102.054 Y118.999 A11.60422
G1 X101.042 Y118.859 A11.62860
G1 X100.071 Y118.631 A11.65242
G1 X99.143 Y118.318 A11.67581
G1 X98.260 Y117.923 A11.69891
G1 X97.425 Y117.448 A11.72185
G1 X96.641 Y116.896 A11.74475
G1 X95.910 Y116.269 A11.76775
G1 X95.236 Y115.568 A11.79098
G1 X94.622 Y114.794 A11.81457
G1 X94.066 Y113.938 A11.83893
G1 X93.704 Y113.268 A11.85713
G1 X93.381 Y112.558 A11.87574
G1 X93.020 Y111.561 A11.90108
G1 X92.762 Y110.573 A11.92546
G1 X92.601 Y109.588 A11.94928
G1 X92.535 Y108.611 A11.97268
G1 X92.562 Y107.644 A11.99578
G1 X92.681 Y106.691 A12.01871
G1 X92.890 Y105.755 A12.04162
G1 X93.190 Y104.840 A12.06462
G1 X93.547 Y104.025 A12.08585
G1 X93.580 Y103.948 A12.08785
G0 X93.081 Y103.701 F7800.000
G1 X93.586 Y102.791 F540.000 A12.11270
G1 X94.191 Y101.910 A12.13822
G1 X94.699 Y101.287 A12.15741
G1 X95.259 Y100.687 A12.17701
G1 X96.078 Y99.939 A12.20349
G1 X96.933 Y99.291 A12.22911
G1 X97.825 Y98.738 A12.25418
G1 X98.750 Y98.280 A12.27884
G1 X99.704 Y97.916 A12.30321
G1 X100.682 Y97.647 A12.32743
G1 X101.680 Y97.473 A12.35161
G1 X102.693 Y97.396 A12.37589
G1 X103.719 Y97.416 A12.40039
G1 X104.753 Y97.535 A12.42524
G1 X105.799 Y97.757 A12.45077
G1 X106.569 Y97.987 A12.46996
G1 X107.335 Y98.275 A12.48951
G1 X108.399 Y98.776 A12.51759
G1 X109.373 Y99.358 A12.54468
G1 X110.265 Y100.018 A12.57119
G1 X111.072 Y100.752 A12.59725
G1 X111.793 Y101.556 A12.62302
G1 X112.426 Y102.424 A12.64867
G1 X112.966 Y103.352 A12.67432
G1 X113.413 Y104.337 A12.70015
G1 X113.762 Y105.375 A12.72629
G1 X114.007 Y106.452 A12.75266
G1 X114.343 Y109.383 A12.82312
G1 X114.642 Y110.670 A12.85467
G1 X114.991 Y111.715 A12.88098
G1 X115.343 Y112.504 A12.90161
G1 X115.775 Y113.250 A12.92219
G1 X116.136 Y113.745 A12.93681
G1 X116.543 Y114.201 A12.95141
G1 X117.008 Y114.619 A12.96635
G1 X117.535 Y114.986 A12.98169
G1 X118.121 Y115.290 A12.99746
G1 X118.761 Y115.518 A13.01369
G1 X119.448 Y115.662 A13.03044
G1 X120.138 Y115.713 A13.04697
G1 X131.689 Y115.713 A13.32278
G1 X131.689 Y119.605 A13.41573
G1 X103.135 Y119.605 A14.09759
G1 X102.003 Y119.554 A14.12464
G1 X100.940 Y119.407 A14.15026
G1 X99.918 Y119.167 A14.17533
G1 X98.940 Y118.837 A14.19999
G1 X98.008 Y118.420 A14.22436
G1 X97.126 Y117.919 A14.24858
G1 X96.298 Y117.337 A14.27276
G1 X95.527 Y116.674 A14.29704
G1 X94.816 Y115.935 A14.32154
G1 X94.169 Y115.119 A14.34639
G1 X93.586 Y114.223 A14.37192
G1 X93.204 Y113.516 A14.39111
G1 X92.865 Y112.769 A14.41071
G1 X92.487 Y111.726 A14.43719
G1 X92.216 Y110.688 A14.46280
G1 X92.047 Y109.652 A14.48788
G1 X91.977 Y108.622 A14.51254
G1 X92.006 Y107.601 A14.53691
G1 X92.131 Y106.595 A14.56113
G1 X92.353 Y105.607 A14.58531
G1 X92.669 Y104.641 A14.60959
G1 X93.047 Y103.777 A14.63210
G1 X93.081 Y103.701 A14.63409
G0 X92.581 Y103.453 F7800.000
G1 X93.112 Y102.498 F540.000 A14.66020
G1 X93.745 Y101.576 A14.68689
G1 X94.279 Y100.920 A14.70708
G1 X94.867 Y100.290 A14.72766
G1 X95.721 Y99.511 A14.75528
G1 X96.617 Y98.832 A14.78213
G1 X97.554 Y98.251 A14.80845
G1 X98.527 Y97.769 A14.83438
G1 X99.530 Y97.386 A14.86003
G1 X100.560 Y97.102 A14.88553
G1 X101.611 Y96.920 A14.91099
G1 X102.678 Y96.838 A14.93655
G1 X103.757 Y96.860 A14.96232
G1 X104.843 Y96.985 A14.98843
G1 X105.936 Y97.217 A15.01512
G1 X106.747 Y97.459 A15.03531
G1 X107.552 Y97.761 A15.05587
G1 X108.661 Y98.284 A15.08514
G1 X109.682 Y98.894 A15.11354
G1 X110.619 Y99.587 A15.14137
G1 X111.468 Y100.359 A15.16878
G1 X112.227 Y101.205 A15.19591
G1 X112.893 Y102.119 A15.22291
G1 X113.462 Y103.096 A15.24993
G1 X113.932 Y104.133 A15.27710
G1 X114.299 Y105.224 A15.30458
G1 X114.557 Y106.359 A15.33238
G1 X114.893 Y109.288 A15.40279
G1 X115.179 Y110.518 A15.43295
G1 X115.511 Y111.512 A15.45798
G1 X115.840 Y112.250 A15.47727
G1 X116.242 Y112.945 A15.49645
G1 X116.570 Y113.394 A15.50971
G1 X116.938 Y113.807 A15.52292
G1 X117.355 Y114.181 A15.53631
G1 X117.824 Y114.509 A15.54996
G1 X118.344 Y114.778 A15.56395
G1 X118.913 Y114.981 A15.57836
G1 X119.526 Y115.109 A15.59333
G1 X120.159 Y115.156 A15.60848
G1 X132.246 Y115.156 A15.89711
G1 X132.246 Y120.162 A16.01667
G1 X103.122 Y120.162 A16.71213
G1 X101.952 Y120.109 A16.74009
G1 X100.838 Y119.956 A16.76694
G1 X99.765 Y119.704 A16.79326
G1 X98.736 Y119.357 A16.81919
G1 X97.756 Y118.918 A16.84484
G1 X96.828 Y118.390 A16.87034
G1 X95.956 Y117.777 A16.89580
G1 X95.143 Y117.080 A16.92136
G1 X94.396 Y116.301 A16.94713
G1 X93.716 Y115.445 A16.97324
G1 X93.107 Y114.508 A16.99993
G1 X92.705 Y113.764 A17.02012
G1 X92.348 Y112.979 A17.04070
G1 X91.955 Y111.892 A17.06832
G1 X91.670 Y110.804 A17.09517
G1 X91.493 Y109.716 A17.12150
G1 X91.419 Y108.633 A17.14742
G1 X91.450 Y107.559 A17.17307
G1 X91.582 Y106.500 A17.19857
G1 X91.815 Y105.459 A17.22403
G1 X92.148 Y104.442 A17.24959
G1 X92.547 Y103.530 A17.27337
G1 X92.581 Y103.453 A17.27536
G0 X92.081 Y103.205 F7800.000
G1 X92.638 Y102.204 F540.000 A17.30273
G1 X93.298 Y101.242 A17.33059
G1 X93.858 Y100.554 A17.35178
G1 X94.475 Y99.894 A17.37334
G1 X95.364 Y99.082 A17.40210
G1 X96.302 Y98.372 A17.43018
G1 X97.283 Y97.764 A17.45776
